uscmakers/ReverseChoreography/data/5_humble_kendrick_lamar.csv
,NOSE,LEFT_EYE_INNER,LEFT_EYE,LEFT_EYE_OUTER,RIGHT_EYE_INNER,RIGHT_EYE,RIGHT_EYE_OUTER,LEFT_EAR,RIGHT_EAR,MOUTH_LEFT,MOUTH_RIGHT,LEFT_SHOULDER,RIGHT_SHOULDER,LEFT_ELBOW,RIGHT_ELBOW,LEFT_WRIST,RIGHT_WRIST,LEFT_PINKY,RIGHT_PINKY,LEFT_INDEX,RIGHT_INDEX,LEFT_THUMB,RIGHT_THUMB,LEFT_HIP,RIGHT_HIP,LEFT_KNEE,RIGHT_KNEE,LEFT_ANKLE,RIGHT_ANKLE,LEFT_HEEL,RIGHT_HEEL,LEFT_FOOT_INDEX,RIGHT_FOOT_INDEX,WRIST2,THUMB_CPC2,THUMB_MCP2,THUMB_IP2,THUMB_TIP2,INDEX_FINGER_MCP2,INDEX_FINGER_PIP2,INDEX_FINGER_DIP2,INDEX_FINGER_TIP2,MIDDLE_FINGER_MCP2,MIDDLE_FINGER_PIP2,MIDDLE_FINGER_DIP2,MIDDLE_FINGER_TIP2,RING_FINGER_PIP2,RING_FINGER_DIP2,RING_FINGER_TIP2,RING_FINGER_MCP2,PINKY_MCP2,PINKY_PIP2,PINKY_DIP2,PINKY_TIP2,WRIST,THUMB_CPC,THUMB_MCP,THUMB_IP,THUMB_TIP,INDEX_FINGER_MCP,INDEX_FINGER_PIP,INDEX_FINGER_DIP,INDEX_FINGER_TIP,MIDDLE_FINGER_MCP,MIDDLE_FINGER_PIP,MIDDLE_FINGER_DIP,MIDDLE_FINGER_TIP,RING_FINGER_PIP,RING_FINGER_DIP,RING_FINGER_TIP,RING_FINGER_MCP,PINKY_MCP,PINKY_PIP,PINKY_DIP,PINKY_TIP
0,"x: 239.1240997314453
y: 253.4663543701172
z: -0.3114033043384552
visibility: 0.9999392032623291
","x: 242.1108856201172
y: 247.330322265625
z: -0.30938753485679626
visibility: 0.9997536540031433
","x: 243.1611785888672
y: 247.005126953125
z: -0.30940690636634827
visibility: 0.9997957348823547
","x: 244.1915740966797
y: 246.66360473632812
z: -0.3094940483570099
visibility: 0.9997608065605164
","x: 239.28126525878906
y: 246.2690887451172
z: -0.3048876225948334
visibility: 0.9996155500411987
","x: 238.3528289794922
y: 245.1984405517578
z: -0.3048776686191559
visibility: 0.9994733929634094
","x: 237.53199768066406
y: 244.1806640625
z: -0.3048992455005646
visibility: 0.9993114471435547
","x: 245.02833557128906
y: 245.5097198486328
z: -0.2206590473651886
visibility: 0.9998419284820557
","x: 235.21487426757812
y: 242.12115478515625
z: -0.19850163161754608
visibility: 0.9996864795684814
","x: 240.1576690673828
y: 257.3611755371094
z: -0.27079251408576965
visibility: 0.9999691247940063
","x: 236.80690002441406
y: 256.2958068847656
z: -0.26478374004364014
visibility: 0.9999533891677856
","x: 255.45985412597656
y: 278.2523193359375
z: -0.13524778187274933
visibility: 0.9999973773956299
","x: 218.6334686279297
y: 262.14520263671875
z: -0.07968587428331375
visibility: 0.9999932050704956
","x: 272.24298095703125
y: 321.00164794921875
z: -0.23699530959129333
visibility: 0.9984641075134277
","x: 195.72203063964844
y: 292.4765319824219
z: -0.020156189799308777
visibility: 0.9904986023902893
","x: 283.81243896484375
y: 287.1326904296875
z: -0.43516969680786133
visibility: 0.9974442720413208
","x: 173.76260375976562
y: 320.00384521484375
z: -0.0737050324678421
visibility: 0.9827127456665039
","x: 287.15521240234375
y: 277.986083984375
z: -0.47109514474868774
visibility: 0.9904780387878418
","x: 166.5497589111328
y: 325.4597473144531
z: -0.08064282685518265
visibility: 0.9510678648948669
","x: 284.6459655761719
y: 272.5119323730469
z: -0.47314032912254333
visibility: 0.9905763864517212
","x: 166.6088104248047
y: 328.32220458984375
z: -0.111334428191185
visibility: 0.9575151205062866
","x: 282.75396728515625
y: 275.8006591796875
z: -0.4414129853248596
visibility: 0.9856042861938477
","x: 169.4456329345703
y: 327.82855224609375
z: -0.08816863596439362
visibility: 0.9550005197525024
","x: 243.25250244140625
y: 375.03240966796875
z: -0.01569061167538166
visibility: 0.9998102784156799
","x: 219.442626953125
y: 372.8152770996094
z: 0.01573961228132248
visibility: 0.9998058676719666
","x: 242.63400268554688
y: 451.4404296875
z: -0.0746091902256012
visibility: 0.9963051080703735
","x: 213.7232208251953
y: 452.4918212890625
z: -0.016761740669608116
visibility: 0.9949724674224854
","x: 241.75057983398438
y: 523.5810546875
z: 0.07221708446741104
visibility: 0.9956186413764954
","x: 216.1685028076172
y: 519.4556274414062
z: 0.13061635196208954
visibility: 0.9947485327720642
","x: 239.5974884033203
y: 533.1175537109375
z: 0.08119463920593262
visibility: 0.9345378279685974
","x: 220.90750122070312
y: 531.3983154296875
z: 0.13881731033325195
visibility: 0.9533153772354126
","x: 241.9105682373047
y: 546.324462890625
z: -0.03503836691379547
visibility: 0.9942836165428162
","x: 204.5577850341797
y: 540.9026489257812
z: 0.03003850020468235
visibility: 0.9932653903961182
","x: 282.169677734375
y: 283.3546142578125
z: 0.0
","x: 280.17987060546875
y: 278.135009765625
z: -0.0009538790327496827
","x: 279.5180358886719
y: 271.2721252441406
z: -0.002142789773643017
","x: 279.72637939453125
y: 265.96087646484375
z: -0.003927663899958134
","x: 279.7859191894531
y: 261.5975341796875
z: -0.005528433248400688
","x: 282.1839904785156
y: 266.4754333496094
z: 8.460491517325863e-05
","x: 282.7063293457031
y: 260.4526062011719
z: -0.0025562532246112823
","x: 282.91632080078125
y: 256.8938903808594
z: -0.004139103926718235
","x: 283.1155090332031
y: 254.11920166015625
z: -0.0050643812865018845
","x: 284.06671142578125
y: 268.38916015625
z: -0.0015503085451200604
","x: 284.8217468261719
y: 262.4771728515625
z: -0.005171272903680801
","x: 283.46307373046875
y: 264.57080078125
z: -0.005704366136342287
","x: 282.7264099121094
y: 267.2484130859375
z: -0.005002008285373449
","x: 285.7420349121094
y: 271.2054748535156
z: -0.0037173237651586533
","x: 286.0805969238281
y: 266.7001953125
z: -0.006912305485457182
","x: 284.4322204589844
y: 269.2847595214844
z: -0.0059701851569116116
","x: 283.8253173828125
y: 271.64251708984375
z: -0.004422688856720924
","x: 287.29241943359375
y: 274.9800720214844
z: -0.006280379369854927
","x: 287.10577392578125
y: 271.31329345703125
z: -0.008096699602901936
","x: 285.633056640625
y: 272.8763732910156
z: -0.00737849110737443
","x: 285.0326232910156
y: 274.76507568359375
z: -0.006225431803613901
",,,,,,,,,,,,,,,,,,,,,
1,"x: 239.1240997314453
y: 253.4663543701172
z: -0.3114033043384552
visibility: 0.9999392032623291
","x: 242.1108856201172
y: 247.330322265625
z: -0.30938753485679626
visibility: 0.9997536540031433
","x: 243.1611785888672
y: 247.005126953125
z: -0.30940690636634827
visibility: 0.9997957348823547
","x: 244.1915740966797
y: 246.66360473632812
z: -0.3094940483570099
visibility: 0.9997608065605164
","x: 239.28126525878906
y: 246.2690887451172
z: -0.3048876225948334
visibility: 0.9996155500411987
","x: 238.3528289794922
y: 245.1984405517578
z: -0.3048776686191559
visibility: 0.9994733929634094
","x: 237.53199768066406
y: 244.1806640625
z: -0.3048992455005646
visibility: 0.9993114471435547
","x: 245.02833557128906
y: 245.5097198486328
z: -0.2206590473651886
visibility: 0.9998419284820557
","x: 235.21487426757812
y: 242.12115478515625
z: -0.19850163161754608
visibility: 0.9996864795684814
","x: 240.1576690673828
y: 257.3611755371094
z: -0.27079251408576965
visibility: 0.9999691247940063
","x: 236.80690002441406
y: 256.2958068847656
z: -0.26478374004364014
visibility: 0.9999533891677856
","x: 255.45985412597656
y: 278.2523193359375
z: -0.13524778187274933
visibility: 0.9999973773956299
","x: 218.6334686279297
y: 262.14520263671875
z: -0.07968587428331375
visibility: 0.9999932050704956
","x: 272.24298095703125
y: 321.00164794921875
z: -0.23699530959129333
visibility: 0.9984641075134277
","x: 195.72203063964844
y: 292.4765319824219
z: -0.020156189799308777
visibility: 0.9904986023902893
","x: 283.81243896484375
y: 287.1326904296875
z: -0.43516969680786133
visibility: 0.9974442720413208
","x: 173.76260375976562
y: 320.00384521484375
z: -0.0737050324678421
visibility: 0.9827127456665039
","x: 287.15521240234375
y: 277.986083984375
z: -0.47109514474868774
visibility: 0.9904780387878418
","x: 166.5497589111328
y: 325.4597473144531
z: -0.08064282685518265
visibility: 0.9510678648948669
","x: 284.6459655761719
y: 272.5119323730469
z: -0.47314032912254333
visibility: 0.9905763864517212
","x: 166.6088104248047
y: 328.32220458984375
z: -0.111334428191185
visibility: 0.9575151205062866
","x: 282.75396728515625
y: 275.8006591796875
z: -0.4414129853248596
visibility: 0.9856042861938477
","x: 169.4456329345703
y: 327.82855224609375
z: -0.08816863596439362
visibility: 0.9550005197525024
","x: 243.25250244140625
y: 375.03240966796875
z: -0.01569061167538166
visibility: 0.9998102784156799
","x: 219.442626953125
y: 372.8152770996094
z: 0.01573961228132248
visibility: 0.9998058676719666
","x: 242.63400268554688
y: 451.4404296875
z: -0.0746091902256012
visibility: 0.9963051080703735
","x: 213.7232208251953
y: 452.4918212890625
z: -0.016761740669608116
visibility: 0.9949724674224854
","x: 241.75057983398438
y: 523.5810546875
z: 0.07221708446741104
visibility: 0.9956186413764954
","x: 216.1685028076172
y: 519.4556274414062
z: 0.13061635196208954
visibility: 0.9947485327720642
","x: 239.5974884033203
y: 533.1175537109375
z: 0.08119463920593262
visibility: 0.9345378279685974
","x: 220.90750122070312
y: 531.3983154296875
z: 0.13881731033325195
visibility: 0.9533153772354126
","x: 241.9105682373047
y: 546.324462890625
z: -0.03503836691379547
visibility: 0.9942836165428162
","x: 204.5577850341797
y: 540.9026489257812
z: 0.03003850020468235
visibility: 0.9932653903961182
","x: 282.169677734375
y: 283.3546142578125
z: 0.0
","x: 280.17987060546875
y: 278.135009765625
z: -0.0009538790327496827
","x: 279.5180358886719
y: 271.2721252441406
z: -0.002142789773643017
","x: 279.72637939453125
y: 265.96087646484375
z: -0.003927663899958134
","x: 279.7859191894531
y: 261.5975341796875
z: -0.005528433248400688
","x: 282.1839904785156
y: 266.4754333496094
z: 8.460491517325863e-05
","x: 282.7063293457031
y: 260.4526062011719
z: -0.0025562532246112823
","x: 282.91632080078125
y: 256.8938903808594
z: -0.004139103926718235
","x: 283.1155090332031
y: 254.11920166015625
z: -0.0050643812865018845
","x: 284.06671142578125
y: 268.38916015625
z: -0.0015503085451200604
","x: 284.8217468261719
y: 262.4771728515625
z: -0.005171272903680801
","x: 283.46307373046875
y: 264.57080078125
z: -0.005704366136342287
","x: 282.7264099121094
y: 267.2484130859375
z: -0.005002008285373449
","x: 285.7420349121094
y: 271.2054748535156
z: -0.0037173237651586533
","x: 286.0805969238281
y: 266.7001953125
z: -0.006912305485457182
","x: 284.4322204589844
y: 269.2847595214844
z: -0.0059701851569116116
","x: 283.8253173828125
y: 271.64251708984375
z: -0.004422688856720924
","x: 287.29241943359375
y: 274.9800720214844
z: -0.006280379369854927
","x: 287.10577392578125
y: 271.31329345703125
z: -0.008096699602901936
","x: 285.633056640625
y: 272.8763732910156
z: -0.00737849110737443
","x: 285.0326232910156
y: 274.76507568359375
z: -0.006225431803613901
",,,,,,,,,,,,,,,,,,,,,
2,"x: 221.88162231445312
y: 245.46949768066406
z: -0.24970266222953796
visibility: 0.999944269657135
","x: 223.88589477539062
y: 239.13616943359375
z: -0.2392682284116745
visibility: 0.9997718930244446
","x: 225.03021240234375
y: 238.81396484375
z: -0.23930692672729492
visibility: 0.9998104572296143
","x: 226.15127563476562
y: 238.48060607910156
z: -0.23931758105754852
visibility: 0.9997784495353699
","x: 220.82687377929688
y: 239.11822509765625
z: -0.23528337478637695
visibility: 0.9996470212936401
","x: 219.83009338378906
y: 238.79962158203125
z: -0.23528441786766052
visibility: 0.9995176196098328
","x: 218.84356689453125
y: 238.46963500976562
z: -0.23528072237968445
visibility: 0.9993699193000793
","x: 228.12547302246094
y: 239.34140014648438
z: -0.14933137595653534
visibility: 0.9998522400856018
","x: 218.41090393066406
y: 238.94195556640625
z: -0.12884275615215302
visibility: 0.9996981620788574
","x: 224.1332550048828
y: 250.673095703125
z: -0.21350345015525818
visibility: 0.9999702572822571
","x: 220.2573699951172
y: 250.64111328125
z: -0.20779529213905334
visibility: 0.9999542236328125
","x: 243.94912719726562
y: 274.0555114746094
z: -0.08732561767101288
visibility: 0.9999970197677612
","x: 207.35438537597656
y: 267.3538818359375
z: -0.04320070892572403
visibility: 0.9999908804893494
","x: 254.63209533691406
y: 319.39544677734375
z: -0.07134893536567688
visibility: 0.9983993768692017
","x: 195.7499542236328
y: 309.88653564453125
z: -0.03522021323442459
visibility: 0.9880086183547974
","x: 271.1629333496094
y: 348.06402587890625
z: -0.1902630627155304
visibility: 0.9973563551902771
","x: 181.2579345703125
y: 340.92840576171875
z: -0.18565033376216888
visibility: 0.9829362630844116
","x: 277.3871154785156
y: 357.7275085449219
z: -0.22001416981220245
visibility: 0.990531861782074
","x: 175.1124267578125
y: 348.84136962890625
z: -0.21929287910461426
visibility: 0.9530272483825684
","x: 277.7220764160156
y: 357.5085754394531
z: -0.2548063099384308
visibility: 0.9907784461975098
","x: 174.6822967529297
y: 348.01641845703125
z: -0.2521148920059204
visibility: 0.9592258334159851
","x: 275.23883056640625
y: 354.42559814453125
z: -0.20736686885356903
visibility: 0.986136794090271
","x: 177.4877166748047
y: 345.4734802246094
z: -0.203984335064888
visibility: 0.9567170143127441
","x: 235.86318969726562
y: 373.4770202636719
z: -0.021392352879047394
visibility: 0.999772310256958
","x: 215.04122924804688
y: 372.79296875
z: 0.02144462987780571
visibility: 0.9997944235801697
","x: 234.45742797851562
y: 446.8061828613281
z: -0.06509226560592651
visibility: 0.9961158633232117
","x: 209.76040649414062
y: 450.46893310546875
z: -0.029451439157128334
visibility: 0.9947660565376282
","x: 241.75283813476562
y: 519.0269775390625
z: 0.07476042211055756
visibility: 0.9952806830406189
","x: 216.4194793701172
y: 519.478271484375
z: 0.08795292675495148
visibility: 0.9947243332862854
","x: 240.77101135253906
y: 526.9573364257812
z: 0.08206517994403839
visibility: 0.9265039563179016
","x: 220.89532470703125
y: 530.9508666992188
z: 0.09190908819437027
visibility: 0.9542809724807739
","x: 240.69239807128906
y: 545.3223876953125
z: -0.03331959992647171
visibility: 0.9937968254089355
","x: 204.55825805664062
y: 540.4127197265625
z: -0.013990489766001701
visibility: 0.9931336045265198
",,,,,,,,,,,,,,,,,,,,,,,,,,,,,,,,,,,,,,,,,,
3,"x: 222.96939086914062
y: 246.04901123046875
z: -0.311793714761734
visibility: 0.9999476671218872
","x: 225.4089813232422
y: 240.09310913085938
z: -0.30126816034317017
visibility: 0.9997859597206116
","x: 226.7676239013672
y: 239.84483337402344
z: -0.30128970742225647
visibility: 0.9998205900192261
","x: 228.06808471679688
y: 239.59774780273438
z: -0.3012979030609131
visibility: 0.9997919797897339
","x: 221.76353454589844
y: 239.5958251953125
z: -0.30146822333335876
visibility: 0.9996728897094727
","x: 220.56166076660156
y: 239.05722045898438
z: -0.3015030324459076
visibility: 0.9995549321174622
","x: 219.27987670898438
y: 238.6998748779297
z: -0.3014771342277527
visibility: 0.9994215965270996
","x: 229.86671447753906
y: 240.18919372558594
z: -0.20024287700653076
visibility: 0.9998573660850525
","x: 217.5077362060547
y: 239.15748596191406
z: -0.20038819313049316
visibility: 0.9997060298919678
","x: 224.70570373535156
y: 251.51795959472656
z: -0.2713570296764374
visibility: 0.9999707937240601
","x: 220.477783203125
y: 250.8952178955078
z: -0.27051153779029846
visibility: 0.9999550580978394
","x: 243.2644805908203
y: 274.2548828125
z: -0.1342765986919403
visibility: 0.9999967813491821
","x: 204.2407989501953
y: 269.6612548828125
z: -0.08847270905971527
visibility: 0.9999881386756897
","x: 257.4294128417969
y: 318.6630554199219
z: -0.14287902414798737
visibility: 0.998414158821106
","x: 192.6016387939453
y: 317.9576721191406
z: -0.045146454125642776
visibility: 0.9877067804336548
","x: 254.82925415039062
y: 344.006591796875
z: -0.2835765480995178
visibility: 0.9971639513969421
","x: 178.42469787597656
y: 349.0232849121094
z: -0.15408284962177277
visibility: 0.9835466742515564
","x: 253.2323760986328
y: 353.4024658203125
z: -0.3202779293060303
visibility: 0.9900214672088623
","x: 171.59078979492188
y: 358.45355224609375
z: -0.18178224563598633
visibility: 0.9553854465484619
","x: 250.0430450439453
y: 349.7798156738281
z: -0.34194159507751465
visibility: 0.990344226360321
","x: 172.16293334960938
y: 356.9908142089844
z: -0.21833856403827667
visibility: 0.9612886309623718
","x: 249.66067504882812
y: 346.2912292480469
z: -0.29458707571029663
visibility: 0.9856149554252625
","x: 175.3784942626953
y: 353.62164306640625
z: -0.17163877189159393
visibility: 0.958623468875885
","x: 234.2601776123047
y: 373.31890869140625
z: -0.02149256318807602
visibility: 0.999728262424469
","x: 212.8845977783203
y: 372.8129577636719
z: 0.02150784060359001
visibility: 0.9997522830963135
","x: 233.53182983398438
y: 446.64044189453125
z: -0.05940045043826103
visibility: 0.9961004257202148
","x: 208.51080322265625
y: 450.4736328125
z: -0.017020493745803833
visibility: 0.9946269989013672
","x: 241.76026916503906
y: 519.0215454101562
z: 0.06650253385305405
visibility: 0.9952747225761414
","x: 216.53240966796875
y: 519.474365234375
z: 0.10471689701080322
visibility: 0.9947179555892944
","x: 240.9073486328125
y: 527.5359497070312
z: 0.07115722447633743
visibility: 0.9220649003982544
","x: 220.8349609375
y: 530.6980590820312
z: 0.11087753623723984
visibility: 0.9537674188613892
","x: 240.24862670898438
y: 545.328125
z: -0.045518018305301666
visibility: 0.9936099648475647
","x: 204.52606201171875
y: 540.2135620117188
z: -0.0009283182444050908
visibility: 0.9929612874984741
",,,,,,,,,,,,,,,,,,,,,,"x: 173.6106414794922
y: 347.8484802246094
z: 0.0
","x: 173.34231567382812
y: 352.9161376953125
z: -0.0004917699843645096
","x: 171.43785095214844
y: 358.0604248046875
z: -0.0015630669659003615
","x: 169.845703125
y: 362.4654541015625
z: -0.0027161112520843744
","x: 168.5454864501953
y: 366.1843566894531
z: -0.00367718399502337
","x: 166.31509399414062
y: 358.13348388671875
z: -0.002188056707382202
","x: 162.8355712890625
y: 365.24578857421875
z: -0.003695226740092039
","x: 161.92137145996094
y: 369.750244140625
z: -0.004057823680341244
","x: 161.54197692871094
y: 373.34246826171875
z: -0.0040331087075173855
","x: 166.0152130126953
y: 357.5828857421875
z: -0.0029086731374263763
","x: 162.81094360351562
y: 365.136474609375
z: -0.003925710916519165
","x: 161.92327880859375
y: 370.186767578125
z: -0.0037894973065704107
","x: 161.60374450683594
y: 374.396484375
z: -0.0037777165416628122
","x: 166.4897918701172
y: 357.6602478027344
z: -0.0036683669313788414
","x: 163.83609008789062
y: 364.64312744140625
z: -0.005071650724858046
","x: 162.99855041503906
y: 369.7256774902344
z: -0.005180407781153917
","x: 162.6898193359375
y: 373.87396240234375
z: -0.0052229561842978
","x: 167.4721221923828
y: 358.0865783691406
z: -0.004496591165661812
","x: 165.7291259765625
y: 363.1494140625
z: -0.005686349235475063
","x: 165.03079223632812
y: 367.08721923828125
z: -0.005739239044487476
","x: 164.8475799560547
y: 370.3533935546875
z: -0.005676458589732647
"
4,"x: 222.96939086914062
y: 246.04901123046875
z: -0.311793714761734
visibility: 0.9999476671218872
","x: 225.4089813232422
y: 240.09310913085938
z: -0.30126816034317017
visibility: 0.9997859597206116
","x: 226.7676239013672
y: 239.84483337402344
z: -0.30128970742225647
visibility: 0.9998205900192261
","x: 228.06808471679688
y: 239.59774780273438
z: -0.3012979030609131
visibility: 0.9997919797897339
","x: 221.76353454589844
y: 239.5958251953125
z: -0.30146822333335876
visibility: 0.9996728897094727
","x: 220.56166076660156
y: 239.05722045898438
z: -0.3015030324459076
visibility: 0.9995549321174622
","x: 219.27987670898438
y: 238.6998748779297
z: -0.3014771342277527
visibility: 0.9994215965270996
","x: 229.86671447753906
y: 240.18919372558594
z: -0.20024287700653076
visibility: 0.9998573660850525
","x: 217.5077362060547
y: 239.15748596191406
z: -0.20038819313049316
visibility: 0.9997060298919678
","x: 224.70570373535156
y: 251.51795959472656
z: -0.2713570296764374
visibility: 0.9999707937240601
","x: 220.477783203125
y: 250.8952178955078
z: -0.27051153779029846
visibility: 0.9999550580978394
","x: 243.2644805908203
y: 274.2548828125
z: -0.1342765986919403
visibility: 0.9999967813491821
","x: 204.2407989501953
y: 269.6612548828125
z: -0.08847270905971527
visibility: 0.9999881386756897
","x: 257.4294128417969
y: 318.6630554199219
z: -0.14287902414798737
visibility: 0.998414158821106
","x: 192.6016387939453
y: 317.9576721191406
z: -0.045146454125642776
visibility: 0.9877067804336548
","x: 254.82925415039062
y: 344.006591796875
z: -0.2835765480995178
visibility: 0.9971639513969421
","x: 178.42469787597656
y: 349.0232849121094
z: -0.15408284962177277
visibility: 0.9835466742515564
","x: 253.2323760986328
y: 353.4024658203125
z: -0.3202779293060303
visibility: 0.9900214672088623
","x: 171.59078979492188
y: 358.45355224609375
z: -0.18178224563598633
visibility: 0.9553854465484619
","x: 250.0430450439453
y: 349.7798156738281
z: -0.34194159507751465
visibility: 0.990344226360321
","x: 172.16293334960938
y: 356.9908142089844
z: -0.21833856403827667
visibility: 0.9612886309623718
","x: 249.66067504882812
y: 346.2912292480469
z: -0.29458707571029663
visibility: 0.9856149554252625
","x: 175.3784942626953
y: 353.62164306640625
z: -0.17163877189159393
visibility: 0.958623468875885
","x: 234.2601776123047
y: 373.31890869140625
z: -0.02149256318807602
visibility: 0.999728262424469
","x: 212.8845977783203
y: 372.8129577636719
z: 0.02150784060359001
visibility: 0.9997522830963135
","x: 233.53182983398438
y: 446.64044189453125
z: -0.05940045043826103
visibility: 0.9961004257202148
","x: 208.51080322265625
y: 450.4736328125
z: -0.017020493745803833
visibility: 0.9946269989013672
","x: 241.76026916503906
y: 519.0215454101562
z: 0.06650253385305405
visibility: 0.9952747225761414
","x: 216.53240966796875
y: 519.474365234375
z: 0.10471689701080322
visibility: 0.9947179555892944
","x: 240.9073486328125
y: 527.5359497070312
z: 0.07115722447633743
visibility: 0.9220649003982544
","x: 220.8349609375
y: 530.6980590820312
z: 0.11087753623723984
visibility: 0.9537674188613892
","x: 240.24862670898438
y: 545.328125
z: -0.045518018305301666
visibility: 0.9936099648475647
","x: 204.52606201171875
y: 540.2135620117188
z: -0.0009283182444050908
visibility: 0.9929612874984741
",,,,,,,,,,,,,,,,,,,,,,"x: 173.6106414794922
y: 347.8484802246094
z: 0.0
","x: 173.34231567382812
y: 352.9161376953125
z: -0.0004917699843645096
","x: 171.43785095214844
y: 358.0604248046875
z: -0.0015630669659003615
","x: 169.845703125
y: 362.4654541015625
z: -0.0027161112520843744
","x: 168.5454864501953
y: 366.1843566894531
z: -0.00367718399502337
","x: 166.31509399414062
y: 358.13348388671875
z: -0.002188056707382202
","x: 162.8355712890625
y: 365.24578857421875
z: -0.003695226740092039
","x: 161.92137145996094
y: 369.750244140625
z: -0.004057823680341244
","x: 161.54197692871094
y: 373.34246826171875
z: -0.0040331087075173855
","x: 166.0152130126953
y: 357.5828857421875
z: -0.0029086731374263763
","x: 162.81094360351562
y: 365.136474609375
z: -0.003925710916519165
","x: 161.92327880859375
y: 370.186767578125
z: -0.0037894973065704107
","x: 161.60374450683594
y: 374.396484375
z: -0.0037777165416628122
","x: 166.4897918701172
y: 357.6602478027344
z: -0.0036683669313788414
","x: 163.83609008789062
y: 364.64312744140625
z: -0.005071650724858046
","x: 162.99855041503906
y: 369.7256774902344
z: -0.005180407781153917
","x: 162.6898193359375
y: 373.87396240234375
z: -0.0052229561842978
","x: 167.4721221923828
y: 358.0865783691406
z: -0.004496591165661812
","x: 165.7291259765625
y: 363.1494140625
z: -0.005686349235475063
","x: 165.03079223632812
y: 367.08721923828125
z: -0.005739239044487476
","x: 164.8475799560547
y: 370.3533935546875
z: -0.005676458589732647
"
5,"x: 222.5719757080078
y: 246.69345092773438
z: -0.3252231478691101
visibility: 0.999951958656311
","x: 224.75933837890625
y: 240.4071807861328
z: -0.3170551359653473
visibility: 0.9998037815093994
","x: 225.90565490722656
y: 240.12664794921875
z: -0.3170545697212219
visibility: 0.9998347759246826
","x: 227.01904296875
y: 239.82078552246094
z: -0.3170607089996338
visibility: 0.9998089075088501
","x: 221.49513244628906
y: 239.58990478515625
z: -0.3172590136528015
visibility: 0.999702513217926
","x: 220.3411102294922
y: 238.76190185546875
z: -0.3172760605812073
visibility: 0.9995958209037781
","x: 219.18017578125
y: 237.98675537109375
z: -0.31725892424583435
visibility: 0.9994756579399109
","x: 228.6590576171875
y: 239.2367706298828
z: -0.21582874655723572
visibility: 0.9998676776885986
","x: 216.8213653564453
y: 236.84054565429688
z: -0.21716105937957764
visibility: 0.9997281432151794
","x: 224.19517517089844
y: 251.6377410888672
z: -0.28270405530929565
visibility: 0.9999722242355347
","x: 220.03848266601562
y: 250.90188598632812
z: -0.2826998829841614
visibility: 0.9999579191207886
","x: 241.94769287109375
y: 270.44091796875
z: -0.14056801795959473
visibility: 0.9999967217445374
","x: 201.99790954589844
y: 268.703857421875
z: -0.09371389448642731
visibility: 0.9999876022338867
","x: 255.59339904785156
y: 316.0714111328125
z: -0.1141449362039566
visibility: 0.9984756708145142
","x: 189.08326721191406
y: 318.6407165527344
z: -0.03988427296280861
visibility: 0.9872773885726929
","x: 248.86338806152344
y: 347.9233093261719
z: -0.2169390618801117
visibility: 0.99716717004776
","x: 175.1742401123047
y: 355.06036376953125
z: -0.13941946625709534
visibility: 0.9841470122337341
","x: 248.2503662109375
y: 361.2008056640625
z: -0.24783948063850403
visibility: 0.9900867938995361
","x: 169.25279235839844
y: 368.8334655761719
z: -0.16426309943199158
visibility: 0.9576061964035034
","x: 244.90231323242188
y: 358.6013488769531
z: -0.272209107875824
visibility: 0.9904493689537048
","x: 170.19082641601562
y: 368.20501708984375
z: -0.20227351784706116
visibility: 0.9632306694984436
","x: 244.03009033203125
y: 354.1737060546875
z: -0.2274148166179657
visibility: 0.985772430896759
","x: 172.51901245117188
y: 363.6748962402344
z: -0.1566586196422577
visibility: 0.9604131579399109
","x: 232.51043701171875
y: 369.789306640625
z: -0.02291972003877163
visibility: 0.9996728301048279
","x: 211.3644561767578
y: 371.0539245605469
z: 0.02293366752564907
visibility: 0.9997134208679199
","x: 232.66146850585938
y: 442.54437255859375
z: -0.05452868342399597
visibility: 0.9960943460464478
","x: 209.05430603027344
y: 447.9393005371094
z: -0.014350540935993195
visibility: 0.9940178990364075
","x: 241.7598419189453
y: 518.294921875
z: 0.02850046195089817
visibility: 0.9952313303947449
","x: 216.61593627929688
y: 519.501953125
z: 0.07237988710403442
visibility: 0.9945813417434692
","x: 241.06492614746094
y: 527.4371337890625
z: 0.028738388791680336
visibility: 0.9197696447372437
","x: 220.75328063964844
y: 530.6983032226562
z: 0.07327362895011902
visibility: 0.9535534381866455
","x: 239.65538024902344
y: 545.2066650390625
z: -0.08335097134113312
visibility: 0.993336021900177
","x: 204.52410888671875
y: 540.1209716796875
z: -0.030750850215554237
visibility: 0.992584228515625
",,,,,,,,,,,,,,,,,,,,,,,,,,,,,,,,,,,,,,,,,,
6,"x: 218.4668731689453
y: 237.0769500732422
z: -0.27769750356674194
visibility: 0.9999554753303528
","x: 220.6919403076172
y: 230.19918823242188
z: -0.2705102264881134
visibility: 0.9998177886009216
","x: 221.87362670898438
y: 230.21177673339844
z: -0.27050307393074036
visibility: 0.9998458623886108
","x: 223.0480194091797
y: 230.2305450439453
z: -0.270504355430603
visibility: 0.9998223185539246
","x: 217.38250732421875
y: 229.0831298828125
z: -0.267901748418808
visibility: 0.9997261166572571
","x: 216.1962127685547
y: 228.4133758544922
z: -0.267905056476593
visibility: 0.9996294379234314
","x: 214.98110961914062
y: 227.78720092773438
z: -0.2678945064544678
visibility: 0.999520480632782
","x: 224.9923095703125
y: 230.98605346679688
z: -0.18017634749412537
visibility: 0.9998731017112732
","x: 213.22463989257812
y: 227.8909912109375
z: -0.16925235092639923
visibility: 0.9997385144233704
","x: 220.09222412109375
y: 242.81939697265625
z: -0.2394438087940216
visibility: 0.9999725818634033
","x: 216.15509033203125
y: 242.30230712890625
z: -0.2366132289171219
visibility: 0.9999591112136841
","x: 238.91952514648438
y: 263.74560546875
z: -0.11183227598667145
visibility: 0.9999959468841553
","x: 199.51466369628906
y: 264.05316162109375
z: -0.061007142066955566
visibility: 0.9999867677688599
","x: 243.30410766601562
y: 316.4657287597656
z: -0.0557212308049202
visibility: 0.9980019927024841
","x: 189.74453735351562
y: 312.87713623046875
z: -0.002165722893550992
visibility: 0.9853648543357849
","x: 246.3493194580078
y: 364.8746337890625
z: -0.11906464397907257
visibility: 0.9958092570304871
","x: 184.06166076660156
y: 353.628173828125
z: -0.08393068611621857
visibility: 0.9830313920974731
","x: 249.82740783691406
y: 379.982666015625
z: -0.1413106918334961
visibility: 0.9874554872512817
","x: 182.76686096191406
y: 365.793701171875
z: -0.10609686374664307
visibility: 0.956967830657959
","x: 247.21530151367188
y: 379.8244934082031
z: -0.1722448319196701
visibility: 0.9880803823471069
","x: 184.10391235351562
y: 365.1649475097656
z: -0.143350288271904
visibility: 0.9625341296195984
","x: 245.33120727539062
y: 376.71124267578125
z: -0.13176749646663666
visibility: 0.982877254486084
","x: 185.200439453125
y: 360.7845764160156
z: -0.1000915989279747
visibility: 0.9592003226280212
","x: 230.66017150878906
y: 365.9070129394531
z: -0.02366926334798336
visibility: 0.9996746182441711
","x: 209.87022399902344
y: 367.3704833984375
z: 0.023656722158193588
visibility: 0.9997125864028931
","x: 232.8583526611328
y: 442.44012451171875
z: -0.050013065338134766
visibility: 0.9959003925323486
","x: 210.29151916503906
y: 446.3226013183594
z: 0.007802723441272974
visibility: 0.9936751127243042
","x: 241.69741821289062
y: 518.42724609375
z: 0.030997395515441895
visibility: 0.9952797889709473
","x: 216.84024047851562
y: 519.6226196289062
z: 0.09218805283308029
visibility: 0.9946295022964478
","x: 240.89300537109375
y: 528.944580078125
z: 0.031125620007514954
visibility: 0.9186392426490784
","x: 220.76321411132812
y: 530.7174072265625
z: 0.0950111523270607
visibility: 0.9535709619522095
","x: 239.7362518310547
y: 545.2181396484375
z: -0.0857597142457962
visibility: 0.9932478666305542
","x: 204.4643096923828
y: 539.8885498046875
z: -0.010365942493081093
visibility: 0.9925315976142883
","x: 243.95201110839844
y: 367.6886291503906
z: 0.0
","x: 241.66868591308594
y: 373.1195068359375
z: -0.002181414747610688
","x: 240.49501037597656
y: 378.9879150390625
z: -0.0034289259929209948
","x: 240.46380615234375
y: 383.1396179199219
z: -0.005020953714847565
","x: 240.95639038085938
y: 386.2055969238281
z: -0.006441161036491394
","x: 245.187255859375
y: 386.5215759277344
z: -0.0008668891969136894
","x: 246.63568115234375
y: 393.55181884765625
z: -0.003350573591887951
","x: 246.99313354492188
y: 395.8896484375
z: -0.004719662480056286
","x: 247.15562438964844
y: 397.0117492675781
z: -0.00534331239759922
","x: 247.29388427734375
y: 384.9648742675781
z: -0.0018257733900099993
","x: 249.13636779785156
y: 391.95831298828125
z: -0.004016446880996227
","x: 249.5231170654297
y: 394.4205322265625
z: -0.00493153091520071
","x: 249.65872192382812
y: 395.7156677246094
z: -0.005309089552611113
","x: 248.91299438476562
y: 382.349365234375
z: -0.0034305229783058167
","x: 250.91262817382812
y: 388.1488037109375
z: -0.0059223840944468975
","x: 251.68130493164062
y: 390.2547912597656
z: -0.006655256263911724
","x: 252.11351013183594
y: 391.6340637207031
z: -0.006793614011257887
","x: 250.16656494140625
y: 378.7518310546875
z: -0.005457670893520117
","x: 252.1396942138672
y: 382.8016357421875
z: -0.007581164129078388
","x: 253.1078643798828
y: 385.009765625
z: -0.008247609250247478
","x: 253.73643493652344
y: 386.7778015136719
z: -0.008390361443161964
",,,,,,,,,,,,,,,,,,,,,
7,"x: 218.4668731689453
y: 237.0769500732422
z: -0.27769750356674194
visibility: 0.9999554753303528
","x: 220.6919403076172
y: 230.19918823242188
z: -0.2705102264881134
visibility: 0.9998177886009216
","x: 221.87362670898438
y: 230.21177673339844
z: -0.27050307393074036
visibility: 0.9998458623886108
","x: 223.0480194091797
y: 230.2305450439453
z: -0.270504355430603
visibility: 0.9998223185539246
","x: 217.38250732421875
y: 229.0831298828125
z: -0.267901748418808
visibility: 0.9997261166572571
","x: 216.1962127685547
y: 228.4133758544922
z: -0.267905056476593
visibility: 0.9996294379234314
","x: 214.98110961914062
y: 227.78720092773438
z: -0.2678945064544678
visibility: 0.999520480632782
","x: 224.9923095703125
y: 230.98605346679688
z: -0.18017634749412537
visibility: 0.9998731017112732
","x: 213.22463989257812
y: 227.8909912109375
z: -0.16925235092639923
visibility: 0.9997385144233704
","x: 220.09222412109375
y: 242.81939697265625
z: -0.2394438087940216
visibility: 0.9999725818634033
","x: 216.15509033203125
y: 242.30230712890625
z: -0.2366132289171219
visibility: 0.9999591112136841
","x: 238.91952514648438
y: 263.74560546875
z: -0.11183227598667145
visibility: 0.9999959468841553
","x: 199.51466369628906
y: 264.05316162109375
z: -0.061007142066955566
visibility: 0.9999867677688599
","x: 243.30410766601562
y: 316.4657287597656
z: -0.0557212308049202
visibility: 0.9980019927024841
","x: 189.74453735351562
y: 312.87713623046875
z: -0.002165722893550992
visibility: 0.9853648543357849
","x: 246.3493194580078
y: 364.8746337890625
z: -0.11906464397907257
visibility: 0.9958092570304871
","x: 184.06166076660156
y: 353.628173828125
z: -0.08393068611621857
visibility: 0.9830313920974731
","x: 249.82740783691406
y: 379.982666015625
z: -0.1413106918334961
visibility: 0.9874554872512817
","x: 182.76686096191406
y: 365.793701171875
z: -0.10609686374664307
visibility: 0.956967830657959
","x: 247.21530151367188
y: 379.8244934082031
z: -0.1722448319196701
visibility: 0.9880803823471069
","x: 184.10391235351562
y: 365.1649475097656
z: -0.143350288271904
visibility: 0.9625341296195984
","x: 245.33120727539062
y: 376.71124267578125
z: -0.13176749646663666
visibility: 0.982877254486084
","x: 185.200439453125
y: 360.7845764160156
z: -0.1000915989279747
visibility: 0.9592003226280212
","x: 230.66017150878906
y: 365.9070129394531
z: -0.02366926334798336
visibility: 0.9996746182441711
","x: 209.87022399902344
y: 367.3704833984375
z: 0.023656722158193588
visibility: 0.9997125864028931
","x: 232.8583526611328
y: 442.44012451171875
z: -0.050013065338134766
visibility: 0.9959003925323486
","x: 210.29151916503906
y: 446.3226013183594
z: 0.007802723441272974
visibility: 0.9936751127243042
","x: 241.69741821289062
y: 518.42724609375
z: 0.030997395515441895
visibility: 0.9952797889709473
","x: 216.84024047851562
y: 519.6226196289062
z: 0.09218805283308029
visibility: 0.9946295022964478
","x: 240.89300537109375
y: 528.944580078125
z: 0.031125620007514954
visibility: 0.9186392426490784
","x: 220.76321411132812
y: 530.7174072265625
z: 0.0950111523270607
visibility: 0.9535709619522095
","x: 239.7362518310547
y: 545.2181396484375
z: -0.0857597142457962
visibility: 0.9932478666305542
","x: 204.4643096923828
y: 539.8885498046875
z: -0.010365942493081093
visibility: 0.9925315976142883
","x: 243.95201110839844
y: 367.6886291503906
z: 0.0
","x: 241.66868591308594
y: 373.1195068359375
z: -0.002181414747610688
","x: 240.49501037597656
y: 378.9879150390625
z: -0.0034289259929209948
","x: 240.46380615234375
y: 383.1396179199219
z: -0.005020953714847565
","x: 240.95639038085938
y: 386.2055969238281
z: -0.006441161036491394
","x: 245.187255859375
y: 386.5215759277344
z: -0.0008668891969136894
","x: 246.63568115234375
y: 393.55181884765625
z: -0.003350573591887951
","x: 246.99313354492188
y: 395.8896484375
z: -0.004719662480056286
","x: 247.15562438964844
y: 397.0117492675781
z: -0.00534331239759922
","x: 247.29388427734375
y: 384.9648742675781
z: -0.0018257733900099993
","x: 249.13636779785156
y: 391.95831298828125
z: -0.004016446880996227
","x: 249.5231170654297
y: 394.4205322265625
z: -0.00493153091520071
","x: 249.65872192382812
y: 395.7156677246094
z: -0.005309089552611113
","x: 248.91299438476562
y: 382.349365234375
z: -0.0034305229783058167
","x: 250.91262817382812
y: 388.1488037109375
z: -0.0059223840944468975
","x: 251.68130493164062
y: 390.2547912597656
z: -0.006655256263911724
","x: 252.11351013183594
y: 391.6340637207031
z: -0.006793614011257887
","x: 250.16656494140625
y: 378.7518310546875
z: -0.005457670893520117
","x: 252.1396942138672
y: 382.8016357421875
z: -0.007581164129078388
","x: 253.1078643798828
y: 385.009765625
z: -0.008247609250247478
","x: 253.73643493652344
y: 386.7778015136719
z: -0.008390361443161964
",,,,,,,,,,,,,,,,,,,,,
8,"x: 214.67921447753906
y: 234.3087615966797
z: -0.27742886543273926
visibility: 0.9999564290046692
","x: 217.0499725341797
y: 227.16793823242188
z: -0.2716178596019745
visibility: 0.9998222589492798
","x: 218.3314971923828
y: 227.1182861328125
z: -0.2716183662414551
visibility: 0.9998485445976257
","x: 219.63926696777344
y: 227.0834503173828
z: -0.2716476023197174
visibility: 0.9998279213905334
","x: 213.67042541503906
y: 226.41798400878906
z: -0.26778560876846313
visibility: 0.9997376203536987
","x: 212.53317260742188
y: 225.84103393554688
z: -0.267778605222702
visibility: 0.9996482133865356
","x: 211.3904266357422
y: 225.2779998779297
z: -0.2677735388278961
visibility: 0.9995471835136414
","x: 222.22872924804688
y: 228.3415069580078
z: -0.18483516573905945
visibility: 0.9998694658279419
","x: 210.45895385742188
y: 225.5931854248047
z: -0.1683826446533203
visibility: 0.9997187852859497
","x: 216.54449462890625
y: 240.34381103515625
z: -0.24023357033729553
visibility: 0.9999702572822571
","x: 212.60116577148438
y: 240.0224609375
z: -0.23581716418266296
visibility: 0.9999561309814453
","x: 237.05735778808594
y: 262.40399169921875
z: -0.11319291591644287
visibility: 0.9999943375587463
","x: 198.07406616210938
y: 262.4637451171875
z: -0.060051728039979935
visibility: 0.9999821782112122
","x: 241.47413635253906
y: 316.7780456542969
z: -0.057324908673763275
visibility: 0.9973492622375488
","x: 190.13096618652344
y: 312.6153259277344
z: -0.008065709844231606
visibility: 0.9728272557258606
","x: 247.02978515625
y: 367.99365234375
z: -0.11250777542591095
visibility: 0.9939191341400146
","x: 191.79063415527344
y: 353.8902282714844
z: -0.09090691804885864
visibility: 0.9712505340576172
","x: 251.37265014648438
y: 382.5782470703125
z: -0.13279969990253448
visibility: 0.9838786125183105
","x: 193.4857635498047
y: 368.370849609375
z: -0.10992711782455444
visibility: 0.9427315592765808
","x: 248.7028045654297
y: 383.07879638671875
z: -0.16379323601722717
visibility: 0.9848509430885315
","x: 194.9487762451172
y: 367.2681884765625
z: -0.14580494165420532
visibility: 0.9489633440971375
","x: 246.62733459472656
y: 379.4768981933594
z: -0.12485228478908539
visibility: 0.9789121150970459
","x: 194.7399139404297
y: 361.605712890625
z: -0.10657061636447906
visibility: 0.9436262845993042
","x: 229.74050903320312
y: 364.53021240234375
z: -0.02349543198943138
visibility: 0.9996535778045654
","x: 208.6710205078125
y: 365.7559509277344
z: 0.023459581658244133
visibility: 0.9996858835220337
","x: 233.7821502685547
y: 442.74822998046875
z: -0.03154827654361725
visibility: 0.9955835938453674
","x: 211.9808349609375
y: 445.8453674316406
z: 0.009816549718379974
visibility: 0.9933919310569763
","x: 241.63804626464844
y: 518.091064453125
z: 0.04298839345574379
visibility: 0.9951888918876648
","x: 217.04608154296875
y: 519.6887817382812
z: 0.09885133802890778
visibility: 0.9945731163024902
","x: 240.7290496826172
y: 527.9765625
z: 0.03839527815580368
visibility: 0.9153551459312439
","x: 220.77720642089844
y: 530.6699829101562
z: 0.1027999073266983
visibility: 0.952018141746521
","x: 239.78961181640625
y: 544.9730224609375
z: -0.07291989028453827
visibility: 0.9928335547447205
","x: 204.59622192382812
y: 539.6796875
z: -0.003334409324452281
visibility: 0.9923015236854553
","x: 245.49917602539062
y: 368.7921447753906
z: 0.0
","x: 243.6697235107422
y: 375.35595703125
z: -0.0006348427850753069
","x: 242.71786499023438
y: 381.6484375
z: -0.0007685085874982178
","x: 242.6475067138672
y: 386.18280029296875
z: -0.0013529082061722875
","x: 243.37437438964844
y: 388.6468811035156
z: -0.0017867020796984434
","x: 246.50926208496094
y: 386.957275390625
z: 0.0024381799157708883
","x: 247.30401611328125
y: 393.00677490234375
z: 0.0015824452275410295
","x: 247.72390747070312
y: 396.27691650390625
z: 0.0007583916303701699
","x: 248.2398681640625
y: 399.089599609375
z: 0.0002179897273890674
","x: 248.3685760498047
y: 386.19293212890625
z: 0.0012696488993242383
","x: 249.43785095214844
y: 392.1631164550781
z: 0.0007664685253985226
","x: 249.85931396484375
y: 395.684814453125
z: -0.00010113501048181206
","x: 250.42425537109375
y: 398.815185546875
z: -0.0008226654026657343
","x: 249.97930908203125
y: 384.36260986328125
z: -0.00043087141239084303
","x: 251.6741180419922
y: 389.67669677734375
z: -0.0015834153164178133
","x: 252.73419189453125
y: 393.0277099609375
z: -0.0027361330576241016
","x: 253.65957641601562
y: 395.74755859375
z: -0.003464511362835765
","x: 251.35597229003906
y: 381.5909423828125
z: -0.002399210352450609
","x: 253.2612762451172
y: 385.01788330078125
z: -0.003418636042624712
","x: 254.57333374023438
y: 387.14794921875
z: -0.004055630415678024
","x: 255.6832733154297
y: 389.04345703125
z: -0.004448769148439169
",,,,,,,,,,,,,,,,,,,,,
9,"x: 214.67921447753906
y: 234.3087615966797
z: -0.27742886543273926
visibility: 0.9999564290046692
","x: 217.0499725341797
y: 227.16793823242188
z: -0.2716178596019745
visibility: 0.9998222589492798
","x: 218.3314971923828
y: 227.1182861328125
z: -0.2716183662414551
visibility: 0.9998485445976257
","x: 219.63926696777344
y: 227.0834503173828
z: -0.2716476023197174
visibility: 0.9998279213905334
","x: 213.67042541503906
y: 226.41798400878906
z: -0.26778560876846313
visibility: 0.9997376203536987
","x: 212.53317260742188
y: 225.84103393554688
z: -0.267778605222702
visibility: 0.9996482133865356
","x: 211.3904266357422
y: 225.2779998779297
z: -0.2677735388278961
visibility: 0.9995471835136414
","x: 222.22872924804688
y: 228.3415069580078
z: -0.18483516573905945
visibility: 0.9998694658279419
","x: 210.45895385742188
y: 225.5931854248047
z: -0.1683826446533203
visibility: 0.9997187852859497
","x: 216.54449462890625
y: 240.34381103515625
z: -0.24023357033729553
visibility: 0.9999702572822571
","x: 212.60116577148438
y: 240.0224609375
z: -0.23581716418266296
visibility: 0.9999561309814453
","x: 237.05735778808594
y: 262.40399169921875
z: -0.11319291591644287
visibility: 0.9999943375587463
","x: 198.07406616210938
y: 262.4637451171875
z: -0.060051728039979935
visibility: 0.9999821782112122
","x: 241.47413635253906
y: 316.7780456542969
z: -0.057324908673763275
visibility: 0.9973492622375488
","x: 190.13096618652344
y: 312.6153259277344
z: -0.008065709844231606
visibility: 0.9728272557258606
","x: 247.02978515625
y: 367.99365234375
z: -0.11250777542591095
visibility: 0.9939191341400146
","x: 191.79063415527344
y: 353.8902282714844
z: -0.09090691804885864
visibility: 0.9712505340576172
","x: 251.37265014648438
y: 382.5782470703125
z: -0.13279969990253448
visibility: 0.9838786125183105
","x: 193.4857635498047
y: 368.370849609375
z: -0.10992711782455444
visibility: 0.9427315592765808
","x: 248.7028045654297
y: 383.07879638671875
z: -0.16379323601722717
visibility: 0.9848509430885315
","x: 194.9487762451172
y: 367.2681884765625
z: -0.14580494165420532
visibility: 0.9489633440971375
","x: 246.62733459472656
y: 379.4768981933594
z: -0.12485228478908539
visibility: 0.9789121150970459
","x: 194.7399139404297
y: 361.605712890625
z: -0.10657061636447906
visibility: 0.9436262845993042
","x: 229.74050903320312
y: 364.53021240234375
z: -0.02349543198943138
visibility: 0.9996535778045654
","x: 208.6710205078125
y: 365.7559509277344
z: 0.023459581658244133
visibility: 0.9996858835220337
","x: 233.7821502685547
y: 442.74822998046875
z: -0.03154827654361725
visibility: 0.9955835938453674
","x: 211.9808349609375
y: 445.8453674316406
z: 0.009816549718379974
visibility: 0.9933919310569763
","x: 241.63804626464844
y: 518.091064453125
z: 0.04298839345574379
visibility: 0.9951888918876648
","x: 217.04608154296875
y: 519.6887817382812
z: 0.09885133802890778
visibility: 0.9945731163024902
","x: 240.7290496826172
y: 527.9765625
z: 0.03839527815580368
visibility: 0.9153551459312439
","x: 220.77720642089844
y: 530.6699829101562
z: 0.1027999073266983
visibility: 0.952018141746521
","x: 239.78961181640625
y: 544.9730224609375
z: -0.07291989028453827
visibility: 0.9928335547447205
","x: 204.59622192382812
y: 539.6796875
z: -0.003334409324452281
visibility: 0.9923015236854553
","x: 245.49917602539062
y: 368.7921447753906
z: 0.0
","x: 243.6697235107422
y: 375.35595703125
z: -0.0006348427850753069
","x: 242.71786499023438
y: 381.6484375
z: -0.0007685085874982178
","x: 242.6475067138672
y: 386.18280029296875
z: -0.0013529082061722875
","x: 243.37437438964844
y: 388.6468811035156
z: -0.0017867020796984434
","x: 246.50926208496094
y: 386.957275390625
z: 0.0024381799157708883
","x: 247.30401611328125
y: 393.00677490234375
z: 0.0015824452275410295
","x: 247.72390747070312
y: 396.27691650390625
z: 0.0007583916303701699
","x: 248.2398681640625
y: 399.089599609375
z: 0.0002179897273890674
","x: 248.3685760498047
y: 386.19293212890625
z: 0.0012696488993242383
","x: 249.43785095214844
y: 392.1631164550781
z: 0.0007664685253985226
","x: 249.85931396484375
y: 395.684814453125
z: -0.00010113501048181206
","x: 250.42425537109375
y: 398.815185546875
z: -0.0008226654026657343
","x: 249.97930908203125
y: 384.36260986328125
z: -0.00043087141239084303
","x: 251.6741180419922
y: 389.67669677734375
z: -0.0015834153164178133
","x: 252.73419189453125
y: 393.0277099609375
z: -0.0027361330576241016
","x: 253.65957641601562
y: 395.74755859375
z: -0.003464511362835765
","x: 251.35597229003906
y: 381.5909423828125
z: -0.002399210352450609
","x: 253.2612762451172
y: 385.01788330078125
z: -0.003418636042624712
","x: 254.57333374023438
y: 387.14794921875
z: -0.004055630415678024
","x: 255.6832733154297
y: 389.04345703125
z: -0.004448769148439169
",,,,,,,,,,,,,,,,,,,,,
10,"x: 210.6132049560547
y: 233.8375701904297
z: -0.22979331016540527
visibility: 0.9999596476554871
","x: 213.06207275390625
y: 226.2996826171875
z: -0.225370854139328
visibility: 0.9998356103897095
","x: 214.38638305664062
y: 226.19424438476562
z: -0.2253890484571457
visibility: 0.9998596906661987
","x: 215.77088928222656
y: 226.12234497070312
z: -0.22541263699531555
visibility: 0.9998413324356079
","x: 209.82937622070312
y: 225.73158264160156
z: -0.21662768721580505
visibility: 0.9997586607933044
","x: 208.84567260742188
y: 225.17098999023438
z: -0.21660634875297546
visibility: 0.9996772408485413
","x: 207.88059997558594
y: 224.594482421875
z: -0.21659617125988007
visibility: 0.9995855093002319
","x: 219.468994140625
y: 227.61741638183594
z: -0.1528318226337433
visibility: 0.9998788833618164
","x: 208.2935028076172
y: 225.21731567382812
z: -0.11289824545383453
visibility: 0.9997311234474182
","x: 212.8135528564453
y: 239.82992553710938
z: -0.19906309247016907
visibility: 0.9999721646308899
","x: 209.2114715576172
y: 239.56515502929688
z: -0.18786612153053284
visibility: 0.9999585747718811
","x: 234.45851135253906
y: 263.630859375
z: -0.10769902169704437
visibility: 0.999994158744812
","x: 198.34103393554688
y: 263.12518310546875
z: -0.007955266162753105
visibility: 0.9999809265136719
","x: 242.61585998535156
y: 320.94049072265625
z: -0.07237079739570618
visibility: 0.9973553419113159
","x: 190.7262420654297
y: 315.6607971191406
z: 0.02478082664310932
visibility: 0.9644104838371277
","x: 251.35865783691406
y: 373.0120544433594
z: -0.12959906458854675
visibility: 0.9937356114387512
","x: 191.15774536132812
y: 353.1778564453125
z: -0.08183005452156067
visibility: 0.9690103530883789
","x: 255.40823364257812
y: 386.4027404785156
z: -0.15240566432476044
visibility: 0.9836628437042236
","x: 190.30880737304688
y: 367.6733703613281
z: -0.10408338159322739
visibility: 0.9403586983680725
","x: 253.3967742919922
y: 387.65478515625
z: -0.18258725106716156
visibility: 0.9846973419189453
","x: 191.94593811035156
y: 366.45343017578125
z: -0.13564859330654144
visibility: 0.9465824365615845
","x: 251.4296112060547
y: 383.60577392578125
z: -0.14177832007408142
visibility: 0.9788123369216919
","x: 192.7685546875
y: 361.20684814453125
z: -0.09720736742019653
visibility: 0.9403586983680725
","x: 227.5311279296875
y: 365.3377990722656
z: -0.033943820744752884
visibility: 0.999643087387085
","x: 207.1007080078125
y: 366.44427490234375
z: 0.033921018242836
visibility: 0.999664843082428
","x: 231.406494140625
y: 442.4670104980469
z: -0.038474004715681076
visibility: 0.9955155849456787
","x: 211.02737426757812
y: 446.1784362792969
z: 0.03226915001869202
visibility: 0.9930699467658997
","x: 240.9075469970703
y: 518.2444458007812
z: 0.027389302849769592
visibility: 0.9952215552330017
","x: 217.06040954589844
y: 519.392822265625
z: 0.12116654962301254
visibility: 0.9944339990615845
","x: 240.7022705078125
y: 528.1089477539062
z: 0.026357531547546387
visibility: 0.9108672142028809
","x: 220.77418518066406
y: 530.0357666015625
z: 0.122627392411232
visibility: 0.9522472620010376
","x: 236.37493896484375
y: 544.6117553710938
z: -0.09318561851978302
visibility: 0.9926341772079468
","x: 204.44174194335938
y: 539.678466796875
z: 0.023800751194357872
visibility: 0.9921238422393799
",,,,,,,,,,,,,,,,,,,,,,,,,,,,,,,,,,,,,,,,,,
11,"x: 209.2879180908203
y: 235.4219207763672
z: -0.1790049970149994
visibility: 0.9999619722366333
","x: 211.77288818359375
y: 227.77976989746094
z: -0.1756581813097
visibility: 0.9998461604118347
","x: 213.14915466308594
y: 227.551513671875
z: -0.1756972223520279
visibility: 0.999868631362915
","x: 214.54115295410156
y: 227.3625946044922
z: -0.17573407292366028
visibility: 0.9998524785041809
","x: 208.53607177734375
y: 227.3924102783203
z: -0.16462814807891846
visibility: 0.9997758865356445
","x: 207.52845764160156
y: 226.85472106933594
z: -0.16460302472114563
visibility: 0.9997013211250305
","x: 206.5930938720703
y: 226.288818359375
z: -0.16458648443222046
visibility: 0.9996175169944763
","x: 218.1097869873047
y: 228.65731811523438
z: -0.11271979659795761
visibility: 0.9998875260353088
","x: 207.01519775390625
y: 226.80799865722656
z: -0.06153064966201782
visibility: 0.9997376799583435
","x: 211.741455078125
y: 241.32118225097656
z: -0.15205515921115875
visibility: 0.9999735355377197
","x: 208.07322692871094
y: 241.10076904296875
z: -0.1376255750656128
visibility: 0.9999594688415527
","x: 233.67306518554688
y: 264.29443359375
z: -0.09013916552066803
visibility: 0.9999942183494568
","x: 197.7538604736328
y: 265.1346435546875
z: 0.041968900710344315
visibility: 0.9999778866767883
","x: 243.99778747558594
y: 321.0162048339844
z: -0.07250122725963593
visibility: 0.9973947405815125
","x: 190.8879852294922
y: 316.67071533203125
z: 0.0642060860991478
visibility: 0.9454801082611084
","x: 251.9163818359375
y: 370.82452392578125
z: -0.1278601437807083
visibility: 0.9933153986930847
","x: 190.16842651367188
y: 351.0613708496094
z: -0.06307899206876755
visibility: 0.9632082581520081
","x: 254.95736694335938
y: 384.5111083984375
z: -0.15104538202285767
visibility: 0.9830580353736877
","x: 188.09112548828125
y: 363.8431396484375
z: -0.08765693008899689
visibility: 0.9345813393592834
","x: 252.7291259765625
y: 384.9967956542969
z: -0.17942574620246887
visibility: 0.9841591715812683
","x: 189.9794464111328
y: 362.4072570800781
z: -0.1172235980629921
visibility: 0.9411305785179138
","x: 251.15040588378906
y: 381.4342041015625
z: -0.13909181952476501
visibility: 0.9782044291496277
","x: 191.2722625732422
y: 357.9540710449219
z: -0.0792553573846817
visibility: 0.93365079164505
","x: 226.18869018554688
y: 366.18096923828125
z: -0.04685327410697937
visibility: 0.9996343851089478
","x: 206.15170288085938
y: 368.3192443847656
z: 0.04688801243901253
visibility: 0.9996412396430969
","x: 229.75326538085938
y: 444.20556640625
z: -0.05962217599153519
visibility: 0.9954509735107422
","x: 209.78915405273438
y: 446.75494384765625
z: 0.05280919745564461
visibility: 0.9923960566520691
","x: 237.67047119140625
y: 519.3369140625
z: 0.004529442172497511
visibility: 0.995235800743103
","x: 217.1063995361328
y: 519.1947631835938
z: 0.14849236607551575
visibility: 0.9941209554672241
","x: 239.17835998535156
y: 529.7178955078125
z: 0.0032507609575986862
visibility: 0.9079424738883972
","x: 220.84295654296875
y: 529.6417846679688
z: 0.15048490464687347
visibility: 0.9529039859771729
","x: 230.4546661376953
y: 544.6256713867188
z: -0.1171504482626915
visibility: 0.9925144910812378
","x: 203.7318115234375
y: 539.625732421875
z: 0.05813159793615341
visibility: 0.991934597492218
",,,,,,,,,,,,,,,,,,,,,,"x: 188.39691162109375
y: 350.02642822265625
z: 0.0
","x: 191.052490234375
y: 354.640869140625
z: -0.0010057210456579924
","x: 191.35572814941406
y: 360.2557067871094
z: -0.0016216753283515573
","x: 190.479248046875
y: 365.36383056640625
z: -0.002202689880505204
","x: 189.48025512695312
y: 369.12689208984375
z: -0.0021332106553018093
","x: 185.9315643310547
y: 364.3982238769531
z: -0.0007203681161627173
","x: 185.99024963378906
y: 372.01776123046875
z: -0.0012059807777404785
","x: 187.65414428710938
y: 370.9042053222656
z: -0.0004513608873821795
","x: 188.37181091308594
y: 368.04669189453125
z: 0.0004128089058212936
","x: 184.466064453125
y: 364.3592834472656
z: -0.0006531678955070674
","x: 184.81253051757812
y: 371.8501281738281
z: -0.0007590621244162321
","x: 186.57061767578125
y: 370.96807861328125
z: 0.000172071871929802
","x: 187.3042755126953
y: 368.3717346191406
z: 0.001036092871800065
","x: 183.8380126953125
y: 364.16180419921875
z: -0.0007776943384669721
","x: 184.2670440673828
y: 371.0141296386719
z: -0.000979535048827529
","x: 185.78182983398438
y: 370.4106140136719
z: -0.0001229419285664335
","x: 186.3926544189453
y: 368.21435546875
z: 0.0006332011544145644
","x: 183.68209838867188
y: 363.9928894042969
z: -0.0011006752029061317
","x: 184.12557983398438
y: 369.9719543457031
z: -0.0012362360721454024
","x: 185.21917724609375
y: 370.3454284667969
z: -0.0007728282944299281
","x: 185.78570556640625
y: 369.05120849609375
z: -0.00015618499310221523
"
12,"x: 209.2879180908203
y: 235.4219207763672
z: -0.1790049970149994
visibility: 0.9999619722366333
","x: 211.77288818359375
y: 227.77976989746094
z: -0.1756581813097
visibility: 0.9998461604118347
","x: 213.14915466308594
y: 227.551513671875
z: -0.1756972223520279
visibility: 0.999868631362915
","x: 214.54115295410156
y: 227.3625946044922
z: -0.17573407292366028
visibility: 0.9998524785041809
","x: 208.53607177734375
y: 227.3924102783203
z: -0.16462814807891846
visibility: 0.9997758865356445
","x: 207.52845764160156
y: 226.85472106933594
z: -0.16460302472114563
visibility: 0.9997013211250305
","x: 206.5930938720703
y: 226.288818359375
z: -0.16458648443222046
visibility: 0.9996175169944763
","x: 218.1097869873047
y: 228.65731811523438
z: -0.11271979659795761
visibility: 0.9998875260353088
","x: 207.01519775390625
y: 226.80799865722656
z: -0.06153064966201782
visibility: 0.9997376799583435
","x: 211.741455078125
y: 241.32118225097656
z: -0.15205515921115875
visibility: 0.9999735355377197
","x: 208.07322692871094
y: 241.10076904296875
z: -0.1376255750656128
visibility: 0.9999594688415527
","x: 233.67306518554688
y: 264.29443359375
z: -0.09013916552066803
visibility: 0.9999942183494568
","x: 197.7538604736328
y: 265.1346435546875
z: 0.041968900710344315
visibility: 0.9999778866767883
","x: 243.99778747558594
y: 321.0162048339844
z: -0.07250122725963593
visibility: 0.9973947405815125
","x: 190.8879852294922
y: 316.67071533203125
z: 0.0642060860991478
visibility: 0.9454801082611084
","x: 251.9163818359375
y: 370.82452392578125
z: -0.1278601437807083
visibility: 0.9933153986930847
","x: 190.16842651367188
y: 351.0613708496094
z: -0.06307899206876755
visibility: 0.9632082581520081
","x: 254.95736694335938
y: 384.5111083984375
z: -0.15104538202285767
visibility: 0.9830580353736877
","x: 188.09112548828125
y: 363.8431396484375
z: -0.08765693008899689
visibility: 0.9345813393592834
","x: 252.7291259765625
y: 384.9967956542969
z: -0.17942574620246887
visibility: 0.9841591715812683
","x: 189.9794464111328
y: 362.4072570800781
z: -0.1172235980629921
visibility: 0.9411305785179138
","x: 251.15040588378906
y: 381.4342041015625
z: -0.13909181952476501
visibility: 0.9782044291496277
","x: 191.2722625732422
y: 357.9540710449219
z: -0.0792553573846817
visibility: 0.93365079164505
","x: 226.18869018554688
y: 366.18096923828125
z: -0.04685327410697937
visibility: 0.9996343851089478
","x: 206.15170288085938
y: 368.3192443847656
z: 0.04688801243901253
visibility: 0.9996412396430969
","x: 229.75326538085938
y: 444.20556640625
z: -0.05962217599153519
visibility: 0.9954509735107422
","x: 209.78915405273438
y: 446.75494384765625
z: 0.05280919745564461
visibility: 0.9923960566520691
","x: 237.67047119140625
y: 519.3369140625
z: 0.004529442172497511
visibility: 0.995235800743103
","x: 217.1063995361328
y: 519.1947631835938
z: 0.14849236607551575
visibility: 0.9941209554672241
","x: 239.17835998535156
y: 529.7178955078125
z: 0.0032507609575986862
visibility: 0.9079424738883972
","x: 220.84295654296875
y: 529.6417846679688
z: 0.15048490464687347
visibility: 0.9529039859771729
","x: 230.4546661376953
y: 544.6256713867188
z: -0.1171504482626915
visibility: 0.9925144910812378
","x: 203.7318115234375
y: 539.625732421875
z: 0.05813159793615341
visibility: 0.991934597492218
",,,,,,,,,,,,,,,,,,,,,,"x: 188.39691162109375
y: 350.02642822265625
z: 0.0
","x: 191.052490234375
y: 354.640869140625
z: -0.0010057210456579924
","x: 191.35572814941406
y: 360.2557067871094
z: -0.0016216753283515573
","x: 190.479248046875
y: 365.36383056640625
z: -0.002202689880505204
","x: 189.48025512695312
y: 369.12689208984375
z: -0.0021332106553018093
","x: 185.9315643310547
y: 364.3982238769531
z: -0.0007203681161627173
","x: 185.99024963378906
y: 372.01776123046875
z: -0.0012059807777404785
","x: 187.65414428710938
y: 370.9042053222656
z: -0.0004513608873821795
","x: 188.37181091308594
y: 368.04669189453125
z: 0.0004128089058212936
","x: 184.466064453125
y: 364.3592834472656
z: -0.0006531678955070674
","x: 184.81253051757812
y: 371.8501281738281
z: -0.0007590621244162321
","x: 186.57061767578125
y: 370.96807861328125
z: 0.000172071871929802
","x: 187.3042755126953
y: 368.3717346191406
z: 0.001036092871800065
","x: 183.8380126953125
y: 364.16180419921875
z: -0.0007776943384669721
","x: 184.2670440673828
y: 371.0141296386719
z: -0.000979535048827529
","x: 185.78182983398438
y: 370.4106140136719
z: -0.0001229419285664335
","x: 186.3926544189453
y: 368.21435546875
z: 0.0006332011544145644
","x: 183.68209838867188
y: 363.9928894042969
z: -0.0011006752029061317
","x: 184.12557983398438
y: 369.9719543457031
z: -0.0012362360721454024
","x: 185.21917724609375
y: 370.3454284667969
z: -0.0007728282944299281
","x: 185.78570556640625
y: 369.05120849609375
z: -0.00015618499310221523
"
13,"x: 208.4864501953125
y: 236.90338134765625
z: -0.16120481491088867
visibility: 0.99996417760849
","x: 210.89596557617188
y: 229.27015686035156
z: -0.1576354056596756
visibility: 0.9998553991317749
","x: 212.2950897216797
y: 228.94232177734375
z: -0.15768328309059143
visibility: 0.9998763203620911
","x: 213.80142211914062
y: 228.63095092773438
z: -0.15773561596870422
visibility: 0.9998624920845032
","x: 207.70960998535156
y: 228.9207305908203
z: -0.14660602807998657
visibility: 0.9997910261154175
","x: 206.8142852783203
y: 228.3367156982422
z: -0.14658008515834808
visibility: 0.9997224807739258
","x: 205.9465789794922
y: 227.72894287109375
z: -0.1465660184621811
visibility: 0.9996464848518372
","x: 217.93971252441406
y: 229.38824462890625
z: -0.09132120013237
visibility: 0.9998945593833923
","x: 206.9255828857422
y: 227.7623748779297
z: -0.03982026129961014
visibility: 0.9997439980506897
","x: 211.00245666503906
y: 242.59182739257812
z: -0.13253836333751678
visibility: 0.9999747276306152
","x: 207.4560089111328
y: 242.30072021484375
z: -0.11802017688751221
visibility: 0.9999604225158691
","x: 234.8857421875
y: 263.7344665527344
z: -0.06035969778895378
visibility: 0.9999943971633911
","x: 197.74822998046875
y: 265.57391357421875
z: 0.062137383967638016
visibility: 0.9999772906303406
","x: 244.58750915527344
y: 320.3256530761719
z: -0.04030560329556465
visibility: 0.9973479509353638
","x: 191.2205810546875
y: 316.74444580078125
z: 0.098385289311409
visibility: 0.9351280927658081
","x: 252.09033203125
y: 366.4596252441406
z: -0.09953992813825607
visibility: 0.993062436580658
","x: 188.67884826660156
y: 352.96099853515625
z: -0.014862787909805775
visibility: 0.9610927104949951
","x: 254.652587890625
y: 380.561767578125
z: -0.12390291690826416
visibility: 0.9827612638473511
","x: 185.7127685546875
y: 365.2596435546875
z: -0.03908286616206169
visibility: 0.9329196214675903
","x: 252.34983825683594
y: 380.21337890625
z: -0.15352025628089905
visibility: 0.9838858246803284
","x: 186.95179748535156
y: 363.3689880371094
z: -0.07116179168224335
visibility: 0.9395025968551636
","x: 250.90426635742188
y: 377.0583801269531
z: -0.11152277141809464
visibility: 0.9778445363044739
","x: 188.86256408691406
y: 359.064453125
z: -0.031841691583395004
visibility: 0.9313986301422119
","x: 226.98513793945312
y: 366.2919616699219
z: -0.04236256331205368
visibility: 0.9996348023414612
","x: 206.71939086914062
y: 368.491455078125
z: 0.04241799935698509
visibility: 0.9996334314346313
","x: 229.5413818359375
y: 445.86383056640625
z: -0.05537823960185051
visibility: 0.9952589273452759
","x: 209.9501953125
y: 446.8386535644531
z: 0.03889738768339157
visibility: 0.992024302482605
","x: 235.78285217285156
y: 519.6802978515625
z: 0.022382017225027084
visibility: 0.9949856400489807
","x: 217.48983764648438
y: 519.1512451171875
z: 0.1378261297941208
visibility: 0.9937455654144287
","x: 236.72268676757812
y: 529.85205078125
z: 0.022754842415452003
visibility: 0.9004064798355103
","x: 221.3199462890625
y: 529.1832885742188
z: 0.14043599367141724
visibility: 0.9519064426422119
","x: 229.51571655273438
y: 544.7205200195312
z: -0.09682386368513107
visibility: 0.9918699264526367
","x: 204.3767852783203
y: 539.64208984375
z: 0.04370938986539841
visibility: 0.9914665222167969
",,,,,,,,,,,,,,,,,,,,,,,,,,,,,,,,,,,,,,,,,,
14,"x: 212.38824462890625
y: 234.3196258544922
z: -0.25267401337623596
visibility: 0.9999643564224243
","x: 215.0121307373047
y: 226.96209716796875
z: -0.2457127869129181
visibility: 0.9998569488525391
","x: 216.34906005859375
y: 226.85385131835938
z: -0.24572217464447021
visibility: 0.9998769760131836
","x: 217.70309448242188
y: 226.8418731689453
z: -0.24572177231311798
visibility: 0.9998642206192017
","x: 211.67694091796875
y: 226.49685668945312
z: -0.23824679851531982
visibility: 0.9997987151145935
","x: 210.68690490722656
y: 226.0063934326172
z: -0.23828744888305664
visibility: 0.9997357130050659
","x: 209.7144317626953
y: 225.568603515625
z: -0.2383081167936325
visibility: 0.9996669292449951
","x: 220.8053741455078
y: 229.115966796875
z: -0.1680259257555008
visibility: 0.9998928308486938
","x: 209.47743225097656
y: 227.35781860351562
z: -0.13143454492092133
visibility: 0.9997339844703674
","x: 214.80992126464844
y: 240.63543701171875
z: -0.22057676315307617
visibility: 0.9999741315841675
","x: 210.65234375
y: 240.33485412597656
z: -0.21043244004249573
visibility: 0.9999593496322632
","x: 236.62989807128906
y: 264.475830078125
z: -0.12334708124399185
visibility: 0.9999935626983643
","x: 198.77554321289062
y: 265.54498291015625
z: -0.021205460652709007
visibility: 0.9999763369560242
","x: 244.8557891845703
y: 321.3052978515625
z: -0.058329321444034576
visibility: 0.9972054362297058
","x: 191.30284118652344
y: 318.5812683105469
z: 0.06398986279964447
visibility: 0.936251163482666
","x: 243.7336883544922
y: 365.74017333984375
z: -0.16723357141017914
visibility: 0.9921194911003113
","x: 184.9192657470703
y: 357.8112487792969
z: -0.04922708123922348
visibility: 0.9623337984085083
","x: 241.8363800048828
y: 379.42706298828125
z: -0.1943134367465973
visibility: 0.9810488224029541
","x: 180.33404541015625
y: 370.38092041015625
z: -0.06702341139316559
visibility: 0.935136079788208
","x: 239.16900634765625
y: 376.39471435546875
z: -0.2191709578037262
visibility: 0.9822033643722534
","x: 180.84336853027344
y: 369.1471862792969
z: -0.07995818555355072
visibility: 0.9415046572685242
","x: 239.11868286132812
y: 372.3132629394531
z: -0.17837272584438324
visibility: 0.9755944013595581
","x: 182.71835327148438
y: 365.23138427734375
z: -0.06306593120098114
visibility: 0.9335623383522034
","x: 228.02333068847656
y: 366.6722106933594
z: -0.03905358165502548
visibility: 0.9996135830879211
","x: 207.1596221923828
y: 368.3830261230469
z: 0.03907323628664017
visibility: 0.9996137022972107
","x: 229.80056762695312
y: 446.4984436035156
z: -0.0471746027469635
visibility: 0.9951284527778625
","x: 210.0744171142578
y: 447.01153564453125
z: 0.050133347511291504
visibility: 0.9906310439109802
","x: 235.336669921875
y: 520.34130859375
z: 0.03542753681540489
visibility: 0.9949113130569458
","x: 217.566650390625
y: 519.1912841796875
z: 0.16550292074680328
visibility: 0.9930694699287415
","x: 235.97991943359375
y: 530.3953857421875
z: 0.03418801724910736
visibility: 0.8964740633964539
","x: 221.47581481933594
y: 529.1637573242188
z: 0.16945283114910126
visibility: 0.949964702129364
","x: 229.38624572753906
y: 544.7382202148438
z: -0.09394178539514542
visibility: 0.9916778206825256
","x: 204.662353515625
y: 539.7284545898438
z: 0.06879957020282745
visibility: 0.9908416271209717
",,,,,,,,,,,,,,,,,,,,,,,,,,,,,,,,,,,,,,,,,,
15,"x: 217.3246307373047
y: 234.85202026367188
z: -0.30373015999794006
visibility: 0.9999640583992004
","x: 219.95260620117188
y: 227.49346923828125
z: -0.2935776114463806
visibility: 0.9998597502708435
","x: 221.1473846435547
y: 227.62799072265625
z: -0.2935951352119446
visibility: 0.9998781681060791
","x: 222.3706512451172
y: 227.79446411132812
z: -0.29362332820892334
visibility: 0.9998652935028076
","x: 216.35133361816406
y: 226.3114013671875
z: -0.2904270887374878
visibility: 0.9998066425323486
","x: 215.03054809570312
y: 225.6388702392578
z: -0.2904509902000427
visibility: 0.9997484087944031
","x: 213.71786499023438
y: 225.11801147460938
z: -0.2904650568962097
visibility: 0.999686062335968
","x: 224.763427734375
y: 229.82028198242188
z: -0.19496294856071472
visibility: 0.9998908042907715
","x: 211.34449768066406
y: 227.12266540527344
z: -0.17917737364768982
visibility: 0.9997324347496033
","x: 219.29824829101562
y: 241.37615966796875
z: -0.26343411207199097
visibility: 0.9999725818634033
","x: 214.47006225585938
y: 240.77203369140625
z: -0.25920766592025757
visibility: 0.9999581575393677
","x: 236.73365783691406
y: 265.4748229980469
z: -0.13314077258110046
visibility: 0.9999920129776001
","x: 199.71905517578125
y: 264.4413146972656
z: -0.06852500885725021
visibility: 0.9999744296073914
","x: 245.19410705566406
y: 322.10040283203125
z: -0.13475587964057922
visibility: 0.99678635597229
","x: 191.02078247070312
y: 317.0125427246094
z: -0.024660194292664528
visibility: 0.9393797516822815
","x: 233.04013061523438
y: 360.97900390625
z: -0.26490849256515503
visibility: 0.9911146759986877
","x: 179.66844177246094
y: 356.37518310546875
z: -0.14436575770378113
visibility: 0.9636692404747009
","x: 229.58642578125
y: 371.33349609375
z: -0.305204302072525
visibility: 0.9789314270019531
","x: 174.45960998535156
y: 368.7920837402344
z: -0.17502045631408691
visibility: 0.9373413324356079
","x: 226.89193725585938
y: 375.1697082519531
z: -0.3232119083404541
visibility: 0.9800292253494263
","x: 175.41244506835938
y: 368.0440979003906
z: -0.21178284287452698
visibility: 0.9435412883758545
","x: 227.21498107910156
y: 368.07135009765625
z: -0.27405160665512085
visibility: 0.9721305966377258
","x: 177.55250549316406
y: 364.0454406738281
z: -0.16244783997535706
visibility: 0.9357706904411316
","x: 228.04241943359375
y: 366.8843078613281
z: -0.03307563066482544
visibility: 0.9995744824409485
","x: 207.15576171875
y: 368.460693359375
z: 0.033073462545871735
visibility: 0.999589204788208
","x: 230.22789001464844
y: 446.5320129394531
z: -0.03845173120498657
visibility: 0.9950138926506042
","x: 210.16326904296875
y: 447.2265625
z: 0.04054675251245499
visibility: 0.9894925951957703
","x: 234.55252075195312
y: 521.0310668945312
z: 0.052949853241443634
visibility: 0.9947468638420105
","x: 217.6484375
y: 519.4660034179688
z: 0.15225936472415924
visibility: 0.9921499490737915
","x: 234.71224975585938
y: 531.8945922851562
z: 0.053448595106601715
visibility: 0.8913841247558594
","x: 221.6815185546875
y: 529.3516235351562
z: 0.15584696829319
visibility: 0.9451091289520264
","x: 229.66354370117188
y: 544.7479248046875
z: -0.07723642140626907
visibility: 0.9912800788879395
","x: 205.48854064941406
y: 539.7821044921875
z: 0.0507536306977272
visibility: 0.9896960854530334
",,,,,,,,,,,,,,,,,,,,,,,,,,,,,,,,,,,,,,,,,,
16,"x: 217.97447204589844
y: 234.2959442138672
z: -0.2894573509693146
visibility: 0.999964714050293
","x: 220.41064453125
y: 227.1694793701172
z: -0.28012198209762573
visibility: 0.9998648762702942
","x: 221.59817504882812
y: 227.45855712890625
z: -0.28014421463012695
visibility: 0.9998817443847656
","x: 222.87460327148438
y: 227.773193359375
z: -0.2801729738712311
visibility: 0.9998690485954285
","x: 216.66885375976562
y: 225.80406188964844
z: -0.2768074572086334
visibility: 0.9998164176940918
","x: 215.1398468017578
y: 225.1337890625
z: -0.2768290638923645
visibility: 0.999762773513794
","x: 213.91375732421875
y: 224.5426025390625
z: -0.27683693170547485
visibility: 0.999706506729126
","x: 225.1792449951172
y: 230.05149841308594
z: -0.1856498420238495
visibility: 0.9998925924301147
","x: 212.1773223876953
y: 226.27450561523438
z: -0.16697387397289276
visibility: 0.9997389316558838
","x: 220.05108642578125
y: 240.98703002929688
z: -0.24949881434440613
visibility: 0.9999724626541138
","x: 214.6155548095703
y: 240.2481689453125
z: -0.24497728049755096
visibility: 0.9999586343765259
","x: 237.55409240722656
y: 265.38006591796875
z: -0.12994630634784698
visibility: 0.9999916553497314
","x: 200.14425659179688
y: 263.3863525390625
z: -0.05526088923215866
visibility: 0.9999735951423645
","x: 245.5807647705078
y: 321.4593811035156
z: -0.13190814852714539
visibility: 0.9963948726654053
","x: 190.8365020751953
y: 316.2022705078125
z: -0.008200855925679207
visibility: 0.9412901401519775
","x: 235.12428283691406
y: 358.11810302734375
z: -0.23922260105609894
visibility: 0.9898883700370789
","x: 179.29356384277344
y: 356.40484619140625
z: -0.11825007200241089
visibility: 0.9645128846168518
","x: 233.29042053222656
y: 368.0978088378906
z: -0.27599331736564636
visibility: 0.9765865206718445
","x: 174.15382385253906
y: 368.79803466796875
z: -0.14684763550758362
visibility: 0.9388529062271118
","x: 230.35519409179688
y: 369.98175048828125
z: -0.2969127893447876
visibility: 0.9776324033737183
","x: 174.98081970214844
y: 368.1422119140625
z: -0.18445445597171783
visibility: 0.9449624419212341
","x: 230.156982421875
y: 365.595458984375
z: -0.2493651658296585
visibility: 0.968578040599823
","x: 177.09033203125
y: 364.25494384765625
z: -0.13619953393936157
visibility: 0.9373652935028076
","x: 228.02647399902344
y: 367.1267395019531
z: -0.032750003039836884
visibility: 0.9995555281639099
","x: 207.42343139648438
y: 368.51873779296875
z: 0.03275047987699509
visibility: 0.999570369720459
","x: 229.8326416015625
y: 446.6043701171875
z: -0.03901238366961479
visibility: 0.9950371384620667
","x: 210.20767211914062
y: 447.4104309082031
z: 0.040174178779125214
visibility: 0.9884487986564636
","x: 234.42796325683594
y: 521.0672607421875
z: 0.05338295176625252
visibility: 0.9947726130485535
","x: 217.6770782470703
y: 519.5049438476562
z: 0.15277217328548431
visibility: 0.991552472114563
","x: 234.6699981689453
y: 531.8289794921875
z: 0.0542488768696785
visibility: 0.8888211250305176
","x: 221.80152893066406
y: 529.2403564453125
z: 0.15649941563606262
visibility: 0.94267338514328
","x: 229.41749572753906
y: 545.4087524414062
z: -0.07531039416790009
visibility: 0.9911937713623047
","x: 205.62930297851562
y: 539.969970703125
z: 0.05115332454442978
visibility: 0.989061713218689
",,,,,,,,,,,,,,,,,,,,,,,,,,,,,,,,,,,,,,,,,,
17,"x: 217.70632934570312
y: 233.8430633544922
z: -0.30865949392318726
visibility: 0.9999668598175049
","x: 220.20826721191406
y: 226.79904174804688
z: -0.3008043169975281
visibility: 0.999872624874115
","x: 221.3861541748047
y: 227.0012664794922
z: -0.30080628395080566
visibility: 0.9998881220817566
","x: 222.49949645996094
y: 227.27281188964844
z: -0.3008148670196533
visibility: 0.9998763203620911
","x: 216.28115844726562
y: 225.70578002929688
z: -0.2990209460258484
visibility: 0.9998288154602051
","x: 214.74693298339844
y: 225.07093811035156
z: -0.29905039072036743
visibility: 0.9997802376747131
","x: 213.47021484375
y: 224.46627807617188
z: -0.2990627884864807
visibility: 0.9997292757034302
","x: 224.5894317626953
y: 229.71795654296875
z: -0.20765869319438934
visibility: 0.999896228313446
","x: 211.47705078125
y: 226.0440673828125
z: -0.1986716091632843
visibility: 0.9997520446777344
","x: 219.93374633789062
y: 240.51597595214844
z: -0.26933854818344116
visibility: 0.9999734163284302
","x: 214.39434814453125
y: 239.91363525390625
z: -0.26704394817352295
visibility: 0.9999604225158691
","x: 237.68455505371094
y: 265.4359130859375
z: -0.13437560200691223
visibility: 0.9999915361404419
","x: 199.26873779296875
y: 263.322021484375
z: -0.08580197393894196
visibility: 0.9999743700027466
","x: 243.9168243408203
y: 321.05364990234375
z: -0.08901052176952362
visibility: 0.996152400970459
","x: 190.51226806640625
y: 317.561279296875
z: -0.02021809108555317
visibility: 0.9440183043479919
","x: 240.74517822265625
y: 361.4303894042969
z: -0.17074698209762573
visibility: 0.9893643260002136
","x: 179.7620849609375
y: 359.43585205078125
z: -0.11169501394033432
visibility: 0.9661290645599365
","x: 240.89492797851562
y: 374.9649353027344
z: -0.19665858149528503
visibility: 0.9757186770439148
","x: 174.9930877685547
y: 373.5137634277344
z: -0.13643373548984528
visibility: 0.9415202736854553
","x: 238.05325317382812
y: 374.42877197265625
z: -0.2286820411682129
visibility: 0.9768296480178833
","x: 176.0305633544922
y: 372.558837890625
z: -0.17479626834392548
visibility: 0.9473975300788879
","x: 237.2058868408203
y: 370.4269104003906
z: -0.18412251770496368
visibility: 0.9676885008811951
","x: 178.08096313476562
y: 368.1352233886719
z: -0.12925194203853607
visibility: 0.9400259256362915
","x: 228.14056396484375
y: 366.4764404296875
z: -0.027327274903655052
visibility: 0.999546229839325
","x: 207.34092712402344
y: 367.7686767578125
z: 0.027242565527558327
visibility: 0.9995619654655457
","x: 229.06517028808594
y: 446.55877685546875
z: -0.027164995670318604
visibility: 0.9949772357940674
","x: 210.2513885498047
y: 447.38507080078125
z: 0.03554981201887131
visibility: 0.9879412651062012
","x: 234.00682067871094
y: 521.0191650390625
z: 0.06495548784732819
visibility: 0.9947263598442078
","x: 217.63282775878906
y: 519.5035400390625
z: 0.14865706861019135
visibility: 0.991266667842865
","x: 234.11553955078125
y: 531.260498046875
z: 0.0655682161450386
visibility: 0.8821160793304443
","x: 221.75608825683594
y: 529.0867919921875
z: 0.15320366621017456
visibility: 0.9402619004249573
","x: 229.04168701171875
y: 545.5034790039062
z: -0.06024644523859024
visibility: 0.9910544157028198
","x: 205.7486114501953
y: 539.981201171875
z: 0.04574141651391983
visibility: 0.9888474941253662
",,,,,,,,,,,,,,,,,,,,,,,,,,,,,,,,,,,,,,,,,,
18,"x: 213.9786834716797
y: 233.4401092529297
z: -0.272793173789978
visibility: 0.9999688267707825
","x: 216.81785583496094
y: 226.65533447265625
z: -0.2635928988456726
visibility: 0.9998791813850403
","x: 218.2300567626953
y: 226.86282348632812
z: -0.26360106468200684
visibility: 0.9998934864997864
","x: 219.53524780273438
y: 227.1073760986328
z: -0.2636048495769501
visibility: 0.9998825192451477
","x: 212.8559112548828
y: 225.37400817871094
z: -0.26096564531326294
visibility: 0.9998393654823303
","x: 211.6110076904297
y: 224.68649291992188
z: -0.26097944378852844
visibility: 0.9997951984405518
","x: 210.61752319335938
y: 224.03799438476562
z: -0.26098668575286865
visibility: 0.9997488260269165
","x: 222.09007263183594
y: 229.3229522705078
z: -0.1745871603488922
visibility: 0.9998980164527893
","x: 209.58328247070312
y: 225.25152587890625
z: -0.16241338849067688
visibility: 0.9997603297233582
","x: 216.30145263671875
y: 239.7581329345703
z: -0.23614239692687988
visibility: 0.9999741911888123
","x: 211.25457763671875
y: 239.04946899414062
z: -0.23293177783489227
visibility: 0.9999619126319885
","x: 236.3262481689453
y: 264.7521667480469
z: -0.10005021095275879
visibility: 0.9999914765357971
","x: 197.7575225830078
y: 263.64453125
z: -0.077307790517807
visibility: 0.9999745488166809
","x: 244.0171661376953
y: 319.30487060546875
z: -0.05229360610246658
visibility: 0.996049702167511
","x: 190.4878692626953
y: 319.32861328125
z: -0.0034964580554515123
visibility: 0.944697916507721
","x: 246.60409545898438
y: 359.6130065917969
z: -0.14226260781288147
visibility: 0.9892300367355347
","x: 186.95611572265625
y: 363.0361328125
z: -0.0835530161857605
visibility: 0.9665794372558594
","x: 248.87037658691406
y: 372.49871826171875
z: -0.1683204472064972
visibility: 0.975456714630127
","x: 183.92176818847656
y: 378.77313232421875
z: -0.10820988565683365
visibility: 0.9421482682228088
","x: 246.8008270263672
y: 371.89862060546875
z: -0.2012147605419159
visibility: 0.9766692519187927
","x: 186.44117736816406
y: 377.8094482421875
z: -0.14335687458515167
visibility: 0.9478664398193359
","x: 245.37237548828125
y: 368.1263732910156
z: -0.15672650933265686
visibility: 0.9677748680114746
","x: 188.27247619628906
y: 372.7099609375
z: -0.0992780402302742
visibility: 0.9404067993164062
","x: 227.2798614501953
y: 366.5699462890625
z: -0.023273203521966934
visibility: 0.9995489716529846
","x: 206.06468200683594
y: 367.7271728515625
z: 0.023200388997793198
visibility: 0.9995598793029785
","x: 228.45127868652344
y: 446.56134033203125
z: -0.027289146557450294
visibility: 0.9947929382324219
","x: 210.49252319335938
y: 447.44647216796875
z: 0.025667328387498856
visibility: 0.987802267074585
","x: 233.65478515625
y: 520.5913696289062
z: 0.07079941034317017
visibility: 0.994544267654419
","x: 217.62904357910156
y: 519.5131225585938
z: 0.1350402981042862
visibility: 0.9910573959350586
","x: 233.60797119140625
y: 530.25537109375
z: 0.07244469225406647
visibility: 0.8769681453704834
","x: 221.7026824951172
y: 528.91796875
z: 0.1388576328754425
visibility: 0.9376198053359985
","x: 229.5609588623047
y: 545.4746704101562
z: -0.05122628062963486
visibility: 0.9906551241874695
","x: 207.06948852539062
y: 540.1183471679688
z: 0.028459209948778152
visibility: 0.9886223077774048
",,,,,,,,,,,,,,,,,,,,,,,,,,,,,,,,,,,,,,,,,,
19,"x: 213.0507354736328
y: 231.9080810546875
z: -0.25208404660224915
visibility: 0.9999714493751526
","x: 215.9619598388672
y: 225.28932189941406
z: -0.241099551320076
visibility: 0.9998891949653625
","x: 217.34054565429688
y: 225.52984619140625
z: -0.2411072701215744
visibility: 0.999902069568634
","x: 218.66029357910156
y: 225.75303649902344
z: -0.241130068898201
visibility: 0.9998921155929565
","x: 211.9640655517578
y: 224.05242919921875
z: -0.23902857303619385
visibility: 0.9998534321784973
","x: 210.72166442871094
y: 223.46824645996094
z: -0.2390284240245819
visibility: 0.999813437461853
","x: 209.6510009765625
y: 222.88954162597656
z: -0.23900535702705383
visibility: 0.9997715950012207
","x: 220.94436645507812
y: 228.19036865234375
z: -0.14547106623649597
visibility: 0.9999054074287415
","x: 208.3941192626953
y: 224.20751953125
z: -0.13595780730247498
visibility: 0.9997792840003967
","x: 215.06838989257812
y: 238.02528381347656
z: -0.2131151407957077
visibility: 0.9999758005142212
","x: 210.171630859375
y: 237.4698486328125
z: -0.2105981409549713
visibility: 0.9999645352363586
","x: 234.61061096191406
y: 263.02203369140625
z: -0.07962985336780548
visibility: 0.9999919533729553
","x: 196.32565307617188
y: 263.61834716796875
z: -0.035719133913517
visibility: 0.9999748468399048
","x: 244.5270538330078
y: 307.18878173828125
z: -0.04947204515337944
visibility: 0.9961575865745544
","x: 189.5383758544922
y: 318.7615661621094
z: 0.022064005956053734
visibility: 0.9469895958900452
","x: 251.27554321289062
y: 343.8784484863281
z: -0.1624884456396103
visibility: 0.9896284341812134
","x: 189.6552276611328
y: 363.0028991699219
z: -0.06078086420893669
visibility: 0.9678063988685608
","x: 255.8470001220703
y: 356.40423583984375
z: -0.19357073307037354
visibility: 0.9762860536575317
","x: 188.50424194335938
y: 379.5127868652344
z: -0.08518195897340775
visibility: 0.9436309933662415
","x: 253.60467529296875
y: 356.49713134765625
z: -0.2240794152021408
visibility: 0.9775435924530029
","x: 190.9638214111328
y: 378.84600830078125
z: -0.11793211847543716
visibility: 0.9491360187530518
","x: 251.6586151123047
y: 352.5461120605469
z: -0.17694176733493805
visibility: 0.9690293669700623
","x: 192.07669067382812
y: 373.6138610839844
z: -0.0751294195652008
visibility: 0.9416954517364502
","x: 226.0876007080078
y: 362.80194091796875
z: -0.02916068769991398
visibility: 0.999561607837677
","x: 205.44949340820312
y: 364.40850830078125
z: 0.029151728376746178
visibility: 0.9995612502098083
","x: 225.12242126464844
y: 442.93572998046875
z: -0.05713580921292305
visibility: 0.9937607645988464
","x: 211.4866943359375
y: 445.2782897949219
z: 0.022965380921959877
visibility: 0.9835739731788635
","x: 228.619873046875
y: 519.755126953125
z: 0.017038123682141304
visibility: 0.9936851859092712
","x: 217.66436767578125
y: 519.4860229492188
z: 0.10694704204797745
visibility: 0.9888132214546204
","x: 228.65870666503906
y: 530.177490234375
z: 0.01689273491501808
visibility: 0.8717291951179504
","x: 221.6410675048828
y: 529.34423828125
z: 0.10788430273532867
visibility: 0.9328141212463379
","x: 224.98439025878906
y: 542.3857421875
z: -0.10417889058589935
visibility: 0.9893923401832581
","x: 207.09449768066406
y: 540.0519409179688
z: 0.0008545387536287308
visibility: 0.9864667057991028
",,,,,,,,,,,,,,,,,,,,,,,,,,,,,,,,,,,,,,,,,,
20,"x: 213.32286071777344
y: 229.2783966064453
z: -0.25687092542648315
visibility: 0.9999738931655884
","x: 216.20645141601562
y: 222.35186767578125
z: -0.24592547118663788
visibility: 0.9998986721038818
","x: 217.59048461914062
y: 222.63363647460938
z: -0.24593763053417206
visibility: 0.9999101758003235
","x: 218.8645477294922
y: 222.91404724121094
z: -0.24595873057842255
visibility: 0.9999010562896729
","x: 212.12893676757812
y: 221.271728515625
z: -0.24411459267139435
visibility: 0.9998666644096375
","x: 210.7709503173828
y: 220.84420776367188
z: -0.24412307143211365
visibility: 0.9998304843902588
","x: 209.51820373535156
y: 220.40647888183594
z: -0.24410852789878845
visibility: 0.999792754650116
","x: 220.71022033691406
y: 225.76629638671875
z: -0.14696115255355835
visibility: 0.999912440776825
","x: 207.96231079101562
y: 222.0661163330078
z: -0.14067353308200836
visibility: 0.9997982978820801
","x: 215.34951782226562
y: 235.3239288330078
z: -0.21753959357738495
visibility: 0.9999775290489197
","x: 210.17593383789062
y: 235.01625061035156
z: -0.21504192054271698
visibility: 0.9999673962593079
","x: 233.87123107910156
y: 261.8603820800781
z: -0.07840214669704437
visibility: 0.999992311000824
","x: 195.36724853515625
y: 263.6150817871094
z: -0.03727833554148674
visibility: 0.9999759793281555
","x: 244.89381408691406
y: 306.4488830566406
z: -0.05136300250887871
visibility: 0.9962905049324036
","x: 188.22557067871094
y: 318.420654296875
z: 0.013546223752200603
visibility: 0.9499654769897461
","x: 255.09075927734375
y: 343.0638122558594
z: -0.17509637773036957
visibility: 0.9901803731918335
","x: 189.9275665283203
y: 361.7196960449219
z: -0.0795578584074974
visibility: 0.9694074988365173
","x: 261.02679443359375
y: 353.316650390625
z: -0.20445875823497772
visibility: 0.9774743318557739
","x: 189.2784423828125
y: 378.1173095703125
z: -0.10821305215358734
visibility: 0.9458114504814148
","x: 260.41705322265625
y: 353.3729248046875
z: -0.23459164798259735
visibility: 0.9787380695343018
","x: 192.4877166748047
y: 377.0263366699219
z: -0.14086128771305084
visibility: 0.9510750770568848
","x: 258.0403747558594
y: 349.87432861328125
z: -0.18750065565109253
visibility: 0.9707265496253967
","x: 193.40301513671875
y: 371.4672546386719
z: -0.09239161014556885
visibility: 0.9437199234962463
","x: 225.9923553466797
y: 363.03240966796875
z: -0.028650615364313126
visibility: 0.9995714426040649
","x: 205.55328369140625
y: 364.49456787109375
z: 0.028664404526352882
visibility: 0.9995677471160889
","x: 224.3450164794922
y: 442.51300048828125
z: -0.05537394434213638
visibility: 0.9925872087478638
","x: 211.90478515625
y: 444.0511779785156
z: 0.020656872540712357
visibility: 0.9804227352142334
","x: 222.69140625
y: 519.5562744140625
z: 0.030538856983184814
visibility: 0.9923911690711975
","x: 217.5804443359375
y: 519.4425048828125
z: 0.11132651567459106
visibility: 0.9870416522026062
","x: 223.50608825683594
y: 530.746826171875
z: 0.031428493559360504
visibility: 0.866129994392395
","x: 221.1431427001953
y: 530.0233154296875
z: 0.11269364506006241
visibility: 0.9288380146026611
","x: 219.2742462158203
y: 540.99853515625
z: -0.08995530009269714
visibility: 0.9877290725708008
","x: 206.98585510253906
y: 540.0548095703125
z: 0.0027230705600231886
visibility: 0.9847073554992676
",,,,,,,,,,,,,,,,,,,,,,,,,,,,,,,,,,,,,,,,,,
21,"x: 213.90618896484375
y: 228.10498046875
z: -0.16344472765922546
visibility: 0.9999760985374451
","x: 216.6855926513672
y: 220.87286376953125
z: -0.1491369903087616
visibility: 0.9999074935913086
","x: 218.07125854492188
y: 221.21182250976562
z: -0.1491866409778595
visibility: 0.9999178051948547
","x: 219.3526153564453
y: 221.58786010742188
z: -0.14920690655708313
visibility: 0.9999094605445862
","x: 212.7570343017578
y: 219.89553833007812
z: -0.14655117690563202
visibility: 0.9998785853385925
","x: 211.35617065429688
y: 219.55345153808594
z: -0.14652332663536072
visibility: 0.9998457431793213
","x: 210.07594299316406
y: 219.20620727539062
z: -0.14647641777992249
visibility: 0.9998117685317993
","x: 221.337890625
y: 224.68939208984375
z: -0.049124933779239655
visibility: 0.9999197125434875
","x: 208.37649536132812
y: 220.84288024902344
z: -0.03604898601770401
visibility: 0.9998165369033813
","x: 215.86265563964844
y: 234.33091735839844
z: -0.12451460212469101
visibility: 0.9999794363975525
","x: 210.876953125
y: 234.07412719726562
z: -0.12079489231109619
visibility: 0.9999702572822571
","x: 234.53598022460938
y: 260.6301574707031
z: -0.013462349772453308
visibility: 0.9999929666519165
","x: 195.81089782714844
y: 262.27081298828125
z: 0.05816086381673813
visibility: 0.9999772906303406
","x: 250.1341094970703
y: 294.8392028808594
z: -0.09668977558612823
visibility: 0.9964247345924377
","x: 185.29940795898438
y: 313.8927917480469
z: 0.08659859001636505
visibility: 0.9536707401275635
","x: 254.87489318847656
y: 303.7132568359375
z: -0.33836081624031067
visibility: 0.990785539150238
","x: 182.004150390625
y: 357.1991271972656
z: -0.024304015561938286
visibility: 0.9716458916664124
","x: 257.9842834472656
y: 312.00738525390625
z: -0.39303335547447205
visibility: 0.978896975517273
","x: 180.1988067626953
y: 373.8533935546875
z: -0.05333902686834335
visibility: 0.94936203956604
","x: 257.7947998046875
y: 308.8997802734375
z: -0.4087807238101959
visibility: 0.9800668358802795
","x: 183.3023223876953
y: 373.1396789550781
z: -0.08479020744562149
visibility: 0.9542489051818848
","x: 255.9038543701172
y: 305.83721923828125
z: -0.3504877984523773
visibility: 0.9724142551422119
","x: 185.6212158203125
y: 366.3564758300781
z: -0.0389586016535759
visibility: 0.94716876745224
","x: 226.16012573242188
y: 363.28741455078125
z: -0.03719117492437363
visibility: 0.9996014833450317
","x: 205.703857421875
y: 364.8231201171875
z: 0.03729865700006485
visibility: 0.9995889663696289
","x: 223.6273956298828
y: 443.2718505859375
z: -0.06513766944408417
visibility: 0.9916236400604248
","x: 211.87542724609375
y: 444.2200927734375
z: 0.020127933472394943
visibility: 0.9785013198852539
","x: 222.68453979492188
y: 519.58154296875
z: 0.03156408295035362
visibility: 0.9914379715919495
","x: 217.594482421875
y: 519.216064453125
z: 0.12010087817907333
visibility: 0.9852858185768127
","x: 223.50315856933594
y: 531.1694946289062
z: 0.033766262233257294
visibility: 0.8642618060112
","x: 221.07859802246094
y: 529.8455810546875
z: 0.1241055279970169
visibility: 0.9273679852485657
","x: 217.31532287597656
y: 541.0516357421875
z: -0.08789688348770142
visibility: 0.9864808320999146
","x: 207.05223083496094
y: 540.3357543945312
z: 0.019725870341062546
visibility: 0.9831652045249939
",,,,,,,,,,,,,,,,,,,,,,,,,,,,,,,,,,,,,,,,,,
22,"x: 215.0958709716797
y: 228.92066955566406
z: -0.18252521753311157
visibility: 0.999978244304657
","x: 217.5817108154297
y: 221.73977661132812
z: -0.1689945012331009
visibility: 0.9999157786369324
","x: 218.91444396972656
y: 221.9920654296875
z: -0.16903714835643768
visibility: 0.9999253153800964
","x: 220.11624145507812
y: 222.29635620117188
z: -0.16906443238258362
visibility: 0.9999176263809204
","x: 213.91445922851562
y: 220.8385009765625
z: -0.16496942937374115
visibility: 0.9998889565467834
","x: 212.58724975585938
y: 220.4512939453125
z: -0.16493664681911469
visibility: 0.9998590350151062
","x: 211.275634765625
y: 220.06727600097656
z: -0.16492271423339844
visibility: 0.9998278021812439
","x: 221.8944549560547
y: 225.33169555664062
z: -0.07599381357431412
visibility: 0.999926745891571
","x: 209.6197967529297
y: 221.39556884765625
z: -0.056343358010053635
visibility: 0.9998326301574707
","x: 217.39707946777344
y: 235.2882537841797
z: -0.14646074175834656
visibility: 0.9999813437461853
","x: 212.48219299316406
y: 234.91868591308594
z: -0.14092715084552765
visibility: 0.999972939491272
","x: 234.80458068847656
y: 265.70062255859375
z: -0.03561178967356682
visibility: 0.999993622303009
","x: 196.04754638671875
y: 264.2965087890625
z: 0.04056364670395851
visibility: 0.9999786019325256
","x: 249.76593017578125
y: 309.8146667480469
z: -0.1316825896501541
visibility: 0.9964808225631714
","x: 185.46092224121094
y: 318.7685852050781
z: 0.08143818378448486
visibility: 0.9565926194190979
","x: 258.1739807128906
y: 296.64617919921875
z: -0.36100345849990845
visibility: 0.9915732741355896
","x: 172.0923309326172
y: 357.55108642578125
z: -0.00586451543495059
visibility: 0.9738872647285461
","x: 263.34796142578125
y: 290.2506103515625
z: -0.40570393204689026
visibility: 0.9807037115097046
","x: 166.99386596679688
y: 373.430419921875
z: -0.02228943631052971
visibility: 0.9530263543128967
","x: 261.79443359375
y: 284.4158630371094
z: -0.41800063848495483
visibility: 0.9817822575569153
","x: 167.55328369140625
y: 372.6776428222656
z: -0.05664871260523796
visibility: 0.9575671553611755
","x: 259.152099609375
y: 286.4120788574219
z: -0.3714982569217682
visibility: 0.9747422933578491
","x: 169.7750244140625
y: 366.17431640625
z: -0.02207368239760399
visibility: 0.9510765671730042
","x: 225.5899200439453
y: 370.54876708984375
z: -0.03688182681798935
visibility: 0.9996389150619507
","x: 205.286376953125
y: 371.5334777832031
z: 0.03691543638706207
visibility: 0.9996235966682434
","x: 219.88893127441406
y: 450.83966064453125
z: -0.0767550989985466
visibility: 0.9916760921478271
","x: 208.03952026367188
y: 452.5237731933594
z: 0.017664486542344093
visibility: 0.9783303141593933
","x: 221.27365112304688
y: 520.296142578125
z: 0.06806094199419022
visibility: 0.9913457632064819
","x: 217.2176055908203
y: 517.189453125
z: 0.23088538646697998
visibility: 0.9816728830337524
","x: 223.87771606445312
y: 533.2640380859375
z: 0.07796439528465271
visibility: 0.8615551590919495
","x: 220.8391876220703
y: 525.4070434570312
z: 0.2478579580783844
visibility: 0.9191921353340149
","x: 213.2008819580078
y: 543.7493286132812
z: -0.03667203336954117
visibility: 0.9862958192825317
","x: 206.36070251464844
y: 540.2689208984375
z: 0.16765093803405762
visibility: 0.9809608459472656
",,,,,,,,,,,,,,,,,,,,,,,,,,,,,,,,,,,,,,,,,,
23,"x: 215.21664428710938
y: 224.96107482910156
z: -0.21128873527050018
visibility: 0.9999793767929077
","x: 217.74618530273438
y: 217.96807861328125
z: -0.20090313255786896
visibility: 0.9999205470085144
","x: 219.06845092773438
y: 218.18218994140625
z: -0.20093508064746857
visibility: 0.9999295473098755
","x: 220.2686767578125
y: 218.38819885253906
z: -0.20095780491828918
visibility: 0.9999223947525024
","x: 213.99349975585938
y: 217.3511505126953
z: -0.19753308594226837
visibility: 0.9998961687088013
","x: 212.64492797851562
y: 217.07968139648438
z: -0.1975225806236267
visibility: 0.9998685717582703
","x: 211.35882568359375
y: 216.79283142089844
z: -0.19751161336898804
visibility: 0.9998401403427124
","x: 222.10818481445312
y: 221.32630920410156
z: -0.10857607424259186
visibility: 0.9999310374259949
","x: 209.78912353515625
y: 218.28701782226562
z: -0.08953052759170532
visibility: 0.9998447299003601
","x: 217.45266723632812
y: 231.4802703857422
z: -0.17332033812999725
visibility: 0.9999826550483704
","x: 212.5933074951172
y: 231.5389404296875
z: -0.1697855293750763
visibility: 0.9999747276306152
","x: 234.904052734375
y: 258.3896484375
z: -0.037652842700481415
visibility: 0.9999939799308777
","x: 196.50062561035156
y: 260.571533203125
z: 0.010945881716907024
visibility: 0.9999783039093018
","x: 258.4230651855469
y: 298.5181579589844
z: -0.1711224764585495
visibility: 0.996762216091156
","x: 184.15142822265625
y: 310.0159912109375
z: 0.05549357086420059
visibility: 0.9593603610992432
","x: 248.13717651367188
y: 290.6832275390625
z: -0.37001317739486694
visibility: 0.9921280145645142
","x: 171.69497680664062
y: 348.2716369628906
z: -0.037078458815813065
visibility: 0.9751962423324585
","x: 243.0307159423828
y: 299.8138732910156
z: -0.41587620973587036
visibility: 0.9816864132881165
","x: 167.64808654785156
y: 362.55938720703125
z: -0.055933672934770584
visibility: 0.9546300172805786
","x: 240.0680389404297
y: 293.9667053222656
z: -0.41730135679244995
visibility: 0.982610285282135
","x: 169.71609497070312
y: 361.7372131347656
z: -0.09386572241783142
visibility: 0.9589026570320129
","x: 240.63726806640625
y: 291.0589904785156
z: -0.37389999628067017
visibility: 0.9755885601043701
","x: 171.46603393554688
y: 356.465576171875
z: -0.05400938540697098
visibility: 0.9524551033973694
","x: 225.10818481445312
y: 369.6302795410156
z: -0.03745156154036522
visibility: 0.9996606111526489
","x: 204.4256134033203
y: 367.7131652832031
z: 0.037481147795915604
visibility: 0.999634861946106
","x: 221.1602020263672
y: 450.25244140625
z: -0.07138294726610184
visibility: 0.9917050004005432
","x: 203.0277099609375
y: 449.1766052246094
z: 0.0182359516620636
visibility: 0.9788734316825867
","x: 221.62689208984375
y: 521.1614990234375
z: 0.04335698112845421
visibility: 0.9915605187416077
","x: 216.30531311035156
y: 516.1137084960938
z: 0.17873066663742065
visibility: 0.9819974899291992
","x: 223.74118041992188
y: 535.068603515625
z: 0.04829990118741989
visibility: 0.8633995652198792
","x: 220.35745239257812
y: 524.7960815429688
z: 0.18688464164733887
visibility: 0.921032190322876
","x: 214.25132751464844
y: 543.76220703125
z: -0.07598212361335754
visibility: 0.9864163398742676
","x: 205.0017547607422
y: 539.77978515625
z: 0.09118197858333588
visibility: 0.9809707999229431
",,,,,,,,,,,,,,,,,,,,,,,,,,,,,,,,,,,,,,,,,,
24,"x: 210.61578369140625
y: 221.55575561523438
z: -0.12000308930873871
visibility: 0.9999794363975525
","x: 213.20513916015625
y: 214.5723114013672
z: -0.1146664172410965
visibility: 0.9999229907989502
","x: 214.73236083984375
y: 214.5068359375
z: -0.1147146001458168
visibility: 0.9999308586120605
","x: 216.14608764648438
y: 214.47918701171875
z: -0.11474218219518661
visibility: 0.9999249577522278
","x: 209.66517639160156
y: 214.64048767089844
z: -0.10231165587902069
visibility: 0.9999013543128967
","x: 208.71871948242188
y: 214.57037353515625
z: -0.10226038843393326
visibility: 0.9998751878738403
","x: 207.79762268066406
y: 214.43487548828125
z: -0.10222955048084259
visibility: 0.9998502731323242
","x: 219.44183349609375
y: 217.09268188476562
z: -0.05492834001779556
visibility: 0.9999342560768127
","x: 207.85861206054688
y: 216.0498046875
z: 0.0022544744424521923
visibility: 0.9998502135276794
","x: 213.6719207763672
y: 227.8768310546875
z: -0.09611108154058456
visibility: 0.9999829530715942
","x: 209.2742462158203
y: 227.82199096679688
z: -0.07969687879085541
visibility: 0.9999746084213257
","x: 234.51248168945312
y: 252.23233032226562
z: -0.041850052773952484
visibility: 0.9999942183494568
","x: 196.4971923828125
y: 256.5905456542969
z: 0.09329243749380112
visibility: 0.999975860118866
","x: 257.28851318359375
y: 281.88604736328125
z: -0.11176832765340805
visibility: 0.996961236000061
","x: 183.15341186523438
y: 301.64007568359375
z: 0.11277737468481064
visibility: 0.9578025341033936
","x: 237.9530792236328
y: 305.08685302734375
z: -0.21771378815174103
visibility: 0.9924689531326294
","x: 172.388427734375
y: 340.0830383300781
z: -0.01657235436141491
visibility: 0.9756090641021729
","x: 234.95242309570312
y: 317.13201904296875
z: -0.25539377331733704
visibility: 0.9822049140930176
","x: 169.3111114501953
y: 352.1664733886719
z: -0.04424389451742172
visibility: 0.9554043412208557
","x: 230.41954040527344
y: 313.1643981933594
z: -0.26236969232559204
visibility: 0.9829747676849365
","x: 171.81903076171875
y: 351.1256103515625
z: -0.07169674336910248
visibility: 0.9595030546188354
","x: 230.23178100585938
y: 310.1479797363281
z: -0.22077131271362305
visibility: 0.9757799506187439
","x: 173.28753662109375
y: 346.7504577636719
z: -0.03160352632403374
visibility: 0.9529042840003967
","x: 223.51605224609375
y: 367.3994445800781
z: -0.0427466481924057
visibility: 0.9996628165245056
","x: 202.96466064453125
y: 364.5196838378906
z: 0.0428258441388607
visibility: 0.9996365308761597
","x: 222.28372192382812
y: 447.8208923339844
z: -0.06992202252149582
visibility: 0.9919307231903076
","x: 200.81808471679688
y: 444.81524658203125
z: 0.015727996826171875
visibility: 0.9798825979232788
","x: 221.649658203125
y: 521.132080078125
z: 0.0025280460249632597
visibility: 0.9915919899940491
","x: 210.19363403320312
y: 516.1964721679688
z: 0.1047297939658165
visibility: 0.9826571941375732
","x: 222.45909118652344
y: 534.752197265625
z: 0.001944568008184433
visibility: 0.8660198450088501
","x: 214.62623596191406
y: 524.8345947265625
z: 0.10598671436309814
visibility: 0.9238311648368835
","x: 216.00657653808594
y: 542.9441528320312
z: -0.11263444274663925
visibility: 0.9862947463989258
","x: 196.7334747314453
y: 539.6396484375
z: 0.01913272961974144
visibility: 0.9812358021736145
",,,,,,,,,,,,,,,,,,,,,,,,,,,,,,,,,,,,,,,,,,
25,"x: 207.27626037597656
y: 221.0724639892578
z: -0.14556318521499634
visibility: 0.9999790191650391
","x: 209.69630432128906
y: 213.64840698242188
z: -0.14097139239311218
visibility: 0.999923586845398
","x: 211.03668212890625
y: 213.56973266601562
z: -0.14103849232196808
visibility: 0.9999315738677979
","x: 212.44871520996094
y: 213.55674743652344
z: -0.1410731077194214
visibility: 0.9999269843101501
","x: 206.32598876953125
y: 213.7088165283203
z: -0.1289013922214508
visibility: 0.9999015927314758
","x: 205.41860961914062
y: 213.6337127685547
z: -0.12886735796928406
visibility: 0.9998761415481567
","x: 204.53369140625
y: 213.529541015625
z: -0.12885501980781555
visibility: 0.9998531937599182
","x: 215.77777099609375
y: 216.6227569580078
z: -0.0829659104347229
visibility: 0.9999368190765381
","x: 205.15882873535156
y: 215.56622314453125
z: -0.02833583578467369
visibility: 0.999836802482605
