uscmakers/ReverseChoreography/data/5_knife_talk_drake.csv
,NOSE,LEFT_EYE_INNER,LEFT_EYE,LEFT_EYE_OUTER,RIGHT_EYE_INNER,RIGHT_EYE,RIGHT_EYE_OUTER,LEFT_EAR,RIGHT_EAR,MOUTH_LEFT,MOUTH_RIGHT,LEFT_SHOULDER,RIGHT_SHOULDER,LEFT_ELBOW,RIGHT_ELBOW,LEFT_WRIST,RIGHT_WRIST,LEFT_PINKY,RIGHT_PINKY,LEFT_INDEX,RIGHT_INDEX,LEFT_THUMB,RIGHT_THUMB,LEFT_HIP,RIGHT_HIP,LEFT_KNEE,RIGHT_KNEE,LEFT_ANKLE,RIGHT_ANKLE,LEFT_HEEL,RIGHT_HEEL,LEFT_FOOT_INDEX,RIGHT_FOOT_INDEX,WRIST,THUMB_CPC,THUMB_MCP,THUMB_IP,THUMB_TIP,INDEX_FINGER_MCP,INDEX_FINGER_PIP,INDEX_FINGER_DIP,INDEX_FINGER_TIP,MIDDLE_FINGER_MCP,MIDDLE_FINGER_PIP,MIDDLE_FINGER_DIP,MIDDLE_FINGER_TIP,RING_FINGER_PIP,RING_FINGER_DIP,RING_FINGER_TIP,RING_FINGER_MCP,PINKY_MCP,PINKY_PIP,PINKY_DIP,PINKY_TIP,WRIST2,THUMB_CPC2,THUMB_MCP2,THUMB_IP2,THUMB_TIP2,INDEX_FINGER_MCP2,INDEX_FINGER_PIP2,INDEX_FINGER_DIP2,INDEX_FINGER_TIP2,MIDDLE_FINGER_MCP2,MIDDLE_FINGER_PIP2,MIDDLE_FINGER_DIP2,MIDDLE_FINGER_TIP2,RING_FINGER_PIP2,RING_FINGER_DIP2,RING_FINGER_TIP2,RING_FINGER_MCP2,PINKY_MCP2,PINKY_PIP2,PINKY_DIP2,PINKY_TIP2
0,"x: 230.46356201171875
y: 195.6363525390625
z: -0.33636021614074707
visibility: 0.9999953508377075
","x: 234.91854858398438
y: 187.51295471191406
z: -0.32726871967315674
visibility: 0.9999829530715942
","x: 236.9910430908203
y: 187.7534637451172
z: -0.32729747891426086
visibility: 0.9999827146530151
","x: 238.6889190673828
y: 188.05902099609375
z: -0.3273180425167084
visibility: 0.9999816417694092
","x: 229.1746063232422
y: 185.78228759765625
z: -0.32190167903900146
visibility: 0.9999799728393555
","x: 227.5142364501953
y: 184.82736206054688
z: -0.3219059109687805
visibility: 0.9999767541885376
","x: 226.10609436035156
y: 183.9794921875
z: -0.32192620635032654
visibility: 0.9999767541885376
","x: 241.54148864746094
y: 190.1136016845703
z: -0.21399304270744324
visibility: 0.9999812841415405
","x: 225.43679809570312
y: 183.8194122314453
z: -0.18607191741466522
visibility: 0.9999653100967407
","x: 234.2271728515625
y: 202.91258239746094
z: -0.2886980473995209
visibility: 0.9999978542327881
","x: 226.86221313476562
y: 201.08299255371094
z: -0.28108420968055725
visibility: 0.9999969005584717
","x: 255.9643096923828
y: 237.5454559326172
z: -0.12062054872512817
visibility: 0.9999984502792358
","x: 207.1586151123047
y: 224.22116088867188
z: -0.05732331424951553
visibility: 0.999991774559021
","x: 266.29437255859375
y: 298.51458740234375
z: -0.12721553444862366
visibility: 0.9977802634239197
","x: 191.99057006835938
y: 286.31121826171875
z: 0.01708451472222805
visibility: 0.9801712036132812
","x: 251.80389404296875
y: 321.402099609375
z: -0.31750285625457764
visibility: 0.994167685508728
","x: 183.26177978515625
y: 340.3894348144531
z: -0.11439873278141022
visibility: 0.981385350227356
","x: 247.80487060546875
y: 336.75897216796875
z: -0.36576926708221436
visibility: 0.985335111618042
","x: 178.15829467773438
y: 354.3009033203125
z: -0.1504228264093399
visibility: 0.9640605449676514
","x: 244.02145385742188
y: 329.526123046875
z: -0.3910411298274994
visibility: 0.9854689240455627
","x: 179.7397918701172
y: 354.2739562988281
z: -0.1929105520248413
visibility: 0.9667796492576599
","x: 244.2923126220703
y: 324.0860595703125
z: -0.3295292556285858
visibility: 0.9762685298919678
","x: 182.91546630859375
y: 349.8997802734375
z: -0.1336517035961151
visibility: 0.9588165283203125
","x: 233.54336547851562
y: 368.5251159667969
z: -0.022024143487215042
visibility: 0.9998348951339722
","x: 206.19479370117188
y: 361.5148620605469
z: 0.02198813669383526
visibility: 0.9997625946998596
","x: 232.23873901367188
y: 463.6998291015625
z: -0.05155950039625168
visibility: 0.9989452958106995
","x: 199.99691772460938
y: 461.3049011230469
z: 0.028866702690720558
visibility: 0.9977433681488037
","x: 232.67369079589844
y: 554.3740234375
z: 0.11749406158924103
visibility: 0.9982579350471497
","x: 195.91830444335938
y: 541.1278076171875
z: 0.23293133080005646
visibility: 0.9963296055793762
","x: 235.2688751220703
y: 569.256591796875
z: 0.12473069131374359
visibility: 0.916235089302063
","x: 197.4615478515625
y: 548.7763671875
z: 0.24508309364318848
visibility: 0.9469555020332336
","x: 216.21414184570312
y: 582.9378662109375
z: -0.03830970823764801
visibility: 0.9958840012550354
","x: 188.4717559814453
y: 573.055419921875
z: 0.10919620096683502
visibility: 0.9945660829544067
","x: 180.9838104248047
y: 342.81219482421875
z: 0.0
","x: 184.07835388183594
y: 350.2862854003906
z: 0.0010091596050187945
","x: 184.5452423095703
y: 357.52783203125
z: 0.0011668188963085413
","x: 183.5572967529297
y: 363.25830078125
z: 0.0010762112215161324
","x: 182.71107482910156
y: 367.18975830078125
z: 0.0016143297543749213
","x: 178.89532470703125
y: 362.5280456542969
z: 0.0011043139966204762
","x: 177.86476135253906
y: 369.31549072265625
z: 0.0016787303611636162
","x: 179.12911987304688
y: 367.99810791015625
z: 0.003204642329365015
","x: 179.92739868164062
y: 365.34844970703125
z: 0.004448528867214918
","x: 176.5758514404297
y: 359.729736328125
z: 0.00041308137588202953
","x: 176.10687255859375
y: 365.23681640625
z: 0.0019372588722035289
","x: 177.61270141601562
y: 363.86334228515625
z: 0.0038738870061933994
","x: 178.32308959960938
y: 361.5728759765625
z: 0.0051171379163861275
","x: 174.94427490234375
y: 356.08203125
z: -0.00024392004706896842
","x: 174.95028686523438
y: 360.21136474609375
z: 0.0007597634685225785
","x: 176.38812255859375
y: 359.0472717285156
z: 0.002135656774044037
","x: 177.03890991210938
y: 357.03887939453125
z: 0.0030167049262672663
","x: 173.86778259277344
y: 352.1783752441406
z: -0.0009303573751822114
","x: 174.09031677246094
y: 355.34173583984375
z: -0.0005396016058512032
","x: 175.33949279785156
y: 354.7663879394531
z: 0.0003213712479919195
","x: 175.94784545898438
y: 353.16424560546875
z: 0.001208482775837183
",,,,,,,,,,,,,,,,,,,,,
1,"x: 230.46356201171875
y: 195.6363525390625
z: -0.33636021614074707
visibility: 0.9999953508377075
","x: 234.91854858398438
y: 187.51295471191406
z: -0.32726871967315674
visibility: 0.9999829530715942
","x: 236.9910430908203
y: 187.7534637451172
z: -0.32729747891426086
visibility: 0.9999827146530151
","x: 238.6889190673828
y: 188.05902099609375
z: -0.3273180425167084
visibility: 0.9999816417694092
","x: 229.1746063232422
y: 185.78228759765625
z: -0.32190167903900146
visibility: 0.9999799728393555
","x: 227.5142364501953
y: 184.82736206054688
z: -0.3219059109687805
visibility: 0.9999767541885376
","x: 226.10609436035156
y: 183.9794921875
z: -0.32192620635032654
visibility: 0.9999767541885376
","x: 241.54148864746094
y: 190.1136016845703
z: -0.21399304270744324
visibility: 0.9999812841415405
","x: 225.43679809570312
y: 183.8194122314453
z: -0.18607191741466522
visibility: 0.9999653100967407
","x: 234.2271728515625
y: 202.91258239746094
z: -0.2886980473995209
visibility: 0.9999978542327881
","x: 226.86221313476562
y: 201.08299255371094
z: -0.28108420968055725
visibility: 0.9999969005584717
","x: 255.9643096923828
y: 237.5454559326172
z: -0.12062054872512817
visibility: 0.9999984502792358
","x: 207.1586151123047
y: 224.22116088867188
z: -0.05732331424951553
visibility: 0.999991774559021
","x: 266.29437255859375
y: 298.51458740234375
z: -0.12721553444862366
visibility: 0.9977802634239197
","x: 191.99057006835938
y: 286.31121826171875
z: 0.01708451472222805
visibility: 0.9801712036132812
","x: 251.80389404296875
y: 321.402099609375
z: -0.31750285625457764
visibility: 0.994167685508728
","x: 183.26177978515625
y: 340.3894348144531
z: -0.11439873278141022
visibility: 0.981385350227356
","x: 247.80487060546875
y: 336.75897216796875
z: -0.36576926708221436
visibility: 0.985335111618042
","x: 178.15829467773438
y: 354.3009033203125
z: -0.1504228264093399
visibility: 0.9640605449676514
","x: 244.02145385742188
y: 329.526123046875
z: -0.3910411298274994
visibility: 0.9854689240455627
","x: 179.7397918701172
y: 354.2739562988281
z: -0.1929105520248413
visibility: 0.9667796492576599
","x: 244.2923126220703
y: 324.0860595703125
z: -0.3295292556285858
visibility: 0.9762685298919678
","x: 182.91546630859375
y: 349.8997802734375
z: -0.1336517035961151
visibility: 0.9588165283203125
","x: 233.54336547851562
y: 368.5251159667969
z: -0.022024143487215042
visibility: 0.9998348951339722
","x: 206.19479370117188
y: 361.5148620605469
z: 0.02198813669383526
visibility: 0.9997625946998596
","x: 232.23873901367188
y: 463.6998291015625
z: -0.05155950039625168
visibility: 0.9989452958106995
","x: 199.99691772460938
y: 461.3049011230469
z: 0.028866702690720558
visibility: 0.9977433681488037
","x: 232.67369079589844
y: 554.3740234375
z: 0.11749406158924103
visibility: 0.9982579350471497
","x: 195.91830444335938
y: 541.1278076171875
z: 0.23293133080005646
visibility: 0.9963296055793762
","x: 235.2688751220703
y: 569.256591796875
z: 0.12473069131374359
visibility: 0.916235089302063
","x: 197.4615478515625
y: 548.7763671875
z: 0.24508309364318848
visibility: 0.9469555020332336
","x: 216.21414184570312
y: 582.9378662109375
z: -0.03830970823764801
visibility: 0.9958840012550354
","x: 188.4717559814453
y: 573.055419921875
z: 0.10919620096683502
visibility: 0.9945660829544067
","x: 180.9838104248047
y: 342.81219482421875
z: 0.0
","x: 184.07835388183594
y: 350.2862854003906
z: 0.0010091596050187945
","x: 184.5452423095703
y: 357.52783203125
z: 0.0011668188963085413
","x: 183.5572967529297
y: 363.25830078125
z: 0.0010762112215161324
","x: 182.71107482910156
y: 367.18975830078125
z: 0.0016143297543749213
","x: 178.89532470703125
y: 362.5280456542969
z: 0.0011043139966204762
","x: 177.86476135253906
y: 369.31549072265625
z: 0.0016787303611636162
","x: 179.12911987304688
y: 367.99810791015625
z: 0.003204642329365015
","x: 179.92739868164062
y: 365.34844970703125
z: 0.004448528867214918
","x: 176.5758514404297
y: 359.729736328125
z: 0.00041308137588202953
","x: 176.10687255859375
y: 365.23681640625
z: 0.0019372588722035289
","x: 177.61270141601562
y: 363.86334228515625
z: 0.0038738870061933994
","x: 178.32308959960938
y: 361.5728759765625
z: 0.0051171379163861275
","x: 174.94427490234375
y: 356.08203125
z: -0.00024392004706896842
","x: 174.95028686523438
y: 360.21136474609375
z: 0.0007597634685225785
","x: 176.38812255859375
y: 359.0472717285156
z: 0.002135656774044037
","x: 177.03890991210938
y: 357.03887939453125
z: 0.0030167049262672663
","x: 173.86778259277344
y: 352.1783752441406
z: -0.0009303573751822114
","x: 174.09031677246094
y: 355.34173583984375
z: -0.0005396016058512032
","x: 175.33949279785156
y: 354.7663879394531
z: 0.0003213712479919195
","x: 175.94784545898438
y: 353.16424560546875
z: 0.001208482775837183
",,,,,,,,,,,,,,,,,,,,,
2,"x: 197.71461486816406
y: 195.82345581054688
z: -0.2888898253440857
visibility: 0.999991238117218
","x: 200.57528686523438
y: 187.478515625
z: -0.2784361243247986
visibility: 0.9999676942825317
","x: 202.5003662109375
y: 187.57859802246094
z: -0.2784861922264099
visibility: 0.999968409538269
","x: 204.25479125976562
y: 187.69003295898438
z: -0.27851855754852295
visibility: 0.9999675750732422
","x: 195.5608367919922
y: 186.47584533691406
z: -0.27097779512405396
visibility: 0.9999630451202393
","x: 194.0734100341797
y: 186.1533966064453
z: -0.27095478773117065
visibility: 0.9999558329582214
","x: 192.6797332763672
y: 185.9585723876953
z: -0.2709623873233795
visibility: 0.9999563097953796
","x: 208.39492797851562
y: 189.72314453125
z: -0.17423628270626068
visibility: 0.9999686479568481
","x: 192.59344482421875
y: 187.28811645507812
z: -0.13400377333164215
visibility: 0.9999160766601562
","x: 202.2945098876953
y: 203.4735870361328
z: -0.24573349952697754
visibility: 0.9999948740005493
","x: 196.74563598632812
y: 203.46885681152344
z: -0.23462173342704773
visibility: 0.9999911785125732
","x: 228.77491760253906
y: 235.53179931640625
z: -0.10701719671487808
visibility: 0.999997615814209
","x: 180.52340698242188
y: 234.3720703125
z: -0.018644768744707108
visibility: 0.9999853372573853
","x: 241.56983947753906
y: 294.7461242675781
z: -0.13134290277957916
visibility: 0.9975297451019287
","x: 173.12985229492188
y: 298.37603759765625
z: 0.017308490350842476
visibility: 0.9717907905578613
","x: 224.23214721679688
y: 318.60955810546875
z: -0.31750041246414185
visibility: 0.9934113025665283
","x: 178.220458984375
y: 342.58990478515625
z: -0.13652095198631287
visibility: 0.977295994758606
","x: 219.96884155273438
y: 333.62371826171875
z: -0.3664844334125519
visibility: 0.9837524890899658
","x: 175.76971435546875
y: 356.8721008300781
z: -0.1793300211429596
visibility: 0.95855712890625
","x: 215.60809326171875
y: 326.5147705078125
z: -0.38806959986686707
visibility: 0.9838077425956726
","x: 178.9015655517578
y: 355.93817138671875
z: -0.21020570397377014
visibility: 0.9612390995025635
","x: 215.4652099609375
y: 321.55523681640625
z: -0.32834547758102417
visibility: 0.9736980199813843
","x: 180.86050415039062
y: 350.99285888671875
z: -0.1524793803691864
visibility: 0.952089250087738
","x: 218.5759735107422
y: 367.23150634765625
z: -0.0349733792245388
visibility: 0.9997142553329468
","x: 193.0411376953125
y: 363.97882080078125
z: 0.03497765213251114
visibility: 0.9997007250785828
","x: 220.47808837890625
y: 463.56378173828125
z: -0.028075745329260826
visibility: 0.9988163113594055
","x: 194.16961669921875
y: 464.08319091796875
z: 0.028054866939783096
visibility: 0.9974976778030396
","x: 230.14398193359375
y: 549.3432006835938
z: 0.16349118947982788
visibility: 0.9980617165565491
","x: 196.78298950195312
y: 549.7382202148438
z: 0.18168631196022034
visibility: 0.9963268041610718
","x: 232.74481201171875
y: 560.00537109375
z: 0.17333999276161194
visibility: 0.9113765954971313
","x: 200.8119659423828
y: 561.4744873046875
z: 0.18810409307479858
visibility: 0.9488853812217712
","x: 217.5928955078125
y: 579.607177734375
z: 0.019792569801211357
visibility: 0.9955798387527466
","x: 188.46966552734375
y: 581.9799194335938
z: 0.05464663356542587
visibility: 0.9944711327552795
",,,,,,,,,,,,,,,,,,,,,,,,,,,,,,,,,,,,,,,,,,
3,"x: 197.92556762695312
y: 197.58517456054688
z: -0.3030967116355896
visibility: 0.9999819993972778
","x: 200.06568908691406
y: 188.77854919433594
z: -0.2926749587059021
visibility: 0.9999375939369202
","x: 201.7122344970703
y: 188.38409423828125
z: -0.29273632168769836
visibility: 0.9999438524246216
","x: 203.20655822753906
y: 188.0693817138672
z: -0.2927963137626648
visibility: 0.9999439716339111
","x: 195.4493865966797
y: 189.28021240234375
z: -0.2864767014980316
visibility: 0.9999225735664368
","x: 193.9812469482422
y: 189.38002014160156
z: -0.28645673394203186
visibility: 0.9999048709869385
","x: 192.5917510986328
y: 189.5948944091797
z: -0.28646212816238403
visibility: 0.9998917579650879
","x: 206.80746459960938
y: 189.76434326171875
z: -0.18220600485801697
visibility: 0.9999487400054932
","x: 192.79327392578125
y: 190.9060821533203
z: -0.1489298939704895
visibility: 0.9998299479484558
","x: 202.0500946044922
y: 204.62405395507812
z: -0.2570338547229767
visibility: 0.9999908804893494
","x: 197.03175354003906
y: 205.4075927734375
z: -0.24793216586112976
visibility: 0.9999815821647644
","x: 226.77517700195312
y: 231.96676635742188
z: -0.10754630714654922
visibility: 0.9999974966049194
","x: 179.30166625976562
y: 236.6836395263672
z: -0.017260216176509857
visibility: 0.9999799728393555
","x: 244.8241729736328
y: 286.86175537109375
z: -0.19663949310779572
visibility: 0.9976691603660583
","x: 171.1378936767578
y: 304.7577209472656
z: 0.05606118589639664
visibility: 0.9664165377616882
","x: 219.42063903808594
y: 295.1680908203125
z: -0.41592225432395935
visibility: 0.9938229918479919
","x: 168.7000732421875
y: 353.2164001464844
z: -0.05199664086103439
visibility: 0.9726710915565491
","x: 214.605712890625
y: 307.2850646972656
z: -0.4710828363895416
visibility: 0.9845649600028992
","x: 167.71417236328125
y: 370.0107421875
z: -0.08261673897504807
visibility: 0.9514352083206177
","x: 210.2318115234375
y: 302.26275634765625
z: -0.47741323709487915
visibility: 0.9845788478851318
","x: 169.605224609375
y: 369.65557861328125
z: -0.12045498937368393
visibility: 0.9543572068214417
","x: 210.65213012695312
y: 299.33831787109375
z: -0.4207419753074646
visibility: 0.974743127822876
","x: 170.4434814453125
y: 364.462646484375
z: -0.06945153325796127
visibility: 0.9439206719398499
","x: 218.15078735351562
y: 366.99945068359375
z: -0.03309919685125351
visibility: 0.9997032880783081
","x: 190.50814819335938
y: 366.98046875
z: 0.033108700066804886
visibility: 0.9996864199638367
","x: 223.2865447998047
y: 464.41534423828125
z: -0.02179005555808544
visibility: 0.9986863732337952
","x: 194.44935607910156
y: 467.4702453613281
z: 0.04231475666165352
visibility: 0.9973220229148865
","x: 233.88478088378906
y: 551.530517578125
z: 0.14777842164039612
visibility: 0.9978536367416382
","x: 198.27297973632812
y: 556.079345703125
z: 0.19413283467292786
visibility: 0.9962663650512695
","x: 233.3185272216797
y: 560.9644165039062
z: 0.15764670073986053
visibility: 0.9109529852867126
","x: 203.4110870361328
y: 569.478515625
z: 0.20087972283363342
visibility: 0.9488691687583923
","x: 234.27227783203125
y: 581.6107177734375
z: -0.0038656715769320726
visibility: 0.9951812624931335
","x: 188.08627319335938
y: 586.1785888671875
z: 0.06621290743350983
visibility: 0.9942291975021362
",,,,,,,,,,,,,,,,,,,,,,,,,,,,,,,,,,,,,,,,,,
4,"x: 197.52940368652344
y: 200.0985870361328
z: -0.2320851981639862
visibility: 0.9999629855155945
","x: 199.37985229492188
y: 190.3787384033203
z: -0.22965192794799805
visibility: 0.9998900294303894
","x: 201.01959228515625
y: 189.45303344726562
z: -0.2297191172838211
visibility: 0.9998986124992371
","x: 202.71340942382812
y: 188.66212463378906
z: -0.2297779619693756
visibility: 0.9999011754989624
","x: 195.58529663085938
y: 191.98782348632812
z: -0.21551425755023956
visibility: 0.9998631477355957
","x: 194.5389862060547
y: 192.16732788085938
z: -0.21549710631370544
visibility: 0.9998298287391663
","x: 193.53025817871094
y: 192.42364501953125
z: -0.2155175507068634
visibility: 0.999822199344635
","x: 207.9114532470703
y: 189.8210906982422
z: -0.14768509566783905
visibility: 0.9999146461486816
","x: 194.99417114257812
y: 192.76736450195312
z: -0.0777643620967865
visibility: 0.9997115731239319
","x: 202.3167724609375
y: 206.15521240234375
z: -0.1960265040397644
visibility: 0.999980628490448
","x: 197.17613220214844
y: 207.66387939453125
z: -0.1761690080165863
visibility: 0.9999604225158691
","x: 230.13473510742188
y: 229.77378845214844
z: -0.08884654939174652
visibility: 0.999996542930603
","x: 183.3195343017578
y: 235.73794555664062
z: 0.0447983518242836
visibility: 0.9999755620956421
","x: 248.1448516845703
y: 282.2201232910156
z: -0.165732741355896
visibility: 0.9972440004348755
","x: 173.42929077148438
y: 301.3772888183594
z: 0.11044041067361832
visibility: 0.9582244753837585
","x: 223.8244171142578
y: 301.4664611816406
z: -0.326052725315094
visibility: 0.9930957555770874
","x: 168.8914794921875
y: 351.17864990234375
z: -0.02332904189825058
visibility: 0.9700899720191956
","x: 220.424072265625
y: 314.7995910644531
z: -0.375137060880661
visibility: 0.9833023548126221
","x: 166.48052978515625
y: 367.3204345703125
z: -0.05588533729314804
visibility: 0.947906494140625
","x: 216.4124298095703
y: 308.9066467285156
z: -0.38860028982162476
visibility: 0.9832773804664612
","x: 167.74884033203125
y: 366.5391845703125
z: -0.09737987071275711
visibility: 0.9510868191719055
","x: 216.5906524658203
y: 304.9649658203125
z: -0.3329731822013855
visibility: 0.9724141955375671
","x: 169.26158142089844
y: 361.41949462890625
z: -0.043838586658239365
visibility: 0.9403836727142334
","x: 220.6380615234375
y: 366.6439514160156
z: -0.03887493163347244
visibility: 0.9996721744537354
","x: 192.73699951171875
y: 367.4572448730469
z: 0.03896830230951309
visibility: 0.9996680021286011
","x: 224.50955200195312
y: 465.21435546875
z: -0.036271922290325165
visibility: 0.9986385107040405
","x: 194.88583374023438
y: 469.02020263671875
z: 0.04098627343773842
visibility: 0.9973068237304688
","x: 235.55206298828125
y: 553.6394653320312
z: 0.07539702951908112
visibility: 0.9977978467941284
","x: 198.96734619140625
y: 557.3763427734375
z: 0.16263596713542938
visibility: 0.9963386654853821
","x: 233.9324188232422
y: 563.0578002929688
z: 0.07766205817461014
visibility: 0.9112268686294556
","x: 203.6891326904297
y: 571.046630859375
z: 0.16598011553287506
visibility: 0.9504345655441284
","x: 236.66148376464844
y: 583.4900512695312
z: -0.07957127690315247
visibility: 0.994965672492981
","x: 186.7801055908203
y: 586.2366943359375
z: 0.0355922132730484
visibility: 0.9942336678504944
",,,,,,,,,,,,,,,,,,,,,,,,,,,,,,,,,,,,,,,,,,
5,"x: 201.4568328857422
y: 199.91212463378906
z: -0.25482577085494995
visibility: 0.9999579787254333
","x: 203.84178161621094
y: 190.27944946289062
z: -0.24687230587005615
visibility: 0.9998787641525269
","x: 205.62725830078125
y: 189.4438934326172
z: -0.24694350361824036
visibility: 0.9998873472213745
","x: 207.42442321777344
y: 188.52252197265625
z: -0.2469983547925949
visibility: 0.9998916387557983
","x: 199.41934204101562
y: 191.7880096435547
z: -0.236825630068779
visibility: 0.9998499155044556
","x: 198.2566680908203
y: 191.88706970214844
z: -0.23681876063346863
visibility: 0.9998118877410889
","x: 197.22735595703125
y: 192.04345703125
z: -0.23681561648845673
visibility: 0.9998059868812561
","x: 211.82223510742188
y: 189.6379852294922
z: -0.1466948240995407
visibility: 0.9999048709869385
","x: 198.12106323242188
y: 192.5865936279297
z: -0.0956461951136589
visibility: 0.9996724128723145
","x: 206.41607666015625
y: 206.0470428466797
z: -0.21284933388233185
visibility: 0.9999762177467346
","x: 200.3208465576172
y: 207.385986328125
z: -0.19848406314849854
visibility: 0.9999524354934692
","x: 232.98434448242188
y: 228.90725708007812
z: -0.08351674675941467
visibility: 0.9999953508377075
","x: 186.5110321044922
y: 234.8583221435547
z: 0.028651898726820946
visibility: 0.9999673962593079
","x: 249.11007690429688
y: 282.0928955078125
z: -0.11496372520923615
visibility: 0.9968187808990479
","x: 175.48971557617188
y: 300.43048095703125
z: 0.09240879863500595
visibility: 0.9520500302314758
","x: 227.9440155029297
y: 309.6020202636719
z: -0.2657438814640045
visibility: 0.9919286966323853
","x: 170.42169189453125
y: 350.0662536621094
z: -0.04266315698623657
visibility: 0.9635676741600037
","x: 225.9810333251953
y: 324.8124694824219
z: -0.31252434849739075
visibility: 0.9809470176696777
","x: 167.86746215820312
y: 365.8743591308594
z: -0.07853899151086807
visibility: 0.9383261203765869
","x: 222.10850524902344
y: 321.4901123046875
z: -0.337832510471344
visibility: 0.9809955954551697
","x: 168.897705078125
y: 365.25830078125
z: -0.11950429528951645
visibility: 0.942177414894104
","x: 221.90296936035156
y: 316.22943115234375
z: -0.27764374017715454
visibility: 0.9690426588058472
","x: 170.6498565673828
y: 360.162109375
z: -0.06309408694505692
visibility: 0.9310476183891296
","x: 222.2644500732422
y: 365.9712219238281
z: -0.03651146963238716
visibility: 0.9996395111083984
","x: 194.76222229003906
y: 367.177490234375
z: 0.036558832973241806
visibility: 0.9996429681777954
","x: 224.7770233154297
y: 464.7655029296875
z: -0.035960279405117035
visibility: 0.9984662532806396
","x: 195.2104949951172
y: 468.3752136230469
z: 0.0296497642993927
visibility: 0.99725341796875
","x: 236.3056640625
y: 554.182373046875
z: 0.0821320116519928
visibility: 0.9976520538330078
","x: 199.12228393554688
y: 557.4280395507812
z: 0.14209571480751038
visibility: 0.9963616728782654
","x: 234.38772583007812
y: 563.2496948242188
z: 0.08423908054828644
visibility: 0.9094797968864441
","x: 203.59002685546875
y: 570.3618774414062
z: 0.14438945055007935
visibility: 0.9505175948143005
","x: 237.1693878173828
y: 583.9332885742188
z: -0.07610426843166351
visibility: 0.9945935010910034
","x: 186.67147827148438
y: 585.7791748046875
z: 0.0031195441260933876
visibility: 0.9941211938858032
",,,,,,,,,,,,,,,,,,,,,,,,,,,,,,,,,,,,,,,,,,
6,"x: 205.12265014648438
y: 200.413818359375
z: -0.29034629464149475
visibility: 0.9999563097953796
","x: 207.52537536621094
y: 190.61256408691406
z: -0.2846718430519104
visibility: 0.9998694658279419
","x: 209.29164123535156
y: 189.6561279296875
z: -0.28472134470939636
visibility: 0.9998788237571716
","x: 210.99110412597656
y: 188.67340087890625
z: -0.28472039103507996
visibility: 0.9998823404312134
","x: 203.15325927734375
y: 192.2526397705078
z: -0.27318650484085083
visibility: 0.9998403191566467
","x: 201.96200561523438
y: 192.3493194580078
z: -0.27321165800094604
visibility: 0.9998022317886353
","x: 200.87603759765625
y: 192.47239685058594
z: -0.27325117588043213
visibility: 0.9997976422309875
","x: 214.9771728515625
y: 189.6856689453125
z: -0.19499488174915314
visibility: 0.9998888373374939
","x: 201.39910888671875
y: 192.9141387939453
z: -0.14157667756080627
visibility: 0.9996386170387268
","x: 209.7279052734375
y: 206.53631591796875
z: -0.2534053325653076
visibility: 0.9999717473983765
","x: 203.88931274414062
y: 207.8763427734375
z: -0.23767590522766113
visibility: 0.9999468922615051
","x: 235.74282836914062
y: 229.53224182128906
z: -0.1273203343153
visibility: 0.9999930262565613
","x: 188.90232849121094
y: 237.02951049804688
z: -0.024428673088550568
visibility: 0.9999646544456482
","x: 246.30654907226562
y: 292.6846008300781
z: -0.11715654283761978
visibility: 0.9960380792617798
","x: 177.0871124267578
y: 304.57135009765625
z: 0.05116330832242966
visibility: 0.9520105123519897
","x: 231.1073455810547
y: 345.2017822265625
z: -0.24069710075855255
visibility: 0.9906736016273499
","x: 171.4503936767578
y: 353.67047119140625
z: -0.05207740142941475
visibility: 0.9644587635993958
","x: 238.05862426757812
y: 362.6506042480469
z: -0.2788383364677429
visibility: 0.978881299495697
","x: 168.04795837402344
y: 370.1960754394531
z: -0.09507651627063751
visibility: 0.9396885633468628
","x: 235.9905242919922
y: 362.2837829589844
z: -0.3135422468185425
visibility: 0.9790741205215454
","x: 169.26026916503906
y: 369.32965087890625
z: -0.13241609930992126
visibility: 0.9435337781906128
","x: 232.66429138183594
y: 356.1578674316406
z: -0.2558976411819458
visibility: 0.9668737053871155
","x: 171.1673583984375
y: 363.9472961425781
z: -0.06743726134300232
visibility: 0.9327465891838074
","x: 223.2624053955078
y: 367.15386962890625
z: -0.035869937390089035
visibility: 0.9996150135993958
","x: 195.55934143066406
y: 367.1034240722656
z: 0.03596702963113785
visibility: 0.9996331334114075
","x: 225.568115234375
y: 465.30169677734375
z: -0.029433641582727432
visibility: 0.9983734488487244
","x: 196.15892028808594
y: 469.2999572753906
z: 0.031219840049743652
visibility: 0.9972764849662781
","x: 236.77243041992188
y: 554.27099609375
z: 0.10699180513620377
visibility: 0.9976252913475037
","x: 199.50015258789062
y: 557.6967163085938
z: 0.1665240228176117
visibility: 0.996465802192688
","x: 234.80641174316406
y: 563.8297729492188
z: 0.11032257229089737
visibility: 0.9102468490600586
","x: 203.54652404785156
y: 570.4564819335938
z: 0.17177005112171173
visibility: 0.951149582862854
","x: 237.11680603027344
y: 584.4700317382812
z: -0.037135131657123566
visibility: 0.9945801496505737
","x: 186.61866760253906
y: 586.176513671875
z: 0.03561549261212349
visibility: 0.9942379593849182
",,,,,,,,,,,,,,,,,,,,,,,,,,,,,,,,,,,,,,,,,,
7,"x: 207.11949157714844
y: 200.87213134765625
z: -0.3638930320739746
visibility: 0.9999590516090393
","x: 209.86727905273438
y: 190.94635009765625
z: -0.35490840673446655
visibility: 0.9998738169670105
","x: 211.73153686523438
y: 190.0556182861328
z: -0.3549089729785919
visibility: 0.9998829960823059
","x: 213.42037963867188
y: 189.11663818359375
z: -0.3549051880836487
visibility: 0.9998850226402283
","x: 205.1940155029297
y: 192.36456298828125
z: -0.3494601547718048
visibility: 0.9998475909233093
","x: 203.9349365234375
y: 192.4055633544922
z: -0.34949690103530884
visibility: 0.9998133778572083
","x: 202.78688049316406
y: 192.46705627441406
z: -0.3495367169380188
visibility: 0.9998084902763367
","x: 217.06866455078125
y: 190.3343048095703
z: -0.25233030319213867
visibility: 0.9998849630355835
","x: 202.61492919921875
y: 193.3062744140625
z: -0.2251807451248169
visibility: 0.9996517896652222
","x: 211.4978790283203
y: 207.2903594970703
z: -0.3211842477321625
visibility: 0.9999709129333496
","x: 204.85813903808594
y: 208.674072265625
z: -0.31360071897506714
visibility: 0.999947726726532
","x: 236.9480438232422
y: 237.6756134033203
z: -0.1586793214082718
visibility: 0.9999904036521912
","x: 189.75999450683594
y: 243.1438446044922
z: -0.11770286411046982
visibility: 0.9999651908874512
","x: 247.15585327148438
y: 311.0758056640625
z: -0.10438965260982513
visibility: 0.9954747557640076
","x: 178.62953186035156
y: 315.4104309082031
z: -0.0535614900290966
visibility: 0.9545522928237915
","x: 254.68560791015625
y: 376.34661865234375
z: -0.18977797031402588
visibility: 0.9897651076316833
","x: 170.573486328125
y: 372.1675109863281
z: -0.13962917029857635
visibility: 0.9659770727157593
","x: 262.5632629394531
y: 394.54241943359375
z: -0.21353092789649963
visibility: 0.9769740700721741
","x: 165.24818420410156
y: 390.865234375
z: -0.16626349091529846
visibility: 0.9414503574371338
","x: 260.6260070800781
y: 396.1064147949219
z: -0.2547703981399536
visibility: 0.9775879979133606
","x: 166.66583251953125
y: 391.27728271484375
z: -0.20745447278022766
visibility: 0.9453436732292175
","x: 257.26385498046875
y: 389.8742370605469
z: -0.20767036080360413
visibility: 0.9659726619720459
","x: 169.04864501953125
y: 385.5830078125
z: -0.15823544561862946
visibility: 0.935057520866394
","x: 228.05747985839844
y: 369.9515075683594
z: -0.022397920489311218
visibility: 0.9996033310890198
","x: 198.91790771484375
y: 370.9067077636719
z: 0.022298220545053482
visibility: 0.9996379017829895
","x: 230.32261657714844
y: 465.98333740234375
z: -0.015517781488597393
visibility: 0.9981160759925842
","x: 200.0738067626953
y: 470.1120300292969
z: 0.025969842448830605
visibility: 0.9971387386322021
","x: 238.2416534423828
y: 554.151123046875
z: 0.1580667644739151
visibility: 0.9973767399787903
","x: 200.09075927734375
y: 557.72509765625
z: 0.17618951201438904
visibility: 0.9964141845703125
","x: 237.24330139160156
y: 564.20654296875
z: 0.1665116846561432
visibility: 0.9081843495368958
","x: 204.07337951660156
y: 570.3740844726562
z: 0.18270502984523773
visibility: 0.9495559930801392
","x: 237.2401885986328
y: 584.4574584960938
z: 0.02693178877234459
visibility: 0.9942300915718079
","x: 186.9574737548828
y: 586.1268920898438
z: 0.04687037318944931
visibility: 0.9941055774688721
",,,,,,,,,,,,,,,,,,,,,,,,,,,,,,,,,,,,,,,,,,
8,"x: 211.6822509765625
y: 206.94334411621094
z: -0.38430556654930115
visibility: 0.9999619126319885
","x: 214.43275451660156
y: 197.32745361328125
z: -0.3758602738380432
visibility: 0.999879777431488
","x: 216.22463989257812
y: 196.84532165527344
z: -0.37587183713912964
visibility: 0.99988853931427
","x: 218.06439208984375
y: 196.2979736328125
z: -0.3758845329284668
visibility: 0.9998893737792969
","x: 209.7274932861328
y: 197.21945190429688
z: -0.3720100522041321
visibility: 0.9998556971549988
","x: 208.4213104248047
y: 196.8158721923828
z: -0.37205618619918823
visibility: 0.9998248815536499
","x: 207.1619110107422
y: 196.513427734375
z: -0.37208670377731323
visibility: 0.9998192191123962
","x: 222.19102478027344
y: 196.00009155273438
z: -0.2678374648094177
visibility: 0.9998853206634521
","x: 206.78663635253906
y: 196.3494110107422
z: -0.2487170398235321
visibility: 0.9996682405471802
","x: 215.32363891601562
y: 213.61117553710938
z: -0.338622123003006
visibility: 0.9999709129333496
","x: 210.1012420654297
y: 213.9388885498047
z: -0.33330097794532776
visibility: 0.9999491572380066
","x: 241.4860382080078
y: 242.6002197265625
z: -0.16161152720451355
visibility: 0.99998939037323
","x: 193.68795776367188
y: 245.4315948486328
z: -0.13702955842018127
visibility: 0.9999653697013855
","x: 250.76882934570312
y: 315.0509948730469
z: -0.09941237419843674
visibility: 0.9952919483184814
","x: 180.26942443847656
y: 318.2204895019531
z: -0.07907745987176895
visibility: 0.9558477997779846
","x: 269.6737365722656
y: 371.2278747558594
z: -0.19607248902320862
visibility: 0.9896916747093201
","x: 169.0057830810547
y: 369.6249694824219
z: -0.1799982488155365
visibility: 0.9663956165313721
","x: 277.7244567871094
y: 386.37982177734375
z: -0.22007498145103455
visibility: 0.9766055345535278
","x: 162.3094024658203
y: 386.48370361328125
z: -0.20792622864246368
visibility: 0.9414604902267456
","x: 277.6687316894531
y: 385.867919921875
z: -0.26464909315109253
visibility: 0.9775522351264954
","x: 162.4791259765625
y: 386.72625732421875
z: -0.25209781527519226
visibility: 0.9457143545150757
","x: 274.4190673828125
y: 380.901611328125
z: -0.2158282995223999
visibility: 0.9667206406593323
","x: 165.0009765625
y: 381.1098937988281
z: -0.20071658492088318
visibility: 0.9358207583427429
","x: 232.95103454589844
y: 374.39599609375
z: -0.012344163842499256
visibility: 0.9995937943458557
","x: 203.30538940429688
y: 374.54180908203125
z: 0.012235859408974648
visibility: 0.9996339678764343
","x: 234.5945281982422
y: 470.36981201171875
z: -0.01334371417760849
visibility: 0.9978751540184021
","x: 202.5893096923828
y: 470.6027526855469
z: 0.005952408537268639
visibility: 0.9970505833625793
","x: 238.89292907714844
y: 554.8477783203125
z: 0.16007006168365479
visibility: 0.9971495866775513
","x: 200.33035278320312
y: 558.633544921875
z: 0.1634092479944229
visibility: 0.9964064359664917
","x: 237.78628540039062
y: 564.2769165039062
z: 0.168451189994812
visibility: 0.9077326059341431
","x: 204.03018188476562
y: 570.5296630859375
z: 0.1705629527568817
visibility: 0.948380708694458
","x: 237.5048828125
y: 585.5792846679688
z: 0.030154651030898094
visibility: 0.9939466118812561
","x: 186.9947509765625
y: 586.0364990234375
z: 0.03526539355516434
visibility: 0.9940701723098755
",,,,,,,,,,,,,,,,,,,,,,,,,,,,,,,,,,,,,,,,,,
9,"x: 216.37916564941406
y: 206.16909790039062
z: -0.38000041246414185
visibility: 0.9999644160270691
","x: 219.3077850341797
y: 196.82142639160156
z: -0.36944520473480225
visibility: 0.9998857378959656
","x: 221.09083557128906
y: 196.4730224609375
z: -0.36947113275527954
visibility: 0.9998939037322998
","x: 222.83909606933594
y: 196.1697235107422
z: -0.36948996782302856
visibility: 0.9998936057090759
","x: 214.74183654785156
y: 196.7176055908203
z: -0.36654990911483765
visibility: 0.9998635053634644
","x: 213.2649688720703
y: 196.38375854492188
z: -0.3665882349014282
visibility: 0.9998359084129333
","x: 211.81895446777344
y: 196.12060546875
z: -0.3666186034679413
visibility: 0.9998301863670349
","x: 226.6765899658203
y: 196.97439575195312
z: -0.2590640187263489
visibility: 0.9998866319656372
","x: 211.50729370117188
y: 196.89552307128906
z: -0.24380508065223694
visibility: 0.9996874332427979
","x: 219.8622589111328
y: 213.1321563720703
z: -0.33434683084487915
visibility: 0.9999707341194153
","x: 214.91217041015625
y: 213.2378387451172
z: -0.3300887942314148
visibility: 0.9999505877494812
","x: 244.9720916748047
y: 244.19447326660156
z: -0.1561872363090515
visibility: 0.9999878406524658
","x: 197.50982666015625
y: 246.81333923339844
z: -0.13521336019039154
visibility: 0.9999644160270691
","x: 256.3572692871094
y: 312.5474853515625
z: -0.09816375374794006
visibility: 0.9946202039718628
","x: 181.29876708984375
y: 318.9652404785156
z: -0.08209807425737381
visibility: 0.9571429491043091
","x: 276.0660400390625
y: 361.693359375
z: -0.2080683708190918
visibility: 0.9890750050544739
","x: 167.6132354736328
y: 365.8445739746094
z: -0.19689425826072693
visibility: 0.9677807092666626
","x: 283.9544982910156
y: 373.9776306152344
z: -0.23479704558849335
visibility: 0.9754973649978638
","x: 160.75784301757812
y: 381.30499267578125
z: -0.22826901078224182
visibility: 0.9434593319892883
","x: 285.0386962890625
y: 371.98931884765625
z: -0.2799888253211975
visibility: 0.9768521785736084
","x: 160.75547790527344
y: 381.0668640136719
z: -0.2733913064002991
visibility: 0.9478287696838379
","x: 281.4837951660156
y: 367.9361572265625
z: -0.22905497252941132
visibility: 0.966724157333374
","x: 163.17172241210938
y: 375.6546325683594
z: -0.21862034499645233
visibility: 0.9384605288505554
","x: 234.932861328125
y: 376.9091491699219
z: -0.012187456712126732
visibility: 0.9995898008346558
","x: 205.32852172851562
y: 375.776611328125
z: 0.012089754454791546
visibility: 0.9996286034584045
","x: 236.36685180664062
y: 474.3047790527344
z: -0.017952624708414078
visibility: 0.9976913928985596
","x: 202.5674285888672
y: 473.3757019042969
z: 0.002576956758275628
visibility: 0.9969626069068909
","x: 239.00909423828125
y: 556.6762084960938
z: 0.15148645639419556
visibility: 0.9969906806945801
","x: 200.9876708984375
y: 559.1013793945312
z: 0.16956397891044617
visibility: 0.9963743090629578
","x: 237.7833251953125
y: 565.9036865234375
z: 0.15968474745750427
visibility: 0.9048689603805542
","x: 204.77633666992188
y: 570.424560546875
z: 0.17740462720394135
visibility: 0.9473602771759033
","x: 236.3653106689453
y: 586.4915161132812
z: 0.017708875238895416
visibility: 0.9937297701835632
","x: 186.97434997558594
y: 585.7841186523438
z: 0.043213602155447006
visibility: 0.9940545558929443
",,,,,,,,,,,,,,,,,,,,,,,,,,,,,,,,,,,,,,,,,,
10,"x: 219.30638122558594
y: 207.0022735595703
z: -0.3594544231891632
visibility: 0.999967098236084
","x: 222.58285522460938
y: 197.4929962158203
z: -0.3461332619190216
visibility: 0.9998927712440491
","x: 224.3388671875
y: 197.25241088867188
z: -0.34619706869125366
visibility: 0.9999000430107117
","x: 226.04296875
y: 197.11541748046875
z: -0.34619075059890747
visibility: 0.9998993277549744
","x: 218.06141662597656
y: 197.25497436523438
z: -0.347526490688324
visibility: 0.9998728036880493
","x: 216.6022491455078
y: 196.89727783203125
z: -0.34762710332870483
visibility: 0.9998478889465332
","x: 215.15391540527344
y: 196.58470153808594
z: -0.34766387939453125
visibility: 0.9998428225517273
","x: 229.90232849121094
y: 198.35052490234375
z: -0.24266108870506287
visibility: 0.999890148639679
","x: 215.35617065429688
y: 197.65859985351562
z: -0.21934697031974792
visibility: 0.9997082352638245
","x: 222.8144073486328
y: 214.35914611816406
z: -0.3191913962364197
visibility: 0.9999715685844421
","x: 217.90924072265625
y: 214.15504455566406
z: -0.32737013697624207
visibility: 0.9999529719352722
","x: 248.6580047607422
y: 245.78294372558594
z: -0.13852813839912415
visibility: 0.9999868273735046
","x: 200.36448669433594
y: 247.8360137939453
z: -0.10008633136749268
visibility: 0.9999651312828064
","x: 261.1742248535156
y: 312.1060485839844
z: -0.07725077122449875
visibility: 0.9944878816604614
","x: 184.25978088378906
y: 318.39569091796875
z: -0.041442111134529114
visibility: 0.9594260454177856
","x: 276.6620178222656
y: 357.0056457519531
z: -0.18530049920082092
visibility: 0.9889734387397766
","x: 167.04092407226562
y: 364.5556945800781
z: -0.15787433087825775
visibility: 0.9697757959365845
","x: 281.3750305175781
y: 373.0659484863281
z: -0.2137303650379181
visibility: 0.9752371907234192
","x: 159.95599365234375
y: 379.06817626953125
z: -0.1897272765636444
visibility: 0.9465606808662415
","x: 280.68133544921875
y: 371.2225646972656
z: -0.2565935552120209
visibility: 0.9768193960189819
","x: 159.67356872558594
y: 378.4830322265625
z: -0.23472173511981964
visibility: 0.9508435130119324
","x: 278.9090576171875
y: 365.9604187011719
z: -0.20527274906635284
visibility: 0.9673352241516113
","x: 162.38345336914062
y: 373.26287841796875
z: -0.1794385462999344
visibility: 0.942086398601532
","x: 235.9149169921875
y: 379.49395751953125
z: -0.013876075856387615
visibility: 0.9995901584625244
","x: 207.65029907226562
y: 377.5196533203125
z: 0.013801941648125648
visibility: 0.9996308088302612
","x: 235.5035858154297
y: 475.77532958984375
z: -0.015062859281897545
visibility: 0.9975219964981079
","x: 205.20643615722656
y: 476.0459899902344
z: 0.005181683227419853
visibility: 0.9968886971473694
","x: 239.02687072753906
y: 556.6187744140625
z: 0.15196898579597473
visibility: 0.996830940246582
","x: 201.68296813964844
y: 559.8656005859375
z: 0.17194947600364685
visibility: 0.996364176273346
","x: 237.7284393310547
y: 565.984375
z: 0.15991225838661194
visibility: 0.9046299457550049
","x: 205.29762268066406
y: 570.8875732421875
z: 0.1791805922985077
visibility: 0.9465478658676147
","x: 236.2063751220703
y: 586.5772705078125
z: 0.023741956800222397
visibility: 0.9935818314552307
","x: 187.01536560058594
y: 586.145751953125
z: 0.04658351093530655
visibility: 0.9940453171730042
",,,,,,,,,,,,,,,,,,,,,,,,,,,,,,,,,,,,,,,,,,
11,"x: 224.76409912109375
y: 206.63926696777344
z: -0.3526279926300049
visibility: 0.9999690651893616
","x: 227.88291931152344
y: 197.30760192871094
z: -0.33746522665023804
visibility: 0.9998964071273804
","x: 229.48268127441406
y: 197.16085815429688
z: -0.33754998445510864
visibility: 0.9999029636383057
","x: 231.15591430664062
y: 197.1416015625
z: -0.33751365542411804
visibility: 0.9999013543128967
","x: 223.20790100097656
y: 197.03775024414062
z: -0.3460422158241272
visibility: 0.9998788833618164
","x: 221.677001953125
y: 196.7364501953125
z: -0.3461255133152008
visibility: 0.9998562932014465
","x: 220.18463134765625
y: 196.48446655273438
z: -0.3461727499961853
visibility: 0.9998518228530884
","x: 234.2877655029297
y: 198.9720916748047
z: -0.23389582335948944
visibility: 0.9998857378959656
","x: 219.79080200195312
y: 197.7886962890625
z: -0.206635519862175
visibility: 0.999722957611084
","x: 227.98480224609375
y: 214.0479736328125
z: -0.31439775228500366
visibility: 0.9999701976776123
","x: 222.63064575195312
y: 213.83090209960938
z: -0.31324106454849243
visibility: 0.99995356798172
","x: 252.3373565673828
y: 247.17752075195312
z: -0.12935355305671692
visibility: 0.9999845623970032
","x: 203.46829223632812
y: 248.60220336914062
z: -0.09732742607593536
visibility: 0.9999653697013855
","x: 262.99774169921875
y: 310.93707275390625
z: -0.08035586029291153
visibility: 0.9933291673660278
","x: 187.57839965820312
y: 318.8583068847656
z: -0.04399564117193222
visibility: 0.9614672660827637
","x: 278.0406494140625
y: 353.509521484375
z: -0.20303621888160706
visibility: 0.9873422384262085
","x: 168.04623413085938
y: 364.0857238769531
z: -0.15743772685527802
visibility: 0.9714475274085999
","x: 281.3547058105469
y: 371.4676513671875
z: -0.2334337681531906
visibility: 0.972508430480957
","x: 161.40586853027344
y: 378.22711181640625
z: -0.18802061676979065
visibility: 0.9490731358528137
","x: 280.9788818359375
y: 370.3065185546875
z: -0.2759300470352173
visibility: 0.974685549736023
","x: 161.32762145996094
y: 377.3949890136719
z: -0.233186274766922
visibility: 0.9533219337463379
","x: 279.4335021972656
y: 364.5856018066406
z: -0.22320613265037537
visibility: 0.9656050205230713
","x: 163.99290466308594
y: 372.3599548339844
z: -0.17905983328819275
visibility: 0.9451702833175659
","x: 238.0974884033203
y: 380.0793151855469
z: -0.011202601715922356
visibility: 0.9995707273483276
","x: 209.5953826904297
y: 377.3721923828125
z: 0.011165261268615723
visibility: 0.9996160268783569
","x: 235.62403869628906
y: 476.499755859375
z: -0.006083732470870018
visibility: 0.997329592704773
","x: 205.7959442138672
y: 475.7550048828125
z: 0.009969959035515785
visibility: 0.9967800974845886
","x: 238.89442443847656
y: 558.27734375
z: 0.15033648908138275
visibility: 0.9966819286346436
","x: 202.26112365722656
y: 559.422119140625
z: 0.15856775641441345
visibility: 0.9962726831436157
","x: 237.66525268554688
y: 568.0015869140625
z: 0.1556020975112915
visibility: 0.9041675329208374
","x: 205.92068481445312
y: 570.509521484375
z: 0.1637202799320221
visibility: 0.9448013305664062
","x: 235.88404846191406
y: 587.130615234375
z: 0.01142018474638462
visibility: 0.9933552145957947
","x: 187.09210205078125
y: 585.9195556640625
z: 0.03367296978831291
visibility: 0.9938968420028687
",,,,,,,,,,,,,,,,,,,,,,,,,,,,,,,,,,,,,,,,,,
12,"x: 227.59747314453125
y: 206.27963256835938
z: -0.3638538420200348
visibility: 0.9999712109565735
","x: 230.8228302001953
y: 196.90206909179688
z: -0.3526846766471863
visibility: 0.999902069568634
","x: 232.60833740234375
y: 196.724365234375
z: -0.35272711515426636
visibility: 0.9999078512191772
","x: 234.34486389160156
y: 196.6754150390625
z: -0.35273119807243347
visibility: 0.999905526638031
","x: 226.10134887695312
y: 196.695556640625
z: -0.350818395614624
visibility: 0.9998860359191895
","x: 224.65350341796875
y: 196.42274475097656
z: -0.350860059261322
visibility: 0.9998655319213867
","x: 223.16848754882812
y: 196.2164306640625
z: -0.35089701414108276
visibility: 0.9998612999916077
","x: 238.3148193359375
y: 198.8040771484375
z: -0.2432282418012619
visibility: 0.9998875856399536
","x: 222.8726806640625
y: 197.5989990234375
z: -0.22316405177116394
visibility: 0.9997397661209106
","x: 230.92166137695312
y: 213.75868225097656
z: -0.31957921385765076
visibility: 0.9999706745147705
","x: 225.58499145507812
y: 213.56344604492188
z: -0.3147197961807251
visibility: 0.9999555349349976
","x: 256.1588439941406
y: 247.94873046875
z: -0.13616010546684265
visibility: 0.9999827146530151
","x: 206.5747833251953
y: 247.2750701904297
z: -0.11843252182006836
visibility: 0.9999655485153198
","x: 265.71551513671875
y: 313.368408203125
z: -0.08661825209856033
visibility: 0.9920291304588318
","x: 191.1546630859375
y: 317.2113037109375
z: -0.06964942812919617
visibility: 0.9625590443611145
","x: 283.9263610839844
y: 353.7640075683594
z: -0.20972001552581787
visibility: 0.9864726066589355
","x: 170.1811065673828
y: 363.8876953125
z: -0.19160768389701843
visibility: 0.9725305438041687
","x: 291.3824157714844
y: 368.7643127441406
z: -0.23918966948986053
visibility: 0.9712089896202087
","x: 162.0135955810547
y: 378.54620361328125
z: -0.22358238697052002
visibility: 0.9506982564926147
","x: 293.0191650390625
y: 366.8191833496094
z: -0.28453612327575684
visibility: 0.9737845659255981
","x: 161.47715759277344
y: 377.5965576171875
z: -0.26893675327301025
visibility: 0.955009400844574
","x: 289.4664001464844
y: 361.7201232910156
z: -0.23105809092521667
visibility: 0.9651062488555908
","x: 164.11561584472656
y: 372.5753173828125
z: -0.21352103352546692
visibility: 0.9473198652267456
","x: 241.4676513671875
y: 380.8192443847656
z: -0.008424901403486729
visibility: 0.9995718598365784
","x: 211.8757781982422
y: 377.32281494140625
z: 0.008362333290278912
visibility: 0.9996184706687927
","x: 240.52822875976562
y: 478.6808776855469
z: -0.017181525006890297
visibility: 0.9971956014633179
","x: 205.35418701171875
y: 475.2012634277344
z: 0.0016614452470093966
visibility: 0.9967753291130066
","x: 239.17984008789062
y: 558.9312133789062
z: 0.16605493426322937
visibility: 0.9965434670448303
","x: 202.2993621826172
y: 559.2503662109375
z: 0.16310283541679382
visibility: 0.9963259100914001
","x: 237.6140594482422
y: 568.9324951171875
z: 0.1762559562921524
visibility: 0.9039644002914429
","x: 206.1085968017578
y: 570.5443725585938
z: 0.1732243150472641
visibility: 0.9446686506271362
","x: 237.0644073486328
y: 587.4130859375
z: 0.037922970950603485
visibility: 0.9932113289833069
","x: 187.10906982421875
y: 586.2634887695312
z: 0.041833847761154175
visibility: 0.9939917325973511
",,,,,,,,,,,,,,,,,,,,,,,,,,,,,,,,,,,,,,,,,,
13,"x: 230.63075256347656
y: 206.0421600341797
z: -0.3573170304298401
visibility: 0.9999735951423645
","x: 233.91490173339844
y: 196.63079833984375
z: -0.34923821687698364
visibility: 0.9999090433120728
","x: 235.61444091796875
y: 196.43296813964844
z: -0.3493066430091858
visibility: 0.9999143481254578
","x: 237.3717041015625
y: 196.37506103515625
z: -0.349388062953949
visibility: 0.9999120235443115
","x: 229.35748291015625
y: 196.4606475830078
z: -0.34642255306243896
visibility: 0.9998946189880371
","x: 227.84393310546875
y: 196.1978302001953
z: -0.34645742177963257
visibility: 0.9998759627342224
","x: 226.334716796875
y: 196.00877380371094
z: -0.3465248644351959
visibility: 0.9998720288276672
","x: 241.15536499023438
y: 198.8681640625
z: -0.23701830208301544
visibility: 0.9998942017555237
","x: 225.62899780273438
y: 197.6524200439453
z: -0.2135896384716034
visibility: 0.9997578859329224
","x: 233.73553466796875
y: 213.6425018310547
z: -0.3107128441333771
visibility: 0.9999724626541138
","x: 228.54222106933594
y: 213.35140991210938
z: -0.30457210540771484
visibility: 0.9999584555625916
","x: 258.828369140625
y: 249.9830780029297
z: -0.1412176936864853
visibility: 0.9999828338623047
","x: 208.89910888671875
y: 246.97573852539062
z: -0.10358253866434097
visibility: 0.9999657869338989
","x: 270.53790283203125
y: 313.9379577636719
z: -0.1001930981874466
visibility: 0.9924907088279724
","x: 193.42056274414062
y: 316.74700927734375
z: -0.05042564868927002
visibility: 0.9643035531044006
","x: 280.5508728027344
y: 358.3956604003906
z: -0.217503622174263
visibility: 0.987107515335083
","x: 173.8750457763672
y: 364.8053283691406
z: -0.1886018067598343
visibility: 0.9739279747009277
","x: 281.592041015625
y: 377.2604064941406
z: -0.24895457923412323
visibility: 0.9723049402236938
","x: 165.6492462158203
y: 380.23541259765625
z: -0.2155202180147171
visibility: 0.952745795249939
","x: 280.0466003417969
y: 374.6380310058594
z: -0.2957260012626648
visibility: 0.974834680557251
","x: 165.5588836669922
y: 379.3206787109375
z: -0.26808005571365356
visibility: 0.956977128982544
","x: 278.51312255859375
y: 368.2098693847656
z: -0.23840782046318054
visibility: 0.9666630029678345
","x: 168.08206176757812
y: 374.4971923828125
z: -0.21258291602134705
visibility: 0.9497544169425964
","x: 241.96572875976562
y: 382.1842956542969
z: -0.010870890691876411
visibility: 0.9995701313018799
","x: 213.1419677734375
y: 377.6687927246094
z: 0.01081239152699709
visibility: 0.9996209740638733
","x: 238.82427978515625
y: 479.25555419921875
z: -0.0041027916595339775
visibility: 0.9971420168876648
","x: 206.71961975097656
y: 475.9362487792969
z: 0.028082165867090225
visibility: 0.9967676401138306
","x: 239.318115234375
y: 558.8872680664062
z: 0.16111645102500916
visibility: 0.9964955449104309
","x: 202.4842987060547
y: 559.6843872070312
z: 0.1771937608718872
visibility: 0.9963706731796265
","x: 237.85006713867188
y: 568.9169921875
z: 0.16872665286064148
visibility: 0.9049206972122192
","x: 206.16929626464844
y: 570.858642578125
z: 0.1841183304786682
visibility: 0.945199191570282
","x: 236.7951202392578
y: 587.6686401367188
z: 0.030331339687108994
visibility: 0.993159830570221
","x: 187.1055450439453
y: 586.1277465820312
z: 0.056153375655412674
visibility: 0.9940181374549866
",,,,,,,,,,,,,,,,,,,,,,,,,,,,,,,,,,,,,,,,,,
14,"x: 233.70326232910156
y: 206.90110778808594
z: -0.32760941982269287
visibility: 0.999975323677063
","x: 236.92955017089844
y: 196.9044189453125
z: -0.3200494945049286
visibility: 0.999913215637207
","x: 238.67001342773438
y: 196.70347595214844
z: -0.3201039433479309
visibility: 0.9999182820320129
","x: 240.5201416015625
y: 196.68023681640625
z: -0.32012179493904114
visibility: 0.9999151825904846
","x: 232.38845825195312
y: 197.08499145507812
z: -0.3124898076057434
visibility: 0.9998995065689087
","x: 230.94459533691406
y: 197.0024871826172
z: -0.31250476837158203
visibility: 0.9998820424079895
","x: 229.64088439941406
y: 196.96621704101562
z: -0.3125647008419037
visibility: 0.9998781085014343
","x: 245.2407684326172
y: 199.8380889892578
z: -0.2213999480009079
visibility: 0.999894380569458
","x: 229.7578582763672
y: 198.6446533203125
z: -0.18340937793254852
visibility: 0.9997692704200745
","x: 237.30674743652344
y: 214.64988708496094
z: -0.28702595829963684
visibility: 0.9999728798866272
","x: 232.3317413330078
y: 214.28399658203125
z: -0.2760936915874481
visibility: 0.9999600052833557
","x: 263.28076171875
y: 251.74478149414062
z: -0.12907132506370544
visibility: 0.9999809861183167
","x: 213.54415893554688
y: 246.54132080078125
z: -0.09359995275735855
visibility: 0.9999669194221497
","x: 269.3113098144531
y: 315.8273620605469
z: -0.108356773853302
visibility: 0.9897394180297852
","x: 196.67774963378906
y: 316.028076171875
z: -0.04398003965616226
visibility: 0.9654651880264282
","x: 285.6640625
y: 357.2958984375
z: -0.2647721767425537
visibility: 0.9856350421905518
","x: 176.5556640625
y: 364.42144775390625
z: -0.16660162806510925
visibility: 0.9747965931892395
","x: 291.3751525878906
y: 367.27581787109375
z: -0.2998304069042206
visibility: 0.970683217048645
","x: 168.6824188232422
y: 379.92724609375
z: -0.19697226583957672
visibility: 0.9538251161575317
","x: 292.3848876953125
y: 364.3410949707031
z: -0.3466815650463104
visibility: 0.9737124443054199
","x: 168.9476318359375
y: 379.0460510253906
z: -0.24595344066619873
visibility: 0.9580870270729065
","x: 289.7978820800781
y: 360.988525390625
z: -0.28778502345085144
visibility: 0.9657270312309265
","x: 171.56370544433594
y: 374.037353515625
z: -0.18862947821617126
visibility: 0.9513933658599854
","x: 244.1517791748047
y: 383.4716796875
z: -0.008985543623566628
visibility: 0.9995701313018799
","x: 215.50384521484375
y: 378.0057373046875
z: 0.0089423768222332
visibility: 0.9996259808540344
","x: 240.16453552246094
y: 481.10308837890625
z: -0.014739446341991425
visibility: 0.9969338178634644
","x: 207.79502868652344
y: 475.8308410644531
z: 0.013872568495571613
visibility: 0.9967982172966003
","x: 239.42578125
y: 560.1439819335938
z: 0.16309204697608948
visibility: 0.9962871670722961
","x: 202.39988708496094
y: 559.4930419921875
z: 0.17728552222251892
visibility: 0.996377170085907
","x: 237.8092803955078
y: 570.0266723632812
z: 0.1728794425725937
visibility: 0.904771625995636
","x: 206.02015686035156
y: 570.64892578125
z: 0.1842377483844757
visibility: 0.9445992708206177
","x: 237.2094268798828
y: 588.8295288085938
z: 0.03556716814637184
visibility: 0.9928417801856995
","x: 187.1121063232422
y: 586.0938110351562
z: 0.05605147033929825
visibility: 0.9939978122711182
",,,,,,,,,,,,,,,,,,,,,,,,,,,,,,,,,,,,,,,,,,
15,"x: 237.41546630859375
y: 206.7530517578125
z: -0.36966294050216675
visibility: 0.9999774098396301
","x: 240.43287658691406
y: 196.84278869628906
z: -0.3595847487449646
visibility: 0.999920129776001
","x: 242.07406616210938
y: 196.6830596923828
z: -0.35960549116134644
visibility: 0.9999246597290039
","x: 243.6504669189453
y: 196.68943786621094
z: -0.3596171736717224
visibility: 0.9999215602874756
","x: 235.83053588867188
y: 196.95101928710938
z: -0.3567677140235901
visibility: 0.9999076724052429
","x: 234.2483367919922
y: 196.84674072265625
z: -0.35680070519447327
visibility: 0.9998918175697327
","x: 232.69390869140625
y: 196.7957305908203
z: -0.35682493448257446
visibility: 0.9998880624771118
","x: 247.30349731445312
y: 199.9876251220703
z: -0.24866151809692383
visibility: 0.9999014735221863
","x: 231.65533447265625
y: 198.6055145263672
z: -0.2357378900051117
visibility: 0.9997881054878235
","x: 240.43267822265625
y: 214.60594177246094
z: -0.3239777386188507
visibility: 0.9999746680259705
","x: 235.09555053710938
y: 214.14251708984375
z: -0.32030579447746277
visibility: 0.9999629259109497
","x: 264.7957763671875
y: 252.34454345703125
z: -0.1429060995578766
visibility: 0.9999813437461853
","x: 214.52891540527344
y: 246.39370727539062
z: -0.13754749298095703
visibility: 0.9999687671661377
","x: 270.1307678222656
y: 320.7408142089844
z: -0.09239919483661652
visibility: 0.9898448586463928
","x: 197.6122589111328
y: 315.8153991699219
z: -0.09072349965572357
visibility: 0.9670547842979431
","x: 287.56256103515625
y: 369.5150146484375
z: -0.2045578956604004
visibility: 0.9860665798187256
","x: 177.68174743652344
y: 364.04833984375
z: -0.19904378056526184
visibility: 0.9752137064933777
","x: 294.5294189453125
y: 382.8800048828125
z: -0.23115503787994385
visibility: 0.9713578820228577
","x: 170.2848358154297
y: 379.3814697265625
z: -0.2295432984828949
visibility: 0.9541195631027222
","x: 296.165283203125
y: 380.4162292480469
z: -0.2787145972251892
visibility: 0.9744477272033691
","x: 170.7908477783203
y: 378.4591979980469
z: -0.27367398142814636
visibility: 0.9585233330726624
","x: 293.14739990234375
y: 375.9903564453125
z: -0.22683604061603546
visibility: 0.9668973684310913
","x: 173.32394409179688
y: 373.4293212890625
z: -0.2201453149318695
visibility: 0.952092170715332
","x: 245.41912841796875
y: 384.156494140625
z: -0.005660373717546463
visibility: 0.99957674741745
","x: 216.65554809570312
y: 378.7564392089844
z: 0.005616290960460901
visibility: 0.9996412396430969
","x: 240.2967987060547
y: 480.1115417480469
z: 0.0205672737210989
visibility: 0.9968335628509521
","x: 209.14410400390625
y: 476.8487548828125
z: 0.014350446872413158
visibility: 0.9968299269676208
","x: 239.34898376464844
y: 560.0585327148438
z: 0.19756382703781128
visibility: 0.9962190985679626
","x: 202.32510375976562
y: 559.7258911132812
z: 0.17733392119407654
visibility: 0.9963895082473755
","x: 237.76585388183594
y: 570.0556640625
z: 0.20694220066070557
visibility: 0.9071921110153198
","x: 205.95599365234375
y: 570.4937133789062
z: 0.1843111217021942
visibility: 0.9435675144195557
","x: 237.62118530273438
y: 588.7567138671875
z: 0.07478943467140198
visibility: 0.992821455001831
","x: 187.38760375976562
y: 586.0765991210938
z: 0.05507341027259827
visibility: 0.9939639568328857
","x: 177.50186157226562
y: 362.6864013671875
z: 0.0
","x: 178.69781494140625
y: 371.52777099609375
z: -0.00021425564773380756
","x: 176.60377502441406
y: 379.4619445800781
z: -0.0006162312347441912
","x: 173.60690307617188
y: 385.28643798828125
z: -0.0009054866968654096
","x: 171.1935272216797
y: 389.7650146484375
z: -0.0007556871278211474
","x: 170.5161895751953
y: 377.3074035644531
z: -0.0015045147156342864
","x: 166.72189331054688
y: 387.2425842285156
z: -0.002120854565873742
","x: 166.36544799804688
y: 392.3173522949219
z: -0.0011213308898732066
","x: 166.77708435058594
y: 395.39910888671875
z: 1.79903581738472e-05
","x: 168.47836303710938
y: 374.9116516113281
z: -0.0018874601228162646
","x: 164.95802307128906
y: 385.5172424316406
z: -0.0023419407662004232
","x: 164.93121337890625
y: 390.9111328125
z: -0.0012083443580195308
","x: 165.44845581054688
y: 394.1372375488281
z: -0.00020757994207087904
","x: 167.26719665527344
y: 373.32049560546875
z: -0.0022691520862281322
","x: 163.9940643310547
y: 382.690185546875
z: -0.00310918758623302
","x: 163.89096069335938
y: 388.05877685546875
z: -0.002531748730689287
","x: 164.2779083251953
y: 391.5149230957031
z: -0.0018939308356493711
","x: 166.581298828125
y: 372.32012939453125
z: -0.0027160414028912783
","x: 163.6758270263672
y: 379.16864013671875
z: -0.003434550017118454
","x: 163.3902587890625
y: 383.4875793457031
z: -0.0032593379728496075
","x: 163.74021911621094
y: 386.5690612792969
z: -0.002827054588124156
",,,,,,,,,,,,,,,,,,,,,
16,"x: 237.41546630859375
y: 206.7530517578125
z: -0.36966294050216675
visibility: 0.9999774098396301
","x: 240.43287658691406
y: 196.84278869628906
z: -0.3595847487449646
visibility: 0.999920129776001
","x: 242.07406616210938
y: 196.6830596923828
z: -0.35960549116134644
visibility: 0.9999246597290039
","x: 243.6504669189453
y: 196.68943786621094
z: -0.3596171736717224
visibility: 0.9999215602874756
","x: 235.83053588867188
y: 196.95101928710938
z: -0.3567677140235901
visibility: 0.9999076724052429
","x: 234.2483367919922
y: 196.84674072265625
z: -0.35680070519447327
visibility: 0.9998918175697327
","x: 232.69390869140625
y: 196.7957305908203
z: -0.35682493448257446
visibility: 0.9998880624771118
","x: 247.30349731445312
y: 199.9876251220703
z: -0.24866151809692383
visibility: 0.9999014735221863
","x: 231.65533447265625
y: 198.6055145263672
z: -0.2357378900051117
visibility: 0.9997881054878235
","x: 240.43267822265625
y: 214.60594177246094
z: -0.3239777386188507
visibility: 0.9999746680259705
","x: 235.09555053710938
y: 214.14251708984375
z: -0.32030579447746277
visibility: 0.9999629259109497
","x: 264.7957763671875
y: 252.34454345703125
z: -0.1429060995578766
visibility: 0.9999813437461853
","x: 214.52891540527344
y: 246.39370727539062
z: -0.13754749298095703
visibility: 0.9999687671661377
","x: 270.1307678222656
y: 320.7408142089844
z: -0.09239919483661652
visibility: 0.9898448586463928
","x: 197.6122589111328
y: 315.8153991699219
z: -0.09072349965572357
visibility: 0.9670547842979431
","x: 287.56256103515625
y: 369.5150146484375
z: -0.2045578956604004
visibility: 0.9860665798187256
","x: 177.68174743652344
y: 364.04833984375
z: -0.19904378056526184
visibility: 0.9752137064933777
","x: 294.5294189453125
y: 382.8800048828125
z: -0.23115503787994385
visibility: 0.9713578820228577
","x: 170.2848358154297
y: 379.3814697265625
z: -0.2295432984828949
visibility: 0.9541195631027222
","x: 296.165283203125
y: 380.4162292480469
z: -0.2787145972251892
visibility: 0.9744477272033691
","x: 170.7908477783203
y: 378.4591979980469
z: -0.27367398142814636
visibility: 0.9585233330726624
","x: 293.14739990234375
y: 375.9903564453125
z: -0.22683604061603546
visibility: 0.9668973684310913
","x: 173.32394409179688
y: 373.4293212890625
z: -0.2201453149318695
visibility: 0.952092170715332
","x: 245.41912841796875
y: 384.156494140625
z: -0.005660373717546463
visibility: 0.99957674741745
","x: 216.65554809570312
y: 378.7564392089844
z: 0.005616290960460901
visibility: 0.9996412396430969
","x: 240.2967987060547
y: 480.1115417480469
z: 0.0205672737210989
visibility: 0.9968335628509521
","x: 209.14410400390625
y: 476.8487548828125
z: 0.014350446872413158
visibility: 0.9968299269676208
","x: 239.34898376464844
y: 560.0585327148438
z: 0.19756382703781128
visibility: 0.9962190985679626
","x: 202.32510375976562
y: 559.7258911132812
z: 0.17733392119407654
visibility: 0.9963895082473755
","x: 237.76585388183594
y: 570.0556640625
z: 0.20694220066070557
visibility: 0.9071921110153198
","x: 205.95599365234375
y: 570.4937133789062
z: 0.1843111217021942
visibility: 0.9435675144195557
","x: 237.62118530273438
y: 588.7567138671875
z: 0.07478943467140198
visibility: 0.992821455001831
","x: 187.38760375976562
y: 586.0765991210938
z: 0.05507341027259827
visibility: 0.9939639568328857
","x: 177.50186157226562
y: 362.6864013671875
z: 0.0
","x: 178.69781494140625
y: 371.52777099609375
z: -0.00021425564773380756
","x: 176.60377502441406
y: 379.4619445800781
z: -0.0006162312347441912
","x: 173.60690307617188
y: 385.28643798828125
z: -0.0009054866968654096
","x: 171.1935272216797
y: 389.7650146484375
z: -0.0007556871278211474
","x: 170.5161895751953
y: 377.3074035644531
z: -0.0015045147156342864
","x: 166.72189331054688
y: 387.2425842285156
z: -0.002120854565873742
","x: 166.36544799804688
y: 392.3173522949219
z: -0.0011213308898732066
","x: 166.77708435058594
y: 395.39910888671875
z: 1.79903581738472e-05
","x: 168.47836303710938
y: 374.9116516113281
z: -0.0018874601228162646
","x: 164.95802307128906
y: 385.5172424316406
z: -0.0023419407662004232
","x: 164.93121337890625
y: 390.9111328125
z: -0.0012083443580195308
","x: 165.44845581054688
y: 394.1372375488281
z: -0.00020757994207087904
","x: 167.26719665527344
y: 373.32049560546875
z: -0.0022691520862281322
","x: 163.9940643310547
y: 382.690185546875
z: -0.00310918758623302
","x: 163.89096069335938
y: 388.05877685546875
z: -0.002531748730689287
","x: 164.2779083251953
y: 391.5149230957031
z: -0.0018939308356493711
","x: 166.581298828125
y: 372.32012939453125
z: -0.0027160414028912783
","x: 163.6758270263672
y: 379.16864013671875
z: -0.003434550017118454
","x: 163.3902587890625
y: 383.4875793457031
z: -0.0032593379728496075
","x: 163.74021911621094
y: 386.5690612792969
z: -0.002827054588124156
",,,,,,,,,,,,,,,,,,,,,
17,"x: 236.21826171875
y: 205.87210083007812
z: -0.31779760122299194
visibility: 0.9999791979789734
","x: 239.64340209960938
y: 196.26150512695312
z: -0.30742162466049194
visibility: 0.9999257326126099
","x: 241.35374450683594
y: 196.1092529296875
z: -0.3074439465999603
visibility: 0.9999299645423889
","x: 243.11697387695312
y: 196.1233367919922
z: -0.3074233829975128
visibility: 0.9999270439147949
","x: 234.83612060546875
y: 196.27133178710938
z: -0.3021080791950226
visibility: 0.9999143481254578
","x: 233.44052124023438
y: 196.10008239746094
z: -0.3021119236946106
visibility: 0.9998998641967773
","x: 232.1216278076172
y: 195.9547576904297
z: -0.30211231112480164
visibility: 0.999896228313446
","x: 247.06594848632812
y: 199.7462615966797
z: -0.20489105582237244
visibility: 0.9999076724052429
","x: 231.9258270263672
y: 197.84873962402344
z: -0.17908553779125214
visibility: 0.9998022317886353
","x: 239.8638916015625
y: 213.7576141357422
z: -0.27619388699531555
visibility: 0.9999763369560242
","x: 234.2043914794922
y: 213.04055786132812
z: -0.2688804268836975
visibility: 0.9999653697013855
","x: 265.1248474121094
y: 251.78057861328125
z: -0.12432505935430527
visibility: 0.9999822378158569
","x: 215.18267822265625
y: 244.60885620117188
z: -0.074495829641819
visibility: 0.9999697804450989
","x: 271.11834716796875
y: 318.4769287109375
z: -0.09223924577236176
visibility: 0.9904783368110657
","x: 199.1552734375
y: 309.324951171875
z: -0.0068762898445129395
visibility: 0.9685598015785217
","x: 282.0733337402344
y: 364.869140625
z: -0.2153358906507492
visibility: 0.9867590665817261
","x: 179.6182403564453
y: 361.777099609375
z: -0.11246626079082489
visibility: 0.9760550260543823
","x: 283.62005615234375
y: 380.211181640625
z: -0.24308732151985168
visibility: 0.9725420475006104
","x: 172.3284149169922
y: 377.5720520019531
z: -0.14242781698703766
visibility: 0.9553035497665405
","x: 280.5969543457031
y: 376.5129089355469
z: -0.28840091824531555
visibility: 0.9754983186721802
","x: 173.07444763183594
y: 376.6122131347656
z: -0.18630161881446838
visibility: 0.959653377532959
","x: 281.96856689453125
y: 371.09979248046875
z: -0.2363237589597702
visibility: 0.9682512879371643
","x: 175.7083740234375
y: 371.6939697265625
z: -0.13333401083946228
visibility: 0.9534997940063477
","x: 246.0167236328125
y: 383.6266784667969
z: -0.007162833120673895
visibility: 0.9995814561843872
","x: 217.445068359375
y: 378.4762878417969
z: 0.007145191077142954
visibility: 0.9996471405029297
","x: 241.38597106933594
y: 480.02197265625
z: 0.016916481778025627
visibility: 0.9968485832214355
","x: 209.76394653320312
y: 476.4414978027344
z: 0.013994176872074604
visibility: 0.9968902468681335
","x: 239.3196258544922
y: 560.456787109375
z: 0.13363245129585266
visibility: 0.9962027668952942
","x: 202.3131866455078
y: 559.6307983398438
z: 0.1470690369606018
visibility: 0.9964032769203186
","x: 237.7356414794922
y: 570.50390625
z: 0.13762280344963074
visibility: 0.9073810577392578
","x: 205.4811553955078
y: 570.0714111328125
z: 0.15065273642539978
visibility: 0.9428638815879822
","x: 237.3065948486328
y: 588.6942138671875
z: -0.0048260558396577835
visibility: 0.9928202033042908
","x: 187.729248046875
y: 586.0625
z: 0.018292872235178947
visibility: 0.99394291639328
",,,,,,,,,,,,,,,,,,,,,,,,,,,,,,,,,,,,,,,,,,
18,"x: 234.63258361816406
y: 201.78097534179688
z: -0.32247406244277954
visibility: 0.9999809861183167
","x: 238.460205078125
y: 192.4441680908203
z: -0.31224924325942993
visibility: 0.9999321699142456
","x: 240.47842407226562
y: 192.3372039794922
z: -0.31223994493484497
visibility: 0.9999359250068665
","x: 242.33929443359375
y: 192.39544677734375
z: -0.31221359968185425
visibility: 0.9999333024024963
","x: 233.4773712158203
y: 192.2676239013672
z: -0.3033480644226074
visibility: 0.9999217987060547
","x: 232.0810089111328
y: 191.9038543701172
z: -0.3033416271209717
visibility: 0.9999085068702698
","x: 230.8011016845703
y: 191.49244689941406
z: -0.30329829454421997
visibility: 0.9999052882194519
","x: 246.39642333984375
y: 195.456298828125
z: -0.20962584018707275
visibility: 0.9999156594276428
","x: 230.93429565429688
y: 192.1548614501953
z: -0.18399524688720703
visibility: 0.9998195767402649
","x: 238.73814392089844
y: 209.6448974609375
z: -0.2769172191619873
visibility: 0.9999784231185913
","x: 232.44346618652344
y: 208.80300903320312
z: -0.2726346552371979
visibility: 0.9999684691429138
","x: 265.2397766113281
y: 247.9432830810547
z: -0.12530168890953064
visibility: 0.9999836683273315
","x: 214.57305908203125
y: 236.48428344726562
z: -0.06837132573127747
visibility: 0.9999718070030212
","x: 273.3046569824219
y: 309.4396667480469
z: -0.13362666964530945
visibility: 0.9912276268005371
","x: 198.650634765625
y: 296.9120178222656
z: 0.004541576374322176
visibility: 0.9704852104187012
","x: 264.2012023925781
y: 344.6269226074219
z: -0.30788999795913696
visibility: 0.9876939058303833
","x: 183.6343994140625
y: 352.9484558105469
z: -0.11701414734125137
visibility: 0.9771930575370789
","x: 258.70953369140625
y: 360.15155029296875
z: -0.3538581430912018
visibility: 0.9742206335067749
","x: 176.60301208496094
y: 370.5436706542969
z: -0.1519545614719391
visibility: 0.957099199295044
","x: 254.876953125
y: 353.2975769042969
z: -0.3833261728286743
visibility: 0.976897656917572
","x: 178.31634521484375
y: 369.5138854980469
z: -0.19397814571857452
visibility: 0.9612439274787903
","x: 255.88548278808594
y: 347.89837646484375
z: -0.3212195038795471
visibility: 0.9697487950325012
","x: 181.8443603515625
y: 363.6915588378906
z: -0.13662073016166687
visibility: 0.9551597237586975
","x: 244.94142150878906
y: 378.0221252441406
z: -0.00961628369987011
visibility: 0.9996001124382019
","x: 216.7103271484375
y: 371.22576904296875
z: 0.009585137479007244
visibility: 0.9996644854545593
","x: 242.18115234375
y: 476.0635070800781
z: -0.019138526171445847
visibility: 0.9969847798347473
","x: 208.4183349609375
y: 469.9828796386719
z: 0.010688984766602516
visibility: 0.9970362782478333
","x: 239.45895385742188
y: 560.423828125
z: 0.13071595132350922
visibility: 0.9963076114654541
","x: 199.6475372314453
y: 556.4561767578125
z: 0.15317080914974213
visibility: 0.9965291023254395
","x: 237.711181640625
y: 570.4732666015625
z: 0.1368381828069687
visibility: 0.9093772768974304
","x: 202.81344604492188
y: 567.8173217773438
z: 0.1581939160823822
visibility: 0.9435800313949585
","x: 237.1377410888672
y: 588.1725463867188
z: -0.014549344778060913
visibility: 0.9929917454719543
","x: 188.009521484375
y: 585.2014770507812
z: 0.0203468706458807
visibility: 0.9940835237503052
",,,,,,,,,,,,,,,,,,,,,,,,,,,,,,,,,,,,,,,,,,
19,"x: 234.06069946289062
y: 199.0290985107422
z: -0.32675498723983765
visibility: 0.9999822974205017
","x: 237.93792724609375
y: 189.7354736328125
z: -0.31683850288391113
visibility: 0.9999369978904724
","x: 239.97157287597656
y: 189.67970275878906
z: -0.316847562789917
visibility: 0.9999402761459351
","x: 241.94052124023438
y: 189.66482543945312
z: -0.3168361783027649
visibility: 0.9999379515647888
","x: 232.59808349609375
y: 189.2595672607422
z: -0.3096063733100891
visibility: 0.9999274015426636
","x: 231.14309692382812
y: 188.7992706298828
z: -0.30961281061172485
visibility: 0.9999149441719055
","x: 229.89585876464844
y: 188.3297882080078
z: -0.30960148572921753
visibility: 0.9999122023582458
","x: 245.5347900390625
y: 191.6005096435547
z: -0.20966489613056183
visibility: 0.9999219179153442
","x: 229.73167419433594
y: 188.2764892578125
z: -0.17836609482765198
visibility: 0.9998334050178528
","x: 238.1621551513672
y: 206.69949340820312
z: -0.2814355194568634
visibility: 0.9999801516532898
","x: 231.56161499023438
y: 205.77105712890625
z: -0.2743571102619171
visibility: 0.9999709725379944
","x: 264.2888488769531
y: 241.75717163085938
z: -0.12350814044475555
visibility: 0.999984860420227
","x: 213.29415893554688
y: 231.5847930908203
z: -0.05199136584997177
visibility: 0.9999732971191406
","x: 273.36871337890625
y: 301.6622619628906
z: -0.1282602846622467
visibility: 0.9918164014816284
","x: 197.49606323242188
y: 288.1509704589844
z: 0.0300060473382473
visibility: 0.9720345139503479
","x: 255.94625854492188
y: 335.1627197265625
z: -0.30185019969940186
visibility: 0.9883198738098145
","x: 187.31423950195312
y: 343.7880859375
z: -0.09369854629039764
visibility: 0.9780333638191223
","x: 252.86172485351562
y: 350.8341979980469
z: -0.34858205914497375
visibility: 0.9753149747848511
","x: 180.92381286621094
y: 360.47845458984375
z: -0.13056422770023346
visibility: 0.9583882689476013
","x: 248.5722198486328
y: 345.4049072265625
z: -0.3789062798023224
visibility: 0.977733314037323
","x: 183.3384552001953
y: 360.8184509277344
z: -0.1715157926082611
visibility: 0.9623762369155884
","x: 248.25949096679688
y: 340.2269287109375
z: -0.3154667913913727
visibility: 0.970431923866272
","x: 187.20904541015625
y: 354.876708984375
z: -0.1127033680677414
visibility: 0.9562846422195435
","x: 244.53892517089844
y: 374.9114685058594
z: -0.013329366222023964
visibility: 0.9996142983436584
","x: 215.8098907470703
y: 368.24560546875
z: 0.013319022953510284
visibility: 0.9996777176856995
","x: 243.21905517578125
y: 473.42205810546875
z: -0.042785514146089554
visibility: 0.9971208572387695
","x: 205.22882080078125
y: 468.06195068359375
z: -0.002736315131187439
visibility: 0.9971840381622314
","x: 239.70787048339844
y: 559.17138671875
z: 0.13596156239509583
visibility: 0.9963746070861816
","x: 196.5437774658203
y: 556.3804321289062
z: 0.15766294300556183
visibility: 0.9966611266136169
","x: 237.77415466308594
y: 568.6213989257812
z: 0.14057104289531708
visibility: 0.9099611639976501
","x: 199.95651245117188
y: 567.3988647460938
z: 0.16391365230083466
visibility: 0.9449596405029297
","x: 237.45318603515625
y: 587.4730834960938
z: -0.005864602979272604
visibility: 0.9930864572525024
","x: 186.38172912597656
y: 585.52392578125
z: 0.023891199380159378
visibility: 0.9942329525947571
",,,,,,,,,,,,,,,,,,,,,,"x: 250.5906524658203
y: 332.5787658691406
z: 0.0
","x: 246.28704833984375
y: 337.7813720703125
z: 0.002109909662976861
","x: 244.90859985351562
y: 346.3780212402344
z: 0.002429805463179946
","x: 246.96749877929688
y: 353.2954406738281
z: 0.0022260122932493687
","x: 249.51654052734375
y: 357.04754638671875
z: 0.0024631358683109283
","x: 245.18063354492188
y: 352.2534484863281
z: 0.0008673902484588325
","x: 247.69186401367188
y: 360.1379089355469
z: 0.000638925819657743
","x: 248.55322265625
y: 357.3943786621094
z: 0.0018592915730550885
","x: 248.30320739746094
y: 353.4071044921875
z: 0.0029816050082445145
","x: 248.53726196289062
y: 352.880615234375
z: -0.0010286916512995958
","x: 250.32545471191406
y: 360.39752197265625
z: -0.00011960361734963953
","x: 250.87998962402344
y: 358.1376647949219
z: 0.0019586405251175165
","x: 250.661865234375
y: 355.0674743652344
z: 0.003212410258129239
","x: 251.72976684570312
y: 352.2430725097656
z: -0.002877212828025222
","x: 252.8867950439453
y: 360.1506042480469
z: -0.002259834436699748
","x: 253.43484497070312
y: 358.5384826660156
z: -0.0001321552408626303
","x: 253.27723693847656
y: 356.0081787109375
z: 0.0010995051125064492
","x: 254.72740173339844
y: 350.7925720214844
z: -0.0046607255935668945
","x: 255.41644287109375
y: 357.9370422363281
z: -0.0049279057420790195
","x: 255.7903289794922
y: 359.3076171875
z: -0.0038240409921854734
","x: 255.86912536621094
y: 359.59942626953125
z: -0.002825245726853609
"
20,"x: 234.06069946289062
y: 199.0290985107422
z: -0.32675498723983765
visibility: 0.9999822974205017
","x: 237.93792724609375
y: 189.7354736328125
z: -0.31683850288391113
visibility: 0.9999369978904724
","x: 239.97157287597656
y: 189.67970275878906
z: -0.316847562789917
visibility: 0.9999402761459351
","x: 241.94052124023438
y: 189.66482543945312
z: -0.3168361783027649
visibility: 0.9999379515647888
","x: 232.59808349609375
y: 189.2595672607422
z: -0.3096063733100891
visibility: 0.9999274015426636
","x: 231.14309692382812
y: 188.7992706298828
z: -0.30961281061172485
visibility: 0.9999149441719055
","x: 229.89585876464844
y: 188.3297882080078
z: -0.30960148572921753
visibility: 0.9999122023582458
","x: 245.5347900390625
y: 191.6005096435547
z: -0.20966489613056183
visibility: 0.9999219179153442
","x: 229.73167419433594
y: 188.2764892578125
z: -0.17836609482765198
visibility: 0.9998334050178528
","x: 238.1621551513672
y: 206.69949340820312
z: -0.2814355194568634
visibility: 0.9999801516532898
","x: 231.56161499023438
y: 205.77105712890625
z: -0.2743571102619171
visibility: 0.9999709725379944
","x: 264.2888488769531
y: 241.75717163085938
z: -0.12350814044475555
visibility: 0.999984860420227
","x: 213.29415893554688
y: 231.5847930908203
z: -0.05199136584997177
visibility: 0.9999732971191406
","x: 273.36871337890625
y: 301.6622619628906
z: -0.1282602846622467
visibility: 0.9918164014816284
","x: 197.49606323242188
y: 288.1509704589844
z: 0.0300060473382473
visibility: 0.9720345139503479
","x: 255.94625854492188
y: 335.1627197265625
z: -0.30185019969940186
visibility: 0.9883198738098145
","x: 187.31423950195312
y: 343.7880859375
z: -0.09369854629039764
visibility: 0.9780333638191223
","x: 252.86172485351562
y: 350.8341979980469
z: -0.34858205914497375
visibility: 0.9753149747848511
","x: 180.92381286621094
y: 360.47845458984375
z: -0.13056422770023346
visibility: 0.9583882689476013
","x: 248.5722198486328
y: 345.4049072265625
z: -0.3789062798023224
visibility: 0.977733314037323
","x: 183.3384552001953
y: 360.8184509277344
z: -0.1715157926082611
visibility: 0.9623762369155884
","x: 248.25949096679688
y: 340.2269287109375
z: -0.3154667913913727
visibility: 0.970431923866272
","x: 187.20904541015625
y: 354.876708984375
z: -0.1127033680677414
visibility: 0.9562846422195435
","x: 244.53892517089844
y: 374.9114685058594
z: -0.013329366222023964
visibility: 0.9996142983436584
","x: 215.8098907470703
y: 368.24560546875
z: 0.013319022953510284
visibility: 0.9996777176856995
","x: 243.21905517578125
y: 473.42205810546875
z: -0.042785514146089554
visibility: 0.9971208572387695
","x: 205.22882080078125
y: 468.06195068359375
z: -0.002736315131187439
visibility: 0.9971840381622314
","x: 239.70787048339844
y: 559.17138671875
z: 0.13596156239509583
visibility: 0.9963746070861816
","x: 196.5437774658203
y: 556.3804321289062
z: 0.15766294300556183
visibility: 0.9966611266136169
","x: 237.77415466308594
y: 568.6213989257812
z: 0.14057104289531708
visibility: 0.9099611639976501
","x: 199.95651245117188
y: 567.3988647460938
z: 0.16391365230083466
visibility: 0.9449596405029297
","x: 237.45318603515625
y: 587.4730834960938
z: -0.005864602979272604
visibility: 0.9930864572525024
","x: 186.38172912597656
y: 585.52392578125
z: 0.023891199380159378
visibility: 0.9942329525947571
",,,,,,,,,,,,,,,,,,,,,,"x: 250.5906524658203
y: 332.5787658691406
z: 0.0
","x: 246.28704833984375
y: 337.7813720703125
z: 0.002109909662976861
","x: 244.90859985351562
y: 346.3780212402344
z: 0.002429805463179946
","x: 246.96749877929688
y: 353.2954406738281
z: 0.0022260122932493687
","x: 249.51654052734375
y: 357.04754638671875
z: 0.0024631358683109283
","x: 245.18063354492188
y: 352.2534484863281
z: 0.0008673902484588325
","x: 247.69186401367188
y: 360.1379089355469
z: 0.000638925819657743
","x: 248.55322265625
y: 357.3943786621094
z: 0.0018592915730550885
","x: 248.30320739746094
y: 353.4071044921875
z: 0.0029816050082445145
","x: 248.53726196289062
y: 352.880615234375
z: -0.0010286916512995958
","x: 250.32545471191406
y: 360.39752197265625
z: -0.00011960361734963953
","x: 250.87998962402344
y: 358.1376647949219
z: 0.0019586405251175165
","x: 250.661865234375
y: 355.0674743652344
z: 0.003212410258129239
","x: 251.72976684570312
y: 352.2430725097656
z: -0.002877212828025222
","x: 252.8867950439453
y: 360.1506042480469
z: -0.002259834436699748
","x: 253.43484497070312
y: 358.5384826660156
z: -0.0001321552408626303
","x: 253.27723693847656
y: 356.0081787109375
z: 0.0010995051125064492
","x: 254.72740173339844
y: 350.7925720214844
z: -0.0046607255935668945
","x: 255.41644287109375
y: 357.9370422363281
z: -0.0049279057420790195
","x: 255.7903289794922
y: 359.3076171875
z: -0.0038240409921854734
","x: 255.86912536621094
y: 359.59942626953125
z: -0.002825245726853609
"
21,"x: 232.98623657226562
y: 196.15113830566406
z: -0.3284904956817627
visibility: 0.9999834299087524
","x: 236.7194366455078
y: 187.5991668701172
z: -0.31908437609672546
visibility: 0.9999411106109619
","x: 238.67955017089844
y: 187.7685546875
z: -0.31909915804862976
visibility: 0.9999439120292664
","x: 240.62216186523438
y: 187.931884765625
z: -0.31909552216529846
visibility: 0.9999417662620544
","x: 231.5430450439453
y: 186.68353271484375
z: -0.31209662556648254
visibility: 0.999932587146759
","x: 230.1012725830078
y: 186.17056274414062
z: -0.3121059536933899
visibility: 0.9999209642410278
","x: 228.90811157226562
y: 185.6106414794922
z: -0.31211674213409424
visibility: 0.9999185800552368
","x: 244.6974334716797
y: 189.7024688720703
z: -0.20364651083946228
visibility: 0.9999270439147949
","x: 229.29112243652344
y: 185.88706970214844
z: -0.1815800815820694
visibility: 0.9998458027839661
","x: 237.10227966308594
y: 203.74876403808594
z: -0.2831921875476837
visibility: 0.9999814033508301
","x: 230.77532958984375
y: 202.75552368164062
z: -0.27660131454467773
visibility: 0.9999730587005615
","x: 260.0293884277344
y: 235.57666015625
z: -0.11510634422302246
visibility: 0.9999853372573853
","x: 210.7996826171875
y: 228.8591766357422
z: -0.05934968590736389
visibility: 0.9999732971191406
","x: 272.1929626464844
y: 296.62420654296875
z: -0.09732639789581299
visibility: 0.9922721982002258
","x: 194.20880126953125
y: 281.59295654296875
z: -0.035302404314279556
visibility: 0.9723518490791321
","x: 252.67710876464844
y: 339.0678405761719
z: -0.24684634804725647
visibility: 0.9886258840560913
","x: 192.35494995117188
y: 330.3023681640625
z: -0.22209647297859192
visibility: 0.9773789644241333
","x: 253.65960693359375
y: 353.88128662109375
z: -0.29572492837905884
visibility: 0.9757505059242249
","x: 189.07235717773438
y: 346.4761047363281
z: -0.26872095465660095
visibility: 0.9573918581008911
","x: 250.44940185546875
y: 347.16510009765625
z: -0.3315069079399109
visibility: 0.977998673915863
","x: 193.51608276367188
y: 347.14239501953125
z: -0.3005211651325226
visibility: 0.9612845778465271
","x: 248.7892303466797
y: 343.8846130371094
z: -0.2620614469051361
visibility: 0.970493733882904
","x: 195.54275512695312
y: 341.658203125
z: -0.2384984791278839
visibility: 0.9546064138412476
","x: 243.17828369140625
y: 370.8797607421875
z: -0.01465232390910387
visibility: 0.9996151328086853
","x: 214.974853515625
y: 366.4012451171875
z: 0.014658136293292046
visibility: 0.999685525894165
","x: 243.8303680419922
y: 470.42724609375
z: -0.03553329035639763
visibility: 0.9972806572914124
","x: 202.31544494628906
y: 467.898193359375
z: -0.0006603189976885915
visibility: 0.9972836375236511
","x: 240.16702270507812
y: 558.541259765625
z: 0.1336674690246582
visibility: 0.99652099609375
","x: 196.06491088867188
y: 556.4660034179688
z: 0.15679317712783813
visibility: 0.9968322515487671
","x: 237.9371795654297
y: 568.3764038085938
z: 0.13899247348308563
visibility: 0.9123120307922363
","x: 200.19117736816406
y: 567.8717041015625
z: 0.16147422790527344
visibility: 0.9473456740379333
","x: 237.62130737304688
y: 586.9097290039062
z: -0.015597468242049217
visibility: 0.9933265447616577
","x: 184.46328735351562
y: 585.7151489257812
z: 0.01768336072564125
visibility: 0.9944401383399963
","x: 193.3572540283203
y: 333.82427978515625
z: 0.0
","x: 196.38987731933594
y: 341.23046875
z: 0.0012659559724852443
","x: 196.13876342773438
y: 350.2093200683594
z: 1.2716516721411608e-05
","x: 193.92408752441406
y: 355.44842529296875
z: -0.001528333406895399
","x: 191.76548767089844
y: 357.85821533203125
z: -0.002610357478260994
","x: 194.61233520507812
y: 351.16534423828125
z: -0.007591012865304947
","x: 192.78250122070312
y: 363.1217956542969
z: -0.009766845032572746
","x: 193.23703002929688
y: 360.547607421875
z: -0.007548926863819361
","x: 193.59820556640625
y: 355.90472412109375
z: -0.0052815829403698444
","x: 191.16464233398438
y: 349.3966064453125
z: -0.009594380855560303
","x: 189.16043090820312
y: 361.6048889160156
z: -0.01118836086243391
","x: 189.69606018066406
y: 359.15277099609375
z: -0.007319554220885038
","x: 190.1601104736328
y: 355.07659912109375
z: -0.004054824355989695
","x: 188.1595458984375
y: 347.15582275390625
z: -0.011210393160581589
","x: 186.0040740966797
y: 359.19207763671875
z: -0.012447584420442581
","x: 186.6575164794922
y: 357.2619934082031
z: -0.008575324900448322
","x: 187.26980590820312
y: 353.5250549316406
z: -0.005636399146169424
","x: 185.6309814453125
y: 344.7611083984375
z: -0.012662642635405064
","x: 183.78494262695312
y: 354.21826171875
z: -0.013373546302318573
","x: 184.09315490722656
y: 353.4779357910156
z: -0.011164830066263676
","x: 184.34085083007812
y: 350.58380126953125
z: -0.009108288213610649
","x: 249.66261291503906
y: 348.7359313964844
z: 0.0
","x: 247.4227294921875
y: 352.3440246582031
z: -0.002730792621150613
","x: 246.44268798828125
y: 357.33099365234375
z: -0.004307833034545183
","x: 247.24783325195312
y: 361.05242919921875
z: -0.0060088313184678555
","x: 248.43695068359375
y: 363.3950500488281
z: -0.007706957403570414
","x: 249.3723907470703
y: 365.03863525390625
z: -0.0019633504562079906
","x: 250.71353149414062
y: 369.8758239746094
z: -0.004999680444598198
","x: 252.48468017578125
y: 372.2699279785156
z: -0.00717179523780942
","x: 254.19325256347656
y: 373.8275146484375
z: -0.008348685689270496
","x: 251.81382751464844
y: 365.0930480957031
z: -0.0024912399239838123
","x: 254.00865173339844
y: 370.0787353515625
z: -0.005703083239495754
","x: 256.197998046875
y: 372.6015930175781
z: -0.00784066691994667
","x: 258.31158447265625
y: 374.3671875
z: -0.009119350463151932
","x: 253.9285125732422
y: 364.040283203125
z: -0.0035703787580132484
","x: 256.35186767578125
y: 368.9175720214844
z: -0.00671550165861845
","x: 258.5555114746094
y: 371.41162109375
z: -0.008540677838027477
","x: 260.5906677246094
y: 373.17529296875
z: -0.009493258781731129
","x: 255.66650390625
y: 361.89154052734375
z: -0.005007571075111628
","x: 258.0022888183594
y: 366.07232666015625
z: -0.007451261859387159
","x: 260.02099609375
y: 368.86065673828125
z: -0.008755984716117382
","x: 261.85821533203125
y: 371.07763671875
z: -0.009499635547399521
"
22,"x: 232.98623657226562
y: 196.15113830566406
z: -0.3284904956817627
visibility: 0.9999834299087524
","x: 236.7194366455078
y: 187.5991668701172
z: -0.31908437609672546
visibility: 0.9999411106109619
","x: 238.67955017089844
y: 187.7685546875
z: -0.31909915804862976
visibility: 0.9999439120292664
","x: 240.62216186523438
y: 187.931884765625
z: -0.31909552216529846
visibility: 0.9999417662620544
","x: 231.5430450439453
y: 186.68353271484375
z: -0.31209662556648254
visibility: 0.999932587146759
","x: 230.1012725830078
y: 186.17056274414062
z: -0.3121059536933899
visibility: 0.9999209642410278
","x: 228.90811157226562
y: 185.6106414794922
z: -0.31211674213409424
visibility: 0.9999185800552368
","x: 244.6974334716797
y: 189.7024688720703
z: -0.20364651083946228
visibility: 0.9999270439147949
","x: 229.29112243652344
y: 185.88706970214844
z: -0.1815800815820694
visibility: 0.9998458027839661
","x: 237.10227966308594
y: 203.74876403808594
z: -0.2831921875476837
visibility: 0.9999814033508301
","x: 230.77532958984375
y: 202.75552368164062
z: -0.27660131454467773
visibility: 0.9999730587005615
","x: 260.0293884277344
y: 235.57666015625
z: -0.11510634422302246
visibility: 0.9999853372573853
","x: 210.7996826171875
y: 228.8591766357422
z: -0.05934968590736389
visibility: 0.9999732971191406
","x: 272.1929626464844
y: 296.62420654296875
z: -0.09732639789581299
visibility: 0.9922721982002258
","x: 194.20880126953125
y: 281.59295654296875
z: -0.035302404314279556
visibility: 0.9723518490791321
","x: 252.67710876464844
y: 339.0678405761719
z: -0.24684634804725647
visibility: 0.9886258840560913
","x: 192.35494995117188
y: 330.3023681640625
z: -0.22209647297859192
visibility: 0.9773789644241333
","x: 253.65960693359375
y: 353.88128662109375
z: -0.29572492837905884
visibility: 0.9757505059242249
","x: 189.07235717773438
y: 346.4761047363281
z: -0.26872095465660095
visibility: 0.9573918581008911
","x: 250.44940185546875
y: 347.16510009765625
z: -0.3315069079399109
visibility: 0.977998673915863
","x: 193.51608276367188
y: 347.14239501953125
z: -0.3005211651325226
visibility: 0.9612845778465271
","x: 248.7892303466797
y: 343.8846130371094
z: -0.2620614469051361
visibility: 0.970493733882904
","x: 195.54275512695312
y: 341.658203125
z: -0.2384984791278839
visibility: 0.9546064138412476
","x: 243.17828369140625
y: 370.8797607421875
z: -0.01465232390910387
visibility: 0.9996151328086853
","x: 214.974853515625
y: 366.4012451171875
z: 0.014658136293292046
visibility: 0.999685525894165
","x: 243.8303680419922
y: 470.42724609375
z: -0.03553329035639763
visibility: 0.9972806572914124
","x: 202.31544494628906
y: 467.898193359375
z: -0.0006603189976885915
visibility: 0.9972836375236511
","x: 240.16702270507812
y: 558.541259765625
z: 0.1336674690246582
visibility: 0.99652099609375
","x: 196.06491088867188
y: 556.4660034179688
z: 0.15679317712783813
visibility: 0.9968322515487671
","x: 237.9371795654297
y: 568.3764038085938
z: 0.13899247348308563
visibility: 0.9123120307922363
","x: 200.19117736816406
y: 567.8717041015625
z: 0.16147422790527344
visibility: 0.9473456740379333
","x: 237.62130737304688
y: 586.9097290039062
z: -0.015597468242049217
visibility: 0.9933265447616577
","x: 184.46328735351562
y: 585.7151489257812
z: 0.01768336072564125
visibility: 0.9944401383399963
","x: 193.3572540283203
y: 333.82427978515625
z: 0.0
","x: 196.38987731933594
y: 341.23046875
z: 0.0012659559724852443
","x: 196.13876342773438
y: 350.2093200683594
z: 1.2716516721411608e-05
","x: 193.92408752441406
y: 355.44842529296875
z: -0.001528333406895399
","x: 191.76548767089844
y: 357.85821533203125
z: -0.002610357478260994
","x: 194.61233520507812
y: 351.16534423828125
z: -0.007591012865304947
","x: 192.78250122070312
y: 363.1217956542969
z: -0.009766845032572746
","x: 193.23703002929688
y: 360.547607421875
z: -0.007548926863819361
","x: 193.59820556640625
y: 355.90472412109375
z: -0.0052815829403698444
","x: 191.16464233398438
y: 349.3966064453125
z: -0.009594380855560303
","x: 189.16043090820312
y: 361.6048889160156
z: -0.01118836086243391
","x: 189.69606018066406
y: 359.15277099609375
z: -0.007319554220885038
","x: 190.1601104736328
y: 355.07659912109375
z: -0.004054824355989695
","x: 188.1595458984375
y: 347.15582275390625
z: -0.011210393160581589
","x: 186.0040740966797
y: 359.19207763671875
z: -0.012447584420442581
","x: 186.6575164794922
y: 357.2619934082031
z: -0.008575324900448322
","x: 187.26980590820312
y: 353.5250549316406
z: -0.005636399146169424
","x: 185.6309814453125
y: 344.7611083984375
z: -0.012662642635405064
","x: 183.78494262695312
y: 354.21826171875
z: -0.013373546302318573
","x: 184.09315490722656
y: 353.4779357910156
z: -0.011164830066263676
","x: 184.34085083007812
y: 350.58380126953125
z: -0.009108288213610649
","x: 249.66261291503906
y: 348.7359313964844
z: 0.0
","x: 247.4227294921875
y: 352.3440246582031
z: -0.002730792621150613
","x: 246.44268798828125
y: 357.33099365234375
z: -0.004307833034545183
","x: 247.24783325195312
y: 361.05242919921875
z: -0.0060088313184678555
","x: 248.43695068359375
y: 363.3950500488281
z: -0.007706957403570414
","x: 249.3723907470703
y: 365.03863525390625
z: -0.0019633504562079906
","x: 250.71353149414062
y: 369.8758239746094
z: -0.004999680444598198
","x: 252.48468017578125
y: 372.2699279785156
z: -0.00717179523780942
","x: 254.19325256347656
y: 373.8275146484375
z: -0.008348685689270496
","x: 251.81382751464844
y: 365.0930480957031
z: -0.0024912399239838123
","x: 254.00865173339844
y: 370.0787353515625
z: -0.005703083239495754
","x: 256.197998046875
y: 372.6015930175781
z: -0.00784066691994667
","x: 258.31158447265625
y: 374.3671875
z: -0.009119350463151932
","x: 253.9285125732422
y: 364.040283203125
z: -0.0035703787580132484
","x: 256.35186767578125
y: 368.9175720214844
z: -0.00671550165861845
","x: 258.5555114746094
y: 371.41162109375
z: -0.008540677838027477
","x: 260.5906677246094
y: 373.17529296875
z: -0.009493258781731129
","x: 255.66650390625
y: 361.89154052734375
z: -0.005007571075111628
","x: 258.0022888183594
y: 366.07232666015625
z: -0.007451261859387159
","x: 260.02099609375
y: 368.86065673828125
z: -0.008755984716117382
","x: 261.85821533203125
y: 371.07763671875
z: -0.009499635547399521
"
23,"x: 232.98623657226562
y: 196.15113830566406
z: -0.3284904956817627
visibility: 0.9999834299087524
","x: 236.7194366455078
y: 187.5991668701172
z: -0.31908437609672546
visibility: 0.9999411106109619
","x: 238.67955017089844
y: 187.7685546875
z: -0.31909915804862976
visibility: 0.9999439120292664
","x: 240.62216186523438
y: 187.931884765625
z: -0.31909552216529846
visibility: 0.9999417662620544
","x: 231.5430450439453
y: 186.68353271484375
z: -0.31209662556648254
visibility: 0.999932587146759
","x: 230.1012725830078
y: 186.17056274414062
z: -0.3121059536933899
visibility: 0.9999209642410278
","x: 228.90811157226562
y: 185.6106414794922
z: -0.31211674213409424
visibility: 0.9999185800552368
","x: 244.6974334716797
y: 189.7024688720703
z: -0.20364651083946228
visibility: 0.9999270439147949
","x: 229.29112243652344
y: 185.88706970214844
z: -0.1815800815820694
visibility: 0.9998458027839661
","x: 237.10227966308594
y: 203.74876403808594
z: -0.2831921875476837
visibility: 0.9999814033508301
","x: 230.77532958984375
y: 202.75552368164062
z: -0.27660131454467773
visibility: 0.9999730587005615
","x: 260.0293884277344
y: 235.57666015625
z: -0.11510634422302246
visibility: 0.9999853372573853
","x: 210.7996826171875
y: 228.8591766357422
z: -0.05934968590736389
visibility: 0.9999732971191406
","x: 272.1929626464844
y: 296.62420654296875
z: -0.09732639789581299
visibility: 0.9922721982002258
","x: 194.20880126953125
y: 281.59295654296875
z: -0.035302404314279556
visibility: 0.9723518490791321
","x: 252.67710876464844
y: 339.0678405761719
z: -0.24684634804725647
visibility: 0.9886258840560913
","x: 192.35494995117188
y: 330.3023681640625
z: -0.22209647297859192
visibility: 0.9773789644241333
","x: 253.65960693359375
y: 353.88128662109375
z: -0.29572492837905884
visibility: 0.9757505059242249
","x: 189.07235717773438
y: 346.4761047363281
z: -0.26872095465660095
visibility: 0.9573918581008911
","x: 250.44940185546875
y: 347.16510009765625
z: -0.3315069079399109
visibility: 0.977998673915863
","x: 193.51608276367188
y: 347.14239501953125
z: -0.3005211651325226
visibility: 0.9612845778465271
","x: 248.7892303466797
y: 343.8846130371094
z: -0.2620614469051361
visibility: 0.970493733882904
","x: 195.54275512695312
y: 341.658203125
z: -0.2384984791278839
visibility: 0.9546064138412476
","x: 243.17828369140625
y: 370.8797607421875
z: -0.01465232390910387
visibility: 0.9996151328086853
","x: 214.974853515625
y: 366.4012451171875
z: 0.014658136293292046
visibility: 0.999685525894165
","x: 243.8303680419922
y: 470.42724609375
z: -0.03553329035639763
visibility: 0.9972806572914124
","x: 202.31544494628906
y: 467.898193359375
z: -0.0006603189976885915
visibility: 0.9972836375236511
","x: 240.16702270507812
y: 558.541259765625
z: 0.1336674690246582
visibility: 0.99652099609375
","x: 196.06491088867188
y: 556.4660034179688
z: 0.15679317712783813
visibility: 0.9968322515487671
","x: 237.9371795654297
y: 568.3764038085938
z: 0.13899247348308563
visibility: 0.9123120307922363
","x: 200.19117736816406
y: 567.8717041015625
z: 0.16147422790527344
visibility: 0.9473456740379333
","x: 237.62130737304688
y: 586.9097290039062
z: -0.015597468242049217
visibility: 0.9933265447616577
","x: 184.46328735351562
y: 585.7151489257812
z: 0.01768336072564125
visibility: 0.9944401383399963
","x: 193.3572540283203
y: 333.82427978515625
z: 0.0
","x: 196.38987731933594
y: 341.23046875
z: 0.0012659559724852443
","x: 196.13876342773438
y: 350.2093200683594
z: 1.2716516721411608e-05
","x: 193.92408752441406
y: 355.44842529296875
z: -0.001528333406895399
","x: 191.76548767089844
y: 357.85821533203125
z: -0.002610357478260994
","x: 194.61233520507812
y: 351.16534423828125
z: -0.007591012865304947
","x: 192.78250122070312
y: 363.1217956542969
z: -0.009766845032572746
","x: 193.23703002929688
y: 360.547607421875
z: -0.007548926863819361
","x: 193.59820556640625
y: 355.90472412109375
z: -0.0052815829403698444
","x: 191.16464233398438
y: 349.3966064453125
z: -0.009594380855560303
","x: 189.16043090820312
y: 361.6048889160156
z: -0.01118836086243391
","x: 189.69606018066406
y: 359.15277099609375
z: -0.007319554220885038
","x: 190.1601104736328
y: 355.07659912109375
z: -0.004054824355989695
","x: 188.1595458984375
y: 347.15582275390625
z: -0.011210393160581589
","x: 186.0040740966797
y: 359.19207763671875
z: -0.012447584420442581
","x: 186.6575164794922
y: 357.2619934082031
z: -0.008575324900448322
","x: 187.26980590820312
y: 353.5250549316406
z: -0.005636399146169424
","x: 185.6309814453125
y: 344.7611083984375
z: -0.012662642635405064
","x: 183.78494262695312
y: 354.21826171875
z: -0.013373546302318573
","x: 184.09315490722656
y: 353.4779357910156
z: -0.011164830066263676
","x: 184.34085083007812
y: 350.58380126953125
z: -0.009108288213610649
","x: 249.66261291503906
y: 348.7359313964844
z: 0.0
","x: 247.4227294921875
y: 352.3440246582031
z: -0.002730792621150613
","x: 246.44268798828125
y: 357.33099365234375
z: -0.004307833034545183
","x: 247.24783325195312
y: 361.05242919921875
z: -0.0060088313184678555
","x: 248.43695068359375
y: 363.3950500488281
z: -0.007706957403570414
","x: 249.3723907470703
y: 365.03863525390625
z: -0.0019633504562079906
","x: 250.71353149414062
y: 369.8758239746094
z: -0.004999680444598198
","x: 252.48468017578125
y: 372.2699279785156
z: -0.00717179523780942
","x: 254.19325256347656
y: 373.8275146484375
z: -0.008348685689270496
","x: 251.81382751464844
y: 365.0930480957031
z: -0.0024912399239838123
","x: 254.00865173339844
y: 370.0787353515625
z: -0.005703083239495754
","x: 256.197998046875
y: 372.6015930175781
z: -0.00784066691994667
","x: 258.31158447265625
y: 374.3671875
z: -0.009119350463151932
","x: 253.9285125732422
y: 364.040283203125
z: -0.0035703787580132484
","x: 256.35186767578125
y: 368.9175720214844
z: -0.00671550165861845
","x: 258.5555114746094
y: 371.41162109375
z: -0.008540677838027477
","x: 260.5906677246094
y: 373.17529296875
z: -0.009493258781731129
","x: 255.66650390625
y: 361.89154052734375
z: -0.005007571075111628
","x: 258.0022888183594
y: 366.07232666015625
z: -0.007451261859387159
","x: 260.02099609375
y: 368.86065673828125
z: -0.008755984716117382
","x: 261.85821533203125
y: 371.07763671875
z: -0.009499635547399521
"
24,"x: 227.91744995117188
y: 196.1320343017578
z: -0.34423813223838806
visibility: 0.9999842643737793
","x: 230.503662109375
y: 187.66278076171875
z: -0.332410603761673
visibility: 0.999943733215332
","x: 231.9257049560547
y: 187.71954345703125
z: -0.33239245414733887
visibility: 0.9999457597732544
","x: 233.49949645996094
y: 187.8043212890625
z: -0.3323970437049866
visibility: 0.9999433755874634
","x: 226.25521850585938
y: 187.0343017578125
z: -0.33160993456840515
visibility: 0.9999369382858276
","x: 224.6351318359375
y: 186.59036254882812
z: -0.3316447138786316
visibility: 0.9999263286590576
","x: 222.8133544921875
y: 186.11961364746094
z: -0.3316488265991211
visibility: 0.9999243021011353
","x: 236.49246215820312
y: 189.91741943359375
z: -0.20522718131542206
visibility: 0.9999291300773621
","x: 220.44674682617188
y: 186.76614379882812
z: -0.2075902670621872
visibility: 0.9998576641082764
","x: 230.2247314453125
y: 203.73922729492188
z: -0.2925891578197479
visibility: 0.9999815821647644
","x: 225.25108337402344
y: 202.97601318359375
z: -0.2931189239025116
visibility: 0.9999745488166809
","x: 250.94500732421875
y: 233.5490264892578
z: -0.10987383127212524
visibility: 0.9999818801879883
","x: 202.7703094482422
y: 228.57666015625
z: -0.09007816761732101
visibility: 0.9999729990959167
","x: 264.92437744140625
y: 298.1862487792969
z: -0.05111165717244148
visibility: 0.992306113243103
