uscmakers/ReverseChoreography/data/5_levitating_dua_lipa.csv
,NOSE,LEFT_EYE_INNER,LEFT_EYE,LEFT_EYE_OUTER,RIGHT_EYE_INNER,RIGHT_EYE,RIGHT_EYE_OUTER,LEFT_EAR,RIGHT_EAR,MOUTH_LEFT,MOUTH_RIGHT,LEFT_SHOULDER,RIGHT_SHOULDER,LEFT_ELBOW,RIGHT_ELBOW,LEFT_WRIST,RIGHT_WRIST,LEFT_PINKY,RIGHT_PINKY,LEFT_INDEX,RIGHT_INDEX,LEFT_THUMB,RIGHT_THUMB,LEFT_HIP,RIGHT_HIP,LEFT_KNEE,RIGHT_KNEE,LEFT_ANKLE,RIGHT_ANKLE,LEFT_HEEL,RIGHT_HEEL,LEFT_FOOT_INDEX,RIGHT_FOOT_INDEX,WRIST,THUMB_CPC,THUMB_MCP,THUMB_IP,THUMB_TIP,INDEX_FINGER_MCP,INDEX_FINGER_PIP,INDEX_FINGER_DIP,INDEX_FINGER_TIP,MIDDLE_FINGER_MCP,MIDDLE_FINGER_PIP,MIDDLE_FINGER_DIP,MIDDLE_FINGER_TIP,RING_FINGER_PIP,RING_FINGER_DIP,RING_FINGER_TIP,RING_FINGER_MCP,PINKY_MCP,PINKY_PIP,PINKY_DIP,PINKY_TIP,WRIST2,THUMB_CPC2,THUMB_MCP2,THUMB_IP2,THUMB_TIP2,INDEX_FINGER_MCP2,INDEX_FINGER_PIP2,INDEX_FINGER_DIP2,INDEX_FINGER_TIP2,MIDDLE_FINGER_MCP2,MIDDLE_FINGER_PIP2,MIDDLE_FINGER_DIP2,MIDDLE_FINGER_TIP2,RING_FINGER_PIP2,RING_FINGER_DIP2,RING_FINGER_TIP2,RING_FINGER_MCP2,PINKY_MCP2,PINKY_PIP2,PINKY_DIP2,PINKY_TIP2
0,"x: 195.2647705078125
y: 202.7764892578125
z: -0.24752084910869598
visibility: 0.9999747276306152
","x: 196.9395751953125
y: 196.26416015625
z: -0.2282482385635376
visibility: 0.9999423027038574
","x: 197.96282958984375
y: 196.6813507080078
z: -0.22824625670909882
visibility: 0.9999297857284546
","x: 198.93142700195312
y: 197.07699584960938
z: -0.22822614014148712
visibility: 0.9999173879623413
","x: 193.17251586914062
y: 194.62017822265625
z: -0.24034230411052704
visibility: 0.9999531507492065
","x: 191.4323272705078
y: 193.9080810546875
z: -0.24038812518119812
visibility: 0.9999531507492065
","x: 189.6608428955078
y: 193.2707061767578
z: -0.24048259854316711
visibility: 0.9999489784240723
","x: 198.7778778076172
y: 200.8299102783203
z: -0.10088493674993515
visibility: 0.9998737573623657
","x: 185.0853729248047
y: 196.45932006835938
z: -0.15659739077091217
visibility: 0.9999669790267944
","x: 196.16055297851562
y: 210.56378173828125
z: -0.19729848206043243
visibility: 0.9999761581420898
","x: 191.2920379638672
y: 208.96249389648438
z: -0.21364398300647736
visibility: 0.9999868869781494
","x: 208.429443359375
y: 251.40145874023438
z: 0.017851799726486206
visibility: 0.9999462366104126
","x: 168.0751190185547
y: 240.19711303710938
z: -0.13720344007015228
visibility: 0.9999774694442749
","x: 212.8428955078125
y: 315.1015625
z: 0.07415533810853958
visibility: 0.9407573342323303
","x: 156.7311553955078
y: 295.92340087890625
z: -0.25133758783340454
visibility: 0.9989748001098633
","x: 217.16336059570312
y: 366.3321228027344
z: -0.0208086296916008
visibility: 0.9614917635917664
","x: 184.57676696777344
y: 289.8616943359375
z: -0.4144362807273865
visibility: 0.9981563687324524
","x: 220.17269897460938
y: 382.0715026855469
z: -0.04203558340668678
visibility: 0.928015947341919
","x: 192.97047424316406
y: 293.86956787109375
z: -0.45755305886268616
visibility: 0.9945632815361023
","x: 218.15899658203125
y: 381.97735595703125
z: -0.07319852709770203
visibility: 0.9316530823707581
","x: 195.0392303466797
y: 285.96429443359375
z: -0.4608609676361084
visibility: 0.9939213991165161
","x: 216.40843200683594
y: 376.5382080078125
z: -0.03534233570098877
visibility: 0.9206860065460205
","x: 193.4669952392578
y: 284.5826416015625
z: -0.4167901575565338
visibility: 0.9881684184074402
","x: 199.3763427734375
y: 367.9434509277344
z: 0.04709891229867935
visibility: 0.9998927116394043
","x: 174.52964782714844
y: 367.0032043457031
z: -0.047085247933864594
visibility: 0.9998701810836792
","x: 202.66786193847656
y: 458.44964599609375
z: -0.01720067486166954
visibility: 0.9779644012451172
","x: 176.0928955078125
y: 457.93359375
z: -0.02622443065047264
visibility: 0.9890559911727905
","x: 199.18182373046875
y: 545.799072265625
z: 0.10665097087621689
visibility: 0.9806764125823975
","x: 181.53448486328125
y: 540.5616455078125
z: 0.13902080059051514
visibility: 0.98859041929245
","x: 195.1302032470703
y: 557.2460327148438
z: 0.11019973456859589
visibility: 0.956789493560791
","x: 184.08200073242188
y: 552.5050659179688
z: 0.1475006490945816
visibility: 0.902218759059906
","x: 215.8220977783203
y: 569.205078125
z: -0.022642040625214577
visibility: 0.9829267859458923
","x: 181.04920959472656
y: 567.802001953125
z: 0.008251506835222244
visibility: 0.985937774181366
","x: 186.41934204101562
y: 288.4157409667969
z: 0.0
","x: 191.43023681640625
y: 285.29852294921875
z: 0.0019358203280717134
","x: 196.52481079101562
y: 284.1099853515625
z: 0.0009260106598958373
","x: 200.32650756835938
y: 284.229736328125
z: -0.0008887465810403228
","x: 202.99696350097656
y: 283.5249328613281
z: -0.0019960126373916864
","x: 198.0848846435547
y: 282.77508544921875
z: -0.0019680035766214132
","x: 201.2285614013672
y: 290.81793212890625
z: -0.004191565793007612
","x: 199.77162170410156
y: 291.93304443359375
z: -0.004295575898140669
","x: 198.4762725830078
y: 289.76806640625
z: -0.004174926783889532
","x: 196.5364227294922
y: 285.1860046386719
z: -0.004805158823728561
","x: 199.0936279296875
y: 294.1190185546875
z: -0.007176362443715334
","x: 197.79209899902344
y: 294.118896484375
z: -0.006041613407433033
","x: 196.6015625
y: 291.6567687988281
z: -0.0052643632516264915
","x: 194.72933959960938
y: 288.5110778808594
z: -0.007411718834191561
","x: 196.90309143066406
y: 296.4473876953125
z: -0.009176853112876415
","x: 195.5652313232422
y: 295.8955078125
z: -0.0066504282876849174
","x: 194.4911346435547
y: 293.4325256347656
z: -0.005023638717830181
","x: 192.74771118164062
y: 292.31536865234375
z: -0.010033788159489632
","x: 194.8099365234375
y: 297.9964904785156
z: -0.011061317287385464
","x: 193.69207763671875
y: 297.1020202636719
z: -0.009178591892123222
","x: 192.60606384277344
y: 294.87115478515625
z: -0.00770347798243165
",,,,,,,,,,,,,,,,,,,,,
1,"x: 195.2647705078125
y: 202.7764892578125
z: -0.24752084910869598
visibility: 0.9999747276306152
","x: 196.9395751953125
y: 196.26416015625
z: -0.2282482385635376
visibility: 0.9999423027038574
","x: 197.96282958984375
y: 196.6813507080078
z: -0.22824625670909882
visibility: 0.9999297857284546
","x: 198.93142700195312
y: 197.07699584960938
z: -0.22822614014148712
visibility: 0.9999173879623413
","x: 193.17251586914062
y: 194.62017822265625
z: -0.24034230411052704
visibility: 0.9999531507492065
","x: 191.4323272705078
y: 193.9080810546875
z: -0.24038812518119812
visibility: 0.9999531507492065
","x: 189.6608428955078
y: 193.2707061767578
z: -0.24048259854316711
visibility: 0.9999489784240723
","x: 198.7778778076172
y: 200.8299102783203
z: -0.10088493674993515
visibility: 0.9998737573623657
","x: 185.0853729248047
y: 196.45932006835938
z: -0.15659739077091217
visibility: 0.9999669790267944
","x: 196.16055297851562
y: 210.56378173828125
z: -0.19729848206043243
visibility: 0.9999761581420898
","x: 191.2920379638672
y: 208.96249389648438
z: -0.21364398300647736
visibility: 0.9999868869781494
","x: 208.429443359375
y: 251.40145874023438
z: 0.017851799726486206
visibility: 0.9999462366104126
","x: 168.0751190185547
y: 240.19711303710938
z: -0.13720344007015228
visibility: 0.9999774694442749
","x: 212.8428955078125
y: 315.1015625
z: 0.07415533810853958
visibility: 0.9407573342323303
","x: 156.7311553955078
y: 295.92340087890625
z: -0.25133758783340454
visibility: 0.9989748001098633
","x: 217.16336059570312
y: 366.3321228027344
z: -0.0208086296916008
visibility: 0.9614917635917664
","x: 184.57676696777344
y: 289.8616943359375
z: -0.4144362807273865
visibility: 0.9981563687324524
","x: 220.17269897460938
y: 382.0715026855469
z: -0.04203558340668678
visibility: 0.928015947341919
","x: 192.97047424316406
y: 293.86956787109375
z: -0.45755305886268616
visibility: 0.9945632815361023
","x: 218.15899658203125
y: 381.97735595703125
z: -0.07319852709770203
visibility: 0.9316530823707581
","x: 195.0392303466797
y: 285.96429443359375
z: -0.4608609676361084
visibility: 0.9939213991165161
","x: 216.40843200683594
y: 376.5382080078125
z: -0.03534233570098877
visibility: 0.9206860065460205
","x: 193.4669952392578
y: 284.5826416015625
z: -0.4167901575565338
visibility: 0.9881684184074402
","x: 199.3763427734375
y: 367.9434509277344
z: 0.04709891229867935
visibility: 0.9998927116394043
","x: 174.52964782714844
y: 367.0032043457031
z: -0.047085247933864594
visibility: 0.9998701810836792
","x: 202.66786193847656
y: 458.44964599609375
z: -0.01720067486166954
visibility: 0.9779644012451172
","x: 176.0928955078125
y: 457.93359375
z: -0.02622443065047264
visibility: 0.9890559911727905
","x: 199.18182373046875
y: 545.799072265625
z: 0.10665097087621689
visibility: 0.9806764125823975
","x: 181.53448486328125
y: 540.5616455078125
z: 0.13902080059051514
visibility: 0.98859041929245
","x: 195.1302032470703
y: 557.2460327148438
z: 0.11019973456859589
visibility: 0.956789493560791
","x: 184.08200073242188
y: 552.5050659179688
z: 0.1475006490945816
visibility: 0.902218759059906
","x: 215.8220977783203
y: 569.205078125
z: -0.022642040625214577
visibility: 0.9829267859458923
","x: 181.04920959472656
y: 567.802001953125
z: 0.008251506835222244
visibility: 0.985937774181366
","x: 186.41934204101562
y: 288.4157409667969
z: 0.0
","x: 191.43023681640625
y: 285.29852294921875
z: 0.0019358203280717134
","x: 196.52481079101562
y: 284.1099853515625
z: 0.0009260106598958373
","x: 200.32650756835938
y: 284.229736328125
z: -0.0008887465810403228
","x: 202.99696350097656
y: 283.5249328613281
z: -0.0019960126373916864
","x: 198.0848846435547
y: 282.77508544921875
z: -0.0019680035766214132
","x: 201.2285614013672
y: 290.81793212890625
z: -0.004191565793007612
","x: 199.77162170410156
y: 291.93304443359375
z: -0.004295575898140669
","x: 198.4762725830078
y: 289.76806640625
z: -0.004174926783889532
","x: 196.5364227294922
y: 285.1860046386719
z: -0.004805158823728561
","x: 199.0936279296875
y: 294.1190185546875
z: -0.007176362443715334
","x: 197.79209899902344
y: 294.118896484375
z: -0.006041613407433033
","x: 196.6015625
y: 291.6567687988281
z: -0.0052643632516264915
","x: 194.72933959960938
y: 288.5110778808594
z: -0.007411718834191561
","x: 196.90309143066406
y: 296.4473876953125
z: -0.009176853112876415
","x: 195.5652313232422
y: 295.8955078125
z: -0.0066504282876849174
","x: 194.4911346435547
y: 293.4325256347656
z: -0.005023638717830181
","x: 192.74771118164062
y: 292.31536865234375
z: -0.010033788159489632
","x: 194.8099365234375
y: 297.9964904785156
z: -0.011061317287385464
","x: 193.69207763671875
y: 297.1020202636719
z: -0.009178591892123222
","x: 192.60606384277344
y: 294.87115478515625
z: -0.00770347798243165
",,,,,,,,,,,,,,,,,,,,,
2,"x: 198.05606079101562
y: 202.8596649169922
z: -0.2510825991630554
visibility: 0.9999586939811707
","x: 199.17987060546875
y: 196.4652862548828
z: -0.23340758681297302
visibility: 0.9998843669891357
","x: 200.17543029785156
y: 196.8478546142578
z: -0.23344686627388
visibility: 0.9998739361763
","x: 201.24203491210938
y: 197.228759765625
z: -0.23345668613910675
visibility: 0.9998525381088257
","x: 196.13003540039062
y: 195.51019287109375
z: -0.23882941901683807
visibility: 0.9998971223831177
","x: 194.84959411621094
y: 195.33888244628906
z: -0.23884758353233337
visibility: 0.9999010562896729
","x: 193.5112762451172
y: 195.31582641601562
z: -0.2389291524887085
visibility: 0.9999050498008728
","x: 203.1335906982422
y: 201.982177734375
z: -0.12280027568340302
visibility: 0.9997413754463196
","x: 191.793701171875
y: 200.3331756591797
z: -0.12798629701137543
visibility: 0.9998970627784729
","x: 199.63192749023438
y: 210.67543029785156
z: -0.20860683917999268
visibility: 0.999966561794281
","x: 195.730224609375
y: 209.61692810058594
z: -0.213213250041008
visibility: 0.9999799132347107
","x: 218.64100646972656
y: 251.41900634765625
z: -0.05770791694521904
visibility: 0.9999439716339111
","x: 174.10879516601562
y: 243.65606689453125
z: -0.04899517074227333
visibility: 0.99997478723526
","x: 231.64817810058594
y: 309.7652282714844
z: -0.1222238540649414
visibility: 0.9429388642311096
","x: 162.97637939453125
y: 303.4854736328125
z: -0.03664553165435791
visibility: 0.9979250431060791
","x: 226.680908203125
y: 310.47625732421875
z: -0.35729509592056274
visibility: 0.9605015516281128
","x: 169.7759552001953
y: 347.2889404296875
z: -0.16685187816619873
visibility: 0.9964722990989685
","x: 224.72781372070312
y: 313.4808349609375
z: -0.40940219163894653
visibility: 0.9275733232498169
","x: 168.80235290527344
y: 363.1324462890625
z: -0.20573373138904572
visibility: 0.9912775158882141
","x: 222.8174285888672
y: 304.5138244628906
z: -0.42694205045700073
visibility: 0.931087076663971
","x: 172.93203735351562
y: 360.89849853515625
z: -0.22987055778503418
visibility: 0.990832507610321
","x: 222.80191040039062
y: 303.3587951660156
z: -0.3699769377708435
visibility: 0.9179633259773254
","x: 173.81674194335938
y: 354.80352783203125
z: -0.17891356348991394
visibility: 0.9845098257064819
","x: 208.10879516601562
y: 370.63604736328125
z: -0.0026307101361453533
visibility: 0.9998295903205872
","x: 181.81431579589844
y: 368.97509765625
z: 0.002589799929410219
visibility: 0.9998273253440857
","x: 216.0915985107422
y: 459.013427734375
z: -0.031579189002513885
visibility: 0.9799219369888306
","x: 180.4100341796875
y: 458.6398620605469
z: -0.00405630050227046
visibility: 0.9897820353507996
","x: 230.52757263183594
y: 543.6652221679688
z: 0.14322343468666077
visibility: 0.9821361303329468
","x: 181.43557739257812
y: 540.6986083984375
z: 0.18094299733638763
visibility: 0.9890081286430359
","x: 231.7159423828125
y: 553.4632568359375
z: 0.15342241525650024
visibility: 0.9402666091918945
","x: 183.63941955566406
y: 552.4065551757812
z: 0.1919519156217575
visibility: 0.897487461566925
","x: 227.7386016845703
y: 568.2490234375
z: 0.0027726530097424984
visibility: 0.983468770980835
","x: 180.98678588867188
y: 567.800537109375
z: 0.05454881861805916
visibility: 0.9859803915023804
",,,,,,,,,,,,,,,,,,,,,,,,,,,,,,,,,,,,,,,,,,
3,"x: 210.2524871826172
y: 203.7229766845703
z: -0.25768163800239563
visibility: 0.9999570846557617
","x: 211.6515350341797
y: 197.4871063232422
z: -0.24061444401741028
visibility: 0.9998758435249329
","x: 212.9076690673828
y: 197.85398864746094
z: -0.24065832793712616
visibility: 0.9998671412467957
","x: 214.2432403564453
y: 198.2656707763672
z: -0.24066023528575897
visibility: 0.9998469948768616
","x: 208.2017059326172
y: 197.17149353027344
z: -0.23986759781837463
visibility: 0.9998874664306641
","x: 206.90245056152344
y: 197.36013793945312
z: -0.2398756742477417
visibility: 0.9998916387557983
","x: 205.52059936523438
y: 197.64849853515625
z: -0.23993496596813202
visibility: 0.999896228313446
","x: 216.7748260498047
y: 203.495849609375
z: -0.13285042345523834
visibility: 0.9997249245643616
","x: 203.86253356933594
y: 203.13473510742188
z: -0.12547317147254944
visibility: 0.9998734593391418
","x: 212.57522583007812
y: 211.58143615722656
z: -0.21768733859062195
visibility: 0.9999656081199646
","x: 208.259765625
y: 211.32305908203125
z: -0.21511463820934296
visibility: 0.9999771118164062
","x: 232.75936889648438
y: 251.68710327148438
z: -0.07268368452787399
visibility: 0.9999459385871887
","x: 188.42694091796875
y: 248.44879150390625
z: -0.0414406880736351
visibility: 0.999972403049469
","x: 247.55581665039062
y: 308.9183349609375
z: -0.1463220864534378
visibility: 0.947822630405426
","x: 179.47091674804688
y: 314.7888488769531
z: 0.0025820413138717413
visibility: 0.9968276023864746
","x: 235.968505859375
y: 308.56695556640625
z: -0.37830397486686707
visibility: 0.9629952907562256
","x: 173.88751220703125
y: 367.5430908203125
z: -0.10119906812906265
visibility: 0.9946166276931763
","x: 232.30892944335938
y: 316.5320129394531
z: -0.43003731966018677
visibility: 0.9314489364624023
","x: 172.4581756591797
y: 384.21343994140625
z: -0.13419845700263977
visibility: 0.9874946475028992
","x: 228.6024169921875
y: 310.65093994140625
z: -0.4427836835384369
visibility: 0.9347139596939087
","x: 174.25279235839844
y: 384.556396484375
z: -0.16749361157417297
visibility: 0.9873613715171814
","x: 229.36985778808594
y: 307.95697021484375
z: -0.387907475233078
visibility: 0.9209198951721191
","x: 175.53945922851562
y: 379.7298889160156
z: -0.1164453849196434
visibility: 0.9804491400718689
","x: 221.8756866455078
y: 372.92919921875
z: -0.005974673666059971
visibility: 0.9997900128364563
","x: 195.72726440429688
y: 371.6988525390625
z: 0.005910530686378479
visibility: 0.9997998476028442
","x: 227.5498809814453
y: 459.1920471191406
z: -0.026921123266220093
visibility: 0.9815205335617065
","x: 188.6251678466797
y: 463.42840576171875
z: -0.003414363833144307
visibility: 0.9904020428657532
","x: 233.68809509277344
y: 542.8882446289062
z: 0.1575261801481247
visibility: 0.983303964138031
","x: 181.45150756835938
y: 543.6705322265625
z: 0.17030926048755646
visibility: 0.9893919825553894
","x: 233.73451232910156
y: 552.888916015625
z: 0.16740120947360992
visibility: 0.9276771545410156
","x: 182.74029541015625
y: 553.4066162109375
z: 0.179511159658432
visibility: 0.8910406827926636
","x: 231.17376708984375
y: 568.2190551757812
z: 0.018391694873571396
visibility: 0.9836909770965576
","x: 180.65211486816406
y: 568.3477172851562
z: 0.039475712925195694
visibility: 0.9859163761138916
",,,,,,,,,,,,,,,,,,,,,,,,,,,,,,,,,,,,,,,,,,
4,"x: 217.71954345703125
y: 203.26722717285156
z: -0.3038097620010376
visibility: 0.9999597668647766
","x: 219.33023071289062
y: 197.47317504882812
z: -0.2865108251571655
visibility: 0.9998821020126343
","x: 220.69236755371094
y: 197.83897399902344
z: -0.286479651927948
visibility: 0.9998746514320374
","x: 221.98159790039062
y: 198.25274658203125
z: -0.28640690445899963
visibility: 0.9998562335968018
","x: 215.567626953125
y: 197.103759765625
z: -0.28548356890678406
visibility: 0.999893069267273
","x: 214.1394805908203
y: 197.30039978027344
z: -0.28554192185401917
visibility: 0.9998977780342102
","x: 212.72010803222656
y: 197.59243774414062
z: -0.28559380769729614
visibility: 0.999902069568634
","x: 224.03317260742188
y: 203.82113647460938
z: -0.1767190396785736
visibility: 0.9997349381446838
","x: 211.24282836914062
y: 203.5820770263672
z: -0.17052629590034485
visibility: 0.9998728036880493
","x: 220.34950256347656
y: 211.57510375976562
z: -0.26313215494155884
visibility: 0.9999663829803467
","x: 215.3150177001953
y: 211.3604736328125
z: -0.2617942690849304
visibility: 0.9999768137931824
","x: 242.8929443359375
y: 256.6744689941406
z: -0.09915689378976822
visibility: 0.9999476671218872
","x: 196.8757781982422
y: 252.83877563476562
z: -0.07488422095775604
visibility: 0.999971330165863
","x: 249.1879425048828
y: 317.5412902832031
z: -0.054765380918979645
visibility: 0.9520472288131714
","x: 189.6758575439453
y: 318.93817138671875
z: -0.04489460587501526
visibility: 0.9954776763916016
","x: 245.2110137939453
y: 361.92095947265625
z: -0.23309297859668732
visibility: 0.9649261832237244
","x: 184.43748474121094
y: 373.16522216796875
z: -0.1386597752571106
visibility: 0.9915104508399963
","x: 244.3087615966797
y: 377.6116638183594
z: -0.2839755117893219
visibility: 0.9344227910041809
","x: 174.2407989501953
y: 390.7458801269531
z: -0.1717585027217865
visibility: 0.9815779328346252
","x: 240.98782348632812
y: 375.41943359375
z: -0.26733362674713135
visibility: 0.9376289248466492
","x: 175.6591033935547
y: 391.06756591796875
z: -0.20580920577049255
visibility: 0.9818920493125916
","x: 240.5564727783203
y: 370.60980224609375
z: -0.237009197473526
visibility: 0.923809826374054
","x: 181.24795532226562
y: 385.6939697265625
z: -0.15410862863063812
visibility: 0.9742370843887329
","x: 232.14813232421875
y: 376.20855712890625
z: 0.001528819091618061
visibility: 0.9997772574424744
","x: 205.80325317382812
y: 374.3127136230469
z: -0.0016491941642016172
visibility: 0.9998030662536621
","x: 233.21876525878906
y: 461.0110168457031
z: 0.036055468022823334
visibility: 0.9830286502838135
","x: 198.15399169921875
y: 463.5460205078125
z: -0.00823079515248537
visibility: 0.991117000579834
","x: 234.9342498779297
y: 542.6294555664062
z: 0.2219422310590744
visibility: 0.9846404790878296
","x: 182.84376525878906
y: 543.6632690429688
z: 0.14234133064746857
visibility: 0.990050733089447
","x: 234.6531982421875
y: 553.0955200195312
z: 0.2312801629304886
visibility: 0.9214770793914795
","x: 183.27365112304688
y: 553.3412475585938
z: 0.14917130768299103
visibility: 0.8877755999565125
","x: 232.08987426757812
y: 568.1690673828125
z: 0.08350320905447006
visibility: 0.9845626354217529
","x: 180.96487426757812
y: 568.3516235351562
z: 0.0032200831919908524
visibility: 0.9865854978561401
",,,,,,,,,,,,,,,,,,,,,,,,,,,,,,,,,,,,,,,,,,
5,"x: 226.05130004882812
y: 206.41441345214844
z: -0.2833019495010376
visibility: 0.9999628067016602
","x: 228.68124389648438
y: 199.6392822265625
z: -0.26488950848579407
visibility: 0.9998890161514282
","x: 230.20765686035156
y: 199.942626953125
z: -0.2648821771144867
visibility: 0.9998822808265686
","x: 231.64492797851562
y: 200.30770874023438
z: -0.26484233140945435
visibility: 0.9998654127120972
","x: 223.7541046142578
y: 199.22532653808594
z: -0.2714943289756775
visibility: 0.9998987317085266
","x: 222.0216064453125
y: 199.28956604003906
z: -0.27160751819610596
visibility: 0.9999027252197266
","x: 220.46707153320312
y: 199.38055419921875
z: -0.27176427841186523
visibility: 0.9999063014984131
","x: 233.69105529785156
y: 205.7849884033203
z: -0.1565595269203186
visibility: 0.999750554561615
","x: 219.16529846191406
y: 204.1593017578125
z: -0.16369052231311798
visibility: 0.9998707175254822
","x: 228.83969116210938
y: 214.82305908203125
z: -0.23930954933166504
visibility: 0.9999675154685974
","x: 222.71029663085938
y: 214.77969360351562
z: -0.24489851295948029
visibility: 0.9999762773513794
","x: 249.1335906982422
y: 257.2060546875
z: -0.09098456054925919
visibility: 0.9999495148658752
","x: 204.02590942382812
y: 253.4345245361328
z: -0.06527285277843475
visibility: 0.9999692440032959
","x: 254.4636688232422
y: 322.73687744140625
z: -0.041881363838911057
visibility: 0.9560214877128601
","x: 195.58740234375
y: 316.975341796875
z: -0.018021361902356148
visibility: 0.9926895499229431
","x: 260.8033142089844
y: 379.0140380859375
z: -0.1716950237751007
visibility: 0.9671797752380371
","x: 190.11026000976562
y: 361.75958251953125
z: -0.11269714683294296
visibility: 0.990310788154602
","x: 264.0439758300781
y: 393.6965637207031
z: -0.19466210901737213
visibility: 0.9383885860443115
","x: 182.6063690185547
y: 377.5384521484375
z: -0.14154498279094696
visibility: 0.9796267747879028
","x: 262.2847900390625
y: 394.2153625488281
z: -0.24138447642326355
visibility: 0.9414772391319275
","x: 183.0835418701172
y: 376.4374084472656
z: -0.17980122566223145
visibility: 0.980252742767334
","x: 260.1301574707031
y: 389.0401916503906
z: -0.19356098771095276
visibility: 0.9285185933113098
","x: 188.3197021484375
y: 370.6776123046875
z: -0.13047070801258087
visibility: 0.9727451801300049
","x: 236.00294494628906
y: 376.8587646484375
z: -0.01644669659435749
visibility: 0.9997678995132446
","x: 210.9452362060547
y: 374.9581604003906
z: 0.0163506418466568
visibility: 0.9997965693473816
","x: 234.63626098632812
y: 462.072021484375
z: 0.013697860762476921
visibility: 0.9842775464057922
","x: 206.1011962890625
y: 463.20452880859375
z: 0.03856901079416275
visibility: 0.9914699196815491
","x: 234.29835510253906
y: 542.5562133789062
z: 0.21484681963920593
visibility: 0.9856396317481995
","x: 204.5250701904297
y: 539.560546875
z: 0.1798604279756546
visibility: 0.9905707836151123
","x: 233.2972869873047
y: 553.2646484375
z: 0.2050718367099762
visibility: 0.9159706830978394
","x: 209.07803344726562
y: 549.3764038085938
z: 0.18557897210121155
visibility: 0.8939867615699768
","x: 232.379150390625
y: 568.02978515625
z: 0.04021063074469566
visibility: 0.9851363301277161
","x: 189.406494140625
y: 563.621337890625
z: 0.07323399931192398
visibility: 0.9872902631759644
",,,,,,,,,,,,,,,,,,,,,,,,,,,,,,,,,,,,,,,,,,
6,"x: 228.32882690429688
y: 209.6707763671875
z: -0.31498202681541443
visibility: 0.9999663233757019
","x: 231.40975952148438
y: 201.87721252441406
z: -0.2977200150489807
visibility: 0.9998995661735535
","x: 232.98709106445312
y: 202.36314392089844
z: -0.2977445721626282
visibility: 0.9998934864997864
","x: 234.5129852294922
y: 202.87705993652344
z: -0.29775628447532654
visibility: 0.9998783469200134
","x: 226.89381408691406
y: 200.8564910888672
z: -0.2950523793697357
visibility: 0.9999080896377563
","x: 225.41302490234375
y: 200.6464385986328
z: -0.295099675655365
visibility: 0.9999116063117981
","x: 224.0207977294922
y: 200.51145935058594
z: -0.29509422183036804
visibility: 0.9999146461486816
","x: 237.2485809326172
y: 207.65866088867188
z: -0.1838580071926117
visibility: 0.9997746348381042
","x: 222.42430114746094
y: 204.7639617919922
z: -0.17053702473640442
visibility: 0.9998809695243835
","x: 230.83935546875
y: 217.83258056640625
z: -0.27115973830223083
visibility: 0.999970555305481
","x: 225.69451904296875
y: 217.4764404296875
z: -0.26773059368133545
visibility: 0.9999781250953674
","x: 250.15943908691406
y: 256.8388977050781
z: -0.12420821189880371
visibility: 0.9999542236328125
","x: 206.2590789794922
y: 253.97860717773438
z: -0.07501574605703354
visibility: 0.9999650120735168
","x: 261.5407409667969
y: 321.3211669921875
z: -0.1105661615729332
visibility: 0.9601980447769165
","x: 197.7308807373047
y: 314.74871826171875
z: -0.08353511244058609
visibility: 0.9895659685134888
","x: 271.3952941894531
y: 372.32061767578125
z: -0.23119978606700897
visibility: 0.9699002504348755
","x: 192.61741638183594
y: 347.0869140625
z: -0.3149557113647461
visibility: 0.9888729453086853
","x: 274.4007263183594
y: 387.6409912109375
z: -0.2648750841617584
visibility: 0.9432917833328247
","x: 189.03053283691406
y: 365.26898193359375
z: -0.3618263006210327
visibility: 0.9779091477394104
","x: 272.5186767578125
y: 387.4612731933594
z: -0.29855430126190186
visibility: 0.9462004899978638
","x: 189.48472595214844
y: 361.2756652832031
z: -0.39261406660079956
visibility: 0.9788153171539307
","x: 270.9222106933594
y: 383.14312744140625
z: -0.24633169174194336
visibility: 0.9341747760772705
","x: 192.30247497558594
y: 354.1114501953125
z: -0.3336348533630371
visibility: 0.9710677862167358
","x: 237.19822692871094
y: 376.17431640625
z: -0.03519468754529953
visibility: 0.9997885227203369
","x: 214.13584899902344
y: 375.4053039550781
z: 0.03509414941072464
visibility: 0.9998019337654114
","x: 236.23194885253906
y: 461.0743713378906
z: -0.11841113865375519
visibility: 0.9853156805038452
","x: 213.6221923828125
y: 463.1451416015625
z: 0.06804906576871872
visibility: 0.9897197484970093
","x: 236.07846069335938
y: 540.6688842773438
z: 0.004946409724652767
visibility: 0.9866674542427063
","x: 231.33250427246094
y: 519.5435180664062
z: 0.35624152421951294
visibility: 0.9859961867332458
","x: 237.9796600341797
y: 553.322998046875
z: 0.00804577674716711
visibility: 0.9141378402709961
","x: 236.75021362304688
y: 524.7623901367188
z: 0.38076144456863403
visibility: 0.8920297026634216
","x: 231.03302001953125
y: 567.59375
z: -0.13275326788425446
visibility: 0.9860298037528992
","x: 223.68882751464844
y: 549.8682861328125
z: 0.3067242503166199
visibility: 0.9845930337905884
",,,,,,,,,,,,,,,,,,,,,,,,,,,,,,,,,,,,,,,,,,
7,"x: 230.9109649658203
y: 213.28062438964844
z: -0.32263290882110596
visibility: 0.999969482421875
","x: 233.73171997070312
y: 205.43978881835938
z: -0.30526965856552124
visibility: 0.999908983707428
","x: 235.19174194335938
y: 205.75
z: -0.305297315120697
visibility: 0.9999035000801086
","x: 236.69520568847656
y: 206.13076782226562
z: -0.30532774329185486
visibility: 0.9998898506164551
","x: 229.62579345703125
y: 204.54873657226562
z: -0.3047131896018982
visibility: 0.9999166131019592
","x: 228.2295684814453
y: 204.190673828125
z: -0.30476289987564087
visibility: 0.9999196529388428
","x: 226.74807739257812
y: 203.88140869140625
z: -0.3047463893890381
visibility: 0.9999222755432129
","x: 238.7786407470703
y: 210.40292358398438
z: -0.1874537169933319
visibility: 0.9997962117195129
","x: 224.40399169921875
y: 207.53028869628906
z: -0.18475449085235596
visibility: 0.9998911619186401
","x: 233.07337951660156
y: 221.62680053710938
z: -0.2768872380256653
visibility: 0.9999732375144958
","x: 228.2230224609375
y: 220.81478881835938
z: -0.27653127908706665
visibility: 0.9999797940254211
","x: 249.85693359375
y: 257.0740966796875
z: -0.11593930423259735
visibility: 0.9999583959579468
","x: 208.32386779785156
y: 255.06094360351562
z: -0.0765339583158493
visibility: 0.9999639987945557
","x: 261.75274658203125
y: 320.5842590332031
z: -0.08857034891843796
visibility: 0.9637444019317627
","x: 200.65260314941406
y: 313.1537780761719
z: -0.12680861353874207
visibility: 0.9873241186141968
","x: 275.30828857421875
y: 369.5506286621094
z: -0.20372804999351501
visibility: 0.9717581272125244
","x: 195.6995391845703
y: 342.2090148925781
z: -0.35339948534965515
visibility: 0.9883869886398315
","x: 279.99371337890625
y: 384.414794921875
z: -0.2331448793411255
visibility: 0.9467211961746216
","x: 192.37033081054688
y: 363.6446533203125
z: -0.3991163372993469
visibility: 0.9775893092155457
","x: 279.046875
y: 384.66290283203125
z: -0.2668877840042114
visibility: 0.9495925903320312
","x: 193.435546875
y: 357.182373046875
z: -0.4268036484718323
visibility: 0.9786714315414429
","x: 277.1252746582031
y: 380.8729248046875
z: -0.21916404366493225
visibility: 0.9383471608161926
","x: 195.8832550048828
y: 348.91522216796875
z: -0.3699694871902466
visibility: 0.9709047079086304
","x: 237.8533477783203
y: 375.8929748535156
z: -0.03430832177400589
visibility: 0.999807596206665
","x: 216.397216796875
y: 375.8314208984375
z: 0.03423052281141281
visibility: 0.9998105764389038
","x: 235.60340881347656
y: 459.2611083984375
z: -0.16534049808979034
visibility: 0.9862082004547119
","x: 216.93844604492188
y: 464.07550048828125
z: 0.06963565945625305
visibility: 0.986381471157074
","x: 237.58399963378906
y: 537.5994873046875
z: -0.07710476219654083
visibility: 0.9875608086585999
","x: 237.79757690429688
y: 516.8298950195312
z: 0.3412817418575287
visibility: 0.9808363318443298
","x: 239.6834259033203
y: 551.7284545898438
z: -0.07620947062969208
visibility: 0.9129633903503418
","x: 244.6342315673828
y: 524.3568115234375
z: 0.3640803396701813
visibility: 0.8909918665885925
","x: 230.0152130126953
y: 566.80908203125
z: -0.2141382247209549
visibility: 0.9867451190948486
","x: 232.70388793945312
y: 545.1420288085938
z: 0.2899119257926941
visibility: 0.9814872145652771
",,,,,,,,,,,,,,,,,,,,,,,,,,,,,,,,,,,,,,,,,,
8,"x: 232.01390075683594
y: 214.71121215820312
z: -0.3047337234020233
visibility: 0.9999719858169556
","x: 234.8032684326172
y: 206.98345947265625
z: -0.28731802105903625
visibility: 0.9999163150787354
","x: 236.1221923828125
y: 207.29153442382812
z: -0.2873406410217285
visibility: 0.999911367893219
","x: 237.56329345703125
y: 207.60650634765625
z: -0.28734877705574036
visibility: 0.9998990297317505
","x: 230.64144897460938
y: 206.08987426757812
z: -0.2877506911754608
visibility: 0.9999229907989502
","x: 229.0888214111328
y: 205.67974853515625
z: -0.2877897620201111
visibility: 0.9999254941940308
","x: 227.60708618164062
y: 205.4074249267578
z: -0.2877989411354065
visibility: 0.9999277591705322
","x: 239.95431518554688
y: 211.63255310058594
z: -0.1732432246208191
visibility: 0.9998135566711426
","x: 225.08380126953125
y: 209.12249755859375
z: -0.1758522093296051
visibility: 0.9998968839645386
","x: 234.37518310546875
y: 223.2460174560547
z: -0.26060742139816284
visibility: 0.9999754428863525
","x: 229.311767578125
y: 222.26876831054688
z: -0.2610075771808624
visibility: 0.9999809265136719
","x: 252.667724609375
y: 259.4814453125
z: -0.10815222561359406
visibility: 0.9999622106552124
","x: 209.1580810546875
y: 256.41064453125
z: -0.07146582007408142
visibility: 0.9999626874923706
","x: 264.60455322265625
y: 318.15545654296875
z: -0.09013745933771133
visibility: 0.9669949412345886
","x: 199.89907836914062
y: 312.4569091796875
z: -0.055013131350278854
visibility: 0.9863178730010986
","x: 269.37628173828125
y: 368.82525634765625
z: -0.231301948428154
visibility: 0.9735782742500305
","x: 194.80194091796875
y: 348.8210754394531
z: -0.20415842533111572
visibility: 0.9877305626869202
","x: 270.23553466796875
y: 383.6956481933594
z: -0.26873138546943665
visibility: 0.9500243663787842
","x: 192.33045959472656
y: 363.9150695800781
z: -0.24272151291370392
visibility: 0.9764584898948669
","x: 267.4273986816406
y: 381.9151611328125
z: -0.30093488097190857
visibility: 0.9527320265769958
","x: 193.83380126953125
y: 360.83673095703125
z: -0.2786630392074585
visibility: 0.9776870608329773
","x: 266.538330078125
y: 377.04705810546875
z: -0.24662497639656067
visibility: 0.9420143365859985
","x: 195.64805603027344
y: 355.37786865234375
z: -0.22215159237384796
visibility: 0.9699950218200684
","x: 238.61581420898438
y: 376.35882568359375
z: -0.03472195193171501
visibility: 0.9998232126235962
","x: 215.4168701171875
y: 376.6783447265625
z: 0.03467486798763275
visibility: 0.9998117685317993
","x: 235.08885192871094
y: 460.0709533691406
z: -0.13334789872169495
visibility: 0.9870752692222595
","x: 214.6629638671875
y: 465.17449951171875
z: 0.07370131462812424
visibility: 0.9848511815071106
","x: 236.10325622558594
y: 537.027099609375
z: -0.02005397155880928
visibility: 0.9881144762039185
","x: 231.96240234375
y: 516.3289794921875
z: 0.3701762557029724
visibility: 0.9742039442062378
","x: 238.4342498779297
y: 550.7420654296875
z: -0.017232712358236313
visibility: 0.9018813371658325
","x: 236.65122985839844
y: 521.8343505859375
z: 0.39501622319221497
visibility: 0.8830118775367737
","x: 229.19984436035156
y: 565.9959716796875
z: -0.15843145549297333
visibility: 0.986962616443634
","x: 223.7390899658203
y: 546.6702880859375
z: 0.3206520080566406
visibility: 0.9775040745735168
",,,,,,,,,,,,,,,,,,,,,,,,,,,,,,,,,,,,,,,,,,
9,"x: 231.09280395507812
y: 213.62405395507812
z: -0.2417764961719513
visibility: 0.9999746680259705
","x: 234.16732788085938
y: 206.0183563232422
z: -0.22478914260864258
visibility: 0.9999240636825562
","x: 235.57484436035156
y: 206.35464477539062
z: -0.2248242348432541
visibility: 0.999919593334198
","x: 236.97947692871094
y: 206.72117614746094
z: -0.2248190939426422
visibility: 0.9999085068702698
","x: 229.81204223632812
y: 205.06985473632812
z: -0.22364041209220886
visibility: 0.9999299645423889
","x: 228.20594787597656
y: 204.68345642089844
z: -0.2236337661743164
visibility: 0.9999321103096008
","x: 226.60107421875
y: 204.4111785888672
z: -0.22361283004283905
visibility: 0.9999340176582336
","x: 239.09237670898438
y: 210.89382934570312
z: -0.11902862787246704
visibility: 0.9998312592506409
","x: 224.09866333007812
y: 208.22915649414062
z: -0.11290224641561508
visibility: 0.9999051690101624
","x: 233.52020263671875
y: 221.98947143554688
z: -0.2014799863100052
visibility: 0.999977707862854
","x: 227.82431030273438
y: 221.13595581054688
z: -0.19979052245616913
visibility: 0.999982476234436
","x: 251.9486083984375
y: 258.99609375
z: -0.07862970978021622
visibility: 0.9999658465385437
","x: 208.74696350097656
y: 255.29513549804688
z: -0.024090271443128586
visibility: 0.9999634027481079
","x: 263.854736328125
y: 314.4192810058594
z: -0.07002140581607819
visibility: 0.9700213074684143
","x: 199.5306854248047
y: 312.33038330078125
z: -0.010677055455744267
visibility: 0.9832521677017212
","x: 272.61151123046875
y: 360.8660888671875
z: -0.22016318142414093
visibility: 0.9758102297782898
","x: 192.95297241210938
y: 349.8136901855469
z: -0.15596307814121246
visibility: 0.9867527484893799
","x: 276.1259765625
y: 376.062255859375
z: -0.2581833004951477
visibility: 0.9541590213775635
","x: 189.10546875
y: 362.4591369628906
z: -0.19286519289016724
visibility: 0.9750720858573914
","x: 273.3531494140625
y: 374.60833740234375
z: -0.2927360236644745
visibility: 0.9566624164581299
","x: 190.65591430664062
y: 359.5486755371094
z: -0.22919051349163055
visibility: 0.9764819741249084
","x: 271.43438720703125
y: 369.0461730957031
z: -0.23691979050636292
visibility: 0.9467110633850098
","x: 194.07252502441406
y: 354.8825378417969
z: -0.17477209866046906
visibility: 0.9689050912857056
","x: 238.198974609375
y: 376.0528564453125
z: -0.02989848516881466
visibility: 0.9998375177383423
","x: 214.9133758544922
y: 376.41217041015625
z: 0.029874350875616074
visibility: 0.9998201727867126
","x: 236.0686492919922
y: 459.5447082519531
z: -0.10842110216617584
visibility: 0.9881340861320496
","x: 210.6348876953125
y: 462.81317138671875
z: 0.07490451633930206
visibility: 0.9853515625
","x: 236.13914489746094
y: 538.1654663085938
z: -0.017545398324728012
visibility: 0.9890091419219971
","x: 223.07382202148438
y: 520.271484375
z: 0.3015434741973877
visibility: 0.9756820201873779
","x: 237.78713989257812
y: 553.289306640625
z: -0.018193485215306282
visibility: 0.900059700012207
","x: 228.2286376953125
y: 527.4403686523438
z: 0.31682631373405457
visibility: 0.8876742124557495
","x: 229.26101684570312
y: 566.052001953125
z: -0.16639558970928192
visibility: 0.9878008365631104
","x: 213.95606994628906
y: 549.1737060546875
z: 0.21989092230796814
visibility: 0.9788215160369873
",,,,,,,,,,,,,,,,,,,,,,,,,,,,,,,,,,,,,,,,,,
10,"x: 230.09373474121094
y: 213.4962615966797
z: -0.30083543062210083
visibility: 0.9999769330024719
","x: 233.1991424560547
y: 205.85943603515625
z: -0.2867286801338196
visibility: 0.9999303221702576
","x: 234.49859619140625
y: 206.2361297607422
z: -0.28676143288612366
visibility: 0.9999263882637024
","x: 235.7297821044922
y: 206.56385803222656
z: -0.28675907850265503
visibility: 0.9999163150787354
","x: 228.53860473632812
y: 204.47731018066406
z: -0.28627341985702515
visibility: 0.999935507774353
","x: 226.87051391601562
y: 203.9090118408203
z: -0.2862643003463745
visibility: 0.9999373555183411
","x: 225.29342651367188
y: 203.42919921875
z: -0.28623685240745544
visibility: 0.9999387860298157
","x: 237.5926513671875
y: 210.04293823242188
z: -0.1801786720752716
visibility: 0.9998461604118347
","x: 222.79147338867188
y: 205.6116485595703
z: -0.17789223790168762
visibility: 0.9999105930328369
","x: 232.532958984375
y: 221.90274047851562
z: -0.2590087056159973
visibility: 0.9999793767929077
","x: 226.38381958007812
y: 221.02029418945312
z: -0.25840502977371216
visibility: 0.9999833703041077
","x: 250.6184844970703
y: 256.2662048339844
z: -0.10758676379919052
visibility: 0.9999685287475586
","x: 206.74041748046875
y: 254.1988525390625
z: -0.062379032373428345
visibility: 0.9999637603759766
","x: 262.81890869140625
y: 313.81036376953125
z: -0.06591224670410156
visibility: 0.9728045463562012
","x: 195.91148376464844
y: 312.0040283203125
z: -0.026544472202658653
visibility: 0.9819228649139404
","x: 273.4501647949219
y: 362.6951904296875
z: -0.2008752077817917
visibility: 0.9777329564094543
","x: 186.900146484375
y: 357.280517578125
z: -0.1309889554977417
visibility: 0.9857937693595886
","x: 276.2355041503906
y: 377.9277038574219
z: -0.22607851028442383
visibility: 0.95740807056427
","x: 181.78880310058594
y: 371.51959228515625
z: -0.15923744440078735
visibility: 0.9732632040977478
","x: 273.44677734375
y: 377.0498046875
z: -0.2910507619380951
visibility: 0.959813117980957
","x: 182.4885711669922
y: 370.359619140625
z: -0.20199906826019287
visibility: 0.9750418663024902
","x: 271.98040771484375
y: 372.1485900878906
z: -0.22769971191883087
visibility: 0.9505713582038879
","x: 185.103271484375
y: 365.8019714355469
z: -0.15069003403186798
visibility: 0.9675292372703552
","x: 236.73944091796875
y: 375.7450866699219
z: -0.022947536781430244
visibility: 0.9998273253440857
","x: 211.99386596679688
y: 374.1849365234375
z: 0.022918032482266426
visibility: 0.9998075366020203
","x: 235.95660400390625
y: 459.5544128417969
z: -0.028850743547081947
visibility: 0.9889506101608276
","x: 207.46548461914062
y: 460.532958984375
z: 0.026678968220949173
visibility: 0.9863837957382202
","x: 235.73574829101562
y: 539.45703125
z: 0.08216162770986557
visibility: 0.9896902441978455
","x: 204.566650390625
y: 535.0647583007812
z: 0.14396892488002777
visibility: 0.9777072072029114
","x: 235.63485717773438
y: 553.3593139648438
z: 0.08314565569162369
visibility: 0.8996425867080688
","x: 208.5404510498047
y: 545.4560546875
z: 0.1466764509677887
visibility: 0.8930950164794922
","x: 230.58697509765625
y: 566.0762329101562
z: -0.0527653694152832
visibility: 0.9882277250289917
","x: 189.79051208496094
y: 559.4158325195312
z: 0.02311142161488533
visibility: 0.9802843332290649
",,,,,,,,,,,,,,,,,,,,,,,,,,,,,,,,,,,,,,,,,,
11,"x: 226.97076416015625
y: 213.7405548095703
z: -0.30208712816238403
visibility: 0.9999789595603943
","x: 229.93878173828125
y: 205.92156982421875
z: -0.29127609729766846
visibility: 0.9999361634254456
","x: 231.33782958984375
y: 206.1624755859375
z: -0.2913104295730591
visibility: 0.999932587146759
","x: 232.7109832763672
y: 206.40219116210938
z: -0.29132598638534546
visibility: 0.999923586845398
","x: 225.44029235839844
y: 204.68267822265625
z: -0.28818413615226746
visibility: 0.9999406933784485
","x: 223.85281372070312
y: 204.0574493408203
z: -0.2881729006767273
visibility: 0.9999420642852783
","x: 222.3789825439453
y: 203.48550415039062
z: -0.2881489396095276
visibility: 0.999943196773529
","x: 234.7239990234375
y: 209.75526428222656
z: -0.18732956051826477
visibility: 0.9998599290847778
","x: 220.27279663085938
y: 205.5426788330078
z: -0.17347712814807892
visibility: 0.9999157190322876
","x: 229.30690002441406
y: 221.20262145996094
z: -0.25969845056533813
visibility: 0.9999809861183167
","x: 223.531005859375
y: 220.38461303710938
z: -0.25611016154289246
visibility: 0.9999843239784241
","x: 249.3536834716797
y: 254.1261444091797
z: -0.10290634632110596
visibility: 0.9999711513519287
","x: 204.10321044921875
y: 249.8310546875
z: -0.0630435198545456
visibility: 0.9999650716781616
","x: 262.4560241699219
y: 308.0091552734375
z: -0.059931766241788864
visibility: 0.9753630757331848
","x: 195.21678161621094
y: 307.4554138183594
z: 0.0028172885067760944
visibility: 0.9809658527374268
","x: 269.7210388183594
y: 362.4344482421875
z: -0.15387213230133057
visibility: 0.9794937372207642
","x: 176.38340759277344
y: 355.232666015625
z: -0.10016514360904694
visibility: 0.9844615459442139
","x: 270.78558349609375
y: 377.5325927734375
z: -0.17977198958396912
visibility: 0.9602970480918884
","x: 171.20155334472656
y: 368.7757568359375
z: -0.12716186046600342
visibility: 0.970730185508728
","x: 268.0257873535156
y: 376.5780029296875
z: -0.2224525511264801
visibility: 0.9626122713088989
","x: 173.492919921875
y: 367.4313049316406
z: -0.1703050583600998
visibility: 0.9729495048522949
","x: 267.085693359375
y: 371.79010009765625
z: -0.171540766954422
visibility: 0.9538943767547607
","x: 175.4864044189453
y: 363.1493835449219
z: -0.11992572247982025
visibility: 0.9654116034507751
","x: 234.1314697265625
y: 375.13616943359375
z: -0.019832516089081764
visibility: 0.9998176097869873
","x: 209.5703125
y: 371.7972412109375
z: 0.019775576889514923
visibility: 0.9997944831848145
","x: 234.06275939941406
y: 458.95562744140625
z: -0.03194817155599594
visibility: 0.989590048789978
","x: 207.12657165527344
y: 459.5913391113281
z: -0.0033242888748645782
visibility: 0.9873801469802856
","x: 235.28599548339844
y: 540.1279296875
z: 0.08140166848897934
visibility: 0.9903197884559631
","x: 199.008056640625
y: 540.0172729492188
z: 0.09659185260534286
visibility: 0.9795355796813965
","x: 234.31378173828125
y: 554.1856079101562
z: 0.07353857159614563
visibility: 0.9021583199501038
","x: 203.29632568359375
y: 551.5943603515625
z: 0.09776264429092407
visibility: 0.898296594619751
","x: 231.45095825195312
y: 565.8006591796875
z: -0.054372042417526245
visibility: 0.9886166453361511
","x: 186.1116485595703
y: 566.05517578125
z: -0.02680123783648014
visibility: 0.9815444350242615
",,,,,,,,,,,,,,,,,,,,,,,,,,,,,,,,,,,,,,,,,,
12,"x: 225.90916442871094
y: 213.94287109375
z: -0.3526996970176697
visibility: 0.9999808073043823
","x: 229.0260009765625
y: 206.28448486328125
z: -0.3410183787345886
visibility: 0.9999414086341858
","x: 230.85797119140625
y: 206.530517578125
z: -0.3410394489765167
visibility: 0.9999382495880127
","x: 232.4921875
y: 206.7657470703125
z: -0.3410647511482239
visibility: 0.9999300837516785
","x: 224.28277587890625
y: 204.80081176757812
z: -0.3397836685180664
visibility: 0.999945342540741
","x: 222.7470703125
y: 204.02294921875
z: -0.3398040235042572
visibility: 0.9999465942382812
","x: 221.09329223632812
y: 203.3191680908203
z: -0.3397901654243469
visibility: 0.9999474287033081
","x: 234.58987426757812
y: 209.57237243652344
z: -0.23471565544605255
visibility: 0.9998725652694702
","x: 218.86477661132812
y: 205.23348999023438
z: -0.22795836627483368
visibility: 0.9999213218688965
","x: 227.73196411132812
y: 220.92803955078125
z: -0.3095349669456482
visibility: 0.999982476234436
","x: 222.45188903808594
y: 220.04901123046875
z: -0.307800829410553
visibility: 0.9999852776527405
","x: 247.78443908691406
y: 254.08836364746094
z: -0.1453627645969391
visibility: 0.9999734163284302
","x: 200.72189331054688
y: 249.81689453125
z: -0.1175796389579773
visibility: 0.999966561794281
","x: 259.0474548339844
y: 310.48175048828125
z: -0.09333845973014832
visibility: 0.9776667952537537
","x: 184.5773162841797
y: 307.4625244140625
z: -0.01801510527729988
visibility: 0.981324315071106
","x: 270.7886962890625
y: 363.02801513671875
z: -0.19004806876182556
visibility: 0.9810882806777954
","x: 164.05682373046875
y: 351.75738525390625
z: -0.16651614010334015
visibility: 0.9849604368209839
","x: 274.781494140625
y: 377.8089599609375
z: -0.21482333540916443
visibility: 0.9629508852958679
","x: 158.1294403076172
y: 364.590087890625
z: -0.19804559648036957
visibility: 0.9713207483291626
","x: 273.0953369140625
y: 377.269775390625
z: -0.2576448917388916
visibility: 0.9652168154716492
","x: 158.5867156982422
y: 362.9203796386719
z: -0.23570680618286133
visibility: 0.9736589789390564
","x: 271.308349609375
y: 372.66961669921875
z: -0.20908625423908234
visibility: 0.9571906328201294
","x: 160.94976806640625
y: 358.4812927246094
z: -0.1842810958623886
visibility: 0.966579020023346
","x: 230.62301635742188
y: 375.0981140136719
z: -0.019321301952004433
visibility: 0.999801754951477
","x: 206.23019409179688
y: 370.69207763671875
z: 0.019232962280511856
visibility: 0.999779999256134
","x: 226.80963134765625
y: 460.48089599609375
z: -0.010690630413591862
visibility: 0.9902347326278687
","x: 201.13682556152344
y: 459.6519775390625
z: -0.00030298164347186685
visibility: 0.987944483757019
","x: 234.2929229736328
y: 540.3284912109375
z: 0.12141863256692886
visibility: 0.9908538460731506
","x: 197.17501831054688
y: 541.55419921875
z: 0.15091480314731598
visibility: 0.9809733629226685
","x: 234.39967346191406
y: 553.3917846679688
z: 0.12473633140325546
visibility: 0.8959129452705383
","x: 201.78347778320312
y: 552.7427978515625
z: 0.15620675683021545
visibility: 0.901131272315979
","x: 231.1177520751953
y: 566.509033203125
z: -0.010237351059913635
visibility: 0.9888905882835388
","x: 185.90151977539062
y: 568.4971923828125
z: 0.03434845432639122
visibility: 0.9824889898300171
",,,,,,,,,,,,,,,,,,,,,,,,,,,,,,,,,,,,,,,,,,
13,"x: 220.5194091796875
y: 216.5119171142578
z: -0.3340917229652405
visibility: 0.9999814033508301
","x: 223.23773193359375
y: 208.81494140625
z: -0.324815958738327
visibility: 0.9999409317970276
","x: 224.8531951904297
y: 209.078125
z: -0.3247378468513489
visibility: 0.9999384880065918
","x: 226.3054962158203
y: 209.29884338378906
z: -0.32473447918891907
visibility: 0.9999308586120605
","x: 219.0680389404297
y: 207.3501434326172
z: -0.3217417597770691
visibility: 0.999944269657135
","x: 217.62789916992188
y: 206.55233764648438
z: -0.32179707288742065
visibility: 0.9999445080757141
","x: 215.87440490722656
y: 205.788818359375
z: -0.32178187370300293
visibility: 0.9999454021453857
","x: 228.61532592773438
y: 211.6026153564453
z: -0.20101921260356903
visibility: 0.9998790621757507
","x: 213.11962890625
y: 207.3857421875
z: -0.19556382298469543
visibility: 0.9999106526374817
","x: 221.89846801757812
y: 223.63214111328125
z: -0.294731467962265
visibility: 0.9999818205833435
","x: 217.30618286132812
y: 222.75299072265625
z: -0.2808059751987457
visibility: 0.9999830722808838
","x: 243.08885192871094
y: 255.4693603515625
z: -0.13282650709152222
visibility: 0.9999749660491943
","x: 197.12890625
y: 251.34466552734375
z: -0.06796656548976898
visibility: 0.9999653100967407
","x: 258.66168212890625
y: 310.8465270996094
z: -0.11251409351825714
visibility: 0.979649007320404
","x: 178.02810668945312
y: 308.77581787109375
z: -0.005307421553879976
visibility: 0.9806082248687744
","x: 263.63958740234375
y: 362.3559265136719
z: -0.2271924465894699
visibility: 0.9820022583007812
","x: 158.23992919921875
y: 350.0851745605469
z: -0.11623908579349518
visibility: 0.9851921200752258
","x: 265.13446044921875
y: 376.3018798828125
z: -0.2589948773384094
visibility: 0.9642494916915894
","x: 150.56468200683594
y: 362.6832275390625
z: -0.14518113434314728
visibility: 0.9714429378509521
","x: 261.2130126953125
y: 375.7945556640625
z: -0.29257938265800476
visibility: 0.9665197134017944
","x: 150.1365966796875
y: 360.5623779296875
z: -0.18751473724842072
visibility: 0.9739538431167603
","x: 259.3929748535156
y: 371.33154296875
z: -0.2429095059633255
visibility: 0.9589519500732422
","x: 153.62171936035156
y: 356.2386474609375
z: -0.13685342669487
visibility: 0.9674224257469177
","x: 225.39089965820312
y: 376.46527099609375
z: -0.03530322015285492
visibility: 0.9997783303260803
","x: 201.2335662841797
y: 372.9703369140625
z: 0.035224828869104385
visibility: 0.9997655749320984
","x: 219.53961181640625
y: 461.7082214355469
z: -0.02376697212457657
visibility: 0.9906975030899048
","x: 196.49720764160156
y: 462.30450439453125
z: 0.039894428104162216
visibility: 0.9877198934555054
","x: 234.7684783935547
y: 540.3638916015625
z: 0.11696259677410126
visibility: 0.9911817908287048
","x: 196.75396728515625
y: 543.5513916015625
z: 0.1729402244091034
visibility: 0.9821376800537109
","x: 238.92384338378906
y: 551.8895874023438
z: 0.12308124452829361
visibility: 0.8862450122833252
","x: 202.02842712402344
y: 555.331298828125
z: 0.1793784350156784
visibility: 0.906010091304779
","x: 230.077880859375
y: 566.6466674804688
z: -0.0010075459722429514
visibility: 0.9890050292015076
","x: 184.4213104248047
y: 569.5664672851562
z: 0.0656900405883789
visibility: 0.9832362532615662
",,,,,,,,,,,,,,,,,,,,,,,,,,,,,,,,,,,,,,,,,,
14,"x: 217.9029541015625
y: 217.90879821777344
z: -0.3273950219154358
visibility: 0.9999817609786987
","x: 220.62423706054688
y: 210.1439666748047
z: -0.3062886893749237
visibility: 0.999940812587738
","x: 222.15097045898438
y: 210.2903594970703
z: -0.3062480092048645
visibility: 0.9999384880065918
","x: 223.58238220214844
y: 210.41343688964844
z: -0.3062359392642975
visibility: 0.999931812286377
","x: 216.49368286132812
y: 209.09918212890625
z: -0.3211837410926819
visibility: 0.9999439716339111
","x: 215.0763702392578
y: 208.4482421875
z: -0.321181982755661
visibility: 0.9999428391456604
","x: 213.432861328125
y: 207.81063842773438
z: -0.321085125207901
visibility: 0.9999439716339111
","x: 226.42138671875
y: 212.3455810546875
z: -0.19831086695194244
visibility: 0.9998858571052551
","x: 211.29867553710938
y: 209.06192016601562
z: -0.17495468258857727
visibility: 0.9999028444290161
","x: 219.81683349609375
y: 224.7053680419922
z: -0.2773057818412781
visibility: 0.9999822974205017
","x: 214.9687957763672
y: 224.03298950195312
z: -0.27058058977127075
visibility: 0.999982476234436
","x: 242.4955596923828
y: 256.978515625
z: -0.14816907048225403
visibility: 0.9999767541885376
","x: 195.69561767578125
y: 253.6660614013672
z: -0.0432477630674839
visibility: 0.9999639391899109
","x: 258.1260070800781
y: 311.04510498046875
z: -0.15971168875694275
visibility: 0.9816064834594727
","x: 176.79031372070312
y: 310.4429016113281
z: 0.019264349713921547
visibility: 0.9788085222244263
","x: 248.7614288330078
y: 355.295654296875
z: -0.29390761256217957
visibility: 0.983330488204956
","x: 158.58721923828125
y: 349.23541259765625
z: -0.10071965306997299
visibility: 0.9846861958503723
","x: 245.40899658203125
y: 368.2794494628906
z: -0.3344472050666809
visibility: 0.9663684368133545
","x: 151.17727661132812
y: 361.8270263671875
z: -0.1311553567647934
visibility: 0.9704656004905701
","x: 242.30633544921875
y: 363.5169982910156
z: -0.35407716035842896
visibility: 0.9684286713600159
","x: 151.3606719970703
y: 359.4118957519531
z: -0.17268411815166473
visibility: 0.9731935858726501
","x: 242.51695251464844
y: 359.221923828125
z: -0.30284738540649414
visibility: 0.9609788656234741
","x: 154.46170043945312
y: 355.3092956542969
z: -0.12101989984512329
visibility: 0.96705162525177
","x: 224.9480743408203
y: 380.2807312011719
z: -0.04895583167672157
visibility: 0.9997259378433228
","x: 201.436279296875
y: 377.22900390625
z: 0.04887063056230545
visibility: 0.9997459650039673
","x: 221.50186157226562
y: 464.8199462890625
z: -0.023245884105563164
visibility: 0.991334855556488
","x: 196.3843994140625
y: 464.98638916015625
z: 0.04766589403152466
visibility: 0.9879257082939148
","x: 237.12945556640625
y: 541.5287475585938
z: 0.13694250583648682
visibility: 0.9916642904281616
","x: 197.67771911621094
y: 545.3975830078125
z: 0.18652454018592834
visibility: 0.9833040833473206
","x: 243.84616088867188
y: 552.3595581054688
z: 0.1451793909072876
visibility: 0.8830959796905518
","x: 201.86705017089844
y: 557.3579711914062
z: 0.19115599989891052
visibility: 0.9117642045021057
","x: 228.31324768066406
y: 567.7990112304688
z: 0.02066558226943016
visibility: 0.9892770648002625
","x: 183.31259155273438
y: 570.3626708984375
z: 0.08948627859354019
visibility: 0.9839032292366028
",,,,,,,,,,,,,,,,,,,,,,,,,,,,,,,,,,,,,,,,,,
15,"x: 217.96719360351562
y: 218.19613647460938
z: -0.315329909324646
visibility: 0.9999817609786987
","x: 220.7267303466797
y: 210.39193725585938
z: -0.29841676354408264
visibility: 0.9999406337738037
","x: 222.3319549560547
y: 210.48104858398438
z: -0.2984195947647095
visibility: 0.9999387264251709
","x: 223.81919860839844
y: 210.58555603027344
z: -0.2984180748462677
visibility: 0.9999328851699829
","x: 216.44961547851562
y: 209.58535766601562
z: -0.30455660820007324
visibility: 0.9999431371688843
","x: 215.02967834472656
y: 209.05618286132812
z: -0.3045603036880493
visibility: 0.9999408721923828
","x: 213.49154663085938
y: 208.5763702392578
z: -0.3045010268688202
visibility: 0.9999417066574097
","x: 226.54483032226562
y: 212.4713897705078
z: -0.19620059430599213
visibility: 0.9998916983604431
","x: 211.53564453125
y: 209.9935302734375
z: -0.1746831238269806
visibility: 0.9998958110809326
","x: 220.1850128173828
y: 224.987548828125
z: -0.2694529891014099
visibility: 0.9999826550483704
","x: 215.10787963867188
y: 224.3975830078125
z: -0.26569750905036926
visibility: 0.9999815225601196
","x: 243.0055389404297
y: 256.9585266113281
z: -0.13971638679504395
visibility: 0.9999783635139465
","x: 195.79579162597656
y: 254.15200805664062
z: -0.0487128309905529
visibility: 0.9999621510505676
","x: 259.234619140625
y: 309.29052734375
z: -0.16665828227996826
visibility: 0.9833019375801086
","x: 178.7952880859375
y: 310.8778076171875
z: 0.014850053004920483
visibility: 0.9776294827461243
","x: 244.23666381835938
y: 339.4938659667969
z: -0.33022361993789673
visibility: 0.9846169948577881
","x: 161.38563537597656
y: 350.512451171875
z: -0.09837712347507477
visibility: 0.9840532541275024
","x: 240.57054138183594
y: 349.5869445800781
z: -0.3722829222679138
visibility: 0.9686458706855774
","x: 154.54148864746094
y: 364.81890869140625
z: -0.12708553671836853
visibility: 0.9691386818885803
","x: 237.49200439453125
y: 342.1229248046875
z: -0.39048922061920166
visibility: 0.9704983830451965
","x: 154.74783325195312
y: 362.6309509277344
z: -0.1686067283153534
visibility: 0.9720696210861206
","x: 238.05853271484375
y: 338.5207824707031
z: -0.33881181478500366
visibility: 0.9631247520446777
","x: 157.51856994628906
y: 356.9320068359375
z: -0.1181783452630043
visibility: 0.966208815574646
","x: 229.0196990966797
y: 379.539306640625
z: -0.039782870560884476
visibility: 0.99964439868927
","x: 204.55162048339844
y: 376.825927734375
z: 0.03972695395350456
visibility: 0.999700129032135
","x: 227.05393981933594
y: 465.1739807128906
z: -0.02964024618268013
visibility: 0.99196857213974
","x: 196.77088928222656
y: 465.92138671875
z: 0.03689148277044296
visibility: 0.9885120987892151
","x: 238.35769653320312
y: 542.8211669921875
z: 0.11197622120380402
visibility: 0.9921007752418518
","x: 197.66673278808594
y: 545.891845703125
z: 0.15947332978248596
visibility: 0.9845117330551147
","x: 243.679443359375
y: 553.1044921875
z: 0.11762195825576782
visibility: 0.87831711769104
","x: 201.17393493652344
y: 557.4296875
z: 0.1636214703321457
visibility: 0.9159038066864014
","x: 227.89759826660156
y: 567.9729614257812
z: -0.010317048989236355
visibility: 0.989473819732666
","x: 183.6830291748047
y: 570.0638427734375
z: 0.04730451852083206
visibility: 0.9846567511558533
",,,,,,,,,,,,,,,,,,,,,,,,,,,,,,,,,,,,,,,,,,
16,"x: 219.59628295898438
y: 218.67889404296875
z: -0.31202811002731323
visibility: 0.9999813437461853
","x: 222.62107849121094
y: 210.79110717773438
z: -0.29929319024086
visibility: 0.9999401569366455
","x: 224.2569580078125
y: 210.7237091064453
z: -0.2993184030056
visibility: 0.9999389052391052
","x: 225.83370971679688
y: 210.69515991210938
z: -0.29930293560028076
visibility: 0.9999334812164307
","x: 217.92877197265625
y: 210.56646728515625
z: -0.2982824146747589
visibility: 0.9999416470527649
","x: 216.48532104492188
y: 210.2617645263672
z: -0.29830044507980347
visibility: 0.999938428401947
","x: 215.1796875
y: 210.01858520507812
z: -0.2982991337776184
visibility: 0.9999384880065918
","x: 228.51856994628906
y: 213.24098205566406
z: -0.20185783505439758
visibility: 0.9998964071273804
","x: 214.14886474609375
y: 212.22792053222656
z: -0.17695091664791107
visibility: 0.9998871088027954
","x: 222.9488067626953
y: 225.8855438232422
z: -0.2708640694618225
visibility: 0.9999826550483704
","x: 216.76345825195312
y: 225.6385955810547
z: -0.26496821641921997
visibility: 0.9999799132347107
","x: 246.7111053466797
y: 257.496337890625
z: -0.14681173861026764
visibility: 0.9999794960021973
","x: 200.35003662109375
y: 258.20233154296875
z: -0.05627111718058586
visibility: 0.9999598860740662
","x: 260.2796936035156
y: 312.2395935058594
z: -0.17232194542884827
visibility: 0.9847184419631958
","x: 186.395751953125
y: 321.62017822265625
z: 0.007509840186685324
visibility: 0.9754394292831421
","x: 242.8267822265625
y: 339.8306884765625
z: -0.33096396923065186
visibility: 0.9855896234512329
","x: 164.49163818359375
y: 356.2420959472656
z: -0.10619183629751205
visibility: 0.9832190871238708
","x: 238.71322631835938
y: 349.76068115234375
z: -0.37178343534469604
visibility: 0.9703781008720398
","x: 159.92005920410156
y: 370.834228515625
z: -0.1349666267633438
visibility: 0.9678635597229004
","x: 235.76205444335938
y: 342.4478759765625
z: -0.39067763090133667
visibility: 0.9720313549041748
","x: 160.31654357910156
y: 368.47723388671875
z: -0.17634467780590057
visibility: 0.9709830284118652
","x: 236.4571075439453
y: 338.74053955078125
z: -0.3397945761680603
visibility: 0.9646238088607788
","x: 162.84536743164062
y: 363.38299560546875
z: -0.12592613697052002
visibility: 0.9653234481811523
","x: 236.0051727294922
y: 380.68218994140625
z: -0.035429030656814575
visibility: 0.9995905756950378
","x: 210.2564239501953
y: 378.99334716796875
z: 0.035385407507419586
visibility: 0.999665379524231
","x: 234.20535278320312
y: 465.9742431640625
z: -0.02874702215194702
visibility: 0.992555558681488
","x: 200.19932556152344
y: 466.76263427734375
z: 0.03697856515645981
visibility: 0.9891049861907959
","x: 239.39712524414062
y: 544.2962646484375
z: 0.10626457631587982
visibility: 0.992516815662384
","x: 198.05982971191406
y: 545.77978515625
z: 0.16190984845161438
visibility: 0.9855800271034241
","x: 243.43191528320312
y: 554.0325927734375
z: 0.11075745522975922
visibility: 0.875618040561676
","x: 201.24673461914062
y: 556.7867431640625
z: 0.16587913036346436
visibility: 0.9189949035644531
","x: 227.8920135498047
y: 568.6312255859375
z: -0.022543109953403473
visibility: 0.9896937012672424
","x: 183.95697021484375
y: 569.3098754882812
z: 0.04896027594804764
visibility: 0.9853547811508179
",,,,,,,,,,,,,,,,,,,,,,,,,,,,,,,,,,,,,,,,,,
17,"x: 222.61810302734375
y: 218.30819702148438
z: -0.28998175263404846
visibility: 0.9999822974205017
","x: 225.82420349121094
y: 210.51034545898438
z: -0.2779901623725891
visibility: 0.9999425411224365
","x: 227.39356994628906
y: 210.4836883544922
z: -0.27801769971847534
visibility: 0.999941349029541
","x: 228.79962158203125
y: 210.4627685546875
z: -0.27799078822135925
visibility: 0.999936580657959
","x: 221.1311798095703
y: 210.04029846191406
z: -0.2729106545448303
visibility: 0.9999439716339111
","x: 219.8009796142578
y: 209.6433868408203
z: -0.2729201018810272
visibility: 0.9999405145645142
","x: 218.55931091308594
y: 209.32553100585938
z: -0.2729278802871704
visibility: 0.9999407529830933
","x: 231.4561767578125
y: 213.0260467529297
z: -0.18622198700904846
visibility: 0.9999026656150818
","x: 217.41661071777344
y: 211.52696228027344
z: -0.15433034300804138
visibility: 0.9998881816864014
","x: 226.1717987060547
y: 225.42108154296875
z: -0.2528633177280426
visibility: 0.9999833703041077
","x: 220.05584716796875
y: 225.10800170898438
z: -0.24427469074726105
visibility: 0.999980092048645
","x: 249.6699981689453
y: 257.85589599609375
z: -0.13552390038967133
visibility: 0.9999805092811584
","x: 203.63232421875
y: 257.7518615722656
z: -0.04243278503417969
visibility: 0.9999583959579468
","x: 264.4699401855469
y: 312.23876953125
z: -0.14157351851463318
visibility: 0.9860724210739136
","x: 191.8459014892578
y: 319.7857360839844
z: 0.02594158425927162
visibility: 0.9740262627601624
","x: 245.77801513671875
y: 343.73895263671875
z: -0.2856060266494751
visibility: 0.9865158796310425
","x: 172.2700653076172
y: 357.9300537109375
z: -0.09036948531866074
visibility: 0.9830595850944519
","x: 244.5457305908203
y: 354.9928283691406
z: -0.3252454698085785
visibility: 0.9719676375389099
","x: 165.84310913085938
y: 372.68994140625
z: -0.12203578650951385
visibility: 0.9676613211631775
","x: 241.80856323242188
y: 349.8976135253906
z: -0.34926456212997437
visibility: 0.973469614982605
","x: 165.59030151367188
y: 370.81866455078125
z: -0.16356170177459717
visibility: 0.9708350300788879
","x: 241.89520263671875
y: 345.8189392089844
z: -0.296687513589859
visibility: 0.9661682844161987
","x: 168.372314453125
y: 365.9136657714844
z: -0.11037957668304443
visibility: 0.965355634689331
","x: 237.17449951171875
y: 381.09844970703125
z: -0.03448057547211647
visibility: 0.9995823502540588
","x: 211.60546875
y: 379.02520751953125
z: 0.03442757949233055
visibility: 0.9996650815010071
","x: 236.8046875
y: 467.7725524902344
z: -0.027099957689642906
visibility: 0.9930717945098877
","x: 200.2412109375
y: 466.60986328125
z: 0.036643706262111664
visibility: 0.9897832870483398
","x: 240.2352294921875
y: 544.8294677734375
z: 0.12351779639720917
visibility: 0.9928939342498779
","x: 198.13687133789062
y: 545.3540649414062
z: 0.16890205442905426
visibility: 0.9866495132446289
","x: 243.58071899414062
y: 554.248779296875
z: 0.12954232096672058
visibility: 0.8728079795837402
","x: 201.87721252441406
y: 555.8900756835938
z: 0.17504975199699402
visibility: 0.9228870868682861
","x: 228.7187957763672
y: 568.715087890625
z: -0.005210929550230503
visibility: 0.9899235963821411
","x: 184.268310546875
y: 569.28955078125
z: 0.05870158225297928
visibility: 0.9861340522766113
",,,,,,,,,,,,,,,,,,,,,,,,,,,,,,,,,,,,,,,,,,
18,"x: 222.63519287109375
y: 218.22146606445312
z: -0.2869872450828552
visibility: 0.9999836087226868
","x: 225.92762756347656
y: 209.80995178222656
z: -0.2764083445072174
visibility: 0.999946653842926
","x: 227.6509552001953
y: 209.7418212890625
z: -0.2764442563056946
visibility: 0.9999455213546753
","x: 229.14901733398438
y: 209.713623046875
z: -0.2764354348182678
visibility: 0.9999412894248962
","x: 221.09744262695312
y: 209.9617919921875
z: -0.2697891891002655
visibility: 0.9999476671218872
","x: 219.70909118652344
y: 209.43678283691406
z: -0.26980406045913696
visibility: 0.9999442100524902
","x: 218.4224395751953
y: 209.0321044921875
z: -0.26979678869247437
visibility: 0.9999445080757141
","x: 231.7930908203125
y: 212.0826416015625
z: -0.18183758854866028
visibility: 0.9999110698699951
","x: 217.4603729248047
y: 210.97857666015625
z: -0.1453079879283905
visibility: 0.9998939633369446
","x: 226.21951293945312
y: 224.90426635742188
z: -0.2482416331768036
visibility: 0.999984622001648
","x: 219.93695068359375
y: 224.99127197265625
z: -0.23829913139343262
visibility: 0.9999812841415405
","x: 249.5565643310547
y: 257.79998779296875
z: -0.13281962275505066
visibility: 0.9999818801879883
","x: 203.77500915527344
y: 255.25372314453125
z: -0.025088366121053696
visibility: 0.9999569654464722
","x: 265.4677429199219
y: 310.46630859375
z: -0.132307231426239
visibility: 0.9873582124710083
","x: 192.24110412597656
y: 310.1427307128906
z: 0.013469578698277473
visibility: 0.9706844091415405
","x: 252.80816650390625
y: 349.056884765625
z: -0.26713764667510986
visibility: 0.987445592880249
","x: 176.39834594726562
y: 347.052490234375
z: -0.15257027745246887
visibility: 0.9823462963104248
","x: 252.42318725585938
y: 363.2005615234375
z: -0.31734901666641235
visibility: 0.9735881686210632
","x: 171.28317260742188
y: 360.65667724609375
z: -0.19297564029693604
visibility: 0.966812252998352
","x: 247.52890014648438
y: 359.8688049316406
z: -0.3432815372943878
visibility: 0.9749826788902283
","x: 172.42538452148438
y: 359.1610107421875
z: -0.2317827045917511
visibility: 0.9701117873191833
","x: 246.53807067871094
y: 354.55419921875
z: -0.277499258518219
visibility: 0.9678962230682373
","x: 174.64016723632812
y: 354.9075622558594
z: -0.17333242297172546
visibility: 0.9645546674728394
","x: 235.4967498779297
y: 380.72003173828125
z: -0.03492121770977974
visibility: 0.9995856881141663
","x: 210.2730255126953
y: 378.2366638183594
z: 0.03485943004488945
visibility: 0.9996633529663086
","x: 234.97732543945312
y: 467.6334228515625
z: -0.02817862667143345
visibility: 0.993552029132843
","x: 198.7507781982422
y: 465.6549377441406
z: 0.027715329080820084
visibility: 0.99042809009552
","x: 240.3608856201172
y: 544.6141967773438
z: 0.14588919281959534
visibility: 0.9932788610458374
","x: 195.05825805664062
y: 545.3571166992188
z: 0.1726129949092865
visibility: 0.9876830577850342
","x: 244.36997985839844
y: 554.02734375
z: 0.1541418880224228
visibility: 0.8693499565124512
","x: 198.91909790039062
y: 555.3421630859375
z: 0.1789446473121643
visibility: 0.9269803762435913
","x: 228.78758239746094
y: 568.77294921875
z: 0.014016720466315746
visibility: 0.9902600646018982
","x: 182.08566284179688
y: 569.7710571289062
z: 0.06375952064990997
visibility: 0.986985981464386
",,,,,,,,,,,,,,,,,,,,,,,,,,,,,,,,,,,,,,,,,,
19,"x: 219.80886840820312
y: 217.77810668945312
z: -0.2859901487827301
visibility: 0.9999850392341614
","x: 222.87948608398438
y: 209.20884704589844
z: -0.2772141695022583
visibility: 0.999951183795929
","x: 224.6645050048828
y: 209.06297302246094
z: -0.27724921703338623
visibility: 0.9999501705169678
","x: 226.40286254882812
y: 208.9212646484375
z: -0.2772483229637146
visibility: 0.9999463558197021
","x: 218.568603515625
y: 208.88619995117188
z: -0.26944857835769653
visibility: 0.9999518394470215
","x: 217.32151794433594
y: 208.06153869628906
z: -0.2694638967514038
visibility: 0.9999485015869141
","x: 216.1214141845703
y: 207.22816467285156
z: -0.26944440603256226
visibility: 0.9999486207962036
","x: 230.0928955078125
y: 209.9960479736328
z: -0.1817161738872528
visibility: 0.9999194145202637
","x: 216.2481689453125
y: 207.05172729492188
z: -0.1412300169467926
visibility: 0.9999013543128967
","x: 223.1688690185547
y: 223.6820831298828
z: -0.24631616473197937
visibility: 0.999985933303833
","x: 217.8124237060547
y: 223.2007598876953
z: -0.23502476513385773
visibility: 0.9999826550483704
","x: 249.08798217773438
y: 256.2792663574219
z: -0.11971541494131088
visibility: 0.9999833106994629
","x: 203.68052673339844
y: 248.6522674560547
z: -0.02579815313220024
visibility: 0.9999570846557617
","x: 263.6822814941406
y: 308.9072265625
z: -0.09416679292917252
visibility: 0.9885247349739075
","x: 191.57052612304688
y: 297.902099609375
z: -0.038724809885025024
visibility: 0.9639235138893127
","x: 261.0216064453125
y: 357.0300598144531
z: -0.19403734803199768
visibility: 0.9882724285125732
","x: 177.60838317871094
y: 326.8394775390625
z: -0.2763161063194275
visibility: 0.9798508286476135
","x: 261.2587890625
y: 373.57061767578125
z: -0.2259046733379364
visibility: 0.9750461578369141
","x: 174.1986083984375
y: 336.26806640625
z: -0.3205708861351013
visibility: 0.9639901518821716
","x: 257.319091796875
y: 372.52032470703125
z: -0.26026830077171326
visibility: 0.976411759853363
","x: 176.35533142089844
y: 334.6133117675781
z: -0.3540066182613373
visibility: 0.9675893783569336
","x: 256.0659484863281
y: 367.3016662597656
z: -0.20767395198345184
visibility: 0.9696370959281921
","x: 178.12921142578125
y: 331.8597717285156
z: -0.296316921710968
visibility: 0.9616430401802063
","x: 230.70925903320312
y: 378.18951416015625
z: -0.033764179795980453
visibility: 0.999604344367981
","x: 205.79539489746094
y: 374.2153625488281
z: 0.033706363290548325
visibility: 0.9996713995933533
","x: 234.1046142578125
y: 465.6977844238281
z: -0.02090230956673622
visibility: 0.9940410256385803
","x: 196.4066619873047
y: 463.38128662109375
z: 0.03013164922595024
visibility: 0.9911802411079407
","x: 239.95774841308594
y: 544.3802490234375
z: 0.13550865650177002
visibility: 0.993797779083252
","x: 193.8972930908203
y: 544.891357421875
z: 0.17041991651058197
visibility: 0.9887520670890808
","x: 243.9059600830078
y: 553.9933471679688
z: 0.15068799257278442
visibility: 0.8737320899963379
","x: 197.97833251953125
y: 555.0360107421875
z: 0.17578202486038208
visibility: 0.9317768216133118
","x: 228.87583923339844
y: 568.621337890625
z: -0.017464395612478256
visibility: 0.9909003376960754
","x: 181.56027221679688
y: 569.651611328125
z: 0.055517226457595825
visibility: 0.988006055355072
",,,,,,,,,,,,,,,,,,,,,,,,,,,,,,,,,,,,,,,,,,
20,"x: 216.8250732421875
y: 211.43069458007812
z: -0.25590500235557556
visibility: 0.9999863505363464
","x: 219.8817901611328
y: 203.1698455810547
z: -0.24438145756721497
visibility: 0.9999553561210632
","x: 221.51394653320312
y: 203.11593627929688
z: -0.24442176520824432
visibility: 0.9999545216560364
","x: 223.1415557861328
y: 203.1267547607422
z: -0.2444244921207428
visibility: 0.9999510049819946
","x: 215.5987548828125
y: 202.5267333984375
z: -0.23793022334575653
visibility: 0.9999558329582214
","x: 214.1949005126953
y: 201.85365295410156
z: -0.23793432116508484
visibility: 0.9999527335166931
","x: 212.8251190185547
y: 201.1207275390625
z: -0.2379067838191986
visibility: 0.9999526143074036
","x: 226.31011962890625
y: 204.99420166015625
z: -0.1429866999387741
visibility: 0.9999269843101501
","x: 212.49813842773438
y: 201.35476684570312
z: -0.112063929438591
visibility: 0.9999088048934937
","x: 219.7156219482422
y: 218.05372619628906
z: -0.21544575691223145
visibility: 0.9999871253967285
","x: 214.5563201904297
y: 217.3614501953125
z: -0.20695742964744568
visibility: 0.9999839663505554
","x: 243.17083740234375
y: 254.10256958007812
z: -0.07457754760980606
visibility: 0.9999844431877136
","x: 198.4814453125
y: 244.38998413085938
z: -0.01770201325416565
visibility: 0.9999571442604065
","x: 257.79974365234375
y: 309.4806823730469
z: -0.04793310910463333
visibility: 0.9895445108413696
","x: 185.84576416015625
y: 293.70672607421875
z: -0.08185675740242004
visibility: 0.9620431065559387
","x: 266.689208984375
y: 361.27001953125
z: -0.14704343676567078
visibility: 0.989071249961853
","x: 178.3615264892578
y: 308.01434326171875
z: -0.3473535180091858
visibility: 0.9803531169891357
","x: 269.57904052734375
y: 378.60577392578125
z: -0.1756933480501175
visibility: 0.976533055305481
","x: 176.65716552734375
y: 317.476806640625
z: -0.398774653673172
visibility: 0.9651693105697632
","x: 266.61700439453125
y: 378.0784606933594
z: -0.2122342586517334
visibility: 0.9778749346733093
","x: 179.03578186035156
y: 313.3019104003906
z: -0.42499399185180664
visibility: 0.968607485294342
","x: 265.3379211425781
y: 373.0551452636719
z: -0.16255369782447815
visibility: 0.9715344309806824
","x: 180.66819763183594
y: 310.1501159667969
z: -0.3652099072933197
visibility: 0.9625980854034424
","x: 222.83299255371094
y: 377.015869140625
z: -0.03370433300733566
visibility: 0.9996262192726135
","x: 198.27308654785156
y: 372.0953369140625
z: 0.033631954342126846
visibility: 0.9996833801269531
","x: 230.01388549804688
y: 464.12115478515625
z: -0.021740691736340523
visibility: 0.9944444298744202
","x: 192.38995361328125
y: 462.2138671875
z: 0.03827536851167679
visibility: 0.9917733073234558
","x: 239.43051147460938
y: 544.3419189453125
z: 0.09569453448057175
visibility: 0.9942330718040466
","x: 192.77545166015625
y: 544.778076171875
z: 0.17672421038150787
visibility: 0.9896461963653564
","x: 243.4376678466797
y: 554.3656616210938
z: 0.09719666093587875
visibility: 0.8763874173164368
","x: 197.14723205566406
y: 555.0787963867188
z: 0.1815495640039444
visibility: 0.9356224536895752
","x: 228.8759307861328
y: 568.6218872070312
z: -0.057310570031404495
visibility: 0.9914425015449524
","x: 180.76145935058594
y: 569.78564453125
z: 0.05716525390744209
visibility: 0.9888429641723633
",,,,,,,,,,,,,,,,,,,,,,,,,,,,,,,,,,,,,,,,,,
21,"x: 211.64390563964844
y: 211.619873046875
z: -0.2669554054737091
visibility: 0.9999876618385315
","x: 214.18487548828125
y: 203.42401123046875
z: -0.25685423612594604
visibility: 0.9999595880508423
","x: 215.6986083984375
y: 203.39723205566406
z: -0.2568812370300293
visibility: 0.9999588131904602
","x: 217.20497131347656
y: 203.43218994140625
z: -0.25687116384506226
visibility: 0.9999556541442871
","x: 209.76971435546875
y: 202.7865753173828
z: -0.25154221057891846
visibility: 0.9999598860740662
","x: 208.13079833984375
y: 202.1333465576172
z: -0.2515566349029541
visibility: 0.9999570250511169
","x: 206.499755859375
y: 201.39376831054688
z: -0.2515701353549957
visibility: 0.9999567866325378
","x: 220.26431274414062
y: 205.46856689453125
z: -0.1563512533903122
visibility: 0.9999341368675232
","x: 204.96022033691406
y: 202.0250701904297
z: -0.1293918639421463
visibility: 0.9999167323112488
","x: 214.2382354736328
y: 218.32266235351562
z: -0.2278931587934494
visibility: 0.999988317489624
","x: 208.82427978515625
y: 217.62887573242188
z: -0.2207227647304535
visibility: 0.9999853372573853
","x: 235.9475555419922
y: 254.12901306152344
z: -0.09043285995721817
visibility: 0.9999858140945435
","x: 190.46920776367188
y: 244.4628143310547
z: -0.02487334795296192
visibility: 0.9999580979347229
","x: 253.64599609375
y: 309.6015625
z: -0.07304511964321136
visibility: 0.9905351400375366
","x: 176.48965454101562
y: 295.9427795410156
z: -0.07954315096139908
visibility: 0.9600347280502319
","x: 263.5786437988281
y: 361.2783508300781
z: -0.18879905343055725
visibility: 0.9899758696556091
","x: 166.39627075195312
y: 314.00579833984375
z: -0.34614086151123047
visibility: 0.9807225465774536
","x: 265.04052734375
y: 378.42724609375
z: -0.22118297219276428
visibility: 0.9782904386520386
","x: 160.2107696533203
y: 323.313720703125
z: -0.39684584736824036
visibility: 0.9661391377449036
","x: 262.02520751953125
y: 376.8322448730469
z: -0.25165122747421265
visibility: 0.9795687794685364
","x: 160.68943786621094
y: 319.86322021484375
z: -0.42712029814720154
visibility: 0.9695363640785217
","x: 260.9824523925781
y: 371.3509521484375
z: -0.2020069807767868
visibility: 0.9737067818641663
","x: 163.75184631347656
y: 315.3055419921875
z: -0.365868479013443
visibility: 0.963628888130188
","x: 212.63941955566406
y: 377.08251953125
z: -0.03838422894477844
visibility: 0.9996504783630371
","x: 189.7657928466797
y: 372.2210693359375
z: 0.03827500343322754
visibility: 0.9997059106826782
","x: 212.1259307861328
y: 464.0562438964844
z: 0.0007099685026332736
visibility: 0.9947880506515503
","x: 187.1875457763672
y: 462.2978515625
z: 0.02546888031065464
visibility: 0.9921104907989502
","x: 233.7743377685547
y: 539.5638427734375
z: 0.184859961271286
visibility: 0.9945996403694153
","x: 191.25299072265625
y: 544.5995483398438
z: 0.16777341067790985
visibility: 0.9903712272644043
","x: 238.50833129882812
y: 548.0724487304688
z: 0.19531507790088654
visibility: 0.8785592913627625
","x: 195.68186950683594
y: 555.1441650390625
z: 0.17383238673210144
visibility: 0.9390425086021423
","x: 226.2092742919922
y: 567.156494140625
z: 0.06516852974891663
visibility: 0.9919158816337585
","x: 180.05615234375
y: 569.7868041992188
z: 0.05243672803044319
visibility: 0.9894830584526062
",,,,,,,,,,,,,,,,,,,,,,,,,,,,,,,,,,,,,,,,,,
22,"x: 204.27662658691406
y: 213.92477416992188
z: -0.27136340737342834
visibility: 0.9999882578849792
","x: 206.373046875
y: 206.05149841308594
z: -0.26152676343917847
visibility: 0.9999599456787109
","x: 207.7606658935547
y: 205.87083435058594
z: -0.2615564167499542
visibility: 0.9999596476554871
","x: 209.0944061279297
y: 205.7017364501953
z: -0.2615325450897217
visibility: 0.9999567270278931
","x: 202.1973419189453
y: 205.99673461914062
z: -0.2568610608577728
visibility: 0.9999602437019348
","x: 200.65020751953125
y: 205.666748046875
z: -0.2568776607513428
visibility: 0.999957263469696
","x: 199.0690155029297
y: 205.20968627929688
z: -0.25688761472702026
visibility: 0.9999567866325378
","x: 211.5099334716797
y: 207.95462036132812
z: -0.16310587525367737
visibility: 0.9999377727508545
","x: 197.31842041015625
y: 206.4527130126953
z: -0.13490980863571167
visibility: 0.9999138116836548
","x: 206.82823181152344
y: 220.9163818359375
z: -0.22953760623931885
visibility: 0.9999887347221375
","x: 201.74136352539062
y: 220.18191528320312
z: -0.22378747165203094
visibility: 0.99998539686203
","x: 228.8942413330078
y: 254.22239685058594
z: -0.12127312272787094
visibility: 0.9999869465827942
","x: 182.7847137451172
y: 252.5607452392578
z: -0.0304250568151474
visibility: 0.9999588131904602
","x: 248.91099548339844
y: 306.6734619140625
z: -0.11453278362751007
visibility: 0.9914349317550659
","x: 164.8511962890625
y: 303.05596923828125
z: 0.013493319042026997
visibility: 0.9619712829589844
","x: 246.1502227783203
y: 360.5885009765625
z: -0.2467365711927414
visibility: 0.9907400012016296
","x: 155.36123657226562
y: 343.1872863769531
z: -0.10805843770503998
visibility: 0.9813297390937805
","x: 245.9287872314453
y: 375.3805236816406
z: -0.28688615560531616
visibility: 0.9796732664108276
","x: 150.3608856201172
y: 357.1637268066406
z: -0.14216527342796326
visibility: 0.9666802883148193
","x: 241.34242248535156
y: 373.67413330078125
z: -0.3145366311073303
visibility: 0.9808827638626099
","x: 153.6165313720703
y: 357.40374755859375
z: -0.17896220088005066
visibility: 0.9700179100036621
","x: 240.39675903320312
y: 369.50054931640625
z: -0.25937753915786743
visibility: 0.9753289222717285
","x: 156.12799072265625
y: 352.1652526855469
z: -0.1263485848903656
visibility: 0.9642060399055481
","x: 211.40255737304688
y: 377.0835876464844
z: -0.04276885837316513
visibility: 0.9996481537818909
","x: 187.48419189453125
y: 373.47467041015625
z: 0.04269542172551155
visibility: 0.9997170567512512
","x: 206.5953369140625
y: 464.04461669921875
z: -0.024849768728017807
visibility: 0.9950293302536011
","x: 183.56422424316406
y: 462.9763488769531
z: 0.00919134821742773
visibility: 0.9922420382499695
","x: 220.21018981933594
y: 538.71435546875
z: 0.20439299941062927
visibility: 0.9945496916770935
","x: 190.183837890625
y: 544.5292358398438
z: 0.16904480755329132
visibility: 0.9908058643341064
","x: 223.32904052734375
y: 547.4890747070312
z: 0.22197642922401428
visibility: 0.8751184940338135
","x: 195.07118225097656
y: 555.0159301757812
z: 0.17653301358222961
visibility: 0.9413257241249084
","x: 214.06260681152344
y: 565.30615234375
z: 0.1076507419347763
visibility: 0.9917307496070862
","x: 180.6494140625
y: 570.378173828125
z: 0.05412304401397705
visibility: 0.9896756410598755
","x: 152.3138885498047
y: 351.409423828125
z: 0.0
","x: 155.41299438476562
y: 360.9254455566406
z: 0.002023631939664483
","x: 155.52586364746094
y: 370.3547668457031
z: 0.002461103955283761
","x: 154.57473754882812
y: 377.0957946777344
z: 0.002224451396614313
","x: 154.0636444091797
y: 381.6766357421875
z: 0.002634387230500579
","x: 151.2061004638672
y: 375.0347900390625
z: 0.002195400884374976
","x: 151.42213439941406
y: 381.4756774902344
z: 0.00232143048197031
","x: 153.0360107421875
y: 377.7893371582031
z: 0.003626761259511113
","x: 153.51388549804688
y: 374.07965087890625
z: 0.004753099754452705
","x: 148.45729064941406
y: 372.4638366699219
z: 0.0006037792772985995
","x: 149.27749633789062
y: 377.81072998046875
z: 0.0016702987486496568
","x: 150.74400329589844
y: 374.86993408203125
z: 0.0034035868011415005
","x: 151.0158233642578
y: 371.8685302734375
z: 0.004471047781407833
","x: 146.37899780273438
y: 369.1274719238281
z: -0.0009534824639558792
","x: 147.1448974609375
y: 373.9985656738281
z: -0.0003363933938089758
","x: 148.63131713867188
y: 371.2940673828125
z: 0.0013351592933759093
","x: 149.04965209960938
y: 368.2358093261719
z: 0.0023401924408972263
","x: 144.814697265625
y: 365.57916259765625
z: -0.0024687214754521847
","x: 145.6239471435547
y: 369.7549133300781
z: -0.001975547755137086
","x: 146.89144897460938
y: 368.01226806640625
z: -0.0007081484072841704
","x: 147.24484252929688
y: 365.5987854003906
z: 0.00035469603608362377
",,,,,,,,,,,,,,,,,,,,,
23,"x: 204.27662658691406
y: 213.92477416992188
z: -0.27136340737342834
visibility: 0.9999882578849792
","x: 206.373046875
y: 206.05149841308594
z: -0.26152676343917847
visibility: 0.9999599456787109
","x: 207.7606658935547
y: 205.87083435058594
z: -0.2615564167499542
visibility: 0.9999596476554871
","x: 209.0944061279297
y: 205.7017364501953
z: -0.2615325450897217
visibility: 0.9999567270278931
","x: 202.1973419189453
y: 205.99673461914062
z: -0.2568610608577728
visibility: 0.9999602437019348
","x: 200.65020751953125
y: 205.666748046875
z: -0.2568776607513428
visibility: 0.999957263469696
","x: 199.0690155029297
y: 205.20968627929688
z: -0.25688761472702026
visibility: 0.9999567866325378
","x: 211.5099334716797
y: 207.95462036132812
z: -0.16310587525367737
visibility: 0.9999377727508545
","x: 197.31842041015625
y: 206.4527130126953
z: -0.13490980863571167
visibility: 0.9999138116836548
","x: 206.82823181152344
y: 220.9163818359375
z: -0.22953760623931885
visibility: 0.9999887347221375
","x: 201.74136352539062
y: 220.18191528320312
z: -0.22378747165203094
visibility: 0.99998539686203
","x: 228.8942413330078
y: 254.22239685058594
z: -0.12127312272787094
visibility: 0.9999869465827942
","x: 182.7847137451172
y: 252.5607452392578
z: -0.0304250568151474
visibility: 0.9999588131904602
","x: 248.91099548339844
y: 306.6734619140625
z: -0.11453278362751007
visibility: 0.9914349317550659
","x: 164.8511962890625
y: 303.05596923828125
z: 0.013493319042026997
visibility: 0.9619712829589844
","x: 246.1502227783203
y: 360.5885009765625
z: -0.2467365711927414
visibility: 0.9907400012016296
","x: 155.36123657226562
y: 343.1872863769531
z: -0.10805843770503998
visibility: 0.9813297390937805
","x: 245.9287872314453
y: 375.3805236816406
z: -0.28688615560531616
visibility: 0.9796732664108276
","x: 150.3608856201172
y: 357.1637268066406
z: -0.14216527342796326
visibility: 0.9666802883148193
","x: 241.34242248535156
y: 373.67413330078125
z: -0.3145366311073303
visibility: 0.9808827638626099
","x: 153.6165313720703
y: 357.40374755859375
z: -0.17896220088005066
visibility: 0.9700179100036621
","x: 240.39675903320312
y: 369.50054931640625
z: -0.25937753915786743
visibility: 0.9753289222717285
","x: 156.12799072265625
y: 352.1652526855469
z: -0.1263485848903656
visibility: 0.9642060399055481
","x: 211.40255737304688
y: 377.0835876464844
z: -0.04276885837316513
visibility: 0.9996481537818909
","x: 187.48419189453125
y: 373.47467041015625
z: 0.04269542172551155
visibility: 0.9997170567512512
","x: 206.5953369140625
y: 464.04461669921875
z: -0.024849768728017807
visibility: 0.9950293302536011
","x: 183.56422424316406
y: 462.9763488769531
z: 0.00919134821742773
visibility: 0.9922420382499695
","x: 220.21018981933594
y: 538.71435546875
z: 0.20439299941062927
visibility: 0.9945496916770935
","x: 190.183837890625
y: 544.5292358398438
z: 0.16904480755329132
visibility: 0.9908058643341064
","x: 223.32904052734375
y: 547.4890747070312
z: 0.22197642922401428
visibility: 0.8751184940338135
","x: 195.07118225097656
y: 555.0159301757812
z: 0.17653301358222961
visibility: 0.9413257241249084
","x: 214.06260681152344
y: 565.30615234375
z: 0.1076507419347763
visibility: 0.9917307496070862
","x: 180.6494140625
y: 570.378173828125
z: 0.05412304401397705
visibility: 0.9896756410598755
","x: 152.3138885498047
y: 351.409423828125
z: 0.0
","x: 155.41299438476562
y: 360.9254455566406
z: 0.002023631939664483
","x: 155.52586364746094
y: 370.3547668457031
z: 0.002461103955283761
","x: 154.57473754882812
y: 377.0957946777344
z: 0.002224451396614313
","x: 154.0636444091797
y: 381.6766357421875
z: 0.002634387230500579
","x: 151.2061004638672
y: 375.0347900390625
z: 0.002195400884374976
","x: 151.42213439941406
y: 381.4756774902344
z: 0.00232143048197031
","x: 153.0360107421875
y: 377.7893371582031
z: 0.003626761259511113
","x: 153.51388549804688
y: 374.07965087890625
z: 0.004753099754452705
","x: 148.45729064941406
y: 372.4638366699219
z: 0.0006037792772985995
","x: 149.27749633789062
y: 377.81072998046875
z: 0.0016702987486496568
","x: 150.74400329589844
y: 374.86993408203125
z: 0.0034035868011415005
","x: 151.0158233642578
y: 371.8685302734375
z: 0.004471047781407833
","x: 146.37899780273438
y: 369.1274719238281
z: -0.0009534824639558792
","x: 147.1448974609375
y: 373.9985656738281
z: -0.0003363933938089758
","x: 148.63131713867188
y: 371.2940673828125
z: 0.0013351592933759093
","x: 149.04965209960938
y: 368.2358093261719
z: 0.0023401924408972263
","x: 144.814697265625
y: 365.57916259765625
z: -0.0024687214754521847
","x: 145.6239471435547
y: 369.7549133300781
z: -0.001975547755137086
","x: 146.89144897460938
y: 368.01226806640625
z: -0.0007081484072841704
","x: 147.24484252929688
y: 365.5987854003906
z: 0.00035469603608362377
",,,,,,,,,,,,,,,,,,,,,
24,"x: 201.15567016601562
y: 220.88525390625
z: -0.3596070408821106
visibility: 0.9999879598617554
","x: 203.6832733154297
y: 213.1129150390625
z: -0.3489365577697754
visibility: 0.9999576210975647
","x: 205.35516357421875
y: 212.9742431640625
z: -0.34897899627685547
visibility: 0.999957799911499
","x: 207.10665893554688
y: 212.83294677734375
z: -0.34903717041015625
visibility: 0.9999552965164185
","x: 199.16844177246094
y: 212.69375610351562
z: -0.3439541757106781
visibility: 0.9999573826789856
","x: 197.4945526123047
y: 212.23291015625
z: -0.34398239850997925
visibility: 0.9999534487724304
","x: 195.82965087890625
y: 211.80213928222656
z: -0.34396669268608093
visibility: 0.9999526739120483
","x: 210.46031188964844
y: 213.86416625976562
z: -0.24263131618499756
visibility: 0.9999387264251709
","x: 193.4380645751953
y: 211.97488403320312
z: -0.21393553912639618
visibility: 0.9999051690101624
","x: 203.70765686035156
y: 227.60934448242188
z: -0.3151465058326721
visibility: 0.9999889731407166
","x: 198.74180603027344
y: 227.220947265625
z: -0.30748236179351807
visibility: 0.9999853372573853
","x: 226.1056365966797
y: 255.63241577148438
z: -0.18095235526561737
visibility: 0.9999880790710449
","x: 179.25634765625
y: 257.57257080078125
z: -0.08206024020910263
visibility: 0.9999600648880005
","x: 248.0270538330078
y: 304.8343505859375
z: -0.20490312576293945
visibility: 0.9922265410423279
","x: 163.4195098876953
y: 316.47210693359375
z: -0.008522219024598598
visibility: 0.962539792060852
","x: 232.0299072265625
y: 346.04937744140625
z: -0.3656393885612488
visibility: 0.9913109540939331
","x: 151.95909118652344
y: 361.1688232421875
z: -0.13731178641319275
visibility: 0.9802961349487305
","x: 228.84078979492188
y: 357.45806884765625
z: -0.41472068428993225
visibility: 0.9806076288223267
","x: 146.885498046875
y: 378.39764404296875
z: -0.17376664280891418
visibility: 0.964652419090271
","x: 225.3417205810547
y: 352.13177490234375
z: -0.43407607078552246
visibility: 0.9817042350769043
","x: 149.1620330810547
y: 378.55572509765625
z: -0.21301086246967316
visibility: 0.9681705832481384
","x: 225.43971252441406
y: 348.2620849609375
z: -0.3749229609966278
visibility: 0.9760266542434692
","x: 151.44850158691406
y: 372.2641296386719
z: -0.15625807642936707
visibility: 0.9621462821960449
","x: 211.866943359375
y: 380.3431701660156
z: -0.04324271157383919
visibility: 0.9996537566184998
","x: 187.1953582763672
y: 379.0246887207031
z: 0.043210022151470184
visibility: 0.9997277855873108
","x: 211.6437530517578
y: 466.84808349609375
z: -0.0064766318537294865
visibility: 0.9953985214233398
","x: 182.44053649902344
y: 465.80682373046875
z: 0.010778868570923805
visibility: 0.9927382469177246
","x: 224.7916717529297
y: 538.8844604492188
z: 0.24867241084575653
visibility: 0.994893491268158
","x: 190.0301055908203
y: 545.5382690429688
z: 0.20775771141052246
visibility: 0.9914905428886414
","x: 225.40516662597656
y: 547.2887573242188
z: 0.2667679190635681
visibility: 0.87740558385849
","x: 195.5010223388672
y: 555.77099609375
z: 0.22074326872825623
visibility: 0.9444883465766907
","x: 216.6642608642578
y: 565.536865234375
z: 0.13549241423606873
visibility: 0.9921118021011353
","x: 180.70956420898438
y: 572.00341796875
z: 0.09995034337043762
visibility: 0.990289032459259
",,,,,,,,,,,,,,,,,,,,,,,,,,,,,,,,,,,,,,,,,,
25,"x: 201.4302520751953
y: 221.13294982910156
z: -0.37453365325927734
visibility: 0.9999845027923584
","x: 204.45346069335938
y: 213.2007598876953
z: -0.3642130196094513
visibility: 0.9999446272850037
","x: 206.10491943359375
y: 213.0423126220703
z: -0.3642570674419403
visibility: 0.9999473094940186
","x: 207.60992431640625
y: 212.90005493164062
z: -0.364324152469635
visibility: 0.9999445676803589
","x: 199.56170654296875
y: 212.80697631835938
z: -0.35995739698410034
visibility: 0.9999406933784485
","x: 198.1534423828125
y: 212.29356384277344
z: -0.3599843382835388
visibility: 0.9999343752861023
","x: 196.68556213378906
y: 211.840576171875
z: -0.35998696088790894
visibility: 0.9999310970306396
","x: 210.39462280273438
y: 214.2979278564453
z: -0.25440698862075806
visibility: 0.999932587146759
","x: 194.5546417236328
y: 213.02401733398438
z: -0.22859379649162292
visibility: 0.9998677968978882
","x: 204.15390014648438
y: 227.67962646484375
z: -0.32813316583633423
visibility: 0.9999879002571106
","x: 198.3972625732422
y: 227.36279296875
z: -0.32130616903305054
visibility: 0.9999824166297913
","x: 226.76820373535156
y: 255.629638671875
z: -0.18331171572208405
visibility: 0.9999889731407166
","x: 179.4784698486328
y: 258.7125244140625
z: -0.08916252106428146
visibility: 0.9999591708183289
","x: 247.97178649902344
y: 304.0457458496094
z: -0.22683480381965637
visibility: 0.9928978085517883
","x: 167.70230102539062
y: 319.56597900390625
z: -0.013951145112514496
visibility: 0.962199866771698
","x: 225.77587890625
y: 328.0942077636719
z: -0.41108447313308716
visibility: 0.9916945695877075
","x: 156.96795654296875
y: 364.56768798828125
z: -0.13149580359458923
visibility: 0.9787181615829468
","x: 220.68321228027344
y: 339.33551025390625
z: -0.46200060844421387
visibility: 0.9811310768127441
","x: 152.46144104003906
y: 382.08917236328125
z: -0.16579163074493408
visibility: 0.9618045091629028
","x: 217.22085571289062
y: 331.132080078125
z: -0.47354334592819214
visibility: 0.9820815324783325
","x: 153.81971740722656
y: 381.135498046875
z: -0.20510265231132507
visibility: 0.9655200839042664
","x: 217.82249450683594
y: 328.0502014160156
z: -0.4174913763999939
visibility: 0.9759129285812378
","x: 155.8926544189453
y: 374.6271057128906
z: -0.15003502368927002
visibility: 0.9591305255889893
","x: 214.85272216796875
y: 380.8143310546875
z: -0.042462680488824844
visibility: 0.9996363520622253
","x: 189.25177001953125
y: 380.5451965332031
z: 0.04244818538427353
visibility: 0.9997110366821289
","x: 215.0236358642578
y: 467.8903503417969
z: -0.009327479638159275
visibility: 0.9957766532897949
","x: 184.42469787597656
y: 467.23828125
z: 0.03692810982465744
visibility: 0.9932231903076172
","x: 234.82357788085938
y: 539.0039672851562
z: 0.20549428462982178
visibility: 0.9952797889709473
","x: 190.42153930664062
y: 546.8450927734375
z: 0.23992028832435608
visibility: 0.9921659827232361
","x: 240.22305297851562
y: 547.7367553710938
z: 0.21925568580627441
visibility: 0.8798847198486328
","x: 195.80307006835938
y: 556.2651977539062
z: 0.25209635496139526
visibility: 0.9474552869796753
","x: 225.0516815185547
y: 567.427734375
z: 0.07614803314208984
visibility: 0.9925857782363892
","x: 180.8688507080078
y: 572.9284057617188
z: 0.12725529074668884
visibility: 0.9909215569496155
",,,,,,,,,,,,,,,,,,,,,,,,,,,,,,,,,,,,,,,,,,
26,"x: 204.7935333251953
y: 216.1100616455078
z: -0.2962753176689148
visibility: 0.9999808073043823
","x: 207.698486328125
y: 207.61346435546875
z: -0.27851152420043945
visibility: 0.9999375343322754
","x: 209.3101806640625
y: 207.6038360595703
z: -0.27862468361854553
visibility: 0.9999420046806335
","x: 210.8226776123047
y: 207.7111053466797
z: -0.2787162959575653
visibility: 0.9999406337738037
","x: 202.9942626953125
y: 207.49960327148438
z: -0.2738683819770813
visibility: 0.9999259114265442
","x: 201.52252197265625
y: 207.37107849121094
z: -0.27379751205444336
visibility: 0.9999136328697205
","x: 200.05490112304688
y: 207.32229614257812
z: -0.2737721800804138
visibility: 0.9999033808708191
","x: 213.57711791992188
y: 210.41424560546875
z: -0.15943019092082977
visibility: 0.999930739402771
","x: 198.14724731445312
y: 210.47010803222656
z: -0.1319582164287567
visibility: 0.9998139142990112
","x: 207.534912109375
y: 223.02264404296875
z: -0.2490888088941574
visibility: 0.9999855160713196
","x: 201.8670654296875
y: 223.51171875
z: -0.24172337353229523
visibility: 0.9999725222587585
","x: 229.6746826171875
y: 250.667236328125
z: -0.10637712478637695
visibility: 0.9999892115592957
","x: 182.78851318359375
y: 258.60205078125
z: 0.00038915459299460053
visibility: 0.9999006390571594
","x: 248.31289672851562
y: 302.10577392578125
z: -0.18330809473991394
visibility: 0.9934363961219788
","x: 182.82652282714844
y: 317.0899658203125
z: 0.06666694581508636
visibility: 0.9244816899299622
","x: 222.9932861328125
y: 305.8825378417969
z: -0.3888202905654907
visibility: 0.992099940776825
","x: 183.58438110351562
y: 359.0374755859375
z: -0.06924007833003998
visibility: 0.9455505013465881
","x: 216.2845916748047
y: 312.8081359863281
z: -0.44012266397476196
visibility: 0.9818101525306702
","x: 177.51385498046875
y: 379.1044616699219
z: -0.10335739701986313
visibility: 0.9251627922058105
","x: 213.58197021484375
y: 304.5908203125
z: -0.4476412832736969
visibility: 0.9826475977897644
","x: 177.30831909179688
y: 370.62640380859375
z: -0.14017975330352783
visibility: 0.9302505254745483
","x: 214.87709045410156
y: 302.4326171875
z: -0.3942844569683075
visibility: 0.9760043621063232
","x: 179.22036743164062
y: 364.1689453125
z: -0.0879402905702591
visibility: 0.9203943014144897
","x: 217.59658813476562
y: 378.53436279296875
z: -0.03739071637392044
visibility: 0.9996258616447449
","x: 189.7491912841797
y: 378.0593566894531
z: 0.03749953210353851
visibility: 0.9996718764305115
","x: 224.4889373779297
y: 466.70294189453125
z: -0.003639053087681532
visibility: 0.9960262775421143
","x: 185.86659240722656
y: 464.6734619140625
z: 0.01888268254697323
visibility: 0.9937027096748352
","x: 237.4684295654297
y: 540.0762329101562
z: 0.18361058831214905
visibility: 0.9954919815063477
","x: 190.63722229003906
y: 546.6430053710938
z: 0.18032577633857727
visibility: 0.9927307963371277
","x: 241.4810333251953
y: 549.9305419921875
z: 0.194424569606781
visibility: 0.8787410855293274
","x: 195.51712036132812
y: 555.4511108398438
z: 0.18713480234146118
visibility: 0.948756217956543
","x: 230.83615112304688
y: 567.4105224609375
z: 0.046569809317588806
visibility: 0.9926404356956482
","x: 180.9202423095703
y: 572.02490234375
z: 0.04915879666805267
visibility: 0.9913785457611084
",,,,,,,,,,,,,,,,,,,,,,"x: 222.94137573242188
y: 298.7901916503906
z: 0.0
","x: 217.7247772216797
y: 295.7024841308594
z: 0.002530638361349702
","x: 212.498291015625
y: 297.5716552734375
z: 0.0019930999260395765
","x: 208.7835235595703
y: 301.28826904296875
z: 0.0008204031619243324
","x: 206.61537170410156
y: 303.7632751464844
z: 0.00030214726575650275
","x: 211.12783813476562
y: 296.58270263671875
z: -0.0008635243866592646
","x: 207.36123657226562
y: 304.0653991699219
z: -0.0020427294075489044
","x: 209.1123504638672
y: 304.5821533203125
z: -0.001455591176636517
","x: 210.62179565429688
y: 302.7363586425781
z: -0.0009549012174829841
","x: 212.46900939941406
y: 300.8114013671875
z: -0.003488358575850725
","x: 209.3892364501953
y: 308.0935363769531
z: -0.003756999270990491
","x: 210.96376037597656
y: 307.48291015625
z: -0.002273867605254054
","x: 212.05389404296875
y: 305.0610046386719
z: -0.0016321399016305804
","x: 214.04434204101562
y: 305.1266784667969
z: -0.005876648239791393
","x: 211.61097717285156
y: 311.02435302734375
z: -0.005463415291160345
","x: 213.17678833007812
y: 310.1585388183594
z: -0.0034064834471791983
","x: 214.209716796875
y: 308.0499267578125
z: -0.002644709777086973
","x: 215.71670532226562
y: 309.1893310546875
z: -0.008136097341775894
","x: 213.7876434326172
y: 312.7984924316406
z: -0.007508864160627127
","x: 215.08534240722656
y: 312.04669189453125
z: -0.005936897825449705
","x: 216.12667846679688
y: 310.77655029296875
z: -0.005113369319587946
"
27,"x: 204.7935333251953
y: 216.1100616455078
z: -0.2962753176689148
visibility: 0.9999808073043823
","x: 207.698486328125
y: 207.61346435546875
z: -0.27851152420043945
visibility: 0.9999375343322754
","x: 209.3101806640625
y: 207.6038360595703
z: -0.27862468361854553
visibility: 0.9999420046806335
","x: 210.8226776123047
y: 207.7111053466797
z: -0.2787162959575653
visibility: 0.9999406337738037
","x: 202.9942626953125
y: 207.49960327148438
z: -0.2738683819770813
visibility: 0.9999259114265442
","x: 201.52252197265625
y: 207.37107849121094
z: -0.27379751205444336
visibility: 0.9999136328697205
","x: 200.05490112304688
y: 207.32229614257812
z: -0.2737721800804138
visibility: 0.9999033808708191
","x: 213.57711791992188
y: 210.41424560546875
z: -0.15943019092082977
visibility: 0.999930739402771
","x: 198.14724731445312
y: 210.47010803222656
z: -0.1319582164287567
visibility: 0.9998139142990112
","x: 207.534912109375
y: 223.02264404296875
z: -0.2490888088941574
visibility: 0.9999855160713196
","x: 201.8670654296875
y: 223.51171875
z: -0.24172337353229523
visibility: 0.9999725222587585
","x: 229.6746826171875
y: 250.667236328125
z: -0.10637712478637695
visibility: 0.9999892115592957
","x: 182.78851318359375
y: 258.60205078125
z: 0.00038915459299460053
visibility: 0.9999006390571594
","x: 248.31289672851562
y: 302.10577392578125
z: -0.18330809473991394
visibility: 0.9934363961219788
","x: 182.82652282714844
y: 317.0899658203125
z: 0.06666694581508636
visibility: 0.9244816899299622
","x: 222.9932861328125
y: 305.8825378417969
z: -0.3888202905654907
visibility: 0.992099940776825
","x: 183.58438110351562
y: 359.0374755859375
