uscmakers/ReverseChoreography/data/5_lite_spots_kaytranada.csv
,NOSE,LEFT_EYE_INNER,LEFT_EYE,LEFT_EYE_OUTER,RIGHT_EYE_INNER,RIGHT_EYE,RIGHT_EYE_OUTER,LEFT_EAR,RIGHT_EAR,MOUTH_LEFT,MOUTH_RIGHT,LEFT_SHOULDER,RIGHT_SHOULDER,LEFT_ELBOW,RIGHT_ELBOW,LEFT_WRIST,RIGHT_WRIST,LEFT_PINKY,RIGHT_PINKY,LEFT_INDEX,RIGHT_INDEX,LEFT_THUMB,RIGHT_THUMB,LEFT_HIP,RIGHT_HIP,LEFT_KNEE,RIGHT_KNEE,LEFT_ANKLE,RIGHT_ANKLE,LEFT_HEEL,RIGHT_HEEL,LEFT_FOOT_INDEX,RIGHT_FOOT_INDEX,WRIST,THUMB_CPC,THUMB_MCP,THUMB_IP,THUMB_TIP,INDEX_FINGER_MCP,INDEX_FINGER_PIP,INDEX_FINGER_DIP,INDEX_FINGER_TIP,MIDDLE_FINGER_MCP,MIDDLE_FINGER_PIP,MIDDLE_FINGER_DIP,MIDDLE_FINGER_TIP,RING_FINGER_PIP,RING_FINGER_DIP,RING_FINGER_TIP,RING_FINGER_MCP,PINKY_MCP,PINKY_PIP,PINKY_DIP,PINKY_TIP,WRIST2,THUMB_CPC2,THUMB_MCP2,THUMB_IP2,THUMB_TIP2,INDEX_FINGER_MCP2,INDEX_FINGER_PIP2,INDEX_FINGER_DIP2,INDEX_FINGER_TIP2,MIDDLE_FINGER_MCP2,MIDDLE_FINGER_PIP2,MIDDLE_FINGER_DIP2,MIDDLE_FINGER_TIP2,RING_FINGER_PIP2,RING_FINGER_DIP2,RING_FINGER_TIP2,RING_FINGER_MCP2,PINKY_MCP2,PINKY_PIP2,PINKY_DIP2,PINKY_TIP2
0,"x: 185.81710815429688
y: 233.2905731201172
z: -0.11112327873706818
visibility: 0.9999942779541016
","x: 188.24229431152344
y: 224.80206298828125
z: -0.10504225641489029
visibility: 0.9999855756759644
","x: 189.9282989501953
y: 224.0603790283203
z: -0.10514601320028305
visibility: 0.9999880790710449
","x: 191.7064971923828
y: 223.35928344726562
z: -0.1051960214972496
visibility: 0.9999890327453613
","x: 184.5659637451172
y: 225.461181640625
z: -0.08957994729280472
visibility: 0.9999774694442749
","x: 183.62030029296875
y: 225.138671875
z: -0.0895523875951767
visibility: 0.9999701976776123
","x: 182.7762908935547
y: 224.79168701171875
z: -0.08949935436248779
visibility: 0.9999693632125854
","x: 196.84280395507812
y: 222.81333923339844
z: -0.03423914685845375
visibility: 0.9999935626983643
","x: 184.47149658203125
y: 224.12298583984375
z: 0.03875283896923065
visibility: 0.9999450445175171
","x: 189.35130310058594
y: 238.55563354492188
z: -0.08265656977891922
visibility: 0.9999947547912598
","x: 184.95213317871094
y: 239.23780822753906
z: -0.06157127767801285
visibility: 0.9999825954437256
","x: 214.41806030273438
y: 256.0428466796875
z: -0.0321391224861145
visibility: 0.9999994039535522
","x: 179.4893798828125
y: 264.5546569824219
z: 0.14734944701194763
visibility: 0.9999516010284424
","x: 230.7839813232422
y: 297.34930419921875
z: -0.12890605628490448
visibility: 0.9984582662582397
","x: 170.97091674804688
y: 312.3654479980469
z: 0.1636183261871338
visibility: 0.8716416954994202
","x: 242.66012573242188
y: 327.4181823730469
z: -0.3191831707954407
visibility: 0.9980657696723938
","x: 148.09078979492188
y: 331.26007080078125
z: 0.0027557213325053453
visibility: 0.9858786463737488
","x: 246.23411560058594
y: 335.10858154296875
z: -0.3636968433856964
visibility: 0.9956016540527344
","x: 141.2554168701172
y: 334.1729431152344
z: -0.023725224658846855
visibility: 0.9777502417564392
","x: 243.36825561523438
y: 333.75616455078125
z: -0.38753360509872437
visibility: 0.9959744811058044
","x: 140.2896270751953
y: 330.1764221191406
z: -0.05391659587621689
visibility: 0.9807141423225403
","x: 241.63156127929688
y: 331.3608093261719
z: -0.33270156383514404
visibility: 0.9935455918312073
","x: 142.9927520751953
y: 329.2099609375
z: -0.015706539154052734
visibility: 0.9782108664512634
","x: 207.12551879882812
y: 374.7948913574219
z: -0.06409143656492233
visibility: 0.9998688697814941
","x: 187.28564453125
y: 374.7884826660156
z: 0.06417141854763031
visibility: 0.9997538924217224
","x: 203.85035705566406
y: 452.4991455078125
z: -0.11744453758001328
visibility: 0.9907857179641724
","x: 184.8361053466797
y: 453.6233215332031
z: 0.00856873206794262
visibility: 0.9765980243682861
","x: 204.40960693359375
y: 532.7998657226562
z: -0.008285763673484325
visibility: 0.989170491695404
","x: 197.40516662597656
y: 523.4356689453125
z: 0.12380576133728027
visibility: 0.979486882686615
","x: 207.2207794189453
y: 544.7314453125
z: -0.0039915041998028755
visibility: 0.8817979097366333
","x: 202.60816955566406
y: 534.1939697265625
z: 0.1287829726934433
visibility: 0.9427586197853088
","x: 191.16139221191406
y: 554.44091796875
z: -0.12116745859384537
visibility: 0.9851587414741516
","x: 183.66131591796875
y: 546.919921875
z: 0.04014106094837189
visibility: 0.9794788956642151
",,,,,,,,,,,,,,,,,,,,,,,,,,,,,,,,,,,,,,,,,,
1,"x: 190.67784118652344
y: 226.2838592529297
z: -0.1735486090183258
visibility: 0.9999915957450867
","x: 193.25721740722656
y: 218.42689514160156
z: -0.165511354804039
visibility: 0.9999783635139465
","x: 194.58009338378906
y: 218.23126220703125
z: -0.1655803769826889
visibility: 0.9999827742576599
","x: 195.9251708984375
y: 218.14634704589844
z: -0.1656631976366043
visibility: 0.9999827742576599
","x: 190.0579071044922
y: 218.29254150390625
z: -0.14891383051872253
visibility: 0.9999704957008362
","x: 189.15769958496094
y: 218.02903747558594
z: -0.14890262484550476
visibility: 0.9999628663063049
","x: 188.26104736328125
y: 217.83837890625
z: -0.1488448530435562
visibility: 0.9999586343765259
","x: 199.21139526367188
y: 220.42791748046875
z: -0.08843398094177246
visibility: 0.9999916553497314
","x: 189.2328338623047
y: 219.70361328125
z: -0.012834062799811363
visibility: 0.9999184012413025
","x: 193.47706604003906
y: 232.74969482421875
z: -0.1432483047246933
visibility: 0.9999886155128479
","x: 189.416259765625
y: 232.80255126953125
z: -0.1215878278017044
visibility: 0.99996417760849
","x: 214.3321533203125
y: 251.9097137451172
z: -0.08681370317935944
visibility: 0.9999982714653015
","x: 184.37168884277344
y: 258.1102294921875
z: 0.1319970339536667
visibility: 0.9998524785041809
","x: 235.05943298339844
y: 296.3949279785156
z: -0.10147038847208023
visibility: 0.9985657930374146
","x: 172.01461791992188
y: 290.3005065917969
z: 0.07849147170782089
visibility: 0.8690154552459717
","x: 252.99562072753906
y: 332.6197814941406
z: -0.13261158764362335
visibility: 0.9980899691581726
","x: 165.22381591796875
y: 258.50201416015625
z: -0.13425566256046295
visibility: 0.9847458600997925
","x: 261.47845458984375
y: 342.06158447265625
z: -0.1470840871334076
visibility: 0.9953436255455017
","x: 164.8404083251953
y: 247.4645233154297
z: -0.16317248344421387
visibility: 0.9747043251991272
","x: 259.5851135253906
y: 342.8978271484375
z: -0.17697083950042725
visibility: 0.9957606792449951
","x: 166.8835906982422
y: 243.44041442871094
z: -0.16616450250148773
visibility: 0.9773314595222473
","x: 256.2071533203125
y: 340.3812255859375
z: -0.14320342242717743
visibility: 0.993307888507843
","x: 168.58523559570312
y: 246.497802734375
z: -0.14360643923282623
visibility: 0.9736081957817078
","x: 208.88722229003906
y: 369.7215270996094
z: -0.0758490040898323
visibility: 0.9997878074645996
","x: 192.33802795410156
y: 370.7690734863281
z: 0.0758584588766098
visibility: 0.9997090697288513
","x: 207.48919677734375
y: 450.58355712890625
z: -0.08211304247379303
visibility: 0.9912883639335632
","x: 189.98165893554688
y: 451.853271484375
z: 0.05769892781972885
visibility: 0.9761402606964111
","x: 214.9030303955078
y: 529.0055541992188
z: 0.022001225501298904
visibility: 0.9896893501281738
","x: 198.16360473632812
y: 525.7471923828125
z: 0.15435728430747986
visibility: 0.9804058074951172
","x: 219.39617919921875
y: 541.4990844726562
z: 0.025417964905500412
visibility: 0.8882773518562317
","x: 205.00656127929688
y: 538.0591430664062
z: 0.1558247059583664
visibility: 0.9451594352722168
","x: 200.693359375
y: 548.2203979492188
z: -0.084318608045578
visibility: 0.9858571290969849
","x: 183.77853393554688
y: 547.4039306640625
z: 0.06533236801624298
visibility: 0.9803045392036438
","x: 165.2716064453125
y: 249.9990234375
z: 0.0
","x: 169.38919067382812
y: 249.49008178710938
z: -0.000667919812258333
","x: 172.87713623046875
y: 245.9954833984375
z: -0.0009513639961369336
","x: 174.9729461669922
y: 242.01181030273438
z: -0.0018848383333534002
","x: 176.49774169921875
y: 238.84825134277344
z: -0.0023813412990421057
","x: 172.98074340820312
y: 237.7645263671875
z: 0.002906836336478591
","x: 174.67703247070312
y: 232.09713745117188
z: 0.001438500126823783
","x: 174.67279052734375
y: 232.5545654296875
z: 0.00074735441012308
","x: 174.18508911132812
y: 234.68960571289062
z: 0.0006972273113206029
","x: 171.05223083496094
y: 235.59701538085938
z: 0.001896022236905992
","x: 172.59793090820312
y: 229.84469604492188
z: 0.00042292772559449077
","x: 172.48565673828125
y: 231.59979248046875
z: -0.00021688856941182166
","x: 171.8107452392578
y: 234.7437286376953
z: -4.73411409984692e-06
","x: 168.83839416503906
y: 234.4656982421875
z: 0.0002569424395915121
","x: 170.05577087402344
y: 229.47369384765625
z: -0.001088182907551527
","x: 170.03399658203125
y: 231.37884521484375
z: -0.0009724124683998525
","x: 169.56143188476562
y: 234.21798706054688
z: -0.00032823774381540716
","x: 166.3179473876953
y: 234.26210021972656
z: -0.0017663282342255116
","x: 167.3856658935547
y: 230.30885314941406
z: -0.0024529541842639446
","x: 167.6160125732422
y: 231.57711791992188
z: -0.0022142280358821154
","x: 167.38955688476562
y: 233.900634765625
z: -0.0015762581024318933
",,,,,,,,,,,,,,,,,,,,,
2,"x: 190.67784118652344
y: 226.2838592529297
z: -0.1735486090183258
visibility: 0.9999915957450867
","x: 193.25721740722656
y: 218.42689514160156
z: -0.165511354804039
visibility: 0.9999783635139465
","x: 194.58009338378906
y: 218.23126220703125
z: -0.1655803769826889
visibility: 0.9999827742576599
","x: 195.9251708984375
y: 218.14634704589844
z: -0.1656631976366043
visibility: 0.9999827742576599
","x: 190.0579071044922
y: 218.29254150390625
z: -0.14891383051872253
visibility: 0.9999704957008362
","x: 189.15769958496094
y: 218.02903747558594
z: -0.14890262484550476
visibility: 0.9999628663063049
","x: 188.26104736328125
y: 217.83837890625
z: -0.1488448530435562
visibility: 0.9999586343765259
","x: 199.21139526367188
y: 220.42791748046875
z: -0.08843398094177246
visibility: 0.9999916553497314
","x: 189.2328338623047
y: 219.70361328125
z: -0.012834062799811363
visibility: 0.9999184012413025
","x: 193.47706604003906
y: 232.74969482421875
z: -0.1432483047246933
visibility: 0.9999886155128479
","x: 189.416259765625
y: 232.80255126953125
z: -0.1215878278017044
visibility: 0.99996417760849
","x: 214.3321533203125
y: 251.9097137451172
z: -0.08681370317935944
visibility: 0.9999982714653015
","x: 184.37168884277344
y: 258.1102294921875
z: 0.1319970339536667
visibility: 0.9998524785041809
","x: 235.05943298339844
y: 296.3949279785156
z: -0.10147038847208023
visibility: 0.9985657930374146
","x: 172.01461791992188
y: 290.3005065917969
z: 0.07849147170782089
visibility: 0.8690154552459717
","x: 252.99562072753906
y: 332.6197814941406
z: -0.13261158764362335
visibility: 0.9980899691581726
","x: 165.22381591796875
y: 258.50201416015625
z: -0.13425566256046295
visibility: 0.9847458600997925
","x: 261.47845458984375
y: 342.06158447265625
z: -0.1470840871334076
visibility: 0.9953436255455017
","x: 164.8404083251953
y: 247.4645233154297
z: -0.16317248344421387
visibility: 0.9747043251991272
","x: 259.5851135253906
y: 342.8978271484375
z: -0.17697083950042725
visibility: 0.9957606792449951
","x: 166.8835906982422
y: 243.44041442871094
z: -0.16616450250148773
visibility: 0.9773314595222473
","x: 256.2071533203125
y: 340.3812255859375
z: -0.14320342242717743
visibility: 0.993307888507843
","x: 168.58523559570312
y: 246.497802734375
z: -0.14360643923282623
visibility: 0.9736081957817078
","x: 208.88722229003906
y: 369.7215270996094
z: -0.0758490040898323
visibility: 0.9997878074645996
","x: 192.33802795410156
y: 370.7690734863281
z: 0.0758584588766098
visibility: 0.9997090697288513
","x: 207.48919677734375
y: 450.58355712890625
z: -0.08211304247379303
visibility: 0.9912883639335632
","x: 189.98165893554688
y: 451.853271484375
z: 0.05769892781972885
visibility: 0.9761402606964111
","x: 214.9030303955078
y: 529.0055541992188
z: 0.022001225501298904
visibility: 0.9896893501281738
","x: 198.16360473632812
y: 525.7471923828125
z: 0.15435728430747986
visibility: 0.9804058074951172
","x: 219.39617919921875
y: 541.4990844726562
z: 0.025417964905500412
visibility: 0.8882773518562317
","x: 205.00656127929688
y: 538.0591430664062
z: 0.1558247059583664
visibility: 0.9451594352722168
","x: 200.693359375
y: 548.2203979492188
z: -0.084318608045578
visibility: 0.9858571290969849
","x: 183.77853393554688
y: 547.4039306640625
z: 0.06533236801624298
visibility: 0.9803045392036438
","x: 165.2716064453125
y: 249.9990234375
z: 0.0
","x: 169.38919067382812
y: 249.49008178710938
z: -0.000667919812258333
","x: 172.87713623046875
y: 245.9954833984375
z: -0.0009513639961369336
","x: 174.9729461669922
y: 242.01181030273438
z: -0.0018848383333534002
","x: 176.49774169921875
y: 238.84825134277344
z: -0.0023813412990421057
","x: 172.98074340820312
y: 237.7645263671875
z: 0.002906836336478591
","x: 174.67703247070312
y: 232.09713745117188
z: 0.001438500126823783
","x: 174.67279052734375
y: 232.5545654296875
z: 0.00074735441012308
","x: 174.18508911132812
y: 234.68960571289062
z: 0.0006972273113206029
","x: 171.05223083496094
y: 235.59701538085938
z: 0.001896022236905992
","x: 172.59793090820312
y: 229.84469604492188
z: 0.00042292772559449077
","x: 172.48565673828125
y: 231.59979248046875
z: -0.00021688856941182166
","x: 171.8107452392578
y: 234.7437286376953
z: -4.73411409984692e-06
","x: 168.83839416503906
y: 234.4656982421875
z: 0.0002569424395915121
","x: 170.05577087402344
y: 229.47369384765625
z: -0.001088182907551527
","x: 170.03399658203125
y: 231.37884521484375
z: -0.0009724124683998525
","x: 169.56143188476562
y: 234.21798706054688
z: -0.00032823774381540716
","x: 166.3179473876953
y: 234.26210021972656
z: -0.0017663282342255116
","x: 167.3856658935547
y: 230.30885314941406
z: -0.0024529541842639446
","x: 167.6160125732422
y: 231.57711791992188
z: -0.0022142280358821154
","x: 167.38955688476562
y: 233.900634765625
z: -0.0015762581024318933
",,,,,,,,,,,,,,,,,,,,,
3,"x: 196.59954833984375
y: 226.1246337890625
z: -0.1468038707971573
visibility: 0.9999894499778748
","x: 199.0758056640625
y: 217.80194091796875
z: -0.14020991325378418
visibility: 0.9999743700027466
","x: 200.51124572753906
y: 217.38034057617188
z: -0.14029881358146667
visibility: 0.9999801516532898
","x: 201.85711669921875
y: 217.06016540527344
z: -0.14036671817302704
visibility: 0.9999799728393555
","x: 195.16310119628906
y: 218.08908081054688
z: -0.12421681731939316
visibility: 0.9999651908874512
","x: 193.92210388183594
y: 217.8236541748047
z: -0.12419726699590683
visibility: 0.9999572038650513
","x: 192.8635711669922
y: 217.57620239257812
z: -0.12413822114467621
visibility: 0.999951183795929
","x: 204.8553466796875
y: 218.93634033203125
z: -0.06854185461997986
visibility: 0.9999909996986389
","x: 192.81541442871094
y: 218.98191833496094
z: 0.005289829336106777
visibility: 0.9998959302902222
","x: 199.62371826171875
y: 231.83270263671875
z: -0.11763761192560196
visibility: 0.9999864101409912
","x: 194.87698364257812
y: 232.1926727294922
z: -0.09633513540029526
visibility: 0.9999557733535767
","x: 218.60133361816406
y: 250.3243865966797
z: -0.07064796984195709
visibility: 0.9999979734420776
","x: 187.974853515625
y: 258.505126953125
z: 0.14681759476661682
visibility: 0.9998206496238708
","x: 234.71641540527344
y: 299.6861877441406
z: -0.08591616898775101
visibility: 0.9986516237258911
","x: 181.052490234375
y: 297.02569580078125
z: 0.11449827253818512
visibility: 0.8692221641540527
","x: 251.8527374267578
y: 347.47198486328125
z: -0.13111591339111328
visibility: 0.9981811046600342
","x: 166.9890899658203
y: 276.4773254394531
z: -0.09849323332309723
visibility: 0.9855833053588867
","x: 257.1747741699219
y: 359.57220458984375
z: -0.15079785883426666
visibility: 0.9954245090484619
","x: 163.07809448242188
y: 266.87384033203125
z: -0.12744243443012238
visibility: 0.9758619666099548
","x: 254.67636108398438
y: 360.41949462890625
z: -0.17910532653331757
visibility: 0.9958227872848511
","x: 164.90464782714844
y: 260.9853820800781
z: -0.13792023062705994
visibility: 0.9782658815383911
","x: 252.08692932128906
y: 356.06854248046875
z: -0.14096637070178986
visibility: 0.9934331774711609
","x: 166.55648803710938
y: 263.5963134765625
z: -0.11011352390050888
visibility: 0.9743471741676331
","x: 211.84857177734375
y: 366.8318176269531
z: -0.07430239021778107
visibility: 0.9997427463531494
","x: 194.69801330566406
y: 368.3489685058594
z: 0.07435773313045502
visibility: 0.999668300151825
","x: 211.45797729492188
y: 448.7609558105469
z: -0.08271126449108124
visibility: 0.9915963411331177
","x: 193.0701141357422
y: 450.0526428222656
z: 0.05703235790133476
visibility: 0.9758903384208679
","x: 216.608154296875
y: 527.738037109375
z: 0.02150043472647667
visibility: 0.989755392074585
","x: 198.53274536132812
y: 526.9799194335938
z: 0.14767712354660034
visibility: 0.9809167981147766
","x: 220.00411987304688
y: 539.62060546875
z: 0.02484317682683468
visibility: 0.8911044001579285
","x: 205.4425048828125
y: 539.4773559570312
z: 0.149406298995018
visibility: 0.9462910294532776
","x: 203.8090057373047
y: 546.5694580078125
z: -0.08375293761491776
visibility: 0.9859570860862732
","x: 184.08087158203125
y: 547.587646484375
z: 0.058368779718875885
visibility: 0.9805556535720825
","x: 166.73614501953125
y: 277.1706848144531
z: 0.0
","x: 170.47915649414062
y: 273.5586853027344
z: -0.0016401989851146936
","x: 172.96400451660156
y: 266.8935852050781
z: -0.002478888491168618
","x: 174.01968383789062
y: 260.82232666015625
z: -0.0038447612896561623
","x: 174.97512817382812
y: 256.2708740234375
z: -0.00456246780231595
","x: 171.48025512695312
y: 257.7846374511719
z: 0.0006471732049249113
","x: 172.052734375
y: 249.95301818847656
z: -0.0016130164731293917
","x: 171.4770050048828
y: 254.11085510253906
z: -0.0020208649802953005
","x: 171.08782958984375
y: 258.37353515625
z: -0.0017210113583132625
","x: 169.17593383789062
y: 256.9653625488281
z: -8.57273698784411e-05
","x: 169.49853515625
y: 250.1185760498047
z: -0.002268388168886304
","x: 169.091064453125
y: 254.5883331298828
z: -0.0021655946038663387
","x: 168.8974609375
y: 258.4830627441406
z: -0.001281786011531949
","x: 166.91436767578125
y: 257.4251708984375
z: -0.0015115217538550496
","x: 167.05999755859375
y: 251.41744995117188
z: -0.003718493040651083
","x: 167.06016540527344
y: 255.44471740722656
z: -0.002896438352763653
","x: 167.11312866210938
y: 258.8988037109375
z: -0.0015870538773015141
","x: 164.65966796875
y: 258.7127990722656
z: -0.003365171141922474
","x: 165.04576110839844
y: 254.1147003173828
z: -0.00444935355335474
","x: 165.2411651611328
y: 256.7325439453125
z: -0.0037562460638582706
","x: 165.43365478515625
y: 259.47833251953125
z: -0.00263096927665174
",,,,,,,,,,,,,,,,,,,,,
4,"x: 196.59954833984375
y: 226.1246337890625
z: -0.1468038707971573
visibility: 0.9999894499778748
","x: 199.0758056640625
y: 217.80194091796875
z: -0.14020991325378418
visibility: 0.9999743700027466
","x: 200.51124572753906
y: 217.38034057617188
z: -0.14029881358146667
visibility: 0.9999801516532898
","x: 201.85711669921875
y: 217.06016540527344
z: -0.14036671817302704
visibility: 0.9999799728393555
","x: 195.16310119628906
y: 218.08908081054688
z: -0.12421681731939316
visibility: 0.9999651908874512
","x: 193.92210388183594
y: 217.8236541748047
z: -0.12419726699590683
visibility: 0.9999572038650513
","x: 192.8635711669922
y: 217.57620239257812
z: -0.12413822114467621
visibility: 0.999951183795929
","x: 204.8553466796875
y: 218.93634033203125
z: -0.06854185461997986
visibility: 0.9999909996986389
","x: 192.81541442871094
y: 218.98191833496094
z: 0.005289829336106777
visibility: 0.9998959302902222
","x: 199.62371826171875
y: 231.83270263671875
z: -0.11763761192560196
visibility: 0.9999864101409912
","x: 194.87698364257812
y: 232.1926727294922
z: -0.09633513540029526
visibility: 0.9999557733535767
","x: 218.60133361816406
y: 250.3243865966797
z: -0.07064796984195709
visibility: 0.9999979734420776
","x: 187.974853515625
y: 258.505126953125
z: 0.14681759476661682
visibility: 0.9998206496238708
","x: 234.71641540527344
y: 299.6861877441406
z: -0.08591616898775101
visibility: 0.9986516237258911
","x: 181.052490234375
y: 297.02569580078125
z: 0.11449827253818512
visibility: 0.8692221641540527
","x: 251.8527374267578
y: 347.47198486328125
z: -0.13111591339111328
visibility: 0.9981811046600342
","x: 166.9890899658203
y: 276.4773254394531
z: -0.09849323332309723
visibility: 0.9855833053588867
","x: 257.1747741699219
y: 359.57220458984375
z: -0.15079785883426666
visibility: 0.9954245090484619
","x: 163.07809448242188
y: 266.87384033203125
z: -0.12744243443012238
visibility: 0.9758619666099548
","x: 254.67636108398438
y: 360.41949462890625
z: -0.17910532653331757
visibility: 0.9958227872848511
","x: 164.90464782714844
y: 260.9853820800781
z: -0.13792023062705994
visibility: 0.9782658815383911
","x: 252.08692932128906
y: 356.06854248046875
z: -0.14096637070178986
visibility: 0.9934331774711609
","x: 166.55648803710938
y: 263.5963134765625
z: -0.11011352390050888
visibility: 0.9743471741676331
","x: 211.84857177734375
y: 366.8318176269531
z: -0.07430239021778107
visibility: 0.9997427463531494
","x: 194.69801330566406
y: 368.3489685058594
z: 0.07435773313045502
visibility: 0.999668300151825
","x: 211.45797729492188
y: 448.7609558105469
z: -0.08271126449108124
visibility: 0.9915963411331177
","x: 193.0701141357422
y: 450.0526428222656
z: 0.05703235790133476
visibility: 0.9758903384208679
","x: 216.608154296875
y: 527.738037109375
z: 0.02150043472647667
visibility: 0.989755392074585
","x: 198.53274536132812
y: 526.9799194335938
z: 0.14767712354660034
visibility: 0.9809167981147766
","x: 220.00411987304688
y: 539.62060546875
z: 0.02484317682683468
visibility: 0.8911044001579285
","x: 205.4425048828125
y: 539.4773559570312
z: 0.149406298995018
visibility: 0.9462910294532776
","x: 203.8090057373047
y: 546.5694580078125
z: -0.08375293761491776
visibility: 0.9859570860862732
","x: 184.08087158203125
y: 547.587646484375
z: 0.058368779718875885
visibility: 0.9805556535720825
","x: 166.73614501953125
y: 277.1706848144531
z: 0.0
","x: 170.47915649414062
y: 273.5586853027344
z: -0.0016401989851146936
","x: 172.96400451660156
y: 266.8935852050781
z: -0.002478888491168618
","x: 174.01968383789062
y: 260.82232666015625
z: -0.0038447612896561623
","x: 174.97512817382812
y: 256.2708740234375
z: -0.00456246780231595
","x: 171.48025512695312
y: 257.7846374511719
z: 0.0006471732049249113
","x: 172.052734375
y: 249.95301818847656
z: -0.0016130164731293917
","x: 171.4770050048828
y: 254.11085510253906
z: -0.0020208649802953005
","x: 171.08782958984375
y: 258.37353515625
z: -0.0017210113583132625
","x: 169.17593383789062
y: 256.9653625488281
z: -8.57273698784411e-05
","x: 169.49853515625
y: 250.1185760498047
z: -0.002268388168886304
","x: 169.091064453125
y: 254.5883331298828
z: -0.0021655946038663387
","x: 168.8974609375
y: 258.4830627441406
z: -0.001281786011531949
","x: 166.91436767578125
y: 257.4251708984375
z: -0.0015115217538550496
","x: 167.05999755859375
y: 251.41744995117188
z: -0.003718493040651083
","x: 167.06016540527344
y: 255.44471740722656
z: -0.002896438352763653
","x: 167.11312866210938
y: 258.8988037109375
z: -0.0015870538773015141
","x: 164.65966796875
y: 258.7127990722656
z: -0.003365171141922474
","x: 165.04576110839844
y: 254.1147003173828
z: -0.00444935355335474
","x: 165.2411651611328
y: 256.7325439453125
z: -0.0037562460638582706
","x: 165.43365478515625
y: 259.47833251953125
z: -0.00263096927665174
",,,,,,,,,,,,,,,,,,,,,
5,"x: 201.2244873046875
y: 224.8654022216797
z: -0.13525524735450745
visibility: 0.9999850392341614
","x: 203.09906005859375
y: 216.37982177734375
z: -0.1326785534620285
visibility: 0.9999687671661377
","x: 204.467041015625
y: 215.73406982421875
z: -0.1327623426914215
visibility: 0.999975323677063
","x: 205.80868530273438
y: 215.2295684814453
z: -0.13281351327896118
visibility: 0.9999761581420898
","x: 199.72833251953125
y: 217.191650390625
z: -0.12184739112854004
visibility: 0.9999567866325378
","x: 198.8463134765625
y: 217.00192260742188
z: -0.12178393453359604
visibility: 0.9999447464942932
","x: 198.06155395507812
y: 216.82223510742188
z: -0.12179987132549286
visibility: 0.9999379515647888
","x: 209.5803680419922
y: 216.79930114746094
z: -0.07794848084449768
visibility: 0.9999897480010986
","x: 199.53468322753906
y: 217.81582641601562
z: 0.01205481868237257
visibility: 0.9998712539672852
","x: 204.87840270996094
y: 230.06246948242188
z: -0.10993250459432602
visibility: 0.999984860420227
","x: 200.85044860839844
y: 230.75685119628906
z: -0.09084060788154602
visibility: 0.9999489188194275
","x: 225.06971740722656
y: 249.83262634277344
z: -0.08785326033830643
visibility: 0.9999977350234985
","x: 195.9957733154297
y: 256.7560119628906
z: 0.14702901244163513
visibility: 0.999801754951477
","x: 238.21604919433594
y: 300.4619445800781
z: -0.142634779214859
visibility: 0.9986900687217712
","x: 194.32876586914062
y: 300.5223388671875
z: 0.18742236495018005
visibility: 0.8309221267700195
","x: 230.71376037597656
y: 343.9404602050781
z: -0.21101585030555725
visibility: 0.9980994462966919
","x: 173.99679565429688
y: 306.0376892089844
z: 0.04105593264102936
visibility: 0.9789877533912659
","x: 227.61166381835938
y: 353.0185241699219
z: -0.23851676285266876
visibility: 0.9951602816581726
","x: 167.42823791503906
y: 308.92724609375
z: 0.017615551128983498
visibility: 0.9687232375144958
","x: 225.32542419433594
y: 349.30987548828125
z: -0.27550405263900757
visibility: 0.9954973459243774
","x: 166.88998413085938
y: 301.7944641113281
z: -0.013629321940243244
visibility: 0.9720195531845093
","x: 225.49148559570312
y: 343.97393798828125
z: -0.2283894568681717
visibility: 0.9927940368652344
","x: 169.4250946044922
y: 300.4451904296875
z: 0.022292738780379295
visibility: 0.9670154452323914
","x: 215.2561798095703
y: 366.17413330078125
z: -0.07309985160827637
visibility: 0.9996653199195862
","x: 197.03948974609375
y: 366.35150146484375
z: 0.0731840655207634
visibility: 0.9995786547660828
","x: 214.75375366210938
y: 448.31427001953125
z: -0.0886969193816185
visibility: 0.9916106462478638
","x: 195.14520263671875
y: 449.08642578125
z: 0.04823892191052437
visibility: 0.9758356809616089
","x: 217.28729248046875
y: 527.5951538085938
z: 0.004385225474834442
visibility: 0.9893629550933838
","x: 198.77645874023438
y: 526.8427734375
z: 0.1305200159549713
visibility: 0.9811747074127197
","x: 220.2803192138672
y: 539.6737060546875
z: 0.0043950495310127735
visibility: 0.8907066583633423
","x: 205.4070587158203
y: 539.06689453125
z: 0.12948328256607056
visibility: 0.9470058679580688
","x: 204.25289916992188
y: 545.6107177734375
z: -0.10492117702960968
visibility: 0.9849534630775452
","x: 184.16270446777344
y: 547.5847778320312
z: 0.03604502230882645
visibility: 0.9799940586090088
",,,,,,,,,,,,,,,,,,,,,,,,,,,,,,,,,,,,,,,,,,
6,"x: 204.637939453125
y: 225.632080078125
z: -0.1545591801404953
visibility: 0.9999828934669495
","x: 206.09976196289062
y: 217.040283203125
z: -0.15382207930088043
visibility: 0.9999654293060303
","x: 207.60665893554688
y: 216.51162719726562
z: -0.15389764308929443
visibility: 0.9999716877937317
","x: 209.0902862548828
y: 216.0247039794922
z: -0.15397889912128448
visibility: 0.9999731183052063
","x: 202.7477264404297
y: 217.249267578125
z: -0.13752475380897522
visibility: 0.9999533891677856
","x: 201.9623565673828
y: 217.24490356445312
z: -0.13748620450496674
visibility: 0.9999394416809082
","x: 201.23683166503906
y: 217.23463439941406
z: -0.13746099174022675
visibility: 0.999933123588562
","x: 213.01058959960938
y: 216.83969116210938
z: -0.09324120730161667
visibility: 0.9999886155128479
","x: 202.5200958251953
y: 217.89874267578125
z: -0.011540244333446026
visibility: 0.999866783618927
","x: 209.03269958496094
y: 230.90463256835938
z: -0.12745971977710724
visibility: 0.999984860420227
","x: 205.24432373046875
y: 231.53390502929688
z: -0.10497166216373444
visibility: 0.9999496340751648
","x: 230.37478637695312
y: 250.15821838378906
z: -0.07712779939174652
visibility: 0.9999977350234985
","x: 198.35423278808594
y: 256.20330810546875
z: 0.11908602714538574
visibility: 0.999812126159668
","x: 244.34283447265625
y: 300.2264099121094
z: -0.12128493934869766
visibility: 0.9987366795539856
","x: 194.23269653320312
y: 300.8545227050781
z: 0.15792344510555267
visibility: 0.8114818930625916
","x: 230.5070343017578
y: 331.3534240722656
z: -0.20521819591522217
visibility: 0.9979405999183655
","x: 185.0777587890625
y: 337.4154052734375
z: 0.03534181788563728
visibility: 0.9701336622238159
","x: 226.33026123046875
y: 340.4002685546875
z: -0.2420126497745514
visibility: 0.9946049451828003
","x: 182.99801635742188
y: 349.4601135253906
z: -0.00864233449101448
visibility: 0.9573989510536194
","x: 223.83616638183594
y: 331.1534423828125
z: -0.25110357999801636
visibility: 0.9948738217353821
","x: 183.14480590820312
y: 346.4776611328125
z: -0.05069923400878906
visibility: 0.9609107971191406
","x: 224.42404174804688
y: 327.978271484375
z: -0.20819219946861267
visibility: 0.9915778636932373
","x: 184.87176513671875
y: 341.62921142578125
z: 0.018861763179302216
visibility: 0.9542047381401062
","x: 219.2553253173828
y: 365.0252685546875
z: -0.07128722220659256
visibility: 0.9996412396430969
","x: 199.1359405517578
y: 364.2161560058594
z: 0.07144804298877716
visibility: 0.9995471835136414
","x: 216.0951690673828
y: 447.88037109375
z: -0.08526091277599335
visibility: 0.991858720779419
","x: 195.84278869628906
y: 448.0863952636719
z: 0.04700572043657303
visibility: 0.9758475422859192
","x: 217.01632690429688
y: 527.751220703125
z: 0.0029567379970103502
visibility: 0.9896443486213684
","x: 201.9561309814453
y: 526.8035278320312
z: 0.1335645616054535
visibility: 0.9815646409988403
","x: 220.3602294921875
y: 539.64453125
z: 0.00231171865016222
visibility: 0.8931189179420471
","x: 207.07188415527344
y: 538.7349853515625
z: 0.13331195712089539
visibility: 0.9477963447570801
","x: 203.91693115234375
y: 546.2265625
z: -0.11552596092224121
visibility: 0.9850738644599915
","x: 188.09515380859375
y: 547.648681640625
z: 0.036156460642814636
visibility: 0.9800084233283997
",,,,,,,,,,,,,,,,,,,,,,"x: 232.10800170898438
y: 324.48046875
z: 0.0
","x: 229.13235473632812
y: 320.93658447265625
z: -0.0016144945984706283
","x: 225.92630004882812
y: 319.8639831542969
z: -0.004294485319405794
","x: 223.346435546875
y: 318.6982421875
z: -0.007647512946277857
","x: 221.0940399169922
y: 315.827880859375
z: -0.010661011561751366
","x: 220.7665557861328
y: 328.5548400878906
z: -0.004383260849863291
","x: 219.9427032470703
y: 322.38720703125
z: -0.009217294864356518
","x: 221.88421630859375
y: 319.26837158203125
z: -0.011558892205357552
","x: 223.84515380859375
y: 318.1512756347656
z: -0.012631077319383621
","x: 221.44873046875
y: 330.56207275390625
z: -0.006366739049553871
","x: 221.05697631835938
y: 322.6820068359375
z: -0.011679140850901604
","x: 223.71417236328125
y: 317.60760498046875
z: -0.012330163270235062
","x: 226.00103759765625
y: 315.3555603027344
z: -0.012121543288230896
","x: 223.01841735839844
y: 331.5762634277344
z: -0.0087083475664258
","x: 222.63995361328125
y: 323.6580810546875
z: -0.01362443994730711
","x: 225.0567169189453
y: 318.95361328125
z: -0.012655826285481453
","x: 227.06053161621094
y: 316.9573059082031
z: -0.011211821809411049
","x: 225.1963348388672
y: 331.70318603515625
z: -0.011398871429264545
","x: 224.75579833984375
y: 325.41815185546875
z: -0.014738054946064949
","x: 226.56515502929688
y: 321.9122009277344
z: -0.013857685029506683
","x: 228.2858428955078
y: 320.4281005859375
z: -0.012457962147891521
"
7,"x: 204.637939453125
y: 225.632080078125
z: -0.1545591801404953
visibility: 0.9999828934669495
","x: 206.09976196289062
y: 217.040283203125
z: -0.15382207930088043
visibility: 0.9999654293060303
","x: 207.60665893554688
y: 216.51162719726562
z: -0.15389764308929443
visibility: 0.9999716877937317
","x: 209.0902862548828
y: 216.0247039794922
z: -0.15397889912128448
visibility: 0.9999731183052063
","x: 202.7477264404297
y: 217.249267578125
z: -0.13752475380897522
visibility: 0.9999533891677856
","x: 201.9623565673828
y: 217.24490356445312
z: -0.13748620450496674
visibility: 0.9999394416809082
","x: 201.23683166503906
y: 217.23463439941406
z: -0.13746099174022675
visibility: 0.999933123588562
","x: 213.01058959960938
y: 216.83969116210938
z: -0.09324120730161667
visibility: 0.9999886155128479
","x: 202.5200958251953
y: 217.89874267578125
z: -0.011540244333446026
visibility: 0.999866783618927
","x: 209.03269958496094
y: 230.90463256835938
z: -0.12745971977710724
visibility: 0.999984860420227
","x: 205.24432373046875
y: 231.53390502929688
z: -0.10497166216373444
visibility: 0.9999496340751648
","x: 230.37478637695312
y: 250.15821838378906
z: -0.07712779939174652
visibility: 0.9999977350234985
","x: 198.35423278808594
y: 256.20330810546875
z: 0.11908602714538574
visibility: 0.999812126159668
","x: 244.34283447265625
y: 300.2264099121094
z: -0.12128493934869766
visibility: 0.9987366795539856
","x: 194.23269653320312
y: 300.8545227050781
z: 0.15792344510555267
visibility: 0.8114818930625916
","x: 230.5070343017578
y: 331.3534240722656
z: -0.20521819591522217
visibility: 0.9979405999183655
","x: 185.0777587890625
y: 337.4154052734375
z: 0.03534181788563728
visibility: 0.9701336622238159
","x: 226.33026123046875
y: 340.4002685546875
z: -0.2420126497745514
visibility: 0.9946049451828003
","x: 182.99801635742188
y: 349.4601135253906
z: -0.00864233449101448
visibility: 0.9573989510536194
","x: 223.83616638183594
y: 331.1534423828125
z: -0.25110357999801636
visibility: 0.9948738217353821
","x: 183.14480590820312
y: 346.4776611328125
z: -0.05069923400878906
visibility: 0.9609107971191406
","x: 224.42404174804688
y: 327.978271484375
z: -0.20819219946861267
visibility: 0.9915778636932373
","x: 184.87176513671875
y: 341.62921142578125
z: 0.018861763179302216
visibility: 0.9542047381401062
","x: 219.2553253173828
y: 365.0252685546875
z: -0.07128722220659256
visibility: 0.9996412396430969
","x: 199.1359405517578
y: 364.2161560058594
z: 0.07144804298877716
visibility: 0.9995471835136414
","x: 216.0951690673828
y: 447.88037109375
z: -0.08526091277599335
visibility: 0.991858720779419
","x: 195.84278869628906
y: 448.0863952636719
z: 0.04700572043657303
visibility: 0.9758475422859192
","x: 217.01632690429688
y: 527.751220703125
z: 0.0029567379970103502
visibility: 0.9896443486213684
","x: 201.9561309814453
y: 526.8035278320312
z: 0.1335645616054535
visibility: 0.9815646409988403
","x: 220.3602294921875
y: 539.64453125
z: 0.00231171865016222
visibility: 0.8931189179420471
","x: 207.07188415527344
y: 538.7349853515625
z: 0.13331195712089539
visibility: 0.9477963447570801
","x: 203.91693115234375
y: 546.2265625
z: -0.11552596092224121
visibility: 0.9850738644599915
","x: 188.09515380859375
y: 547.648681640625
z: 0.036156460642814636
visibility: 0.9800084233283997
",,,,,,,,,,,,,,,,,,,,,,"x: 232.10800170898438
y: 324.48046875
z: 0.0
","x: 229.13235473632812
y: 320.93658447265625
z: -0.0016144945984706283
","x: 225.92630004882812
y: 319.8639831542969
z: -0.004294485319405794
","x: 223.346435546875
y: 318.6982421875
z: -0.007647512946277857
","x: 221.0940399169922
y: 315.827880859375
z: -0.010661011561751366
","x: 220.7665557861328
y: 328.5548400878906
z: -0.004383260849863291
","x: 219.9427032470703
y: 322.38720703125
z: -0.009217294864356518
","x: 221.88421630859375
y: 319.26837158203125
z: -0.011558892205357552
","x: 223.84515380859375
y: 318.1512756347656
z: -0.012631077319383621
","x: 221.44873046875
y: 330.56207275390625
z: -0.006366739049553871
","x: 221.05697631835938
y: 322.6820068359375
z: -0.011679140850901604
","x: 223.71417236328125
y: 317.60760498046875
z: -0.012330163270235062
","x: 226.00103759765625
y: 315.3555603027344
z: -0.012121543288230896
","x: 223.01841735839844
y: 331.5762634277344
z: -0.0087083475664258
","x: 222.63995361328125
y: 323.6580810546875
z: -0.01362443994730711
","x: 225.0567169189453
y: 318.95361328125
z: -0.012655826285481453
","x: 227.06053161621094
y: 316.9573059082031
z: -0.011211821809411049
","x: 225.1963348388672
y: 331.70318603515625
z: -0.011398871429264545
","x: 224.75579833984375
y: 325.41815185546875
z: -0.014738054946064949
","x: 226.56515502929688
y: 321.9122009277344
z: -0.013857685029506683
","x: 228.2858428955078
y: 320.4281005859375
z: -0.012457962147891521
"
8,"x: 205.71408081054688
y: 226.00843811035156
z: -0.17781580984592438
visibility: 0.9999706149101257
","x: 207.33863830566406
y: 217.57460021972656
z: -0.17559313774108887
visibility: 0.9999380111694336
","x: 208.6985321044922
y: 216.90870666503906
z: -0.1756671667098999
visibility: 0.9999511241912842
","x: 210.11265563964844
y: 216.27804565429688
z: -0.175746351480484
visibility: 0.999954104423523
","x: 204.48895263671875
y: 217.96730041503906
z: -0.16190926730632782
visibility: 0.9999141693115234
","x: 203.89010620117188
y: 217.86573791503906
z: -0.16186730563640594
visibility: 0.9998893737792969
","x: 203.32566833496094
y: 217.7554473876953
z: -0.16183990240097046
visibility: 0.9998663067817688
","x: 214.48292541503906
y: 217.12457275390625
z: -0.11123055219650269
visibility: 0.999979555606842
","x: 205.2011260986328
y: 218.17160034179688
z: -0.045268464833498
visibility: 0.9997349977493286
","x: 209.90245056152344
y: 231.2061309814453
z: -0.14954595267772675
visibility: 0.9999788403511047
","x: 206.15481567382812
y: 231.87722778320312
z: -0.1308557242155075
visibility: 0.9999275803565979
","x: 233.18661499023438
y: 253.18377685546875
z: -0.08680470287799835
visibility: 0.9999973177909851
","x: 199.53269958496094
y: 256.582275390625
z: 0.07239947468042374
visibility: 0.9997900724411011
","x: 241.87147521972656
y: 308.94525146484375
z: -0.08734997361898422
visibility: 0.9985455274581909
","x: 200.20352172851562
y: 304.40283203125
z: 0.11931101977825165
visibility: 0.7604995369911194
","x: 230.06103515625
y: 345.09637451171875
z: -0.13264839351177216
visibility: 0.9969072937965393
","x: 192.51675415039062
y: 340.8314514160156
z: 0.005094040650874376
visibility: 0.928889274597168
","x: 227.6378936767578
y: 356.7755126953125
z: -0.16092903912067413
visibility: 0.9923770427703857
","x: 190.69834899902344
y: 350.3780517578125
z: -0.027473121881484985
visibility: 0.9166544675827026
","x: 225.1190643310547
y: 351.2498779296875
z: -0.1796395182609558
visibility: 0.9926444292068481
","x: 191.37303161621094
y: 348.70318603515625
z: -0.05906992405653
visibility: 0.9214001297950745
","x: 225.1038818359375
y: 347.01617431640625
z: -0.1387031525373459
visibility: 0.9883002042770386
","x: 192.78599548339844
y: 344.09429931640625
z: -0.011129816994071007
visibility: 0.9124364256858826
","x: 219.76971435546875
y: 365.87396240234375
z: -0.05632009357213974
visibility: 0.9996252059936523
","x: 199.74029541015625
y: 364.7127685546875
z: 0.05646844953298569
visibility: 0.9994899034500122
","x: 218.5955047607422
y: 447.9254455566406
z: -0.06112553924322128
visibility: 0.9922977089881897
","x: 197.2594757080078
y: 448.2984924316406
z: 0.06046472117304802
visibility: 0.9769546985626221
","x: 218.3379669189453
y: 527.859130859375
z: 0.030671749264001846
visibility: 0.990271806716919
","x: 202.22381591796875
y: 524.470703125
z: 0.1598169356584549
visibility: 0.9826711416244507
","x: 221.0579376220703
y: 539.847412109375
z: 0.03135226294398308
visibility: 0.8947872519493103
","x: 207.0301513671875
y: 535.3992919921875
z: 0.16202452778816223
visibility: 0.9490245580673218
","x: 205.5245819091797
y: 546.755615234375
z: -0.09148535132408142
visibility: 0.9857290387153625
","x: 190.19642639160156
y: 546.8575439453125
z: 0.06622332334518433
visibility: 0.9810132384300232
",,,,,,,,,,,,,,,,,,,,,,,,,,,,,,,,,,,,,,,,,,
9,"x: 205.452880859375
y: 225.7992706298828
z: -0.17006763815879822
visibility: 0.999963641166687
","x: 207.4586181640625
y: 217.62330627441406
z: -0.1708238273859024
visibility: 0.9999202489852905
","x: 208.81039428710938
y: 216.76870727539062
z: -0.17090387642383575
visibility: 0.9999384880065918
","x: 210.23348999023438
y: 215.93478393554688
z: -0.17098528146743774
visibility: 0.9999424815177917
","x: 204.4548797607422
y: 218.3917236328125
z: -0.15418043732643127
visibility: 0.9998927116394043
","x: 203.7765655517578
y: 218.27700805664062
z: -0.1541394591331482
visibility: 0.9998624324798584
","x: 203.12933349609375
y: 218.14187622070312
z: -0.15412378311157227
visibility: 0.9998310208320618
","x: 214.75094604492188
y: 216.59701538085938
z: -0.1201540008187294
visibility: 0.999971866607666
","x: 205.19480895996094
y: 218.45101928710938
z: -0.04021469131112099
visibility: 0.999653160572052
","x: 209.4544219970703
y: 230.63699340820312
z: -0.14648370444774628
visibility: 0.9999722242355347
","x: 205.41107177734375
y: 231.44529724121094
z: -0.12387949228286743
visibility: 0.9999078512191772
","x: 233.46432495117188
y: 253.38229370117188
z: -0.10886695235967636
visibility: 0.9999970197677612
","x: 199.1902313232422
y: 255.86721801757812
z: 0.07751812040805817
visibility: 0.9997780323028564
","x: 240.63177490234375
y: 311.6696472167969
z: -0.08807389438152313
visibility: 0.9984228610992432
","x: 198.42666625976562
y: 307.3796691894531
z: 0.12626269459724426
visibility: 0.7145532369613647
","x: 230.92112731933594
y: 358.70892333984375
z: -0.15569934248924255
visibility: 0.9963538646697998
","x: 191.92425537109375
y: 345.7568054199219
z: 0.0253605954349041
visibility: 0.8956255912780762
","x: 229.41746520996094
y: 372.2283935546875
z: -0.18385855853557587
visibility: 0.9913210272789001
","x: 191.3184356689453
y: 360.3294677734375
z: 0.004079840146005154
visibility: 0.8824902772903442
","x: 227.67745971679688
y: 370.622802734375
z: -0.20884759724140167
visibility: 0.9916375875473022
","x: 192.0558624267578
y: 358.4838562011719
z: -0.030025020241737366
visibility: 0.8888024687767029
","x: 227.70533752441406
y: 366.127685546875
z: -0.164869025349617
visibility: 0.9867913722991943
","x: 193.15480041503906
y: 352.97528076171875
z: 0.00771563034504652
visibility: 0.8772713541984558
","x: 221.17771911621094
y: 365.70745849609375
z: -0.05852450057864189
visibility: 0.9996196031570435
","x: 200.39730834960938
y: 364.6270446777344
z: 0.058658622205257416
visibility: 0.9994644522666931
","x: 219.78884887695312
y: 446.9027099609375
z: -0.06784944236278534
visibility: 0.9928510785102844
","x: 196.60816955566406
y: 447.34124755859375
z: 0.07400820404291153
visibility: 0.9781937003135681
","x: 219.31460571289062
y: 527.94970703125
z: -0.022792866453528404
visibility: 0.991011917591095
","x: 198.2850341796875
y: 521.7224731445312
z: 0.1663009524345398
visibility: 0.983849823474884
","x: 222.02346801757812
y: 539.9224853515625
z: -0.025150220841169357
visibility: 0.9004614353179932
","x: 203.1686553955078
y: 533.4007568359375
z: 0.1678537279367447
visibility: 0.9514315128326416
","x: 205.29428100585938
y: 547.0220336914062
z: -0.14896968007087708
visibility: 0.9866906404495239
","x: 183.7002410888672
y: 541.4443359375
z: 0.07795773446559906
visibility: 0.9821941256523132
",,,,,,,,,,,,,,,,,,,,,,,,,,,,,,,,,,,,,,,,,,
10,"x: 205.07736206054688
y: 226.06321716308594
z: -0.1597876250743866
visibility: 0.9999662637710571
","x: 207.10484313964844
y: 217.87881469726562
z: -0.15821772813796997
visibility: 0.9999250769615173
","x: 208.5620880126953
y: 217.02317810058594
z: -0.15829512476921082
visibility: 0.9999422430992126
","x: 210.00282287597656
y: 216.19009399414062
z: -0.15836118161678314
visibility: 0.9999459981918335
","x: 203.72105407714844
y: 218.69300842285156
z: -0.14233022928237915
visibility: 0.9998995065689087
","x: 202.7989959716797
y: 218.56781005859375
z: -0.1422935128211975
visibility: 0.9998712539672852
","x: 201.93218994140625
y: 218.42225646972656
z: -0.14226533472537994
visibility: 0.999841570854187
","x: 214.5416259765625
y: 216.55763244628906
z: -0.09954206645488739
visibility: 0.9999731183052063
","x: 203.85348510742188
y: 218.652099609375
z: -0.0246792770922184
visibility: 0.9996739029884338
","x: 208.59439086914062
y: 230.9359588623047
z: -0.13413068652153015
visibility: 0.9999740123748779
","x: 204.73947143554688
y: 231.7366180419922
z: -0.11266528069972992
visibility: 0.9999141097068787
","x: 232.67636108398438
y: 253.69802856445312
z: -0.0965271145105362
visibility: 0.9999971985816956
","x: 198.15509033203125
y: 255.04180908203125
z: 0.08728446066379547
visibility: 0.9997944831848145
","x: 243.67100524902344
y: 310.6600646972656
z: -0.07688795775175095
visibility: 0.9984990358352661
","x: 193.45034790039062
y: 305.2634582519531
z: 0.12292947620153427
visibility: 0.7217226624488831
","x: 247.84544372558594
y: 356.3473205566406
z: -0.1557552069425583
visibility: 0.9965516328811646
","x: 184.69656372070312
y: 343.387939453125
z: 0.006665942259132862
visibility: 0.9006718397140503
","x: 248.12246704101562
y: 369.7448425292969
z: -0.18582746386528015
visibility: 0.9917687177658081
","x: 182.37594604492188
y: 356.1427001953125
z: -0.016743050888180733
visibility: 0.8868314027786255
","x: 244.5218505859375
y: 368.7434387207031
z: -0.2150028645992279
visibility: 0.9920815229415894
","x: 182.80984497070312
y: 354.76275634765625
z: -0.0573224239051342
visibility: 0.8930204510688782
","x: 243.77752685546875
y: 364.13287353515625
z: -0.16711188852787018
visibility: 0.987463653087616
","x: 184.4881134033203
y: 350.7518005371094
z: -0.01192893274128437
visibility: 0.8811119794845581
","x: 220.76817321777344
y: 366.08514404296875
z: -0.056330401450395584
visibility: 0.9996367692947388
","x: 200.04249572753906
y: 363.89666748046875
z: 0.0564388707280159
visibility: 0.9994808435440063
","x: 219.67791748046875
y: 447.09112548828125
z: -0.08124569058418274
visibility: 0.9932870864868164
","x: 195.8385772705078
y: 446.18634033203125
z: 0.06130502372980118
visibility: 0.9793648719787598
","x: 219.3907470703125
y: 528.1598510742188
z: -0.044380661100149155
visibility: 0.9915760159492493
","x: 194.3347930908203
y: 521.0048828125
z: 0.1614639014005661
visibility: 0.9847267866134644
","x: 222.23263549804688
y: 541.3196411132812
z: -0.04796396195888519
visibility: 0.9030355215072632
","x: 197.0208282470703
y: 532.4921264648438
z: 0.1666974276304245
visibility: 0.9521030783653259
","x: 205.10043334960938
y: 547.5390014648438
z: -0.17588813602924347
visibility: 0.9873629212379456
","x: 179.41729736328125
y: 540.6263427734375
z: 0.06712634861469269
visibility: 0.9829939603805542
",,,,,,,,,,,,,,,,,,,,,,,,,,,,,,,,,,,,,,,,,,
11,"x: 204.8104248046875
y: 226.2438201904297
z: -0.15368112921714783
visibility: 0.9999688267707825
","x: 206.54324340820312
y: 218.035888671875
z: -0.1526583731174469
visibility: 0.9999300837516785
","x: 207.96612548828125
y: 217.18133544921875
z: -0.15272457897663116
visibility: 0.999945878982544
","x: 209.34786987304688
y: 216.35427856445312
z: -0.1527843177318573
visibility: 0.99994957447052
","x: 203.02450561523438
y: 218.85531616210938
z: -0.1371414065361023
visibility: 0.9999063611030579
","x: 201.9850616455078
y: 218.71832275390625
z: -0.13707812130451202
visibility: 0.9998798370361328
","x: 201.04330444335938
y: 218.5574493408203
z: -0.13702377676963806
visibility: 0.9998524188995361
","x: 213.46331787109375
y: 216.5713348388672
z: -0.08925743401050568
visibility: 0.9999746680259705
","x: 202.49771118164062
y: 218.8034210205078
z: -0.015656623989343643
visibility: 0.9996955990791321
","x: 208.0382080078125
y: 231.12867736816406
z: -0.12503722310066223
visibility: 0.9999759793281555
","x: 204.2487030029297
y: 231.9366455078125
z: -0.10407179594039917
visibility: 0.9999208450317383
","x: 231.46875
y: 251.8366241455078
z: -0.06817872822284698
visibility: 0.9999974370002747
","x: 196.57078552246094
y: 253.43240356445312
z: 0.09914836287498474
visibility: 0.9998108148574829
","x: 247.13613891601562
y: 303.1754455566406
z: -0.06469528377056122
visibility: 0.9986013770103455
","x: 191.4820556640625
y: 301.9411926269531
z: 0.15512517094612122
visibility: 0.7274749279022217
","x: 254.31622314453125
y: 351.3281555175781
z: -0.14719119668006897
visibility: 0.9967925548553467
","x: 180.5979461669922
y: 339.9412841796875
z: 0.024062184616923332
visibility: 0.9063371419906616
","x: 254.44845581054688
y: 363.66839599609375
z: -0.17944394052028656
visibility: 0.9922963380813599
","x: 177.41343688964844
y: 350.8511962890625
z: -0.001864973222836852
visibility: 0.8921979069709778
","x: 250.40591430664062
y: 362.22589111328125
z: -0.2092994898557663
visibility: 0.9926021695137024
","x: 177.7129364013672
y: 349.04351806640625
z: -0.03702692687511444
visibility: 0.898303210735321
","x: 249.73365783691406
y: 358.1405029296875
z: -0.15889835357666016
visibility: 0.9882621765136719
","x: 179.64222717285156
y: 345.5293273925781
z: 0.0055771940387785435
visibility: 0.8864831924438477
","x: 219.56698608398438
y: 366.2681579589844
z: -0.05776847526431084
visibility: 0.9996499419212341
","x: 199.4463348388672
y: 364.011962890625
z: 0.05787878483533859
visibility: 0.9994983673095703
","x: 217.9537353515625
y: 447.64727783203125
z: -0.07279801368713379
visibility: 0.9936656355857849
","x: 195.4739227294922
y: 446.06085205078125
z: 0.056218259036540985
visibility: 0.9805850386619568
","x: 219.0465087890625
y: 528.0541381835938
z: -0.004153709392994642
visibility: 0.9920498728752136
","x: 194.44583129882812
y: 520.8189697265625
z: 0.15639226138591766
visibility: 0.9856370687484741
","x: 221.77951049804688
y: 541.1443481445312
z: -0.005595568101853132
visibility: 0.9056042432785034
","x: 197.24566650390625
y: 532.0214233398438
z: 0.16187787055969238
visibility: 0.9535556435585022
","x: 205.2006072998047
y: 547.80859375
z: -0.13600276410579681
visibility: 0.9879137873649597
","x: 178.81150817871094
y: 540.6846923828125
z: 0.06258682906627655
visibility: 0.9838476181030273
",,,,,,,,,,,,,,,,,,,,,,,,,,,,,,,,,,,,,,,,,,
12,"x: 203.76185607910156
y: 226.29788208007812
z: -0.15242093801498413
visibility: 0.9999712705612183
","x: 205.83261108398438
y: 218.149658203125
z: -0.15027357637882233
visibility: 0.9999342560768127
","x: 207.40170288085938
y: 217.31378173828125
z: -0.1503497064113617
visibility: 0.9999491572380066
","x: 209.0728759765625
y: 216.495361328125
z: -0.15040968358516693
visibility: 0.9999525547027588
","x: 202.15252685546875
y: 218.90892028808594
z: -0.1344694197177887
visibility: 0.9999120235443115
","x: 201.12158203125
y: 218.8600311279297
z: -0.13441970944404602
visibility: 0.9998874068260193
","x: 200.21136474609375
y: 218.75149536132812
z: -0.1343759149312973
visibility: 0.9998617172241211
","x: 213.1746368408203
y: 216.66897583007812
z: -0.08901779353618622
visibility: 0.9999756813049316
","x: 201.671630859375
y: 218.99351501464844
z: -0.013729291968047619
visibility: 0.9997144341468811
","x: 207.0310821533203
y: 231.22854614257812
z: -0.1259012371301651
visibility: 0.9999774694442749
","x: 202.9945068359375
y: 231.98516845703125
z: -0.10436028242111206
visibility: 0.9999259114265442
","x: 230.814208984375
y: 253.61776733398438
z: -0.0772443637251854
visibility: 0.9999975562095642
","x: 195.1109619140625
y: 253.87966918945312
z: 0.1012396588921547
visibility: 0.9998245239257812
","x: 244.7933807373047
y: 307.9787292480469
z: -0.08090145885944366
visibility: 0.9986559152603149
","x: 184.74371337890625
y: 302.0655212402344
z: 0.15764839947223663
visibility: 0.7355238199234009
","x: 254.97402954101562
y: 351.4100341796875
z: -0.16688476502895355
visibility: 0.996863842010498
","x: 169.4029998779297
y: 340.1077880859375
z: 0.05029348284006119
visibility: 0.9117399454116821
","x: 258.3054504394531
y: 363.7135009765625
z: -0.19635429978370667
visibility: 0.9923889636993408
","x: 164.12046813964844
y: 349.85308837890625
z: 0.02924831211566925
visibility: 0.8966449499130249
","x: 256.1851501464844
y: 363.37567138671875
z: -0.2274564802646637
visibility: 0.9927481412887573
","x: 164.202392578125
y: 347.7450866699219
z: -0.0067722671665251255
visibility: 0.9028769731521606
","x: 254.48770141601562
y: 359.1825866699219
z: -0.17976149916648865
visibility: 0.9885990619659424
","x: 165.74139404296875
y: 345.18023681640625
z: 0.030837753787636757
visibility: 0.8915667533874512
","x: 216.444580078125
y: 366.8869323730469
z: -0.06371673196554184
visibility: 0.9996513724327087
","x: 198.78001403808594
y: 364.3634033203125
z: 0.06376085430383682
visibility: 0.9995107054710388
","x: 210.98953247070312
y: 447.671142578125
z: -0.07790312170982361
visibility: 0.9937785863876343
","x: 193.35784912109375
y: 444.58721923828125
z: 0.05497729778289795
visibility: 0.9812344908714294
","x: 218.71070861816406
y: 527.2047119140625
z: -0.0027088152710348368
visibility: 0.9924237728118896
","x: 194.77780151367188
y: 519.743896484375
z: 0.1534222662448883
visibility: 0.986172080039978
","x: 222.63853454589844
y: 540.42822265625
z: -0.0034078333992511034
visibility: 0.9078227281570435
","x: 197.721435546875
y: 530.9381103515625
z: 0.1572057008743286
visibility: 0.9547668099403381
","x: 204.89102172851562
y: 547.94921875
z: -0.1285514533519745
visibility: 0.9883876442909241
","x: 177.60763549804688
y: 539.8399658203125
z: 0.0663849413394928
visibility: 0.9844473004341125
",,,,,,,,,,,,,,,,,,,,,,,,,,,,,,,,,,,,,,,,,,
13,"x: 201.25930786132812
y: 225.66470336914062
z: -0.15175239741802216
visibility: 0.999973475933075
","x: 202.69851684570312
y: 217.5696563720703
z: -0.14396119117736816
visibility: 0.9999386072158813
","x: 203.9031219482422
y: 216.70953369140625
z: -0.14404280483722687
visibility: 0.9999525547027588
","x: 205.09165954589844
y: 215.88409423828125
z: -0.14411495625972748
visibility: 0.9999557733535767
","x: 199.05677795410156
y: 218.60406494140625
z: -0.13378041982650757
visibility: 0.99991774559021
","x: 197.8761749267578
y: 218.59132385253906
z: -0.13372702896595
visibility: 0.9998948574066162
","x: 196.70343017578125
y: 218.5153350830078
z: -0.13366732001304626
visibility: 0.9998708963394165
","x: 206.90243530273438
y: 216.61929321289062
z: -0.071854367852211
visibility: 0.999977171421051
","x: 196.7373504638672
y: 219.09034729003906
z: -0.01334698311984539
visibility: 0.9997328519821167
","x: 203.81886291503906
y: 230.78289794921875
z: -0.12225086987018585
visibility: 0.99997878074646
","x: 199.79173278808594
y: 231.67852783203125
z: -0.10323575884103775
visibility: 0.9999305009841919
","x: 221.8127899169922
y: 253.14334106445312
z: -0.0764290988445282
visibility: 0.9999977350234985
","x: 189.195068359375
y: 257.4606018066406
z: 0.10443882644176483
visibility: 0.9998328685760498
","x: 234.521484375
y: 307.8946533203125
z: -0.08369579911231995
visibility: 0.9987006187438965
","x: 180.321533203125
y: 308.49200439453125
z: 0.14394044876098633
visibility: 0.7315047383308411
","x: 248.41261291503906
y: 351.5038757324219
z: -0.16777454316616058
visibility: 0.996911346912384
","x: 164.2186737060547
y: 340.60321044921875
z: 0.0478583388030529
visibility: 0.9133313298225403
","x: 256.67779541015625
y: 364.1062927246094
z: -0.19679132103919983
visibility: 0.9924894571304321
","x: 158.53468322753906
y: 349.10406494140625
z: 0.017782997339963913
visibility: 0.8974177837371826
","x: 253.26181030273438
y: 364.5547790527344
z: -0.22682762145996094
visibility: 0.9928928017616272
","x: 157.67259216308594
y: 345.8760986328125
z: -0.018215680494904518
visibility: 0.9041522741317749
","x: 253.65277099609375
y: 360.39410400390625
z: -0.18098539113998413
visibility: 0.9889228343963623
","x: 159.2957763671875
y: 343.8107604980469
z: 0.02034827694296837
visibility: 0.8931862115859985
","x: 212.012451171875
y: 364.9932861328125
z: -0.07149484008550644
visibility: 0.9996708035469055
","x: 195.90846252441406
y: 364.20977783203125
z: 0.07156526297330856
visibility: 0.9995366334915161
","x: 206.2273406982422
y: 444.3320007324219
z: -0.10990792512893677
visibility: 0.994110643863678
","x: 192.17318725585938
y: 442.0989990234375
z: 0.03470300883054733
visibility: 0.9809339642524719
","x: 221.2825469970703
y: 523.8060913085938
z: -0.046251360327005386
visibility: 0.9929343461990356
","x: 194.674560546875
y: 518.5145874023438
z: 0.11711867898702621
visibility: 0.9865415692329407
","x: 228.0457000732422
y: 536.3239135742188
z: -0.046590179204940796
visibility: 0.9112829566001892
","x: 197.59640502929688
y: 530.1441040039062
z: 0.11793909221887589
visibility: 0.9557294845581055
","x: 205.47604370117188
y: 548.0022583007812
z: -0.1617622971534729
visibility: 0.9891000986099243
","x: 176.9698486328125
y: 538.85107421875
z: 0.032668180763721466
visibility: 0.9847798347473145
",,,,,,,,,,,,,,,,,,,,,,,,,,,,,,,,,,,,,,,,,,
14,"x: 197.5632781982422
y: 227.11297607421875
z: -0.17037634551525116
visibility: 0.9999750852584839
","x: 198.82469177246094
y: 219.2805633544922
z: -0.16458112001419067
visibility: 0.9999414086341858
","x: 200.0189666748047
y: 218.31536865234375
z: -0.16464117169380188
visibility: 0.9999545812606812
","x: 201.26573181152344
y: 217.30227661132812
z: -0.16469444334506989
visibility: 0.9999574422836304
","x: 195.71823120117188
y: 220.28746032714844
z: -0.15317577123641968
visibility: 0.9999219179153442
","x: 194.75379943847656
y: 220.1879119873047
z: -0.15316274762153625
visibility: 0.9999004006385803
","x: 193.7834014892578
y: 220.05548095703125
z: -0.1531120240688324
visibility: 0.9998782277107239
","x: 204.0228271484375
y: 217.1873321533203
z: -0.09151311218738556
visibility: 0.9999779462814331
","x: 194.34010314941406
y: 220.2093505859375
z: -0.035780493170022964
visibility: 0.9997475147247314
","x: 200.6068878173828
y: 231.95147705078125
z: -0.13989295065402985
visibility: 0.9999797940254211
","x: 196.95407104492188
y: 232.778076171875
z: -0.12355925142765045
visibility: 0.9999346733093262
","x: 219.71873474121094
y: 253.64767456054688
z: -0.08652401715517044
visibility: 0.9999978542327881
","x: 186.00428771972656
y: 258.57855224609375
z: 0.09267019480466843
visibility: 0.9998462796211243
","x: 231.80062866210938
y: 308.24761962890625
z: -0.09335680305957794
visibility: 0.9987717270851135
","x: 177.1698760986328
y: 309.0428771972656
z: 0.13520243763923645
visibility: 0.7413097023963928
","x: 243.4215545654297
y: 352.05804443359375
z: -0.1724136769771576
visibility: 0.9969254732131958
","x: 163.42416381835938
y: 342.7180480957031
z: 0.03454049304127693
visibility: 0.9180737137794495
","x: 249.1337890625
y: 365.0198974609375
z: -0.197153702378273
visibility: 0.992435097694397
","x: 158.23316955566406
y: 352.78765869140625
z: 0.001660423120483756
visibility: 0.9017118811607361
","x: 247.0644073486328
y: 365.564453125
z: -0.23221835494041443
visibility: 0.9928911328315735
","x: 158.22564697265625
y: 349.8731689453125
z: -0.027346134185791016
visibility: 0.908440887928009
","x: 245.6414794921875
y: 361.5023498535156
z: -0.18825730681419373
visibility: 0.9890382885932922
","x: 159.95816040039062
y: 347.1742248535156
z: 0.01185266487300396
visibility: 0.8979076743125916
","x: 209.97418212890625
y: 363.91400146484375
z: -0.07555326074361801
visibility: 0.9996905326843262
","x: 193.84121704101562
y: 364.3201904296875
z: 0.075612872838974
visibility: 0.999565839767456
","x: 203.853515625
y: 442.90350341796875
z: -0.1371944397687912
visibility: 0.9943335652351379
","x: 190.51458740234375
y: 442.04229736328125
z: 0.03848246484994888
visibility: 0.9785934686660767
","x: 225.3072052001953
y: 522.6500854492188
z: -0.08660958707332611
visibility: 0.9933523535728455
","x: 194.8284149169922
y: 518.8115234375
z: 0.11417041718959808
visibility: 0.9865729212760925
","x: 233.1730499267578
y: 533.7183227539062
z: -0.08728993684053421
visibility: 0.9155195355415344
","x: 197.92062377929688
y: 531.3914184570312
z: 0.11333473026752472
visibility: 0.9566050171852112
","x: 209.68423461914062
y: 547.8106079101562
z: -0.1950555294752121
visibility: 0.9897722005844116
","x: 176.1024627685547
y: 538.4179077148438
z: 0.026566004380583763
visibility: 0.9848480820655823
",,,,,,,,,,,,,,,,,,,,,,,,,,,,,,,,,,,,,,,,,,
15,"x: 195.94134521484375
y: 231.37948608398438
z: -0.19571995735168457
visibility: 0.9999760389328003
","x: 197.83627319335938
y: 224.3393096923828
z: -0.18900153040885925
visibility: 0.9999417662620544
","x: 199.005126953125
y: 223.82275390625
z: -0.18905743956565857
visibility: 0.9999545216560364
","x: 200.2710723876953
y: 223.25949096679688
z: -0.18910083174705505
visibility: 0.9999570250511169
","x: 194.6442413330078
y: 224.2051544189453
z: -0.17878606915473938
visibility: 0.9999231100082397
","x: 193.65725708007812
y: 223.7369384765625
z: -0.17878469824790955
visibility: 0.9999018311500549
","x: 192.64663696289062
y: 223.29336547851562
z: -0.17873021960258484
visibility: 0.9998810887336731
","x: 203.2254638671875
y: 222.68646240234375
z: -0.1107655018568039
visibility: 0.9999772310256958
","x: 192.5331573486328
y: 223.01499938964844
z: -0.0615418441593647
visibility: 0.9997496604919434
","x: 198.34632873535156
y: 236.1454620361328
z: -0.16318747401237488
visibility: 0.9999792575836182
","x: 194.73377990722656
y: 236.27210998535156
z: -0.14913883805274963
visibility: 0.9999357461929321
","x: 216.44119262695312
y: 254.59303283691406
z: -0.10151229053735733
visibility: 0.9999979138374329
","x: 183.8903350830078
y: 262.0662841796875
z: 0.07593932002782822
visibility: 0.9998572468757629
","x: 227.23953247070312
y: 309.55889892578125
z: -0.11431695520877838
visibility: 0.9988521337509155
","x: 175.69332885742188
y: 313.08953857421875
z: 0.128475159406662
visibility: 0.7506678104400635
","x: 238.6776123046875
y: 354.18621826171875
z: -0.19697196781635284
visibility: 0.9970511198043823
","x: 162.04627990722656
y: 345.6496887207031
z: 0.022714238613843918
visibility: 0.9228023886680603
","x: 243.08401489257812
y: 366.7504577636719
z: -0.22639422118663788
visibility: 0.9926161170005798
","x: 157.20985412597656
y: 356.25775146484375
z: -0.0037237857468426228
visibility: 0.9059476852416992
","x: 240.56076049804688
y: 367.3980407714844
z: -0.25285661220550537
visibility: 0.9930981397628784
","x: 157.157958984375
y: 353.1101989746094
z: -0.0357111431658268
visibility: 0.9127170443534851
","x: 238.2525634765625
y: 363.76812744140625
z: -0.20942270755767822
visibility: 0.9894160032272339
","x: 158.838134765625
y: 349.9049072265625
z: 0.0027719098143279552
visibility: 0.902725338935852
","x: 208.9222412109375
y: 363.1353454589844
z: -0.07794111222028732
visibility: 0.999708890914917
","x: 193.7651824951172
y: 364.4274597167969
z: 0.0780191719532013
visibility: 0.999599277973175
","x: 197.1259002685547
y: 439.28045654296875
z: -0.12761737406253815
visibility: 0.9945037364959717
","x: 188.29583740234375
y: 440.2591247558594
z: 0.018646240234375
visibility: 0.9753919839859009
","x: 227.50064086914062
y: 507.7122497558594
z: -0.05301667004823685
visibility: 0.9936553835868835
","x: 194.43206787109375
y: 519.0355834960938
z: 0.08933867514133453
visibility: 0.9868338108062744
","x: 236.0743408203125
y: 517.3786010742188
z: -0.05412107706069946
visibility: 0.9195138812065125
","x: 198.23196411132812
y: 535.1087646484375
z: 0.08894609659910202
visibility: 0.958093523979187
","x: 214.04672241210938
y: 542.2284545898438
z: -0.1325158029794693
visibility: 0.9902664422988892
","x: 174.9835662841797
y: 537.670166015625
z: 0.0020496691577136517
visibility: 0.984879732131958
",,,,,,,,,,,,,,,,,,,,,,,,,,,,,,,,,,,,,,,,,,
16,"x: 195.9375762939453
y: 230.58229064941406
z: -0.2256689816713333
visibility: 0.9999773502349854
","x: 198.0666961669922
y: 223.50552368164062
z: -0.2186679095029831
visibility: 0.9999449253082275
","x: 199.3099822998047
y: 223.64154052734375
z: -0.21874019503593445
visibility: 0.9999567270278931
","x: 200.6289825439453
y: 222.7507781982422
z: -0.21879622340202332
visibility: 0.9999589323997498
","x: 194.6919708251953
y: 222.3903045654297
z: -0.20916378498077393
visibility: 0.9999274611473083
","x: 193.57373046875
y: 221.74700927734375
z: -0.20914201438426971
visibility: 0.9999072551727295
","x: 192.46499633789062
y: 221.11380004882812
z: -0.20907768607139587
visibility: 0.9998883605003357
","x: 203.61277770996094
y: 222.2158660888672
z: -0.13597992062568665
visibility: 0.9999780654907227
","x: 191.82278442382812
y: 221.81088256835938
z: -0.09138324111700058
visibility: 0.9997639060020447
","x: 198.1842498779297
y: 235.89987182617188
z: -0.19125743210315704
visibility: 0.999980092048645
","x: 194.34361267089844
y: 236.12310791015625
z: -0.1785304993391037
visibility: 0.9999397397041321
","x: 216.02769470214844
y: 254.39903259277344
z: -0.1229742169380188
visibility: 0.9999979734420776
","x: 181.87628173828125
y: 261.68048095703125
z: 0.060624729841947556
visibility: 0.9998648762702942
","x: 226.41636657714844
y: 309.1332702636719
z: -0.13097985088825226
visibility: 0.9989049434661865
","x: 176.4061737060547
y: 315.23333740234375
z: 0.13160131871700287
visibility: 0.7523455023765564
","x: 235.48377990722656
y: 353.20751953125
z: -0.22520141303539276
visibility: 0.9970324039459229
","x: 164.05917358398438
y: 352.8126525878906
z: 0.037598639726638794
visibility: 0.9245920181274414
","x: 239.25335693359375
y: 365.5587158203125
z: -0.25745147466659546
visibility: 0.9924286603927612
","x: 159.39442443847656
y: 364.3466796875
z: 0.021586179733276367
visibility: 0.9063921570777893
","x: 236.79446411132812
y: 365.9673767089844
z: -0.2847854495048523
visibility: 0.9929624199867249
","x: 159.35989379882812
y: 362.31390380859375
z: -0.015540814027190208
visibility: 0.9135516881942749
","x: 234.4954833984375
y: 362.2821044921875
z: -0.23777958750724792
visibility: 0.9892711639404297
","x: 161.019775390625
y: 358.3760070800781
z: 0.01943596638739109
visibility: 0.9036191701889038
","x: 208.2989501953125
y: 362.31793212890625
z: -0.07886441051959991
visibility: 0.9997202754020691
","x: 191.86843872070312
y: 363.5252380371094
z: 0.0789310485124588
visibility: 0.9996169209480286
","x: 200.23974609375
y: 439.84698486328125
z: -0.1342175304889679
visibility: 0.9945128560066223
","x: 189.56040954589844
y: 440.8108215332031
z: 0.039539601653814316
visibility: 0.969114363193512
","x: 225.1980743408203
y: 511.3885803222656
z: -0.06711473315954208
visibility: 0.9939213395118713
","x: 194.44482421875
y: 520.0968627929688
z: 0.10254713147878647
visibility: 0.9867197275161743
","x: 231.99554443359375
y: 519.88818359375
z: -0.06598125398159027
visibility: 0.9238662719726562
","x: 197.98699951171875
y: 536.0712280273438
z: 0.10065869241952896
visibility: 0.9591137766838074
","x: 213.28384399414062
y: 541.7509765625
z: -0.1576075553894043
visibility: 0.990732729434967
","x: 175.38998413085938
y: 537.934326171875
z: 0.009813247248530388
visibility: 0.984818696975708
",,,,,,,,,,,,,,,,,,,,,,,,,,,,,,,,,,,,,,,,,,
17,"x: 196.17562866210938
y: 230.50230407714844
z: -0.23564760386943817
visibility: 0.9999777674674988
","x: 198.2369384765625
y: 223.2988739013672
z: -0.22948694229125977
visibility: 0.9999451637268066
","x: 199.45785522460938
y: 223.2921600341797
z: -0.22954681515693665
visibility: 0.9999557137489319
","x: 200.82069396972656
y: 222.7015380859375
z: -0.2295973002910614
visibility: 0.9999576210975647
","x: 194.90899658203125
y: 222.33290100097656
z: -0.2216780185699463
visibility: 0.9999294877052307
","x: 193.81190490722656
y: 221.71490478515625
z: -0.22167129814624786
visibility: 0.9999096989631653
","x: 192.7239227294922
y: 220.9591827392578
z: -0.22164049744606018
visibility: 0.9998928308486938
","x: 204.00975036621094
y: 222.51821899414062
z: -0.1432071030139923
visibility: 0.9999760985374451
","x: 192.08526611328125
y: 221.53379821777344
z: -0.10665830224752426
visibility: 0.9997717142105103
","x: 198.525146484375
y: 235.95120239257812
z: -0.19886299967765808
visibility: 0.999979555606842
","x: 194.34246826171875
y: 236.09063720703125
z: -0.18848368525505066
visibility: 0.999942421913147
","x: 216.589599609375
y: 254.87277221679688
z: -0.11348359286785126
visibility: 0.9999976754188538
","x: 181.0347442626953
y: 261.57928466796875
z: 0.0375022366642952
visibility: 0.9998741149902344
","x: 226.88671875
y: 309.32293701171875
z: -0.12279188632965088
visibility: 0.9988309741020203
","x: 176.22470092773438
y: 316.14300537109375
z: 0.10521894693374634
visibility: 0.7623062133789062
","x: 234.05580139160156
y: 352.717041015625
z: -0.2126256674528122
visibility: 0.996514618396759
","x: 164.61512756347656
y: 360.1837158203125
z: 0.01215857919305563
visibility: 0.9271509051322937
","x: 237.14401245117188
y: 365.0226135253906
z: -0.24507668614387512
visibility: 0.9911888241767883
","x: 161.4599609375
y: 372.2972106933594
z: -0.004665982909500599
visibility: 0.9078828692436218
","x: 234.83795166015625
y: 365.2615966796875
z: -0.273648202419281
visibility: 0.9918513894081116
","x: 161.66134643554688
y: 371.05157470703125
z: -0.04500012844800949
visibility: 0.9152586460113525
","x: 232.75936889648438
y: 361.50006103515625
z: -0.22544312477111816
visibility: 0.9878070950508118
","x: 163.2630157470703
y: 367.274658203125
z: -0.005385655909776688
visibility: 0.9053270220756531
","x: 208.34536743164062
y: 362.65509033203125
z: -0.07177051156759262
visibility: 0.999707818031311
","x: 190.73275756835938
y: 363.5437316894531
z: 0.07184715569019318
visibility: 0.9996199011802673
","x: 202.33375549316406
y: 440.44775390625
z: -0.11672971397638321
visibility: 0.9943796396255493
","x: 190.66680908203125
y: 441.245361328125
z: 0.044740498065948486
visibility: 0.9668201208114624
","x: 222.8436737060547
y: 514.1546630859375
z: -0.035837408155202866
visibility: 0.9939537644386292
","x: 194.57150268554688
y: 521.598388671875
z: 0.11070636659860611
visibility: 0.9868793487548828
","x: 225.12002563476562
y: 523.1412963867188
z: -0.03344940394163132
visibility: 0.925808310508728
","x: 198.1378173828125
y: 536.5635986328125
z: 0.11007492244243622
visibility: 0.9600096344947815
","x: 213.40235900878906
y: 542.5435791015625
z: -0.12946273386478424
visibility: 0.9908643364906311
","x: 175.7566680908203
y: 538.1732788085938
z: 0.016284208744764328
visibility: 0.9848329424858093
",,,,,,,,,,,,,,,,,,,,,,,,,,,,,,,,,,,,,,,,,,
18,"x: 197.51051330566406
y: 225.52114868164062
z: -0.14303818345069885
visibility: 0.9999789595603943
","x: 200.20309448242188
y: 218.4930419921875
z: -0.13279804587364197
visibility: 0.9999471306800842
","x: 201.5775146484375
y: 218.76661682128906
z: -0.13285458087921143
visibility: 0.9999568462371826
","x: 202.90347290039062
y: 218.83535766601562
z: -0.13289305567741394
visibility: 0.9999587535858154
","x: 196.2724609375
y: 217.22225952148438
z: -0.12669838964939117
visibility: 0.9999328851699829
","x: 194.9525909423828
y: 216.65692138671875
z: -0.12667569518089294
visibility: 0.9999142289161682
","x: 193.6602020263672
y: 216.08706665039062
z: -0.12665238976478577
visibility: 0.9998992681503296
","x: 205.1642608642578
y: 220.81268310546875
z: -0.052342068403959274
visibility: 0.9999752640724182
","x: 192.4050750732422
y: 217.39378356933594
z: -0.02314508892595768
visibility: 0.9997828602790833
","x: 199.87879943847656
y: 231.3349151611328
z: -0.11042541265487671
visibility: 0.9999799728393555
","x: 194.4409942626953
y: 230.9326934814453
z: -0.10222165286540985
visibility: 0.9999457597732544
","x: 217.05105590820312
y: 254.79107666015625
z: -0.03763671964406967
visibility: 0.9999975562095642
","x: 182.59507751464844
y: 259.93756103515625
z: 0.06577517837285995
visibility: 0.9998809099197388
","x: 227.84371948242188
y: 307.61944580078125
z: -0.0514088049530983
visibility: 0.9986416101455688
","x: 176.98155212402344
y: 315.9136657714844
z: 0.11559388786554337
visibility: 0.774372935295105
","x: 231.3929443359375
y: 351.1595458984375
z: -0.15964782238006592
visibility: 0.9961662292480469
","x: 171.1071014404297
y: 358.57806396484375
z: 0.026501547545194626
visibility: 0.9293873906135559
","x: 233.87924194335938
y: 363.6859130859375
z: -0.1971239447593689
visibility: 0.9906185865402222
","x: 168.7849884033203
y: 373.1712341308594
z: 0.0016226175939664245
visibility: 0.9090214967727661
","x: 230.605224609375
y: 363.3575744628906
z: -0.22418920695781708
visibility: 0.9912728667259216
","x: 170.37564086914062
y: 372.4319763183594
z: -0.032912395894527435
visibility: 0.9163006544113159
","x: 228.68382263183594
y: 359.30181884765625
z: -0.1726582944393158
visibility: 0.9869943857192993
","x: 172.0502471923828
y: 367.3998718261719
z: 0.010057760402560234
visibility: 0.906337320804596
","x: 209.17034912109375
y: 362.0433349609375
z: -0.058060575276613235
visibility: 0.9997090101242065
","x: 191.07058715820312
y: 362.7340393066406
z: 0.05815911293029785
visibility: 0.9996275305747986
","x: 210.46298217773438
y: 440.7159118652344
z: -0.08974108844995499
visibility: 0.9945775270462036
","x: 191.0877685546875
y: 442.27850341796875
z: 0.035145387053489685
visibility: 0.9683551788330078
","x: 223.5709991455078
y: 515.32421875
z: -0.012713409960269928
visibility: 0.9941096901893616
","x: 194.12255859375
y: 522.0209350585938
z: 0.10791639983654022
visibility: 0.9874107241630554
","x: 225.87020874023438
y: 525.2579345703125
z: -0.012624206021428108
visibility: 0.920617401599884
","x: 197.70611572265625
y: 536.468017578125
z: 0.10744227468967438
visibility: 0.959657609462738
","x: 213.94912719726562
y: 542.9720458984375
z: -0.12834671139717102
visibility: 0.9908046126365662
","x: 176.16236877441406
y: 538.2203369140625
z: 0.006563036702573299
visibility: 0.9851269125938416
",,,,,,,,,,,,,,,,,,,,,,,,,,,,,,,,,,,,,,,,,,
19,"x: 202.79635620117188
y: 223.76690673828125
z: -0.15650750696659088
visibility: 0.9999788403511047
","x: 205.4088897705078
y: 216.55191040039062
z: -0.14719092845916748
visibility: 0.9999443292617798
","x: 206.66110229492188
y: 216.9960174560547
z: -0.14725495874881744
visibility: 0.9999532103538513
","x: 207.85748291015625
y: 217.3906707763672
z: -0.14729443192481995
visibility: 0.9999551177024841
","x: 201.6142578125
y: 214.8898162841797
z: -0.1396610140800476
visibility: 0.9999324679374695
","x: 200.07748413085938
y: 214.24234008789062
z: -0.1396404206752777
visibility: 0.9999138116836548
","x: 198.5194854736328
y: 213.71527099609375
z: -0.1396213322877884
visibility: 0.9999012351036072
","x: 209.86203002929688
y: 220.469970703125
z: -0.06679113954305649
visibility: 0.9999701380729675
","x: 195.71377563476562
y: 215.9571533203125
z: -0.025083046406507492
visibility: 0.9997857809066772
","x: 204.72235107421875
y: 230.27859497070312
z: -0.12449369579553604
visibility: 0.9999790787696838
","x: 199.2444305419922
y: 229.5850372314453
z: -0.11263036727905273
visibility: 0.9999473690986633
","x: 221.2942657470703
y: 255.78573608398438
z: -0.05282105132937431
visibility: 0.9999967217445374
","x: 182.67713928222656
y: 259.8947448730469
z: 0.061995647847652435
visibility: 0.9998868107795715
","x: 228.9052734375
y: 310.02618408203125
z: -0.06787573546171188
visibility: 0.9981685280799866
","x: 177.47633361816406
y: 315.6505126953125
z: 0.10266286134719849
visibility: 0.787152111530304
","x: 230.80201721191406
y: 353.286865234375
z: -0.17006950080394745
visibility: 0.9948131442070007
","x: 171.3870849609375
y: 361.2914733886719
z: 0.002802724251523614
visibility: 0.9324421286582947
","x: 232.38931274414062
y: 365.50213623046875
z: -0.2092558592557907
visibility: 0.988452136516571
","x: 168.5574188232422
y: 376.2830810546875
z: -0.026798736304044724
visibility: 0.9115606546401978
","x: 229.13946533203125
y: 363.96734619140625
z: -0.23614799976348877
visibility: 0.9891270399093628
","x: 170.1433868408203
y: 375.66583251953125
z: -0.06151634454727173
visibility: 0.9187362194061279
","x: 227.56561279296875
y: 360.0008850097656
z: -0.1806609183549881
visibility: 0.984078049659729
","x: 171.94607543945312
y: 370.7848815917969
z: -0.014426885172724724
visibility: 0.9092302918434143
","x: 212.82180786132812
y: 365.84857177734375
z: -0.05450008437037468
visibility: 0.9996882677078247
","x: 191.80020141601562
y: 365.4918212890625
z: 0.05460195615887642
visibility: 0.9996293783187866
","x: 216.9031219482422
y: 444.1312255859375
z: -0.07435254752635956
visibility: 0.9947591423988342
","x: 190.42520141601562
y: 444.3509216308594
z: 0.036218371242284775
visibility: 0.9700160026550293
","x: 225.67181396484375
y: 517.53125
z: 0.0207666028290987
visibility: 0.994140088558197
","x: 194.66107177734375
y: 521.7966918945312
z: 0.14823481440544128
visibility: 0.9877561926841736
","x: 229.573974609375
y: 527.52001953125
z: 0.021958649158477783
visibility: 0.9127812385559082
","x: 197.79014587402344
y: 535.0403442382812
z: 0.15182875096797943
visibility: 0.9599109292030334
","x: 214.4930419921875
y: 543.17431640625
z: -0.10051914304494858
visibility: 0.9904491901397705
","x: 176.55307006835938
y: 538.3671264648438
z: 0.053664326667785645
visibility: 0.9851226806640625
",,,,,,,,,,,,,,,,,,,,,,,,,,,,,,,,,,,,,,,,,,
20,"x: 205.50918579101562
y: 223.88658142089844
z: -0.20918822288513184
visibility: 0.99997878074646
","x: 207.76214599609375
y: 216.47254943847656
z: -0.19932743906974792
visibility: 0.9999421834945679
","x: 208.92041015625
y: 216.73333740234375
z: -0.19937551021575928
visibility: 0.9999505281448364
","x: 210.0678253173828
y: 217.02308654785156
z: -0.19940641522407532
visibility: 0.9999520182609558
","x: 204.1142120361328
y: 215.2694549560547
z: -0.19469167292118073
visibility: 0.9999322295188904
","x: 202.65277099609375
y: 214.655517578125
z: -0.19470304250717163
visibility: 0.9999138116836548
","x: 201.17056274414062
y: 214.11920166015625
z: -0.19471317529678345
visibility: 0.9999026656150818
","x: 211.87701416015625
y: 220.18441772460938
z: -0.1087140217423439
visibility: 0.9999659657478333
","x: 198.20338439941406
y: 216.05552673339844
z: -0.08514277637004852
visibility: 0.9997877478599548
","x: 207.48330688476562
y: 230.2942657470703
z: -0.17217124998569489
visibility: 0.9999778866767883
","x: 202.47044372558594
y: 229.80975341796875
z: -0.16543932259082794
visibility: 0.9999483227729797
","x: 224.7351531982422
y: 255.73965454101562
z: -0.07255236804485321
visibility: 0.9999961853027344
","x: 184.08383178710938
y: 259.4068603515625
z: 0.026612216606736183
visibility: 0.999893307685852
","x: 229.2596435546875
y: 310.5196838378906
z: -0.07705292850732803
visibility: 0.9979079365730286
","x: 177.50730895996094
y: 315.2174072265625
z: 0.07676063477993011
visibility: 0.8014922738075256
","x: 232.25979614257812
y: 353.1042785644531
z: -0.1904679834842682
visibility: 0.9939053058624268
","x: 171.14447021484375
y: 359.8985290527344
z: -0.027023840695619583
visibility: 0.935824453830719
","x: 233.31764221191406
y: 365.3726501464844
z: -0.23080173134803772
visibility: 0.9868417382240295
","x: 168.0120849609375
y: 373.9556884765625
z: -0.05525704100728035
visibility: 0.9146804213523865
","x: 230.2484893798828
y: 363.6497497558594
z: -0.261095255613327
visibility: 0.9875912070274353
","x: 169.3623809814453
y: 373.0701904296875
z: -0.09243474900722504
visibility: 0.9218219518661499
","x: 228.92071533203125
y: 359.7091064453125
z: -0.20444011688232422
visibility: 0.981956958770752
","x: 171.27957153320312
y: 368.196533203125
z: -0.0451396182179451
visibility: 0.9127278327941895
","x: 216.1842041015625
y: 366.1276550292969
z: -0.05248499661684036
visibility: 0.9996587634086609
","x: 194.0552520751953
y: 366.03564453125
z: 0.05256984382867813
visibility: 0.9996230006217957
","x: 218.8441925048828
y: 446.2019348144531
z: -0.07633072882890701
visibility: 0.9949004650115967
","x: 191.03341674804688
y: 445.2542419433594
z: 0.03148292750120163
visibility: 0.9711661338806152
","x: 226.02825927734375
y: 519.0927734375
z: 0.017342112958431244
visibility: 0.9942338466644287
","x: 195.45559692382812
y: 521.9742431640625
z: 0.1399928480386734
visibility: 0.988142728805542
","x: 230.01425170898438
y: 529.246337890625
z: 0.018552696332335472
visibility: 0.9099153876304626
","x: 198.53443908691406
y: 535.1423950195312
z: 0.1415404975414276
visibility: 0.960388720035553
","x: 214.5318603515625
y: 543.453125
z: -0.10207382589578629
visibility: 0.990353524684906
","x: 177.14093017578125
y: 538.4124755859375
z: 0.04320076107978821
visibility: 0.9852527976036072
",,,,,,,,,,,,,,,,,,,,,,,,,,,,,,,,,,,,,,,,,,
21,"x: 207.43031311035156
y: 224.1807861328125
z: -0.2503446340560913
visibility: 0.9999779462814331
","x: 209.89840698242188
y: 216.70228576660156
z: -0.2411312311887741
visibility: 0.9999359250068665
","x: 211.17324829101562
y: 216.86358642578125
z: -0.24116840958595276
visibility: 0.9999436140060425
","x: 212.48362731933594
y: 217.0760955810547
z: -0.24115963280200958
visibility: 0.9999433159828186
","x: 206.12049865722656
y: 215.70008850097656
z: -0.2383168488740921
visibility: 0.9999279379844666
","x: 204.65541076660156
y: 215.10305786132812
z: -0.23834271728992462
visibility: 0.9999109506607056
","x: 203.26876831054688
y: 214.57601928710938
z: -0.23837359249591827
visibility: 0.9999010562896729
","x: 214.71836853027344
y: 219.8367156982422
z: -0.14980022609233856
visibility: 0.9999480843544006
","x: 201.3035888671875
y: 216.12307739257812
z: -0.13615688681602478
visibility: 0.9997877478599548
","x: 209.573974609375
y: 230.45143127441406
z: -0.21292658150196075
visibility: 0.9999755024909973
","x: 204.62933349609375
y: 230.07723999023438
z: -0.2090715616941452
visibility: 0.9999489188194275
","x: 229.91012573242188
y: 255.7040557861328
z: -0.08314137905836105
visibility: 0.999994695186615
","x: 187.6014404296875
y: 258.8619079589844
z: -0.04229974374175072
visibility: 0.9999015927314758
","x: 235.33473205566406
y: 310.5588073730469
z: -0.07446811348199844
visibility: 0.9967837333679199
","x: 177.61822509765625
y: 314.96990966796875
z: 0.006025260780006647
visibility: 0.8192413449287415
","x: 232.43275451660156
y: 349.5747375488281
z: -0.19713039696216583
visibility: 0.9918854832649231
","x: 170.96661376953125
y: 359.83172607421875
z: -0.09302292764186859
visibility: 0.9402703642845154
","x: 234.67657470703125
y: 362.6192626953125
z: -0.2323516309261322
visibility: 0.983259379863739
","x: 167.79977416992188
y: 373.4896240234375
z: -0.12025903165340424
visibility: 0.9193791747093201
","x: 231.8429718017578
y: 357.796630859375
z: -0.26272332668304443
visibility: 0.9842596054077148
","x: 168.8412628173828
y: 373.0096740722656
z: -0.15493299067020416
visibility: 0.9261864423751831
","x: 230.19046020507812
y: 353.57843017578125
z: -0.21165528893470764
visibility: 0.9778971672058105
","x: 170.7500762939453
y: 368.8768005371094
z: -0.10917221009731293
visibility: 0.9173968434333801
","x: 221.47308349609375
y: 366.1659240722656
z: -0.018968936055898666
visibility: 0.9995976090431213
","x: 199.02407836914062
y: 366.0012512207031
z: 0.0189580749720335
visibility: 0.9995746612548828
","x: 223.90093994140625
y: 446.2428283691406
z: -0.03504110127687454
visibility: 0.9940348267555237
","x: 200.48483276367188
y: 445.2471923828125
z: 0.00031163758831098676
visibility: 0.9715899229049683
","x: 226.54212951660156
y: 521.5052490234375
z: 0.043968163430690765
visibility: 0.99309903383255
","x: 200.46778869628906
y: 522.0792846679688
z: 0.09305619448423386
visibility: 0.986565113067627
","x: 229.62857055664062
y: 535.0078735351562
z: 0.0437714159488678
visibility: 0.8958682417869568
","x: 202.55941772460938
y: 535.13720703125
z: 0.09465720504522324
visibility: 0.9461519122123718
","x: 217.48631286621094
y: 543.3280639648438
z: -0.08157803118228912
visibility: 0.988553524017334
","x: 199.36376953125
y: 541.0152587890625
z: -0.02022736147046089
visibility: 0.9833228588104248
","x: 167.75010681152344
y: 359.86334228515625
z: 0.0
","x: 170.8473663330078
y: 364.5059814453125
z: -0.003337173955515027
","x: 171.60775756835938
y: 370.4541015625
z: -0.005296167451888323
","x: 170.53640747070312
y: 376.11199951171875
z: -0.0063484590500593185
","x: 169.73646545410156
y: 381.1719970703125
z: -0.0069745746441185474
","x: 166.39772033691406
y: 373.5623474121094
z: -0.007792909629642963
","x: 165.4357452392578
y: 384.0138244628906
z: -0.009147251956164837
","x: 167.42312622070312
y: 387.2720031738281
z: -0.008276413194835186
","x: 169.07672119140625
y: 387.88494873046875
z: -0.007283621467649937
","x: 164.23789978027344
y: 373.9705810546875
z: -0.006669377442449331
","x: 163.97689819335938
y: 384.7984313964844
z: -0.007841236889362335
","x: 166.41586303710938
y: 387.62750244140625
z: -0.006627355702221394
","x: 168.19480895996094
y: 387.256591796875
z: -0.005552690476179123
","x: 163.19320678710938
y: 374.1156005859375
z: -0.005407786928117275
","x: 163.21759033203125
y: 383.7398681640625
z: -0.006449794862419367
","x: 165.44667053222656
y: 386.0135498046875
z: -0.005531704984605312
","x: 167.20822143554688
y: 385.65869140625
z: -0.004800471942871809
","x: 162.82704162597656
y: 374.04583740234375
z: -0.004367455840110779
","x: 162.99598693847656
y: 381.9595642089844
z: -0.005326214712113142
","x: 164.69483947753906
y: 384.1775817871094
z: -0.005037998780608177
","x: 166.26513671875
y: 384.24908447265625
z: -0.0045411791652441025
",,,,,,,,,,,,,,,,,,,,,
22,"x: 207.43031311035156
y: 224.1807861328125
z: -0.2503446340560913
visibility: 0.9999779462814331
","x: 209.89840698242188
y: 216.70228576660156
z: -0.2411312311887741
visibility: 0.9999359250068665
","x: 211.17324829101562
y: 216.86358642578125
z: -0.24116840958595276
visibility: 0.9999436140060425
","x: 212.48362731933594
y: 217.0760955810547
z: -0.24115963280200958
visibility: 0.9999433159828186
","x: 206.12049865722656
y: 215.70008850097656
z: -0.2383168488740921
visibility: 0.9999279379844666
","x: 204.65541076660156
y: 215.10305786132812
z: -0.23834271728992462
visibility: 0.9999109506607056
","x: 203.26876831054688
y: 214.57601928710938
z: -0.23837359249591827
visibility: 0.9999010562896729
","x: 214.71836853027344
y: 219.8367156982422
z: -0.14980022609233856
visibility: 0.9999480843544006
","x: 201.3035888671875
y: 216.12307739257812
z: -0.13615688681602478
visibility: 0.9997877478599548
","x: 209.573974609375
y: 230.45143127441406
z: -0.21292658150196075
visibility: 0.9999755024909973
","x: 204.62933349609375
y: 230.07723999023438
z: -0.2090715616941452
visibility: 0.9999489188194275
","x: 229.91012573242188
y: 255.7040557861328
z: -0.08314137905836105
visibility: 0.999994695186615
","x: 187.6014404296875
y: 258.8619079589844
z: -0.04229974374175072
visibility: 0.9999015927314758
","x: 235.33473205566406
y: 310.5588073730469
z: -0.07446811348199844
visibility: 0.9967837333679199
","x: 177.61822509765625
y: 314.96990966796875
z: 0.006025260780006647
visibility: 0.8192413449287415
","x: 232.43275451660156
y: 349.5747375488281
z: -0.19713039696216583
visibility: 0.9918854832649231
","x: 170.96661376953125
y: 359.83172607421875
z: -0.09302292764186859
visibility: 0.9402703642845154
","x: 234.67657470703125
y: 362.6192626953125
z: -0.2323516309261322
visibility: 0.983259379863739
","x: 167.79977416992188
y: 373.4896240234375
z: -0.12025903165340424
visibility: 0.9193791747093201
","x: 231.8429718017578
y: 357.796630859375
z: -0.26272332668304443
visibility: 0.9842596054077148
","x: 168.8412628173828
y: 373.0096740722656
z: -0.15493299067020416
visibility: 0.9261864423751831
","x: 230.19046020507812
y: 353.57843017578125
z: -0.21165528893470764
visibility: 0.9778971672058105
","x: 170.7500762939453
y: 368.8768005371094
z: -0.10917221009731293
visibility: 0.9173968434333801
","x: 221.47308349609375
y: 366.1659240722656
z: -0.018968936055898666
visibility: 0.9995976090431213
","x: 199.02407836914062
y: 366.0012512207031
z: 0.0189580749720335
visibility: 0.9995746612548828
","x: 223.90093994140625
y: 446.2428283691406
z: -0.03504110127687454
visibility: 0.9940348267555237
","x: 200.48483276367188
y: 445.2471923828125
z: 0.00031163758831098676
visibility: 0.9715899229049683
","x: 226.54212951660156
y: 521.5052490234375
z: 0.043968163430690765
visibility: 0.99309903383255
","x: 200.46778869628906
y: 522.0792846679688
z: 0.09305619448423386
visibility: 0.986565113067627
","x: 229.62857055664062
y: 535.0078735351562
z: 0.0437714159488678
visibility: 0.8958682417869568
","x: 202.55941772460938
y: 535.13720703125
z: 0.09465720504522324
visibility: 0.9461519122123718
","x: 217.48631286621094
y: 543.3280639648438
z: -0.08157803118228912
visibility: 0.988553524017334
","x: 199.36376953125
y: 541.0152587890625
z: -0.02022736147046089
visibility: 0.9833228588104248
","x: 167.75010681152344
y: 359.86334228515625
z: 0.0
","x: 170.8473663330078
y: 364.5059814453125
z: -0.003337173955515027
","x: 171.60775756835938
y: 370.4541015625
z: -0.005296167451888323
","x: 170.53640747070312
y: 376.11199951171875
z: -0.0063484590500593185
","x: 169.73646545410156
y: 381.1719970703125
z: -0.0069745746441185474
","x: 166.39772033691406
y: 373.5623474121094
z: -0.007792909629642963
","x: 165.4357452392578
y: 384.0138244628906
z: -0.009147251956164837
","x: 167.42312622070312
y: 387.2720031738281
z: -0.008276413194835186
","x: 169.07672119140625
y: 387.88494873046875
z: -0.007283621467649937
","x: 164.23789978027344
y: 373.9705810546875
z: -0.006669377442449331
","x: 163.97689819335938
y: 384.7984313964844
z: -0.007841236889362335
","x: 166.41586303710938
y: 387.62750244140625
z: -0.006627355702221394
","x: 168.19480895996094
y: 387.256591796875
z: -0.005552690476179123
","x: 163.19320678710938
y: 374.1156005859375
z: -0.005407786928117275
","x: 163.21759033203125
y: 383.7398681640625
z: -0.006449794862419367
","x: 165.44667053222656
y: 386.0135498046875
z: -0.005531704984605312
","x: 167.20822143554688
y: 385.65869140625
z: -0.004800471942871809
","x: 162.82704162597656
y: 374.04583740234375
z: -0.004367455840110779
","x: 162.99598693847656
y: 381.9595642089844
z: -0.005326214712113142
","x: 164.69483947753906
y: 384.1775817871094
z: -0.005037998780608177
","x: 166.26513671875
y: 384.24908447265625
z: -0.0045411791652441025
",,,,,,,,,,,,,,,,,,,,,
23,"x: 209.72561645507812
y: 225.61776733398438
z: -0.30500730872154236
visibility: 0.9999788999557495
","x: 212.30250549316406
y: 218.548095703125
z: -0.2943483591079712
visibility: 0.9999380111694336
","x: 213.59158325195312
y: 218.69241333007812
z: -0.2943797707557678
visibility: 0.9999446272850037
","x: 214.85060119628906
y: 218.8451385498047
z: -0.29438555240631104
visibility: 0.9999437928199768
","x: 208.50091552734375
y: 217.31964111328125
z: -0.2941805124282837
visibility: 0.999930739402771
","x: 207.04779052734375
y: 216.55419921875
z: -0.2942117154598236
visibility: 0.9999152421951294
","x: 205.581298828125
y: 215.83181762695312
z: -0.29422464966773987
visibility: 0.9999059438705444
","x: 216.86862182617188
y: 220.44044494628906
z: -0.1905476450920105
visibility: 0.9999430179595947
","x: 203.5126495361328
y: 216.7247772216797
z: -0.18976184725761414
visibility: 0.999799907207489
","x: 211.70074462890625
y: 231.40045166015625
z: -0.2627342939376831
visibility: 0.9999758005142212
","x: 207.04458618164062
y: 230.8386993408203
z: -0.2625492215156555
visibility: 0.9999520182609558
","x: 231.5951385498047
y: 255.66781616210938
z: -0.10354088246822357
visibility: 0.9999938607215881
","x: 189.92092895507812
y: 259.2013854980469
z: -0.09577508270740509
visibility: 0.9999092221260071
","x: 239.40225219726562
y: 310.36248779296875
z: -0.0783763974905014
visibility: 0.9959650039672852
","x: 178.22059631347656
y: 316.27740478515625
z: -0.04755375534296036
visibility: 0.8364583849906921
","x: 238.18826293945312
y: 345.67132568359375
z: -0.2161850482225418
visibility: 0.9914060235023499
","x: 170.11805725097656
y: 360.2091979980469
z: -0.14592470228672028
visibility: 0.9450039863586426
","x: 237.59722900390625
y: 358.22503662109375
z: -0.2506658434867859
visibility: 0.9819890856742859
","x: 166.07334899902344
y: 374.605712890625
z: -0.17433495819568634
visibility: 0.9248836040496826
","x: 235.06927490234375
y: 353.35467529296875
z: -0.2824435830116272
visibility: 0.983189582824707
","x: 166.74822998046875
y: 374.2344665527344
z: -0.21016386151313782
visibility: 0.9313057065010071
","x: 234.56759643554688
y: 349.183837890625
z: -0.23139970004558563
visibility: 0.976576030254364
","x: 168.46083068847656
y: 369.8121337890625
z: -0.16227710247039795
visibility: 0.9228255748748779
","x: 224.61058044433594
y: 366.3911437988281
z: 0.0043269554153084755
visibility: 0.9995909333229065
","x: 202.26646423339844
y: 366.45654296875
z: -0.004371381364762783
visibility: 0.9995697736740112
","x: 228.47254943847656
y: 447.162109375
z: -0.01545030064880848
visibility: 0.9939556121826172
","x: 202.6337890625
y: 446.4054870605469
z: -0.01521955244243145
visibility: 0.973936140537262
","x: 227.56109619140625
y: 521.5436401367188
z: 0.11363579332828522
visibility: 0.9930036664009094
","x: 201.7010040283203
y: 522.1275634765625
z: 0.10378829389810562
visibility: 0.9872112274169922
","x: 227.42706298828125
y: 534.82763671875
z: 0.11975173652172089
visibility: 0.9000416398048401
","x: 203.41824340820312
y: 533.9923706054688
z: 0.10507611185312271
visibility: 0.938982367515564
","x: 235.0445098876953
y: 543.4754028320312
z: 0.0046539390459656715
visibility: 0.9885979890823364
","x: 203.7894744873047
y: 544.043701171875
z: -0.006090150214731693
visibility: 0.9837462902069092
",,,,,,,,,,,,,,,,,,,,,,,,,,,,,,,,,,,,,,,,,,
24,"x: 214.57388305664062
y: 227.71775817871094
z: -0.3186943233013153
visibility: 0.9999805688858032
","x: 216.97918701171875
y: 220.9033203125
z: -0.30727991461753845
visibility: 0.9999427795410156
","x: 218.27056884765625
y: 220.9452667236328
z: -0.30731040239334106
visibility: 0.9999485611915588
","x: 219.51260375976562
y: 220.97869873046875
z: -0.3073177933692932
visibility: 0.9999476075172424
","x: 212.98321533203125
y: 219.7603759765625
z: -0.3100551962852478
visibility: 0.9999362826347351
","x: 211.4423370361328
y: 218.9392852783203
z: -0.31009387969970703
visibility: 0.9999222159385681
","x: 209.89955139160156
y: 218.0915069580078
z: -0.3100915551185608
visibility: 0.9999136924743652
","x: 221.13304138183594
y: 221.54937744140625
z: -0.1968630850315094
visibility: 0.999944269657135
","x: 207.62005615234375
y: 217.89292907714844
z: -0.2113632708787918
visibility: 0.9998173713684082
","x: 216.35963439941406
y: 233.2313690185547
z: -0.2734256088733673
visibility: 0.9999769330024719
","x: 211.64523315429688
y: 232.841552734375
z: -0.27760401368141174
visibility: 0.9999557733535767
","x: 234.6965789794922
y: 255.64321899414062
z: -0.0993286520242691
visibility: 0.9999934434890747
","x: 192.9494171142578
y: 259.19158935546875
z: -0.11558783054351807
visibility: 0.9999170899391174
","x: 242.4495849609375
y: 310.40966796875
z: -0.05117567256093025
visibility: 0.995469331741333
","x: 180.37745666503906
y: 316.02423095703125
z: -0.06618402153253555
visibility: 0.8521562218666077
","x: 242.83486938476562
y: 348.7205810546875
z: -0.15928752720355988
visibility: 0.9913275837898254
","x: 168.24667358398438
y: 357.69488525390625
z: -0.1604384034872055
visibility: 0.9496287107467651
","x: 242.64756774902344
y: 360.9521484375
z: -0.1863028109073639
visibility: 0.9813225269317627
","x: 162.47952270507812
y: 372.8209228515625
z: -0.18648800253868103
visibility: 0.930507242679596
","x: 240.0576171875
y: 357.545166015625
z: -0.2191411554813385
visibility: 0.9826709032058716
","x: 162.4998321533203
y: 372.283203125
z: -0.22495701909065247
visibility: 0.9365484118461609
","x: 239.38319396972656
y: 353.57611083984375
z: -0.17424210906028748
visibility: 0.9760950803756714
","x: 164.75857543945312
y: 367.43096923828125
z: -0.17762134969234467
visibility: 0.9285067915916443
","x: 227.30685424804688
y: 366.36669921875
z: 0.01655239425599575
visibility: 0.9995989203453064
","x: 205.17031860351562
y: 366.4040832519531
z: -0.016608212143182755
visibility: 0.9995822906494141
","x: 231.77166748046875
y: 446.96826171875
z: 0.009159714914858341
visibility: 0.9935728907585144
","x: 203.60400390625
y: 446.0595397949219
z: -0.04475238174200058
visibility: 0.9761186838150024
","x: 230.69631958007812
y: 521.74951171875
z: 0.09511209279298782
visibility: 0.9930406212806702
","x: 202.3944854736328
y: 522.1105346679688
z: 0.04703960567712784
visibility: 0.9880403876304626
","x: 227.69512939453125
y: 535.396484375
z: 0.0966520756483078
visibility: 0.9064995050430298
","x: 203.5990447998047
y: 532.1770629882812
z: 0.04896853491663933
visibility: 0.9359450340270996
","x: 245.47488403320312
y: 543.5240478515625
z: -0.009652583859860897
visibility: 0.9888754487037659
","x: 203.8069610595703
y: 544.8662719726562
z: -0.06674184650182724
visibility: 0.9845463037490845
",,,,,,,,,,,,,,,,,,,,,,,,,,,,,,,,,,,,,,,,,,
25,"x: 219.51744079589844
y: 227.20498657226562
z: -0.2932034432888031
visibility: 0.9999818801879883
","x: 222.04388427734375
y: 220.78646850585938
z: -0.2816392183303833
visibility: 0.9999462366104126
","x: 223.36199951171875
y: 220.89471435546875
z: -0.2816539406776428
visibility: 0.9999510645866394
","x: 224.66871643066406
y: 220.8386993408203
z: -0.2816440761089325
visibility: 0.9999499320983887
","x: 218.10386657714844
y: 219.32516479492188
z: -0.2842254042625427
visibility: 0.9999399781227112
","x: 216.72193908691406
y: 218.4593505859375
z: -0.2842617928981781
visibility: 0.9999274015426636
","x: 215.43763732910156
y: 217.6101837158203
z: -0.28426647186279297
visibility: 0.9999196529388428
","x: 226.45648193359375
y: 221.6595458984375
z: -0.17486444115638733
visibility: 0.9999423027038574
","x: 213.983642578125
y: 217.72845458984375
z: -0.18905429542064667
visibility: 0.9998307228088379
","x: 221.48501586914062
y: 232.87783813476562
z: -0.24974019825458527
visibility: 0.9999775290489197
","x: 216.64064025878906
y: 232.27430725097656
z: -0.2538836598396301
visibility: 0.9999587535858154
","x: 240.1494903564453
y: 255.8258819580078
z: -0.07762612402439117
visibility: 0.9999922513961792
","x: 198.81710815429688
y: 258.1961669921875
z: -0.10519595444202423
visibility: 0.9999232888221741
","x: 247.4453887939453
y: 312.23553466796875
z: -0.009972386062145233
visibility: 0.9945710897445679
","x: 187.02362060546875
y: 313.1873779296875
z: -0.0674474686384201
visibility: 0.8663246035575867
","x: 252.2129364013672
y: 362.0636291503906
z: -0.09917879104614258
visibility: 0.9907847046852112
","x: 168.29940795898438
y: 341.6192321777344
z: -0.1727096438407898
visibility: 0.9540932774543762
","x: 254.51290893554688
y: 374.27178955078125
z: -0.12184852361679077
visibility: 0.979841947555542
","x: 161.84974670410156
y: 349.60595703125
z: -0.20086093246936798
visibility: 0.9362863898277283
","x: 252.2177734375
y: 373.59515380859375
z: -0.1558658331632614
visibility: 0.9814338088035583
","x: 161.36912536621094
y: 347.0841979980469
z: -0.23975536227226257
visibility: 0.9419001936912537
","x: 250.79933166503906
y: 370.041748046875
z: -0.11472214758396149
visibility: 0.9751119017601013
","x: 164.11373901367188
y: 345.1144104003906
z: -0.1907208263874054
visibility: 0.934386134147644
","x: 232.1231689453125
y: 366.58056640625
z: 0.02036382630467415
visibility: 0.9996190071105957
","x: 209.58993530273438
y: 366.39276123046875
z: -0.020457332953810692
visibility: 0.9995940327644348
","x: 234.88021850585938
y: 448.9022216796875
z: 0.003620829898864031
visibility: 0.993259847164154
","x: 206.6730499267578
y: 446.5108947753906
z: -0.03652963787317276
visibility: 0.9780914783477783
","x: 232.71871948242188
y: 521.8085327148438
z: 0.11692821979522705
visibility: 0.993118405342102
","x: 203.10498046875
y: 522.1474609375
z: 0.07488404214382172
visibility: 0.9888047575950623
","x: 228.2288055419922
y: 535.1881103515625
z: 0.12111560255289078
visibility: 0.9116864800453186
","x: 204.32415771484375
y: 531.7669067382812
z: 0.07872024178504944
visibility: 0.9331935048103333
","x: 244.65350341796875
y: 544.109130859375
z: 0.013206474483013153
visibility: 0.9892060160636902
","x: 204.52365112304688
y: 545.8707275390625
z: -0.03466983139514923
visibility: 0.985374391078949
",,,,,,,,,,,,,,,,,,,,,,,,,,,,,,,,,,,,,,,,,,
26,"x: 226.07418823242188
y: 227.37144470214844
z: -0.26652055978775024
visibility: 0.9999833703041077
","x: 228.88294982910156
y: 221.05682373046875
z: -0.2554910480976105
visibility: 0.9999505877494812
","x: 230.13340759277344
y: 221.12673950195312
z: -0.2555137574672699
visibility: 0.9999547004699707
","x: 231.2735137939453
y: 221.07989501953125
