uscmakers/ReverseChoreography/data/5_peaches_justin_bieber.csv
,NOSE,LEFT_EYE_INNER,LEFT_EYE,LEFT_EYE_OUTER,RIGHT_EYE_INNER,RIGHT_EYE,RIGHT_EYE_OUTER,LEFT_EAR,RIGHT_EAR,MOUTH_LEFT,MOUTH_RIGHT,LEFT_SHOULDER,RIGHT_SHOULDER,LEFT_ELBOW,RIGHT_ELBOW,LEFT_WRIST,RIGHT_WRIST,LEFT_PINKY,RIGHT_PINKY,LEFT_INDEX,RIGHT_INDEX,LEFT_THUMB,RIGHT_THUMB,LEFT_HIP,RIGHT_HIP,LEFT_KNEE,RIGHT_KNEE,LEFT_ANKLE,RIGHT_ANKLE,LEFT_HEEL,RIGHT_HEEL,LEFT_FOOT_INDEX,RIGHT_FOOT_INDEX,WRIST2,THUMB_CPC2,THUMB_MCP2,THUMB_IP2,THUMB_TIP2,INDEX_FINGER_MCP2,INDEX_FINGER_PIP2,INDEX_FINGER_DIP2,INDEX_FINGER_TIP2,MIDDLE_FINGER_MCP2,MIDDLE_FINGER_PIP2,MIDDLE_FINGER_DIP2,MIDDLE_FINGER_TIP2,RING_FINGER_PIP2,RING_FINGER_DIP2,RING_FINGER_TIP2,RING_FINGER_MCP2,PINKY_MCP2,PINKY_PIP2,PINKY_DIP2,PINKY_TIP2,WRIST,THUMB_CPC,THUMB_MCP,THUMB_IP,THUMB_TIP,INDEX_FINGER_MCP,INDEX_FINGER_PIP,INDEX_FINGER_DIP,INDEX_FINGER_TIP,MIDDLE_FINGER_MCP,MIDDLE_FINGER_PIP,MIDDLE_FINGER_DIP,MIDDLE_FINGER_TIP,RING_FINGER_PIP,RING_FINGER_DIP,RING_FINGER_TIP,RING_FINGER_MCP,PINKY_MCP,PINKY_PIP,PINKY_DIP,PINKY_TIP
0,"x: 219.0880126953125
y: 209.79388427734375
z: -0.14452096819877625
visibility: 0.9999064207077026
","x: 222.5023956298828
y: 203.92874145507812
z: -0.12937983870506287
visibility: 0.9997736811637878
","x: 223.98390197753906
y: 204.61102294921875
z: -0.12946917116641998
visibility: 0.9998133778572083
","x: 225.40130615234375
y: 205.3594970703125
z: -0.12953923642635345
visibility: 0.9998204112052917
","x: 218.93031311035156
y: 202.4474334716797
z: -0.12400326877832413
visibility: 0.9997190833091736
","x: 217.89971923828125
y: 202.123291015625
z: -0.12398376315832138
visibility: 0.9996447563171387
","x: 216.94557189941406
y: 201.828125
z: -0.12397192418575287
visibility: 0.9996021389961243
","x: 227.82203674316406
y: 211.1060791015625
z: -0.034846577793359756
visibility: 0.999842643737793
","x: 216.34799194335938
y: 206.048095703125
z: -0.007945999503135681
visibility: 0.9992007613182068
","x: 221.888671875
y: 218.8550567626953
z: -0.10849759727716446
visibility: 0.9999343156814575
","x: 216.3427276611328
y: 216.83541870117188
z: -0.10097241401672363
visibility: 0.9998644590377808
","x: 240.8497314453125
y: 258.3677978515625
z: -0.02473697066307068
visibility: 0.9999905824661255
","x: 200.67169189453125
y: 249.12860107421875
z: 0.08143222332000732
visibility: 0.9998069405555725
","x: 245.70115661621094
y: 306.71685791015625
z: -0.09029996395111084
visibility: 0.9871429800987244
","x: 195.77755737304688
y: 302.4154357910156
z: 0.09729572385549545
visibility: 0.6528229713439941
","x: 244.36814880371094
y: 332.37933349609375
z: -0.2752350866794586
visibility: 0.961372971534729
","x: 193.38404846191406
y: 342.494140625
z: -0.038167595863342285
visibility: 0.6858429908752441
","x: 246.34591674804688
y: 340.4599609375
z: -0.3261720836162567
visibility: 0.9449465274810791
","x: 192.40237426757812
y: 353.8518981933594
z: -0.07424808293581009
visibility: 0.6517934799194336
","x: 243.8322296142578
y: 336.4278564453125
z: -0.35206538438796997
visibility: 0.9476421475410461
","x: 194.37049865722656
y: 353.3450622558594
z: -0.10553338378667831
visibility: 0.6652131676673889
","x: 241.9757080078125
y: 333.44921875
z: -0.28995978832244873
visibility: 0.9234693646430969
","x: 194.98178100585938
y: 349.0494079589844
z: -0.0555567629635334
visibility: 0.6407696604728699
","x: 223.87181091308594
y: 366.1197509765625
z: -0.04914046451449394
visibility: 0.9995594620704651
","x: 202.44732666015625
y: 364.0670471191406
z: 0.04928996041417122
visibility: 0.9992796778678894
","x: 222.1338653564453
y: 453.76953125
z: -0.07348369807004929
visibility: 0.990477442741394
","x: 207.3636474609375
y: 452.11566162109375
z: 0.0628555417060852
visibility: 0.9567349553108215
","x: 224.05123901367188
y: 540.2636108398438
z: 0.006961324717849493
visibility: 0.9909241795539856
","x: 212.98397827148438
y: 532.0195922851562
z: 0.1930103749036789
visibility: 0.9728760123252869
","x: 227.6569366455078
y: 553.697509765625
z: 0.0063769035041332245
visibility: 0.8430238962173462
","x: 216.47763061523438
y: 545.1265869140625
z: 0.19741205871105194
visibility: 0.9124228954315186
","x: 209.92364501953125
y: 563.6969604492188
z: -0.13552133738994598
visibility: 0.9837108254432678
","x: 200.52493286132812
y: 556.8094482421875
z: 0.08577337116003036
visibility: 0.9738641977310181
",,,,,,,,,,,,,,,,,,,,,,,,,,,,,,,,,,,,,,,,,,
1,"x: 219.48655700683594
y: 210.75762939453125
z: -0.16861334443092346
visibility: 0.9999098777770996
","x: 223.40431213378906
y: 204.15086364746094
z: -0.16082647442817688
visibility: 0.9997802972793579
","x: 224.9793701171875
y: 204.70375061035156
z: -0.16090138256549835
visibility: 0.9998181462287903
","x: 226.57595825195312
y: 205.38156127929688
z: -0.16097034513950348
visibility: 0.9998263716697693
","x: 219.7882843017578
y: 203.06100463867188
z: -0.1489189714193344
visibility: 0.999730110168457
","x: 218.92665100097656
y: 202.814697265625
z: -0.14890190958976746
visibility: 0.9996579885482788
","x: 218.1996612548828
y: 202.5699005126953
z: -0.14892254769802094
visibility: 0.9996211528778076
","x: 230.1080322265625
y: 211.0946044921875
z: -0.09009207785129547
visibility: 0.9998496174812317
","x: 219.15216064453125
y: 206.46218872070312
z: -0.032132651656866074
visibility: 0.9992396831512451
","x: 222.4991912841797
y: 219.3709716796875
z: -0.13977834582328796
visibility: 0.9999377727508545
","x: 217.47743225097656
y: 217.75900268554688
z: -0.12339802831411362
visibility: 0.9998719692230225
","x: 242.25294494628906
y: 258.2095031738281
z: -0.08921957015991211
visibility: 0.9999911189079285
","x: 204.51217651367188
y: 249.3721160888672
z: 0.07936402410268784
visibility: 0.9998155832290649
","x: 245.76844787597656
y: 313.0421142578125
z: -0.1189671978354454
visibility: 0.988032877445221
","x: 197.05886840820312
y: 305.0313415527344
z: 0.12420640885829926
visibility: 0.6605643630027771
","x: 241.44970703125
y: 348.1051940917969
z: -0.25179189443588257
visibility: 0.9633463025093079
","x: 193.17913818359375
y: 350.650146484375
z: 0.013859872706234455
visibility: 0.6995343565940857
","x: 240.5893096923828
y: 360.7971496582031
z: -0.29525211453437805
visibility: 0.9471629858016968
","x: 191.9632568359375
y: 368.0525207519531
z: -0.015263332054018974
visibility: 0.6633718013763428
","x: 238.29400634765625
y: 353.0899658203125
z: -0.31973084807395935
visibility: 0.9496031999588013
","x: 193.61244201660156
y: 366.1739501953125
z: -0.04772397503256798
visibility: 0.6763416528701782
","x: 237.6848602294922
y: 348.5774230957031
z: -0.26308614015579224
visibility: 0.926080048084259
","x: 194.507080078125
y: 359.74462890625
z: -0.00324869598262012
visibility: 0.6520143747329712
","x: 224.0936737060547
y: 367.9040832519531
z: -0.06288556009531021
visibility: 0.9995863437652588
","x: 202.927734375
y: 365.3613586425781
z: 0.06298583000898361
visibility: 0.9993188381195068
","x: 222.408935546875
y: 454.2254943847656
z: -0.11364176124334335
visibility: 0.9911415576934814
","x: 200.07427978515625
y: 452.3614196777344
z: 0.06748012453317642
visibility: 0.959436297416687
","x: 224.0548095703125
y: 540.3681030273438
z: -0.009212395176291466
visibility: 0.9915825724601746
","x: 212.95262145996094
y: 531.7925415039062
z: 0.2330458164215088
visibility: 0.9745106101036072
","x: 227.6893310546875
y: 554.3853149414062
z: -0.007637639530003071
visibility: 0.8522137999534607
","x: 217.11093139648438
y: 544.6497802734375
z: 0.24202024936676025
visibility: 0.9181563854217529
","x: 208.34632873535156
y: 563.9256591796875
z: -0.15059442818164825
visibility: 0.9848828315734863
","x: 197.86985778808594
y: 557.0195922851562
z: 0.14740721881389618
visibility: 0.9754410982131958
",,,,,,,,,,,,,,,,,,,,,,,,,,,,,,,,,,,,,,,,,,
2,"x: 215.5506591796875
y: 208.29100036621094
z: -0.1813753992319107
visibility: 0.9999131560325623
","x: 219.04202270507812
y: 200.95281982421875
z: -0.17833657562732697
visibility: 0.9997844099998474
","x: 220.6578369140625
y: 201.24212646484375
z: -0.17840877175331116
visibility: 0.99982088804245
","x: 222.33847045898438
y: 201.66246032714844
z: -0.17847448587417603
visibility: 0.9998294115066528
","x: 215.57388305664062
y: 200.22886657714844
z: -0.16371813416481018
visibility: 0.9997384548187256
","x: 214.79498291015625
y: 199.98626708984375
z: -0.16369324922561646
visibility: 0.9996680617332458
","x: 214.0916748046875
y: 199.7311553955078
z: -0.16371047496795654
visibility: 0.9996341466903687
","x: 227.10076904296875
y: 206.1959686279297
z: -0.12102196365594864
visibility: 0.9998570680618286
","x: 217.3163604736328
y: 203.11180114746094
z: -0.04983436316251755
visibility: 0.9992682933807373
","x: 218.92739868164062
y: 216.21456909179688
z: -0.15663273632526398
visibility: 0.999941349029541
","x: 214.74960327148438
y: 215.32911682128906
z: -0.13641077280044556
visibility: 0.9998789429664612
","x: 241.32745361328125
y: 254.37844848632812
z: -0.11639608442783356
visibility: 0.9999914169311523
","x: 204.29583740234375
y: 247.9862823486328
z: 0.0646311491727829
visibility: 0.9998273849487305
","x: 242.33705139160156
y: 314.179931640625
z: -0.12410946190357208
visibility: 0.9889928698539734
","x: 195.95814514160156
y: 308.70172119140625
z: 0.12171000242233276
visibility: 0.6706387996673584
","x: 232.0697479248047
y: 361.6640930175781
z: -0.21136224269866943
visibility: 0.9658516049385071
","x: 189.85940551757812
y: 357.7822570800781
z: 0.01672554947435856
visibility: 0.7181721925735474
","x: 229.38824462890625
y: 374.5876770019531
z: -0.2500428557395935
visibility: 0.9501460790634155
","x: 187.38601684570312
y: 373.8683776855469
z: -0.010065228678286076
visibility: 0.6808454394340515
","x: 226.4883270263672
y: 367.8704528808594
z: -0.27463477849960327
visibility: 0.9523754119873047
","x: 188.90692138671875
y: 372.5364990234375
z: -0.04560570791363716
visibility: 0.6934512257575989
","x: 226.4077606201172
y: 363.165283203125
z: -0.22130875289440155
visibility: 0.9300572276115417
","x: 190.49118041992188
y: 367.2113342285156
z: -0.0014411269221454859
visibility: 0.6701571941375732
","x: 224.00233459472656
y: 368.9343566894531
z: -0.06402288377285004
visibility: 0.9995879530906677
","x: 202.57823181152344
y: 366.1259765625
z: 0.06414209306240082
visibility: 0.9993476867675781
","x: 224.13204956054688
y: 454.3052673339844
z: -0.11011017858982086
visibility: 0.9917514324188232
","x: 196.68185424804688
y: 452.7579040527344
z: 0.07669057697057724
visibility: 0.961915135383606
","x: 224.32167053222656
y: 539.4698486328125
z: 0.024727826938033104
visibility: 0.9920006394386292
","x: 203.0858612060547
y: 531.8640747070312
z: 0.21913453936576843
visibility: 0.9760574102401733
","x: 227.69371032714844
y: 554.0740356445312
z: 0.027370119467377663
visibility: 0.8555935025215149
","x: 208.4429473876953
y: 544.8276977539062
z: 0.22538110613822937
visibility: 0.9230183959007263
","x: 208.77603149414062
y: 563.8480834960938
z: -0.1069267988204956
visibility: 0.9854546785354614
","x: 184.0325469970703
y: 557.07666015625
z: 0.12425277382135391
visibility: 0.9766044616699219
",,,,,,,,,,,,,,,,,,,,,,,,,,,,,,,,,,,,,,,,,,
3,"x: 211.0572967529297
y: 207.88392639160156
z: -0.20761580765247345
visibility: 0.9999129176139832
","x: 214.27688598632812
y: 199.68292236328125
z: -0.20428001880645752
visibility: 0.9997754693031311
","x: 215.94906616210938
y: 199.7966766357422
z: -0.20435884594917297
visibility: 0.9998129606246948
","x: 217.6578826904297
y: 200.02549743652344
z: -0.20443525910377502
visibility: 0.9998221397399902
","x: 210.23463439941406
y: 198.96339416503906
z: -0.19119252264499664
visibility: 0.9997351169586182
","x: 209.2104949951172
y: 198.59332275390625
z: -0.19117939472198486
visibility: 0.9996645450592041
","x: 208.31256103515625
y: 198.2486114501953
z: -0.1911998838186264
visibility: 0.9996290802955627
","x: 221.87924194335938
y: 203.55511474609375
z: -0.13539732992649078
visibility: 0.9998566508293152
","x: 210.58355712890625
y: 200.72486877441406
z: -0.07262597233057022
visibility: 0.9992474317550659
","x: 214.2949676513672
y: 215.25747680664062
z: -0.17789910733699799
visibility: 0.9999403953552246
","x: 210.13787841796875
y: 214.68923950195312
z: -0.16002410650253296
visibility: 0.9998766183853149
","x: 237.22640991210938
y: 252.1231689453125
z: -0.11990896612405777
visibility: 0.9999906420707703
","x: 199.8617706298828
y: 246.80377197265625
z: 0.049633316695690155
visibility: 0.9998338222503662
","x: 237.75352478027344
y: 315.075439453125
z: -0.11804559081792831
visibility: 0.9896012544631958
","x: 193.5203094482422
y: 308.1121520996094
z: 0.10365603119134903
visibility: 0.6712455153465271
","x: 232.91717529296875
y: 368.3092041015625
z: -0.18481358885765076
visibility: 0.966096818447113
","x: 185.52960205078125
y: 355.09173583984375
z: 0.010260804556310177
visibility: 0.7284767627716064
","x: 231.6309356689453
y: 384.0455322265625
z: -0.21741726994514465
visibility: 0.9493798613548279
","x: 182.2299041748047
y: 370.01324462890625
z: -0.032358136028051376
visibility: 0.6902499198913574
","x: 228.65390014648438
y: 380.8607482910156
z: -0.24569877982139587
visibility: 0.951731264591217
","x: 182.8858642578125
y: 368.76910400390625
z: -0.06358713656663895
visibility: 0.7032877206802368
","x: 228.21876525878906
y: 375.26055908203125
z: -0.19603553414344788
visibility: 0.9298228025436401
","x: 184.88095092773438
y: 363.84539794921875
z: -0.0019723917357623577
visibility: 0.6802024245262146
","x: 223.9111328125
y: 368.9556579589844
z: -0.06305133551359177
visibility: 0.9995406866073608
","x: 201.94580078125
y: 366.641845703125
z: 0.06317446380853653
visibility: 0.9993361830711365
","x: 224.2490692138672
y: 454.2231750488281
z: -0.09755834192037582
visibility: 0.9921011328697205
","x: 197.21446228027344
y: 452.99688720703125
z: 0.07388463616371155
visibility: 0.9637347459793091
","x: 224.572021484375
y: 539.273681640625
z: 0.01996494084596634
visibility: 0.992281436920166
","x: 197.4823760986328
y: 532.390869140625
z: 0.18507471680641174
visibility: 0.9776501655578613
","x: 227.6829071044922
y: 553.9112548828125
z: 0.02127726934850216
visibility: 0.8601940274238586
","x: 202.09292602539062
y: 547.4559326171875
z: 0.18747028708457947
visibility: 0.9276846647262573
","x: 209.40879821777344
y: 563.47216796875
z: -0.11575659364461899
visibility: 0.9859635829925537
","x: 177.57217407226562
y: 556.625732421875
z: 0.08283771574497223
visibility: 0.9778388738632202
",,,,,,,,,,,,,,,,,,,,,,,,,,,,,,,,,,,,,,,,,,
4,"x: 203.0005645751953
y: 206.1563262939453
z: -0.17723748087882996
visibility: 0.9999191761016846
","x: 205.4817352294922
y: 198.2193603515625
z: -0.18874338269233704
visibility: 0.9997914433479309
","x: 206.91226196289062
y: 198.22735595703125
z: -0.1890271008014679
visibility: 0.9998265504837036
","x: 208.36575317382812
y: 198.33306884765625
z: -0.18931081891059875
visibility: 0.9998355507850647
","x: 202.03587341308594
y: 197.85195922851562
z: -0.15994927287101746
visibility: 0.999752938747406
","x: 201.10165405273438
y: 197.57879638671875
z: -0.15986211597919464
visibility: 0.9996867179870605
","x: 200.31771850585938
y: 197.3353271484375
z: -0.15978768467903137
visibility: 0.9996520280838013
","x: 211.3572998046875
y: 201.55340576171875
z: -0.10024718940258026
visibility: 0.9998691082000732
","x: 201.8651123046875
y: 199.87982177734375
z: -0.031382571905851364
visibility: 0.9992921352386475
","x: 205.8807373046875
y: 213.3053436279297
z: -0.15369991958141327
visibility: 0.9999446272850037
","x: 201.95741271972656
y: 213.1302032470703
z: -0.12458743900060654
visibility: 0.9998829960823059
","x: 226.5254669189453
y: 247.099609375
z: -0.08971603214740753
visibility: 0.9999911189079285
","x: 193.22967529296875
y: 246.82272338867188
z: 0.1110081672668457
visibility: 0.9998323917388916
","x: 235.59872436523438
y: 314.2578125
z: -0.0910337045788765
visibility: 0.990324079990387
","x: 190.17147827148438
y: 307.7525939941406
z: 0.1506555676460266
visibility: 0.6429361701011658
","x: 238.36569213867188
y: 361.7491455078125
z: -0.1431107372045517
visibility: 0.967894434928894
","x: 177.16220092773438
y: 326.189697265625
z: 0.013660249300301075
visibility: 0.7355607748031616
","x: 240.2754364013672
y: 377.2708740234375
z: -0.17064103484153748
visibility: 0.9512991905212402
","x: 169.6226043701172
y: 332.0039367675781
z: -0.012588377110660076
visibility: 0.7012195587158203
","x: 235.6488037109375
y: 376.6395263671875
z: -0.20164820551872253
visibility: 0.9536925554275513
","x: 168.9744873046875
y: 330.3800964355469
z: -0.047186478972435
visibility: 0.7150814533233643
","x: 233.67640686035156
y: 372.1971435546875
z: -0.15534082055091858
visibility: 0.9331234693527222
","x: 171.27516174316406
y: 327.69635009765625
z: -0.005505477078258991
visibility: 0.6922627091407776
","x: 216.97439575195312
y: 369.7292785644531
z: -0.06717562675476074
visibility: 0.9995378851890564
","x: 196.49380493164062
y: 367.7177734375
z: 0.0672912746667862
visibility: 0.9993449449539185
","x: 218.4693145751953
y: 454.367431640625
z: -0.07227209210395813
visibility: 0.9924291372299194
","x: 195.6586456298828
y: 454.32501220703125
z: 0.07328961789608002
visibility: 0.9658328890800476
","x: 224.5675506591797
y: 539.0845336914062
z: 0.04268500208854675
visibility: 0.9926010966300964
","x: 196.5549774169922
y: 534.8651733398438
z: 0.18624275922775269
visibility: 0.9792980551719666
","x: 227.68505859375
y: 553.6005859375
z: 0.04510822892189026
visibility: 0.8651775121688843
","x: 200.6660614013672
y: 550.0853271484375
z: 0.1887109875679016
visibility: 0.9323230981826782
","x: 209.79405212402344
y: 563.4945068359375
z: -0.08168072998523712
visibility: 0.9866049885749817
","x: 175.99635314941406
y: 557.0320434570312
z: 0.08613497018814087
visibility: 0.9792472720146179
",,,,,,,,,,,,,,,,,,,,,,,,,,,,,,,,,,,,,,,,,,
5,"x: 196.51736450195312
y: 206.3316192626953
z: -0.17328116297721863
visibility: 0.9999255537986755
","x: 199.07650756835938
y: 198.6068878173828
z: -0.17261216044425964
visibility: 0.999808669090271
","x: 200.51632690429688
y: 198.7308349609375
z: -0.17276526987552643
visibility: 0.9998413920402527
","x: 201.9657440185547
y: 198.92526245117188
z: -0.1729089617729187
visibility: 0.9998496174812317
","x: 195.57125854492188
y: 197.9701385498047
z: -0.15449990332126617
visibility: 0.999772310256958
","x: 194.6276092529297
y: 197.82766723632812
z: -0.154449000954628
visibility: 0.9997119307518005
","x: 193.8292236328125
y: 197.71607971191406
z: -0.1544051468372345
visibility: 0.9996795654296875
","x: 205.0089111328125
y: 202.60232543945312
z: -0.09634491056203842
visibility: 0.9998810887336731
","x: 195.50550842285156
y: 200.3561553955078
z: -0.029142951592803
visibility: 0.9993492960929871
","x: 199.99639892578125
y: 213.6971435546875
z: -0.14560599625110626
visibility: 0.9999487400054932
","x: 195.3545379638672
y: 213.29835510253906
z: -0.12317129224538803
visibility: 0.9998897910118103
","x: 219.33651733398438
y: 247.0341796875
z: -0.09917506575584412
visibility: 0.999991774559021
","x: 187.7427215576172
y: 247.49081420898438
z: 0.12198574841022491
visibility: 0.9998287558555603
","x: 232.5860595703125
y: 310.9197692871094
z: -0.10619519650936127
visibility: 0.9911736845970154
","x: 183.7016143798828
y: 306.2326354980469
z: 0.15752455592155457
visibility: 0.625076413154602
","x: 241.79063415527344
y: 359.0092468261719
z: -0.17456141114234924
visibility: 0.9703224301338196
","x: 167.8688507080078
y: 306.48828125
z: 0.007996306754648685
visibility: 0.7509534358978271
","x: 246.0203399658203
y: 372.54034423828125
z: -0.19943173229694366
visibility: 0.9542752504348755
","x: 161.6023406982422
y: 309.9105529785156
z: -0.013637445867061615
visibility: 0.7194646000862122
","x: 243.0947723388672
y: 372.55877685546875
z: -0.23040883243083954
visibility: 0.9566596746444702
","x: 160.5706024169922
y: 304.90277099609375
z: -0.04105163365602493
visibility: 0.7332872748374939
","x: 240.775390625
y: 369.24322509765625
z: -0.1870315819978714
visibility: 0.9375519752502441
","x: 162.80078125
y: 302.7620849609375
z: -0.00917480606585741
visibility: 0.7111010551452637
","x: 209.05148315429688
y: 370.1070556640625
z: -0.08496647328138351
visibility: 0.9995607137680054
","x: 190.79486083984375
y: 368.28411865234375
z: 0.08497518301010132
visibility: 0.9993792176246643
","x: 202.84877014160156
y: 455.2400207519531
z: -0.10127796977758408
visibility: 0.9928351044654846
","x: 188.29202270507812
y: 454.6739501953125
z: 0.061074208468198776
visibility: 0.965796709060669
","x: 223.30247497558594
y: 538.228515625
z: -0.019716646522283554
visibility: 0.9931483864784241
","x: 195.52554321289062
y: 535.9929809570312
z: 0.15539506077766418
visibility: 0.9803506731987
","x: 227.97816467285156
y: 550.2205810546875
z: -0.018378276377916336
visibility: 0.8749423623085022
","x: 199.99635314941406
y: 550.6746826171875
z: 0.15665119886398315
visibility: 0.9360602498054504
","x: 209.79747009277344
y: 564.0746459960938
z: -0.13217608630657196
visibility: 0.9876660108566284
","x: 175.1497344970703
y: 557.6439208984375
z: 0.0659240111708641
visibility: 0.9803197383880615
",,,,,,,,,,,,,,,,,,,,,,,,,,,,,,,,,,,,,,,,,,
6,"x: 190.66632080078125
y: 206.44325256347656
z: -0.13563339412212372
visibility: 0.9999216794967651
","x: 193.14385986328125
y: 198.89779663085938
z: -0.13668891787528992
visibility: 0.9998101592063904
","x: 194.53407287597656
y: 199.05653381347656
z: -0.13682301342487335
visibility: 0.9998453855514526
","x: 195.96510314941406
y: 199.2635498046875
z: -0.13695164024829865
visibility: 0.9998549818992615
","x: 190.17367553710938
y: 198.01553344726562
z: -0.11478032171726227
visibility: 0.9997665882110596
","x: 189.48178100585938
y: 197.97401428222656
z: -0.11474373191595078
visibility: 0.999704897403717
","x: 188.91140747070312
y: 197.9542694091797
z: -0.11471983045339584
visibility: 0.9996728301048279
","x: 199.670654296875
y: 203.16049194335938
z: -0.0895700678229332
visibility: 0.9998873472213745
","x: 191.35633850097656
y: 200.44769287109375
z: 0.002895527286455035
visibility: 0.9993376731872559
","x: 194.4617462158203
y: 213.96348571777344
z: -0.11765794456005096
visibility: 0.999944806098938
","x: 190.44786071777344
y: 213.3845672607422
z: -0.0892907902598381
visibility: 0.9998688697814941
","x: 214.00437927246094
y: 245.98843383789062
z: -0.12067393958568573
visibility: 0.9999922513961792
","x: 184.039794921875
y: 247.7716064453125
z: 0.15489637851715088
visibility: 0.9997947812080383
","x: 226.7462921142578
y: 309.270263671875
z: -0.15047721564769745
visibility: 0.9919554591178894
","x: 180.77357482910156
y: 304.66839599609375
z: 0.26163679361343384
visibility: 0.5818742513656616
","x: 237.90545654296875
y: 360.7286071777344
z: -0.19563931226730347
visibility: 0.9723264575004578
","x: 165.85873413085938
y: 318.31561279296875
z: 0.20660340785980225
visibility: 0.7319816946983337
","x: 242.89947509765625
y: 374.6050720214844
z: -0.22257831692695618
visibility: 0.9563959240913391
","x: 153.17835998535156
y: 327.69671630859375
z: 0.2051447331905365
visibility: 0.7045724391937256
","x: 238.4663543701172
y: 375.90692138671875
z: -0.24836798012256622
visibility: 0.9587475657463074
","x: 158.47586059570312
y: 321.181640625
z: 0.16883185505867004
visibility: 0.7203148603439331
","x: 235.82672119140625
y: 373.076904296875
z: -0.20665864646434784
visibility: 0.9407126903533936
","x: 161.14044189453125
y: 311.9734802246094
z: 0.18833796679973602
visibility: 0.6995763778686523
","x: 203.7767333984375
y: 369.41510009765625
z: -0.10202811658382416
visibility: 0.9995718002319336
","x: 186.69969177246094
y: 367.08197021484375
z: 0.10209926217794418
visibility: 0.9993779063224792
","x: 192.74395751953125
y: 452.8208923339844
z: -0.15676435828208923
visibility: 0.9918122887611389
","x: 187.7869873046875
y: 454.116943359375
z: 0.050433188676834106
visibility: 0.9417300224304199
","x: 212.49032592773438
y: 536.3206787109375
z: -0.11741383373737335
visibility: 0.9927650690078735
","x: 196.9562530517578
y: 536.5035400390625
z: 0.10230984538793564
visibility: 0.9733009934425354
","x: 218.37510681152344
y: 549.0438232421875
z: -0.11837273836135864
visibility: 0.8820561170578003
","x: 202.45738220214844
y: 552.0823974609375
z: 0.1002124696969986
visibility: 0.9324620366096497
","x: 191.7442169189453
y: 563.324951171875
z: -0.21441109478473663
visibility: 0.987769365310669
","x: 176.47409057617188
y: 558.4716186523438
z: 0.02295949123799801
visibility: 0.9764559268951416
",,,,,,,,,,,,,,,,,,,,,,,,,,,,,,,,,,,,,,,,,,
7,"x: 186.05227661132812
y: 206.29742431640625
z: -0.14428746700286865
visibility: 0.999850869178772
","x: 188.66787719726562
y: 198.7047119140625
z: -0.15044555068016052
visibility: 0.9996870160102844
","x: 189.82052612304688
y: 198.66941833496094
z: -0.1505759358406067
visibility: 0.9997547268867493
","x: 191.1004180908203
y: 198.67877197265625
z: -0.15068520605564117
visibility: 0.9997820854187012
","x: 186.6048126220703
y: 198.25048828125
z: -0.12222206592559814
visibility: 0.9996013641357422
","x: 186.28038024902344
y: 198.1942901611328
z: -0.1221713274717331
visibility: 0.9995240569114685
","x: 186.03651428222656
y: 198.143310546875
z: -0.12206828594207764
visibility: 0.9994950890541077
","x: 195.51295471191406
y: 202.7334442138672
z: -0.14170953631401062
visibility: 0.999843955039978
","x: 189.2555694580078
y: 200.76791381835938
z: -0.02605121210217476
visibility: 0.998976469039917
","x: 188.97283935546875
y: 213.7375030517578
z: -0.13681244850158691
visibility: 0.9999132752418518
","x: 186.3892364501953
y: 213.45700073242188
z: -0.08977869898080826
visibility: 0.9997736811637878
","x: 209.14047241210938
y: 245.86610412597656
z: -0.17878668010234833
visibility: 0.9999923706054688
","x: 180.76385498046875
y: 248.71849060058594
z: 0.1477859914302826
visibility: 0.9997744560241699
","x: 216.48788452148438
y: 309.31231689453125
z: -0.20241567492485046
visibility: 0.9925979375839233
","x: 177.5551300048828
y: 305.6434326171875
z: 0.19069156050682068
visibility: 0.5645021200180054
","x: 218.2071075439453
y: 364.602294921875
z: -0.24027018249034882
visibility: 0.9741777777671814
","x: 162.77044677734375
y: 342.5341796875
z: 0.09007327258586884
visibility: 0.7416300177574158
","x: 218.95703125
y: 380.80877685546875
z: -0.2687288820743561
visibility: 0.9588825106620789
","x: 156.90304565429688
y: 356.33160400390625
z: 0.07536590844392776
visibility: 0.715402364730835
","x: 214.165771484375
y: 380.2749938964844
z: -0.28770655393600464
visibility: 0.9610337018966675
","x: 157.5457763671875
y: 353.5059814453125
z: 0.03734860196709633
visibility: 0.7312383055686951
","x: 212.98939514160156
y: 375.8218688964844
z: -0.24623005092144012
visibility: 0.9439311623573303
","x: 159.57986450195312
y: 348.5491943359375
z: 0.07072021812200546
visibility: 0.7104106545448303
","x: 201.4474639892578
y: 368.4947509765625
z: -0.10211443901062012
visibility: 0.9995750784873962
","x: 184.8394317626953
y: 365.18603515625
z: 0.10219694674015045
visibility: 0.999332070350647
","x: 190.13223266601562
y: 451.90533447265625
z: -0.17297320067882538
visibility: 0.9885876774787903
","x: 188.34495544433594
y: 452.2832946777344
z: 0.05218677967786789
visibility: 0.8986579179763794
","x: 195.82672119140625
y: 538.6278686523438
z: -0.14514538645744324
visibility: 0.9908108711242676
","x: 195.96046447753906
y: 536.0794677734375
z: 0.1237938180565834
visibility: 0.9471578598022461
","x: 201.2372589111328
y: 552.5369873046875
z: -0.1487727165222168
visibility: 0.8817844390869141
","x: 200.5928192138672
y: 551.61767578125
z: 0.12379231303930283
visibility: 0.9155629873275757
","x: 172.33078002929688
y: 563.7637939453125
z: -0.25789621472358704
visibility: 0.985688328742981
","x: 174.46871948242188
y: 557.8780517578125
z: 0.04685233160853386
visibility: 0.9603661298751831
",,,,,,,,,,,,,,,,,,,,,,,,,,,,,,,,,,,,,,,,,,
8,"x: 181.83779907226562
y: 206.87600708007812
z: -0.16048812866210938
visibility: 0.99984210729599
","x: 184.32278442382812
y: 198.79098510742188
z: -0.17269912362098694
visibility: 0.9996855854988098
","x: 185.56431579589844
y: 198.85671997070312
z: -0.17279735207557678
visibility: 0.9997555017471313
","x: 186.95816040039062
y: 198.87969970703125
z: -0.17287074029445648
visibility: 0.9997850060462952
","x: 182.34877014160156
y: 198.80958557128906
z: -0.1417955607175827
visibility: 0.9995906949043274
","x: 182.1192626953125
y: 198.91770935058594
z: -0.14174583554267883
visibility: 0.9995058178901672
","x: 181.97760009765625
y: 198.97042846679688
z: -0.14173957705497742
visibility: 0.9994685053825378
","x: 192.81564331054688
y: 202.85488891601562
z: -0.16769376397132874
visibility: 0.9998466372489929
","x: 186.48065185546875
y: 200.93179321289062
z: -0.042849037796258926
visibility: 0.9988585710525513
","x: 185.199951171875
y: 214.05392456054688
z: -0.15774820744991302
visibility: 0.9999101758003235
","x: 182.66937255859375
y: 214.34251403808594
z: -0.11582541465759277
visibility: 0.999754786491394
","x: 206.02352905273438
y: 245.56707763671875
z: -0.2181958258152008
visibility: 0.9999929070472717
","x: 180.58555603027344
y: 248.8129425048828
z: 0.1290978640317917
visibility: 0.9997186064720154
","x: 210.24075317382812
y: 310.43011474609375
z: -0.26176950335502625
visibility: 0.9932540059089661
","x: 176.76039123535156
y: 307.7942810058594
z: 0.17177054286003113
visibility: 0.5250153541564941
","x: 195.03567504882812
y: 361.7152404785156
z: -0.28991949558258057
visibility: 0.9764455556869507
","x: 165.15737915039062
y: 351.55596923828125
z: 0.0651821717619896
visibility: 0.7102299332618713
","x: 190.9310302734375
y: 377.0164794921875
z: -0.32563403248786926
visibility: 0.9622567892074585
","x: 161.80348205566406
y: 365.5322570800781
z: 0.05038830637931824
visibility: 0.6870722770690918
","x: 185.61770629882812
y: 374.98797607421875
z: -0.33648526668548584
visibility: 0.96417635679245
","x: 161.33450317382812
y: 363.2919006347656
z: 0.015398864634335041
visibility: 0.7029474377632141
","x: 186.1864776611328
y: 371.0913391113281
z: -0.2912369668483734
visibility: 0.9481238722801208
","x: 162.47036743164062
y: 358.1542663574219
z: 0.04694652184844017
visibility: 0.6823234558105469
","x: 197.8657989501953
y: 366.7630615234375
z: -0.10416765511035919
visibility: 0.99959796667099
","x: 183.48995971679688
y: 363.9319152832031
z: 0.10428036749362946
visibility: 0.9992936849594116
","x: 188.25059509277344
y: 452.0198059082031
z: -0.1453661471605301
visibility: 0.986676037311554
","x: 188.84225463867188
y: 452.2866516113281
z: 0.13108988106250763
visibility: 0.8717350959777832
","x: 182.46131896972656
y: 543.1231689453125
z: -0.11862143129110336
visibility: 0.9907121658325195
","x: 195.66917419433594
y: 535.964111328125
z: 0.19334986805915833
visibility: 0.9394209384918213
","x: 187.48165893554688
y: 557.0277099609375
z: -0.12274452298879623
visibility: 0.8905380368232727
","x: 200.54161071777344
y: 552.271484375
z: 0.19426052272319794
visibility: 0.9126834273338318
","x: 157.70179748535156
y: 563.764892578125
z: -0.23150953650474548
visibility: 0.9857717156410217
","x: 175.97164916992188
y: 552.6018676757812
z: 0.1351969838142395
visibility: 0.9555256962776184
",,,,,,,,,,,,,,,,,,,,,,,,,,,,,,,,,,,,,,,,,,
9,"x: 176.68080139160156
y: 207.08773803710938
z: -0.07740040123462677
visibility: 0.999832272529602
","x: 179.28440856933594
y: 198.84869384765625
z: -0.09345071762800217
visibility: 0.9996942281723022
","x: 180.48133850097656
y: 198.97621154785156
z: -0.09354293346405029
visibility: 0.9997616410255432
","x: 181.8468780517578
y: 199.0284881591797
z: -0.09360042214393616
visibility: 0.9997921586036682
","x: 177.84060668945312
y: 199.21751403808594
z: -0.06056760624051094
visibility: 0.999596118927002
","x: 177.9596710205078
y: 199.28955078125
z: -0.06054869294166565
visibility: 0.9995108842849731
","x: 178.18247985839844
y: 199.29742431640625
z: -0.06056331470608711
visibility: 0.9994745850563049
","x: 188.69992065429688
y: 202.57301330566406
z: -0.15783725678920746
visibility: 0.9998547434806824
","x: 184.51345825195312
y: 201.14927673339844
z: 0.03280383720993996
visibility: 0.998871922492981
","x: 180.55355834960938
y: 214.11114501953125
z: -0.08081229031085968
visibility: 0.9999072551727295
","x: 178.6839599609375
y: 214.52099609375
z: -0.03797535598278046
visibility: 0.9997296333312988
","x: 202.4036102294922
y: 243.50904846191406
z: -0.1688540130853653
visibility: 0.9999933242797852
","x: 180.31732177734375
y: 248.76809692382812
z: 0.1686602234840393
visibility: 0.9996325969696045
","x: 212.90789794921875
y: 306.04718017578125
z: -0.22118477523326874
visibility: 0.9938269257545471
","x: 177.24148559570312
y: 305.849853515625
z: 0.21159306168556213
visibility: 0.47999027371406555
","x: 190.5380401611328
y: 335.3593444824219
z: -0.2735579013824463
visibility: 0.9782998561859131
","x: 160.2087860107422
y: 322.79638671875
z: 0.07957646250724792
visibility: 0.6729616522789001
","x: 184.7390899658203
y: 345.2230224609375
z: -0.2851918339729309
visibility: 0.964836835861206
","x: 154.72824096679688
y: 328.73480224609375
z: 0.06550373136997223
visibility: 0.658612847328186
","x: 181.8790740966797
y: 338.3414001464844
z: -0.27241384983062744
visibility: 0.9664514064788818
","x: 154.0674591064453
y: 322.88671875
z: 0.034950464963912964
visibility: 0.6754599809646606
","x: 183.01893615722656
y: 335.0299377441406
z: -0.24475018680095673
visibility: 0.9509119987487793
","x: 156.44285583496094
y: 321.1127014160156
z: 0.06128989905118942
visibility: 0.6553530693054199
","x: 191.6422119140625
y: 366.5368347167969
z: -0.10913993418216705
visibility: 0.9995837807655334
","x: 181.25241088867188
y: 364.572021484375
z: 0.10921702533960342
visibility: 0.9991160035133362
","x: 184.06332397460938
y: 452.0695495605469
z: -0.141963392496109
visibility: 0.9841594099998474
","x: 188.07186889648438
y: 452.5867919921875
z: 0.10269546508789062
visibility: 0.8473383784294128
","x: 180.76425170898438
y: 547.1587524414062
z: -0.1264002025127411
visibility: 0.9902072548866272
","x: 196.46255493164062
y: 536.0218505859375
z: 0.1257466971874237
visibility: 0.9324831366539001
","x: 185.63287353515625
y: 560.2362670898438
z: -0.13099494576454163
visibility: 0.8975182771682739
","x: 201.76292419433594
y: 553.04931640625
z: 0.1232062578201294
visibility: 0.9117602705955505
","x: 156.77635192871094
y: 565.1492919921875
z: -0.22778427600860596
visibility: 0.9854050278663635
","x: 177.84716796875
y: 552.8572998046875
z: 0.07441042363643646
visibility: 0.9514909982681274
",,,,,,,,,,,,,,,,,,,,,,,,,,,,,,,,,,,,,,,,,,
10,"x: 173.67132568359375
y: 207.69985961914062
z: -0.09389941394329071
visibility: 0.9998334646224976
","x: 176.124267578125
y: 199.58416748046875
z: -0.10723496973514557
visibility: 0.9997125267982483
","x: 177.24847412109375
y: 199.4560089111328
z: -0.10729406028985977
visibility: 0.9997773766517639
","x: 178.5298614501953
y: 199.25157165527344
z: -0.10731588304042816
visibility: 0.9998040199279785
","x: 174.78211975097656
y: 200.1144256591797
z: -0.07755330204963684
visibility: 0.9996142983436584
","x: 174.90711975097656
y: 200.131591796875
z: -0.07756302505731583
visibility: 0.9995373487472534
","x: 175.14418029785156
y: 200.08114624023438
z: -0.07757589221000671
visibility: 0.9994992613792419
","x: 184.9577178955078
y: 202.75848388671875
z: -0.12874111533164978
visibility: 0.9998654723167419
","x: 181.19668579101562
y: 201.72218322753906
z: 0.021288087591528893
visibility: 0.9989483952522278
","x: 177.2798309326172
y: 214.46621704101562
z: -0.09140800684690475
visibility: 0.9999111890792847
","x: 175.55223083496094
y: 215.08688354492188
z: -0.053007353097200394
visibility: 0.9997332692146301
","x: 198.34561157226562
y: 242.97052001953125
z: -0.1664416640996933
visibility: 0.9999937415122986
","x: 178.00994873046875
y: 248.80735778808594
z: 0.16326139867305756
visibility: 0.9995993375778198
","x: 210.48446655273438
y: 304.22161865234375
z: -0.2643265128135681
visibility: 0.9943860769271851
","x: 173.97866821289062
y: 297.967529296875
z: 0.2536051869392395
visibility: 0.44729048013687134
","x: 186.91571044921875
y: 327.88458251953125
z: -0.33497822284698486
visibility: 0.9802656769752502
","x: 151.94630432128906
y: 278.67669677734375
z: 0.17851652204990387
visibility: 0.6804065108299255
","x: 180.4288330078125
y: 336.91778564453125
z: -0.36253106594085693
visibility: 0.9677914977073669
","x: 145.3414306640625
y: 274.103271484375
z: 0.17721012234687805
visibility: 0.6718428134918213
","x: 177.2166748046875
y: 329.21600341796875
z: -0.3628973960876465
visibility: 0.9691920876502991
","x: 146.0975341796875
y: 270.8401794433594
z: 0.1564842164516449
visibility: 0.6881837248802185
","x: 178.615234375
y: 326.0182189941406
z: -0.33075186610221863
visibility: 0.9546274542808533
","x: 148.84463500976562
y: 272.77301025390625
z: 0.16684572398662567
visibility: 0.6673388481140137
","x: 184.93521118164062
y: 367.44586181640625
z: -0.11159876734018326
visibility: 0.9995925426483154
","x: 177.31671142578125
y: 365.77947998046875
z: 0.11160863935947418
visibility: 0.9990980625152588
","x: 177.3802032470703
y: 452.13555908203125
z: -0.12439744174480438
visibility: 0.9851346611976624
","x: 183.17735290527344
y: 453.24359130859375
z: 0.11739888042211533
visibility: 0.8502766489982605
","x: 179.87457275390625
y: 546.5296630859375
z: -0.09389083832502365
visibility: 0.9907617568969727
","x: 196.89117431640625
y: 536.003662109375
z: 0.160533145070076
visibility: 0.9351183772087097
","x: 184.11904907226562
y: 559.4493408203125
z: -0.09723180532455444
visibility: 0.9068001508712769
","x: 201.40777587890625
y: 552.0599975585938
z: 0.16014227271080017
visibility: 0.9170206785202026
","x: 157.38995361328125
y: 565.5674438476562
z: -0.1722387671470642
visibility: 0.9860891699790955
","x: 179.44114685058594
y: 552.2894897460938
z: 0.11566445976495743
visibility: 0.9526071548461914
",,,,,,,,,,,,,,,,,,,,,,,,,,,,,,,,,,,,,,,,,,
11,"x: 172.48468017578125
y: 208.34352111816406
z: -0.08871116489171982
visibility: 0.9997949600219727
","x: 174.76426696777344
y: 200.27011108398438
z: -0.10266996920108795
visibility: 0.9997020959854126
","x: 175.80564880371094
y: 200.014892578125
z: -0.10274980217218399
visibility: 0.9997761845588684
","x: 177.02639770507812
y: 199.6497802734375
z: -0.10278894752264023
visibility: 0.999801754951477
","x: 173.62567138671875
y: 200.72694396972656
z: -0.07188082486391068
visibility: 0.999568521976471
","x: 173.79710388183594
y: 200.65524291992188
z: -0.07188111543655396
visibility: 0.9994919300079346
","x: 174.0726318359375
y: 200.51089477539062
z: -0.07187226414680481
visibility: 0.9994286894798279
","x: 183.55345153808594
y: 202.87306213378906
z: -0.11940083652734756
visibility: 0.9998692274093628
","x: 179.90113830566406
y: 201.81410217285156
z: 0.025121133774518967
visibility: 0.9988457560539246
","x: 175.87908935546875
y: 214.89102172851562
z: -0.08791220933198929
visibility: 0.9998971223831177
","x: 174.24038696289062
y: 215.4561004638672
z: -0.04836210608482361
visibility: 0.9996440410614014
","x: 196.45916748046875
y: 242.45046997070312
z: -0.17718088626861572
visibility: 0.999994158744812
","x: 176.7300262451172
y: 248.99859619140625
z: 0.16976088285446167
visibility: 0.999320924282074
","x: 206.0480499267578
y: 304.6502685546875
z: -0.25511643290519714
visibility: 0.994823157787323
","x: 170.44288635253906
y: 294.834716796875
z: 0.254680335521698
visibility: 0.4065725803375244
","x: 183.29946899414062
y: 334.6845703125
z: -0.28635627031326294
visibility: 0.9817943572998047
","x: 152.84107971191406
y: 283.7113342285156
z: 0.18313592672348022
visibility: 0.6373438835144043
","x: 177.90890502929688
y: 345.42474365234375
z: -0.31676727533340454
visibility: 0.9699735045433044
","x: 147.59205627441406
y: 272.83074951171875
z: 0.18079617619514465
visibility: 0.6403158903121948
","x: 174.5402374267578
y: 340.02239990234375
z: -0.3369496762752533
visibility: 0.9711669683456421
","x: 147.53128051757812
y: 279.2001037597656
z: 0.15814968943595886
visibility: 0.6571434736251831
","x: 175.74232482910156
y: 336.4891052246094
z: -0.2880825102329254
visibility: 0.9570351243019104
","x: 149.74453735351562
y: 280.1435546875
z: 0.1699099838733673
visibility: 0.6367077827453613
","x: 184.2043914794922
y: 368.17425537109375
z: -0.11543314158916473
visibility: 0.9995998740196228
","x: 176.1093292236328
y: 367.7677917480469
z: 0.11545489728450775
visibility: 0.9989961981773376
","x: 174.0662078857422
y: 452.2767639160156
z: -0.12143784761428833
visibility: 0.984938383102417
","x: 179.6420135498047
y: 454.15283203125
z: 0.12160303443670273
visibility: 0.8433705568313599
","x: 179.86436462402344
y: 546.15087890625
z: -0.08442999422550201
visibility: 0.9911412000656128
","x: 196.12307739257812
y: 536.0353393554688
z: 0.1664280742406845
visibility: 0.9335946440696716
","x: 184.9691619873047
y: 559.9742431640625
z: -0.08647187054157257
visibility: 0.9145442247390747
","x: 201.73031616210938
y: 552.7553100585938
z: 0.16670945286750793
visibility: 0.9184467792510986
","x: 157.52828979492188
y: 566.4151611328125
z: -0.17249086499214172
visibility: 0.9865240454673767
","x: 179.5557098388672
y: 552.282470703125
z: 0.11944364011287689
visibility: 0.9505748152732849
",,,,,,,,,,,,,,,,,,,,,,,,,,,,,,,,,,,,,,,,,,
12,"x: 172.2454071044922
y: 208.34495544433594
z: -0.08466271311044693
visibility: 0.9997529983520508
","x: 174.47869873046875
y: 200.300537109375
z: -0.09724341332912445
visibility: 0.9996801614761353
","x: 175.58299255371094
y: 200.03541564941406
z: -0.09734124690294266
visibility: 0.9997663497924805
","x: 176.8688201904297
y: 199.66238403320312
z: -0.09740598499774933
visibility: 0.999794065952301
","x: 173.12684631347656
y: 200.7357177734375
z: -0.06734900176525116
visibility: 0.9994904398918152
","x: 173.15292358398438
y: 200.66159057617188
z: -0.0673334002494812
visibility: 0.9994065165519714
","x: 173.2874755859375
y: 200.51663208007812
z: -0.06734145432710648
visibility: 0.9993260502815247
","x: 183.08079528808594
y: 202.49488830566406
z: -0.11403485387563705
visibility: 0.9998657703399658
","x: 178.4717254638672
y: 201.92233276367188
z: 0.02951095439493656
visibility: 0.9986211657524109
","x: 175.79776000976562
y: 214.8941650390625
z: -0.08302797377109528
visibility: 0.9998677968978882
","x: 173.809814453125
y: 215.396240234375
z: -0.04442226141691208
visibility: 0.9995012879371643
","x: 194.88633728027344
y: 241.4183349609375
z: -0.16813333332538605
visibility: 0.9999942183494568
","x: 176.60015869140625
y: 248.5482635498047
z: 0.16770902276039124
visibility: 0.9991167187690735
","x: 196.52789306640625
y: 304.9126892089844
z: -0.2213636338710785
visibility: 0.9949661493301392
","x: 167.63795471191406
y: 296.1559753417969
z: 0.24398715794086456
visibility: 0.3711273670196533
","x: 189.45050048828125
y: 358.47796630859375
z: -0.22753998637199402
visibility: 0.9820922613143921
","x: 148.12503051757812
y: 300.3985290527344
z: 0.16293390095233917
visibility: 0.6012803316116333
","x: 186.89292907714844
y: 377.0057373046875
z: -0.2509844899177551
visibility: 0.970203161239624
","x: 141.95184326171875
y: 298.1051025390625
z: 0.15733854472637177
visibility: 0.6132466197013855
","x: 182.40426635742188
y: 374.7931213378906
z: -0.26574668288230896
visibility: 0.9712876081466675
","x: 141.2789306640625
y: 301.54730224609375
z: 0.12598372995853424
visibility: 0.631764829158783
","x: 182.8983917236328
y: 368.50592041015625
z: -0.2294408082962036
visibility: 0.9571515321731567
","x: 143.9190216064453
y: 300.5223693847656
z: 0.1456611454486847
visibility: 0.6118552684783936
","x: 180.5662078857422
y: 367.6174621582031
z: -0.1149480938911438
visibility: 0.9996066093444824
","x: 173.98922729492188
y: 367.667724609375
z: 0.11494666337966919
visibility: 0.9989196062088013
","x: 174.21624755859375
y: 452.3724060058594
z: -0.13185206055641174
visibility: 0.9845663905143738
","x: 178.07679748535156
y: 454.170654296875
z: 0.11471326649188995
visibility: 0.8379220962524414
","x: 180.5342559814453
y: 545.9835205078125
z: -0.10072009265422821
visibility: 0.9913980960845947
","x: 194.44308471679688
y: 536.0028686523438
z: 0.16065175831317902
visibility: 0.9325028657913208
","x: 185.45361328125
y: 560.2276611328125
z: -0.10281044244766235
visibility: 0.9212483763694763
","x: 201.86325073242188
y: 552.96240234375
z: 0.16107745468616486
visibility: 0.9208086729049683
","x: 156.95489501953125
y: 566.84619140625
z: -0.19286388158798218
visibility: 0.9864624738693237
","x: 178.980224609375
y: 552.3071899414062
z: 0.10864750295877457
visibility: 0.9473829865455627
",,,,,,,,,,,,,,,,,,,,,,,,,,,,,,,,,,,,,,,,,,
13,"x: 170.75904846191406
y: 208.3473358154297
z: -0.08207996189594269
visibility: 0.9997509717941284
","x: 173.1248779296875
y: 200.322265625
z: -0.09746597707271576
visibility: 0.9996833801269531
","x: 174.10679626464844
y: 200.0595245361328
z: -0.09754505753517151
visibility: 0.9997721910476685
","x: 175.24349975585938
y: 199.69778442382812
z: -0.09759484231472015
visibility: 0.9997989535331726
","x: 172.19091796875
y: 200.72059631347656
z: -0.06569157540798187
visibility: 0.999484121799469
","x: 172.42123413085938
y: 200.63429260253906
z: -0.06568221747875214
visibility: 0.999407947063446
","x: 172.7728271484375
y: 200.47061157226562
z: -0.06569676846265793
visibility: 0.9993231296539307
","x: 181.69091796875
y: 202.51516723632812
z: -0.11821834743022919
visibility: 0.9998697638511658
","x: 178.3388214111328
y: 202.01019287109375
z: 0.02666652761399746
visibility: 0.9986165165901184
","x: 173.84762573242188
y: 214.90753173828125
z: -0.08469610661268234
visibility: 0.9998624920845032
","x: 172.2991485595703
y: 215.42276000976562
z: -0.04345973581075668
visibility: 0.9994710683822632
","x: 193.1360626220703
y: 240.56146240234375
z: -0.17523112893104553
visibility: 0.9999943971633911
","x: 176.78189086914062
y: 248.55105590820312
z: 0.15622422099113464
visibility: 0.9990854263305664
","x: 197.95941162109375
y: 304.8928527832031
z: -0.2122555524110794
visibility: 0.9951415061950684
","x: 168.6212921142578
y: 300.35504150390625
z: 0.22539694607257843
visibility: 0.342001736164093
","x: 196.66026306152344
y: 368.7032775878906
z: -0.2075391709804535
visibility: 0.9825246334075928
","x: 153.0098114013672
y: 308.1904296875
z: 0.13908450305461884
visibility: 0.5807250738143921
","x: 190.23748779296875
y: 385.0296630859375
z: -0.2274811565876007
visibility: 0.9708177447319031
","x: 147.0376739501953
y: 321.5333557128906
z: 0.1327870786190033
visibility: 0.5999550223350525
","x: 188.09725952148438
y: 383.57244873046875
z: -0.24342361092567444
visibility: 0.9718064665794373
","x: 147.5006561279297
y: 322.81854248046875
z: 0.10100255906581879
visibility: 0.6201861500740051
","x: 189.82907104492188
y: 378.4801940917969
z: -0.2101883888244629
visibility: 0.9579045176506042
","x: 150.53114318847656
y: 322.2297668457031
z: 0.12171182781457901
visibility: 0.5999067425727844
","x: 181.33692932128906
y: 367.209228515625
z: -0.11487207561731339
visibility: 0.9996229410171509
","x: 174.8572998046875
y: 367.5927734375
z: 0.11482174694538116
visibility: 0.9989081621170044
","x: 172.71670532226562
y: 451.3735656738281
z: -0.1309167444705963
visibility: 0.9851599335670471
","x: 177.6791229248047
y: 454.164794921875
z: 0.12912896275520325
visibility: 0.8396375179290771
","x: 179.98663330078125
y: 545.7449951171875
z: -0.09881342202425003
visibility: 0.9919363260269165
","x: 195.19436645507812
y: 535.9443969726562
z: 0.1835183948278427
visibility: 0.9339567422866821
","x: 184.9300537109375
y: 560.06396484375
z: -0.10114814341068268
visibility: 0.9275627136230469
","x: 202.11483764648438
y: 552.901123046875
z: 0.1856364905834198
visibility: 0.9246205687522888
","x: 156.14024353027344
y: 567.00830078125
z: -0.1973329335451126
visibility: 0.9868903756141663
","x: 179.16494750976562
y: 551.7412109375
z: 0.13654834032058716
visibility: 0.9467918872833252
",,,,,,,,,,,,,,,,,,,,,,,,,,,,,,,,,,,,,,,,,,
14,"x: 172.8037567138672
y: 206.24639892578125
z: -0.07523979246616364
visibility: 0.9997676014900208
","x: 175.61842346191406
y: 198.4261474609375
z: -0.08752346783876419
visibility: 0.9997046589851379
","x: 176.7081756591797
y: 198.2011260986328
z: -0.08760355412960052
visibility: 0.9997881650924683
","x: 177.9174346923828
y: 197.93626403808594
z: -0.0876467376947403
visibility: 0.9998126029968262
","x: 174.16183471679688
y: 198.79718017578125
z: -0.05752181261777878
visibility: 0.9995181560516357
","x: 174.1536407470703
y: 198.81890869140625
z: -0.05751603841781616
visibility: 0.9994494915008545
","x: 174.20079040527344
y: 198.75694274902344
z: -0.05752955749630928
visibility: 0.9993699789047241
","x: 183.49742126464844
y: 201.35211181640625
z: -0.09623809903860092
visibility: 0.9998789429664612
","x: 179.04428100585938
y: 200.86058044433594
z: 0.041035450994968414
visibility: 0.9987172484397888
","x: 175.8267059326172
y: 213.23675537109375
z: -0.07332627475261688
visibility: 0.9998700022697449
","x: 173.7128143310547
y: 213.49168395996094
z: -0.03458532691001892
visibility: 0.9994999766349792
","x: 193.81454467773438
y: 237.4429931640625
z: -0.16655562818050385
visibility: 0.999994695186615
","x: 177.0740509033203
y: 247.80526733398438
z: 0.1756921112537384
visibility: 0.9991399645805359
","x: 203.4977264404297
y: 301.1278381347656
z: -0.19167180359363556
visibility: 0.9953212738037109
","x: 171.0095672607422
y: 300.7754211425781
z: 0.21887870132923126
visibility: 0.3218824863433838
","x: 208.14051818847656
y: 364.1677551269531
z: -0.20613248646259308
visibility: 0.9833049774169922
","x: 154.64463806152344
y: 310.6786804199219
z: 0.09252762049436569
visibility: 0.5882694721221924
","x: 211.1834716796875
y: 378.6686706542969
z: -0.2277582585811615
visibility: 0.9719793200492859
","x: 148.0546875
y: 321.6192321777344
z: 0.08354214578866959
visibility: 0.6111168265342712
","x: 207.54730224609375
y: 375.2786560058594
z: -0.2466421127319336
visibility: 0.9729231595993042
","x: 148.4874267578125
y: 320.03790283203125
z: 0.05544324964284897
visibility: 0.6318194270133972
","x: 205.513916015625
y: 370.6286926269531
z: -0.21104483306407928
visibility: 0.9596353769302368
","x: 151.39578247070312
y: 318.4019775390625
z: 0.07524017989635468
visibility: 0.6108409762382507
","x: 186.05958557128906
y: 363.43408203125
z: -0.1148461252450943
visibility: 0.9996459484100342
","x: 176.9528045654297
y: 365.02764892578125
z: 0.11479920148849487
visibility: 0.9989556074142456
","x: 174.47845458984375
y: 446.765380859375
z: -0.15094001591205597
visibility: 0.9858995079994202
","x: 179.63519287109375
y: 448.52886962890625
z: 0.1345016360282898
visibility: 0.8395976424217224
","x: 180.35862731933594
y: 545.6124267578125
z: -0.13783696293830872
visibility: 0.9923677444458008
","x: 195.55885314941406
y: 532.9481201171875
z: 0.1933731734752655
visibility: 0.9346479773521423
","x: 184.77261352539062
y: 559.97119140625
z: -0.1417488008737564
visibility: 0.9333819150924683
","x: 201.81842041015625
y: 549.2354125976562
z: 0.19533079862594604
visibility: 0.928109884262085
","x: 156.091064453125
y: 567.0438842773438
z: -0.24028393626213074
visibility: 0.9873386025428772
","x: 179.39976501464844
y: 548.486083984375
z: 0.1472686231136322
visibility: 0.9460774064064026
",,,,,,,,,,,,,,,,,,,,,,,,,,,,,,,,,,,,,,,,,,
15,"x: 172.95628356933594
y: 206.56919860839844
z: -0.055677272379398346
visibility: 0.9996649026870728
","x: 176.2467041015625
y: 198.8094940185547
z: -0.07191281020641327
visibility: 0.9996151328086853
","x: 177.26414489746094
y: 198.56710815429688
z: -0.0719861313700676
visibility: 0.9997318983078003
","x: 178.38369750976562
y: 198.27426147460938
z: -0.072029247879982
visibility: 0.9997619986534119
","x: 175.32151794433594
y: 199.10006713867188
z: -0.0409773588180542
visibility: 0.9993698000907898
","x: 175.63931274414062
y: 199.07859802246094
z: -0.040991537272930145
visibility: 0.9993035197257996
","x: 176.00128173828125
y: 198.952392578125
z: -0.04102921113371849
visibility: 0.9992123246192932
","x: 184.62435913085938
y: 202.28529357910156
z: -0.09519927203655243
visibility: 0.9998508095741272
","x: 181.05252075195312
y: 201.5318145751953
z: 0.042784251272678375
visibility: 0.9985782504081726
","x: 176.12318420410156
y: 214.3859100341797
z: -0.060267239809036255
visibility: 0.9997907876968384
","x: 174.82107543945312
y: 214.62530517578125
z: -0.020456377416849136
visibility: 0.9992356300354004
","x: 195.70330810546875
y: 237.66969299316406
z: -0.1626606285572052
visibility: 0.9999942779541016
","x: 178.06785583496094
y: 247.8182830810547
z: 0.17333504557609558
visibility: 0.9990153312683105
","x: 206.3230438232422
y: 300.2503662109375
z: -0.22074663639068604
visibility: 0.995449960231781
","x: 171.83544921875
y: 289.77935791015625
z: 0.27832522988319397
visibility: 0.2982541620731354
","x: 211.7208251953125
y: 353.3921813964844
z: -0.2512350082397461
visibility: 0.983913004398346
","x: 154.67843627929688
y: 290.3583984375
z: 0.2613145411014557
visibility: 0.5619627833366394
","x: 214.50009155273438
y: 367.2475891113281
z: -0.2715059220790863
visibility: 0.97271329164505
","x: 148.8731231689453
y: 292.4749450683594
z: 0.26815593242645264
visibility: 0.5881120562553406
","x: 210.090087890625
y: 366.792724609375
z: -0.2871749699115753
visibility: 0.9735465049743652
","x: 148.71302795410156
y: 288.6007080078125
z: 0.24215705692768097
visibility: 0.6097326874732971
","x: 208.2597198486328
y: 361.9585876464844
z: -0.255461186170578
visibility: 0.96030592918396
","x: 151.0026397705078
y: 288.98089599609375
z: 0.24772974848747253
visibility: 0.5904654860496521
","x: 187.8196563720703
y: 363.661865234375
z: -0.11352086067199707
visibility: 0.9995734095573425
","x: 179.76551818847656
y: 365.0478820800781
z: 0.11353641748428345
visibility: 0.9987653493881226
","x: 177.4666748046875
y: 447.3800048828125
z: -0.14363566040992737
visibility: 0.9849454164505005
","x: 179.92483520507812
y: 446.79522705078125
z: 0.0909581333398819
visibility: 0.8209128975868225
","x: 181.0251922607422
y: 542.298583984375
z: -0.1198163628578186
visibility: 0.9917054176330566
","x: 193.5457763671875
y: 531.3878784179688
z: 0.11812251806259155
visibility: 0.9230161309242249
","x: 190.60882568359375
y: 559.671630859375
z: -0.12217237800359726
visibility: 0.9359487295150757
","x: 200.42007446289062
y: 549.2577514648438
z: 0.11623702943325043
visibility: 0.9199274778366089
","x: 160.93251037597656
y: 566.5289916992188
z: -0.21864977478981018
visibility: 0.9868581891059875
","x: 174.43450927734375
y: 549.0010375976562
z: 0.06197420507669449
visibility: 0.9395073652267456
",,,,,,,,,,,,,,,,,,,,,,,,,,,,,,,,,,,,,,,,,,
16,"x: 180.9571533203125
y: 206.4783935546875
z: -0.09926173835992813
visibility: 0.9996494650840759
","x: 183.93946838378906
y: 198.76556396484375
z: -0.1052251011133194
visibility: 0.9995819330215454
","x: 184.93247985839844
y: 198.56719970703125
z: -0.10532338917255402
visibility: 0.9997163414955139
","x: 186.0063018798828
y: 198.340576171875
z: -0.10534193366765976
visibility: 0.9997378587722778
","x: 181.98348999023438
y: 198.9425811767578
z: -0.08234372735023499
visibility: 0.9993054866790771
","x: 181.51348876953125
y: 198.8826904296875
z: -0.0823599249124527
visibility: 0.9992623329162598
","x: 181.1163330078125
y: 198.76222229003906
z: -0.08237697184085846
visibility: 0.9991634488105774
","x: 188.2870635986328
y: 202.4720001220703
z: -0.09808488190174103
visibility: 0.9998444318771362
","x: 181.82000732421875
y: 201.59085083007812
z: 0.008057414554059505
visibility: 0.9985553026199341
","x: 182.74960327148438
y: 214.40426635742188
z: -0.09354351460933685
visibility: 0.9997784495353699
","x: 179.94607543945312
y: 214.56597900390625
z: -0.06390982866287231
visibility: 0.9991996884346008
","x: 197.82391357421875
y: 239.33172607421875
z: -0.16000671684741974
visibility: 0.999994158744812
","x: 177.1028594970703
y: 247.50140380859375
z: 0.15682291984558105
visibility: 0.998995840549469
","x: 207.47219848632812
y: 303.027099609375
z: -0.21328604221343994
visibility: 0.9958057999610901
","x: 166.70330810546875
y: 287.7786865234375
z: 0.25298839807510376
visibility: 0.33450019359588623
","x: 212.9417266845703
y: 359.4623107910156
z: -0.25445130467414856
visibility: 0.985249400138855
","x: 148.54788208007812
y: 269.9566650390625
z: 0.2181812822818756
visibility: 0.6021764874458313
","x: 214.94671630859375
y: 375.62127685546875
z: -0.27295833826065063
visibility: 0.9745922088623047
","x: 143.2312469482422
y: 267.68194580078125
z: 0.22397856414318085
visibility: 0.6240228414535522
","x: 211.07485961914062
y: 374.6952819824219
z: -0.2966245710849762
visibility: 0.9753968715667725
","x: 144.0133056640625
y: 262.9095153808594
z: 0.20465417206287384
visibility: 0.6438814997673035
","x: 209.3086395263672
y: 370.4206848144531
z: -0.2620575428009033
visibility: 0.9630805253982544
","x: 146.59591674804688
y: 264.55633544921875
z: 0.2074577361345291
visibility: 0.625700831413269
","x: 192.91458129882812
y: 364.00897216796875
z: -0.10631044954061508
visibility: 0.9995311498641968
","x: 180.1870880126953
y: 364.9367980957031
z: 0.10628557205200195
visibility: 0.9987794756889343
","x: 188.5872802734375
y: 452.235595703125
z: -0.14019866287708282
visibility: 0.9853403568267822
","x: 183.6824493408203
y: 448.5334777832031
z: 0.07648217678070068
visibility: 0.822869062423706
","x: 199.97409057617188
y: 542.3694458007812
z: -0.11325234174728394
visibility: 0.991682767868042
","x: 193.81375122070312
y: 533.0789794921875
z: 0.11797455698251724
visibility: 0.9234433770179749
","x: 206.48150634765625
y: 559.5332641601562
z: -0.1149354949593544
visibility: 0.9387103915214539
","x: 200.7373809814453
y: 549.4017333984375
z: 0.11567606031894684
visibility: 0.9178314805030823
","x: 180.1221923828125
y: 565.5670776367188
z: -0.2106943577528
visibility: 0.9873216152191162
","x: 175.64161682128906
y: 551.1402587890625
z: 0.04735773801803589
visibility: 0.9416170120239258
",,,,,,,,,,,,,,,,,,,,,,,,,,,,,,,,,,,,,,,,,,
17,"x: 190.81863403320312
y: 206.07322692871094
z: -0.22396337985992432
visibility: 0.9996671080589294
","x: 192.84507751464844
y: 198.6099395751953
z: -0.21591725945472717
visibility: 0.9995860457420349
","x: 194.0146942138672
y: 198.52980041503906
z: -0.21603015065193176
visibility: 0.999720573425293
","x: 195.24069213867188
y: 198.4001922607422
z: -0.21609345078468323
visibility: 0.9997355937957764
","x: 189.32432556152344
y: 198.65110778808594
z: -0.20305904746055603
visibility: 0.9993114471435547
","x: 188.0550994873047
y: 198.65032958984375
z: -0.2030346393585205
visibility: 0.9992716908454895
","x: 186.86241149902344
y: 198.61868286132812
z: -0.20301231741905212
visibility: 0.9991551637649536
","x: 195.91722106933594
y: 202.7981414794922
z: -0.1406785398721695
visibility: 0.9998486042022705
","x: 184.61148071289062
y: 201.64251708984375
z: -0.08180055022239685
visibility: 0.9985228776931763
","x: 192.41537475585938
y: 214.19471740722656
z: -0.1943894922733307
visibility: 0.9997890591621399
","x: 187.8258514404297
y: 214.3131866455078
z: -0.17771074175834656
visibility: 0.9992384314537048
","x: 206.43775939941406
y: 246.9583282470703
z: -0.1588982790708542
visibility: 0.9999934434890747
","x: 176.8013916015625
y: 249.00198364257812
z: 0.06894352287054062
visibility: 0.998966634273529
","x: 212.22898864746094
y: 314.6628723144531
z: -0.17941203713417053
visibility: 0.9959667921066284
","x: 168.7064208984375
y: 290.4002685546875
z: 0.0970275029540062
visibility: 0.3512202203273773
","x: 212.9732208251953
y: 372.5185852050781
z: -0.24307779967784882
visibility: 0.9861017465591431
","x: 149.07518005371094
y: 272.81622314453125
z: -0.05248235911130905
visibility: 0.6361588835716248
","x: 214.11309814453125
y: 390.7426452636719
z: -0.2660459280014038
visibility: 0.9755302667617798
","x: 143.64305114746094
y: 270.1600341796875
z: -0.06939221173524857
visibility: 0.6552535891532898
","x: 210.002197265625
y: 389.0246276855469
z: -0.29367682337760925
visibility: 0.9763341546058655
","x: 144.83680725097656
y: 265.03350830078125
z: -0.09413284063339233
visibility: 0.6737345457077026
","x: 208.62301635742188
y: 383.33123779296875
z: -0.25569042563438416
visibility: 0.9645446538925171
","x: 147.63829040527344
y: 267.4645080566406
z: -0.067764513194561
visibility: 0.6561805009841919
","x: 202.04074096679688
y: 370.8821105957031
z: -0.07436050474643707
visibility: 0.9994879364967346
","x: 181.87374877929688
y: 371.2425537109375
z: 0.07432188093662262
visibility: 0.9987961053848267
","x: 204.3084259033203
y: 458.0198669433594
z: -0.06918159127235413
visibility: 0.9863190054893494
","x: 189.60858154296875
y: 454.6185302734375
z: 0.08480148017406464
visibility: 0.8367769122123718
","x: 217.62942504882812
y: 540.87890625
z: 0.06446360051631927
visibility: 0.9919886589050293
","x: 193.868896484375
y: 536.4244995117188
z: 0.22289681434631348
visibility: 0.9298308491706848
","x: 222.1020965576172
y: 554.7076416015625
z: 0.06874087452888489
visibility: 0.9363616704940796
","x: 200.9794464111328
y: 550.7305297851562
z: 0.22838875651359558
visibility: 0.921933650970459
","x: 211.75323486328125
y: 564.587890625
z: -0.05698618292808533
visibility: 0.987776517868042
","x: 176.0221710205078
y: 557.0748291015625
z: 0.13019636273384094
visibility: 0.9461008906364441
",,,,,,,,,,,,,,,,,,,,,,,,,,,,,,,,,,,,,,,,,,
18,"x: 194.93028259277344
y: 206.8374786376953
z: -0.258512020111084
visibility: 0.9996933937072754
","x: 197.49192810058594
y: 198.9593505859375
z: -0.25164180994033813
visibility: 0.9996041655540466
","x: 198.79116821289062
y: 198.94287109375
z: -0.2516970634460449
visibility: 0.9997259974479675
","x: 200.06507873535156
y: 198.94583129882812
z: -0.25173768401145935
visibility: 0.9997401237487793
","x: 193.7234344482422
y: 198.78521728515625
z: -0.24248401820659637
visibility: 0.9993566870689392
","x: 192.3468475341797
y: 198.68203735351562
z: -0.24247333407402039
visibility: 0.9993117451667786
","x: 191.0370330810547
y: 198.6495361328125
z: -0.24247291684150696
visibility: 0.999203085899353
","x: 201.8932647705078
y: 202.82525634765625
z: -0.16926309466362
visibility: 0.9998438954353333
","x: 190.05343627929688
y: 201.3135986328125
z: -0.12535551190376282
visibility: 0.9985808730125427
","x: 196.90219116210938
y: 214.3411407470703
z: -0.2243509292602539
visibility: 0.9998040199279785
","x: 192.71351623535156
y: 214.45941162109375
z: -0.21183574199676514
visibility: 0.9993048906326294
","x: 215.69305419921875
y: 247.24026489257812
z: -0.15615156292915344
visibility: 0.999992847442627
","x: 177.31398010253906
y: 248.68673706054688
z: -0.004057008307427168
visibility: 0.9990638494491577
","x: 216.8873748779297
y: 315.32568359375
z: -0.16047224402427673
visibility: 0.9959186911582947
","x: 170.01869201660156
y: 304.11480712890625
z: 0.04976030811667442
visibility: 0.3999919295310974
","x: 210.46981811523438
y: 369.2100524902344
z: -0.24589121341705322
visibility: 0.9864670038223267
","x: 167.16705322265625
y: 354.267822265625
z: -0.05171415954828262
visibility: 0.6638875603675842
","x: 207.7388458251953
y: 385.59710693359375
z: -0.28469783067703247
visibility: 0.9757549166679382
","x: 163.5157012939453
y: 369.5387268066406
z: -0.07631158083677292
visibility: 0.6774466037750244
","x: 204.29812622070312
y: 382.3816223144531
z: -0.3088516592979431
visibility: 0.9765380024909973
","x: 164.58689880371094
y: 369.3717041015625
z: -0.11571379005908966
visibility: 0.6948714256286621
","x: 204.08782958984375
y: 377.3643493652344
z: -0.2570619285106659
visibility: 0.9648259878158569
","x: 166.57412719726562
y: 365.1902770996094
z: -0.070488341152668
visibility: 0.6776784658432007
","x: 209.783935546875
y: 370.5491943359375
z: -0.05035844445228577
visibility: 0.9994998574256897
","x: 186.25424194335938
y: 370.6466369628906
z: 0.05047200992703438
visibility: 0.9988880753517151
","x: 217.5300750732422
y: 457.4093933105469
z: -0.0677976906299591
visibility: 0.9873311519622803
","x: 193.21426391601562
y: 456.2540283203125
z: 0.0680699497461319
visibility: 0.8522153496742249
","x: 227.505615234375
y: 538.3018798828125
z: 0.040627073496580124
visibility: 0.992445170879364
","x: 194.34503173828125
y: 537.82373046875
z: 0.19925861060619354
visibility: 0.936439037322998
","x: 226.38356018066406
y: 549.0880126953125
z: 0.042690474539995193
visibility: 0.9382358193397522
","x: 201.05059814453125
y: 551.1694946289062
z: 0.2035132646560669
visibility: 0.9274278879165649
","x: 230.64683532714844
y: 563.7969360351562
z: -0.0852123573422432
visibility: 0.9884353876113892
","x: 176.5156707763672
y: 560.2957763671875
z: 0.10990973562002182
visibility: 0.9508298635482788
",,,,,,,,,,,,,,,,,,,,,,,,,,,,,,,,,,,,,,,,,,
19,"x: 202.7562713623047
y: 209.78518676757812
z: -0.33355477452278137
visibility: 0.999719500541687
","x: 205.17799377441406
y: 201.4413604736328
z: -0.32422804832458496
visibility: 0.9996293187141418
","x: 206.5955810546875
y: 201.34869384765625
z: -0.32425743341445923
visibility: 0.9997395873069763
","x: 207.91160583496094
y: 201.3047637939453
z: -0.3242940306663513
visibility: 0.9997506141662598
","x: 200.55767822265625
y: 201.2173614501953
z: -0.3191015422344208
visibility: 0.9994074702262878
","x: 198.98928833007812
y: 200.9013671875
z: -0.31908729672431946
visibility: 0.9993629455566406
","x: 197.54550170898438
y: 200.6458740234375
z: -0.31909215450286865
visibility: 0.9992612600326538
","x: 210.0801544189453
y: 203.7454071044922
z: -0.21815963089466095
visibility: 0.9998423457145691
","x: 196.5354766845703
y: 201.86334228515625
z: -0.19047419726848602
visibility: 0.9986774325370789
","x: 205.390869140625
y: 216.6754150390625
z: -0.2890499234199524
visibility: 0.9998182058334351
","x: 200.0714111328125
y: 216.78236389160156
z: -0.2813117504119873
visibility: 0.9993656277656555
","x: 226.8223114013672
y: 246.46942138671875
z: -0.15611618757247925
visibility: 0.9999921917915344
","x: 181.90882873535156
y: 248.52935791015625
z: -0.07125987112522125
visibility: 0.9991515874862671
","x: 230.662841796875
y: 310.9810791015625
z: -0.17299404740333557
visibility: 0.9957138895988464
","x: 174.92947387695312
y: 310.1080627441406
z: -0.014253469184041023
visibility: 0.45269399881362915
","x: 209.86688232421875
y: 338.20416259765625
z: -0.33125919103622437
visibility: 0.986698567867279
","x: 173.6565704345703
y: 364.8759765625
z: -0.12185432016849518
visibility: 0.6908416152000427
","x: 204.94517517089844
y: 347.7548828125
z: -0.379659503698349
visibility: 0.9756885766983032
","x: 172.11611938476562
y: 380.96087646484375
z: -0.1540580689907074
visibility: 0.6993672847747803
","x: 201.84153747558594
y: 339.8524475097656
z: -0.3975868225097656
visibility: 0.976413905620575
","x: 173.33499145507812
y: 380.20526123046875
z: -0.19337612390518188
visibility: 0.7157678008079529
","x: 202.4327392578125
y: 336.64105224609375
z: -0.3403868079185486
visibility: 0.964167594909668
","x: 174.3076934814453
y: 375.7507019042969
z: -0.14007188379764557
visibility: 0.6986151337623596
","x: 217.04971313476562
y: 368.4990234375
z: -0.0301967803388834
visibility: 0.9995018243789673
","x: 191.17398071289062
y: 369.4530029296875
z: 0.03028007224202156
visibility: 0.9989619255065918
","x: 224.486083984375
y: 457.1915283203125
z: -0.05217535048723221
visibility: 0.9883706569671631
","x: 195.47793579101562
y: 456.00653076171875
z: 0.048745445907115936
visibility: 0.8665031790733337
","x: 230.28909301757812
y: 538.322998046875
z: 0.04610747471451759
visibility: 0.9929132461547852
","x: 194.6533203125
y: 539.2034301757812
z: 0.1919768750667572
visibility: 0.9424216151237488
","x: 228.1407928466797
y: 548.8881225585938
z: 0.046856317669153214
visibility: 0.9382787346839905
","x: 200.91993713378906
y: 552.7130737304688
z: 0.20180127024650574
visibility: 0.9309694766998291
","x: 233.1009979248047
y: 563.9462890625
z: -0.09396480768918991
visibility: 0.9889662861824036
","x: 176.81787109375
y: 560.55517578125
z: 0.05934099480509758
visibility: 0.9550179839134216
",,,,,,,,,,,,,,,,,,,,,,,,,,,,,,,,,,,,,,,,,,
20,"x: 209.08200073242188
y: 212.1884002685547
z: -0.38289809226989746
visibility: 0.9997363686561584
","x: 211.91473388671875
y: 203.6969757080078
z: -0.3772411644458771
visibility: 0.9996297359466553
","x: 213.38763427734375
y: 203.46685791015625
z: -0.3772692084312439
visibility: 0.9997303485870361
","x: 214.7952117919922
y: 203.2935791015625
z: -0.3773409128189087
visibility: 0.9997379183769226
","x: 207.24705505371094
y: 203.3295440673828
z: -0.3703755736351013
visibility: 0.9994354844093323
","x: 205.69683837890625
y: 202.7438507080078
z: -0.37038251757621765
visibility: 0.9993873834609985
","x: 204.3387908935547
y: 202.19757080078125
z: -0.3704076409339905
visibility: 0.999290943145752
","x: 217.0745086669922
y: 204.55108642578125
z: -0.2739398777484894
visibility: 0.999818742275238
","x: 203.70309448242188
y: 202.1713409423828
z: -0.23791900277137756
visibility: 0.9987286925315857
","x: 211.77825927734375
y: 218.48516845703125
z: -0.33780041337013245
visibility: 0.9998244047164917
","x: 206.36318969726562
y: 218.40756225585938
z: -0.3276771903038025
visibility: 0.9994106292724609
","x: 234.1765899658203
y: 244.124755859375
z: -0.19583962857723236
visibility: 0.9999906420707703
","x: 189.67552185058594
y: 247.010498046875
z: -0.10235582292079926
visibility: 0.9992303848266602
","x: 237.82443237304688
y: 306.36212158203125
z: -0.21745800971984863
visibility: 0.9955353736877441
","x: 181.5184783935547
y: 309.7584228515625
z: -0.04119373485445976
visibility: 0.5001720786094666
","x: 212.05624389648438
y: 333.49127197265625
z: -0.3636498749256134
visibility: 0.9860948324203491
","x: 179.36648559570312
y: 359.5452575683594
z: -0.15284733474254608
visibility: 0.7135559320449829
","x: 205.00973510742188
y: 343.1400146484375
z: -0.4123836159706116
visibility: 0.9740109443664551
","x: 177.12696838378906
y: 375.52728271484375
z: -0.18546560406684875
visibility: 0.7166906595230103
","x: 202.74586486816406
y: 335.82098388671875
z: -0.4311581254005432
visibility: 0.9747042655944824
","x: 179.15878295898438
y: 374.6545715332031
z: -0.2262086123228073
visibility: 0.7322850823402405
","x: 204.1868896484375
y: 332.45220947265625
z: -0.3729066252708435
visibility: 0.9610264897346497
","x: 180.516357421875
y: 369.7298889160156
z: -0.17175441980361938
visibility: 0.7148774862289429
","x: 223.63125610351562
y: 365.5137939453125
z: -0.036607373505830765
visibility: 0.9994840025901794
","x: 198.2680206298828
y: 365.91839599609375
z: 0.036695949733257294
visibility: 0.9990182518959045
","x: 226.89488220214844
y: 457.049560546875
z: -0.05841910094022751
visibility: 0.9892919659614563
","x: 197.69883728027344
y: 455.84112548828125
z: 0.06251408904790878
visibility: 0.879184901714325
","x: 231.974853515625
y: 538.19775390625
z: 0.04243878647685051
visibility: 0.9932840466499329
","x: 195.3475799560547
y: 539.1024169921875
z: 0.19740813970565796
visibility: 0.9476519227027893
","x: 230.28701782226562
y: 549.2975463867188
z: 0.043126605451107025
visibility: 0.9362886548042297
","x: 201.00942993164062
y: 552.682373046875
z: 0.20310036838054657
visibility: 0.9335978031158447
","x: 232.9762725830078
y: 564.0034790039062
z: -0.10010688006877899
visibility: 0.9892258048057556
","x: 176.85601806640625
y: 560.3035888671875
z: 0.07305274903774261
visibility: 0.9585845470428467
",,,,,,,,,,,,,,,,,,,,,,,,,,,,,,,,,,,,,,,,,,
21,"x: 215.86460876464844
y: 214.2281951904297
z: -0.4288502633571625
visibility: 0.9997491836547852
","x: 218.5165557861328
y: 205.74978637695312
z: -0.4230586886405945
visibility: 0.9996204376220703
","x: 219.88572692871094
y: 205.53668212890625
z: -0.4230656623840332
visibility: 0.9997124075889587
","x: 221.16915893554688
y: 205.39590454101562
z: -0.4231041371822357
visibility: 0.9997175931930542
","x: 214.18408203125
y: 205.33888244628906
z: -0.41804471611976624
visibility: 0.999453067779541
","x: 212.7665252685547
y: 204.75515747070312
z: -0.41810527443885803
visibility: 0.9994029402732849
","x: 211.42379760742188
y: 204.20469665527344
z: -0.41815948486328125
visibility: 0.9993150234222412
","x: 223.2848358154297
y: 206.2692413330078
z: -0.31770652532577515
visibility: 0.9997783303260803
","x: 210.35931396484375
y: 204.23345947265625
z: -0.2926267981529236
visibility: 0.9987615942955017
","x: 218.3394012451172
y: 220.47235107421875
z: -0.38299423456192017
visibility: 0.9998197555541992
","x: 213.067626953125
y: 220.21234130859375
z: -0.3760090470314026
visibility: 0.99944669008255
","x: 240.3352508544922
y: 245.11563110351562
z: -0.22914931178092957
visibility: 0.9999862313270569
","x: 194.96524047851562
y: 247.45980834960938
z: -0.14709319174289703
visibility: 0.9993016123771667
","x: 239.9229736328125
y: 310.80078125
z: -0.20913930237293243
visibility: 0.9947710633277893
","x: 186.16793823242188
y: 314.725830078125
z: -0.06891552358865738
visibility: 0.5455005168914795
","x: 228.755615234375
y: 355.0897216796875
z: -0.3159605860710144
visibility: 0.984387993812561
","x: 181.3680419921875
y: 367.8378601074219
z: -0.16854454576969147
visibility: 0.737243115901947
","x: 226.05545043945312
y: 373.1094665527344
z: -0.3545876145362854
visibility: 0.9705997109413147
","x: 178.88612365722656
y: 382.7262878417969
z: -0.1957549750804901
visibility: 0.7363207340240479
","x: 221.99098205566406
y: 370.43829345703125
z: -0.3835162818431854
visibility: 0.9714081287384033
","x: 180.724609375
y: 382.4544982910156
z: -0.238027423620224
visibility: 0.7511180639266968
","x: 222.269775390625
y: 364.78265380859375
z: -0.32770591974258423
visibility: 0.9566521048545837
","x: 182.57054138183594
y: 377.82720947265625
z: -0.18707409501075745
visibility: 0.7342821955680847
","x: 230.60618591308594
y: 365.386474609375
z: -0.029148634523153305
visibility: 0.9994388222694397
","x: 204.79855346679688
y: 365.5970458984375
z: 0.029186611995100975
visibility: 0.9990711808204651
","x: 231.67083740234375
y: 456.67864990234375
z: -0.04125521332025528
visibility: 0.989924430847168
","x: 198.19900512695312
y: 455.71087646484375
z: 0.02663067914545536
visibility: 0.8906436562538147
","x: 231.17388916015625
y: 538.1090698242188
z: 0.07498624920845032
visibility: 0.9934713840484619
","x: 195.76449584960938
y: 539.0901489257812
z: 0.15172851085662842
visibility: 0.9524639844894409
","x: 228.5215301513672
y: 548.9710083007812
z: 0.07672620564699173
visibility: 0.9347831010818481
","x: 201.15672302246094
y: 552.757080078125
z: 0.15510571002960205
visibility: 0.936278223991394
","x: 232.96554565429688
y: 564.0245361328125
z: -0.06326780468225479
visibility: 0.9893876314163208
","x: 177.67796325683594
y: 560.0087890625
z: 0.024356558918952942
visibility: 0.9619799256324768
",,,,,,,,,,,,,,,,,,,,,,,,,,,,,,,,,,,,,,,,,,
22,"x: 219.38824462890625
y: 223.01547241210938
z: -0.40678825974464417
visibility: 0.9997714757919312
","x: 222.09214782714844
y: 214.0298614501953
z: -0.4012872576713562
visibility: 0.9996466636657715
","x: 223.72528076171875
y: 213.7867889404297
z: -0.40127792954444885
visibility: 0.9997286200523376
","x: 225.34780883789062
y: 213.52684020996094
z: -0.40128985047340393
visibility: 0.9997329711914062
","x: 217.60562133789062
y: 212.93226623535156
z: -0.39578425884246826
visibility: 0.9994977712631226
","x: 216.10888671875
y: 212.0726318359375
z: -0.39583417773246765
visibility: 0.9994507431983948
","x: 214.7311248779297
y: 211.2798309326172
z: -0.3958779573440552
visibility: 0.9993717670440674
","x: 228.3358612060547
y: 212.92189025878906
z: -0.30043190717697144
visibility: 0.9997820258140564
","x: 214.56874084472656
y: 209.91943359375
z: -0.27416864037513733
visibility: 0.9988601803779602
","x: 222.3196563720703
y: 228.721435546875
z: -0.36310791969299316
visibility: 0.9998313188552856
","x: 217.43032836914062
y: 227.84130859375
z: -0.35574471950531006
visibility: 0.9994957447052002
","x: 244.45587158203125
y: 254.30203247070312
z: -0.21169254183769226
visibility: 0.9999819993972778
","x: 199.34170532226562
y: 251.6399383544922
z: -0.14106984436511993
visibility: 0.999369204044342
","x: 245.3865966796875
y: 322.027099609375
z: -0.1712607741355896
visibility: 0.994177520275116
","x: 191.503662109375
y: 321.2849426269531
z: -0.061126213520765305
visibility: 0.586858332157135
","x: 244.67774963378906
y: 379.007568359375
z: -0.2578703463077545
visibility: 0.9827428460121155
","x: 186.69276428222656
y: 375.91851806640625
z: -0.15104882419109344
visibility: 0.7604270577430725
","x: 247.44154357910156
y: 397.9246826171875
z: -0.2868169844150543
visibility: 0.9670982360839844
","x: 183.0458221435547
y: 393.12420654296875
z: -0.17437443137168884
visibility: 0.7569595575332642
","x: 243.68637084960938
y: 397.13720703125
z: -0.32485586404800415
visibility: 0.9681816101074219
","x: 183.9634552001953
y: 393.64642333984375
z: -0.21846647560596466
visibility: 0.7708597779273987
","x: 241.836669921875
y: 391.256591796875
z: -0.2738170623779297
visibility: 0.9530522227287292
","x: 185.9392852783203
y: 387.85260009765625
z: -0.17012646794319153
visibility: 0.754923403263092
","x: 233.1116485595703
y: 370.9698486328125
z: -0.024417486041784286
visibility: 0.9994341731071472
","x: 207.2472686767578
y: 370.2704162597656
z: 0.024402247741818428
visibility: 0.9991384744644165
","x: 235.33267211914062
y: 458.4169921875
z: -0.04536262899637222
visibility: 0.9903755784034729
","x: 198.8395233154297
y: 456.16961669921875
z: -0.007822690531611443
visibility: 0.9011991024017334
","x: 232.06222534179688
y: 538.15380859375
z: 0.08019975572824478
visibility: 0.9936407208442688
","x: 198.03721618652344
y: 539.3580322265625
z: 0.12785594165325165
visibility: 0.9569531083106995
","x: 228.87905883789062
y: 549.222900390625
z: 0.08323895186185837
visibility: 0.9348850250244141
","x: 202.74188232421875
y: 553.0054931640625
z: 0.13244503736495972
visibility: 0.940136194229126
","x: 233.977783203125
y: 564.042724609375
z: -0.04816978797316551
visibility: 0.9896393418312073
","x: 179.43292236328125
y: 559.9009399414062
z: 0.011407722719013691
visibility: 0.965307354927063
",,,,,,,,,,,,,,,,,,,,,,,,,,,,,,,,,,,,,,,,,,
23,"x: 222.86216735839844
y: 229.3399658203125
z: -0.45558953285217285
visibility: 0.9997929930686951
","x: 225.3367919921875
y: 221.07923889160156
z: -0.4492223858833313
visibility: 0.9996758103370667
","x: 226.87686157226562
y: 220.67605590820312
z: -0.4491976797580719
visibility: 0.9997497200965881
","x: 228.3852996826172
y: 220.1548614501953
z: -0.44923657178878784
visibility: 0.9997528195381165
","x: 221.22540283203125
y: 219.61488342285156
z: -0.4478221833705902
visibility: 0.9995406866073608
","x: 219.89105224609375
y: 218.48025512695312
z: -0.44786351919174194
visibility: 0.9994977116584778
","x: 218.5322265625
y: 217.37998962402344
z: -0.44786587357521057
visibility: 0.9994248747825623
","x: 231.36895751953125
y: 217.80844116210938
z: -0.3335627615451813
visibility: 0.9997931718826294
","x: 217.37416076660156
y: 215.25726318359375
z: -0.3282620310783386
visibility: 0.9989609718322754
","x: 225.24884033203125
y: 234.06060791015625
z: -0.40514135360717773
visibility: 0.9998459219932556
","x: 220.6424560546875
y: 232.8509521484375
z: -0.40386781096458435
visibility: 0.9995435476303101
","x: 246.70895385742188
y: 256.44537353515625
z: -0.20756705105304718
visibility: 0.9999829530715942
","x: 201.63174438476562
y: 252.00538635253906
z: -0.19608762860298157
visibility: 0.9994309544563293
","x: 253.11830139160156
y: 323.0004577636719
z: -0.1239248663187027
visibility: 0.9941599369049072
","x: 193.8467559814453
y: 317.9641418457031
z: -0.12032832950353622
visibility: 0.626286506652832
","x: 260.5501708984375
y: 382.0019836425781
z: -0.2090151011943817
visibility: 0.9830493927001953
","x: 192.61326599121094
y: 360.34857177734375
z: -0.20940959453582764
visibility: 0.7816708087921143
","x: 266.3868103027344
y: 398.75970458984375
z: -0.23552504181861877
visibility: 0.9669114351272583
","x: 191.8713836669922
y: 376.0121154785156
z: -0.23554137349128723
visibility: 0.7759172320365906
","x: 264.0552978515625
y: 399.5971984863281
z: -0.27893388271331787
visibility: 0.9682437181472778
","x: 193.36741638183594
y: 375.3502197265625
z: -0.2769385278224945
visibility: 0.7888348698616028
","x: 261.1006164550781
y: 394.1313171386719
z: -0.2272995412349701
visibility: 0.9538159370422363
","x: 194.5813446044922
y: 369.83319091796875
z: -0.22659869492053986
visibility: 0.7731788754463196
","x: 235.25363159179688
y: 371.6460876464844
z: -0.007228332571685314
visibility: 0.9994661808013916
","x: 209.78863525390625
y: 369.952392578125
z: 0.007184736430644989
visibility: 0.9991934895515442
","x: 233.26382446289062
y: 462.0543212890625
z: -0.016194555908441544
visibility: 0.9904206991195679
","x: 209.4576873779297
y: 457.1618347167969
z: 0.023125333711504936
visibility: 0.9101288914680481
","x: 231.53302001953125
y: 538.914794921875
z: 0.14496062695980072
visibility: 0.9933821558952332
","x: 210.78440856933594
y: 537.3768920898438
z: 0.200729638338089
visibility: 0.9603701829910278
","x: 228.94500732421875
y: 550.1593627929688
z: 0.15208134055137634
visibility: 0.9326632618904114
","x: 214.21241760253906
y: 546.7710571289062
z: 0.21087245643138885
visibility: 0.9385804533958435
","x: 234.04049682617188
y: 564.5499877929688
z: 0.01598389260470867
visibility: 0.9893568754196167
","x: 197.6155242919922
y: 560.146728515625
z: 0.07573391497135162
visibility: 0.9676417708396912
",,,,,,,,,,,,,,,,,,,,,,,,,,,,,,,,,,,,,,,,,,
24,"x: 227.575927734375
y: 231.93643188476562
z: -0.46747368574142456
visibility: 0.9998130202293396
","x: 229.72068786621094
y: 224.0030517578125
z: -0.4571543335914612
visibility: 0.9997049570083618
","x: 230.876220703125
y: 223.76068115234375
z: -0.4571039080619812
visibility: 0.999770998954773
","x: 231.96719360351562
y: 223.39666748046875
z: -0.4571200907230377
visibility: 0.9997726678848267
","x: 225.99510192871094
y: 222.33258056640625
z: -0.4600295126438141
visibility: 0.9995837211608887
","x: 224.51124572753906
y: 220.92807006835938
z: -0.46011361479759216
visibility: 0.9995452761650085
","x: 223.04315185546875
y: 219.461181640625
z: -0.46012312173843384
visibility: 0.9994792342185974
","x: 232.7449493408203
y: 221.29446411132812
z: -0.3312695622444153
visibility: 0.9998059868812561
","x: 220.45797729492188
y: 217.06809997558594
z: -0.3488883376121521
visibility: 0.9990612268447876
","x: 228.5887908935547
y: 236.23629760742188
z: -0.4145047068595886
visibility: 0.9998596906661987
","x: 224.27874755859375
y: 235.27493286132812
z: -0.4199794828891754
visibility: 0.999588131904602
","x: 246.5029296875
y: 258.975341796875
z: -0.20199115574359894
visibility: 0.9999832510948181
","x: 202.07208251953125
y: 253.2683563232422
z: -0.24373206496238708
visibility: 0.9994866251945496
","x: 258.1978759765625
y: 321.466552734375
z: -0.12881514430046082
visibility: 0.9942350387573242
","x: 191.8437042236328
y: 315.6232604980469
z: -0.29890620708465576
visibility: 0.6629288196563721
","x: 268.8439636230469
y: 380.8894348144531
z: -0.21781539916992188
visibility: 0.9841504096984863
","x: 195.08071899414062
y: 347.837158203125
z: -0.5021160244941711
visibility: 0.8027589917182922
","x: 273.99932861328125
y: 396.48382568359375
z: -0.24468417465686798
visibility: 0.9686951637268066
","x: 195.65451049804688
y: 364.092041015625
z: -0.5487275123596191
visibility: 0.7969178557395935
","x: 271.07958984375
y: 397.8625793457031
z: -0.28430411219596863
visibility: 0.9700360298156738
","x: 200.44741821289062
y: 359.6831970214844
z: -0.5742948651313782
visibility: 0.8086187243461609
","x: 268.3619384765625
y: 392.31646728515625
z: -0.23459139466285706
visibility: 0.9566802978515625
","x: 201.30104064941406
y: 353.33746337890625
z: -0.5155091881752014
visibility: 0.7939096093177795
","x: 235.20042419433594
y: 375.45843505859375
z: 0.005209445953369141
visibility: 0.9994974136352539
","x: 210.79978942871094
y: 373.0400085449219
z: -0.0053228042088449
visibility: 0.9992550611495972
","x: 233.10353088378906
y: 462.9603271484375
z: 0.034983985126018524
visibility: 0.9906215071678162
","x: 214.14891052246094
y: 459.60693359375
z: 0.01987915299832821
visibility: 0.918266236782074
","x: 232.00741577148438
y: 539.4947509765625
z: 0.19183796644210815
visibility: 0.9931070804595947
","x: 215.33770751953125
y: 537.7825317382812
z: 0.1933009922504425
visibility: 0.9634255170822144
","x: 229.53292846679688
y: 550.5138549804688
z: 0.19894592463970184
visibility: 0.9317816495895386
","x: 218.36746215820312
y: 547.1485595703125
z: 0.20273680984973907
visibility: 0.9351001381874084
","x: 234.00027465820312
y: 564.7501831054688
z: 0.07111246883869171
visibility: 0.9891741871833801
","x: 205.3069610595703
y: 561.1536254882812
z: 0.07478560507297516
visibility: 0.9696258902549744
","x: 267.2997741699219
y: 383.603271484375
z: 0.0
","x: 265.4797668457031
y: 389.345947265625
z: -0.002975591691210866
","x: 265.0826416015625
y: 395.30743408203125
z: -0.004410505760461092
","x: 266.3485107421875
y: 399.0670471191406
z: -0.005929242353886366
","x: 267.891845703125
y: 401.278564453125
z: -0.0074915471486747265
","x: 270.5309143066406
y: 401.674560546875
z: -0.001601179945282638
","x: 272.6091613769531
y: 408.1846618652344
z: -0.0037437218707054853
","x: 273.9192199707031
y: 412.1368408203125
z: -0.005417037755250931
","x: 275.19378662109375
y: 415.550048828125
z: -0.006539579946547747
","x: 272.9256286621094
y: 399.91864013671875
z: -0.0023451843298971653
","x: 276.1878356933594
y: 406.268798828125
z: -0.003946468699723482
","x: 278.1864929199219
y: 410.27850341796875
z: -0.005403771065175533
","x: 279.96038818359375
y: 413.7212829589844
z: -0.006623388268053532
","x: 274.5625305175781
y: 397.17828369140625
z: -0.0037194006145000458
","x: 277.9604187011719
y: 402.6653747558594
z: -0.005808522924780846
","x: 280.0401611328125
y: 406.31134033203125
z: -0.007496615871787071
","x: 281.7660827636719
y: 409.3649597167969
z: -0.00870911218225956
","x: 275.56890869140625
y: 393.41326904296875
z: -0.00554449949413538
","x: 278.50726318359375
y: 397.3802490234375
z: -0.007556576281785965
","x: 280.3375244140625
y: 400.04229736328125
z: -0.008729953318834305
","x: 281.7989501953125
y: 402.37750244140625
z: -0.009558238089084625
",,,,,,,,,,,,,,,,,,,,,
25,"x: 227.575927734375
y: 231.93643188476562
z: -0.46747368574142456
visibility: 0.9998130202293396
","x: 229.72068786621094
y: 224.0030517578125
z: -0.4571543335914612
visibility: 0.9997049570083618
","x: 230.876220703125
y: 223.76068115234375
z: -0.4571039080619812
visibility: 0.999770998954773
","x: 231.96719360351562
y: 223.39666748046875
z: -0.4571200907230377
visibility: 0.9997726678848267
","x: 225.99510192871094
y: 222.33258056640625
z: -0.4600295126438141
visibility: 0.9995837211608887
","x: 224.51124572753906
y: 220.92807006835938
z: -0.46011361479759216
visibility: 0.9995452761650085
","x: 223.04315185546875
y: 219.461181640625
z: -0.46012312173843384
visibility: 0.9994792342185974
","x: 232.7449493408203
y: 221.29446411132812
z: -0.3312695622444153
visibility: 0.9998059868812561
","x: 220.45797729492188
y: 217.06809997558594
z: -0.3488883376121521
visibility: 0.9990612268447876
","x: 228.5887908935547
y: 236.23629760742188
z: -0.4145047068595886
visibility: 0.9998596906661987
","x: 224.27874755859375
y: 235.27493286132812
z: -0.4199794828891754
visibility: 0.999588131904602
","x: 246.5029296875
y: 258.975341796875
z: -0.20199115574359894
visibility: 0.9999832510948181
","x: 202.07208251953125
y: 253.2683563232422
z: -0.24373206496238708
visibility: 0.9994866251945496
","x: 258.1978759765625
y: 321.466552734375
z: -0.12881514430046082
visibility: 0.9942350387573242
","x: 191.8437042236328
y: 315.6232604980469
z: -0.29890620708465576
visibility: 0.6629288196563721
","x: 268.8439636230469
y: 380.8894348144531
z: -0.21781539916992188
visibility: 0.9841504096984863
","x: 195.08071899414062
y: 347.837158203125
z: -0.5021160244941711
visibility: 0.8027589917182922
","x: 273.99932861328125
y: 396.48382568359375
z: -0.24468417465686798
visibility: 0.9686951637268066
","x: 195.65451049804688
y: 364.092041015625
z: -0.5487275123596191
visibility: 0.7969178557395935
","x: 271.07958984375
y: 397.8625793457031
z: -0.28430411219596863
visibility: 0.9700360298156738
","x: 200.44741821289062
y: 359.6831970214844
z: -0.5742948651313782
visibility: 0.8086187243461609
","x: 268.3619384765625
y: 392.31646728515625
z: -0.23459139466285706
visibility: 0.9566802978515625
","x: 201.30104064941406
y: 353.33746337890625
z: -0.5155091881752014
visibility: 0.7939096093177795
","x: 235.20042419433594
y: 375.45843505859375
z: 0.005209445953369141
visibility: 0.9994974136352539
","x: 210.79978942871094
y: 373.0400085449219
z: -0.0053228042088449
visibility: 0.9992550611495972
","x: 233.10353088378906
y: 462.9603271484375
z: 0.034983985126018524
visibility: 0.9906215071678162
","x: 214.14891052246094
y: 459.60693359375
z: 0.01987915299832821
visibility: 0.918266236782074
","x: 232.00741577148438
y: 539.4947509765625
z: 0.19183796644210815
visibility: 0.9931070804595947
","x: 215.33770751953125
y: 537.7825317382812
z: 0.1933009922504425
visibility: 0.9634255170822144
","x: 229.53292846679688
y: 550.5138549804688
z: 0.19894592463970184
visibility: 0.9317816495895386
","x: 218.36746215820312
y: 547.1485595703125
z: 0.20273680984973907
visibility: 0.9351001381874084
","x: 234.00027465820312
y: 564.7501831054688
z: 0.07111246883869171
visibility: 0.9891741871833801
","x: 205.3069610595703
y: 561.1536254882812
z: 0.07478560507297516
visibility: 0.9696258902549744
","x: 267.2997741699219
y: 383.603271484375
z: 0.0
","x: 265.4797668457031
y: 389.345947265625
z: -0.002975591691210866
","x: 265.0826416015625
y: 395.30743408203125
z: -0.004410505760461092
","x: 266.3485107421875
y: 399.0670471191406
z: -0.005929242353886366
","x: 267.891845703125
y: 401.278564453125
z: -0.0074915471486747265
","x: 270.5309143066406
y: 401.674560546875
z: -0.001601179945282638
","x: 272.6091613769531
y: 408.1846618652344
z: -0.0037437218707054853
","x: 273.9192199707031
y: 412.1368408203125
z: -0.005417037755250931
","x: 275.19378662109375
y: 415.550048828125
z: -0.006539579946547747
","x: 272.9256286621094
y: 399.91864013671875
z: -0.0023451843298971653
","x: 276.1878356933594
y: 406.268798828125
z: -0.003946468699723482
","x: 278.1864929199219
y: 410.27850341796875
z: -0.005403771065175533
","x: 279.96038818359375
y: 413.7212829589844
z: -0.006623388268053532
","x: 274.5625305175781
y: 397.17828369140625
z: -0.0037194006145000458
","x: 277.9604187011719
y: 402.6653747558594
z: -0.005808522924780846
","x: 280.0401611328125
y: 406.31134033203125
z: -0.007496615871787071
","x: 281.7660827636719
y: 409.3649597167969
z: -0.00870911218225956
","x: 275.56890869140625
y: 393.41326904296875
z: -0.00554449949413538
","x: 278.50726318359375
y: 397.3802490234375
z: -0.007556576281785965
","x: 280.3375244140625
y: 400.04229736328125
z: -0.008729953318834305
","x: 281.7989501953125
y: 402.37750244140625
z: -0.009558238089084625
",,,,,,,,,,,,,,,,,,,,,
26,"x: 227.38238525390625
y: 237.5396728515625
z: -0.4644540250301361
visibility: 0.99983149766922
","x: 230.22528076171875
y: 229.86941528320312
z: -0.4546915888786316
visibility: 0.9997332692146301
","x: 231.55360412597656
y: 229.7161865234375
z: -0.4546283781528473
visibility: 0.9997925758361816
","x: 232.90211486816406
y: 229.41702270507812
z: -0.45463117957115173
visibility: 0.9997935891151428
","x: 226.34019470214844
y: 227.88185119628906
z: -0.4567812979221344
visibility: 0.9996243119239807
","x: 224.93435668945312
y: 226.32371520996094
z: -0.4568606913089752
visibility: 0.999589741230011
","x: 223.49615478515625
y: 224.62039184570312
z: -0.45685920119285583
visibility: 0.999530017375946
","x: 234.32952880859375
y: 226.9291534423828
z: -0.3305346667766571
visibility: 0.999822735786438
","x: 221.12774658203125
y: 220.75320434570312
z: -0.3445327877998352
visibility: 0.9991536140441895
","x: 228.82510375976562
y: 242.29734802246094
z: -0.4120810627937317
visibility: 0.9998731017112732
","x: 224.12684631347656
y: 240.9873809814453
z: -0.4164751470088959
visibility: 0.9996289014816284
","x: 247.0768280029297
y: 263.7747497558594
z: -0.20062515139579773
visibility: 0.9999843239784241
","x: 202.79873657226562
y: 254.97100830078125
z: -0.23924608528614044
visibility: 0.9995372891426086
","x: 259.7649230957031
y: 326.3072204589844
z: -0.13214854896068573
visibility: 0.9945201277732849
","x: 191.19601440429688
y: 314.39398193359375
z: -0.29921233654022217
visibility: 0.6960335373878479
","x: 271.125244140625
y: 386.3287353515625
z: -0.22610053420066833
visibility: 0.9853946566581726
","x: 196.83242797851562
y: 343.4753112792969
z: -0.5132803916931152
visibility: 0.8220545053482056
","x: 275.458740234375
y: 404.3055419921875
z: -0.2541710436344147
visibility: 0.9709359407424927
","x: 197.71507263183594
y: 359.9709777832031
z: -0.561349093914032
visibility: 0.8164047002792358
","x: 272.7203063964844
y: 405.5477600097656
z: -0.29347288608551025
visibility: 0.9722228646278381
","x: 202.83815002441406
y: 353.9978332519531
z: -0.587032675743103
visibility: 0.8269795179367065
","x: 270.6279602050781
y: 400.311767578125
z: -0.24261963367462158
visibility: 0.9599559903144836
","x: 203.5008544921875
y: 347.9168701171875
z: -0.5267542600631714
visibility: 0.8133361339569092
","x: 234.80433654785156
y: 380.2336120605469
z: 0.001923599629662931
visibility: 0.9995381236076355
","x: 210.80032348632812
y: 377.19140625
z: -0.002026535337790847
visibility: 0.9993187189102173
","x: 232.1654052734375
y: 465.1336364746094
z: 0.01748855784535408
visibility: 0.9910800457000732
","x: 212.112548828125
y: 462.5445251464844
z: 0.04704654961824417
visibility: 0.9258091449737549
","x: 231.45236206054688
y: 541.3073120117188
z: 0.1467134654521942
visibility: 0.993272066116333
","x: 214.46934509277344
y: 536.9051513671875
z: 0.2340325564146042
visibility: 0.9664176106452942
","x: 229.16888427734375
y: 552.6317138671875
z: 0.15069580078125
visibility: 0.9331969022750854
","x: 217.43824768066406
y: 545.8671264648438
z: 0.24443964660167694
visibility: 0.9351219534873962
","x: 233.37997436523438
y: 565.5516357421875
z: 0.020805036649107933
visibility: 0.9895358681678772
","x: 203.1470184326172
y: 560.89794921875
z: 0.12751197814941406
visibility: 0.9717612266540527
",,,,,,,,,,,,,,,,,,,,,,,,,,,,,,,,,,,,,,,,,,
27,"x: 229.5882568359375
y: 233.37098693847656
z: -0.4208846986293793
visibility: 0.9998471736907959
","x: 232.29931640625
y: 224.7738800048828
z: -0.41018763184547424
visibility: 0.9997543096542358
","x: 233.5419921875
y: 224.49932861328125
z: -0.41014212369918823
visibility: 0.9998072981834412
","x: 234.73068237304688
y: 224.17501831054688
z: -0.41014257073402405
visibility: 0.9998070597648621
","x: 228.6356964111328
y: 223.7522735595703
z: -0.4128935933113098
visibility: 0.9996568560600281
","x: 227.252197265625
y: 222.73292541503906
z: -0.41294607520103455
visibility: 0.9996258020401001
","x: 225.84571838378906
y: 221.60963439941406
z: -0.4129520058631897
visibility: 0.9995714426040649
","x: 235.87779235839844
y: 223.0037841796875
z: -0.2957386374473572
visibility: 0.9998246431350708
","x: 222.829833984375
y: 218.88450622558594
z: -0.3102508783340454
visibility: 0.9992297887802124
","x: 230.71932983398438
y: 238.54315185546875
z: -0.37265998125076294
visibility: 0.9998826384544373
","x: 226.28611755371094
y: 237.9575958251953
z: -0.37754467129707336
visibility: 0.999663770198822
","x: 247.48963928222656
y: 263.13214111328125
z: -0.18069037795066833
visibility: 0.9999818205833435
","x: 203.1841583251953
y: 252.45599365234375
z: -0.2027512490749359
visibility: 0.999582052230835
","x: 255.9821319580078
y: 328.05047607421875
z: -0.09558483958244324
visibility: 0.994285523891449
","x: 192.68386840820312
y: 312.3002014160156
z: -0.16964179277420044
visibility: 0.7255424857139587
","x: 262.5391845703125
y: 386.7724304199219
z: -0.17146079242229462
visibility: 0.9850148558616638
","x: 194.4151611328125
y: 347.3060607910156
z: -0.2858893871307373
visibility: 0.8384556770324707
","x: 264.03045654296875
y: 405.7867736816406
z: -0.1944672167301178
visibility: 0.9693443775177002
","x: 193.98155212402344
y: 366.2405700683594
z: -0.3170214295387268
visibility: 0.8318605422973633
","x: 261.5489196777344
y: 406.13848876953125
z: -0.2329338788986206
visibility: 0.9709417223930359
","x: 196.75137329101562
y: 362.6214294433594
z: -0.3500601649284363
visibility: 0.8416104912757874
","x: 260.3963928222656
y: 400.33514404296875
z: -0.18787898123264313
visibility: 0.959281325340271
","x: 197.81906127929688
y: 355.2914123535156
z: -0.3012939691543579
visibility: 0.8285296559333801
","x: 233.75320434570312
y: 378.85076904296875
z: 0.0028367212507873774
visibility: 0.9995540380477905
","x: 208.729736328125
y: 375.987060546875
z: -0.0029460517689585686
visibility: 0.9993638396263123
","x: 231.96372985839844
y: 464.9983215332031
z: 0.005581709556281567
visibility: 0.9914088845252991
","x: 208.09478759765625
y: 460.0619812011719
z: 0.009682885371148586
visibility: 0.9327895045280457
","x: 231.84474182128906
y: 541.293212890625
z: 0.12237467616796494
visibility: 0.993485152721405
","x: 213.5767364501953
y: 534.440185546875
z: 0.1510612964630127
visibility: 0.9693419337272644
","x: 229.0734100341797
y: 552.6368408203125
z: 0.1252836138010025
visibility: 0.9346782565116882
","x: 215.21351623535156
y: 544.4030151367188
z: 0.15652082860469818
visibility: 0.9354259967803955
","x: 233.41896057128906
y: 565.0621337890625
z: -0.0007966379635035992
visibility: 0.9898194670677185
","x: 197.4708251953125
y: 560.6485595703125
z: 0.032172881066799164
visibility: 0.9738498330116272
",,,,,,,,,,,,,,,,,,,,,,,,,,,,,,,,,,,,,,,,,,
28,"x: 229.810546875
y: 223.6370849609375
z: -0.4291727542877197
visibility: 0.9998611807823181
","x: 232.46597290039062
y: 215.23074340820312
z: -0.419412225484848
visibility: 0.9997730851173401
","x: 233.70291137695312
y: 215.3321990966797
z: -0.4193669855594635
visibility: 0.9998206496238708
","x: 234.95872497558594
y: 215.52899169921875
z: -0.4193572998046875
visibility: 0.9998201727867126
","x: 228.69845581054688
y: 213.4491729736328
z: -0.4212971329689026
visibility: 0.9996863007545471
","x: 227.28207397460938
y: 212.33314514160156
z: -0.42136654257774353
visibility: 0.9996583461761475
","x: 225.88458251953125
y: 211.28054809570312
z: -0.42139142751693726
visibility: 0.9996093511581421
","x: 236.079833984375
y: 217.24087524414062
z: -0.30553877353668213
visibility: 0.9998310208320618
","x: 222.72120666503906
y: 211.44512939453125
z: -0.31508466601371765
visibility: 0.9992966055870056
","x: 231.0198974609375
y: 229.064453125
z: -0.3815799653530121
visibility: 0.9998912811279297
","x: 226.39666748046875
y: 228.04022216796875
z: -0.38468849658966064
visibility: 0.9996947646141052
","x: 247.38661193847656
y: 261.5102233886719
z: -0.19768474996089935
visibility: 0.9999802708625793
","x: 202.40573120117188
y: 245.80239868164062
z: -0.19002696871757507
visibility: 0.9996225833892822
","x: 252.53880310058594
y: 325.8941955566406
z: -0.1229650229215622
visibility: 0.9939842820167542
","x: 191.5609588623047
y: 308.119384765625
z: -0.12548936903476715
visibility: 0.7517913579940796
","x: 255.4903564453125
y: 382.5516052246094
z: -0.2045382559299469
visibility: 0.98393315076828
","x: 191.2947235107422
y: 354.2616271972656
z: -0.20442748069763184
visibility: 0.8529777526855469
","x: 257.29608154296875
y: 400.3739013671875
z: -0.22987696528434753
visibility: 0.9668776392936707
","x: 189.66836547851562
y: 371.77203369140625
z: -0.22614721953868866
visibility: 0.845274031162262
","x: 254.71841430664062
y: 400.88702392578125
z: -0.267708957195282
visibility: 0.9687303304672241
","x: 193.09681701660156
y: 371.4449768066406
z: -0.27235162258148193
visibility: 0.8544148206710815
","x: 252.9548797607422
y: 394.37078857421875
z: -0.22022831439971924
visibility: 0.9569562673568726
","x: 195.59707641601562
y: 365.4515380859375
z: -0.22323556244373322
visibility: 0.8419280052185059
","x: 233.040771484375
y: 375.5838623046875
z: -0.006810375489294529
visibility: 0.9995632767677307
","x: 207.56454467773438
y: 370.51904296875
z: 0.006713099777698517
visibility: 0.999409556388855
