uscmakers/ReverseChoreography/data/5_power_little_mix.csv
,NOSE,LEFT_EYE_INNER,LEFT_EYE,LEFT_EYE_OUTER,RIGHT_EYE_INNER,RIGHT_EYE,RIGHT_EYE_OUTER,LEFT_EAR,RIGHT_EAR,MOUTH_LEFT,MOUTH_RIGHT,LEFT_SHOULDER,RIGHT_SHOULDER,LEFT_ELBOW,RIGHT_ELBOW,LEFT_WRIST,RIGHT_WRIST,LEFT_PINKY,RIGHT_PINKY,LEFT_INDEX,RIGHT_INDEX,LEFT_THUMB,RIGHT_THUMB,LEFT_HIP,RIGHT_HIP,LEFT_KNEE,RIGHT_KNEE,LEFT_ANKLE,RIGHT_ANKLE,LEFT_HEEL,RIGHT_HEEL,LEFT_FOOT_INDEX,RIGHT_FOOT_INDEX,WRIST,THUMB_CPC,THUMB_MCP,THUMB_IP,THUMB_TIP,INDEX_FINGER_MCP,INDEX_FINGER_PIP,INDEX_FINGER_DIP,INDEX_FINGER_TIP,MIDDLE_FINGER_MCP,MIDDLE_FINGER_PIP,MIDDLE_FINGER_DIP,MIDDLE_FINGER_TIP,RING_FINGER_PIP,RING_FINGER_DIP,RING_FINGER_TIP,RING_FINGER_MCP,PINKY_MCP,PINKY_PIP,PINKY_DIP,PINKY_TIP,WRIST2,THUMB_CPC2,THUMB_MCP2,THUMB_IP2,THUMB_TIP2,INDEX_FINGER_MCP2,INDEX_FINGER_PIP2,INDEX_FINGER_DIP2,INDEX_FINGER_TIP2,MIDDLE_FINGER_MCP2,MIDDLE_FINGER_PIP2,MIDDLE_FINGER_DIP2,MIDDLE_FINGER_TIP2,RING_FINGER_PIP2,RING_FINGER_DIP2,RING_FINGER_TIP2,RING_FINGER_MCP2,PINKY_MCP2,PINKY_PIP2,PINKY_DIP2,PINKY_TIP2
0,"x: 194.82093811035156
y: 221.50665283203125
z: -0.24654605984687805
visibility: 0.9999861717224121
","x: 196.12400817871094
y: 214.53550720214844
z: -0.22881701588630676
visibility: 0.9999611377716064
","x: 196.91798400878906
y: 214.48077392578125
z: -0.22883173823356628
visibility: 0.9999469518661499
","x: 197.72218322753906
y: 214.34051513671875
z: -0.2288154810667038
visibility: 0.9999368190765381
","x: 192.90591430664062
y: 213.0689697265625
z: -0.2442050278186798
visibility: 0.9999719858169556
","x: 191.30526733398438
y: 211.92726135253906
z: -0.2442079782485962
visibility: 0.9999661445617676
","x: 189.57708740234375
y: 210.646240234375
z: -0.24422594904899597
visibility: 0.9999622106552124
","x: 196.01889038085938
y: 214.72067260742188
z: -0.10670877993106842
visibility: 0.9998370409011841
","x: 183.73020935058594
y: 210.76718139648438
z: -0.18140855431556702
visibility: 0.9999679327011108
","x: 194.65782165527344
y: 226.8861083984375
z: -0.19833646714687347
visibility: 0.9999709129333496
","x: 190.7985076904297
y: 225.9002685546875
z: -0.21995560824871063
visibility: 0.9999881982803345
","x: 202.7104949951172
y: 258.36444091796875
z: -0.0031302578281611204
visibility: 0.9999468326568604
","x: 163.79739379882812
y: 252.6787567138672
z: -0.13255301117897034
visibility: 0.9999854564666748
","x: 206.57864379882812
y: 315.1568298339844
z: 0.06792844831943512
visibility: 0.9188152551651001
","x: 151.1252899169922
y: 304.8174133300781
z: -0.18304643034934998
visibility: 0.9911182522773743
","x: 217.96527099609375
y: 361.7880859375
z: -0.04259869456291199
visibility: 0.9528909921646118
","x: 165.24124145507812
y: 331.2536926269531
z: -0.32819271087646484
visibility: 0.9858470559120178
","x: 222.06504821777344
y: 374.5051574707031
z: -0.06777758151292801
visibility: 0.919050931930542
","x: 168.25843811035156
y: 339.46282958984375
z: -0.36789923906326294
visibility: 0.9739091992378235
","x: 221.60165405273438
y: 373.76513671875
z: -0.10627909749746323
visibility: 0.927716851234436
","x: 171.45938110351562
y: 335.15277099609375
z: -0.38518086075782776
visibility: 0.9738449454307556
","x: 219.52110290527344
y: 370.7572937011719
z: -0.061266861855983734
visibility: 0.9159955978393555
","x: 170.92613220214844
y: 331.7044677734375
z: -0.33678194880485535
visibility: 0.9611480236053467
","x: 197.10064697265625
y: 368.1968688964844
z: 0.041028302162885666
visibility: 0.9997435212135315
","x: 175.37432861328125
y: 368.8771057128906
z: -0.041017431765794754
visibility: 0.9998177886009216
","x: 204.63406372070312
y: 451.86968994140625
z: 0.058613114058971405
visibility: 0.9907128214836121
","x: 176.13043212890625
y: 450.6729736328125
z: -0.00844285823404789
visibility: 0.9948760867118835
","x: 208.6746826171875
y: 532.2344360351562
z: 0.16915848851203918
visibility: 0.9927394986152649
","x: 179.79672241210938
y: 529.3040771484375
z: 0.1427781581878662
visibility: 0.9962273836135864
","x: 203.5559844970703
y: 545.32080078125
z: 0.1724082976579666
visibility: 0.9784431457519531
","x: 183.74371337890625
y: 539.9329833984375
z: 0.149942085146904
visibility: 0.9508660435676575
","x: 226.94581604003906
y: 549.1541137695312
z: 0.06016146391630173
visibility: 0.9916302561759949
","x: 176.7864990234375
y: 554.85693359375
z: 0.025794321671128273
visibility: 0.9928829669952393
",,,,,,,,,,,,,,,,,,,,,,,,,,,,,,,,,,,,,,,,,,
1,"x: 208.29322814941406
y: 222.1689453125
z: -0.2595067322254181
visibility: 0.9999861121177673
","x: 209.80270385742188
y: 215.34971618652344
z: -0.23940709233283997
visibility: 0.9999583959579468
","x: 210.62342834472656
y: 215.26141357421875
z: -0.23945927619934082
visibility: 0.9999450445175171
","x: 211.47958374023438
y: 215.13485717773438
z: -0.23943161964416504
visibility: 0.9999326467514038
","x: 206.84585571289062
y: 214.21316528320312
z: -0.2502662241458893
visibility: 0.999969482421875
","x: 205.49755859375
y: 213.2994842529297
z: -0.250263512134552
visibility: 0.9999642968177795
","x: 203.99571228027344
y: 212.2816162109375
z: -0.250300794839859
visibility: 0.9999591708183289
","x: 210.57269287109375
y: 215.77474975585938
z: -0.10704240947961807
visibility: 0.9997889399528503
","x: 199.5123748779297
y: 212.56771850585938
z: -0.16115355491638184
visibility: 0.9999666810035706
","x: 208.38027954101562
y: 227.5352783203125
z: -0.20731814205646515
visibility: 0.9999671578407288
","x: 204.84361267089844
y: 226.8677520751953
z: -0.22231829166412354
visibility: 0.999987006187439
","x: 218.3708038330078
y: 258.4776916503906
z: 0.010260089300572872
visibility: 0.999950110912323
","x: 181.19943237304688
y: 252.85800170898438
z: -0.1042293906211853
visibility: 0.9999865293502808
","x: 223.966796875
y: 312.4429931640625
z: -0.012230312451720238
visibility: 0.8984569907188416
","x: 172.13526916503906
y: 313.339599609375
z: -0.08074364811182022
visibility: 0.9918466806411743
","x: 238.0283660888672
y: 317.7181396484375
z: -0.27815350890159607
visibility: 0.9535309076309204
","x: 167.81886291503906
y: 361.4283447265625
z: -0.15851552784442902
visibility: 0.9870361089706421
","x: 242.48440551757812
y: 316.5142517089844
z: -0.3257387578487396
visibility: 0.9229161739349365
","x: 167.25436401367188
y: 376.92083740234375
z: -0.1849716454744339
visibility: 0.9759817123413086
","x: 242.33547973632812
y: 311.98187255859375
z: -0.35552850365638733
visibility: 0.9314878582954407
","x: 170.0089874267578
y: 375.2439880371094
z: -0.21470627188682556
visibility: 0.9759708642959595
","x: 240.0515594482422
y: 312.32659912109375
z: -0.2975427508354187
visibility: 0.9199931025505066
","x: 170.8346710205078
y: 370.2371520996094
z: -0.16942927241325378
visibility: 0.9643403887748718
","x: 213.9518280029297
y: 368.15679931640625
z: 0.06423549354076385
visibility: 0.999755322933197
","x: 193.3269500732422
y: 367.9344177246094
z: -0.06434788554906845
visibility: 0.9998149275779724
","x: 212.45498657226562
y: 452.59100341796875
z: 0.040341511368751526
visibility: 0.9847309589385986
","x: 203.36239624023438
y: 450.3807373046875
z: -0.11822197586297989
visibility: 0.9950503706932068
","x: 210.16827392578125
y: 533.70458984375
z: 0.1770205795764923
visibility: 0.9916097521781921
","x: 185.845947265625
y: 518.2965087890625
z: 0.07371401786804199
visibility: 0.9958605170249939
","x: 206.0617218017578
y: 547.1536865234375
z: 0.18492835760116577
visibility: 0.9761844873428345
","x: 183.77752685546875
y: 523.3004150390625
z: 0.08818726986646652
visibility: 0.9465885162353516
","x: 227.8569793701172
y: 552.1185302734375
z: 0.0987691730260849
visibility: 0.9908824563026428
","x: 188.25228881835938
y: 551.266357421875
z: 0.0029781563207507133
visibility: 0.9926648139953613
",,,,,,,,,,,,,,,,,,,,,,,,,,,,,,,,,,,,,,,,,,
2,"x: 213.65074157714844
y: 220.14425659179688
z: -0.2757870554924011
visibility: 0.9999809861183167
","x: 215.630126953125
y: 212.80523681640625
z: -0.25582632422447205
visibility: 0.999944269657135
","x: 216.6492156982422
y: 212.65805053710938
z: -0.2558954060077667
visibility: 0.9999284744262695
","x: 217.59490966796875
y: 212.56777954101562
z: -0.25590020418167114
visibility: 0.9999134540557861
","x: 212.01141357421875
y: 212.05316162109375
z: -0.2658527195453644
visibility: 0.9999564290046692
","x: 210.34930419921875
y: 211.28289794921875
z: -0.26588889956474304
visibility: 0.9999512434005737
","x: 208.51239013671875
y: 210.45285034179688
z: -0.2659650444984436
visibility: 0.9999460577964783
","x: 217.24497985839844
y: 213.76954650878906
z: -0.11794735491275787
visibility: 0.9996976256370544
","x: 204.62460327148438
y: 210.8944549560547
z: -0.16663874685764313
visibility: 0.999949038028717
","x: 214.3854522705078
y: 225.64639282226562
z: -0.22078391909599304
visibility: 0.9999469518661499
","x: 210.1958770751953
y: 225.223876953125
z: -0.23408643901348114
visibility: 0.9999770522117615
","x: 225.9751739501953
y: 254.59829711914062
z: 0.013325996696949005
visibility: 0.999943733215332
","x: 187.69830322265625
y: 248.58541870117188
z: -0.10847518593072891
visibility: 0.999985933303833
","x: 230.49945068359375
y: 308.5150451660156
z: 0.032593317329883575
visibility: 0.8897747993469238
","x: 176.25318908691406
y: 310.86083984375
z: -0.0869373083114624
visibility: 0.9917529821395874
","x: 237.84152221679688
y: 335.7820129394531
z: -0.15146608650684357
visibility: 0.9501252174377441
","x: 167.84095764160156
y: 350.2123718261719
z: -0.19563601911067963
visibility: 0.9873053431510925
","x: 241.87139892578125
y: 343.0404357910156
z: -0.18695677816867828
visibility: 0.919615626335144
","x: 164.8077392578125
y: 361.9024353027344
z: -0.22768919169902802
visibility: 0.9764552116394043
","x: 241.12890625
y: 341.07330322265625
z: -0.23593397438526154
visibility: 0.9282783269882202
","x: 165.60781860351562
y: 360.1130676269531
z: -0.2609701156616211
visibility: 0.976616621017456
","x: 239.02554321289062
y: 339.03173828125
z: -0.17375195026397705
visibility: 0.916289746761322
","x: 167.69949340820312
y: 356.0830993652344
z: -0.2097713202238083
visibility: 0.9654936790466309
","x: 215.6519775390625
y: 367.45245361328125
z: 0.062377333641052246
visibility: 0.9996560215950012
","x: 195.8345947265625
y: 363.511962890625
z: -0.06245526671409607
visibility: 0.9997702836990356
","x: 212.77203369140625
y: 452.6160888671875
z: 0.06157271936535835
visibility: 0.9662145972251892
","x: 203.36997985839844
y: 450.1648254394531
z: -0.14653044939041138
visibility: 0.9926267266273499
","x: 210.08644104003906
y: 534.0804443359375
z: 0.1757943332195282
visibility: 0.9829302430152893
","x: 201.2955780029297
y: 531.9190673828125
z: -0.08555654436349869
visibility: 0.9935731887817383
","x: 205.80258178710938
y: 547.0947875976562
z: 0.1827905923128128
visibility: 0.9637697339057922
","x: 197.71385192871094
y: 546.5661010742188
z: -0.08717896044254303
visibility: 0.936260461807251
","x: 227.84774780273438
y: 552.76806640625
z: 0.08484561741352081
visibility: 0.9849286079406738
","x: 214.82423400878906
y: 554.1363525390625
z: -0.22314581274986267
visibility: 0.9906952977180481
",,,,,,,,,,,,,,,,,,,,,,,,,,,,,,,,,,,,,,,,,,
3,"x: 216.4102020263672
y: 218.1619415283203
z: -0.2961965799331665
visibility: 0.9999825954437256
","x: 218.28277587890625
y: 211.09312438964844
z: -0.2749450206756592
visibility: 0.9999491572380066
","x: 219.19754028320312
y: 211.08425903320312
z: -0.2749900221824646
visibility: 0.9999346733093262
","x: 220.08901977539062
y: 211.14407348632812
z: -0.2750069499015808
visibility: 0.9999210834503174
","x: 214.64271545410156
y: 210.10064697265625
z: -0.28517448902130127
visibility: 0.9999601244926453
","x: 212.9639892578125
y: 209.32525634765625
z: -0.28521305322647095
visibility: 0.9999553561210632
","x: 211.20372009277344
y: 208.50186157226562
z: -0.2852337956428528
visibility: 0.999950647354126
","x: 219.39044189453125
y: 212.92013549804688
z: -0.12837859988212585
visibility: 0.9997251629829407
","x: 207.04454040527344
y: 208.81463623046875
z: -0.17368099093437195
visibility: 0.9999532699584961
","x: 216.8695831298828
y: 224.14697265625
z: -0.23816390335559845
visibility: 0.9999514222145081
","x: 212.47430419921875
y: 223.42674255371094
z: -0.25234130024909973
visibility: 0.99997878074646
","x: 228.0042724609375
y: 253.10128784179688
z: 0.010671168565750122
visibility: 0.9999471306800842
","x: 189.19117736816406
y: 248.33792114257812
z: -0.11433462798595428
visibility: 0.9999861717224121
","x: 232.54344177246094
y: 309.21929931640625
z: 0.06724517047405243
visibility: 0.8940470218658447
","x: 178.06106567382812
y: 306.3980712890625
z: -0.168008953332901
visibility: 0.9916225671768188
","x: 241.10769653320312
y: 345.1520080566406
z: -0.05987923592329025
visibility: 0.9530574679374695
","x: 175.8265380859375
y: 333.03460693359375
z: -0.3690433204174042
visibility: 0.9876237511634827
","x: 246.08013916015625
y: 357.3248596191406
z: -0.08576123416423798
visibility: 0.9240998029708862
","x: 174.63955688476562
y: 343.39910888671875
z: -0.41682642698287964
visibility: 0.9772595167160034
","x: 246.26214599609375
y: 356.2133483886719
z: -0.1289898306131363
visibility: 0.9322612881660461
","x: 176.5703887939453
y: 341.4273376464844
z: -0.44121861457824707
visibility: 0.9774965047836304
","x: 243.8983154296875
y: 351.5315246582031
z: -0.07949981093406677
visibility: 0.9206065535545349
","x: 178.02598571777344
y: 337.48138427734375
z: -0.38220271468162537
visibility: 0.9667421579360962
","x: 217.2689208984375
y: 367.49456787109375
z: 0.05814661458134651
visibility: 0.9996458888053894
","x: 197.3583526611328
y: 364.0312194824219
z: -0.0582018718123436
visibility: 0.9997676610946655
","x: 213.43382263183594
y: 454.3909912109375
z: 0.09972454607486725
visibility: 0.9629698991775513
","x: 200.02125549316406
y: 454.9478454589844
z: -0.08286841213703156
visibility: 0.9922149181365967
","x: 210.04910278320312
y: 534.2649536132812
z: 0.22584016621112823
visibility: 0.9803261160850525
","x: 204.02032470703125
y: 536.2691040039062
z: 0.02250208519399166
visibility: 0.9930917024612427
","x: 205.7079620361328
y: 546.94677734375
z: 0.23139841854572296
visibility: 0.9595785737037659
","x: 202.09820556640625
y: 551.6319580078125
z: 0.024495922029018402
visibility: 0.9333282709121704
","x: 226.33753967285156
y: 553.9598388671875
z: 0.12776623666286469
visibility: 0.9832484126091003
","x: 214.65245056152344
y: 557.859130859375
z: -0.10834121704101562
visibility: 0.9901763796806335
",,,,,,,,,,,,,,,,,,,,,,,,,,,,,,,,,,,,,,,,,,
4,"x: 219.12400817871094
y: 216.4124298095703
z: -0.31243687868118286
visibility: 0.9999834299087524
","x: 221.16139221191406
y: 209.20738220214844
z: -0.2941354215145111
visibility: 0.999951958656311
","x: 222.04078674316406
y: 209.28753662109375
z: -0.29415401816368103
visibility: 0.9999381303787231
","x: 222.86587524414062
y: 209.39292907714844
z: -0.294158399105072
visibility: 0.9999253153800964
","x: 217.54649353027344
y: 208.00079345703125
z: -0.3060961961746216
visibility: 0.9999622702598572
","x: 215.91897583007812
y: 207.15963745117188
z: -0.306154727935791
visibility: 0.9999579191207886
","x: 214.20703125
y: 206.30105590820312
z: -0.3061956465244293
visibility: 0.9999536275863647
","x: 222.14385986328125
y: 211.45169067382812
z: -0.15803375840187073
visibility: 0.9997435212135315
","x: 210.00369262695312
y: 206.44227600097656
z: -0.21528451144695282
visibility: 0.9999561309814453
","x: 219.30331420898438
y: 222.4525146484375
z: -0.2580101191997528
visibility: 0.9999542832374573
","x: 215.03079223632812
y: 221.58984375
z: -0.2748384177684784
visibility: 0.9999799728393555
","x: 229.71270751953125
y: 253.0764923095703
z: -0.01589733175933361
visibility: 0.9999460577964783
","x: 190.26283264160156
y: 247.15533447265625
z: -0.16443997621536255
visibility: 0.9999862313270569
","x: 234.82809448242188
y: 311.7583923339844
z: 0.0625654086470604
visibility: 0.8959172964096069
","x: 180.06787109375
y: 304.18670654296875
z: -0.24379539489746094
visibility: 0.9920727014541626
","x: 246.87149047851562
y: 348.9397888183594
z: -0.05538765341043472
visibility: 0.9554561376571655
","x: 189.80984497070312
y: 317.8290100097656
z: -0.44652190804481506
visibility: 0.9885994791984558
","x: 251.8998565673828
y: 358.3826904296875
z: -0.07814459502696991
visibility: 0.9278735518455505
","x: 191.77163696289062
y: 321.91766357421875
z: -0.4950261116027832
visibility: 0.9790477752685547
","x: 253.17584228515625
y: 356.69256591796875
z: -0.11843191087245941
visibility: 0.9356098771095276
","x: 193.23683166503906
y: 315.7348327636719
z: -0.5096160769462585
visibility: 0.9792712330818176
","x: 251.04803466796875
y: 352.83758544921875
z: -0.07403682917356491
visibility: 0.9243437647819519
","x: 193.163818359375
y: 313.71832275390625
z: -0.4548299312591553
visibility: 0.9692304730415344
","x: 217.91419982910156
y: 367.8283386230469
z: 0.05591797083616257
visibility: 0.9996150135993958
","x: 197.21234130859375
y: 364.10845947265625
z: -0.055967289954423904
visibility: 0.9997490644454956
","x: 214.56210327148438
y: 457.1924133300781
z: 0.08665000647306442
visibility: 0.9583433866500854
","x: 199.83810424804688
y: 457.00518798828125
z: -0.05662098526954651
visibility: 0.9911909103393555
","x: 210.0564422607422
y: 535.0269165039062
z: 0.217813640832901
visibility: 0.9767313003540039
","x: 204.29324340820312
y: 537.8583984375
z: 0.03797789663076401
visibility: 0.9919692277908325
","x: 206.0045166015625
y: 546.8946533203125
z: 0.2241186797618866
visibility: 0.9547755718231201
","x: 202.67367553710938
y: 552.2069702148438
z: 0.04434799402952194
visibility: 0.9283955097198486
","x: 225.79225158691406
y: 556.3639526367188
z: 0.1212841272354126
visibility: 0.9808055758476257
","x: 214.21954345703125
y: 560.8375854492188
z: -0.07172485440969467
visibility: 0.9887743592262268
",,,,,,,,,,,,,,,,,,,,,,,,,,,,,,,,,,,,,,,,,,
5,"x: 220.70701599121094
y: 216.247314453125
z: -0.29437246918678284
visibility: 0.9999836683273315
","x: 222.64193725585938
y: 208.59571838378906
z: -0.27578234672546387
visibility: 0.9999533891677856
","x: 223.53868103027344
y: 208.6654052734375
z: -0.27580130100250244
visibility: 0.9999397397041321
","x: 224.38217163085938
y: 208.76437377929688
z: -0.27578943967819214
visibility: 0.9999271631240845
","x: 219.1217041015625
y: 207.1846923828125
z: -0.287834107875824
visibility: 0.9999633431434631
","x: 217.48126220703125
y: 206.13778686523438
z: -0.28787827491760254
visibility: 0.9999593496322632
","x: 215.70492553710938
y: 204.9759063720703
z: -0.28792065382003784
visibility: 0.9999554753303528
","x: 223.50668334960938
y: 210.69471740722656
z: -0.14255550503730774
visibility: 0.9997570514678955
","x: 211.0863037109375
y: 204.40284729003906
z: -0.2021021544933319
visibility: 0.9999581575393677
","x: 220.90550231933594
y: 222.44476318359375
z: -0.2412196844816208
visibility: 0.999956488609314
","x: 217.02923583984375
y: 221.5548858642578
z: -0.2581387460231781
visibility: 0.9999809265136719
","x: 231.4502716064453
y: 253.38555908203125
z: -0.00877651572227478
visibility: 0.9999455809593201
","x: 190.68910217285156
y: 246.48779296875
z: -0.15514549612998962
visibility: 0.9999865889549255
","x: 237.06971740722656
y: 313.04180908203125
z: 0.07940272241830826
visibility: 0.8969530463218689
","x: 178.49774169921875
y: 300.8099365234375
z: -0.23674118518829346
visibility: 0.9926581382751465
","x: 248.352294921875
y: 355.6351318359375
z: -0.02615346387028694
visibility: 0.9570513367652893
","x: 195.28819274902344
y: 308.66522216796875
z: -0.4313415586948395
visibility: 0.9895894527435303
","x: 253.52151489257812
y: 365.94244384765625
z: -0.046035412698984146
visibility: 0.9303613305091858
","x: 200.17959594726562
y: 311.27374267578125
z: -0.47890180349349976
visibility: 0.9808164834976196
","x: 254.1812286376953
y: 363.5228271484375
z: -0.08236049115657806
visibility: 0.9376650452613831
","x: 202.78280639648438
y: 301.77105712890625
z: -0.48811468482017517
visibility: 0.9810093641281128
","x: 251.95809936523438
y: 360.1453857421875
z: -0.042898476123809814
visibility: 0.9266979694366455
","x: 201.3965606689453
y: 300.36407470703125
z: -0.4370008111000061
visibility: 0.9716935753822327
","x: 218.22303771972656
y: 370.00201416015625
z: 0.05732272192835808
visibility: 0.9995951652526855
","x: 197.2401580810547
y: 366.6053466796875
z: -0.05742012336850166
visibility: 0.9997329711914062
","x: 216.73953247070312
y: 460.3752136230469
z: 0.08806736022233963
visibility: 0.94783616065979
","x: 201.83802795410156
y: 457.81329345703125
z: -0.041589222848415375
visibility: 0.989600658416748
","x: 210.01455688476562
y: 534.954833984375
z: 0.24440686404705048
visibility: 0.9681152105331421
","x: 204.57740783691406
y: 539.2723999023438
z: 0.09462568908929825
visibility: 0.9897584319114685
","x: 205.94619750976562
y: 545.6822509765625
z: 0.25388863682746887
visibility: 0.9467100501060486
","x: 202.2099151611328
y: 553.5919189453125
z: 0.10340540111064911
visibility: 0.9220230579376221
","x: 225.7906951904297
y: 556.1170654296875
z: 0.15763230621814728
visibility: 0.9754818677902222
","x: 216.23245239257812
y: 563.2841186523438
z: -0.019849447533488274
visibility: 0.9862644672393799
","x: 197.59487915039062
y: 303.1924743652344
z: 0.0
","x: 200.7436065673828
y: 299.4827880859375
z: 0.0010233797365799546
","x: 204.50198364257812
y: 296.4381103515625
z: -0.0007975950720719993
","x: 207.50765991210938
y: 295.57049560546875
z: -0.003140222979709506
","x: 209.59808349609375
y: 295.5598449707031
z: -0.004970693029463291
","x: 204.91136169433594
y: 291.29248046875
z: -0.0061074006371200085
","x: 210.4608917236328
y: 293.9793395996094
z: -0.009368296712636948
","x: 210.3607177734375
y: 298.0086669921875
z: -0.009373924694955349
","x: 208.98690795898438
y: 299.64178466796875
z: -0.008970080874860287
","x: 203.59877014160156
y: 293.809326171875
z: -0.008930344134569168
","x: 209.7845458984375
y: 299.3237609863281
z: -0.012674600817263126
","x: 209.1132049560547
y: 302.5660400390625
z: -0.011155001819133759
","x: 207.48004150390625
y: 302.378173828125
z: -0.00958151277154684
","x: 202.32533264160156
y: 297.63433837890625
z: -0.01145093236118555
","x: 207.86550903320312
y: 303.07733154296875
z: -0.014383765868842602
","x: 207.12547302246094
y: 305.44512939453125
z: -0.011223395355045795
","x: 205.55758666992188
y: 304.8594665527344
z: -0.008740083314478397
","x: 201.12429809570312
y: 301.9939270019531
z: -0.013937457464635372
","x: 205.5300750732422
y: 306.1932678222656
z: -0.015708256512880325
","x: 205.11749267578125
y: 307.54150390625
z: -0.013516056351363659
","x: 203.8032684326172
y: 307.0948486328125
z: -0.011548819951713085
",,,,,,,,,,,,,,,,,,,,,
6,"x: 220.70701599121094
y: 216.247314453125
z: -0.29437246918678284
visibility: 0.9999836683273315
","x: 222.64193725585938
y: 208.59571838378906
z: -0.27578234672546387
visibility: 0.9999533891677856
","x: 223.53868103027344
y: 208.6654052734375
z: -0.27580130100250244
visibility: 0.9999397397041321
","x: 224.38217163085938
y: 208.76437377929688
z: -0.27578943967819214
visibility: 0.9999271631240845
","x: 219.1217041015625
y: 207.1846923828125
z: -0.287834107875824
visibility: 0.9999633431434631
","x: 217.48126220703125
y: 206.13778686523438
z: -0.28787827491760254
visibility: 0.9999593496322632
","x: 215.70492553710938
y: 204.9759063720703
z: -0.28792065382003784
visibility: 0.9999554753303528
","x: 223.50668334960938
y: 210.69471740722656
z: -0.14255550503730774
visibility: 0.9997570514678955
","x: 211.0863037109375
y: 204.40284729003906
z: -0.2021021544933319
visibility: 0.9999581575393677
","x: 220.90550231933594
y: 222.44476318359375
z: -0.2412196844816208
visibility: 0.999956488609314
","x: 217.02923583984375
y: 221.5548858642578
z: -0.2581387460231781
visibility: 0.9999809265136719
","x: 231.4502716064453
y: 253.38555908203125
z: -0.00877651572227478
visibility: 0.9999455809593201
","x: 190.68910217285156
y: 246.48779296875
z: -0.15514549612998962
visibility: 0.9999865889549255
","x: 237.06971740722656
y: 313.04180908203125
z: 0.07940272241830826
visibility: 0.8969530463218689
","x: 178.49774169921875
y: 300.8099365234375
z: -0.23674118518829346
visibility: 0.9926581382751465
","x: 248.352294921875
y: 355.6351318359375
z: -0.02615346387028694
visibility: 0.9570513367652893
","x: 195.28819274902344
y: 308.66522216796875
z: -0.4313415586948395
visibility: 0.9895894527435303
","x: 253.52151489257812
y: 365.94244384765625
z: -0.046035412698984146
visibility: 0.9303613305091858
","x: 200.17959594726562
y: 311.27374267578125
z: -0.47890180349349976
visibility: 0.9808164834976196
","x: 254.1812286376953
y: 363.5228271484375
z: -0.08236049115657806
visibility: 0.9376650452613831
","x: 202.78280639648438
y: 301.77105712890625
z: -0.48811468482017517
visibility: 0.9810093641281128
","x: 251.95809936523438
y: 360.1453857421875
z: -0.042898476123809814
visibility: 0.9266979694366455
","x: 201.3965606689453
y: 300.36407470703125
z: -0.4370008111000061
visibility: 0.9716935753822327
","x: 218.22303771972656
y: 370.00201416015625
z: 0.05732272192835808
visibility: 0.9995951652526855
","x: 197.2401580810547
y: 366.6053466796875
z: -0.05742012336850166
visibility: 0.9997329711914062
","x: 216.73953247070312
y: 460.3752136230469
z: 0.08806736022233963
visibility: 0.94783616065979
","x: 201.83802795410156
y: 457.81329345703125
z: -0.041589222848415375
visibility: 0.989600658416748
","x: 210.01455688476562
y: 534.954833984375
z: 0.24440686404705048
visibility: 0.9681152105331421
","x: 204.57740783691406
y: 539.2723999023438
z: 0.09462568908929825
visibility: 0.9897584319114685
","x: 205.94619750976562
y: 545.6822509765625
z: 0.25388863682746887
visibility: 0.9467100501060486
","x: 202.2099151611328
y: 553.5919189453125
z: 0.10340540111064911
visibility: 0.9220230579376221
","x: 225.7906951904297
y: 556.1170654296875
z: 0.15763230621814728
visibility: 0.9754818677902222
","x: 216.23245239257812
y: 563.2841186523438
z: -0.019849447533488274
visibility: 0.9862644672393799
","x: 197.59487915039062
y: 303.1924743652344
z: 0.0
","x: 200.7436065673828
y: 299.4827880859375
z: 0.0010233797365799546
","x: 204.50198364257812
y: 296.4381103515625
z: -0.0007975950720719993
","x: 207.50765991210938
y: 295.57049560546875
z: -0.003140222979709506
","x: 209.59808349609375
y: 295.5598449707031
z: -0.004970693029463291
","x: 204.91136169433594
y: 291.29248046875
z: -0.0061074006371200085
","x: 210.4608917236328
y: 293.9793395996094
z: -0.009368296712636948
","x: 210.3607177734375
y: 298.0086669921875
z: -0.009373924694955349
","x: 208.98690795898438
y: 299.64178466796875
z: -0.008970080874860287
","x: 203.59877014160156
y: 293.809326171875
z: -0.008930344134569168
","x: 209.7845458984375
y: 299.3237609863281
z: -0.012674600817263126
","x: 209.1132049560547
y: 302.5660400390625
z: -0.011155001819133759
","x: 207.48004150390625
y: 302.378173828125
z: -0.00958151277154684
","x: 202.32533264160156
y: 297.63433837890625
z: -0.01145093236118555
","x: 207.86550903320312
y: 303.07733154296875
z: -0.014383765868842602
","x: 207.12547302246094
y: 305.44512939453125
z: -0.011223395355045795
","x: 205.55758666992188
y: 304.8594665527344
z: -0.008740083314478397
","x: 201.12429809570312
y: 301.9939270019531
z: -0.013937457464635372
","x: 205.5300750732422
y: 306.1932678222656
z: -0.015708256512880325
","x: 205.11749267578125
y: 307.54150390625
z: -0.013516056351363659
","x: 203.8032684326172
y: 307.0948486328125
z: -0.011548819951713085
",,,,,,,,,,,,,,,,,,,,,
7,"x: 221.21592712402344
y: 216.51217651367188
z: -0.2897244095802307
visibility: 0.9999818801879883
","x: 223.0623321533203
y: 208.94384765625
z: -0.2699527144432068
visibility: 0.9999496340751648
","x: 223.9135284423828
y: 208.9858856201172
z: -0.2699700891971588
visibility: 0.999934732913971
","x: 224.73887634277344
y: 209.0115203857422
z: -0.2699589133262634
visibility: 0.9999218583106995
","x: 219.6527862548828
y: 207.47955322265625
z: -0.28325793147087097
visibility: 0.9999607801437378
","x: 218.11972045898438
y: 206.42820739746094
z: -0.2833073139190674
visibility: 0.9999570846557617
","x: 216.42529296875
y: 205.274169921875
z: -0.28336697816848755
visibility: 0.9999537467956543
","x: 223.616943359375
y: 211.11053466796875
z: -0.13658581674098969
visibility: 0.9997441172599792
","x: 211.10902404785156
y: 204.78170776367188
z: -0.1999468356370926
visibility: 0.9999569058418274
","x: 220.9600067138672
y: 222.48190307617188
z: -0.23683622479438782
visibility: 0.9999556541442871
","x: 217.13592529296875
y: 221.7266082763672
z: -0.25533202290534973
visibility: 0.999980628490448
","x: 231.33770751953125
y: 257.9742736816406
z: -0.005941110197454691
visibility: 0.9999380707740784
","x: 191.27085876464844
y: 247.0049285888672
z: -0.16482475399971008
visibility: 0.9999867081642151
","x: 235.3154754638672
y: 322.6054382324219
z: 0.0752338096499443
visibility: 0.8931447267532349
","x: 179.86949157714844
y: 302.7183837890625
z: -0.22025790810585022
visibility: 0.9931654930114746
","x: 244.51348876953125
y: 366.8719482421875
z: -0.038365136831998825
visibility: 0.9548346400260925
","x: 197.36416625976562
y: 322.52587890625
z: -0.38044220209121704
visibility: 0.9903374910354614
","x: 249.6151885986328
y: 381.3598327636719
z: -0.05845439434051514
visibility: 0.927629292011261
","x: 201.68350219726562
y: 332.6200866699219
z: -0.42432156205177307
visibility: 0.9821316599845886
","x: 249.8352813720703
y: 379.92657470703125
z: -0.09115679562091827
visibility: 0.9350081086158752
","x: 205.0865478515625
y: 325.23046875
z: -0.43981266021728516
visibility: 0.9822972416877747
","x: 247.63792419433594
y: 375.220703125
z: -0.05458921194076538
visibility: 0.9237571954727173
","x: 204.3619842529297
y: 322.0347595214844
z: -0.38867074251174927
visibility: 0.9734523296356201
","x: 219.46852111816406
y: 372.3627014160156
z: 0.05917233228683472
visibility: 0.9995676279067993
","x: 197.9658966064453
y: 369.85040283203125
z: -0.05922824144363403
visibility: 0.999724805355072
","x: 218.94398498535156
y: 462.4540710449219
z: 0.08414114266633987
visibility: 0.9444184303283691
","x: 203.44285583496094
y: 460.4588317871094
z: -0.04254573956131935
visibility: 0.9893028736114502
","x: 210.04820251464844
y: 534.9010620117188
z: 0.23484984040260315
visibility: 0.9646225571632385
","x: 204.8599090576172
y: 539.9180908203125
z: 0.09767314046621323
visibility: 0.9894944429397583
","x: 205.84381103515625
y: 545.1070556640625
z: 0.2439311295747757
visibility: 0.9432205557823181
","x: 202.13633728027344
y: 553.9666137695312
z: 0.10532994568347931
visibility: 0.9204515814781189
","x: 225.2057647705078
y: 556.8238525390625
z: 0.14386910200119019
visibility: 0.9732823967933655
","x: 215.21434020996094
y: 564.3743896484375
z: -0.022418029606342316
visibility: 0.9858439564704895
",,,,,,,,,,,,,,,,,,,,,,,,,,,,,,,,,,,,,,,,,,
8,"x: 220.82569885253906
y: 213.56947326660156
z: -0.2888507544994354
visibility: 0.9999818205833435
","x: 222.75291442871094
y: 206.6217803955078
z: -0.2671894133090973
visibility: 0.999949038028717
","x: 223.68731689453125
y: 206.980712890625
z: -0.2672547698020935
visibility: 0.9999338984489441
","x: 224.60899353027344
y: 207.32806396484375
z: -0.2672711908817291
visibility: 0.9999213218688965
","x: 219.07763671875
y: 204.64398193359375
z: -0.27892011404037476
visibility: 0.9999599456787109
","x: 217.46800231933594
y: 203.655517578125
z: -0.2789197862148285
visibility: 0.9999556541442871
","x: 215.69415283203125
y: 202.620849609375
z: -0.2789934277534485
visibility: 0.9999523162841797
","x: 223.9403533935547
y: 209.83578491210938
z: -0.12976890802383423
visibility: 0.9997444748878479
","x: 210.81593322753906
y: 203.1953125
z: -0.18631377816200256
visibility: 0.9999550580978394
","x: 221.05807495117188
y: 219.99864196777344
z: -0.23361143469810486
visibility: 0.9999573826789856
","x: 216.7552490234375
y: 218.83883666992188
z: -0.24936242401599884
visibility: 0.9999812841415405
","x: 231.52740478515625
y: 257.5131530761719
z: -0.0016901338240131736
visibility: 0.9999415278434753
","x: 191.5872344970703
y: 246.3011016845703
z: -0.13376455008983612
visibility: 0.9999871850013733
","x: 234.5550537109375
y: 319.52960205078125
z: 0.06494174897670746
visibility: 0.8967157602310181
","x: 179.7534637451172
y: 307.2789611816406
z: -0.11414319276809692
visibility: 0.9934709072113037
","x: 245.2989044189453
y: 352.77569580078125
z: -0.1026315689086914
visibility: 0.9574095606803894
","x: 189.34825134277344
y: 351.4538879394531
z: -0.2170298993587494
visibility: 0.990722119808197
","x: 249.8457489013672
y: 365.587158203125
z: -0.14005352556705475
visibility: 0.9317960143089294
","x: 192.26083374023438
y: 368.31719970703125
z: -0.25581103563308716
visibility: 0.9827089309692383
","x: 249.55670166015625
y: 362.85235595703125
z: -0.18131881952285767
visibility: 0.9387875199317932
","x: 195.24005126953125
y: 365.2545166015625
z: -0.2830550968647003
visibility: 0.98288893699646
","x: 247.73094177246094
y: 358.5282897949219
z: -0.1239515170454979
visibility: 0.9279525876045227
","x: 195.10166931152344
y: 359.9638366699219
z: -0.22817616164684296
visibility: 0.9743775725364685
","x: 220.11123657226562
y: 372.3287353515625
z: 0.05898035317659378
visibility: 0.9995563626289368
","x: 198.53945922851562
y: 369.9288330078125
z: -0.05909927934408188
visibility: 0.9997163414955139
","x: 220.10220336914062
y: 461.66632080078125
z: 0.058990947902202606
visibility: 0.9447668194770813
","x: 203.76556396484375
y: 461.7312927246094
z: -0.04268111288547516
visibility: 0.989294171333313
","x: 211.171875
y: 532.0235595703125
z: 0.2492227554321289
visibility: 0.9605869054794312
","x: 205.68275451660156
y: 540.083740234375
z: 0.11030616611242294
visibility: 0.9892680048942566
","x: 207.0274658203125
y: 539.8865356445312
z: 0.2629431188106537
visibility: 0.9371275305747986
","x: 202.9017333984375
y: 553.823486328125
z: 0.11886729300022125
visibility: 0.9185603857040405
","x: 225.1427764892578
y: 556.4531860351562
z: 0.16815398633480072
visibility: 0.9703829288482666
","x: 216.11219787597656
y: 565.5543212890625
z: -0.010982530191540718
visibility: 0.9854040741920471
",,,,,,,,,,,,,,,,,,,,,,,,,,,,,,,,,,,,,,,,,,
9,"x: 219.1735076904297
y: 213.8180694580078
z: -0.2910592257976532
visibility: 0.9999799728393555
","x: 221.5483856201172
y: 206.69827270507812
z: -0.27353963255882263
visibility: 0.9999420642852783
","x: 222.63198852539062
y: 207.07186889648438
z: -0.2736089825630188
visibility: 0.9999254941940308
","x: 223.66941833496094
y: 207.39401245117188
z: -0.27364304661750793
visibility: 0.999911367893219
","x: 217.8106689453125
y: 204.9197235107422
z: -0.28118208050727844
visibility: 0.9999533295631409
","x: 216.2415771484375
y: 204.1133270263672
z: -0.2811741828918457
visibility: 0.9999457597732544
","x: 214.5175323486328
y: 203.27317810058594
z: -0.2812381684780121
visibility: 0.9999420642852783
","x: 223.89480590820312
y: 209.8769989013672
z: -0.14149916172027588
visibility: 0.9997273683547974
","x: 210.1646728515625
y: 203.54229736328125
z: -0.17986807227134705
visibility: 0.999945878982544
","x: 219.87208557128906
y: 220.38259887695312
z: -0.23767006397247314
visibility: 0.9999552965164185
","x: 215.6542510986328
y: 219.2737579345703
z: -0.24870292842388153
visibility: 0.9999794363975525
","x: 232.0155487060547
y: 257.857177734375
z: -0.019923999905586243
visibility: 0.9999433755874634
","x: 192.39454650878906
y: 244.7957000732422
z: -0.10576067864894867
visibility: 0.9999876618385315
","x: 232.49476623535156
y: 319.0712585449219
z: -0.003968832083046436
visibility: 0.8936307430267334
","x: 180.24380493164062
y: 307.5844421386719
z: -0.07860339432954788
visibility: 0.9934472441673279
","x: 247.8889617919922
y: 333.10772705078125
z: -0.2174098789691925
visibility: 0.9587576985359192
","x: 180.35580444335938
y: 358.6743469238281
z: -0.17795291543006897
visibility: 0.9907561540603638
","x: 253.60768127441406
y: 335.1049499511719
z: -0.2591359615325928
visibility: 0.9348106980323792
","x: 175.17135620117188
y: 375.97796630859375
z: -0.20872676372528076
visibility: 0.982573926448822
","x: 254.3393096923828
y: 330.3953857421875
z: -0.2968907952308655
visibility: 0.9416322112083435
","x: 177.59133911132812
y: 376.135986328125
z: -0.24183818697929382
visibility: 0.9828610420227051
","x: 252.0632781982422
y: 329.3808288574219
z: -0.23864701390266418
visibility: 0.9308709502220154
","x: 179.78982543945312
y: 370.4957580566406
z: -0.19216541945934296
visibility: 0.9747234582901001
","x: 221.39651489257812
y: 372.1923522949219
z: 0.043797507882118225
visibility: 0.9995027780532837
","x: 199.32945251464844
y: 369.50823974609375
z: -0.04378484934568405
visibility: 0.999688446521759
","x: 219.33837890625
y: 461.43304443359375
z: 0.012968525290489197
visibility: 0.9457901120185852
","x: 201.0784912109375
y: 461.2998046875
z: -0.04257659986615181
visibility: 0.9890496730804443
","x: 211.63241577148438
y: 532.20263671875
z: 0.20221035182476044
visibility: 0.9579645991325378
","x: 205.42945861816406
y: 539.5989990234375
z: 0.10979020595550537
visibility: 0.9886137843132019
","x: 207.5445098876953
y: 540.3746337890625
z: 0.21696558594703674
visibility: 0.9305914640426636
","x: 203.36346435546875
y: 553.2274169921875
z: 0.11763745546340942
visibility: 0.9147300720214844
","x: 224.65713500976562
y: 556.4314575195312
z: 0.11590125411748886
visibility: 0.9677236080169678
","x: 213.57009887695312
y: 564.701416015625
z: -0.011031762696802616
visibility: 0.9843831658363342
",,,,,,,,,,,,,,,,,,,,,,"x: 247.65576171875
y: 332.25994873046875
z: 0.0
","x: 250.15011596679688
y: 334.9945068359375
z: -0.0019460616167634726
","x: 252.75535583496094
y: 335.55804443359375
z: -0.004244714044034481
","x: 253.69216918945312
y: 333.31060791015625
z: -0.007249755784869194
","x: 253.5762176513672
y: 329.809326171875
z: -0.009912335313856602
","x: 256.8663330078125
y: 325.34649658203125
z: -0.0012740119127556682
","x: 258.50244140625
y: 324.1064453125
z: -0.00518652331084013
","x: 257.3572998046875
y: 327.03619384765625
z: -0.007284361869096756
","x: 255.82537841796875
y: 329.0955810546875
z: -0.00815650261938572
","x: 255.47816467285156
y: 322.50006103515625
z: -0.0028759257402271032
","x: 257.0331115722656
y: 321.53228759765625
z: -0.006970330607146025
","x: 255.393310546875
y: 325.3682861328125
z: -0.00805432628840208
","x: 253.77743530273438
y: 327.8112487792969
z: -0.008023879490792751
","x: 253.51870727539062
y: 320.2186279296875
z: -0.005148373544216156
","x: 254.98892211914062
y: 319.53271484375
z: -0.008882778696715832
","x: 253.68072509765625
y: 324.0000915527344
z: -0.008423281833529472
","x: 252.32872009277344
y: 327.31976318359375
z: -0.007382587064057589
","x: 251.08938598632812
y: 318.6575012207031
z: -0.007883450016379356
","x: 252.5242919921875
y: 318.4447021484375
z: -0.010342533700168133
","x: 252.0663299560547
y: 322.46331787109375
z: -0.009861396625638008
","x: 251.29335021972656
y: 326.0247802734375
z: -0.008862712420523167
"
10,"x: 219.1735076904297
y: 213.8180694580078
z: -0.2910592257976532
visibility: 0.9999799728393555
","x: 221.5483856201172
y: 206.69827270507812
z: -0.27353963255882263
visibility: 0.9999420642852783
","x: 222.63198852539062
y: 207.07186889648438
z: -0.2736089825630188
visibility: 0.9999254941940308
","x: 223.66941833496094
y: 207.39401245117188
z: -0.27364304661750793
visibility: 0.999911367893219
","x: 217.8106689453125
y: 204.9197235107422
z: -0.28118208050727844
visibility: 0.9999533295631409
","x: 216.2415771484375
y: 204.1133270263672
z: -0.2811741828918457
visibility: 0.9999457597732544
","x: 214.5175323486328
y: 203.27317810058594
z: -0.2812381684780121
visibility: 0.9999420642852783
","x: 223.89480590820312
y: 209.8769989013672
z: -0.14149916172027588
visibility: 0.9997273683547974
","x: 210.1646728515625
y: 203.54229736328125
z: -0.17986807227134705
visibility: 0.999945878982544
","x: 219.87208557128906
y: 220.38259887695312
z: -0.23767006397247314
visibility: 0.9999552965164185
","x: 215.6542510986328
y: 219.2737579345703
z: -0.24870292842388153
visibility: 0.9999794363975525
","x: 232.0155487060547
y: 257.857177734375
z: -0.019923999905586243
visibility: 0.9999433755874634
","x: 192.39454650878906
y: 244.7957000732422
z: -0.10576067864894867
visibility: 0.9999876618385315
","x: 232.49476623535156
y: 319.0712585449219
z: -0.003968832083046436
visibility: 0.8936307430267334
","x: 180.24380493164062
y: 307.5844421386719
z: -0.07860339432954788
visibility: 0.9934472441673279
","x: 247.8889617919922
y: 333.10772705078125
z: -0.2174098789691925
visibility: 0.9587576985359192
","x: 180.35580444335938
y: 358.6743469238281
z: -0.17795291543006897
visibility: 0.9907561540603638
","x: 253.60768127441406
y: 335.1049499511719
z: -0.2591359615325928
visibility: 0.9348106980323792
","x: 175.17135620117188
y: 375.97796630859375
z: -0.20872676372528076
visibility: 0.982573926448822
","x: 254.3393096923828
y: 330.3953857421875
z: -0.2968907952308655
visibility: 0.9416322112083435
","x: 177.59133911132812
y: 376.135986328125
z: -0.24183818697929382
visibility: 0.9828610420227051
","x: 252.0632781982422
y: 329.3808288574219
z: -0.23864701390266418
visibility: 0.9308709502220154
","x: 179.78982543945312
y: 370.4957580566406
z: -0.19216541945934296
visibility: 0.9747234582901001
","x: 221.39651489257812
y: 372.1923522949219
z: 0.043797507882118225
visibility: 0.9995027780532837
","x: 199.32945251464844
y: 369.50823974609375
z: -0.04378484934568405
visibility: 0.999688446521759
","x: 219.33837890625
y: 461.43304443359375
z: 0.012968525290489197
visibility: 0.9457901120185852
","x: 201.0784912109375
y: 461.2998046875
z: -0.04257659986615181
visibility: 0.9890496730804443
","x: 211.63241577148438
y: 532.20263671875
z: 0.20221035182476044
visibility: 0.9579645991325378
","x: 205.42945861816406
y: 539.5989990234375
z: 0.10979020595550537
visibility: 0.9886137843132019
","x: 207.5445098876953
y: 540.3746337890625
z: 0.21696558594703674
visibility: 0.9305914640426636
","x: 203.36346435546875
y: 553.2274169921875
z: 0.11763745546340942
visibility: 0.9147300720214844
","x: 224.65713500976562
y: 556.4314575195312
z: 0.11590125411748886
visibility: 0.9677236080169678
","x: 213.57009887695312
y: 564.701416015625
z: -0.011031762696802616
visibility: 0.9843831658363342
",,,,,,,,,,,,,,,,,,,,,,"x: 247.65576171875
y: 332.25994873046875
z: 0.0
","x: 250.15011596679688
y: 334.9945068359375
z: -0.0019460616167634726
","x: 252.75535583496094
y: 335.55804443359375
z: -0.004244714044034481
","x: 253.69216918945312
y: 333.31060791015625
z: -0.007249755784869194
","x: 253.5762176513672
y: 329.809326171875
z: -0.009912335313856602
","x: 256.8663330078125
y: 325.34649658203125
z: -0.0012740119127556682
","x: 258.50244140625
y: 324.1064453125
z: -0.00518652331084013
","x: 257.3572998046875
y: 327.03619384765625
z: -0.007284361869096756
","x: 255.82537841796875
y: 329.0955810546875
z: -0.00815650261938572
","x: 255.47816467285156
y: 322.50006103515625
z: -0.0028759257402271032
","x: 257.0331115722656
y: 321.53228759765625
z: -0.006970330607146025
","x: 255.393310546875
y: 325.3682861328125
z: -0.00805432628840208
","x: 253.77743530273438
y: 327.8112487792969
z: -0.008023879490792751
","x: 253.51870727539062
y: 320.2186279296875
z: -0.005148373544216156
","x: 254.98892211914062
y: 319.53271484375
z: -0.008882778696715832
","x: 253.68072509765625
y: 324.0000915527344
z: -0.008423281833529472
","x: 252.32872009277344
y: 327.31976318359375
z: -0.007382587064057589
","x: 251.08938598632812
y: 318.6575012207031
z: -0.007883450016379356
","x: 252.5242919921875
y: 318.4447021484375
z: -0.010342533700168133
","x: 252.0663299560547
y: 322.46331787109375
z: -0.009861396625638008
","x: 251.29335021972656
y: 326.0247802734375
z: -0.008862712420523167
"
11,"x: 220.7101593017578
y: 215.32101440429688
z: -0.2505013644695282
visibility: 0.9999801516532898
","x: 222.54437255859375
y: 207.89476013183594
z: -0.23122651875019073
visibility: 0.9999426603317261
","x: 223.43389892578125
y: 208.1522979736328
z: -0.23129694163799286
visibility: 0.9999268651008606
","x: 224.2654266357422
y: 208.39720153808594
z: -0.23131167888641357
visibility: 0.9999136924743652
","x: 219.23666381835938
y: 206.495361328125
z: -0.24224278330802917
visibility: 0.9999527335166931
","x: 217.72799682617188
y: 205.7843780517578
z: -0.24222905933856964
visibility: 0.999944269657135
","x: 216.011962890625
y: 205.00540161132812
z: -0.24228088557720184
visibility: 0.9999400973320007
","x: 223.69915771484375
y: 210.5675048828125
z: -0.09703782945871353
visibility: 0.999731719493866
","x: 211.076171875
y: 204.92349243164062
z: -0.1490989625453949
visibility: 0.9999435544013977
","x: 220.97474670410156
y: 221.96224975585938
z: -0.19725260138511658
visibility: 0.9999560117721558
","x: 217.38075256347656
y: 220.97039794921875
z: -0.21206119656562805
visibility: 0.9999791979789734
","x: 231.511962890625
y: 258.50628662109375
z: 0.019875267520546913
visibility: 0.9999470710754395
","x: 193.30889892578125
y: 243.94451904296875
z: -0.08754267543554306
visibility: 0.9999880790710449
","x: 231.1635284423828
y: 318.8965148925781
z: 0.021303392946720123
visibility: 0.8914399743080139
","x: 180.15841674804688
y: 307.44854736328125
z: -0.0643446296453476
visibility: 0.9935986399650574
","x: 247.48655700683594
y: 327.4779052734375
z: -0.19939100742340088
visibility: 0.9614126086235046
","x: 174.65817260742188
y: 358.0842590332031
z: -0.15460483729839325
visibility: 0.991140604019165
","x: 253.1900634765625
y: 327.1185302734375
z: -0.24220065772533417
visibility: 0.9393243789672852
","x: 169.52023315429688
y: 373.2769470214844
z: -0.1849103718996048
visibility: 0.9831305146217346
","x: 253.9744415283203
y: 322.24334716796875
z: -0.27920109033584595
visibility: 0.9457695484161377
","x: 171.34793090820312
y: 373.13165283203125
z: -0.2172839641571045
visibility: 0.9834622740745544
","x: 251.8342742919922
y: 322.10015869140625
z: -0.22095473110675812
visibility: 0.9354320764541626
","x: 173.46778869628906
y: 368.367431640625
z: -0.16826656460762024
visibility: 0.9757599234580994
","x: 221.7638397216797
y: 370.0661926269531
z: 0.05125198885798454
visibility: 0.9994698166847229
","x: 201.20791625976562
y: 367.376953125
z: -0.05123179033398628
visibility: 0.999663770198822
","x: 218.67449951171875
y: 458.4622802734375
z: 0.03424035757780075
visibility: 0.9441995620727539
","x: 203.16729736328125
y: 457.95166015625
z: -0.0674993023276329
visibility: 0.9888232350349426
","x: 211.53204345703125
y: 532.256591796875
z: 0.18240000307559967
visibility: 0.9570187926292419
","x: 204.95379638671875
y: 539.2698974609375
z: 0.05985916405916214
visibility: 0.9883929491043091
","x: 207.35421752929688
y: 540.654052734375
z: 0.19066005945205688
visibility: 0.9292802810668945
","x: 202.5665283203125
y: 553.35546875
z: 0.06431825459003448
visibility: 0.9136170744895935
","x: 224.65269470214844
y: 556.3146362304688
z: 0.0885578840970993
visibility: 0.9669402241706848
","x: 215.72543334960938
y: 564.1688232421875
z: -0.06755710393190384
visibility: 0.9840708374977112
","x: 171.96832275390625
y: 361.02783203125
z: 0.0
","x: 175.1454315185547
y: 365.8435363769531
z: -0.00039788431604392827
","x: 176.22628784179688
y: 372.2536926269531
z: -0.0013280216371640563
","x: 175.69943237304688
y: 376.96630859375
z: -0.002545712748542428
","x: 174.49598693847656
y: 380.12542724609375
z: -0.00329777505248785
","x: 172.3759765625
y: 379.512451171875
z: -0.0023847371339797974
","x: 170.13650512695312
y: 388.7823486328125
z: -0.003696282859891653
","x: 170.5723114013672
y: 387.82965087890625
z: -0.0028483537025749683
","x: 171.25100708007812
y: 384.87060546875
z: -0.001796975964680314
","x: 169.6763916015625
y: 378.17083740234375
z: -0.0032229386270046234
","x: 167.4427490234375
y: 387.00372314453125
z: -0.0040001533925533295
","x: 168.02725219726562
y: 385.8845520019531
z: -0.0024263239465653896
","x: 168.67849731445312
y: 382.98236083984375
z: -0.0009275667835026979
","x: 167.40231323242188
y: 375.4842529296875
z: -0.0041478946805000305
","x: 165.40721130371094
y: 383.016845703125
z: -0.0051812161691486835
","x: 166.0804901123047
y: 382.199462890625
z: -0.0037652088794857264
","x: 166.73239135742188
y: 379.7770690917969
z: -0.002420555567368865
","x: 165.53683471679688
y: 372.0794982910156
z: -0.005219828803092241
","x: 164.0283203125
y: 377.2835998535156
z: -0.00617721164599061
","x: 164.61087036132812
y: 376.69659423828125
z: -0.005452664103358984
","x: 165.23287963867188
y: 374.54632568359375
z: -0.004404520150274038
",,,,,,,,,,,,,,,,,,,,,
12,"x: 220.7101593017578
y: 215.32101440429688
z: -0.2505013644695282
visibility: 0.9999801516532898
","x: 222.54437255859375
y: 207.89476013183594
z: -0.23122651875019073
visibility: 0.9999426603317261
","x: 223.43389892578125
y: 208.1522979736328
z: -0.23129694163799286
visibility: 0.9999268651008606
","x: 224.2654266357422
y: 208.39720153808594
z: -0.23131167888641357
visibility: 0.9999136924743652
","x: 219.23666381835938
y: 206.495361328125
z: -0.24224278330802917
visibility: 0.9999527335166931
","x: 217.72799682617188
y: 205.7843780517578
z: -0.24222905933856964
visibility: 0.999944269657135
","x: 216.011962890625
y: 205.00540161132812
z: -0.24228088557720184
visibility: 0.9999400973320007
","x: 223.69915771484375
y: 210.5675048828125
z: -0.09703782945871353
visibility: 0.999731719493866
","x: 211.076171875
y: 204.92349243164062
z: -0.1490989625453949
visibility: 0.9999435544013977
","x: 220.97474670410156
y: 221.96224975585938
z: -0.19725260138511658
visibility: 0.9999560117721558
","x: 217.38075256347656
y: 220.97039794921875
z: -0.21206119656562805
visibility: 0.9999791979789734
","x: 231.511962890625
y: 258.50628662109375
z: 0.019875267520546913
visibility: 0.9999470710754395
","x: 193.30889892578125
y: 243.94451904296875
z: -0.08754267543554306
visibility: 0.9999880790710449
","x: 231.1635284423828
y: 318.8965148925781
z: 0.021303392946720123
visibility: 0.8914399743080139
","x: 180.15841674804688
y: 307.44854736328125
z: -0.0643446296453476
visibility: 0.9935986399650574
","x: 247.48655700683594
y: 327.4779052734375
z: -0.19939100742340088
visibility: 0.9614126086235046
","x: 174.65817260742188
y: 358.0842590332031
z: -0.15460483729839325
visibility: 0.991140604019165
","x: 253.1900634765625
y: 327.1185302734375
z: -0.24220065772533417
visibility: 0.9393243789672852
","x: 169.52023315429688
y: 373.2769470214844
z: -0.1849103718996048
visibility: 0.9831305146217346
","x: 253.9744415283203
y: 322.24334716796875
z: -0.27920109033584595
visibility: 0.9457695484161377
","x: 171.34793090820312
y: 373.13165283203125
z: -0.2172839641571045
visibility: 0.9834622740745544
","x: 251.8342742919922
y: 322.10015869140625
z: -0.22095473110675812
visibility: 0.9354320764541626
","x: 173.46778869628906
y: 368.367431640625
z: -0.16826656460762024
visibility: 0.9757599234580994
","x: 221.7638397216797
y: 370.0661926269531
z: 0.05125198885798454
visibility: 0.9994698166847229
","x: 201.20791625976562
y: 367.376953125
z: -0.05123179033398628
visibility: 0.999663770198822
","x: 218.67449951171875
y: 458.4622802734375
z: 0.03424035757780075
visibility: 0.9441995620727539
","x: 203.16729736328125
y: 457.95166015625
z: -0.0674993023276329
visibility: 0.9888232350349426
","x: 211.53204345703125
y: 532.256591796875
z: 0.18240000307559967
visibility: 0.9570187926292419
","x: 204.95379638671875
y: 539.2698974609375
z: 0.05985916405916214
visibility: 0.9883929491043091
","x: 207.35421752929688
y: 540.654052734375
z: 0.19066005945205688
visibility: 0.9292802810668945
","x: 202.5665283203125
y: 553.35546875
z: 0.06431825459003448
visibility: 0.9136170744895935
","x: 224.65269470214844
y: 556.3146362304688
z: 0.0885578840970993
visibility: 0.9669402241706848
","x: 215.72543334960938
y: 564.1688232421875
z: -0.06755710393190384
visibility: 0.9840708374977112
","x: 171.96832275390625
y: 361.02783203125
z: 0.0
","x: 175.1454315185547
y: 365.8435363769531
z: -0.00039788431604392827
","x: 176.22628784179688
y: 372.2536926269531
z: -0.0013280216371640563
","x: 175.69943237304688
y: 376.96630859375
z: -0.002545712748542428
","x: 174.49598693847656
y: 380.12542724609375
z: -0.00329777505248785
","x: 172.3759765625
y: 379.512451171875
z: -0.0023847371339797974
","x: 170.13650512695312
y: 388.7823486328125
z: -0.003696282859891653
","x: 170.5723114013672
y: 387.82965087890625
z: -0.0028483537025749683
","x: 171.25100708007812
y: 384.87060546875
z: -0.001796975964680314
","x: 169.6763916015625
y: 378.17083740234375
z: -0.0032229386270046234
","x: 167.4427490234375
y: 387.00372314453125
z: -0.0040001533925533295
","x: 168.02725219726562
y: 385.8845520019531
z: -0.0024263239465653896
","x: 168.67849731445312
y: 382.98236083984375
z: -0.0009275667835026979
","x: 167.40231323242188
y: 375.4842529296875
z: -0.0041478946805000305
","x: 165.40721130371094
y: 383.016845703125
z: -0.0051812161691486835
","x: 166.0804901123047
y: 382.199462890625
z: -0.0037652088794857264
","x: 166.73239135742188
y: 379.7770690917969
z: -0.002420555567368865
","x: 165.53683471679688
y: 372.0794982910156
z: -0.005219828803092241
","x: 164.0283203125
y: 377.2835998535156
z: -0.00617721164599061
","x: 164.61087036132812
y: 376.69659423828125
z: -0.005452664103358984
","x: 165.23287963867188
y: 374.54632568359375
z: -0.004404520150274038
",,,,,,,,,,,,,,,,,,,,,
13,"x: 220.8610382080078
y: 218.83840942382812
z: -0.254194051027298
visibility: 0.999975323677063
","x: 222.35462951660156
y: 212.06536865234375
z: -0.2371867448091507
visibility: 0.9999260306358337
","x: 223.18482971191406
y: 212.09169006347656
z: -0.23724107444286346
visibility: 0.9999095797538757
","x: 223.9954833984375
y: 212.15760803222656
z: -0.2372513711452484
visibility: 0.9998964071273804
","x: 219.24513244628906
y: 211.3182830810547
z: -0.2501794397830963
visibility: 0.9999393224716187
","x: 217.86602783203125
y: 210.82672119140625
z: -0.25019243359565735
visibility: 0.9999291300773621
","x: 216.30657958984375
y: 210.2743682861328
z: -0.2502565383911133
visibility: 0.9999237060546875
","x: 223.62648010253906
y: 213.3293914794922
z: -0.10702522099018097
visibility: 0.9996712803840637
","x: 211.73916625976562
y: 210.06715393066406
z: -0.16032817959785461
visibility: 0.9999253749847412
","x: 221.2586669921875
y: 224.8521270751953
z: -0.20241597294807434
visibility: 0.9999478459358215
","x: 217.7216033935547
y: 224.2664337158203
z: -0.21996112167835236
visibility: 0.9999740123748779
","x: 230.86395263671875
y: 260.03375244140625
z: 0.015385063365101814
visibility: 0.9999487996101379
","x: 193.7731170654297
y: 244.15565490722656
z: -0.11722107976675034
visibility: 0.9999887943267822
","x: 231.36566162109375
y: 316.6370849609375
z: 0.03193968906998634
visibility: 0.8885880708694458
","x: 180.14381408691406
y: 307.3684387207031
z: -0.1025627851486206
visibility: 0.9939106702804565
","x: 246.2608642578125
y: 334.6585388183594
z: -0.16002421081066132
visibility: 0.9615570306777954
","x: 173.56201171875
y: 360.5234069824219
z: -0.18694211542606354
visibility: 0.9915202856063843
","x: 251.3889923095703
y: 338.8662109375
z: -0.19618894159793854
visibility: 0.9403985738754272
","x: 169.26425170898438
y: 376.18536376953125
z: -0.2201768457889557
visibility: 0.9836696982383728
","x: 251.86968994140625
y: 335.6336669921875
z: -0.23708006739616394
visibility: 0.9468995332717896
","x: 171.5109100341797
y: 376.8254089355469
z: -0.24956431984901428
visibility: 0.9840162992477417
","x: 250.0160675048828
y: 334.2989501953125
z: -0.18240445852279663
visibility: 0.9365992546081543
","x: 173.38037109375
y: 372.4347229003906
z: -0.19930751621723175
visibility: 0.9765998721122742
","x: 221.4203338623047
y: 368.218994140625
z: 0.06369288265705109
visibility: 0.9994045495986938
","x: 201.3438262939453
y: 365.5252685546875
z: -0.06367390602827072
visibility: 0.999652087688446
","x: 218.70826721191406
y: 452.8990478515625
z: 0.04162147641181946
visibility: 0.932952344417572
","x: 206.4433135986328
y: 454.51287841796875
z: -0.10601403564214706
visibility: 0.9881435036659241
","x: 211.45863342285156
y: 530.4619750976562
z: 0.18418669700622559
visibility: 0.9488185048103333
","x: 205.90997314453125
y: 538.9931030273438
z: -0.006471388973295689
visibility: 0.9879078269004822
","x: 207.23446655273438
y: 539.5406494140625
z: 0.19096694886684418
visibility: 0.9219557642936707
","x: 202.95306396484375
y: 554.0620727539062
z: -0.004876692779362202
visibility: 0.9137082099914551
","x: 225.31004333496094
y: 554.1234741210938
z: 0.09297266602516174
visibility: 0.9621433019638062
","x: 219.119384765625
y: 563.96630859375
z: -0.1401773989200592
visibility: 0.9835464358329773
",,,,,,,,,,,,,,,,,,,,,,,,,,,,,,,,,,,,,,,,,,
14,"x: 221.22189331054688
y: 225.02651977539062
z: -0.2589742839336395
visibility: 0.9999727606773376
","x: 222.25624084472656
y: 218.0564727783203
z: -0.24157314002513885
visibility: 0.999915599822998
","x: 222.9637908935547
y: 218.0433349609375
z: -0.2416244000196457
visibility: 0.9998992681503296
","x: 223.64901733398438
y: 218.0302276611328
z: -0.2416328638792038
visibility: 0.9998870491981506
","x: 219.3607177734375
y: 217.14996337890625
z: -0.25218871235847473
visibility: 0.9999307990074158
","x: 217.9720916748047
y: 216.47463989257812
z: -0.2522607445716858
visibility: 0.9999213814735413
","x: 216.44664001464844
y: 215.69155883789062
z: -0.2523666024208069
visibility: 0.9999147653579712
","x: 222.67776489257812
y: 218.45751953125
z: -0.11908213794231415
visibility: 0.9996382594108582
","x: 211.55776977539062
y: 215.26263427734375
z: -0.2017870843410492
visibility: 0.9999116063117981
","x: 221.06857299804688
y: 230.8195343017578
z: -0.20689240097999573
visibility: 0.9999436140060425
","x: 217.5923309326172
y: 230.52743530273438
z: -0.22684118151664734
visibility: 0.9999703168869019
","x: 230.22682189941406
y: 262.6388854980469
z: 0.009318073280155659
visibility: 0.999950110912323
","x: 193.36483764648438
y: 250.39659118652344
z: -0.16179443895816803
visibility: 0.9999890923500061
","x: 232.9357452392578
y: 321.3111877441406
z: 0.076348677277565
visibility: 0.8933862447738647
","x: 181.60252380371094
y: 313.533447265625
z: -0.1285606324672699
visibility: 0.9942194223403931
","x: 245.16958618164062
y: 367.398681640625
z: -0.027851011604070663
visibility: 0.9629606604576111
","x: 175.3651123046875
y: 363.8658447265625
z: -0.20828159153461456
visibility: 0.9919785261154175
","x: 250.483642578125
y: 380.6567077636719
z: -0.04786720126867294
visibility: 0.9417876601219177
","x: 171.3873291015625
y: 378.9587707519531
z: -0.23953256011009216
visibility: 0.9844252467155457
","x: 251.56248474121094
y: 379.5613098144531
z: -0.08967278897762299
visibility: 0.9482406973838806
","x: 173.3864288330078
y: 379.3633728027344
z: -0.26725414395332336
visibility: 0.984761118888855
","x: 249.73440551757812
y: 375.3948974609375
z: -0.04761792719364166
visibility: 0.93820720911026
","x: 173.63450622558594
y: 374.8462219238281
z: -0.21931226551532745
visibility: 0.9776124954223633
","x: 221.5532989501953
y: 368.9591064453125
z: 0.06343992054462433
visibility: 0.9993745684623718
","x: 201.4527587890625
y: 366.38470458984375
z: -0.06344056874513626
visibility: 0.9996403455734253
","x: 219.8148193359375
y: 453.3207702636719
z: 0.049450285732746124
visibility: 0.9261023998260498
","x: 207.75234985351562
y: 453.8331298828125
z: -0.09420572966337204
visibility: 0.9868364334106445
","x: 211.6812286376953
y: 530.6058959960938
z: 0.17120343446731567
visibility: 0.9442424178123474
","x: 206.26483154296875
y: 538.9708862304688
z: -0.0011139402631670237
visibility: 0.9872055053710938
","x: 207.33522033691406
y: 539.79345703125
z: 0.17576488852500916
visibility: 0.9171841144561768
","x: 203.42706298828125
y: 553.640380859375
z: -0.0001095330371754244
visibility: 0.9117177724838257
","x: 225.42739868164062
y: 553.77978515625
z: 0.07949044555425644
visibility: 0.9596272706985474
","x: 218.26275634765625
y: 563.35791015625
z: -0.1293545812368393
visibility: 0.982984185218811
",,,,,,,,,,,,,,,,,,,,,,,,,,,,,,,,,,,,,,,,,,
15,"x: 218.640869140625
y: 222.83262634277344
z: -0.362243115901947
visibility: 0.9999746680259705
","x: 220.12049865722656
y: 215.7906951904297
z: -0.3449639678001404
visibility: 0.9999216794967651
","x: 221.0767059326172
y: 215.99392700195312
z: -0.3449477553367615
visibility: 0.999906599521637
","x: 222.0725555419922
y: 216.20889282226562
z: -0.34495294094085693
visibility: 0.9998952746391296
","x: 217.0542755126953
y: 214.56678771972656
z: -0.35248079895973206
visibility: 0.9999351501464844
","x: 215.68832397460938
y: 213.89437866210938
z: -0.35253995656967163
visibility: 0.9999265670776367
","x: 214.28457641601562
y: 213.2878875732422
z: -0.3525620698928833
visibility: 0.9999201893806458
","x: 222.57916259765625
y: 218.38589477539062
z: -0.20902863144874573
visibility: 0.999664306640625
","x: 210.3212127685547
y: 214.99647521972656
z: -0.25025051832199097
visibility: 0.999916136264801
","x: 219.92510986328125
y: 229.4966278076172
z: -0.3080827593803406
visibility: 0.9999464750289917
","x: 215.28427124023438
y: 228.6449432373047
z: -0.3197140693664551
visibility: 0.9999712705612183
","x: 229.839111328125
y: 262.3956604003906
z: -0.07453590631484985
visibility: 0.999950647354126
","x: 192.17539978027344
y: 250.18011474609375
z: -0.1784195899963379
visibility: 0.9999873042106628
","x: 233.54591369628906
y: 320.5343933105469
z: -0.004381138365715742
visibility: 0.8997307419776917
","x: 180.6649169921875
y: 306.7638854980469
z: -0.21718056499958038
visibility: 0.993976891040802
","x: 244.63720703125
y: 366.4413146972656
z: -0.109586201608181
visibility: 0.9646157026290894
","x: 183.76470947265625
y: 336.52569580078125
z: -0.3946700394153595
visibility: 0.9918057322502136
","x: 249.64132690429688
y: 377.85589599609375
z: -0.13160988688468933
visibility: 0.9435300827026367
","x: 183.97674560546875
y: 345.98370361328125
z: -0.4372084140777588
visibility: 0.9841846823692322
","x: 250.33163452148438
y: 376.8127136230469
z: -0.1745394766330719
visibility: 0.9498782157897949
","x: 186.4473419189453
y: 342.7906799316406
z: -0.45877575874328613
visibility: 0.9845910668373108
","x: 248.41928100585938
y: 373.4584045410156
z: -0.12808175384998322
visibility: 0.9400362968444824
","x: 186.67132568359375
y: 339.02886962890625
z: -0.40577036142349243
visibility: 0.9773207902908325
","x: 220.77818298339844
y: 368.5672302246094
z: 0.0470992848277092
visibility: 0.9993931651115417
","x: 200.5164794921875
y: 365.2572021484375
z: -0.04721691459417343
visibility: 0.9996397495269775
","x: 218.41957092285156
y: 453.436279296875
z: 0.046164371073246
visibility: 0.9294131398200989
","x: 205.80284118652344
y: 452.7318115234375
z: -0.05017957091331482
visibility: 0.9868549704551697
","x: 210.70559692382812
y: 530.9685668945312
z: 0.16544191539287567
visibility: 0.9476825594902039
","x: 203.3371124267578
y: 535.413330078125
z: 0.07783393561840057
visibility: 0.9874210357666016
","x: 206.96861267089844
y: 540.751220703125
z: 0.16957694292068481
visibility: 0.9201711416244507
","x: 201.82449340820312
y: 547.9777221679688
z: 0.08306439220905304
visibility: 0.9078001976013184
","x: 223.81785583496094
y: 554.8259887695312
z: 0.05628277733922005
visibility: 0.9618420600891113
","x: 205.8017120361328
y: 559.1657104492188
z: -0.04638221114873886
visibility: 0.9832119345664978
",,,,,,,,,,,,,,,,,,,,,,,,,,,,,,,,,,,,,,,,,,
16,"x: 215.7656707763672
y: 220.43295288085938
z: -0.251311719417572
visibility: 0.9999750256538391
","x: 217.1205596923828
y: 213.46534729003906
z: -0.23324234783649445
visibility: 0.9999232292175293
","x: 218.0148468017578
y: 213.5378875732422
z: -0.23322896659374237
visibility: 0.9999080300331116
","x: 218.87718200683594
y: 213.67352294921875
z: -0.23320233821868896
visibility: 0.9998967051506042
","x: 213.7261505126953
y: 212.59951782226562
z: -0.24150559306144714
visibility: 0.9999361634254456
","x: 212.25662231445312
y: 212.07608032226562
z: -0.24152345955371857
visibility: 0.9999277591705322
","x: 210.81015014648438
y: 211.66055297851562
z: -0.2415502369403839
visibility: 0.9999211430549622
","x: 219.24395751953125
y: 216.60516357421875
z: -0.11070243269205093
visibility: 0.9996732473373413
","x: 206.5414581298828
y: 214.69107055664062
z: -0.15230387449264526
visibility: 0.9999166131019592
","x: 217.3345947265625
y: 226.9363555908203
z: -0.20352046191692352
visibility: 0.999945342540741
","x: 212.2664337158203
y: 226.62588500976562
z: -0.2153199017047882
visibility: 0.9999699592590332
","x: 229.05349731445312
y: 260.9375915527344
z: -0.002416811417788267
visibility: 0.9999493956565857
","x: 188.8494873046875
y: 250.0785675048828
z: -0.11646771430969238
visibility: 0.9999845623970032
","x: 233.54739379882812
y: 317.58758544921875
z: 0.06387565284967422
visibility: 0.9045183062553406
","x: 180.46546936035156
y: 303.4829406738281
z: -0.20702941715717316
visibility: 0.9941801428794861
","x: 249.34230041503906
y: 355.9735107421875
z: -0.039330288767814636
visibility: 0.9667521715164185
","x: 189.90127563476562
y: 301.26019287109375
z: -0.39582324028015137
visibility: 0.9922895431518555
","x: 255.092041015625
y: 363.0163269042969
z: -0.05841885134577751
visibility: 0.946445882320404
","x: 195.2692413330078
y: 303.5379333496094
z: -0.43776434659957886
visibility: 0.9849569201469421
","x: 256.67236328125
y: 360.92340087890625
z: -0.09605053067207336
visibility: 0.9525156021118164
","x: 197.3298797607422
y: 295.3835144042969
z: -0.4462544023990631
visibility: 0.985299289226532
","x: 254.58909606933594
y: 359.0694580078125
z: -0.057008273899555206
visibility: 0.9430910348892212
","x: 196.03817749023438
y: 294.74029541015625
z: -0.4018133282661438
visibility: 0.9781985878944397
","x: 219.9146728515625
y: 368.7362976074219
z: 0.04136788472533226
visibility: 0.999436616897583
","x: 197.56854248046875
y: 365.40771484375
z: -0.041390180587768555
visibility: 0.9996540546417236
","x: 217.64907836914062
y: 453.56011962890625
z: 0.004605528898537159
visibility: 0.9340726733207703
","x: 196.80413818359375
y: 452.3802490234375
z: -0.002670345362275839
visibility: 0.9869770407676697
","x: 210.6127166748047
y: 532.386962890625
z: 0.08391465246677399
visibility: 0.9509711265563965
","x: 194.2917938232422
y: 524.4481811523438
z: 0.16771307587623596
visibility: 0.9871188998222351
","x: 206.38946533203125
y: 543.5238037109375
z: 0.08392756432294846
visibility: 0.923982560634613
","x: 196.47669982910156
y: 536.6236572265625
z: 0.1777344048023224
visibility: 0.9045969247817993
","x: 223.73318481445312
y: 556.0370483398438
z: -0.03563738986849785
visibility: 0.9639706611633301
","x: 191.76861572265625
y: 548.5838012695312
z: 0.06367456167936325
visibility: 0.9830926656723022
","x: 192.56109619140625
y: 293.7782287597656
z: 0.0
","x: 195.65969848632812
y: 288.1363525390625
z: 0.0007260257843881845
","x: 199.607666015625
y: 283.78790283203125
z: -0.0012088081566616893
","x: 201.94264221191406
y: 280.9441833496094
z: -0.0037350566126406193
","x: 202.83172607421875
y: 278.0823059082031
z: -0.005798668134957552
","x: 200.5794677734375
y: 284.5510559082031
z: -0.005790697876363993
","x: 204.46319580078125
y: 287.5697326660156
z: -0.00978106539696455
","x: 203.0140380859375
y: 288.62530517578125
z: -0.010594101622700691
","x: 201.01126098632812
y: 287.2609558105469
z: -0.010716719552874565
","x: 199.42755126953125
y: 289.5599670410156
z: -0.008766323328018188
","x: 203.81549072265625
y: 293.6181335449219
z: -0.013253610581159592
","x: 202.3125457763672
y: 294.1492004394531
z: -0.012378612533211708
","x: 200.3240203857422
y: 292.7487487792969
z: -0.011415548622608185
","x: 197.93157958984375
y: 294.6131591796875
z: -0.011537792161107063
","x: 201.9103546142578
y: 298.6405944824219
z: -0.015207653865218163
","x: 200.65000915527344
y: 298.44671630859375
z: -0.01240029837936163
","x: 198.9068603515625
y: 296.88714599609375
z: -0.010192126967012882
","x: 196.23880004882812
y: 299.52825927734375
z: -0.014332760125398636
","x: 199.55885314941406
y: 302.6203308105469
z: -0.016827767714858055
","x: 198.69947814941406
y: 302.18157958984375
z: -0.01499643363058567
","x: 197.2535400390625
y: 300.837646484375
z: -0.013290531933307648
",,,,,,,,,,,,,,,,,,,,,
17,"x: 215.7656707763672
y: 220.43295288085938
z: -0.251311719417572
visibility: 0.9999750256538391
","x: 217.1205596923828
y: 213.46534729003906
z: -0.23324234783649445
visibility: 0.9999232292175293
","x: 218.0148468017578
y: 213.5378875732422
z: -0.23322896659374237
visibility: 0.9999080300331116
","x: 218.87718200683594
y: 213.67352294921875
z: -0.23320233821868896
visibility: 0.9998967051506042
","x: 213.7261505126953
y: 212.59951782226562
z: -0.24150559306144714
visibility: 0.9999361634254456
","x: 212.25662231445312
y: 212.07608032226562
z: -0.24152345955371857
visibility: 0.9999277591705322
","x: 210.81015014648438
y: 211.66055297851562
z: -0.2415502369403839
visibility: 0.9999211430549622
","x: 219.24395751953125
y: 216.60516357421875
z: -0.11070243269205093
visibility: 0.9996732473373413
","x: 206.5414581298828
y: 214.69107055664062
z: -0.15230387449264526
visibility: 0.9999166131019592
","x: 217.3345947265625
y: 226.9363555908203
z: -0.20352046191692352
visibility: 0.999945342540741
","x: 212.2664337158203
y: 226.62588500976562
z: -0.2153199017047882
visibility: 0.9999699592590332
","x: 229.05349731445312
y: 260.9375915527344
z: -0.002416811417788267
visibility: 0.9999493956565857
","x: 188.8494873046875
y: 250.0785675048828
z: -0.11646771430969238
visibility: 0.9999845623970032
","x: 233.54739379882812
y: 317.58758544921875
z: 0.06387565284967422
visibility: 0.9045183062553406
","x: 180.46546936035156
y: 303.4829406738281
z: -0.20702941715717316
visibility: 0.9941801428794861
","x: 249.34230041503906
y: 355.9735107421875
z: -0.039330288767814636
visibility: 0.9667521715164185
","x: 189.90127563476562
y: 301.26019287109375
z: -0.39582324028015137
visibility: 0.9922895431518555
","x: 255.092041015625
y: 363.0163269042969
z: -0.05841885134577751
visibility: 0.946445882320404
","x: 195.2692413330078
y: 303.5379333496094
z: -0.43776434659957886
visibility: 0.9849569201469421
","x: 256.67236328125
y: 360.92340087890625
z: -0.09605053067207336
visibility: 0.9525156021118164
","x: 197.3298797607422
y: 295.3835144042969
z: -0.4462544023990631
visibility: 0.985299289226532
","x: 254.58909606933594
y: 359.0694580078125
z: -0.057008273899555206
visibility: 0.9430910348892212
","x: 196.03817749023438
y: 294.74029541015625
z: -0.4018133282661438
visibility: 0.9781985878944397
","x: 219.9146728515625
y: 368.7362976074219
z: 0.04136788472533226
visibility: 0.999436616897583
","x: 197.56854248046875
y: 365.40771484375
z: -0.041390180587768555
visibility: 0.9996540546417236
","x: 217.64907836914062
y: 453.56011962890625
z: 0.004605528898537159
visibility: 0.9340726733207703
","x: 196.80413818359375
y: 452.3802490234375
z: -0.002670345362275839
visibility: 0.9869770407676697
","x: 210.6127166748047
y: 532.386962890625
z: 0.08391465246677399
visibility: 0.9509711265563965
","x: 194.2917938232422
y: 524.4481811523438
z: 0.16771307587623596
visibility: 0.9871188998222351
","x: 206.38946533203125
y: 543.5238037109375
z: 0.08392756432294846
visibility: 0.923982560634613
","x: 196.47669982910156
y: 536.6236572265625
z: 0.1777344048023224
visibility: 0.9045969247817993
","x: 223.73318481445312
y: 556.0370483398438
z: -0.03563738986849785
visibility: 0.9639706611633301
","x: 191.76861572265625
y: 548.5838012695312
z: 0.06367456167936325
visibility: 0.9830926656723022
","x: 192.56109619140625
y: 293.7782287597656
z: 0.0
","x: 195.65969848632812
y: 288.1363525390625
z: 0.0007260257843881845
","x: 199.607666015625
y: 283.78790283203125
z: -0.0012088081566616893
","x: 201.94264221191406
y: 280.9441833496094
z: -0.0037350566126406193
","x: 202.83172607421875
y: 278.0823059082031
z: -0.005798668134957552
","x: 200.5794677734375
y: 284.5510559082031
z: -0.005790697876363993
","x: 204.46319580078125
y: 287.5697326660156
z: -0.00978106539696455
","x: 203.0140380859375
y: 288.62530517578125
z: -0.010594101622700691
","x: 201.01126098632812
y: 287.2609558105469
z: -0.010716719552874565
","x: 199.42755126953125
y: 289.5599670410156
z: -0.008766323328018188
","x: 203.81549072265625
y: 293.6181335449219
z: -0.013253610581159592
","x: 202.3125457763672
y: 294.1492004394531
z: -0.012378612533211708
","x: 200.3240203857422
y: 292.7487487792969
z: -0.011415548622608185
","x: 197.93157958984375
y: 294.6131591796875
z: -0.011537792161107063
","x: 201.9103546142578
y: 298.6405944824219
z: -0.015207653865218163
","x: 200.65000915527344
y: 298.44671630859375
z: -0.01240029837936163
","x: 198.9068603515625
y: 296.88714599609375
z: -0.010192126967012882
","x: 196.23880004882812
y: 299.52825927734375
z: -0.014332760125398636
","x: 199.55885314941406
y: 302.6203308105469
z: -0.016827767714858055
","x: 198.69947814941406
y: 302.18157958984375
z: -0.01499643363058567
","x: 197.2535400390625
y: 300.837646484375
z: -0.013290531933307648
",,,,,,,,,,,,,,,,,,,,,
18,"x: 211.2919921875
y: 215.98997497558594
z: -0.17213396728038788
visibility: 0.9999756813049316
","x: 212.98487854003906
y: 210.47415161132812
z: -0.1515994668006897
visibility: 0.9999269843101501
","x: 213.98837280273438
y: 210.9081268310547
z: -0.1516432911157608
visibility: 0.9999122023582458
","x: 215.0025634765625
y: 211.36474609375
z: -0.15166887640953064
visibility: 0.9999021291732788
","x: 209.0050506591797
y: 208.5751495361328
z: -0.15918906033039093
visibility: 0.9999380111694336
","x: 207.32261657714844
y: 207.8370361328125
z: -0.1591722071170807
visibility: 0.9999291896820068
","x: 205.6654815673828
y: 207.30319213867188
z: -0.15916620194911957
visibility: 0.999922513961792
","x: 215.21080017089844
y: 214.86917114257812
z: -0.027873504906892776
visibility: 0.9996933937072754
","x: 201.68727111816406
y: 210.83493041992188
z: -0.0657602995634079
visibility: 0.9999168515205383
","x: 212.69378662109375
y: 222.6728515625
z: -0.12467269599437714
visibility: 0.9999449253082275
","x: 207.1629638671875
y: 221.85693359375
z: -0.13544735312461853
visibility: 0.9999679923057556
","x: 224.38771057128906
y: 259.00262451171875
z: 0.06436911970376968
visibility: 0.9999514222145081
","x: 184.59359741210938
y: 249.10421752929688
z: -0.03271980211138725
visibility: 0.9999775290489197
","x: 233.1770782470703
y: 308.9184265136719
z: 0.09188054502010345
visibility: 0.9097117185592651
","x: 176.7200164794922
y: 300.8370666503906
z: -0.1663755476474762
visibility: 0.9940887093544006
","x: 252.08502197265625
y: 324.1300048828125
z: -0.047747932374477386
visibility: 0.9695350527763367
","x: 191.5907745361328
y: 284.83984375
z: -0.36297959089279175
visibility: 0.9926792979240417
","x: 259.2004699707031
y: 326.95751953125
z: -0.0746450275182724
visibility: 0.9507025480270386
","x: 198.04995727539062
y: 282.29046630859375
z: -0.4063102602958679
visibility: 0.9855051636695862
","x: 260.64971923828125
y: 323.0152587890625
z: -0.11019102483987808
visibility: 0.9563391208648682
","x: 199.17861938476562
y: 276.51708984375
z: -0.4098849296569824
visibility: 0.9857798218727112
","x: 258.13116455078125
y: 322.0495910644531
z: -0.0658421665430069
visibility: 0.9474952220916748
","x: 197.8106689453125
y: 277.3531799316406
z: -0.3679264485836029
visibility: 0.9787991046905518
","x: 217.2624969482422
y: 366.597900390625
z: 0.03548564016819
visibility: 0.9994702339172363
","x: 193.94012451171875
y: 364.5956115722656
z: -0.035409968346357346
visibility: 0.9996548891067505
","x: 216.21151733398438
y: 452.89288330078125
z: -0.01814044453203678
visibility: 0.93839430809021
","x: 191.9086151123047
y: 450.5138854980469
z: -0.025041570886969566
visibility: 0.9867934584617615
","x: 210.51734924316406
y: 533.0505981445312
z: 0.06803509593009949
visibility: 0.9535742402076721
","x: 192.84100341796875
y: 524.0797119140625
z: 0.12235093116760254
visibility: 0.9867081046104431
","x: 206.28025817871094
y: 544.4774169921875
z: 0.06866881251335144
visibility: 0.9254435896873474
","x: 195.56790161132812
y: 536.0335693359375
z: 0.12967529892921448
visibility: 0.8990738391876221
","x: 222.81939697265625
y: 556.3182373046875
z: -0.04960636794567108
visibility: 0.965168297290802
","x: 190.17535400390625
y: 547.291015625
z: 0.009750221855938435
visibility: 0.9827672839164734
","x: 192.22364807128906
y: 280.3597717285156
z: 0.0
","x: 195.09971618652344
y: 275.14178466796875
z: 0.0023761887568980455
","x: 198.89370727539062
y: 271.6726989746094
z: 0.0018659377237781882
","x: 202.08538818359375
y: 271.1288757324219
z: 0.0004145291168242693
","x: 204.35011291503906
y: 271.89276123046875
z: -0.0007783644832670689
","x: 199.88645935058594
y: 267.9836730957031
z: -0.002121964003890753
","x: 205.50103759765625
y: 267.30609130859375
z: -0.004768576007336378
","x: 207.31602478027344
y: 271.2190246582031
z: -0.005214712116867304
","x: 207.56336975097656
y: 274.3729553222656
z: -0.005064662080258131
","x: 199.655029296875
y: 270.5939025878906
z: -0.00522979162633419
","x: 205.68136596679688
y: 269.81787109375
z: -0.008479347452521324
","x: 207.39112854003906
y: 274.2198486328125
z: -0.008184745907783508
","x: 207.50582885742188
y: 277.3540344238281
z: -0.007418282330036163
","x: 199.43760681152344
y: 274.3851013183594
z: -0.008112571202218533
","x: 205.03860473632812
y: 274.313232421875
z: -0.010754442773759365
","x: 206.58106994628906
y: 278.37506103515625
z: -0.009220125153660774
","x: 206.5318145751953
y: 281.0677795410156
z: -0.0076929363422095776
","x: 199.14842224121094
y: 278.9293212890625
z: -0.010921807959675789
","x: 203.55984497070312
y: 279.2166442871094
z: -0.012396133504807949
","x: 204.5811767578125
y: 281.43896484375
z: -0.0110950181260705
","x: 204.37908935546875
y: 283.114501953125
z: -0.00974865909665823
",,,,,,,,,,,,,,,,,,,,,
19,"x: 211.2919921875
y: 215.98997497558594
z: -0.17213396728038788
visibility: 0.9999756813049316
","x: 212.98487854003906
y: 210.47415161132812
z: -0.1515994668006897
visibility: 0.9999269843101501
","x: 213.98837280273438
y: 210.9081268310547
z: -0.1516432911157608
visibility: 0.9999122023582458
","x: 215.0025634765625
y: 211.36474609375
z: -0.15166887640953064
visibility: 0.9999021291732788
","x: 209.0050506591797
y: 208.5751495361328
z: -0.15918906033039093
visibility: 0.9999380111694336
","x: 207.32261657714844
y: 207.8370361328125
z: -0.1591722071170807
visibility: 0.9999291896820068
","x: 205.6654815673828
y: 207.30319213867188
z: -0.15916620194911957
visibility: 0.999922513961792
","x: 215.21080017089844
y: 214.86917114257812
z: -0.027873504906892776
visibility: 0.9996933937072754
","x: 201.68727111816406
y: 210.83493041992188
z: -0.0657602995634079
visibility: 0.9999168515205383
","x: 212.69378662109375
y: 222.6728515625
z: -0.12467269599437714
visibility: 0.9999449253082275
","x: 207.1629638671875
y: 221.85693359375
z: -0.13544735312461853
visibility: 0.9999679923057556
","x: 224.38771057128906
y: 259.00262451171875
z: 0.06436911970376968
visibility: 0.9999514222145081
","x: 184.59359741210938
y: 249.10421752929688
z: -0.03271980211138725
visibility: 0.9999775290489197
","x: 233.1770782470703
y: 308.9184265136719
z: 0.09188054502010345
visibility: 0.9097117185592651
","x: 176.7200164794922
y: 300.8370666503906
z: -0.1663755476474762
visibility: 0.9940887093544006
","x: 252.08502197265625
y: 324.1300048828125
z: -0.047747932374477386
visibility: 0.9695350527763367
","x: 191.5907745361328
y: 284.83984375
z: -0.36297959089279175
visibility: 0.9926792979240417
","x: 259.2004699707031
y: 326.95751953125
z: -0.0746450275182724
visibility: 0.9507025480270386
","x: 198.04995727539062
y: 282.29046630859375
z: -0.4063102602958679
visibility: 0.9855051636695862
","x: 260.64971923828125
y: 323.0152587890625
z: -0.11019102483987808
visibility: 0.9563391208648682
","x: 199.17861938476562
y: 276.51708984375
z: -0.4098849296569824
visibility: 0.9857798218727112
","x: 258.13116455078125
y: 322.0495910644531
z: -0.0658421665430069
visibility: 0.9474952220916748
","x: 197.8106689453125
y: 277.3531799316406
z: -0.3679264485836029
visibility: 0.9787991046905518
","x: 217.2624969482422
y: 366.597900390625
z: 0.03548564016819
visibility: 0.9994702339172363
","x: 193.94012451171875
y: 364.5956115722656
z: -0.035409968346357346
visibility: 0.9996548891067505
","x: 216.21151733398438
y: 452.89288330078125
z: -0.01814044453203678
visibility: 0.93839430809021
","x: 191.9086151123047
y: 450.5138854980469
z: -0.025041570886969566
visibility: 0.9867934584617615
","x: 210.51734924316406
y: 533.0505981445312
z: 0.06803509593009949
visibility: 0.9535742402076721
","x: 192.84100341796875
y: 524.0797119140625
z: 0.12235093116760254
visibility: 0.9867081046104431
","x: 206.28025817871094
y: 544.4774169921875
z: 0.06866881251335144
visibility: 0.9254435896873474
","x: 195.56790161132812
y: 536.0335693359375
z: 0.12967529892921448
visibility: 0.8990738391876221
","x: 222.81939697265625
y: 556.3182373046875
z: -0.04960636794567108
visibility: 0.965168297290802
","x: 190.17535400390625
y: 547.291015625
z: 0.009750221855938435
visibility: 0.9827672839164734
","x: 192.22364807128906
y: 280.3597717285156
z: 0.0
","x: 195.09971618652344
y: 275.14178466796875
z: 0.0023761887568980455
","x: 198.89370727539062
y: 271.6726989746094
z: 0.0018659377237781882
","x: 202.08538818359375
y: 271.1288757324219
z: 0.0004145291168242693
","x: 204.35011291503906
y: 271.89276123046875
z: -0.0007783644832670689
","x: 199.88645935058594
y: 267.9836730957031
z: -0.002121964003890753
","x: 205.50103759765625
y: 267.30609130859375
z: -0.004768576007336378
","x: 207.31602478027344
y: 271.2190246582031
z: -0.005214712116867304
","x: 207.56336975097656
y: 274.3729553222656
z: -0.005064662080258131
","x: 199.655029296875
y: 270.5939025878906
z: -0.00522979162633419
","x: 205.68136596679688
y: 269.81787109375
z: -0.008479347452521324
","x: 207.39112854003906
y: 274.2198486328125
z: -0.008184745907783508
","x: 207.50582885742188
y: 277.3540344238281
z: -0.007418282330036163
","x: 199.43760681152344
y: 274.3851013183594
z: -0.008112571202218533
","x: 205.03860473632812
y: 274.313232421875
z: -0.010754442773759365
","x: 206.58106994628906
y: 278.37506103515625
z: -0.009220125153660774
","x: 206.5318145751953
y: 281.0677795410156
z: -0.0076929363422095776
","x: 199.14842224121094
y: 278.9293212890625
z: -0.010921807959675789
","x: 203.55984497070312
y: 279.2166442871094
z: -0.012396133504807949
","x: 204.5811767578125
y: 281.43896484375
z: -0.0110950181260705
","x: 204.37908935546875
y: 283.114501953125
z: -0.00974865909665823
",,,,,,,,,,,,,,,,,,,,,
20,"x: 208.44039916992188
y: 216.91419982910156
z: -0.16159537434577942
visibility: 0.9999756813049316
","x: 210.32447814941406
y: 211.11886596679688
z: -0.14321500062942505
visibility: 0.9999287724494934
","x: 211.3123321533203
y: 211.4541778564453
z: -0.1432565450668335
visibility: 0.9999138116836548
","x: 212.26242065429688
y: 211.79180908203125
z: -0.1432853788137436
visibility: 0.9999045729637146
","x: 206.5648956298828
y: 209.21685791015625
z: -0.15331777930259705
visibility: 0.99993896484375
","x: 204.8145294189453
y: 208.25634765625
z: -0.15330909192562103
visibility: 0.9999297857284546
","x: 203.06674194335938
y: 207.48980712890625
z: -0.1533181518316269
visibility: 0.9999234676361084
","x: 212.09979248046875
y: 214.8069610595703
z: -0.02044626697897911
visibility: 0.9997065663337708
","x: 198.59878540039062
y: 210.77659606933594
z: -0.06897466629743576
visibility: 0.9999179840087891
","x: 209.45774841308594
y: 222.91062927246094
z: -0.11297895014286041
visibility: 0.9999437928199768
","x: 204.34768676757812
y: 222.29627990722656
z: -0.1269136518239975
visibility: 0.9999667406082153
","x: 219.5963592529297
y: 256.12603759765625
z: 0.07901576906442642
visibility: 0.9999539852142334
","x: 181.1977996826172
y: 248.55368041992188
z: -0.03184359148144722
visibility: 0.9999752044677734
","x: 232.02491760253906
y: 298.92156982421875
z: 0.10242637246847153
visibility: 0.9144748449325562
","x: 170.6357879638672
y: 298.46942138671875
z: -0.15504154562950134
visibility: 0.9943898320198059
","x: 251.53509521484375
y: 306.07452392578125
z: -0.0529581680893898
visibility: 0.9720190167427063
","x: 190.7384796142578
y: 284.00396728515625
z: -0.353410542011261
visibility: 0.9932571053504944
","x: 258.0188903808594
y: 308.30908203125
z: -0.0819367989897728
visibility: 0.9544728994369507
","x: 197.70404052734375
y: 283.2610778808594
z: -0.3946162760257721
visibility: 0.9865314960479736
","x: 258.9524841308594
y: 305.0448303222656
z: -0.11376015096902847
visibility: 0.9597154259681702
","x: 199.04483032226562
y: 278.35870361328125
z: -0.3984679579734802
visibility: 0.9867568612098694
","x: 256.6033020019531
y: 304.4145812988281
z: -0.06986445188522339
visibility: 0.9513581395149231
","x: 197.48208618164062
y: 278.4685363769531
z: -0.35739633440971375
visibility: 0.980124294757843
","x: 214.28347778320312
y: 365.0809326171875
z: 0.03681641444563866
visibility: 0.9994995594024658
","x: 191.07301330566406
y: 364.06329345703125
z: -0.036733005195856094
visibility: 0.9996501207351685
","x: 214.79562377929688
y: 452.41064453125
z: -0.04320422559976578
visibility: 0.9419084191322327
","x: 190.05245971679688
y: 450.121337890625
z: -0.03325877711176872
visibility: 0.986322283744812
","x: 210.392333984375
y: 533.3116455078125
z: 0.03267722204327583
visibility: 0.9553884267807007
","x: 192.33352661132812
y: 523.8063354492188
z: 0.10929516702890396
visibility: 0.985747218132019
","x: 206.17861938476562
y: 545.070556640625
z: 0.03265288844704628
visibility: 0.927274227142334
","x: 194.9497833251953
y: 535.57080078125
z: 0.11646498739719391
visibility: 0.8931699395179749
","x: 222.6752471923828
y: 556.3388671875
z: -0.08333715051412582
visibility: 0.9658843278884888
","x: 190.6707305908203
y: 547.6126708984375
z: -0.0016686636954545975
visibility: 0.9817185401916504
","x: 190.68856811523438
y: 279.6502380371094
z: 0.0
","x: 195.02435302734375
y: 276.2562255859375
z: 0.003358213696628809
","x: 199.3372344970703
y: 275.2605285644531
z: 0.002960720332339406
","x: 202.79164123535156
y: 276.6759338378906
z: 0.0013079011114314198
","x: 204.716796875
y: 278.6398620605469
z: 0.00012797991803381592
","x: 201.59225463867188
y: 271.81365966796875
z: -0.0007203440181910992
","x: 207.16201782226562
y: 275.3871765136719
z: -0.0027826596051454544
","x: 207.07167053222656
y: 279.696533203125
z: -0.002889239229261875
","x: 205.86868286132812
y: 281.811767578125
z: -0.0027451138012111187
","x: 201.01821899414062
y: 273.78399658203125
z: -0.0044199335388839245
","x: 205.9520263671875
y: 280.3960876464844
z: -0.006451120600104332
","x: 204.83811950683594
y: 283.5263366699219
z: -0.004991340450942516
","x: 203.22486877441406
y: 283.6133728027344
z: -0.003919751849025488
","x: 200.09568786621094
y: 276.86273193359375
z: -0.007898868061602116
","x: 204.55831909179688
y: 283.46246337890625
z: -0.00929814949631691
","x: 203.39288330078125
y: 285.84014892578125
z: -0.006616929545998573
","x: 201.7742462158203
y: 285.6958312988281
z: -0.004882386419922113
","x: 199.06942749023438
y: 280.50830078125
z: -0.01138311717659235
","x: 202.48150634765625
y: 285.53326416015625
z: -0.011953586712479591
","x: 201.8373260498047
y: 287.4667663574219
z: -0.00996015127748251
","x: 200.6361541748047
y: 287.79730224609375
z: -0.008429162204265594
",,,,,,,,,,,,,,,,,,,,,
21,"x: 208.44039916992188
y: 216.91419982910156
z: -0.16159537434577942
visibility: 0.9999756813049316
","x: 210.32447814941406
y: 211.11886596679688
z: -0.14321500062942505
visibility: 0.9999287724494934
","x: 211.3123321533203
y: 211.4541778564453
z: -0.1432565450668335
visibility: 0.9999138116836548
","x: 212.26242065429688
y: 211.79180908203125
z: -0.1432853788137436
visibility: 0.9999045729637146
","x: 206.5648956298828
y: 209.21685791015625
z: -0.15331777930259705
visibility: 0.99993896484375
","x: 204.8145294189453
y: 208.25634765625
z: -0.15330909192562103
visibility: 0.9999297857284546
","x: 203.06674194335938
y: 207.48980712890625
z: -0.1533181518316269
visibility: 0.9999234676361084
","x: 212.09979248046875
y: 214.8069610595703
z: -0.02044626697897911
visibility: 0.9997065663337708
","x: 198.59878540039062
y: 210.77659606933594
z: -0.06897466629743576
visibility: 0.9999179840087891
","x: 209.45774841308594
y: 222.91062927246094
z: -0.11297895014286041
visibility: 0.9999437928199768
","x: 204.34768676757812
y: 222.29627990722656
z: -0.1269136518239975
visibility: 0.9999667406082153
","x: 219.5963592529297
y: 256.12603759765625
z: 0.07901576906442642
visibility: 0.9999539852142334
","x: 181.1977996826172
y: 248.55368041992188
z: -0.03184359148144722
visibility: 0.9999752044677734
","x: 232.02491760253906
y: 298.92156982421875
z: 0.10242637246847153
visibility: 0.9144748449325562
","x: 170.6357879638672
y: 298.46942138671875
z: -0.15504154562950134
visibility: 0.9943898320198059
","x: 251.53509521484375
y: 306.07452392578125
z: -0.0529581680893898
visibility: 0.9720190167427063
","x: 190.7384796142578
y: 284.00396728515625
z: -0.353410542011261
visibility: 0.9932571053504944
","x: 258.0188903808594
y: 308.30908203125
z: -0.0819367989897728
visibility: 0.9544728994369507
","x: 197.70404052734375
y: 283.2610778808594
z: -0.3946162760257721
visibility: 0.9865314960479736
","x: 258.9524841308594
y: 305.0448303222656
z: -0.11376015096902847
visibility: 0.9597154259681702
","x: 199.04483032226562
y: 278.35870361328125
z: -0.3984679579734802
visibility: 0.9867568612098694
","x: 256.6033020019531
y: 304.4145812988281
z: -0.06986445188522339
visibility: 0.9513581395149231
","x: 197.48208618164062
y: 278.4685363769531
z: -0.35739633440971375
visibility: 0.980124294757843
","x: 214.28347778320312
y: 365.0809326171875
z: 0.03681641444563866
visibility: 0.9994995594024658
","x: 191.07301330566406
y: 364.06329345703125
z: -0.036733005195856094
visibility: 0.9996501207351685
","x: 214.79562377929688
y: 452.41064453125
z: -0.04320422559976578
visibility: 0.9419084191322327
","x: 190.05245971679688
y: 450.121337890625
z: -0.03325877711176872
visibility: 0.986322283744812
","x: 210.392333984375
y: 533.3116455078125
z: 0.03267722204327583
visibility: 0.9553884267807007
","x: 192.33352661132812
y: 523.8063354492188
z: 0.10929516702890396
visibility: 0.985747218132019
","x: 206.17861938476562
y: 545.070556640625
z: 0.03265288844704628
visibility: 0.927274227142334
","x: 194.9497833251953
y: 535.57080078125
z: 0.11646498739719391
visibility: 0.8931699395179749
","x: 222.6752471923828
y: 556.3388671875
z: -0.08333715051412582
visibility: 0.9658843278884888
","x: 190.6707305908203
y: 547.6126708984375
z: -0.0016686636954545975
visibility: 0.9817185401916504
","x: 190.68856811523438
y: 279.6502380371094
z: 0.0
","x: 195.02435302734375
y: 276.2562255859375
z: 0.003358213696628809
","x: 199.3372344970703
y: 275.2605285644531
z: 0.002960720332339406
","x: 202.79164123535156
y: 276.6759338378906
z: 0.0013079011114314198
","x: 204.716796875
y: 278.6398620605469
z: 0.00012797991803381592
","x: 201.59225463867188
y: 271.81365966796875
z: -0.0007203440181910992
","x: 207.16201782226562
y: 275.3871765136719
z: -0.0027826596051454544
","x: 207.07167053222656
y: 279.696533203125
z: -0.002889239229261875
","x: 205.86868286132812
y: 281.811767578125
z: -0.0027451138012111187
","x: 201.01821899414062
y: 273.78399658203125
z: -0.0044199335388839245
","x: 205.9520263671875
y: 280.3960876464844
z: -0.006451120600104332
","x: 204.83811950683594
y: 283.5263366699219
z: -0.004991340450942516
","x: 203.22486877441406
y: 283.6133728027344
z: -0.003919751849025488
","x: 200.09568786621094
y: 276.86273193359375
z: -0.007898868061602116
","x: 204.55831909179688
y: 283.46246337890625
z: -0.00929814949631691
","x: 203.39288330078125
y: 285.84014892578125
z: -0.006616929545998573
","x: 201.7742462158203
y: 285.6958312988281
z: -0.004882386419922113
","x: 199.06942749023438
y: 280.50830078125
z: -0.01138311717659235
","x: 202.48150634765625
y: 285.53326416015625
z: -0.011953586712479591
","x: 201.8373260498047
y: 287.4667663574219
z: -0.00996015127748251
","x: 200.6361541748047
y: 287.79730224609375
z: -0.008429162204265594
",,,,,,,,,,,,,,,,,,,,,
22,"x: 204.30899047851562
y: 218.68295288085938
z: -0.1783435195684433
visibility: 0.9999720454216003
","x: 206.3384246826172
y: 212.57200622558594
z: -0.1570739597082138
visibility: 0.9999264478683472
","x: 207.26165771484375
y: 212.83424377441406
z: -0.15712042152881622
visibility: 0.9999113082885742
","x: 208.1640625
y: 213.0503692626953
z: -0.15716683864593506
visibility: 0.9999032020568848
","x: 202.70237731933594
y: 210.63336181640625
z: -0.16710588335990906
visibility: 0.9999333620071411
","x: 201.05589294433594
y: 209.5260467529297
z: -0.16709491610527039
visibility: 0.9999229907989502
","x: 199.35816955566406
y: 208.54989624023438
z: -0.16705629229545593
visibility: 0.9999143481254578
","x: 207.8330841064453
y: 215.22311401367188
z: -0.02341526560485363
visibility: 0.9997175335884094
","x: 195.0213165283203
y: 211.0220947265625
z: -0.0711408406496048
visibility: 0.9999097585678101
","x: 205.1678924560547
y: 224.03399658203125
z: -0.1267688274383545
visibility: 0.9999425411224365
","x: 200.2874298095703
y: 223.5489044189453
z: -0.14046208560466766
visibility: 0.9999638199806213
","x: 217.28103637695312
y: 253.85870361328125
z: 0.058621376752853394
visibility: 0.9999570846557617
","x: 177.58587646484375
y: 248.59144592285156
z: -0.03365296497941017
visibility: 0.9999619126319885
","x: 232.05555725097656
y: 288.0169372558594
z: -0.021915355697274208
visibility: 0.921819806098938
","x: 165.05914306640625
y: 295.310302734375
z: -0.18512772023677826
visibility: 0.9946841597557068
","x: 247.13565063476562
y: 306.74188232421875
z: -0.26975592970848083
visibility: 0.9744799137115479
","x: 188.9121551513672
y: 279.08441162109375
z: -0.410767138004303
visibility: 0.9936416745185852
","x: 250.69375610351562
y: 316.508056640625
z: -0.3231493830680847
visibility: 0.9582019448280334
","x: 194.35076904296875
y: 276.1191711425781
z: -0.45966172218322754
visibility: 0.9871039390563965
","x: 248.70901489257812
y: 314.24615478515625
z: -0.3420655131340027
visibility: 0.9630101323127747
","x: 196.14682006835938
y: 269.916259765625
z: -0.45924273133277893
visibility: 0.9872702360153198
","x: 247.05796813964844
y: 311.5957336425781
z: -0.28395506739616394
visibility: 0.9551398158073425
","x: 194.85462951660156
y: 270.7880554199219
z: -0.41392216086387634
visibility: 0.9806693196296692
","x: 210.84849548339844
y: 364.57196044921875
z: 0.031669799238443375
visibility: 0.9995359182357788
","x: 187.6622772216797
y: 364.2028503417969
z: -0.031531963497400284
visibility: 0.9996526837348938
","x: 213.90316772460938
y: 451.29144287109375
z: -0.06148951128125191
visibility: 0.9462146162986755
","x: 188.40875244140625
y: 450.3863220214844
z: -0.036393798887729645
visibility: 0.986292839050293
","x: 210.38525390625
y: 533.290283203125
z: 0.03843390569090843
visibility: 0.9579347968101501
","x: 192.37774658203125
y: 523.7459106445312
z: 0.10865620523691177
visibility: 0.9852737188339233
","x: 206.24771118164062
y: 545.076904296875
z: 0.04109266772866249
visibility: 0.9304194450378418
","x: 195.09410095214844
y: 535.202880859375
z: 0.11588327586650848
visibility: 0.8863350749015808
","x: 222.77806091308594
y: 556.2800903320312
z: -0.07770655304193497
visibility: 0.9670236110687256
","x: 190.12547302246094
y: 547.4974365234375
z: -0.006142177619040012
visibility: 0.9807099103927612
",,,,,,,,,,,,,,,,,,,,,,,,,,,,,,,,,,,,,,,,,,
23,"x: 198.96336364746094
y: 220.4069366455078
z: -0.19685301184654236
visibility: 0.9999723434448242
","x: 201.44595336914062
y: 213.64208984375
z: -0.17986264824867249
visibility: 0.9999275207519531
","x: 202.5196075439453
y: 213.73648071289062
z: -0.17994244396686554
visibility: 0.9999116063117981
","x: 203.6048583984375
y: 213.8119354248047
z: -0.1799645721912384
visibility: 0.9999054074287415
","x: 197.38232421875
y: 212.42581176757812
z: -0.19532422721385956
visibility: 0.9999337792396545
","x: 195.7762908935547
y: 211.6448974609375
z: -0.19532491266727448
visibility: 0.9999234676361084
","x: 194.20498657226562
y: 210.9195098876953
z: -0.19534026086330414
visibility: 0.9999150633811951
","x: 204.38046264648438
y: 215.644775390625
z: -0.052095066756010056
visibility: 0.9997301697731018
","x: 190.58660888671875
y: 212.9754638671875
z: -0.10398999601602554
visibility: 0.9999059438705444
","x: 200.38211059570312
y: 225.66043090820312
z: -0.14559993147850037
visibility: 0.9999420642852783
","x: 195.28973388671875
y: 225.8967742919922
z: -0.16787675023078918
visibility: 0.9999607801437378
","x: 215.857421875
y: 253.00985717773438
z: 0.0534861795604229
visibility: 0.9999592304229736
","x: 175.8120574951172
y: 249.01699829101562
z: -0.06093047186732292
visibility: 0.9999486207962036
","x: 232.5985107421875
y: 288.2813720703125
z: 0.038341354578733444
visibility: 0.9290772676467896
","x: 164.9765167236328
y: 294.5065612792969
z: -0.1987427920103073
visibility: 0.9949910640716553
","x: 242.48434448242188
y: 318.5478515625
z: -0.06315244734287262
visibility: 0.9767215847969055
","x: 188.24412536621094
y: 272.3150939941406
z: -0.4077719748020172
visibility: 0.9940336346626282
","x: 243.6120147705078
y: 316.99298095703125
z: -0.08757976442575455
visibility: 0.9612634181976318
","x: 193.4173126220703
y: 264.9334716796875
z: -0.45183640718460083
visibility: 0.9875744581222534
","x: 240.28721618652344
y: 322.65411376953125
z: -0.11220387369394302
visibility: 0.9656827449798584
","x: 194.8612518310547
y: 259.4844665527344
z: -0.4514620900154114
visibility: 0.9876468181610107
","x: 239.14581298828125
y: 313.97369384765625
z: -0.07381126284599304
visibility: 0.9581689834594727
","x: 193.8533477783203
y: 261.4422912597656
z: -0.4105352759361267
visibility: 0.981040358543396
","x: 209.0473175048828
y: 364.6094970703125
z: 0.030020039528608322
visibility: 0.9995654821395874
","x: 186.17510986328125
y: 364.2779235839844
z: -0.02996758185327053
visibility: 0.9996545314788818
","x: 212.55032348632812
y: 449.36639404296875
z: -0.04132748395204544
visibility: 0.9500358700752258
","x: 187.41259765625
y: 450.392333984375
z: -0.03571401908993721
visibility: 0.9862367510795593
","x: 210.15907287597656
y: 531.870361328125
z: 0.05665207654237747
visibility: 0.960425078868866
","x: 192.1395721435547
y: 522.654296875
z: 0.105427086353302
visibility: 0.9852741956710815
","x: 206.1853790283203
y: 543.3136596679688
z: 0.05879594013094902
visibility: 0.9333264231681824
","x: 194.800537109375
y: 534.639404296875
z: 0.11303049325942993
visibility: 0.8837496042251587
","x: 221.59190368652344
y: 556.058837890625
z: -0.0612267330288887
visibility: 0.9685705304145813
","x: 190.70579528808594
y: 547.2034912109375
z: -0.010450681671500206
visibility: 0.9808379411697388
",,,,,,,,,,,,,,,,,,,,,,,,,,,,,,,,,,,,,,,,,,
24,"x: 195.4244842529297
y: 218.42141723632812
z: -0.1794935166835785
visibility: 0.9999703764915466
","x: 197.830810546875
y: 211.2998809814453
z: -0.15986308455467224
visibility: 0.9999218583106995
","x: 199.0040283203125
y: 211.5450897216797
z: -0.1598639339208603
visibility: 0.9999054670333862
","x: 200.15777587890625
y: 211.7524871826172
z: -0.1598532646894455
visibility: 0.9999005198478699
","x: 193.72767639160156
y: 210.23638916015625
z: -0.1654776930809021
visibility: 0.99992436170578
","x: 192.21885681152344
y: 209.74298095703125
z: -0.16548104584217072
visibility: 0.999914824962616
","x: 190.65904235839844
y: 209.31333923339844
z: -0.16547396779060364
visibility: 0.9999056458473206
","x: 201.66209411621094
y: 214.68881225585938
z: -0.04195825010538101
visibility: 0.9997301697731018
","x: 187.61297607421875
y: 212.69256591796875
z: -0.06785886734724045
visibility: 0.9998797178268433
","x: 197.2323760986328
y: 224.2146453857422
z: -0.13437137007713318
visibility: 0.9999362826347351
","x: 192.12615966796875
y: 224.59661865234375
z: -0.14273372292518616
visibility: 0.9999494552612305
","x: 215.07147216796875
y: 253.18914794921875
z: 0.04361950606107712
visibility: 0.9999596476554871
","x: 173.96420288085938
y: 249.9919891357422
z: -0.03923770785331726
visibility: 0.9999281167984009
","x: 231.79537963867188
