uscmakers/ReverseChoreography/data/5_sad_girlz_luv_money_amaarae.csv
,NOSE,LEFT_EYE_INNER,LEFT_EYE,LEFT_EYE_OUTER,RIGHT_EYE_INNER,RIGHT_EYE,RIGHT_EYE_OUTER,LEFT_EAR,RIGHT_EAR,MOUTH_LEFT,MOUTH_RIGHT,LEFT_SHOULDER,RIGHT_SHOULDER,LEFT_ELBOW,RIGHT_ELBOW,LEFT_WRIST,RIGHT_WRIST,LEFT_PINKY,RIGHT_PINKY,LEFT_INDEX,RIGHT_INDEX,LEFT_THUMB,RIGHT_THUMB,LEFT_HIP,RIGHT_HIP,LEFT_KNEE,RIGHT_KNEE,LEFT_ANKLE,RIGHT_ANKLE,LEFT_HEEL,RIGHT_HEEL,LEFT_FOOT_INDEX,RIGHT_FOOT_INDEX,WRIST2,THUMB_CPC2,THUMB_MCP2,THUMB_IP2,THUMB_TIP2,INDEX_FINGER_MCP2,INDEX_FINGER_PIP2,INDEX_FINGER_DIP2,INDEX_FINGER_TIP2,MIDDLE_FINGER_MCP2,MIDDLE_FINGER_PIP2,MIDDLE_FINGER_DIP2,MIDDLE_FINGER_TIP2,RING_FINGER_PIP2,RING_FINGER_DIP2,RING_FINGER_TIP2,RING_FINGER_MCP2,PINKY_MCP2,PINKY_PIP2,PINKY_DIP2,PINKY_TIP2,WRIST,THUMB_CPC,THUMB_MCP,THUMB_IP,THUMB_TIP,INDEX_FINGER_MCP,INDEX_FINGER_PIP,INDEX_FINGER_DIP,INDEX_FINGER_TIP,MIDDLE_FINGER_MCP,MIDDLE_FINGER_PIP,MIDDLE_FINGER_DIP,MIDDLE_FINGER_TIP,RING_FINGER_PIP,RING_FINGER_DIP,RING_FINGER_TIP,RING_FINGER_MCP,PINKY_MCP,PINKY_PIP,PINKY_DIP,PINKY_TIP
0,"x: 140.8412628173828
y: 197.66786193847656
z: -0.38121137022972107
visibility: 0.9999498128890991
","x: 143.1044464111328
y: 189.93939208984375
z: -0.36578238010406494
visibility: 0.9998300075531006
","x: 144.36366271972656
y: 190.16384887695312
z: -0.365802139043808
visibility: 0.9997888207435608
","x: 145.60049438476562
y: 190.52468872070312
z: -0.3658290505409241
visibility: 0.9997650980949402
","x: 139.17791748046875
y: 189.57919311523438
z: -0.37007543444633484
visibility: 0.9998701810836792
","x: 137.64149475097656
y: 189.5225830078125
z: -0.37012922763824463
visibility: 0.9998583793640137
","x: 136.0411834716797
y: 189.5654296875
z: -0.37019261717796326
visibility: 0.9998657703399658
","x: 146.78408813476562
y: 194.88742065429688
z: -0.23786231875419617
visibility: 0.999510645866394
","x: 132.72845458984375
y: 193.44430541992188
z: -0.2586461007595062
visibility: 0.9997972846031189
","x: 142.572509765625
y: 205.65057373046875
z: -0.3296263813972473
visibility: 0.9999305009841919
","x: 137.8350372314453
y: 205.52789306640625
z: -0.3357051610946655
visibility: 0.9999617338180542
","x: 160.1759490966797
y: 248.6457977294922
z: -0.11520610004663467
visibility: 0.9998917579650879
","x: 115.27571105957031
y: 240.7749786376953
z: -0.18162134289741516
visibility: 0.999984860420227
","x: 161.6143341064453
y: 314.50537109375
z: -0.048482559621334076
visibility: 0.9210423827171326
","x: 104.01649475097656
y: 311.7506103515625
z: -0.14715556800365448
visibility: 0.993382453918457
","x: 160.0728759765625
y: 370.2711181640625
z: -0.16319264471530914
visibility: 0.9109560251235962
","x: 100.66473388671875
y: 365.128662109375
z: -0.2427719086408615
visibility: 0.9855829477310181
","x: 161.70904541015625
y: 387.30963134765625
z: -0.19097839295864105
visibility: 0.8643440008163452
","x: 96.29525756835938
y: 383.37664794921875
z: -0.2765285074710846
visibility: 0.9722486734390259
","x: 158.630615234375
y: 386.9736328125
z: -0.22993104159832
visibility: 0.8720992207527161
","x: 98.82195281982422
y: 383.5133056640625
z: -0.30711981654167175
visibility: 0.9740753173828125
","x: 157.1706085205078
y: 382.4441833496094
z: -0.18111255764961243
visibility: 0.8623611927032471
","x: 100.94587707519531
y: 379.0895080566406
z: -0.2559511959552765
visibility: 0.9668184518814087
","x: 146.5887451171875
y: 369.99566650390625
z: 0.035927340388298035
visibility: 0.9992048144340515
","x: 121.62512969970703
y: 366.7234802246094
z: -0.03602159768342972
visibility: 0.999693751335144
","x: 143.29466247558594
y: 464.0628356933594
z: 0.011040274053812027
visibility: 0.9059911370277405
","x: 123.79595947265625
y: 462.8811340332031
z: -0.04329660162329674
visibility: 0.9747037887573242
","x: 128.79296875
y: 527.7123413085938
z: 0.28437086939811707
visibility: 0.7447030544281006
","x: 127.82512664794922
y: 549.9713134765625
z: 0.12493399530649185
visibility: 0.9661959409713745
","x: 124.30677032470703
y: 532.9049072265625
z: 0.30752480030059814
visibility: 0.7095491290092468
","x: 128.1215057373047
y: 561.114501953125
z: 0.1362418681383133
visibility: 0.8067346811294556
","x: 136.99765014648438
y: 562.2506103515625
z: 0.2274545431137085
visibility: 0.7982897162437439
","x: 131.45556640625
y: 577.9577026367188
z: 0.01088456530123949
visibility: 0.9436664581298828
",,,,,,,,,,,,,,,,,,,,,,,,,,,,,,,,,,,,,,,,,,
1,"x: 157.50003051757812
y: 205.40274047851562
z: -0.27358463406562805
visibility: 0.999954104423523
","x: 160.01856994628906
y: 197.35409545898438
z: -0.25893908739089966
visibility: 0.9998448491096497
","x: 161.4810791015625
y: 197.45413208007812
z: -0.2589445114135742
visibility: 0.9998078346252441
","x: 162.93380737304688
y: 197.6632537841797
z: -0.258941650390625
visibility: 0.9997863173484802
","x: 156.14903259277344
y: 197.18045043945312
z: -0.2535170316696167
visibility: 0.9998811483383179
","x: 154.890380859375
y: 197.0777587890625
z: -0.25356942415237427
visibility: 0.9998705387115479
","x: 153.6275177001953
y: 196.98487854003906
z: -0.2535982131958008
visibility: 0.9998773336410522
","x: 165.9365234375
y: 202.33262634277344
z: -0.1560288369655609
visibility: 0.9995565414428711
","x: 152.88819885253906
y: 200.84303283691406
z: -0.12961003184318542
visibility: 0.9998134970664978
","x: 160.5465545654297
y: 213.1221160888672
z: -0.23361411690711975
visibility: 0.9999367594718933
","x: 155.67913818359375
y: 213.11398315429688
z: -0.22637924551963806
visibility: 0.9999643564224243
","x: 181.86599731445312
y: 253.20753479003906
z: -0.1079903244972229
visibility: 0.9999017119407654
","x: 138.63563537597656
y: 250.54603576660156
z: -0.03484373167157173
visibility: 0.9999806880950928
","x: 188.4839324951172
y: 319.6170349121094
z: -0.07163439691066742
visibility: 0.928314208984375
","x: 130.99371337890625
y: 310.1684265136719
z: -0.10339616239070892
visibility: 0.9892187714576721
","x: 192.05914306640625
y: 377.11370849609375
z: -0.16532570123672485
visibility: 0.918205976486206
","x: 135.98133850097656
y: 337.4281311035156
z: -0.33459222316741943
visibility: 0.9849473834037781
","x: 193.70558166503906
y: 394.1604309082031
z: -0.19500139355659485
visibility: 0.8750559091567993
","x: 136.20274353027344
y: 349.2546081542969
z: -0.3864358961582184
visibility: 0.9719088077545166
","x: 189.97999572753906
y: 394.59918212890625
z: -0.2299056053161621
visibility: 0.8821938633918762
","x: 139.81396484375
y: 346.8706970214844
z: -0.4077378213405609
visibility: 0.9736719727516174
","x: 188.16282653808594
y: 388.9976501464844
z: -0.1811104118824005
visibility: 0.8725891709327698
","x: 140.56825256347656
y: 343.48443603515625
z: -0.34929919242858887
visibility: 0.9660383462905884
","x: 167.547607421875
y: 378.6964416503906
z: -0.05118148401379585
visibility: 0.9992778301239014
","x: 143.9431915283203
y: 377.59906005859375
z: 0.05103138089179993
visibility: 0.9997081756591797
","x: 155.11627197265625
y: 469.439208984375
z: -0.0875614732503891
visibility: 0.9149921536445618
","x: 140.45680236816406
y: 466.986572265625
z: 0.08136683702468872
visibility: 0.9748679399490356
","x: 164.88877868652344
y: 554.90771484375
z: 0.032027266919612885
visibility: 0.7698879241943359
","x: 154.18380737304688
y: 539.363037109375
z: 0.33935680985450745
visibility: 0.9659640789031982
","x: 170.66456604003906
y: 571.899169921875
z: 0.03487098962068558
visibility: 0.7258300185203552
","x: 159.58775329589844
y: 546.4921875
z: 0.36042875051498413
visibility: 0.8171076774597168
","x: 147.10238647460938
y: 579.2409057617188
z: -0.10819871723651886
visibility: 0.8178797364234924
","x: 142.4240264892578
y: 570.1961059570312
z: 0.2830916941165924
visibility: 0.94666987657547
",,,,,,,,,,,,,,,,,,,,,,,,,,,,,,,,,,,,,,,,,,
2,"x: 162.80258178710938
y: 204.75267028808594
z: -0.28973060846328735
visibility: 0.9999452233314514
","x: 165.41787719726562
y: 196.791015625
z: -0.2803904116153717
visibility: 0.999830961227417
","x: 166.82565307617188
y: 196.9174041748047
z: -0.28042271733283997
visibility: 0.9998033046722412
","x: 168.2165069580078
y: 197.1416015625
z: -0.2804543375968933
visibility: 0.9997837543487549
","x: 162.0380859375
y: 196.43634033203125
z: -0.269614577293396
visibility: 0.9998607039451599
","x: 161.03265380859375
y: 196.25672912597656
z: -0.2696639597415924
visibility: 0.9998477101325989
","x: 160.0760955810547
y: 196.12484741210938
z: -0.2696777582168579
visibility: 0.9998549818992615
","x: 171.77197265625
y: 201.5419921875
z: -0.18928691744804382
visibility: 0.9995702505111694
","x: 160.97608947753906
y: 199.8619384765625
z: -0.1397826075553894
visibility: 0.999747097492218
","x: 165.78402709960938
y: 212.5160369873047
z: -0.2536220848560333
visibility: 0.9999300241470337
","x: 161.10813903808594
y: 212.37307739257812
z: -0.23879596590995789
visibility: 0.9999433159828186
","x: 188.69851684570312
y: 252.35887145996094
z: -0.16635271906852722
visibility: 0.9999099373817444
","x: 146.49114990234375
y: 248.936767578125
z: -0.023655720055103302
visibility: 0.9999673366546631
","x: 195.41644287109375
y: 316.25396728515625
z: -0.18941017985343933
visibility: 0.934770405292511
","x: 139.33482360839844
y: 310.5826110839844
z: 0.006110469810664654
visibility: 0.9776308536529541
","x: 189.8444061279297
y: 361.9293212890625
z: -0.303925484418869
visibility: 0.9226155281066895
","x: 137.0518341064453
y: 339.0329284667969
z: -0.1200999766588211
visibility: 0.977867603302002
","x: 188.31907653808594
y: 378.1680603027344
z: -0.3452109694480896
visibility: 0.8812252283096313
","x: 135.31324768066406
y: 352.2789306640625
z: -0.15529197454452515
visibility: 0.9627676606178284
","x: 183.51206970214844
y: 376.0802917480469
z: -0.36860159039497375
visibility: 0.8877962231636047
","x: 137.242919921875
y: 348.193359375
z: -0.18556120991706848
visibility: 0.9650379419326782
","x: 182.68679809570312
y: 370.15093994140625
z: -0.314518004655838
visibility: 0.8770608901977539
","x: 138.5011749267578
y: 347.2414855957031
z: -0.1363014280796051
visibility: 0.9558776617050171
","x: 170.86907958984375
y: 377.21484375
z: -0.07399410754442215
visibility: 0.9993308186531067
","x: 149.685791015625
y: 377.1146240234375
z: 0.07392729073762894
visibility: 0.999683141708374
","x: 162.74681091308594
y: 464.9203186035156
z: -0.148223876953125
visibility: 0.9223443269729614
","x: 153.41282653808594
y: 461.63824462890625
z: 0.07487761974334717
visibility: 0.9731554985046387
","x: 166.23828125
y: 555.2872314453125
z: -0.10031869262456894
visibility: 0.7925443053245544
","x: 180.17776489257812
y: 532.9979858398438
z: 0.22692330181598663
visibility: 0.9670594334602356
","x: 168.77426147460938
y: 572.7939453125
z: -0.1039980873465538
visibility: 0.748457133769989
","x: 190.76243591308594
y: 542.038818359375
z: 0.23789110779762268
visibility: 0.8325895667076111
","x: 154.49085998535156
y: 581.07177734375
z: -0.24685731530189514
visibility: 0.8350704312324524
","x: 166.52127075195312
y: 565.2657470703125
z: 0.15185528993606567
visibility: 0.9489774703979492
",,,,,,,,,,,,,,,,,,,,,,,,,,,,,,,,,,,,,,,,,,
3,"x: 168.64634704589844
y: 202.01414489746094
z: -0.2866863012313843
visibility: 0.9999392628669739
","x: 170.70750427246094
y: 194.1036834716797
z: -0.27394983172416687
visibility: 0.9998186230659485
","x: 172.095458984375
y: 194.1558074951172
z: -0.27397722005844116
visibility: 0.9997963905334473
","x: 173.53103637695312
y: 194.28225708007812
z: -0.27400487661361694
visibility: 0.9997767806053162
","x: 167.19818115234375
y: 194.1669921875
z: -0.2661457657814026
visibility: 0.9998482465744019
","x: 166.10243225097656
y: 194.17507934570312
z: -0.26619952917099
visibility: 0.9998331069946289
","x: 165.07647705078125
y: 194.17880249023438
z: -0.26623207330703735
visibility: 0.9998392462730408
","x: 176.2199249267578
y: 198.45115661621094
z: -0.1744089424610138
visibility: 0.9995714426040649
","x: 165.7574005126953
y: 197.9586181640625
z: -0.13540330529212952
visibility: 0.999699056148529
","x: 171.62472534179688
y: 209.85302734375
z: -0.24685093760490417
visibility: 0.9999277591705322
","x: 167.29212951660156
y: 209.88330078125
z: -0.2358524054288864
visibility: 0.9999327063560486
","x: 191.86932373046875
y: 247.49166870117188
z: -0.14617647230625153
visibility: 0.9999174475669861
","x: 150.1313018798828
y: 246.19354248046875
z: -0.02378428354859352
visibility: 0.9999638199806213
","x: 199.2077178955078
y: 307.60064697265625
z: -0.18068601191043854
visibility: 0.9404176473617554
","x: 143.29730224609375
y: 306.69390869140625
z: 0.011327190324664116
visibility: 0.9712604284286499
","x: 187.64096069335938
y: 333.45513916015625
z: -0.34966376423835754
visibility: 0.9273316860198975
","x: 141.03746032714844
y: 344.53985595703125
z: -0.11012071371078491
visibility: 0.9742428064346313
","x: 184.63067626953125
y: 345.3661804199219
z: -0.3990129828453064
visibility: 0.8879342675209045
","x: 138.7980194091797
y: 357.4920959472656
z: -0.14556631445884705
visibility: 0.9579493403434753
","x: 181.26504516601562
y: 336.5403747558594
z: -0.4147869646549225
visibility: 0.8938595652580261
","x: 140.49452209472656
y: 353.5259704589844
z: -0.17797759175300598
visibility: 0.9603972434997559
","x: 181.424072265625
y: 332.35748291015625
z: -0.3584931194782257
visibility: 0.8815280199050903
","x: 141.6910400390625
y: 353.7906188964844
z: -0.1264333426952362
visibility: 0.95038241147995
","x: 180.26504516601562
y: 366.50372314453125
z: -0.06424135714769363
visibility: 0.9993689060211182
","x: 157.60855102539062
y: 370.31591796875
z: 0.06425934284925461
visibility: 0.9996576905250549
","x: 171.3221435546875
y: 452.3465270996094
z: -0.1407131850719452
visibility: 0.9286490678787231
","x: 163.80982971191406
y: 452.6785583496094
z: 0.10430167615413666
visibility: 0.9653304219245911
","x: 174.93394470214844
y: 549.58837890625
z: -0.09862268716096878
visibility: 0.8125145435333252
","x: 182.9212188720703
y: 533.365234375
z: 0.26153814792633057
visibility: 0.9652411937713623
","x: 178.45272827148438
y: 563.4033813476562
z: -0.10302336513996124
visibility: 0.7650361657142639
","x: 191.0413818359375
y: 545.7279052734375
z: 0.27080339193344116
visibility: 0.8418314456939697
","x: 158.18409729003906
y: 577.3612060546875
z: -0.2522687315940857
visibility: 0.8501232862472534
","x: 167.5966339111328
y: 559.7399291992188
z: 0.1799258440732956
visibility: 0.9495638012886047
",,,,,,,,,,,,,,,,,,,,,,,,,,,,,,,,,,,,,,,,,,
4,"x: 169.5528106689453
y: 202.0806884765625
z: -0.2753397226333618
visibility: 0.9999316334724426
","x: 172.52328491210938
y: 193.995361328125
z: -0.2625288963317871
visibility: 0.9998053312301636
","x: 173.9513702392578
y: 194.04815673828125
z: -0.26256805658340454
visibility: 0.9997885823249817
","x: 175.49334716796875
y: 194.19297790527344
z: -0.262610524892807
visibility: 0.9997690916061401
","x: 169.0348663330078
y: 194.00668334960938
z: -0.2539653182029724
visibility: 0.9998316168785095
","x: 168.0193328857422
y: 193.9823760986328
z: -0.2539862394332886
visibility: 0.9998131394386292
","x: 167.1110076904297
y: 193.9698486328125
z: -0.2540036141872406
visibility: 0.9998173117637634
","x: 179.23666381835938
y: 198.38331604003906
z: -0.16522076725959778
visibility: 0.9995830655097961
","x: 167.75765991210938
y: 197.67660522460938
z: -0.1227816715836525
visibility: 0.9996558427810669
","x: 172.49920654296875
y: 209.7959747314453
z: -0.23658964037895203
visibility: 0.9999282360076904
","x: 168.04470825195312
y: 209.78614807128906
z: -0.2246994525194168
visibility: 0.9999262690544128
","x: 195.11366271972656
y: 247.014404296875
z: -0.14266067743301392
visibility: 0.999924898147583
","x: 153.63851928710938
y: 246.9426727294922
z: 0.006256990134716034
visibility: 0.9999613165855408
","x: 205.06130981445312
y: 307.8164367675781
z: -0.22179916501045227
visibility: 0.9461793303489685
","x: 146.70535278320312
y: 306.7860107421875
z: 0.05272286385297775
visibility: 0.9645535945892334
","x: 186.78086853027344
y: 316.524658203125
z: -0.4131243824958801
visibility: 0.9338136315345764
","x: 143.5266876220703
y: 352.28045654296875
z: -0.06399986892938614
visibility: 0.9706791043281555
","x: 181.92034912109375
y: 320.3802185058594
z: -0.46517252922058105
visibility: 0.8973210453987122
","x: 141.37554931640625
y: 363.35028076171875
z: -0.09310872852802277
visibility: 0.9522887468338013
","x: 179.4978790283203
y: 311.74224853515625
z: -0.4673801064491272
visibility: 0.902647852897644
","x: 143.19053649902344
y: 362.77789306640625
z: -0.1267722249031067
visibility: 0.9548991918563843
","x: 180.52627563476562
y: 309.884521484375
z: -0.41690826416015625
visibility: 0.8901553750038147
","x: 144.40924072265625
y: 361.6827697753906
z: -0.08073349297046661
visibility: 0.944116473197937
","x: 186.071533203125
y: 366.7657165527344
z: -0.07619921863079071
visibility: 0.999354898929596
","x: 162.9143829345703
y: 370.1477355957031
z: 0.076238252222538
visibility: 0.9995656609535217
","x: 177.86093139648438
y: 453.8194274902344
z: -0.10981036722660065
visibility: 0.9345636367797852
","x: 171.04872131347656
y: 454.3167419433594
z: 0.09874315559864044
visibility: 0.9543642997741699
","x: 189.82484436035156
y: 546.531982421875
z: -0.02415882609784603
visibility: 0.830369234085083
","x: 185.4187469482422
y: 535.72998046875
z: 0.235585018992424
visibility: 0.9617193937301636
","x: 193.5000457763672
y: 559.2449340820312
z: -0.023790698498487473
visibility: 0.7788618206977844
","x: 190.3727569580078
y: 545.8240966796875
z: 0.24218495190143585
visibility: 0.8483824133872986
","x: 174.87579345703125
y: 575.2403564453125
z: -0.168077751994133
visibility: 0.8635863065719604
","x: 168.319580078125
y: 561.135498046875
z: 0.13898731768131256
visibility: 0.9497643113136292
",,,,,,,,,,,,,,,,,,,,,,,,,,,,,,,,,,,,,,,,,,
5,"x: 174.10745239257812
y: 204.26480102539062
z: -0.2751493453979492
visibility: 0.9999322295188904
","x: 176.86434936523438
y: 195.95506286621094
z: -0.2616531252861023
visibility: 0.9998088479042053
","x: 178.2937774658203
y: 195.87481689453125
z: -0.26169490814208984
visibility: 0.9997954368591309
","x: 179.80783081054688
y: 195.88583374023438
z: -0.26173490285873413
visibility: 0.9997766613960266
","x: 173.21261596679688
y: 195.98760986328125
z: -0.25616997480392456
visibility: 0.999829888343811
","x: 172.11854553222656
y: 195.8551025390625
z: -0.2561761438846588
visibility: 0.9998116493225098
","x: 171.14491271972656
y: 195.75509643554688
z: -0.2561805844306946
visibility: 0.9998153448104858
","x: 182.90762329101562
y: 199.4747772216797
z: -0.15620195865631104
visibility: 0.9996086955070496
","x: 170.86985778808594
y: 199.12351989746094
z: -0.12665218114852905
visibility: 0.9996557235717773
","x: 177.00086975097656
y: 211.85174560546875
z: -0.23273630440235138
visibility: 0.9999322295188904
","x: 172.46151733398438
y: 211.82177734375
z: -0.224613219499588
visibility: 0.9999281167984009
","x: 198.86431884765625
y: 245.7235565185547
z: -0.11670118570327759
visibility: 0.9999317526817322
","x: 156.43569946289062
y: 248.13067626953125
z: -0.005364634096622467
visibility: 0.9999619126319885
","x: 208.38327026367188
y: 308.300048828125
z: -0.19002075493335724
visibility: 0.9511393308639526
","x: 149.38282775878906
y: 309.054931640625
z: 0.04033300653100014
visibility: 0.9641177654266357
","x: 187.85000610351562
y: 313.6884460449219
z: -0.4052243232727051
visibility: 0.939656674861908
","x: 143.724609375
y: 355.02984619140625
z: -0.08060973137617111
visibility: 0.9710712432861328
","x: 182.03512573242188
y: 315.7686462402344
z: -0.46065863966941833
visibility: 0.905884861946106
","x: 141.22842407226562
y: 368.27081298828125
z: -0.11453299224376678
visibility: 0.9523988962173462
","x: 179.8984375
y: 306.8396301269531
z: -0.46538180112838745
visibility: 0.9106252193450928
","x: 142.4968719482422
y: 366.8193359375
z: -0.14899246394634247
visibility: 0.9549630880355835
","x: 181.17922973632812
y: 304.78948974609375
z: -0.4107748568058014
visibility: 0.8979952335357666
","x: 143.91249084472656
y: 364.60308837890625
z: -0.09773896634578705
visibility: 0.9441452622413635
","x: 190.43064880371094
y: 366.9320068359375
z: -0.05313023179769516
visibility: 0.9993861317634583
","x: 166.7537841796875
y: 370.1609802246094
z: 0.05310026556253433
visibility: 0.999568521976471
","x: 189.21633911132812
y: 454.8004150390625
z: -0.06420054286718369
visibility: 0.9409231543540955
","x: 174.08868408203125
y: 454.4073486328125
z: 0.07939569652080536
visibility: 0.958154559135437
","x: 201.03794860839844
y: 545.7141723632812
z: 0.10195650160312653
visibility: 0.8471300601959229
","x: 183.9932861328125
y: 536.8138427734375
z: 0.26284462213516235
visibility: 0.9649897813796997
","x: 203.56666564941406
y: 556.265625
z: 0.1082134023308754
visibility: 0.7931705713272095
","x: 189.5924072265625
y: 546.734130859375
z: 0.27364587783813477
visibility: 0.8601776957511902
","x: 195.22984313964844
y: 572.0599975585938
z: -0.09437961876392365
visibility: 0.8767922520637512
","x: 172.20953369140625
y: 562.4342651367188
z: 0.1627875566482544
visibility: 0.9541009068489075
","x: 185.04335021972656
y: 313.92724609375
z: 0.0
","x: 182.09713745117188
y: 308.64422607421875
z: 0.0002165133919334039
","x: 178.0381317138672
y: 304.9056396484375
z: -0.001831374829635024
","x: 174.63168334960938
y: 304.09698486328125
z: -0.004256374668329954
","x: 171.86907958984375
y: 303.9654235839844
z: -0.006132147274911404
","x: 178.7204132080078
y: 301.1537170410156
z: -0.005016718991100788
","x: 173.96640014648438
y: 306.4532775878906
z: -0.008661762811243534
","x: 175.4318084716797
y: 307.5145263671875
z: -0.009282509796321392
","x: 177.004150390625
y: 306.39111328125
z: -0.00937664695084095
","x: 179.83946228027344
y: 305.10443115234375
z: -0.0075473906472325325
","x: 175.15673828125
y: 310.8924560546875
z: -0.011299584992229939
","x: 176.8942108154297
y: 310.611083984375
z: -0.010460082441568375
","x: 178.3285369873047
y: 308.29534912109375
z: -0.009681420400738716
","x: 180.83160400390625
y: 309.7306213378906
z: -0.010105418041348457
","x: 176.52330017089844
y: 314.64764404296875
z: -0.01323731243610382
","x: 178.254150390625
y: 314.266845703125
z: -0.010872452519834042
","x: 179.7988739013672
y: 312.0712890625
z: -0.00911406334489584
","x: 181.72845458984375
y: 314.5848388671875
z: -0.012655164115130901
","x: 178.12240600585938
y: 317.9919738769531
z: -0.014823561534285545
","x: 179.34957885742188
y: 317.4466552734375
z: -0.01327864732593298
","x: 180.8187255859375
y: 315.67242431640625
z: -0.01187673956155777
",,,,,,,,,,,,,,,,,,,,,
6,"x: 174.10745239257812
y: 204.26480102539062
z: -0.2751493453979492
visibility: 0.9999322295188904
","x: 176.86434936523438
y: 195.95506286621094
z: -0.2616531252861023
visibility: 0.9998088479042053
","x: 178.2937774658203
y: 195.87481689453125
z: -0.26169490814208984
visibility: 0.9997954368591309
","x: 179.80783081054688
y: 195.88583374023438
z: -0.26173490285873413
visibility: 0.9997766613960266
","x: 173.21261596679688
y: 195.98760986328125
z: -0.25616997480392456
visibility: 0.999829888343811
","x: 172.11854553222656
y: 195.8551025390625
z: -0.2561761438846588
visibility: 0.9998116493225098
","x: 171.14491271972656
y: 195.75509643554688
z: -0.2561805844306946
visibility: 0.9998153448104858
","x: 182.90762329101562
y: 199.4747772216797
z: -0.15620195865631104
visibility: 0.9996086955070496
","x: 170.86985778808594
y: 199.12351989746094
z: -0.12665218114852905
visibility: 0.9996557235717773
","x: 177.00086975097656
y: 211.85174560546875
z: -0.23273630440235138
visibility: 0.9999322295188904
","x: 172.46151733398438
y: 211.82177734375
z: -0.224613219499588
visibility: 0.9999281167984009
","x: 198.86431884765625
y: 245.7235565185547
z: -0.11670118570327759
visibility: 0.9999317526817322
","x: 156.43569946289062
y: 248.13067626953125
z: -0.005364634096622467
visibility: 0.9999619126319885
","x: 208.38327026367188
y: 308.300048828125
z: -0.19002075493335724
visibility: 0.9511393308639526
","x: 149.38282775878906
y: 309.054931640625
z: 0.04033300653100014
visibility: 0.9641177654266357
","x: 187.85000610351562
y: 313.6884460449219
z: -0.4052243232727051
visibility: 0.939656674861908
","x: 143.724609375
y: 355.02984619140625
z: -0.08060973137617111
visibility: 0.9710712432861328
","x: 182.03512573242188
y: 315.7686462402344
z: -0.46065863966941833
visibility: 0.905884861946106
","x: 141.22842407226562
y: 368.27081298828125
z: -0.11453299224376678
visibility: 0.9523988962173462
","x: 179.8984375
y: 306.8396301269531
z: -0.46538180112838745
visibility: 0.9106252193450928
","x: 142.4968719482422
y: 366.8193359375
z: -0.14899246394634247
visibility: 0.9549630880355835
","x: 181.17922973632812
y: 304.78948974609375
z: -0.4107748568058014
visibility: 0.8979952335357666
","x: 143.91249084472656
y: 364.60308837890625
z: -0.09773896634578705
visibility: 0.9441452622413635
","x: 190.43064880371094
y: 366.9320068359375
z: -0.05313023179769516
visibility: 0.9993861317634583
","x: 166.7537841796875
y: 370.1609802246094
z: 0.05310026556253433
visibility: 0.999568521976471
","x: 189.21633911132812
y: 454.8004150390625
z: -0.06420054286718369
visibility: 0.9409231543540955
","x: 174.08868408203125
y: 454.4073486328125
z: 0.07939569652080536
visibility: 0.958154559135437
","x: 201.03794860839844
y: 545.7141723632812
z: 0.10195650160312653
visibility: 0.8471300601959229
","x: 183.9932861328125
y: 536.8138427734375
z: 0.26284462213516235
visibility: 0.9649897813796997
","x: 203.56666564941406
y: 556.265625
z: 0.1082134023308754
visibility: 0.7931705713272095
","x: 189.5924072265625
y: 546.734130859375
z: 0.27364587783813477
visibility: 0.8601776957511902
","x: 195.22984313964844
y: 572.0599975585938
z: -0.09437961876392365
visibility: 0.8767922520637512
","x: 172.20953369140625
y: 562.4342651367188
z: 0.1627875566482544
visibility: 0.9541009068489075
","x: 185.04335021972656
y: 313.92724609375
z: 0.0
","x: 182.09713745117188
y: 308.64422607421875
z: 0.0002165133919334039
","x: 178.0381317138672
y: 304.9056396484375
z: -0.001831374829635024
","x: 174.63168334960938
y: 304.09698486328125
z: -0.004256374668329954
","x: 171.86907958984375
y: 303.9654235839844
z: -0.006132147274911404
","x: 178.7204132080078
y: 301.1537170410156
z: -0.005016718991100788
","x: 173.96640014648438
y: 306.4532775878906
z: -0.008661762811243534
","x: 175.4318084716797
y: 307.5145263671875
z: -0.009282509796321392
","x: 177.004150390625
y: 306.39111328125
z: -0.00937664695084095
","x: 179.83946228027344
y: 305.10443115234375
z: -0.0075473906472325325
","x: 175.15673828125
y: 310.8924560546875
z: -0.011299584992229939
","x: 176.8942108154297
y: 310.611083984375
z: -0.010460082441568375
","x: 178.3285369873047
y: 308.29534912109375
z: -0.009681420400738716
","x: 180.83160400390625
y: 309.7306213378906
z: -0.010105418041348457
","x: 176.52330017089844
y: 314.64764404296875
z: -0.01323731243610382
","x: 178.254150390625
y: 314.266845703125
z: -0.010872452519834042
","x: 179.7988739013672
y: 312.0712890625
z: -0.00911406334489584
","x: 181.72845458984375
y: 314.5848388671875
z: -0.012655164115130901
","x: 178.12240600585938
y: 317.9919738769531
z: -0.014823561534285545
","x: 179.34957885742188
y: 317.4466552734375
z: -0.01327864732593298
","x: 180.8187255859375
y: 315.67242431640625
z: -0.01187673956155777
",,,,,,,,,,,,,,,,,,,,,
7,"x: 178.71578979492188
y: 208.38558959960938
z: -0.27937406301498413
visibility: 0.9999212622642517
","x: 180.8765869140625
y: 199.02963256835938
z: -0.270652711391449
visibility: 0.9997764825820923
","x: 182.4024200439453
y: 198.31246948242188
z: -0.2706959843635559
visibility: 0.9997630715370178
","x: 184.0298309326172
y: 197.7208251953125
z: -0.2707337737083435
visibility: 0.9997445344924927
","x: 177.15089416503906
y: 200.324951171875
z: -0.26131221652030945
visibility: 0.9997994899749756
","x: 176.0336151123047
y: 200.43646240234375
z: -0.2613224685192108
visibility: 0.9997702836990356
","x: 175.05398559570312
y: 200.5634765625
z: -0.26134157180786133
visibility: 0.9997699856758118
","x: 188.3827667236328
y: 200.1786651611328
z: -0.17384296655654907
visibility: 0.9995756149291992
","x: 176.26727294921875
y: 202.28021240234375
z: -0.13552255928516388
visibility: 0.9995391964912415
","x: 182.7420196533203
y: 215.44635009765625
z: -0.24245807528495789
visibility: 0.9999186396598816
","x: 178.5354461669922
y: 216.1341552734375
z: -0.22990095615386963
visibility: 0.9999081492424011
","x: 207.36903381347656
y: 244.4283905029297
z: -0.14107370376586914
visibility: 0.9999324083328247
","x: 165.18856811523438
y: 248.22801208496094
z: -0.028062622994184494
visibility: 0.999958336353302
","x: 207.8716583251953
y: 305.5738220214844
z: -0.18082167208194733
visibility: 0.9546267986297607
","x: 155.29034423828125
y: 308.5828857421875
z: -0.0041804807260632515
visibility: 0.9565573334693909
","x: 187.54454040527344
y: 322.04534912109375
z: -0.3240850567817688
visibility: 0.9430797100067139
","x: 144.68255615234375
y: 355.642578125
z: -0.1182679533958435
visibility: 0.9659186005592346
","x: 183.85394287109375
y: 318.7723083496094
z: -0.3667082190513611
visibility: 0.9102441668510437
","x: 140.89588928222656
y: 370.6719970703125
z: -0.14374317228794098
visibility: 0.9456512331962585
","x: 180.94515991210938
y: 323.5143737792969
z: -0.3859610855579376
visibility: 0.9145322442054749
","x: 141.44863891601562
y: 369.5294189453125
z: -0.17302720248699188
visibility: 0.9485323429107666
","x: 181.3053436279297
y: 322.5281982421875
z: -0.33544525504112244
visibility: 0.9003950357437134
","x: 143.07142639160156
y: 365.26324462890625
z: -0.10690480470657349
visibility: 0.9376518130302429
","x: 200.2642364501953
y: 366.5980224609375
z: -0.045416269451379776
visibility: 0.999409556388855
","x: 175.87191772460938
y: 370.00201416015625
z: 0.04526649788022041
visibility: 0.9995889067649841
","x: 207.4365692138672
y: 455.17388916015625
z: -0.03806827962398529
visibility: 0.9464429020881653
","x: 180.48846435546875
y: 455.10675048828125
z: 0.06300269812345505
visibility: 0.9616498351097107
","x: 210.73391723632812
y: 544.4251708984375
z: 0.089647576212883
visibility: 0.8619873523712158
","x: 185.99734497070312
y: 539.3663330078125
z: 0.2559043765068054
visibility: 0.968013346195221
","x: 207.6068878173828
y: 555.2423706054688
z: 0.09267321974039078
visibility: 0.8087378740310669
","x: 190.506103515625
y: 549.0305786132812
z: 0.24527513980865479
visibility: 0.8697941303253174
","x: 220.22640991210938
y: 568.908203125
z: -0.0510731041431427
visibility: 0.8882874250411987
","x: 169.04733276367188
y: 563.3475952148438
z: 0.11649004369974136
visibility: 0.9577892422676086
",,,,,,,,,,,,,,,,,,,,,,,,,,,,,,,,,,,,,,,,,,
8,"x: 184.72357177734375
y: 211.24032592773438
z: -0.3181050419807434
visibility: 0.9998772144317627
","x: 186.95066833496094
y: 200.94143676757812
z: -0.316557377576828
visibility: 0.9996286630630493
","x: 188.53228759765625
y: 200.1851043701172
z: -0.31661152839660645
visibility: 0.9996228814125061
","x: 190.18887329101562
y: 199.48519897460938
z: -0.31665605306625366
visibility: 0.9995924234390259
","x: 183.1269989013672
y: 201.9740447998047
z: -0.3037816286087036
visibility: 0.999655544757843
","x: 182.02267456054688
y: 201.94078063964844
z: -0.3038271963596344
visibility: 0.9996047616004944
","x: 181.0342254638672
y: 201.89955139160156
z: -0.30391111969947815
visibility: 0.9996036291122437
","x: 193.9921875
y: 201.73745727539062
z: -0.2419697791337967
visibility: 0.9993385076522827
","x: 181.95864868164062
y: 203.68003845214844
z: -0.18680289387702942
visibility: 0.9992078542709351
","x: 188.40402221679688
y: 217.98983764648438
z: -0.2879798114299774
visibility: 0.999839186668396
","x: 184.3311004638672
y: 218.76524353027344
z: -0.27071520686149597
visibility: 0.999819815158844
","x: 213.4105987548828
y: 244.57089233398438
z: -0.18666930496692657
visibility: 0.9999160170555115
","x: 170.4610595703125
y: 249.56451416015625
z: -0.08458953350782394
visibility: 0.9999526143074036
","x: 212.98870849609375
y: 306.6697998046875
z: -0.19172337651252747
visibility: 0.9551900029182434
","x: 159.10299682617188
y: 310.75823974609375
z: -0.04371057450771332
visibility: 0.9567405581474304
","x: 200.4722442626953
y: 352.6886291503906
z: -0.3047337830066681
visibility: 0.9420544505119324
","x: 146.9949188232422
y: 355.6387939453125
z: -0.16310688853263855
visibility: 0.9664021134376526
","x: 198.39126586914062
y: 367.0263977050781
z: -0.3459014296531677
visibility: 0.9083143472671509
","x: 142.9009246826172
y: 371.7447204589844
z: -0.1887672245502472
visibility: 0.946111798286438
","x: 195.2095184326172
y: 367.664794921875
z: -0.3689207136631012
visibility: 0.9122118949890137
","x: 143.96141052246094
y: 370.7171325683594
z: -0.2282450646162033
visibility: 0.9490253925323486
","x: 195.2000732421875
y: 361.8414306640625
z: -0.31620854139328003
visibility: 0.8958348035812378
","x: 146.1073760986328
y: 365.3454895019531
z: -0.17586305737495422
visibility: 0.9384689331054688
","x: 205.53126525878906
y: 367.2262268066406
z: -0.03135170787572861
visibility: 0.9994065165519714
","x: 180.312744140625
y: 370.09716796875
z: 0.031230062246322632
visibility: 0.9996047616004944
","x: 212.27394104003906
y: 456.8515319824219
z: -0.0060020750388503075
visibility: 0.9512207508087158
","x: 182.43209838867188
y: 458.503173828125
z: 0.058648765087127686
visibility: 0.9649338126182556
","x: 212.34451293945312
y: 543.9765625
z: 0.13028845191001892
visibility: 0.8751617670059204
","x: 187.12413024902344
y: 540.2322998046875
z: 0.2405957281589508
visibility: 0.9706985950469971
","x: 208.90396118164062
y: 554.5275268554688
z: 0.13501033186912537
visibility: 0.822505533695221
","x: 192.4882049560547
y: 549.352294921875
z: 0.24234271049499512
visibility: 0.8772754073143005
","x: 225.4901885986328
y: 567.5279541015625
z: 0.008390574716031551
visibility: 0.8983718752861023
","x: 171.07821655273438
y: 564.0238647460938
z: 0.11178237199783325
visibility: 0.9610915780067444
",,,,,,,,,,,,,,,,,,,,,,,,,,,,,,,,,,,,,,,,,,
9,"x: 190.58621215820312
y: 213.99258422851562
z: -0.3051035702228546
visibility: 0.9998806715011597
","x: 192.95330810546875
y: 203.64901733398438
z: -0.3012612760066986
visibility: 0.9996352791786194
","x: 194.5454864501953
y: 202.80099487304688
z: -0.30131834745407104
visibility: 0.9996291399002075
","x: 196.2388458251953
y: 202.01901245117188
z: -0.3013351857662201
visibility: 0.9995998740196228
","x: 188.9512481689453
y: 204.72329711914062
z: -0.2904951572418213
visibility: 0.9996560215950012
","x: 187.86520385742188
y: 204.63059997558594
z: -0.29051473736763
visibility: 0.999601423740387
","x: 186.84043884277344
y: 204.53863525390625
z: -0.29055753350257874
visibility: 0.9995942115783691
","x: 199.9635772705078
y: 203.5026397705078
z: -0.23458710312843323
visibility: 0.9993576407432556
","x: 187.48216247558594
y: 205.77618408203125
z: -0.17252962291240692
visibility: 0.999174952507019
","x: 194.42779541015625
y: 220.29676818847656
z: -0.2717786431312561
visibility: 0.9998400807380676
","x: 189.95399475097656
y: 220.75177001953125
z: -0.2572975754737854
visibility: 0.9998145699501038
","x: 219.94189453125
y: 244.71173095703125
z: -0.1668696254491806
visibility: 0.9999181032180786
","x: 176.20860290527344
y: 251.32135009765625
z: -0.0718359723687172
visibility: 0.9999489188194275
","x: 223.36849975585938
y: 310.3625793457031
z: -0.12231317907571793
visibility: 0.9585906267166138
","x: 168.01406860351562
y: 311.46685791015625
z: -0.033389862626791
visibility: 0.95513516664505
","x: 219.48321533203125
y: 367.9981994628906
z: -0.2122683972120285
visibility: 0.9465013146400452
","x: 153.7765655517578
y: 351.00579833984375
z: -0.1674126386642456
visibility: 0.9674341082572937
","x: 219.5675811767578
y: 385.8642272949219
z: -0.24379980564117432
visibility: 0.9146623611450195
","x: 148.84840393066406
y: 367.6029052734375
z: -0.192840576171875
visibility: 0.9479276537895203
","x: 215.03482055664062
y: 383.595703125
z: -0.27680933475494385
visibility: 0.9182553291320801
","x: 149.29812622070312
y: 364.9545593261719
z: -0.23711863160133362
visibility: 0.9508426785469055
","x: 214.1338348388672
y: 377.6974182128906
z: -0.2257581502199173
visibility: 0.9025344252586365
","x: 151.63775634765625
y: 357.92291259765625
z: -0.185440331697464
visibility: 0.9407213926315308
","x: 211.21670532226562
y: 371.21209716796875
z: -0.019291743636131287
visibility: 0.9994301795959473
","x: 186.348388671875
y: 371.74072265625
z: 0.019223051145672798
visibility: 0.9996242523193359
","x: 216.0826873779297
y: 457.5386047363281
z: -0.008584809489548206
visibility: 0.9555546641349792
","x: 182.47503662109375
y: 458.5229797363281
z: 0.030060287564992905
visibility: 0.9681058526039124
","x: 213.22227478027344
y: 543.517578125
z: 0.1381782591342926
visibility: 0.8869784474372864
","x: 185.88583374023438
y: 540.37841796875
z: 0.1748250424861908
visibility: 0.9733275771141052
","x: 208.97979736328125
y: 554.1207275390625
z: 0.144343301653862
visibility: 0.8359555006027222
","x: 190.84158325195312
y: 549.8447875976562
z: 0.1800418198108673
visibility: 0.8859941959381104
","x: 227.05406188964844
y: 566.4759521484375
z: 0.0280002411454916
visibility: 0.9074515104293823
","x: 169.94297790527344
y: 564.3807373046875
z: 0.06484827399253845
visibility: 0.9643865823745728
",,,,,,,,,,,,,,,,,,,,,,,,,,,,,,,,,,,,,,,,,,
10,"x: 198.34475708007812
y: 220.79873657226562
z: -0.3292805552482605
visibility: 0.9998919367790222
","x: 200.31619262695312
y: 211.78892517089844
z: -0.3214550316333771
visibility: 0.999669075012207
","x: 201.86947631835938
y: 211.14654541015625
z: -0.32144469022750854
visibility: 0.9996628761291504
","x: 203.5458984375
y: 210.43255615234375
z: -0.3214433789253235
visibility: 0.9996364116668701
","x: 196.4692840576172
y: 211.84170532226562
z: -0.31588244438171387
visibility: 0.9996881484985352
","x: 195.40469360351562
y: 211.3896942138672
z: -0.31593090295791626
visibility: 0.9996386766433716
","x: 194.4425811767578
y: 210.97647094726562
z: -0.3159274458885193
visibility: 0.9996320605278015
","x: 207.31158447265625
y: 209.63743591308594
z: -0.2240666151046753
visibility: 0.9994164109230042
","x: 194.8802490234375
y: 210.7877960205078
z: -0.19602519273757935
visibility: 0.9992516040802002
","x: 202.00599670410156
y: 226.94146728515625
z: -0.28755274415016174
visibility: 0.9998545050621033
","x: 197.7147674560547
y: 226.81089782714844
z: -0.28039801120758057
visibility: 0.9998311996459961
","x: 228.87481689453125
y: 249.46363830566406
z: -0.12517425417900085
visibility: 0.9999231100082397
","x: 183.86204528808594
y: 253.16603088378906
z: -0.1021861582994461
visibility: 0.9999518990516663
","x: 241.29006958007812
y: 310.40460205078125
z: -0.06708625704050064
visibility: 0.9624189734458923
","x: 177.0071563720703
y: 311.801513671875
z: -0.12452590465545654
visibility: 0.9574733972549438
","x: 242.3417510986328
y: 366.1349792480469
z: -0.14972825348377228
visibility: 0.9513893723487854
","x: 166.4300079345703
y: 340.0337219238281
z: -0.33372601866722107
visibility: 0.9698584079742432
","x: 242.385009765625
y: 382.52911376953125
z: -0.17466673254966736
visibility: 0.9217929244041443
","x: 160.820556640625
y: 347.70880126953125
z: -0.3767234683036804
visibility: 0.9516856670379639
","x: 238.72714233398438
y: 380.09405517578125
z: -0.20855805277824402
visibility: 0.9251403212547302
","x: 160.5464324951172
y: 343.4242248535156
z: -0.407083123922348
visibility: 0.9544326663017273
","x: 237.8423309326172
y: 375.05023193359375
z: -0.1633560061454773
visibility: 0.9105432629585266
","x: 163.02984619140625
y: 341.2873840332031
z: -0.35078731179237366
visibility: 0.9448337554931641
","x: 220.31504821777344
y: 371.1956481933594
z: -0.0015190353151410818
visibility: 0.9994428753852844
","x: 195.4700469970703
y: 370.24359130859375
z: 0.0014544916339218616
visibility: 0.9996448159217834
","x: 221.16053771972656
y: 457.1203308105469
z: -0.011399075388908386
visibility: 0.9588449001312256
","x: 194.70928955078125
y: 454.5034484863281
z: -0.0770229771733284
visibility: 0.9708643555641174
","x: 214.09527587890625
y: 543.2283325195312
z: 0.09852103143930435
visibility: 0.8968828916549683
","x: 197.1928253173828
y: 540.6212158203125
z: 0.034578002989292145
visibility: 0.975594162940979
","x: 211.76966857910156
y: 554.0320434570312
z: 0.10264702886343002
visibility: 0.8467517495155334
","x: 201.2479248046875
y: 551.035888671875
z: 0.03757362812757492
visibility: 0.8923754096031189
","x: 227.09475708007812
y: 566.0750732421875
z: -0.012870103120803833
visibility: 0.9150609374046326
","x: 183.2894287109375
y: 566.2689208984375
z: -0.08897925913333893
visibility: 0.9672238230705261
",,,,,,,,,,,,,,,,,,,,,,,,,,,,,,,,,,,,,,,,,,
11,"x: 203.9606475830078
y: 217.2590789794922
z: -0.3250839412212372
visibility: 0.9999005794525146
","x: 206.21925354003906
y: 208.28565979003906
z: -0.31747621297836304
visibility: 0.9996957182884216
","x: 207.7057647705078
y: 207.7772216796875
z: -0.31747952103614807
visibility: 0.9996883869171143
","x: 209.38531494140625
y: 207.26275634765625
z: -0.3175007402896881
visibility: 0.9996638298034668
","x: 202.31570434570312
y: 208.473876953125
z: -0.3102594017982483
visibility: 0.9997140765190125
","x: 201.12986755371094
y: 208.16021728515625
z: -0.31030184030532837
visibility: 0.9996693134307861
","x: 199.9092559814453
y: 207.8861846923828
z: -0.31031620502471924
visibility: 0.9996634721755981
","x: 213.73077392578125
y: 207.88458251953125
z: -0.19105754792690277
visibility: 0.9994616508483887
","x: 199.8895721435547
y: 208.68873596191406
z: -0.1872626543045044
visibility: 0.9993147850036621
","x: 207.39450073242188
y: 223.86474609375
z: -0.2829551100730896
visibility: 0.9998660087585449
","x: 202.7820281982422
y: 223.8733673095703
z: -0.27651911973953247
visibility: 0.999845027923584
","x: 233.21250915527344
y: 248.89234924316406
z: -0.07114411145448685
visibility: 0.9999227523803711
","x: 188.3058624267578
y: 252.82562255859375
z: -0.09476068615913391
visibility: 0.9999514222145081
","x: 247.92071533203125
y: 304.28369140625
z: -0.013214168138802052
visibility: 0.965083658695221
","x: 181.9199981689453
y: 309.4125671386719
z: -0.16541124880313873
visibility: 0.9594346284866333
","x: 248.9097442626953
y: 362.2099304199219
z: -0.10429507493972778
visibility: 0.9548027515411377
","x: 184.14682006835938
y: 317.70501708984375
z: -0.4312741756439209
visibility: 0.9719750881195068
","x: 249.01683044433594
y: 376.848876953125
z: -0.1283162236213684
visibility: 0.9262505769729614
","x: 183.0251007080078
y: 322.01678466796875
z: -0.484927237033844
visibility: 0.9550905227661133
","x: 245.9121856689453
y: 375.4930114746094
z: -0.15868070721626282
visibility: 0.9293842911720276
","x: 184.39273071289062
y: 316.38812255859375
z: -0.5061854124069214
visibility: 0.9576292634010315
","x: 245.17626953125
y: 370.66522216796875
z: -0.11646970361471176
visibility: 0.9151175022125244
","x: 185.86944580078125
y: 314.8928527832031
z: -0.4451618194580078
visibility: 0.9482637643814087
","x: 223.07736206054688
y: 371.137451171875
z: 0.010187662206590176
visibility: 0.9993700385093689
","x: 199.09336853027344
y: 369.75732421875
z: -0.010280093178153038
visibility: 0.99961256980896
","x: 221.70236206054688
y: 457.43353271484375
z: 0.0017165907192975283
visibility: 0.9547502994537354
","x: 205.9363555908203
y: 456.10345458984375
z: -0.08410628139972687
visibility: 0.9692593812942505
","x: 214.55075073242188
y: 542.4466552734375
z: 0.16848385334014893
visibility: 0.8963985443115234
","x: 212.4513702392578
y: 544.0974731445312
z: 0.03262761980295181
visibility: 0.9737095236778259
","x: 211.16749572753906
y: 552.8153076171875
z: 0.1774541735649109
visibility: 0.8401516675949097
","x: 213.62136840820312
y: 558.9745483398438
z: 0.03696103021502495
visibility: 0.8858241438865662
","x: 223.22373962402344
y: 564.8057250976562
z: 0.057339638471603394
visibility: 0.9132208228111267
","x: 213.31967163085938
y: 569.4368286132812
z: -0.10570744425058365
visibility: 0.9653881192207336
",,,,,,,,,,,,,,,,,,,,,,,,,,,,,,,,,,,,,,,,,,
12,"x: 209.51348876953125
y: 216.5489044189453
z: -0.2806609272956848
visibility: 0.9999091029167175
","x: 212.3477325439453
y: 207.7595672607422
z: -0.26523545384407043
visibility: 0.999722421169281
","x: 213.92857360839844
y: 207.26611328125
z: -0.2652684152126312
visibility: 0.9997146129608154
","x: 215.5614013671875
y: 206.72735595703125
z: -0.26527610421180725
visibility: 0.9996917247772217
","x: 208.03604125976562
y: 207.90231323242188
z: -0.2640862464904785
visibility: 0.9997393488883972
","x: 206.66384887695312
y: 207.73866271972656
z: -0.2641316056251526
visibility: 0.9996989369392395
","x: 205.3333282470703
y: 207.66156005859375
z: -0.2641659080982208
visibility: 0.9996935725212097
","x: 219.1577606201172
y: 207.6336669921875
z: -0.13450993597507477
visibility: 0.9995092749595642
","x: 204.7689971923828
y: 208.4007568359375
z: -0.13194164633750916
visibility: 0.9993773102760315
","x: 212.85586547851562
y: 223.23500061035156
z: -0.2287737876176834
visibility: 0.9998778104782104
","x: 207.855224609375
y: 223.3612060546875
z: -0.22792966663837433
visibility: 0.9998586773872375
","x: 237.04151916503906
y: 246.7940673828125
z: -0.014149205759167671
visibility: 0.9999256730079651
","x: 192.55722045898438
y: 249.952880859375
z: -0.06411904841661453
visibility: 0.9999510049819946
","x: 251.82208251953125
y: 298.3126525878906
z: 0.05473341792821884
visibility: 0.9671128988265991
","x: 187.5148468017578
y: 303.7814025878906
z: -0.15421238541603088
visibility: 0.9617590308189392
","x: 249.7859344482422
y: 349.37060546875
z: -0.029385682195425034
visibility: 0.957837700843811
","x: 192.7441864013672
y: 304.63592529296875
z: -0.4327463209629059
visibility: 0.9741690158843994
","x: 248.97972106933594
y: 363.46246337890625
z: -0.05104865878820419
visibility: 0.9303153157234192
","x: 191.6795196533203
y: 308.0833740234375
z: -0.4893716871738434
visibility: 0.9585729837417603
","x: 245.4087677001953
y: 360.6066589355469
z: -0.08148541301488876
visibility: 0.9332390427589417
","x: 193.43002319335938
y: 300.576171875
z: -0.5061808824539185
visibility: 0.960877001285553
","x: 244.8321533203125
y: 356.28118896484375
z: -0.04116205871105194
visibility: 0.919373095035553
","x: 194.7063446044922
y: 299.0880432128906
z: -0.44474950432777405
visibility: 0.9518526196479797
","x: 226.47659301757812
y: 371.21087646484375
z: 0.014026078395545483
visibility: 0.9993639588356018
","x: 202.637451171875
y: 369.42578125
z: -0.014092879369854927
visibility: 0.9995907545089722
","x: 222.78982543945312
y: 460.36236572265625
z: -0.0048577445559203625
visibility: 0.9532018303871155
","x: 210.36761474609375
y: 458.9512939453125
z: -0.045050978660583496
visibility: 0.9684926271438599
","x: 216.85647583007812
y: 541.9793090820312
z: 0.19830438494682312
visibility: 0.8960914611816406
","x: 216.4280548095703
y: 545.3831787109375
z: 0.10030756145715714
visibility: 0.9723338484764099
","x: 213.5507354736328
y: 550.4031982421875
z: 0.21150168776512146
visibility: 0.8359853029251099
","x: 217.3082733154297
y: 558.9013671875
z: 0.10806912183761597
visibility: 0.8809998035430908
","x: 223.602783203125
y: 564.8468017578125
z: 0.09455236047506332
visibility: 0.9118664264678955
","x: 219.44923400878906
y: 571.8663330078125
z: -0.026744062080979347
visibility: 0.9638205766677856
",,,,,,,,,,,,,,,,,,,,,,,,,,,,,,,,,,,,,,,,,,
13,"x: 215.2716064453125
y: 213.12860107421875
z: -0.27170902490615845
visibility: 0.9999147653579712
","x: 218.04029846191406
y: 203.65682983398438
z: -0.2550981640815735
visibility: 0.9997403621673584
","x: 219.4749755859375
y: 203.35592651367188
z: -0.2551079988479614
visibility: 0.9997290968894958
","x: 220.96957397460938
y: 203.16571044921875
z: -0.25510939955711365
visibility: 0.999705970287323
","x: 213.62071228027344
y: 203.68646240234375
z: -0.2559519410133362
visibility: 0.9997581839561462
","x: 212.1300506591797
y: 203.37677001953125
z: -0.2559896409511566
visibility: 0.9997217655181885
","x: 210.6529083251953
y: 203.08050537109375
z: -0.25602298974990845
visibility: 0.9997177720069885
","x: 223.7440185546875
y: 204.8018798828125
z: -0.12422901391983032
visibility: 0.9995425939559937
","x: 209.25112915039062
y: 203.59030151367188
z: -0.12739303708076477
visibility: 0.9994300603866577
","x: 218.25360107421875
y: 219.33001708984375
z: -0.21914160251617432
visibility: 0.9998868107795715
","x: 213.05615234375
y: 218.6428680419922
z: -0.22029872238636017
visibility: 0.9998704791069031
","x: 240.67213439941406
y: 242.95086669921875
z: -0.004693050868809223
visibility: 0.9999263882637024
","x: 194.79922485351562
y: 244.4070281982422
z: -0.06409735232591629
visibility: 0.9999512434005737
","x: 256.6087646484375
y: 288.56298828125
z: 0.06926941126585007
visibility: 0.9687486290931702
","x: 184.4153289794922
y: 302.0482177734375
z: -0.16681161522865295
visibility: 0.9653450846672058
","x: 252.9071044921875
y: 334.4718017578125
z: -0.013629985973238945
visibility: 0.9603098630905151
","x: 197.6077880859375
y: 285.4373779296875
z: -0.4215141832828522
visibility: 0.9766288995742798
","x: 251.62843322753906
y: 347.4179382324219
z: -0.03363538905978203
visibility: 0.933287501335144
","x: 201.90866088867188
y: 287.38818359375
z: -0.4761793613433838
visibility: 0.9624133110046387
","x: 248.16702270507812
y: 343.58966064453125
z: -0.06409341841936111
visibility: 0.9359002113342285
","x: 204.06155395507812
y: 280.9176940917969
z: -0.4825945794582367
visibility: 0.9644743204116821
","x: 247.76309204101562
y: 339.4510192871094
z: -0.0253035519272089
visibility: 0.9223645329475403
","x: 203.32901000976562
y: 280.0211486816406
z: -0.4280357360839844
visibility: 0.9561071991920471
","x: 230.12429809570312
y: 369.7707824707031
z: 0.022788528352975845
visibility: 0.9993727207183838
","x: 205.66510009765625
y: 368.333740234375
z: -0.02282501384615898
visibility: 0.9995877742767334
","x: 231.65478515625
y: 461.335693359375
z: -0.03220687806606293
visibility: 0.9551445245742798
","x: 210.33836364746094
y: 462.5195007324219
z: -0.05280406400561333
visibility: 0.9698600769042969
","x: 218.37684631347656
y: 531.7670288085938
z: 0.2361379861831665
visibility: 0.8936829566955566
","x: 217.294921875
y: 545.226806640625
z: 0.11239957809448242
visibility: 0.9727049469947815
","x: 213.7281036376953
y: 535.1873168945312
z: 0.2586529850959778
visibility: 0.8302630186080933
","x: 217.7762908935547
y: 558.6652221679688
z: 0.12983474135398865
visibility: 0.8797434568405151
","x: 223.20547485351562
y: 563.6176147460938
z: 0.15518638491630554
visibility: 0.9091238379478455
","x: 220.059326171875
y: 574.8770751953125
z: 0.005119680427014828
visibility: 0.9635714888572693
",,,,,,,,,,,,,,,,,,,,,,,,,,,,,,,,,,,,,,,,,,
14,"x: 220.4765625
y: 209.5874786376953
z: -0.2844622731208801
visibility: 0.999922513961792
","x: 222.95181274414062
y: 200.12582397460938
z: -0.27004265785217285
visibility: 0.9997639656066895
","x: 224.27963256835938
y: 200.11534118652344
z: -0.2700480818748474
visibility: 0.9997527599334717
","x: 225.63143920898438
y: 200.19525146484375
z: -0.27004992961883545
visibility: 0.9997310042381287
","x: 218.58160400390625
y: 199.455078125
z: -0.2685091495513916
visibility: 0.9997805953025818
","x: 216.8352508544922
y: 198.94406127929688
z: -0.2685486972332001
visibility: 0.9997478723526001
","x: 215.1683349609375
y: 198.43003845214844
z: -0.26858410239219666
visibility: 0.9997444748878479
","x: 227.66162109375
y: 202.12782287597656
z: -0.14085093140602112
visibility: 0.9995846748352051
","x: 213.04953002929688
y: 198.98887634277344
z: -0.14216390252113342
visibility: 0.9994849562644958
","x: 223.0155029296875
y: 215.90126037597656
z: -0.23527655005455017
visibility: 0.9998974204063416
","x: 217.74844360351562
y: 214.6745147705078
z: -0.23407962918281555
visibility: 0.9998829960823059
","x: 244.26736450195312
y: 242.10142517089844
z: -0.020385490730404854
visibility: 0.9999309778213501
","x: 197.59259033203125
y: 242.16896057128906
z: -0.0837785005569458
visibility: 0.9999545216560364
","x: 258.7685852050781
y: 289.41064453125
z: 0.04862542077898979
visibility: 0.9706399440765381
","x: 185.55996704101562
y: 300.4884948730469
z: -0.1985095888376236
visibility: 0.9687162041664124
","x: 256.47027587890625
y: 334.1517333984375
z: -0.05412182956933975
visibility: 0.9631429314613342
","x: 202.7493896484375
y: 282.65252685546875
z: -0.4479810297489166
visibility: 0.9789037704467773
","x: 255.56671142578125
y: 347.54156494140625
z: -0.0792572870850563
visibility: 0.9372324347496033
","x: 208.12477111816406
y: 286.0669860839844
z: -0.5019811391830444
visibility: 0.965995192527771
","x: 252.01129150390625
y: 344.0777587890625
z: -0.10771685838699341
visibility: 0.9395427107810974
","x: 210.99713134765625
y: 279.7138671875
z: -0.5046504139900208
visibility: 0.9678373336791992
","x: 251.33448791503906
y: 340.3866882324219
z: -0.06569710373878479
visibility: 0.926487147808075
","x: 210.0561065673828
y: 278.43792724609375
z: -0.45224595069885254
visibility: 0.9601382613182068
","x: 233.77455139160156
y: 369.13861083984375
z: 0.023754891008138657
visibility: 0.9994162321090698
","x: 208.28407287597656
y: 368.2529296875
z: -0.023811709135770798
visibility: 0.9996132254600525
","x: 241.9204559326172
y: 459.9871520996094
z: -0.0945771113038063
visibility: 0.9588565230369568
","x: 209.9208526611328
y: 465.4564208984375
z: -0.07277236878871918
visibility: 0.9720974564552307
","x: 228.36773681640625
y: 524.7308959960938
z: 0.21790137887001038
visibility: 0.9002339243888855
","x: 217.26760864257812
y: 545.4210205078125
z: 0.11739657819271088
visibility: 0.9745104908943176
","x: 222.56716918945312
y: 529.9930419921875
z: 0.2437489926815033
visibility: 0.838123083114624
","x: 217.823974609375
y: 558.2926025390625
z: 0.14571812748908997
visibility: 0.883100688457489
","x: 235.5461883544922
y: 562.10302734375
z: 0.13892732560634613
visibility: 0.9144313931465149
","x: 221.92337036132812
y: 576.3101806640625
z: 0.014335324056446552
visibility: 0.9655746221542358
",,,,,,,,,,,,,,,,,,,,,,"x: 203.0566864013672
y: 274.3155212402344
z: 0.0
","x: 208.23439025878906
y: 274.4220275878906
z: 0.0013216554652899504
","x: 213.24392700195312
y: 277.577392578125
z: -0.0005065262666903436
","x: 216.4171600341797
y: 282.3235168457031
z: -0.003007866209372878
","x: 218.08078002929688
y: 285.6991882324219
z: -0.004725325852632523
","x: 214.48255920410156
y: 276.46429443359375
z: -0.005071702878922224
","x: 217.7246856689453
y: 286.54266357421875
z: -0.009021470323204994
","x: 215.9966583251953
y: 285.87054443359375
z: -0.009571467526257038
","x: 214.57211303710938
y: 282.675048828125
z: -0.009554332122206688
","x: 211.97695922851562
y: 278.31573486328125
z: -0.008419007062911987
","x: 214.70518493652344
y: 289.5309143066406
z: -0.012794217094779015
","x: 213.11138916015625
y: 287.58721923828125
z: -0.011373747140169144
","x: 212.23355102539062
y: 283.9012451171875
z: -0.010164748877286911
","x: 209.22898864746094
y: 280.414306640625
z: -0.011598401702940464
","x: 211.18182373046875
y: 290.771728515625
z: -0.014950561337172985
","x: 209.85296630859375
y: 288.35931396484375
z: -0.011586065404117107
","x: 209.26853942871094
y: 284.74371337890625
z: -0.009143483825027943
","x: 206.39414978027344
y: 282.901611328125
z: -0.014858067966997623
","x: 208.20108032226562
y: 290.61102294921875
z: -0.016843663528561592
","x: 207.2862091064453
y: 288.6263427734375
z: -0.014648806303739548
","x: 206.65625
y: 285.6651916503906
z: -0.012799922376871109
"
15,"x: 220.4765625
y: 209.5874786376953
z: -0.2844622731208801
visibility: 0.999922513961792
","x: 222.95181274414062
y: 200.12582397460938
z: -0.27004265785217285
visibility: 0.9997639656066895
","x: 224.27963256835938
y: 200.11534118652344
z: -0.2700480818748474
visibility: 0.9997527599334717
","x: 225.63143920898438
y: 200.19525146484375
z: -0.27004992961883545
visibility: 0.9997310042381287
","x: 218.58160400390625
y: 199.455078125
z: -0.2685091495513916
visibility: 0.9997805953025818
","x: 216.8352508544922
y: 198.94406127929688
z: -0.2685486972332001
visibility: 0.9997478723526001
","x: 215.1683349609375
y: 198.43003845214844
z: -0.26858410239219666
visibility: 0.9997444748878479
","x: 227.66162109375
y: 202.12782287597656
z: -0.14085093140602112
visibility: 0.9995846748352051
","x: 213.04953002929688
y: 198.98887634277344
z: -0.14216390252113342
visibility: 0.9994849562644958
","x: 223.0155029296875
y: 215.90126037597656
z: -0.23527655005455017
visibility: 0.9998974204063416
","x: 217.74844360351562
y: 214.6745147705078
z: -0.23407962918281555
visibility: 0.9998829960823059
","x: 244.26736450195312
y: 242.10142517089844
z: -0.020385490730404854
visibility: 0.9999309778213501
","x: 197.59259033203125
y: 242.16896057128906
z: -0.0837785005569458
visibility: 0.9999545216560364
","x: 258.7685852050781
y: 289.41064453125
z: 0.04862542077898979
visibility: 0.9706399440765381
","x: 185.55996704101562
y: 300.4884948730469
z: -0.1985095888376236
visibility: 0.9687162041664124
","x: 256.47027587890625
y: 334.1517333984375
z: -0.05412182956933975
visibility: 0.9631429314613342
","x: 202.7493896484375
y: 282.65252685546875
z: -0.4479810297489166
visibility: 0.9789037704467773
","x: 255.56671142578125
y: 347.54156494140625
z: -0.0792572870850563
visibility: 0.9372324347496033
","x: 208.12477111816406
y: 286.0669860839844
z: -0.5019811391830444
visibility: 0.965995192527771
","x: 252.01129150390625
y: 344.0777587890625
z: -0.10771685838699341
visibility: 0.9395427107810974
","x: 210.99713134765625
y: 279.7138671875
z: -0.5046504139900208
visibility: 0.9678373336791992
","x: 251.33448791503906
y: 340.3866882324219
z: -0.06569710373878479
visibility: 0.926487147808075
","x: 210.0561065673828
y: 278.43792724609375
z: -0.45224595069885254
visibility: 0.9601382613182068
","x: 233.77455139160156
y: 369.13861083984375
z: 0.023754891008138657
visibility: 0.9994162321090698
","x: 208.28407287597656
y: 368.2529296875
z: -0.023811709135770798
visibility: 0.9996132254600525
","x: 241.9204559326172
y: 459.9871520996094
z: -0.0945771113038063
visibility: 0.9588565230369568
","x: 209.9208526611328
y: 465.4564208984375
z: -0.07277236878871918
visibility: 0.9720974564552307
","x: 228.36773681640625
y: 524.7308959960938
z: 0.21790137887001038
visibility: 0.9002339243888855
","x: 217.26760864257812
y: 545.4210205078125
z: 0.11739657819271088
visibility: 0.9745104908943176
","x: 222.56716918945312
y: 529.9930419921875
z: 0.2437489926815033
visibility: 0.838123083114624
","x: 217.823974609375
y: 558.2926025390625
z: 0.14571812748908997
visibility: 0.883100688457489
","x: 235.5461883544922
y: 562.10302734375
z: 0.13892732560634613
visibility: 0.9144313931465149
","x: 221.92337036132812
y: 576.3101806640625
z: 0.014335324056446552
visibility: 0.9655746221542358
",,,,,,,,,,,,,,,,,,,,,,"x: 203.0566864013672
y: 274.3155212402344
z: 0.0
","x: 208.23439025878906
y: 274.4220275878906
z: 0.0013216554652899504
","x: 213.24392700195312
y: 277.577392578125
z: -0.0005065262666903436
","x: 216.4171600341797
y: 282.3235168457031
z: -0.003007866209372878
","x: 218.08078002929688
y: 285.6991882324219
z: -0.004725325852632523
","x: 214.48255920410156
y: 276.46429443359375
z: -0.005071702878922224
","x: 217.7246856689453
y: 286.54266357421875
z: -0.009021470323204994
","x: 215.9966583251953
y: 285.87054443359375
z: -0.009571467526257038
","x: 214.57211303710938
y: 282.675048828125
z: -0.009554332122206688
","x: 211.97695922851562
y: 278.31573486328125
z: -0.008419007062911987
","x: 214.70518493652344
y: 289.5309143066406
z: -0.012794217094779015
","x: 213.11138916015625
y: 287.58721923828125
z: -0.011373747140169144
","x: 212.23355102539062
y: 283.9012451171875
z: -0.010164748877286911
","x: 209.22898864746094
y: 280.414306640625
z: -0.011598401702940464
","x: 211.18182373046875
y: 290.771728515625
z: -0.014950561337172985
","x: 209.85296630859375
y: 288.35931396484375
z: -0.011586065404117107
","x: 209.26853942871094
y: 284.74371337890625
z: -0.009143483825027943
","x: 206.39414978027344
y: 282.901611328125
z: -0.014858067966997623
","x: 208.20108032226562
y: 290.61102294921875
z: -0.016843663528561592
","x: 207.2862091064453
y: 288.6263427734375
z: -0.014648806303739548
","x: 206.65625
y: 285.6651916503906
z: -0.012799922376871109
"
16,"x: 223.3612518310547
y: 204.12718200683594
z: -0.28506365418434143
visibility: 0.9999300241470337
","x: 226.2801055908203
y: 194.88528442382812
z: -0.27569380402565
visibility: 0.9997870326042175
","x: 227.78517150878906
y: 194.9752197265625
z: -0.2757100462913513
visibility: 0.9997767806053162
","x: 229.4657440185547
y: 195.10104370117188
z: -0.2757256329059601
visibility: 0.9997569918632507
","x: 221.7444305419922
y: 194.22659301757812
z: -0.27217045426368713
visibility: 0.9998020529747009
","x: 220.11138916015625
y: 193.7205810546875
z: -0.2722679674625397
visibility: 0.9997726678848267
","x: 218.3842010498047
y: 193.15956115722656
z: -0.2723183333873749
visibility: 0.9997696280479431
","x: 232.1973419189453
y: 197.8408966064453
z: -0.14308813214302063
visibility: 0.9996247887611389
","x: 216.93199157714844
y: 194.08746337890625
z: -0.14774838089942932
visibility: 0.9995360374450684
","x: 226.43328857421875
y: 211.53741455078125
z: -0.24141696095466614
visibility: 0.999907374382019
","x: 220.83531188964844
y: 210.61972045898438
z: -0.23547041416168213
visibility: 0.9998945593833923
","x: 248.75741577148438
y: 241.82313537597656
z: -0.014428405091166496
visibility: 0.999935507774353
","x: 201.1815643310547
y: 240.53892517089844
z: -0.09560354053974152
visibility: 0.9999581575393677
","x: 256.87542724609375
y: 292.41259765625
z: 0.04183974489569664
visibility: 0.9714409112930298
","x: 189.59109497070312
y: 297.0628662109375
z: -0.19763927161693573
visibility: 0.9717189073562622
","x: 261.44464111328125
y: 341.005615234375
z: -0.08727908134460449
visibility: 0.9654445648193359
","x: 206.22576904296875
y: 296.7935791015625
z: -0.44358015060424805
visibility: 0.9809341430664062
","x: 262.4499206542969
y: 358.6051025390625
z: -0.11647669970989227
visibility: 0.9405261874198914
","x: 209.7949676513672
y: 306.16162109375
z: -0.5000684857368469
visibility: 0.9691813588142395
","x: 259.97088623046875
y: 356.9161682128906
z: -0.1522461324930191
visibility: 0.9427247047424316
","x: 215.03822326660156
y: 299.6683044433594
z: -0.5064254999160767
visibility: 0.9708330035209656
","x: 258.92413330078125
y: 351.0730285644531
z: -0.10325076431035995
visibility: 0.9300006628036499
","x: 214.57846069335938
y: 295.7395324707031
z: -0.4492207169532776
visibility: 0.9637188911437988
","x: 240.1219024658203
y: 367.7359619140625
z: 0.02138708159327507
visibility: 0.9994518756866455
","x: 213.96786499023438
y: 367.2974853515625
z: -0.021447988227009773
visibility: 0.9996352791786194
","x: 244.56922912597656
y: 460.59381103515625
z: -0.025145849213004112
visibility: 0.9624533653259277
","x: 213.88352966308594
y: 466.06927490234375
z: -0.04842754453420639
visibility: 0.9745376110076904
","x: 246.69996643066406
y: 540.1494750976562
z: 0.19704197347164154
visibility: 0.9094399809837341
","x: 218.05743408203125
y: 551.0301513671875
z: 0.12496256828308105
visibility: 0.9766827821731567
","x: 243.95367431640625
y: 548.9708862304688
z: 0.21155066788196564
visibility: 0.847950279712677
","x: 220.35372924804688
y: 563.6365966796875
z: 0.13847023248672485
visibility: 0.887438178062439
","x: 254.29190063476562
y: 571.2359619140625
z: 0.1231737732887268
visibility: 0.9220280647277832
","x: 221.65829467773438
y: 579.3472900390625
z: -0.017487993463873863
visibility: 0.9683781266212463
",,,,,,,,,,,,,,,,,,,,,,,,,,,,,,,,,,,,,,,,,,
17,"x: 229.39295959472656
y: 203.239013671875
z: -0.3501475155353546
visibility: 0.9999362826347351
","x: 232.1844024658203
y: 194.29840087890625
z: -0.3370797634124756
visibility: 0.9998055100440979
","x: 233.843994140625
y: 194.43856811523438
z: -0.3370538651943207
visibility: 0.9997958540916443
","x: 235.55523681640625
y: 194.61317443847656
z: -0.3370171785354614
visibility: 0.9997774958610535
","x: 227.60678100585938
y: 193.5531768798828
z: -0.33732229471206665
visibility: 0.9998190402984619
","x: 226.0312042236328
y: 193.15576171875
z: -0.3373904824256897
visibility: 0.9997928738594055
","x: 224.60304260253906
y: 192.754150390625
z: -0.3374372720718384
visibility: 0.9997903108596802
","x: 239.08653259277344
y: 197.49014282226562
z: -0.2119811773300171
visibility: 0.9996540546417236
","x: 224.050048828125
y: 193.92843627929688
z: -0.21647636592388153
visibility: 0.9995781779289246
","x: 232.40538024902344
y: 210.507568359375
z: -0.300498902797699
visibility: 0.9999155402183533
","x: 227.14279174804688
y: 210.0637664794922
z: -0.301410049200058
visibility: 0.9999043941497803
","x: 256.5967712402344
y: 244.05526733398438
z: -0.08830730617046356
visibility: 0.9999390244483948
","x: 207.3653106689453
y: 241.1149444580078
z: -0.12351451069116592
visibility: 0.9999603629112244
","x: 262.7275695800781
y: 307.14630126953125
z: 0.013955171220004559
visibility: 0.9730934500694275
","x: 198.348876953125
y: 297.8793640136719
z: -0.1514425426721573
visibility: 0.9737828373908997
","x: 269.5475158691406
y: 366.1993713378906
z: -0.09450355172157288
visibility: 0.9672362208366394
","x: 202.74172973632812
y: 338.3338623046875
z: -0.29732832312583923
visibility: 0.9818754196166992
","x: 272.6374206542969
y: 381.25921630859375
z: -0.12805117666721344
visibility: 0.9428176283836365
","x: 202.73245239257812
y: 354.7908020019531
z: -0.3381941020488739
visibility: 0.9702306985855103
","x: 270.2463073730469
y: 380.6937255859375
z: -0.17898257076740265
visibility: 0.9451402425765991
","x: 207.14881896972656
y: 352.9614562988281
z: -0.3677087426185608
visibility: 0.9718596339225769
","x: 268.4608459472656
y: 375.93121337890625
z: -0.12060023844242096
visibility: 0.9327576160430908
","x: 207.92388916015625
y: 346.30572509765625
z: -0.31085100769996643
visibility: 0.9647546410560608
","x: 245.81468200683594
y: 369.32177734375
z: 0.01873266138136387
visibility: 0.9994681477546692
","x: 219.0184783935547
y: 368.6905212402344
z: -0.01862502656877041
visibility: 0.9996339678764343
","x: 249.67117309570312
y: 463.9241027832031
z: -0.006595345679670572
visibility: 0.9657114744186401
","x: 219.65866088867188
y: 466.91552734375
z: -0.031080463901162148
visibility: 0.9765278697013855
","x: 254.54978942871094
y: 547.7014770507812
z: 0.18798713386058807
visibility: 0.9179091453552246
","x: 218.8966827392578
y: 552.099609375
z: 0.15011881291866302
visibility: 0.9782740473747253
","x: 253.62290954589844
y: 557.2032470703125
z: 0.19994136691093445
visibility: 0.849663257598877
","x: 219.89822387695312
y: 562.4328002929688
z: 0.16063949465751648
visibility: 0.884175181388855
","x: 253.87403869628906
y: 576.2487182617188
z: 0.061413515359163284
visibility: 0.9288394451141357
","x: 220.12977600097656
y: 580.453369140625
z: -0.009865802712738514
visibility: 0.9704511165618896
",,,,,,,,,,,,,,,,,,,,,,,,,,,,,,,,,,,,,,,,,,
18,"x: 236.57656860351562
y: 202.2604217529297
z: -0.34456002712249756
visibility: 0.9999415874481201
","x: 239.38719177246094
y: 193.0410919189453
z: -0.33122897148132324
visibility: 0.9998199343681335
","x: 241.14083862304688
y: 193.17446899414062
z: -0.3312453627586365
visibility: 0.9998109936714172
","x: 242.85020446777344
y: 193.40966796875
z: -0.3313148021697998
visibility: 0.9997940063476562
","x: 234.61642456054688
y: 192.5541534423828
z: -0.3294669985771179
visibility: 0.9998317360877991
","x: 233.081787109375
y: 192.32431030273438
z: -0.32959479093551636
visibility: 0.9998086094856262
","x: 231.58551025390625
y: 192.14846801757812
z: -0.3296394348144531
visibility: 0.9998064041137695
","x: 245.78842163085938
y: 195.95664978027344
z: -0.195736825466156
visibility: 0.9996762871742249
","x: 231.02137756347656
y: 193.55059814453125
z: -0.19380781054496765
visibility: 0.9996083974838257
","x: 239.76736450195312
y: 209.51849365234375
z: -0.28579598665237427
visibility: 0.999922513961792
","x: 234.3482666015625
y: 209.423828125
z: -0.2851444482803345
visibility: 0.9999123811721802
","x: 264.3454284667969
y: 244.3740234375
z: -0.09044711291790009
visibility: 0.9999436140060425
","x: 215.3468017578125
y: 241.2310791015625
z: -0.1209162250161171
visibility: 0.999961256980896
","x: 272.17816162109375
y: 308.42156982421875
z: -0.009550182148814201
visibility: 0.9750410914421082
","x: 207.61021423339844
y: 306.5579833984375
z: -0.04416123777627945
visibility: 0.9748463034629822
","x: 275.295166015625
y: 362.510009765625
z: -0.11619628965854645
visibility: 0.9691552519798279
","x: 203.21780395507812
y: 361.56561279296875
z: -0.15094557404518127
visibility: 0.9814805388450623
","x: 275.3962707519531
y: 377.7438049316406
z: -0.14961400628089905
visibility: 0.9454134106636047
","x: 200.56927490234375
y: 379.7253723144531
z: -0.18377234041690826
visibility: 0.9689314365386963
","x: 272.4716796875
y: 375.8642578125
z: -0.19689404964447021
visibility: 0.9477842450141907
","x: 202.42218017578125
y: 379.2950744628906
z: -0.2221664935350418
visibility: 0.9707746505737305
","x: 271.6875305175781
y: 371.0461120605469
z: -0.14079783856868744
visibility: 0.9358096718788147
","x: 203.99684143066406
y: 374.291015625
z: -0.16806712746620178
visibility: 0.9634670615196228
","x: 252.7269744873047
y: 371.37762451171875
z: 0.009080336429178715
visibility: 0.9994902014732361
","x: 226.23031616210938
y: 370.5478515625
z: -0.009138615801930428
visibility: 0.9996306300163269
","x: 254.96275329589844
y: 467.1145935058594
z: -0.021889321506023407
visibility: 0.9684199094772339
","x: 227.04090881347656
y: 467.54315185546875
z: -0.030432144179940224
visibility: 0.977867066860199
","x: 255.78382873535156
y: 552.9677124023438
z: 0.16270789504051208
visibility: 0.9251202344894409
","x: 221.19613647460938
y: 551.9159545898438
z: 0.15396150946617126
visibility: 0.9791536927223206
","x: 254.4012451171875
y: 562.205322265625
z: 0.17271435260772705
visibility: 0.846118688583374
","x: 222.12730407714844
y: 561.7471923828125
z: 0.1640678346157074
visibility: 0.8766220211982727
","x: 254.0979766845703
y: 579.56982421875
z: 0.025490963831543922
visibility: 0.9342668652534485
","x: 220.7343292236328
y: 581.3203125
z: 0.005938343703746796
visibility: 0.9716339707374573
",,,,,,,,,,,,,,,,,,,,,,,,,,,,,,,,,,,,,,,,,,
19,"x: 240.11106872558594
y: 202.500732421875
z: -0.33946284651756287
visibility: 0.9999468326568604
","x: 243.079345703125
y: 193.25355529785156
z: -0.3263210952281952
visibility: 0.9998354315757751
","x: 244.88375854492188
y: 193.39463806152344
z: -0.3263305127620697
visibility: 0.9998271465301514
","x: 246.62461853027344
y: 193.59732055664062
z: -0.3263237178325653
visibility: 0.9998114705085754
","x: 238.40118408203125
y: 192.7467041015625
z: -0.3233046233654022
visibility: 0.9998461008071899
","x: 236.99221801757812
y: 192.52865600585938
z: -0.3233487010002136
visibility: 0.9998252391815186
","x: 235.45472717285156
y: 192.34352111816406
z: -0.323384553194046
visibility: 0.9998233914375305
","x: 250.17648315429688
y: 196.15487670898438
z: -0.20951668918132782
visibility: 0.9997029304504395
","x: 234.52066040039062
y: 193.78526306152344
z: -0.19488368928432465
visibility: 0.9996424317359924
","x: 243.35690307617188
y: 210.0543212890625
z: -0.2918063998222351
visibility: 0.9999296069145203
","x: 238.1759033203125
y: 210.036376953125
z: -0.2877815365791321
visibility: 0.9999204277992249
","x: 269.11883544921875
y: 246.27685546875
z: -0.11904804408550262
visibility: 0.9999483823776245
","x: 218.6559295654297
y: 241.87286376953125
z: -0.11513674259185791
visibility: 0.999963641166687
","x: 280.9684753417969
y: 308.6236267089844
z: -0.10028581321239471
visibility: 0.9768479466438293
","x: 210.78656005859375
y: 312.01251220703125
z: -0.027187198400497437
visibility: 0.9755769371986389
","x: 277.2548522949219
y: 353.5506591796875
z: -0.2671765685081482
visibility: 0.9705971479415894
","x: 204.94207763671875
y: 370.321533203125
z: -0.15130063891410828
visibility: 0.9816126227378845
","x: 275.3910217285156
y: 368.2851867675781
z: -0.3098035752773285
visibility: 0.947281539440155
","x: 201.80325317382812
y: 387.3179626464844
z: -0.18652397394180298
visibility: 0.9687252044677734
","x: 272.12213134765625
y: 360.6552734375
z: -0.34031909704208374
visibility: 0.9495713114738464
","x: 203.13377380371094
y: 387.311279296875
z: -0.2253950536251068
visibility: 0.9706242680549622
","x: 271.8436279296875
y: 355.7104187011719
z: -0.2818841338157654
visibility: 0.9374428391456604
","x: 204.6593475341797
y: 382.28857421875
z: -0.16877825558185577
visibility: 0.9632396697998047
","x: 257.2421569824219
y: 375.4875183105469
z: -0.007039652671664953
visibility: 0.9995214939117432
","x: 229.9842529296875
y: 374.0359802246094
z: 0.0069689699448645115
visibility: 0.9996453523635864
","x: 257.7289123535156
y: 471.7008972167969
z: -0.03202871233224869
visibility: 0.9711876511573792
","x: 234.30093383789062
y: 468.9840087890625
z: 0.017423585057258606
visibility: 0.9794508814811707
","x: 257.2400207519531
y: 554.274169921875
z: 0.1477094292640686
visibility: 0.932084858417511
","x: 231.4337921142578
y: 551.278076171875
z: 0.22550490498542786
visibility: 0.9805128574371338
","x: 255.43870544433594
y: 565.3133544921875
z: 0.15676887333393097
visibility: 0.8508689403533936
","x: 233.9783477783203
y: 561.3685913085938
z: 0.23791643977165222
visibility: 0.8798753619194031
","x: 253.65411376953125
y: 582.1844482421875
z: 0.008891860023140907
visibility: 0.9399251937866211
","x: 224.0599365234375
y: 580.3064575195312
z: 0.10504470020532608
visibility: 0.9735134840011597
",,,,,,,,,,,,,,,,,,,,,,,,,,,,,,,,,,,,,,,,,,
20,"x: 243.01858520507812
y: 202.55377197265625
z: -0.336469829082489
visibility: 0.9999517202377319
","x: 246.13723754882812
y: 193.39385986328125
z: -0.3220687806606293
visibility: 0.9998503923416138
","x: 247.79446411132812
y: 193.7468719482422
z: -0.32208579778671265
visibility: 0.9998428225517273
","x: 249.37892150878906
y: 194.13525390625
z: -0.32208719849586487
visibility: 0.999828577041626
","x: 241.7497100830078
y: 192.91729736328125
z: -0.31903716921806335
visibility: 0.9998598098754883
","x: 240.23191833496094
y: 192.67300415039062
z: -0.31906411051750183
visibility: 0.9998409152030945
","x: 238.78448486328125
y: 192.41983032226562
z: -0.31908735632896423
visibility: 0.9998393058776855
","x: 253.1954345703125
y: 197.76602172851562
z: -0.20237061381340027
visibility: 0.9997295141220093
","x: 237.9816436767578
y: 194.85968017578125
z: -0.18853484094142914
visibility: 0.9996747970581055
","x: 246.13511657714844
y: 210.918212890625
z: -0.2886725962162018
visibility: 0.9999362826347351
","x: 240.60568237304688
y: 210.60057067871094
z: -0.28439778089523315
visibility: 0.9999279379844666
","x: 271.2205810546875
y: 247.71435546875
z: -0.10983201116323471
visibility: 0.9999530911445618
","x: 222.7948760986328
y: 244.64581298828125
z: -0.09016723185777664
visibility: 0.999966025352478
","x: 282.54815673828125
y: 308.81982421875
z: -0.1079026311635971
visibility: 0.9783967137336731
","x: 215.95608520507812
y: 314.9214782714844
z: -0.019973494112491608
visibility: 0.9766792058944702
","x: 277.97613525390625
y: 346.4984436035156
z: -0.3011111617088318
visibility: 0.972296416759491
","x: 209.99343872070312
y: 372.33721923828125
z: -0.15259799361228943
visibility: 0.982240617275238
","x: 275.6127014160156
y: 362.0184326171875
z: -0.34999528527259827
visibility: 0.9499589800834656
","x: 206.7733612060547
y: 389.9208984375
z: -0.1921466588973999
visibility: 0.9694788455963135
","x: 272.0855712890625
y: 354.4844055175781
z: -0.3798816204071045
visibility: 0.9521159529685974
","x: 207.96121215820312
y: 389.606201171875
z: -0.23228922486305237
visibility: 0.9713377952575684
","x: 271.95977783203125
y: 349.53253173828125
z: -0.31617236137390137
visibility: 0.9399973154067993
","x: 209.47183227539062
y: 384.7594909667969
z: -0.1708785593509674
visibility: 0.9640205502510071
","x: 260.4148864746094
y: 375.7887268066406
z: -0.01089589111506939
visibility: 0.9995602965354919
","x: 233.31143188476562
y: 374.5185546875
z: 0.010826768353581429
visibility: 0.9996684789657593
","x: 260.7068176269531
y: 473.6288146972656
z: -0.04811819642782211
visibility: 0.9735611081123352
","x: 240.019287109375
y: 470.0390319824219
z: 0.006546976510435343
visibility: 0.9806725978851318
","x: 258.23919677734375
y: 555.5721435546875
z: 0.14079059660434723
visibility: 0.9381566643714905
","x: 241.8037109375
y: 551.0118408203125
z: 0.24253098666667938
visibility: 0.9808579683303833
","x: 257.02899169921875
y: 567.2532348632812
z: 0.1510160267353058
visibility: 0.8541011810302734
","x: 244.8887481689453
y: 560.6832275390625
z: 0.25900378823280334
visibility: 0.8777895569801331
","x: 253.61428833007812
y: 583.0538330078125
z: 0.004509082529693842
visibility: 0.9447985887527466
","x: 235.2063446044922
y: 579.6939697265625
z: 0.1365310102701187
visibility: 0.9744185209274292
",,,,,,,,,,,,,,,,,,,,,,,,,,,,,,,,,,,,,,,,,,
21,"x: 245.2637939453125
y: 203.67864990234375
z: -0.33873456716537476
visibility: 0.9999556541442871
","x: 248.33493041992188
y: 193.960693359375
z: -0.32730790972709656
visibility: 0.9998612403869629
","x: 249.9090118408203
y: 194.07212829589844
z: -0.32730692625045776
visibility: 0.9998543858528137
","x: 251.4945068359375
y: 194.31646728515625
z: -0.3272954225540161
visibility: 0.9998413324356079
","x: 243.91717529296875
y: 193.79615783691406
z: -0.32399946451187134
visibility: 0.9998692274093628
","x: 242.42935180664062
y: 193.44834899902344
z: -0.32400062680244446
visibility: 0.9998520016670227
","x: 240.97415161132812
y: 193.10800170898438
z: -0.3240242600440979
visibility: 0.9998503923416138
","x: 255.13487243652344
y: 197.89111328125
z: -0.21579980850219727
visibility: 0.9997495412826538
","x: 239.61070251464844
y: 195.11207580566406
z: -0.19950565695762634
visibility: 0.9996963143348694
","x: 248.49432373046875
y: 211.38299560546875
z: -0.2928400933742523
visibility: 0.9999415874481201
","x: 242.8960723876953
y: 211.24349975585938
z: -0.2884428799152374
visibility: 0.9999337196350098
","x: 272.46893310546875
y: 247.73080444335938
z: -0.12562957406044006
visibility: 0.9999567270278931
","x: 223.91909790039062
y: 244.39825439453125
z: -0.09119603037834167
visibility: 0.9999675154685974
","x: 279.0297546386719
y: 312.6537780761719
z: -0.0787559524178505
visibility: 0.9798418879508972
","x: 218.32733154296875
y: 313.76202392578125
z: -0.024888312444090843
visibility: 0.976608395576477
","x: 279.37103271484375
y: 370.6416320800781
z: -0.1954100877046585
visibility: 0.9735504388809204
","x: 213.3980255126953
y: 369.17425537109375
z: -0.13611647486686707
visibility: 0.98173987865448
","x: 280.54461669921875
y: 386.0264892578125
z: -0.2259393036365509
visibility: 0.9518002867698669
","x: 209.93431091308594
y: 387.5610046386719
z: -0.1680033951997757
visibility: 0.9685046076774597
","x: 276.43682861328125
y: 384.5246887207031
z: -0.2684566378593445
visibility: 0.9539574980735779
","x: 211.6039581298828
y: 387.3042297363281
z: -0.21066328883171082
visibility: 0.9705035090446472
","x: 275.07220458984375
y: 379.4378356933594
z: -0.2129574716091156
visibility: 0.9420521259307861
","x: 213.48086547851562
y: 382.362548828125
z: -0.15510839223861694
visibility: 0.9630704522132874
","x: 259.7769775390625
y: 375.7022399902344
z: -0.015450695529580116
visibility: 0.9995770454406738
","x: 232.8772735595703
y: 374.2825927734375
z: 0.015376696363091469
visibility: 0.9996718764305115
","x: 260.52679443359375
y: 472.52935791015625
z: -0.038739778101444244
visibility: 0.9757439494132996
","x: 234.2176055908203
y: 469.54205322265625
z: 0.007699234876781702
visibility: 0.9820398688316345
","x: 258.28564453125
y: 556.1128540039062
z: 0.13463573157787323
visibility: 0.9438567757606506
","x: 236.589111328125
y: 551.61767578125
z: 0.23812028765678406
visibility: 0.9821451902389526
","x: 257.3901062011719
y: 568.7177734375
z: 0.14166882634162903
visibility: 0.8575730323791504
","x: 240.74661254882812
y: 561.85498046875
z: 0.2315363883972168
visibility: 0.8827474117279053
","x: 253.1970977783203
y: 582.0460205078125
z: -0.006897865328937769
visibility: 0.9494643211364746
","x: 226.8885955810547
y: 580.5687866210938
z: 0.10167869180440903
visibility: 0.9761220812797546
",,,,,,,,,,,,,,,,,,,,,,,,,,,,,,,,,,,,,,,,,,
22,"x: 243.392578125
y: 203.8481903076172
z: -0.3369629979133606
visibility: 0.9999595880508423
","x: 246.73167419433594
y: 194.10707092285156
z: -0.32560116052627563
visibility: 0.9998727440834045
","x: 248.62051391601562
y: 194.1073455810547
z: -0.32560068368911743
visibility: 0.999866783618927
","x: 250.3146209716797
y: 194.21304321289062
z: -0.32558950781822205
visibility: 0.9998549222946167
","x: 241.71334838867188
y: 194.00779724121094
z: -0.3212377429008484
visibility: 0.999879002571106
","x: 240.320556640625
y: 193.66070556640625
z: -0.321242094039917
visibility: 0.9998634457588196
","x: 238.93368530273438
y: 193.32803344726562
z: -0.3212595582008362
visibility: 0.9998616576194763
","x: 253.78297424316406
y: 197.39102172851562
z: -0.2152145653963089
visibility: 0.9997711181640625
","x: 238.5810546875
y: 194.9405059814453
z: -0.19448870420455933
visibility: 0.9997184872627258
","x: 247.34327697753906
y: 211.3456573486328
z: -0.2919101119041443
visibility: 0.9999468922615051
","x: 241.0383758544922
y: 211.25868225097656
z: -0.2861499786376953
visibility: 0.9999394416809082
","x: 272.0923767089844
y: 247.68032836914062
z: -0.12321003526449203
visibility: 0.9999604821205139
","x: 224.41307067871094
y: 243.24339294433594
z: -0.0882047563791275
visibility: 0.9999686479568481
","x: 277.7615661621094
y: 315.37860107421875
z: -0.0728176161646843
visibility: 0.9813962578773499
","x: 217.67784118652344
y: 311.4417724609375
z: -0.012031525373458862
visibility: 0.9763766527175903
","x: 280.5492248535156
y: 376.2394714355469
z: -0.16502809524536133
visibility: 0.9752542972564697
","x: 213.85885620117188
y: 362.1629333496094
z: -0.1184212788939476
visibility: 0.9811235666275024
","x: 282.8846740722656
y: 392.0515441894531
z: -0.19364704191684723
visibility: 0.9544130563735962
","x: 210.85948181152344
y: 380.2961730957031
z: -0.14942581951618195
visibility: 0.967234194278717
","x: 279.2980651855469
y: 392.0830993652344
z: -0.23695655167102814
visibility: 0.9565497636795044
","x: 212.72479248046875
y: 379.01220703125
z: -0.1911669820547104
visibility: 0.9693877696990967
","x: 277.5191650390625
y: 386.9471435546875
z: -0.18312138319015503
visibility: 0.9451631307601929
","x: 214.64500427246094
y: 373.2108154296875
z: -0.1372605711221695
visibility: 0.9618034362792969
","x: 258.57183837890625
y: 375.4449768066406
z: -0.01489250548183918
visibility: 0.9996060132980347
","x: 231.56948852539062
y: 374.1878662109375
z: 0.01479559950530529
visibility: 0.9996856451034546
","x: 259.3238830566406
y: 472.8616943359375
z: -0.04231070354580879
visibility: 0.9777915477752686
","x: 230.5303955078125
y: 469.5145263671875
z: 0.0064733377657830715
visibility: 0.9833905696868896
","x: 258.2670593261719
y: 556.6019287109375
z: 0.14124327898025513
visibility: 0.9490771293640137
","x: 230.53953552246094
y: 553.14501953125
z: 0.20623376965522766
visibility: 0.9834501147270203
","x: 256.7415771484375
y: 569.6190185546875
z: 0.15015743672847748
visibility: 0.8613942265510559
","x: 234.3128204345703
y: 562.3735961914062
z: 0.2131470888853073
visibility: 0.8869267702102661
","x: 253.48797607421875
y: 582.0992431640625
z: 0.0011990271741524339
visibility: 0.9538298845291138
","x: 222.7145233154297
y: 581.880615234375
z: 0.07846689224243164
visibility: 0.9778504967689514
",,,,,,,,,,,,,,,,,,,,,,"x: 211.35841369628906
y: 360.4507141113281
z: 0.0
","x: 214.21388244628906
y: 367.72650146484375
z: -0.0004304595058783889
","x: 214.9287567138672
y: 376.10784912109375
z: -0.0011587966000661254
","x: 214.4271240234375
y: 382.873046875
z: -0.002446123631671071
","x: 214.13034057617188
y: 388.29620361328125
z: -0.0030225561931729317
","x: 210.55104064941406
y: 381.8183898925781
z: 0.0011210772208869457
","x: 210.53915405273438
y: 388.6218566894531
z: -0.0005031562177464366
","x: 211.8665771484375
y: 386.5031433105469
z: -0.0005168725620023906
","x: 212.5268096923828
y: 383.1396789550781
z: -7.48703459976241e-05
","x: 208.36207580566406
y: 379.863525390625
z: 8.134319796226919e-05
","x: 208.3459014892578
y: 385.40936279296875
z: -0.0013767764903604984
","x: 210.0189208984375
y: 382.4377746582031
z: -0.0009626690880395472
","x: 210.83970642089844
y: 378.82745361328125
z: -0.0001280102733289823
","x: 206.57550048828125
y: 376.9532775878906
z: -0.0013641315745189786
","x: 206.87347412109375
y: 381.4425048828125
z: -0.002908345777541399
","x: 208.5603790283203
y: 378.5615234375
z: -0.0018639928894117475
","x: 209.3576202392578
y: 375.51959228515625
z: -0.0005891922628507018
","x: 205.08724975585938
y: 373.48565673828125
z: -0.003082846524193883
","x: 205.50247192382812
y: 377.3761291503906
z: -0.004044836852699518
","x: 206.95254516601562
y: 375.55908203125
z: -0.003256003838032484
","x: 207.74810791015625
y: 373.0945129394531
z: -0.0021082719322293997
"
23,"x: 243.392578125
y: 203.8481903076172
z: -0.3369629979133606
visibility: 0.9999595880508423
","x: 246.73167419433594
y: 194.10707092285156
z: -0.32560116052627563
visibility: 0.9998727440834045
","x: 248.62051391601562
y: 194.1073455810547
z: -0.32560068368911743
visibility: 0.999866783618927
","x: 250.3146209716797
y: 194.21304321289062
z: -0.32558950781822205
visibility: 0.9998549222946167
","x: 241.71334838867188
y: 194.00779724121094
z: -0.3212377429008484
visibility: 0.999879002571106
","x: 240.320556640625
y: 193.66070556640625
z: -0.321242094039917
visibility: 0.9998634457588196
","x: 238.93368530273438
y: 193.32803344726562
z: -0.3212595582008362
visibility: 0.9998616576194763
","x: 253.78297424316406
y: 197.39102172851562
z: -0.2152145653963089
visibility: 0.9997711181640625
","x: 238.5810546875
y: 194.9405059814453
z: -0.19448870420455933
visibility: 0.9997184872627258
","x: 247.34327697753906
y: 211.3456573486328
z: -0.2919101119041443
visibility: 0.9999468922615051
","x: 241.0383758544922
y: 211.25868225097656
z: -0.2861499786376953
visibility: 0.9999394416809082
","x: 272.0923767089844
y: 247.68032836914062
z: -0.12321003526449203
visibility: 0.9999604821205139
","x: 224.41307067871094
y: 243.24339294433594
z: -0.0882047563791275
visibility: 0.9999686479568481
","x: 277.7615661621094
y: 315.37860107421875
z: -0.0728176161646843
visibility: 0.9813962578773499
","x: 217.67784118652344
y: 311.4417724609375
z: -0.012031525373458862
visibility: 0.9763766527175903
","x: 280.5492248535156
y: 376.2394714355469
z: -0.16502809524536133
visibility: 0.9752542972564697
","x: 213.85885620117188
y: 362.1629333496094
z: -0.1184212788939476
visibility: 0.9811235666275024
","x: 282.8846740722656
y: 392.0515441894531
z: -0.19364704191684723
visibility: 0.9544130563735962
","x: 210.85948181152344
y: 380.2961730957031
z: -0.14942581951618195
visibility: 0.967234194278717
","x: 279.2980651855469
y: 392.0830993652344
z: -0.23695655167102814
visibility: 0.9565497636795044
","x: 212.72479248046875
y: 379.01220703125
z: -0.1911669820547104
visibility: 0.9693877696990967
","x: 277.5191650390625
y: 386.9471435546875
z: -0.18312138319015503
visibility: 0.9451631307601929
","x: 214.64500427246094
y: 373.2108154296875
z: -0.1372605711221695
visibility: 0.9618034362792969
","x: 258.57183837890625
y: 375.4449768066406
z: -0.01489250548183918
visibility: 0.9996060132980347
","x: 231.56948852539062
y: 374.1878662109375
z: 0.01479559950530529
visibility: 0.9996856451034546
","x: 259.3238830566406
y: 472.8616943359375
z: -0.04231070354580879
visibility: 0.9777915477752686
","x: 230.5303955078125
y: 469.5145263671875
z: 0.0064733377657830715
visibility: 0.9833905696868896
","x: 258.2670593261719
y: 556.6019287109375
z: 0.14124327898025513
visibility: 0.9490771293640137
","x: 230.53953552246094
y: 553.14501953125
z: 0.20623376965522766
visibility: 0.9834501147270203
","x: 256.7415771484375
y: 569.6190185546875
z: 0.15015743672847748
visibility: 0.8613942265510559
","x: 234.3128204345703
y: 562.3735961914062
z: 0.2131470888853073
visibility: 0.8869267702102661
","x: 253.48797607421875
y: 582.0992431640625
z: 0.0011990271741524339
visibility: 0.9538298845291138
","x: 222.7145233154297
y: 581.880615234375
z: 0.07846689224243164
visibility: 0.9778504967689514
",,,,,,,,,,,,,,,,,,,,,,"x: 211.35841369628906
y: 360.4507141113281
z: 0.0
","x: 214.21388244628906
y: 367.72650146484375
z: -0.0004304595058783889
","x: 214.9287567138672
y: 376.10784912109375
z: -0.0011587966000661254
","x: 214.4271240234375
y: 382.873046875
z: -0.002446123631671071
","x: 214.13034057617188
y: 388.29620361328125
z: -0.0030225561931729317
","x: 210.55104064941406
y: 381.8183898925781
z: 0.0011210772208869457
","x: 210.53915405273438
y: 388.6218566894531
z: -0.0005031562177464366
","x: 211.8665771484375
y: 386.5031433105469
z: -0.0005168725620023906
","x: 212.5268096923828
y: 383.1396789550781
z: -7.48703459976241e-05
","x: 208.36207580566406
y: 379.863525390625
z: 8.134319796226919e-05
","x: 208.3459014892578
y: 385.40936279296875
z: -0.0013767764903604984
","x: 210.0189208984375
y: 382.4377746582031
z: -0.0009626690880395472
","x: 210.83970642089844
y: 378.82745361328125
z: -0.0001280102733289823
","x: 206.57550048828125
y: 376.9532775878906
z: -0.0013641315745189786
","x: 206.87347412109375
y: 381.4425048828125
z: -0.002908345777541399
","x: 208.5603790283203
y: 378.5615234375
z: -0.0018639928894117475
","x: 209.3576202392578
y: 375.51959228515625
z: -0.0005891922628507018
","x: 205.08724975585938
y: 373.48565673828125
z: -0.003082846524193883
","x: 205.50247192382812
y: 377.3761291503906
z: -0.004044836852699518
","x: 206.95254516601562
y: 375.55908203125
z: -0.003256003838032484
","x: 207.74810791015625
y: 373.0945129394531
z: -0.0021082719322293997
"
24,"x: 240.1361541748047
y: 201.84771728515625
z: -0.32805678248405457
visibility: 0.9999633431434631
","x: 243.29046630859375
y: 192.24488830566406
z: -0.31396836042404175
visibility: 0.9998846054077148
","x: 245.356689453125
y: 192.22280883789062
z: -0.3140018582344055
visibility: 0.9998791813850403
","x: 247.18711853027344
y: 192.2776641845703
z: -0.31402212381362915
visibility: 0.9998685121536255
","x: 238.34596252441406
y: 191.80508422851562
z: -0.3104909658432007
visibility: 0.9998897314071655
","x: 236.9603271484375
y: 191.3004913330078
z: -0.310504287481308
visibility: 0.999875545501709
","x: 235.55450439453125
y: 190.8940887451172
z: -0.3104943037033081
visibility: 0.9998737573623657
","x: 250.79541015625
y: 194.371826171875
z: -0.18501237034797668
visibility: 0.9997929930686951
","x: 235.2221221923828
y: 191.91259765625
z: -0.1726466417312622
visibility: 0.9997435808181763
","x: 243.84469604492188
y: 209.60858154296875
z: -0.2764805853366852
visibility: 0.999951958656311
","x: 237.83795166015625
y: 209.25936889648438
z: -0.2729819715023041
visibility: 0.9999451637268066
","x: 268.5080261230469
y: 245.87852478027344
z: -0.08322012424468994
visibility: 0.9999639987945557
","x: 220.5492401123047
y: 237.97604370117188
z: -0.07418248057365417
visibility: 0.9999675154685974
","x: 275.98211669921875
y: 315.0302429199219
z: -0.04909374192357063
visibility: 0.9828266501426697
","x: 212.01248168945312
y: 291.8446044921875
z: -0.11420861631631851
visibility: 0.974418044090271
","x: 282.13787841796875
y: 369.7424621582031
z: -0.16686631739139557
visibility: 0.9770950078964233
","x: 209.50050354003906
y: 331.97906494140625
z: -0.3691132962703705
visibility: 0.9789311289787292
","x: 284.6202392578125
y: 385.333251953125
z: -0.2065478265285492
visibility: 0.9574653506278992
","x: 206.6063690185547
y: 345.6541748046875
z: -0.4248456358909607
visibility: 0.9647830128669739
","x: 281.8495788574219
y: 384.2156677246094
z: -0.25121235847473145
visibility: 0.9595454335212708
","x: 210.44834899902344
y: 344.1293029785156
z: -0.45543432235717773
visibility: 0.9672025442123413
","x: 280.0555419921875
y: 379.5730285644531
z: -0.1885039210319519
visibility: 0.948794424533844
","x: 212.2032928466797
y: 339.08612060546875
z: -0.3875248432159424
visibility: 0.9589971899986267
","x: 254.1959991455078
y: 374.14959716796875
z: -0.00793661829084158
visibility: 0.9996312260627747
","x: 227.36810302734375
y: 371.32928466796875
z: 0.00785889569669962
visibility: 0.9996942281723022
","x: 256.109130859375
y: 472.2760009765625
z: -0.04268288612365723
visibility: 0.9796251654624939
","x: 226.64886474609375
y: 469.32110595703125
z: -0.029674652963876724
visibility: 0.9845768809318542
","x: 258.0129089355469
y: 555.7230224609375
z: 0.15450438857078552
visibility: 0.9536803960800171
","x: 227.55482482910156
y: 554.8517456054688
z: 0.16268548369407654
visibility: 0.9845290780067444
","x: 256.4641418457031
y: 568.368896484375
z: 0.1648169606924057
visibility: 0.8655071258544922
","x: 230.8303985595703
y: 564.634521484375
z: 0.17186620831489563
visibility: 0.8881769180297852
","x: 254.0481414794922
y: 581.5509643554688
z: 0.008651360869407654
visibility: 0.9576572775840759
","x: 221.6140594482422
y: 584.171630859375
z: 0.01396567840129137
visibility: 0.9791497588157654
",,,,,,,,,,,,,,,,,,,,,,,,,,,,,,,,,,,,,,,,,,
25,"x: 237.23228454589844
y: 200.46121215820312
z: -0.2668970227241516
visibility: 0.9999668598175049
","x: 240.2919921875
y: 190.98097229003906
z: -0.24758188426494598
visibility: 0.9998957514762878
","x: 242.21524047851562
y: 190.99954223632812
z: -0.24762725830078125
visibility: 0.9998908042907715
","x: 244.13320922851562
y: 191.1239013671875
z: -0.24762538075447083
visibility: 0.9998811483383179
","x: 235.3828582763672
y: 190.37808227539062
z: -0.24726787209510803
visibility: 0.9999002814292908
","x: 233.95947265625
y: 189.93353271484375
z: -0.24726347625255585
visibility: 0.9998874664306641
","x: 232.55398559570312
y: 189.5073699951172
z: -0.24722883105278015
visibility: 0.9998858571052551
","x: 247.69766235351562
y: 193.13284301757812
z: -0.1135723814368248
visibility: 0.9998130798339844
","x: 231.95236206054688
y: 190.2687225341797
z: -0.11363287270069122
visibility: 0.9997684359550476
","x: 240.814697265625
y: 207.9641876220703
z: -0.21506884694099426
visibility: 0.9999566078186035
","x: 234.9757080078125
y: 207.4878692626953
z: -0.21528145670890808
visibility: 0.9999504685401917
","x: 264.641357421875
y: 244.05648803710938
z: -0.01908472366631031
visibility: 0.999967098236084
","x: 216.57717895507812
y: 238.17327880859375
z: -0.028206080198287964
visibility: 0.9999679923057556
","x: 275.3746643066406
y: 306.4926452636719
z: -0.010266384109854698
visibility: 0.9839667081832886
","x: 210.16722106933594
y: 294.3340759277344
z: -0.10250411182641983
visibility: 0.9758604764938354
","x: 279.0597229003906
y: 358.653076171875
z: -0.17708072066307068
visibility: 0.9787113070487976
","x: 207.2566680908203
y: 315.1328430175781
z: -0.3753475248813629
visibility: 0.9803309440612793
","x: 281.8931579589844
y: 375.519775390625
z: -0.2253081053495407
visibility: 0.9601008892059326
","x: 205.79791259765625
y: 326.56866455078125
z: -0.4356897473335266
visibility: 0.9670159816741943
","x: 277.8906555175781
y: 375.64276123046875
z: -0.2631286382675171
visibility: 0.9620762467384338
","x: 210.25119018554688
y: 321.3812255859375
z: -0.4560622572898865
visibility: 0.9692640900611877
","x: 275.7964782714844
y: 369.3751220703125
z: -0.1973871886730194
visibility: 0.9518563151359558
","x: 211.48992919921875
y: 317.4878234863281
z: -0.389131635427475
visibility: 0.9613096117973328
","x: 251.31895446777344
y: 374.1241149902344
z: -0.004524711053818464
visibility: 0.9996529221534729
","x: 224.73109436035156
y: 370.82110595703125
z: 0.004474611021578312
visibility: 0.9997025728225708
","x: 253.49143981933594
y: 472.3118591308594
z: -0.041092269122600555
visibility: 0.9813620448112488
","x: 225.44789123535156
y: 469.36590576171875
z: -0.027589136734604836
visibility: 0.9856922626495361
","x: 257.61376953125
y: 555.2771606445312
z: 0.1594841182231903
visibility: 0.9578521251678467
","x: 226.07269287109375
y: 556.5267333984375
z: 0.1534309685230255
visibility: 0.985551118850708
","x: 256.0552673339844
y: 568.2347412109375
z: 0.1698356419801712
visibility: 0.8706715106964111
","x: 229.31680297851562
y: 566.8082275390625
z: 0.16247819364070892
visibility: 0.8903129696846008
","x: 254.19839477539062
y: 581.3069458007812
z: 0.012816309928894043
visibility: 0.9611784219741821
","x: 221.66477966308594
y: 585.7216186523438
z: 0.0065321302972733974
visibility: 0.9803905487060547
",,,,,,,,,,,,,,,,,,,,,,,,,,,,,,,,,,,,,,,,,,
26,"x: 235.6373291015625
y: 198.72552490234375
z: -0.27186793088912964
visibility: 0.999970018863678
","x: 238.5847930908203
y: 189.800048828125
z: -0.24982471764087677
visibility: 0.9999057054519653
","x: 240.40103149414062
y: 190.08543395996094
z: -0.24986061453819275
visibility: 0.9999011754989624
","x: 242.18896484375
y: 190.45411682128906
z: -0.24984566867351532
visibility: 0.9998923540115356
","x: 233.7305450439453
y: 188.61972045898438
z: -0.2522038519382477
visibility: 0.9999097585678101
","x: 232.2510223388672
y: 188.0973663330078
z: -0.25220760703086853
visibility: 0.9998981952667236
","x: 230.80223083496094
y: 187.50657653808594
z: -0.2521938383579254
visibility: 0.9998968243598938
","x: 245.776123046875
y: 193.1424560546875
z: -0.10909312963485718
visibility: 0.9998308420181274
","x: 231.08340454101562
y: 188.9114227294922
z: -0.12195050716400146
visibility: 0.9997909665107727
","x: 238.9281005859375
y: 206.80023193359375
z: -0.21835994720458984
visibility: 0.999960720539093
","x: 233.1990509033203
y: 206.031005859375
z: -0.22211940586566925
visibility: 0.9999552369117737
","x: 260.24249267578125
y: 243.26368713378906
z: -0.01006877701729536
visibility: 0.9999690651893616
","x: 211.6676788330078
y: 238.04075622558594
z: -0.04119902476668358
visibility: 0.9999690055847168
","x: 272.9575500488281
y: 305.0155029296875
z: 0.008491507731378078
visibility: 0.9845367670059204
","x: 200.75999450683594
y: 294.1776428222656
z: -0.1223902702331543
visibility: 0.9777253866195679
","x: 275.1730651855469
y: 354.5597839355469
z: -0.16425800323486328
visibility: 0.9798175096511841
","x: 205.94097900390625
y: 313.2070007324219
z: -0.39213600754737854
visibility: 0.9819859266281128
","x: 277.3267822265625
y: 371.6207275390625
z: -0.21028439700603485
visibility: 0.9617855548858643
","x: 204.5540771484375
y: 324.3601989746094
z: -0.45195966958999634
visibility: 0.9696657061576843
","x: 273.62310791015625
y: 371.46435546875
z: -0.24766306579113007
visibility: 0.9636871814727783
","x: 209.15550231933594
y: 318.4442443847656
z: -0.47094783186912537
visibility: 0.9717209935188293
","x: 271.8486633300781
y: 365.3581237792969
z: -0.18339504301548004
visibility: 0.9538270235061646
","x: 209.85206604003906
y: 314.73919677734375
z: -0.40468430519104004
visibility: 0.9642410278320312
","x: 246.73318481445312
y: 374.0512390136719
z: 0.0008411098388023674
visibility: 0.9996664524078369
","x: 220.29522705078125
y: 370.7994079589844
z: -0.0009022074518725276
visibility: 0.9997144341468811
","x: 251.8111572265625
y: 472.0137023925781
z: -0.0026065006386488676
visibility: 0.9829702973365784
","x: 222.33705139160156
y: 470.7947998046875
z: -0.023805303499102592
visibility: 0.9867144227027893
","x: 254.95248413085938
y: 554.0352783203125
z: 0.2221815586090088
visibility: 0.9616286754608154
","x: 225.22857666015625
y: 557.615478515625
z: 0.15491552650928497
visibility: 0.9865686893463135
","x: 252.95242309570312
y: 565.356201171875
z: 0.23506367206573486
visibility: 0.8757044076919556
","x: 228.29132080078125
y: 568.515869140625
z: 0.16548441350460052
visibility: 0.8931963443756104
","x: 254.76373291015625
y: 581.2265625
z: 0.08103892207145691
visibility: 0.9644296169281006
","x: 221.82797241210938
y: 587.1744995117188
z: 0.015698613598942757
visibility: 0.9816856384277344
",,,,,,,,,,,,,,,,,,,,,,,,,,,,,,,,,,,,,,,,,,
27,"x: 235.06809997558594
y: 198.8785400390625
z: -0.3361652195453644
visibility: 0.9999728798866272
","x: 238.16514587402344
y: 190.13465881347656
z: -0.31244125962257385
