uscmakers/ReverseChoreography/data/5_skeletons_keshi.csv
,NOSE,LEFT_EYE_INNER,LEFT_EYE,LEFT_EYE_OUTER,RIGHT_EYE_INNER,RIGHT_EYE,RIGHT_EYE_OUTER,LEFT_EAR,RIGHT_EAR,MOUTH_LEFT,MOUTH_RIGHT,LEFT_SHOULDER,RIGHT_SHOULDER,LEFT_ELBOW,RIGHT_ELBOW,LEFT_WRIST,RIGHT_WRIST,LEFT_PINKY,RIGHT_PINKY,LEFT_INDEX,RIGHT_INDEX,LEFT_THUMB,RIGHT_THUMB,LEFT_HIP,RIGHT_HIP,LEFT_KNEE,RIGHT_KNEE,LEFT_ANKLE,RIGHT_ANKLE,LEFT_HEEL,RIGHT_HEEL,LEFT_FOOT_INDEX,RIGHT_FOOT_INDEX,WRIST2,THUMB_CPC2,THUMB_MCP2,THUMB_IP2,THUMB_TIP2,INDEX_FINGER_MCP2,INDEX_FINGER_PIP2,INDEX_FINGER_DIP2,INDEX_FINGER_TIP2,MIDDLE_FINGER_MCP2,MIDDLE_FINGER_PIP2,MIDDLE_FINGER_DIP2,MIDDLE_FINGER_TIP2,RING_FINGER_PIP2,RING_FINGER_DIP2,RING_FINGER_TIP2,RING_FINGER_MCP2,PINKY_MCP2,PINKY_PIP2,PINKY_DIP2,PINKY_TIP2,WRIST,THUMB_CPC,THUMB_MCP,THUMB_IP,THUMB_TIP,INDEX_FINGER_MCP,INDEX_FINGER_PIP,INDEX_FINGER_DIP,INDEX_FINGER_TIP,MIDDLE_FINGER_MCP,MIDDLE_FINGER_PIP,MIDDLE_FINGER_DIP,MIDDLE_FINGER_TIP,RING_FINGER_PIP,RING_FINGER_DIP,RING_FINGER_TIP,RING_FINGER_MCP,PINKY_MCP,PINKY_PIP,PINKY_DIP,PINKY_TIP
0,"x: 219.37252807617188
y: 235.57528686523438
z: -0.1450188159942627
visibility: 0.9997941851615906
","x: 220.8768768310547
y: 228.57821655273438
z: -0.14714415371418
visibility: 0.9997169375419617
","x: 221.88143920898438
y: 228.03466796875
z: -0.14720451831817627
visibility: 0.9997501969337463
","x: 223.0339813232422
y: 227.43154907226562
z: -0.14726124703884125
visibility: 0.999794065952301
","x: 218.8076934814453
y: 229.3281707763672
z: -0.1265590637922287
visibility: 0.9995239973068237
","x: 218.31382751464844
y: 229.37954711914062
z: -0.1265568882226944
visibility: 0.9993792772293091
","x: 217.75511169433594
y: 229.34678649902344
z: -0.12652823328971863
visibility: 0.9993447661399841
","x: 228.09249877929688
y: 229.28240966796875
z: -0.10553667694330215
visibility: 0.999871015548706
","x: 218.8733673095703
y: 231.2977752685547
z: -0.01069677248597145
visibility: 0.9980918765068054
","x: 222.8433837890625
y: 241.78048706054688
z: -0.12597425282001495
visibility: 0.9999033212661743
","x: 219.82373046875
y: 242.22052001953125
z: -0.09882675856351852
visibility: 0.9995872378349304
","x: 246.0478515625
y: 262.4301452636719
z: -0.10617168247699738
visibility: 0.9999949932098389
","x: 216.17137145996094
y: 266.6497802734375
z: 0.1166038066148758
visibility: 0.9990992546081543
","x: 262.2122497558594
y: 304.1573486328125
z: -0.1595437228679657
visibility: 0.9993268251419067
","x: 214.37664794921875
y: 313.0905456542969
z: 0.13404308259487152
visibility: 0.3462940752506256
","x: 251.44918823242188
y: 334.0554504394531
z: -0.25405868887901306
visibility: 0.9976480603218079
","x: 201.8876495361328
y: 326.49591064453125
z: -0.052193533629179
visibility: 0.8491138219833374
","x: 247.64825439453125
y: 342.88446044921875
z: -0.2895512282848358
visibility: 0.9935583472251892
","x: 197.921142578125
y: 330.3046875
z: -0.07891502231359482
visibility: 0.8516041040420532
","x: 244.95083618164062
y: 335.685546875
z: -0.2954663932323456
visibility: 0.993619978427887
","x: 197.7308349609375
y: 325.3205871582031
z: -0.10556580871343613
visibility: 0.8606231212615967
","x: 245.33460998535156
y: 332.8230285644531
z: -0.25524428486824036
visibility: 0.9886306524276733
","x: 199.8354034423828
y: 324.5356750488281
z: -0.06883207708597183
visibility: 0.8351645469665527
","x: 235.98422241210938
y: 364.9483642578125
z: -0.08292947709560394
visibility: 0.9991913437843323
","x: 219.1479034423828
y: 364.9893493652344
z: 0.08303426206111908
visibility: 0.9976492524147034
","x: 229.09625244140625
y: 443.8932800292969
z: -0.11819203197956085
visibility: 0.9863165020942688
","x: 220.43515014648438
y: 441.92095947265625
z: 0.07670506089925766
visibility: 0.842647910118103
","x: 230.9711151123047
y: 523.4537353515625
z: -0.07819284498691559
visibility: 0.9905921816825867
","x: 227.44830322265625
y: 514.1712036132812
z: 0.15212921798229218
visibility: 0.9344676733016968
","x: 233.39901733398438
y: 536.46630859375
z: -0.08035723119974136
visibility: 0.9422335028648376
","x: 231.13330078125
y: 526.8748779296875
z: 0.15362223982810974
visibility: 0.9025095701217651
","x: 217.6038818359375
y: 542.78515625
z: -0.19786033034324646
visibility: 0.9875214695930481
","x: 212.9564208984375
y: 535.8406372070312
z: 0.07103238999843597
visibility: 0.9493495225906372
","x: 251.4750518798828
y: 332.4830627441406
z: 0.0
","x: 247.32009887695312
y: 332.54217529296875
z: -1.1987665857304819e-05
","x: 243.26239013671875
y: 334.4274597167969
z: -0.0031185836996883154
","x: 241.25502014160156
y: 337.5774841308594
z: -0.006412776652723551
","x: 240.72503662109375
y: 340.64910888671875
z: -0.009166029281914234
","x: 243.26170349121094
y: 329.84246826171875
z: -0.009145119227468967
","x: 239.96617126464844
y: 339.3823547363281
z: -0.013870089314877987
","x: 241.21456909179688
y: 340.41900634765625
z: -0.01476628053933382
","x: 242.67886352539062
y: 338.72381591796875
z: -0.014895861968398094
","x: 245.72262573242188
y: 331.0989685058594
z: -0.011827723123133183
","x: 243.09739685058594
y: 342.42327880859375
z: -0.01655624806880951
","x: 243.80392456054688
y: 342.5259704589844
z: -0.015402281656861305
","x: 244.46835327148438
y: 340.14202880859375
z: -0.014417970553040504
","x: 248.23033142089844
y: 333.50360107421875
z: -0.014277013018727303
","x: 245.6763916015625
y: 343.9233703613281
z: -0.017612842842936516
","x: 246.16221618652344
y: 343.8531188964844
z: -0.014621454291045666
","x: 246.82839965820312
y: 341.3978271484375
z: -0.012614798732101917
","x: 250.53082275390625
y: 336.4817810058594
z: -0.0166973527520895
","x: 248.28823852539062
y: 344.58526611328125
z: -0.01878289133310318
","x: 248.24681091308594
y: 344.2255859375
z: -0.01690351776778698
","x: 248.78977966308594
y: 341.869140625
z: -0.015450100414454937
",,,,,,,,,,,,,,,,,,,,,
1,"x: 219.37252807617188
y: 235.57528686523438
z: -0.1450188159942627
visibility: 0.9997941851615906
","x: 220.8768768310547
y: 228.57821655273438
z: -0.14714415371418
visibility: 0.9997169375419617
","x: 221.88143920898438
y: 228.03466796875
z: -0.14720451831817627
visibility: 0.9997501969337463
","x: 223.0339813232422
y: 227.43154907226562
z: -0.14726124703884125
visibility: 0.999794065952301
","x: 218.8076934814453
y: 229.3281707763672
z: -0.1265590637922287
visibility: 0.9995239973068237
","x: 218.31382751464844
y: 229.37954711914062
z: -0.1265568882226944
visibility: 0.9993792772293091
","x: 217.75511169433594
y: 229.34678649902344
z: -0.12652823328971863
visibility: 0.9993447661399841
","x: 228.09249877929688
y: 229.28240966796875
z: -0.10553667694330215
visibility: 0.999871015548706
","x: 218.8733673095703
y: 231.2977752685547
z: -0.01069677248597145
visibility: 0.9980918765068054
","x: 222.8433837890625
y: 241.78048706054688
z: -0.12597425282001495
visibility: 0.9999033212661743
","x: 219.82373046875
y: 242.22052001953125
z: -0.09882675856351852
visibility: 0.9995872378349304
","x: 246.0478515625
y: 262.4301452636719
z: -0.10617168247699738
visibility: 0.9999949932098389
","x: 216.17137145996094
y: 266.6497802734375
z: 0.1166038066148758
visibility: 0.9990992546081543
","x: 262.2122497558594
y: 304.1573486328125
z: -0.1595437228679657
visibility: 0.9993268251419067
","x: 214.37664794921875
y: 313.0905456542969
z: 0.13404308259487152
visibility: 0.3462940752506256
","x: 251.44918823242188
y: 334.0554504394531
z: -0.25405868887901306
visibility: 0.9976480603218079
","x: 201.8876495361328
y: 326.49591064453125
z: -0.052193533629179
visibility: 0.8491138219833374
","x: 247.64825439453125
y: 342.88446044921875
z: -0.2895512282848358
visibility: 0.9935583472251892
","x: 197.921142578125
y: 330.3046875
z: -0.07891502231359482
visibility: 0.8516041040420532
","x: 244.95083618164062
y: 335.685546875
z: -0.2954663932323456
visibility: 0.993619978427887
","x: 197.7308349609375
y: 325.3205871582031
z: -0.10556580871343613
visibility: 0.8606231212615967
","x: 245.33460998535156
y: 332.8230285644531
z: -0.25524428486824036
visibility: 0.9886306524276733
","x: 199.8354034423828
y: 324.5356750488281
z: -0.06883207708597183
visibility: 0.8351645469665527
","x: 235.98422241210938
y: 364.9483642578125
z: -0.08292947709560394
visibility: 0.9991913437843323
","x: 219.1479034423828
y: 364.9893493652344
z: 0.08303426206111908
visibility: 0.9976492524147034
","x: 229.09625244140625
y: 443.8932800292969
z: -0.11819203197956085
visibility: 0.9863165020942688
","x: 220.43515014648438
y: 441.92095947265625
z: 0.07670506089925766
visibility: 0.842647910118103
","x: 230.9711151123047
y: 523.4537353515625
z: -0.07819284498691559
visibility: 0.9905921816825867
","x: 227.44830322265625
y: 514.1712036132812
z: 0.15212921798229218
visibility: 0.9344676733016968
","x: 233.39901733398438
y: 536.46630859375
z: -0.08035723119974136
visibility: 0.9422335028648376
","x: 231.13330078125
y: 526.8748779296875
z: 0.15362223982810974
visibility: 0.9025095701217651
","x: 217.6038818359375
y: 542.78515625
z: -0.19786033034324646
visibility: 0.9875214695930481
","x: 212.9564208984375
y: 535.8406372070312
z: 0.07103238999843597
visibility: 0.9493495225906372
","x: 251.4750518798828
y: 332.4830627441406
z: 0.0
","x: 247.32009887695312
y: 332.54217529296875
z: -1.1987665857304819e-05
","x: 243.26239013671875
y: 334.4274597167969
z: -0.0031185836996883154
","x: 241.25502014160156
y: 337.5774841308594
z: -0.006412776652723551
","x: 240.72503662109375
y: 340.64910888671875
z: -0.009166029281914234
","x: 243.26170349121094
y: 329.84246826171875
z: -0.009145119227468967
","x: 239.96617126464844
y: 339.3823547363281
z: -0.013870089314877987
","x: 241.21456909179688
y: 340.41900634765625
z: -0.01476628053933382
","x: 242.67886352539062
y: 338.72381591796875
z: -0.014895861968398094
","x: 245.72262573242188
y: 331.0989685058594
z: -0.011827723123133183
","x: 243.09739685058594
y: 342.42327880859375
z: -0.01655624806880951
","x: 243.80392456054688
y: 342.5259704589844
z: -0.015402281656861305
","x: 244.46835327148438
y: 340.14202880859375
z: -0.014417970553040504
","x: 248.23033142089844
y: 333.50360107421875
z: -0.014277013018727303
","x: 245.6763916015625
y: 343.9233703613281
z: -0.017612842842936516
","x: 246.16221618652344
y: 343.8531188964844
z: -0.014621454291045666
","x: 246.82839965820312
y: 341.3978271484375
z: -0.012614798732101917
","x: 250.53082275390625
y: 336.4817810058594
z: -0.0166973527520895
","x: 248.28823852539062
y: 344.58526611328125
z: -0.01878289133310318
","x: 248.24681091308594
y: 344.2255859375
z: -0.01690351776778698
","x: 248.78977966308594
y: 341.869140625
z: -0.015450100414454937
",,,,,,,,,,,,,,,,,,,,,
2,"x: 218.36837768554688
y: 236.72052001953125
z: -0.13474811613559723
visibility: 0.9997735023498535
","x: 220.3307342529297
y: 229.34828186035156
z: -0.1444694697856903
visibility: 0.9997040629386902
","x: 221.41058349609375
y: 228.94094848632812
z: -0.14453187584877014
visibility: 0.9997422695159912
","x: 222.6119384765625
y: 228.51255798339844
z: -0.14459964632987976
visibility: 0.9997877478599548
","x: 218.4223175048828
y: 229.72113037109375
z: -0.1185668557882309
visibility: 0.9995085000991821
","x: 218.075439453125
y: 229.64578247070312
z: -0.11857477575540543
visibility: 0.9993637204170227
","x: 217.65538024902344
y: 229.512451171875
z: -0.11856649816036224
visibility: 0.9993245005607605
","x: 228.09461975097656
y: 229.79226684570312
z: -0.13144274055957794
visibility: 0.9998717904090881
","x: 220.1824188232422
y: 231.20741271972656
z: -0.012056505307555199
visibility: 0.9981144070625305
","x: 222.0678253173828
y: 243.15753173828125
z: -0.1255844086408615
visibility: 0.9998966455459595
","x: 219.56900024414062
y: 243.46255493164062
z: -0.0927065759897232
visibility: 0.999561607837677
","x: 245.1759033203125
y: 262.26922607421875
z: -0.1539466381072998
visibility: 0.9999949932098389
","x: 222.6887969970703
y: 266.13812255859375
z: 0.11961084604263306
visibility: 0.9990367293357849
","x: 262.5052185058594
y: 305.2652587890625
z: -0.19440601766109467
visibility: 0.9993633031845093
","x: 219.05377197265625
y: 311.15093994140625
z: 0.18858182430267334
visibility: 0.32107624411582947
","x: 251.05032348632812
y: 340.6481628417969
z: -0.22930362820625305
visibility: 0.9976038932800293
","x: 212.51434326171875
y: 321.8166809082031
z: 0.07559683918952942
visibility: 0.8087201118469238
","x: 247.47328186035156
y: 350.5355529785156
z: -0.25570598244667053
visibility: 0.993349015712738
","x: 209.92022705078125
y: 325.53289794921875
z: 0.0642118975520134
visibility: 0.8181270956993103
","x: 244.4771270751953
y: 344.16796875
z: -0.25864365696907043
visibility: 0.9933727979660034
","x: 210.46986389160156
y: 321.825439453125
z: 0.039210639894008636
visibility: 0.827770471572876
","x: 244.7786865234375
y: 341.2416076660156
z: -0.22696030139923096
visibility: 0.9881654381752014
","x: 212.17364501953125
y: 318.68389892578125
z: 0.061821334064006805
visibility: 0.8013890981674194
","x: 235.7000732421875
y: 366.1767272949219
z: -0.0942481979727745
visibility: 0.9992040991783142
","x: 221.0166778564453
y: 364.9886474609375
z: 0.09435586631298065
visibility: 0.9976192116737366
","x: 223.45608520507812
y: 443.36322021484375
z: -0.13052181899547577
visibility: 0.9846834540367126
","x: 220.0767822265625
y: 440.010498046875
z: 0.06302548944950104
visibility: 0.8149182200431824
","x: 230.47100830078125
y: 523.0296020507812
z: -0.10249358415603638
visibility: 0.9893050193786621
","x: 227.320068359375
y: 512.287109375
z: 0.10390961170196533
visibility: 0.9147759675979614
","x: 233.7861785888672
y: 536.5924682617188
z: -0.10422148555517197
visibility: 0.9424737095832825
","x: 231.21551513671875
y: 526.2171630859375
z: 0.1031440868973732
visibility: 0.8915766477584839
","x: 213.89712524414062
y: 543.25634765625
z: -0.19820192456245422
visibility: 0.9860302805900574
","x: 212.72662353515625
y: 534.46435546875
z: 0.03561054915189743
visibility: 0.937305212020874
",,,,,,,,,,,,,,,,,,,,,,,,,,,,,,,,,,,,,,,,,,
3,"x: 218.28677368164062
y: 238.29652404785156
z: -0.13600072264671326
visibility: 0.9997549057006836
","x: 220.3245391845703
y: 230.4688720703125
z: -0.1455845981836319
visibility: 0.9996946454048157
","x: 221.41517639160156
y: 230.15838623046875
z: -0.1456434279680252
visibility: 0.9997376203536987
","x: 222.61614990234375
y: 229.8687744140625
z: -0.1457168012857437
visibility: 0.9997825622558594
","x: 218.40664672851562
y: 230.67994689941406
z: -0.11965970695018768
visibility: 0.9994953870773315
","x: 218.0655975341797
y: 230.5470428466797
z: -0.11966713517904282
visibility: 0.9993528127670288
","x: 217.6549072265625
y: 230.35545349121094
z: -0.11965789645910263
visibility: 0.999308168888092
","x: 228.2578582763672
y: 230.93484497070312
z: -0.13979102671146393
visibility: 0.9998735189437866
","x: 220.8595733642578
y: 231.48809814453125
z: -0.015818415209650993
visibility: 0.9981576800346375
","x: 221.99508666992188
y: 244.93125915527344
z: -0.12769006192684174
visibility: 0.9998913407325745
","x: 219.54949951171875
y: 245.3737030029297
z: -0.09340132027864456
visibility: 0.9995415210723877
","x: 244.99485778808594
y: 262.84710693359375
z: -0.16114455461502075
visibility: 0.9999948143959045
","x: 224.2709197998047
y: 266.3059387207031
z: 0.11942601203918457
visibility: 0.9989757537841797
","x: 262.4728088378906
y: 309.00042724609375
z: -0.206524059176445
visibility: 0.9993814826011658
","x: 219.8896484375
y: 312.1903381347656
z: 0.17914904654026031
visibility: 0.29970070719718933
","x: 249.6260528564453
y: 343.70965576171875
z: -0.23547585308551788
visibility: 0.9973489046096802
","x: 212.94049072265625
y: 321.7550048828125
z: 0.05326088145375252
visibility: 0.7743175625801086
","x: 246.46267700195312
y: 353.85986328125
z: -0.2631461024284363
visibility: 0.9926162362098694
","x: 210.56297302246094
y: 324.8802490234375
z: 0.04074180871248245
visibility: 0.7898525595664978
","x: 242.55941772460938
y: 347.0189208984375
z: -0.26571446657180786
visibility: 0.9925784468650818
","x: 211.36978149414062
y: 320.0717468261719
z: 0.017372112721204758
visibility: 0.79996258020401
","x: 242.91006469726562
y: 344.33642578125
z: -0.23351052403450012
visibility: 0.9868133664131165
","x: 212.74624633789062
y: 318.335205078125
z: 0.039873916655778885
visibility: 0.7730945348739624
","x: 235.1123809814453
y: 369.9458312988281
z: -0.09816429764032364
visibility: 0.9991936087608337
","x: 221.46299743652344
y: 366.77899169921875
z: 0.09830677509307861
visibility: 0.9975354075431824
","x: 220.3101806640625
y: 443.1054382324219
z: -0.13061904907226562
visibility: 0.9840788841247559
","x: 219.29641723632812
y: 440.0995178222656
z: 0.07008136808872223
visibility: 0.7847278714179993
","x: 230.08680725097656
y: 522.3543090820312
z: -0.09807519614696503
visibility: 0.9879035353660583
","x: 227.40371704101562
y: 512.7161254882812
z: 0.12158600240945816
visibility: 0.890063464641571
","x: 233.908447265625
y: 536.1395874023438
z: -0.09908252954483032
visibility: 0.9426090121269226
","x: 231.62811279296875
y: 527.1290893554688
z: 0.12176688760519028
visibility: 0.8782504796981812
","x: 213.21112060546875
y: 543.3753662109375
z: -0.1866247057914734
visibility: 0.9839878678321838
","x: 212.6772003173828
y: 534.602294921875
z: 0.04625431075692177
visibility: 0.9196469187736511
",,,,,,,,,,,,,,,,,,,,,,,,,,,,,,,,,,,,,,,,,,
4,"x: 217.62448120117188
y: 232.99386596679688
z: -0.12543711066246033
visibility: 0.9997496008872986
","x: 219.88914489746094
y: 225.6246795654297
z: -0.14166101813316345
visibility: 0.9996895790100098
","x: 220.92237854003906
y: 225.30972290039062
z: -0.1417108029127121
visibility: 0.9997380375862122
","x: 222.02496337890625
y: 224.9884796142578
z: -0.14176182448863983
visibility: 0.9997811317443848
","x: 218.1053466796875
y: 225.4058074951172
z: -0.1122952252626419
visibility: 0.9994868040084839
","x: 217.8312225341797
y: 224.9425048828125
z: -0.11231347173452377
visibility: 0.9993571639060974
","x: 217.50820922851562
y: 224.41078186035156
z: -0.11231871694326401
visibility: 0.9993035793304443
","x: 227.40367126464844
y: 226.739501953125
z: -0.15482957661151886
visibility: 0.9998752474784851
","x: 220.79598999023438
y: 225.6133270263672
z: -0.021345697343349457
visibility: 0.9981932640075684
","x: 220.79615783691406
y: 239.58477783203125
z: -0.12676715850830078
visibility: 0.9998902678489685
","x: 218.82217407226562
y: 239.04147338867188
z: -0.08849968016147614
visibility: 0.9995285868644714
","x: 243.15313720703125
y: 259.5274963378906
z: -0.18213047087192535
visibility: 0.9999949932098389
","x: 223.62881469726562
y: 263.7185974121094
z: 0.09595812857151031
visibility: 0.9989665746688843
","x: 260.78961181640625
y: 308.6315612792969
z: -0.21655185520648956
visibility: 0.9993873238563538
","x: 220.3022918701172
y: 311.5607604980469
z: 0.16887393593788147
visibility: 0.2851390838623047
","x: 247.10076904296875
y: 344.680908203125
z: -0.23728379607200623
visibility: 0.9974032044410706
","x: 211.2188262939453
y: 316.4403991699219
z: 0.05213433504104614
visibility: 0.7591633200645447
","x: 243.76834106445312
y: 356.04168701171875
z: -0.26485517621040344
visibility: 0.9927516579627991
","x: 209.45626831054688
y: 317.43017578125
z: 0.04010201618075371
visibility: 0.778572142124176
","x: 239.70785522460938
y: 349.3136901855469
z: -0.27005934715270996
visibility: 0.9926953315734863
","x: 210.33706665039062
y: 311.05914306640625
z: 0.015874797478318214
visibility: 0.7893625497817993
","x: 240.1669921875
y: 345.8495788574219
z: -0.23613178730010986
visibility: 0.9869788289070129
","x: 211.52926635742188
y: 310.3080139160156
z: 0.038373105227947235
visibility: 0.7609498500823975
","x: 234.52410888671875
y: 369.7355651855469
z: -0.09586227685213089
visibility: 0.9991540908813477
","x: 222.05909729003906
y: 366.63287353515625
z: 0.096054807305336
visibility: 0.9973723888397217
","x: 220.94384765625
y: 443.3966064453125
z: -0.0805906429886818
visibility: 0.9815319776535034
","x: 220.48507690429688
y: 439.4533996582031
z: 0.10660654306411743
visibility: 0.7679194808006287
","x: 229.8765106201172
y: 522.5263671875
z: -0.02833915315568447
visibility: 0.9867296814918518
","x: 227.59742736816406
y: 510.6240539550781
z: 0.16988901793956757
visibility: 0.8783822655677795
","x: 233.9038848876953
y: 537.2608032226562
z: -0.028019171208143234
visibility: 0.941528856754303
","x: 232.03854370117188
y: 524.9425048828125
z: 0.17180220782756805
visibility: 0.8681134581565857
","x: 212.69912719726562
y: 543.8145141601562
z: -0.12287117540836334
visibility: 0.9828230738639832
","x: 213.46141052246094
y: 531.169189453125
z: 0.10907614231109619
visibility: 0.9140806198120117
",,,,,,,,,,,,,,,,,,,,,,,,,,,,,,,,,,,,,,,,,,
5,"x: 217.60897827148438
y: 230.65406799316406
z: -0.15413984656333923
visibility: 0.9997629523277283
","x: 219.9056396484375
y: 223.3614959716797
z: -0.1642611175775528
visibility: 0.9997043609619141
","x: 220.93650817871094
y: 223.05677795410156
z: -0.1643257439136505
visibility: 0.9997506737709045
","x: 222.06283569335938
y: 222.80734252929688
z: -0.16438668966293335
visibility: 0.9997906684875488
","x: 218.01287841796875
y: 222.93153381347656
z: -0.1386891007423401
visibility: 0.9995124936103821
","x: 217.66761779785156
y: 222.3345947265625
z: -0.13867616653442383
visibility: 0.9993915557861328
","x: 217.29197692871094
y: 221.71217346191406
z: -0.13866552710533142
visibility: 0.9993352890014648
","x: 227.4236297607422
y: 224.72959899902344
z: -0.1500472128391266
visibility: 0.9998823404312134
","x: 220.75302124023438
y: 222.73193359375
z: -0.03533289209008217
visibility: 0.9982895255088806
","x: 220.87367248535156
y: 237.33624267578125
z: -0.14515064656734467
visibility: 0.9998969435691833
","x: 218.58172607421875
y: 236.34507751464844
z: -0.1120276227593422
visibility: 0.999557375907898
","x: 242.42774963378906
y: 257.90203857421875
z: -0.16394281387329102
visibility: 0.9999950528144836
","x: 222.75457763671875
y: 262.4576416015625
z: 0.09493833035230637
visibility: 0.9989999532699585
","x: 260.3349914550781
y: 308.0550842285156
z: -0.20329923927783966
visibility: 0.9993694424629211
","x: 218.70285034179688
y: 311.6955261230469
z: 0.11370702087879181
visibility: 0.28071263432502747
","x: 243.44859313964844
y: 343.77197265625
z: -0.23900970816612244
visibility: 0.997265636920929
","x: 209.99534606933594
y: 315.91400146484375
z: -0.06737387180328369
visibility: 0.7582634091377258
","x: 238.258056640625
y: 352.7567138671875
z: -0.26865285634994507
visibility: 0.9923241138458252
","x: 208.6219482421875
y: 316.47784423828125
z: -0.09082569181919098
visibility: 0.7782692909240723
","x: 235.38926696777344
y: 345.3744812011719
z: -0.2739030718803406
visibility: 0.9922457337379456
","x: 209.6267852783203
y: 310.36767578125
z: -0.11214687675237656
visibility: 0.7888715863227844
","x: 236.341064453125
y: 341.3352966308594
z: -0.23858542740345
visibility: 0.986237108707428
","x: 210.80804443359375
y: 309.5589904785156
z: -0.08159997314214706
visibility: 0.7594156265258789
","x: 234.54098510742188
y: 369.5672912597656
z: -0.09055556356906891
visibility: 0.9991459250450134
","x: 222.81430053710938
y: 367.3006896972656
z: 0.09068936109542847
visibility: 0.9974052309989929
","x: 229.62547302246094
y: 444.90728759765625
z: -0.07886549085378647
visibility: 0.9795030951499939
","x: 225.18325805664062
y: 440.43145751953125
z: 0.10171492397785187
visibility: 0.7571142911911011
","x: 229.89505004882812
y: 523.843017578125
z: -0.021680332720279694
visibility: 0.984684407711029
","x: 228.43789672851562
y: 514.2003784179688
z: 0.17247411608695984
visibility: 0.8716209530830383
","x: 233.7617950439453
y: 538.328125
z: -0.021841999143362045
visibility: 0.9389456510543823
","x: 232.37811279296875
y: 526.97412109375
z: 0.17424410581588745
visibility: 0.8623068928718567
","x: 213.09902954101562
y: 544.1371459960938
z: -0.12715207040309906
visibility: 0.9805418848991394
","x: 214.15570068359375
y: 531.398193359375
z: 0.10168863832950592
visibility: 0.9096571207046509
",,,,,,,,,,,,,,,,,,,,,,"x: 206.96051025390625
y: 316.2122802734375
z: 0.0
","x: 208.9863739013672
y: 313.4857177734375
z: -0.0014828663552179933
","x: 210.6572265625
y: 310.52557373046875
z: -0.00413684593513608
","x: 211.67538452148438
y: 308.6485900878906
z: -0.00679117813706398
","x: 212.2202606201172
y: 307.49578857421875
z: -0.009128758683800697
","x: 207.9190673828125
y: 305.9755859375
z: -0.005528361536562443
","x: 210.24618530273438
y: 306.9473876953125
z: -0.00900507252663374
","x: 210.8147735595703
y: 308.44256591796875
z: -0.010802744887769222
","x: 210.91233825683594
y: 309.0246276855469
z: -0.011802987195551395
","x: 206.4391632080078
y: 308.2538146972656
z: -0.006625587120652199
","x: 209.653564453125
y: 312.28167724609375
z: -0.009944872930645943
","x: 210.09764099121094
y: 313.11444091796875
z: -0.01000930555164814
","x: 209.94566345214844
y: 312.826171875
z: -0.010181013494729996
","x: 205.4025421142578
y: 311.5957946777344
z: -0.007753466721624136
","x: 208.34707641601562
y: 315.4614562988281
z: -0.010096605867147446
","x: 208.58975219726562
y: 315.7950439453125
z: -0.008929852396249771
","x: 208.30397033691406
y: 315.18243408203125
z: -0.008324675261974335
","x: 204.724609375
y: 315.0050354003906
z: -0.009111009538173676
","x: 206.6590576171875
y: 317.8298645019531
z: -0.010338998399674892
","x: 206.9111328125
y: 317.9464416503906
z: -0.009603451006114483
","x: 206.67640686035156
y: 317.3133544921875
z: -0.009193731471896172
"
6,"x: 217.60897827148438
y: 230.65406799316406
z: -0.15413984656333923
visibility: 0.9997629523277283
","x: 219.9056396484375
y: 223.3614959716797
z: -0.1642611175775528
visibility: 0.9997043609619141
","x: 220.93650817871094
y: 223.05677795410156
z: -0.1643257439136505
visibility: 0.9997506737709045
","x: 222.06283569335938
y: 222.80734252929688
z: -0.16438668966293335
visibility: 0.9997906684875488
","x: 218.01287841796875
y: 222.93153381347656
z: -0.1386891007423401
visibility: 0.9995124936103821
","x: 217.66761779785156
y: 222.3345947265625
z: -0.13867616653442383
visibility: 0.9993915557861328
","x: 217.29197692871094
y: 221.71217346191406
z: -0.13866552710533142
visibility: 0.9993352890014648
","x: 227.4236297607422
y: 224.72959899902344
z: -0.1500472128391266
visibility: 0.9998823404312134
","x: 220.75302124023438
y: 222.73193359375
z: -0.03533289209008217
visibility: 0.9982895255088806
","x: 220.87367248535156
y: 237.33624267578125
z: -0.14515064656734467
visibility: 0.9998969435691833
","x: 218.58172607421875
y: 236.34507751464844
z: -0.1120276227593422
visibility: 0.999557375907898
","x: 242.42774963378906
y: 257.90203857421875
z: -0.16394281387329102
visibility: 0.9999950528144836
","x: 222.75457763671875
y: 262.4576416015625
z: 0.09493833035230637
visibility: 0.9989999532699585
","x: 260.3349914550781
y: 308.0550842285156
z: -0.20329923927783966
visibility: 0.9993694424629211
","x: 218.70285034179688
y: 311.6955261230469
z: 0.11370702087879181
visibility: 0.28071263432502747
","x: 243.44859313964844
y: 343.77197265625
z: -0.23900970816612244
visibility: 0.997265636920929
","x: 209.99534606933594
y: 315.91400146484375
z: -0.06737387180328369
visibility: 0.7582634091377258
","x: 238.258056640625
y: 352.7567138671875
z: -0.26865285634994507
visibility: 0.9923241138458252
","x: 208.6219482421875
y: 316.47784423828125
z: -0.09082569181919098
visibility: 0.7782692909240723
","x: 235.38926696777344
y: 345.3744812011719
z: -0.2739030718803406
visibility: 0.9922457337379456
","x: 209.6267852783203
y: 310.36767578125
z: -0.11214687675237656
visibility: 0.7888715863227844
","x: 236.341064453125
y: 341.3352966308594
z: -0.23858542740345
visibility: 0.986237108707428
","x: 210.80804443359375
y: 309.5589904785156
z: -0.08159997314214706
visibility: 0.7594156265258789
","x: 234.54098510742188
y: 369.5672912597656
z: -0.09055556356906891
visibility: 0.9991459250450134
","x: 222.81430053710938
y: 367.3006896972656
z: 0.09068936109542847
visibility: 0.9974052309989929
","x: 229.62547302246094
y: 444.90728759765625
z: -0.07886549085378647
visibility: 0.9795030951499939
","x: 225.18325805664062
y: 440.43145751953125
z: 0.10171492397785187
visibility: 0.7571142911911011
","x: 229.89505004882812
y: 523.843017578125
z: -0.021680332720279694
visibility: 0.984684407711029
","x: 228.43789672851562
y: 514.2003784179688
z: 0.17247411608695984
visibility: 0.8716209530830383
","x: 233.7617950439453
y: 538.328125
z: -0.021841999143362045
visibility: 0.9389456510543823
","x: 232.37811279296875
y: 526.97412109375
z: 0.17424410581588745
visibility: 0.8623068928718567
","x: 213.09902954101562
y: 544.1371459960938
z: -0.12715207040309906
visibility: 0.9805418848991394
","x: 214.15570068359375
y: 531.398193359375
z: 0.10168863832950592
visibility: 0.9096571207046509
",,,,,,,,,,,,,,,,,,,,,,"x: 206.96051025390625
y: 316.2122802734375
z: 0.0
","x: 208.9863739013672
y: 313.4857177734375
z: -0.0014828663552179933
","x: 210.6572265625
y: 310.52557373046875
z: -0.00413684593513608
","x: 211.67538452148438
y: 308.6485900878906
z: -0.00679117813706398
","x: 212.2202606201172
y: 307.49578857421875
z: -0.009128758683800697
","x: 207.9190673828125
y: 305.9755859375
z: -0.005528361536562443
","x: 210.24618530273438
y: 306.9473876953125
z: -0.00900507252663374
","x: 210.8147735595703
y: 308.44256591796875
z: -0.010802744887769222
","x: 210.91233825683594
y: 309.0246276855469
z: -0.011802987195551395
","x: 206.4391632080078
y: 308.2538146972656
z: -0.006625587120652199
","x: 209.653564453125
y: 312.28167724609375
z: -0.009944872930645943
","x: 210.09764099121094
y: 313.11444091796875
z: -0.01000930555164814
","x: 209.94566345214844
y: 312.826171875
z: -0.010181013494729996
","x: 205.4025421142578
y: 311.5957946777344
z: -0.007753466721624136
","x: 208.34707641601562
y: 315.4614562988281
z: -0.010096605867147446
","x: 208.58975219726562
y: 315.7950439453125
z: -0.008929852396249771
","x: 208.30397033691406
y: 315.18243408203125
z: -0.008324675261974335
","x: 204.724609375
y: 315.0050354003906
z: -0.009111009538173676
","x: 206.6590576171875
y: 317.8298645019531
z: -0.010338998399674892
","x: 206.9111328125
y: 317.9464416503906
z: -0.009603451006114483
","x: 206.67640686035156
y: 317.3133544921875
z: -0.009193731471896172
"
7,"x: 216.79537963867188
y: 228.2650604248047
z: -0.1134808212518692
visibility: 0.9997612237930298
","x: 219.20379638671875
y: 220.57391357421875
z: -0.1295493245124817
visibility: 0.9997019171714783
","x: 220.25604248046875
y: 220.19940185546875
z: -0.12962569296360016
visibility: 0.9997481107711792
","x: 221.36407470703125
y: 219.8590087890625
z: -0.12968970835208893
visibility: 0.9997885823249817
","x: 217.47531127929688
y: 220.4552001953125
z: -0.09964697062969208
visibility: 0.9995107054710388
","x: 217.2489471435547
y: 220.04248046875
z: -0.09962185472249985
visibility: 0.9993941783905029
","x: 217.0144500732422
y: 219.6013641357422
z: -0.09962670505046844
visibility: 0.9993345141410828
","x: 227.02151489257812
y: 222.31773376464844
z: -0.1418420821428299
visibility: 0.9998846054077148
","x: 220.79180908203125
y: 221.3280029296875
z: -0.012603381648659706
visibility: 0.9983499050140381
","x: 219.93209838867188
y: 235.1591796875
z: -0.11586706340312958
visibility: 0.9998993277549744
","x: 217.8790740966797
y: 234.42526245117188
z: -0.07669489085674286
visibility: 0.9995676279067993
","x: 241.9337158203125
y: 255.7088623046875
z: -0.16861572861671448
visibility: 0.9999951720237732
","x: 222.46493530273438
y: 262.406982421875
z: 0.09868329763412476
visibility: 0.9990289807319641
","x: 259.2638854980469
y: 307.982666015625
z: -0.20029640197753906
visibility: 0.9992988705635071
","x: 218.75343322753906
y: 310.3023376464844
z: 0.12865778803825378
visibility: 0.2637653648853302
","x: 238.98593139648438
y: 341.7883605957031
z: -0.2113315612077713
visibility: 0.996980607509613
","x: 209.50497436523438
y: 327.3445129394531
z: 0.009319676086306572
visibility: 0.7175417542457581
","x: 233.6740264892578
y: 350.22998046875
z: -0.24017839133739471
visibility: 0.9916033744812012
","x: 207.67318725585938
y: 335.1429748535156
z: -0.007169591728597879
visibility: 0.7398330569267273
","x: 230.5128173828125
y: 343.1323547363281
z: -0.2412511110305786
visibility: 0.9914498329162598
","x: 207.82562255859375
y: 331.0732421875
z: -0.03623787313699722
visibility: 0.7511067986488342
","x: 232.03366088867188
y: 339.2000732421875
z: -0.20857664942741394
visibility: 0.9848055243492126
","x: 209.56100463867188
y: 328.7110900878906
z: -0.007975258864462376
visibility: 0.7225255966186523
","x: 234.5582275390625
y: 369.38250732421875
z: -0.08788587898015976
visibility: 0.9991250038146973
","x: 222.0816650390625
y: 367.9702453613281
z: 0.08797921985387802
visibility: 0.9973982572555542
","x: 232.14794921875
y: 448.00885009765625
z: -0.057649366557598114
visibility: 0.9790797829627991
","x: 224.5653076171875
y: 443.54144287109375
z: 0.11950148642063141
visibility: 0.7617783546447754
","x: 229.91030883789062
y: 524.1927490234375
z: 0.02194993384182453
visibility: 0.9842695593833923
","x: 228.4779510498047
y: 516.089111328125
z: 0.20752394199371338
visibility: 0.874728262424469
","x: 233.71023559570312
y: 538.5472412109375
z: 0.024101195856928825
visibility: 0.9376558065414429
","x: 232.36935424804688
y: 527.8327026367188
z: 0.21113698184490204
visibility: 0.8627236485481262
","x: 213.4036102294922
y: 544.3997802734375
z: -0.07791687548160553
visibility: 0.9800471067428589
","x: 214.1046142578125
y: 533.1493530273438
z: 0.14411970973014832
visibility: 0.912517249584198
",,,,,,,,,,,,,,,,,,,,,,,,,,,,,,,,,,,,,,,,,,
8,"x: 216.72210693359375
y: 226.6285400390625
z: -0.12259314954280853
visibility: 0.9997648596763611
","x: 219.17770385742188
y: 218.66629028320312
z: -0.13468176126480103
visibility: 0.9996996521949768
","x: 220.26466369628906
y: 218.2593536376953
z: -0.13475099205970764
visibility: 0.9997460246086121
","x: 221.3910675048828
y: 217.863525390625
z: -0.1348128765821457
visibility: 0.9997861385345459
","x: 217.36709594726562
y: 218.816162109375
z: -0.10747828334569931
visibility: 0.9995161890983582
","x: 217.136962890625
y: 218.54888916015625
z: -0.10746653378009796
visibility: 0.99940425157547
","x: 216.9182586669922
y: 218.26132202148438
z: -0.1074611097574234
visibility: 0.9993484020233154
","x: 227.0579071044922
y: 220.43748474121094
z: -0.13836698234081268
visibility: 0.9998822808265686
","x: 220.8576202392578
y: 220.02540588378906
z: -0.013047908432781696
visibility: 0.9984024167060852
","x: 219.91525268554688
y: 233.58132934570312
z: -0.11722159385681152
visibility: 0.9999016523361206
","x: 217.73129272460938
y: 233.05023193359375
z: -0.08169245719909668
visibility: 0.9995840787887573
","x: 242.20384216308594
y: 255.4281768798828
z: -0.1593727171421051
visibility: 0.999995231628418
","x: 221.51512145996094
y: 261.849853515625
z: 0.09377721697092056
visibility: 0.9990825653076172
","x: 258.91107177734375
y: 307.8818664550781
z: -0.196214959025383
visibility: 0.9992939829826355
","x: 216.82464599609375
y: 310.85028076171875
z: 0.1335870623588562
visibility: 0.2635733485221863
","x: 236.4105224609375
y: 339.4670104980469
z: -0.22125494480133057
visibility: 0.9968380331993103
","x: 208.67996215820312
y: 345.1534729003906
z: 0.025913065299391747
visibility: 0.7015371918678284
","x: 230.59629821777344
y: 347.958740234375
z: -0.2513555586338043
visibility: 0.9910972714424133
","x: 207.03195190429688
y: 359.3203430175781
z: 0.007550680544227362
visibility: 0.7182998657226562
","x: 228.3037109375
y: 339.6871337890625
z: -0.25216612219810486
visibility: 0.9908634424209595
","x: 207.15692138671875
y: 356.4862060546875
z: -0.020369667559862137
visibility: 0.72926926612854
","x: 229.76641845703125
y: 336.2020263671875
z: -0.21892714500427246
visibility: 0.9836975336074829
","x: 209.37855529785156
y: 351.54376220703125
z: 0.010231586173176765
visibility: 0.7010953426361084
","x: 233.99172973632812
y: 368.6849365234375
z: -0.08563912659883499
visibility: 0.9991496801376343
","x: 219.2768096923828
y: 367.511474609375
z: 0.08569727092981339
visibility: 0.9974905848503113
","x: 232.3011474609375
y: 447.7044677734375
z: -0.0785062313079834
visibility: 0.979386031627655
","x: 224.012939453125
y: 443.4742431640625
z: 0.11095559597015381
visibility: 0.7662892937660217
","x: 229.9511260986328
y: 524.2223510742188
z: -0.020599104464054108
visibility: 0.9845961332321167
","x: 228.34205627441406
y: 516.1185302734375
z: 0.18436673283576965
visibility: 0.8786771893501282
","x: 233.72415161132812
y: 538.5383911132812
z: -0.020465608686208725
visibility: 0.9356733560562134
","x: 232.27536010742188
y: 527.816650390625
z: 0.18655714392662048
visibility: 0.8646786212921143
","x: 213.55352783203125
y: 544.7005615234375
z: -0.1183510571718216
visibility: 0.9803579449653625
","x: 213.8229217529297
y: 534.5042724609375
z: 0.11473957449197769
visibility: 0.9161674976348877
",,,,,,,,,,,,,,,,,,,,,,,,,,,,,,,,,,,,,,,,,,
9,"x: 216.80410766601562
y: 225.85467529296875
z: -0.11874176561832428
visibility: 0.9997551441192627
","x: 219.27676391601562
y: 217.9202423095703
z: -0.1297408938407898
visibility: 0.9996830821037292
","x: 220.37586975097656
y: 217.52667236328125
z: -0.12981675565242767
visibility: 0.9997327327728271
","x: 221.53578186035156
y: 217.13552856445312
z: -0.12990930676460266
visibility: 0.9997764229774475
","x: 217.43374633789062
y: 218.1466522216797
z: -0.10316187143325806
visibility: 0.9994975924491882
","x: 217.24049377441406
y: 217.95907592773438
z: -0.1031247153878212
visibility: 0.999380350112915
","x: 217.08348083496094
y: 217.7469482421875
z: -0.10311366617679596
visibility: 0.9993184208869934
","x: 227.7655487060547
y: 219.836181640625
z: -0.13029024004936218
visibility: 0.9998844265937805
","x: 221.5535430908203
y: 219.38800048828125
z: -0.005911960266530514
visibility: 0.9984144568443298
","x: 220.00064086914062
y: 232.90060424804688
z: -0.11338356882333755
visibility: 0.9999023675918579
","x: 217.75543212890625
y: 232.3817138671875
z: -0.07842670381069183
visibility: 0.9995828866958618
","x: 243.61192321777344
y: 255.80020141601562
z: -0.15672847628593445
visibility: 0.9999949932098389
","x: 221.37620544433594
y: 259.723388671875
z: 0.09742439538240433
visibility: 0.9990643858909607
","x: 258.85418701171875
y: 308.733642578125
z: -0.18286077678203583
visibility: 0.9992374777793884
","x: 220.17208862304688
y: 310.6210632324219
z: 0.13449206948280334
visibility: 0.24116769433021545
","x: 234.63734436035156
y: 334.2125244140625
z: -0.17317447066307068
visibility: 0.9959048628807068
","x: 214.32321166992188
y: 343.677734375
z: 0.012700110673904419
visibility: 0.6407359838485718
","x: 228.0070037841797
y: 341.72052001953125
z: -0.19866254925727844
visibility: 0.9883323311805725
","x: 211.63330078125
y: 356.18206787109375
z: -0.006035893224179745
visibility: 0.658094048500061
","x: 225.8191375732422
y: 333.1412353515625
z: -0.19332793354988098
visibility: 0.9877969026565552
","x: 212.00909423828125
y: 353.25091552734375
z: -0.032182782888412476
visibility: 0.6684354543685913
","x: 227.53993225097656
y: 330.60540771484375
z: -0.1673160046339035
visibility: 0.9785865545272827
","x: 213.8623809814453
y: 348.308349609375
z: -0.0024242026265710592
visibility: 0.6426272988319397
","x: 234.0387725830078
y: 368.375244140625
z: -0.07826593518257141
visibility: 0.9991571307182312
","x: 217.95188903808594
y: 367.48101806640625
z: 0.0783839002251625
visibility: 0.9975399971008301
","x: 233.44699096679688
y: 446.758056640625
z: -0.08399005234241486
visibility: 0.9807102084159851
","x: 218.58169555664062
y: 446.2835998535156
z: 0.09326224774122238
visibility: 0.784841775894165
","x: 230.0250701904297
y: 523.30078125
z: 0.004313533194363117
visibility: 0.9854603409767151
","x: 228.13372802734375
y: 516.2813720703125
z: 0.1923232525587082
visibility: 0.888614296913147
","x: 233.70364379882812
y: 537.9056396484375
z: 0.006487462669610977
visibility: 0.9342647194862366
","x: 232.19998168945312
y: 528.1551513671875
z: 0.19679667055606842
visibility: 0.8728441596031189
","x: 215.13584899902344
y: 544.5476684570312
z: -0.10622815042734146
visibility: 0.9812155961990356
","x: 213.76971435546875
y: 536.4012451171875
z: 0.12275578081607819
visibility: 0.92254638671875
",,,,,,,,,,,,,,,,,,,,,,,,,,,,,,,,,,,,,,,,,,
10,"x: 216.86276245117188
y: 226.724853515625
z: -0.10924871265888214
visibility: 0.9997613430023193
","x: 219.31826782226562
y: 218.88677978515625
z: -0.12365458160638809
visibility: 0.9996888637542725
","x: 220.39553833007812
y: 218.499755859375
z: -0.1237211599946022
visibility: 0.9997396469116211
","x: 221.54876708984375
y: 218.11306762695312
z: -0.12380620092153549
visibility: 0.9997833967208862
","x: 217.64439392089844
y: 219.15447998046875
z: -0.09440551698207855
visibility: 0.9995091557502747
","x: 217.55712890625
y: 218.9849853515625
z: -0.09435613453388214
visibility: 0.9993953704833984
","x: 217.5231475830078
y: 218.7751922607422
z: -0.09436094015836716
visibility: 0.9993336796760559
","x: 227.90283203125
y: 220.66102600097656
z: -0.13201017677783966
visibility: 0.9998898506164551
","x: 222.48504638671875
y: 220.3759765625
z: -0.0008516852976754308
visibility: 0.9984953999519348
","x: 220.09559631347656
y: 233.660888671875
z: -0.1088230237364769
visibility: 0.999905526638031
","x: 217.8540496826172
y: 233.25608825683594
z: -0.07050912082195282
visibility: 0.9995954036712646
","x: 244.3241729736328
y: 258.01458740234375
z: -0.1634349673986435
visibility: 0.9999950528144836
","x: 221.26461791992188
y: 260.0263366699219
z: 0.10463283210992813
visibility: 0.9990759491920471
","x: 256.44024658203125
y: 314.69598388671875
z: -0.18362371623516083
visibility: 0.999162495136261
","x: 223.894775390625
y: 310.7843322753906
z: 0.15550638735294342
visibility: 0.22332924604415894
","x: 235.03895568847656
y: 350.87164306640625
z: -0.1641480028629303
visibility: 0.9952205419540405
","x: 217.90855407714844
y: 346.30322265625
z: 0.06282176822423935
visibility: 0.5882469415664673
","x: 230.4357147216797
y: 362.4398498535156
z: -0.18873491883277893
visibility: 0.9865407943725586
","x: 215.7489013671875
y: 361.4468078613281
z: 0.04814391955733299
visibility: 0.6052877306938171
","x: 227.5474853515625
y: 353.6123352050781
z: -0.18896542489528656
visibility: 0.9858150482177734
","x: 215.44772338867188
y: 359.12188720703125
z: 0.01951914094388485
visibility: 0.6153497099876404
","x: 228.81747436523438
y: 350.2113342285156
z: -0.16044677793979645
visibility: 0.975237250328064
","x: 215.68588256835938
y: 353.1059265136719
z: 0.046193160116672516
visibility: 0.591643750667572
","x: 234.06768798828125
y: 369.04150390625
z: -0.07921373099088669
visibility: 0.9991850256919861
","x: 217.9980010986328
y: 367.9548645019531
z: 0.0793142318725586
visibility: 0.99764084815979
","x: 232.9461212158203
y: 447.0762634277344
z: -0.0850449651479721
visibility: 0.9818087816238403
","x: 211.98257446289062
y: 446.6277770996094
z: 0.056021083146333694
visibility: 0.8038190007209778
","x: 229.65579223632812
y: 523.87646484375
z: -0.003720482112839818
visibility: 0.9864048957824707
","x: 226.41668701171875
y: 516.2120971679688
z: 0.16709689795970917
visibility: 0.8980395197868347
","x: 233.6804962158203
y: 540.3068237304688
z: -0.001931737526319921
visibility: 0.9339762330055237
","x: 231.2952117919922
y: 528.1329956054688
z: 0.1739688217639923
visibility: 0.8812644481658936
","x: 213.91648864746094
y: 544.8777465820312
z: -0.11239603906869888
visibility: 0.9821838140487671
","x: 211.6923065185547
y: 536.9891357421875
z: 0.11449724435806274
visibility: 0.9284946918487549
",,,,,,,,,,,,,,,,,,,,,,,,,,,,,,,,,,,,,,,,,,
11,"x: 216.56146240234375
y: 227.38233947753906
z: -0.11327230930328369
visibility: 0.999736487865448
","x: 218.8349609375
y: 219.88796997070312
z: -0.12823840975761414
visibility: 0.9996528625488281
","x: 219.80343627929688
y: 219.51449584960938
z: -0.12830495834350586
visibility: 0.9997158646583557
","x: 220.82275390625
y: 219.11141967773438
z: -0.12838105857372284
visibility: 0.9997645616531372
","x: 217.48019409179688
y: 219.97262573242188
z: -0.09932577610015869
visibility: 0.9994730949401855
","x: 217.47299194335938
y: 219.7134246826172
z: -0.09928227961063385
visibility: 0.9993562698364258
","x: 217.50076293945312
y: 219.39451599121094
z: -0.09929005801677704
visibility: 0.9992877244949341
","x: 227.12013244628906
y: 221.16659545898438
z: -0.16150440275669098
visibility: 0.9998859763145447
","x: 222.38705444335938
y: 220.72927856445312
z: -0.012644301168620586
visibility: 0.9984919428825378
","x: 219.81094360351562
y: 234.67654418945312
z: -0.11185115575790405
visibility: 0.999895453453064
","x: 217.87493896484375
y: 234.33291625976562
z: -0.07606972754001617
visibility: 0.9995567202568054
","x: 244.46136474609375
y: 260.6102294921875
z: -0.19830873608589172
visibility: 0.9999944567680359
","x: 221.669189453125
y: 260.0576477050781
z: 0.08449599891901016
visibility: 0.9990402460098267
","x: 257.02557373046875
y: 317.4572448730469
z: -0.22743847966194153
visibility: 0.9991702437400818
","x: 226.49221801757812
y: 311.88946533203125
z: 0.14690373837947845
visibility: 0.20654378831386566
","x: 236.09283447265625
y: 353.9326477050781
z: -0.18941694498062134
visibility: 0.9951955676078796
","x: 219.2434844970703
y: 347.2565002441406
z: 0.068130262196064
visibility: 0.5409789681434631
","x: 231.50942993164062
y: 364.59375
z: -0.2154221534729004
visibility: 0.9862449169158936
","x: 217.0605926513672
y: 362.5120544433594
z: 0.057148464024066925
visibility: 0.5569028854370117
","x: 228.62457275390625
y: 356.4550476074219
z: -0.2127387523651123
visibility: 0.9854185581207275
","x: 216.0476531982422
y: 359.9306640625
z: 0.027841323986649513
visibility: 0.5668029189109802
","x: 230.01365661621094
y: 353.3399658203125
z: -0.18508441746234894
visibility: 0.9743509888648987
","x: 217.0564727783203
y: 355.4573059082031
z: 0.05182689428329468
visibility: 0.5453444719314575
","x: 233.81649780273438
y: 370.3606872558594
z: -0.07968030869960785
visibility: 0.9990850687026978
","x: 218.02716064453125
y: 369.2641906738281
z: 0.0797693133354187
visibility: 0.9975626468658447
","x: 230.88259887695312
y: 446.9853515625
z: -0.07273662090301514
visibility: 0.982769250869751
","x: 208.7783203125
y: 446.4544677734375
z: 0.058811359107494354
visibility: 0.8197844624519348
","x: 229.21755981445312
y: 523.8828735351562
z: 0.009476101025938988
visibility: 0.987068235874176
","x: 222.81239318847656
y: 518.8364868164062
z: 0.15454867482185364
visibility: 0.9060578346252441
","x: 233.39202880859375
y: 540.4244384765625
z: 0.010888523422181606
visibility: 0.9335717558860779
","x: 228.86366271972656
y: 532.8810424804688
z: 0.15877611935138702
visibility: 0.8877195715904236
","x: 210.93894958496094
y: 544.9257202148438
z: -0.09043990075588226
visibility: 0.9828687310218811
","x: 205.540283203125
y: 539.9161376953125
z: 0.09653715044260025
visibility: 0.9335052371025085
",,,,,,,,,,,,,,,,,,,,,,,,,,,,,,,,,,,,,,,,,,
12,"x: 214.3334503173828
y: 227.52996826171875
z: -0.07964491099119186
visibility: 0.9997466206550598
","x: 216.04348754882812
y: 220.15390014648438
z: -0.09223832190036774
visibility: 0.9996692538261414
","x: 217.08084106445312
y: 219.59432983398438
z: -0.09234800189733505
visibility: 0.9997285604476929
","x: 218.16796875
y: 219.2821044921875
z: -0.09247253835201263
visibility: 0.9997761249542236
","x: 214.356689453125
y: 220.35122680664062
z: -0.06434566527605057
visibility: 0.9995039701461792
","x: 214.1891326904297
y: 220.02728271484375
z: -0.06425388157367706
visibility: 0.9993883371353149
","x: 214.06356811523438
y: 219.6241455078125
z: -0.06423836946487427
visibility: 0.9993211627006531
","x: 223.99215698242188
y: 221.53135681152344
z: -0.09686867892742157
visibility: 0.9998942613601685
","x: 219.2974853515625
y: 221.2325897216797
z: 0.03195280581712723
visibility: 0.9985881447792053
","x: 218.39820861816406
y: 234.82725524902344
z: -0.07639816403388977
visibility: 0.9998990297317505
","x: 216.41876220703125
y: 234.6163330078125
z: -0.04010767862200737
visibility: 0.9995709657669067
","x: 241.47637939453125
y: 258.17108154296875
z: -0.1260242909193039
visibility: 0.9999940395355225
","x: 221.5521240234375
y: 259.28155517578125
z: 0.13703963160514832
visibility: 0.9989262819290161
","x: 259.1261291503906
y: 305.22454833984375
z: -0.17069147527217865
visibility: 0.9991623759269714
","x: 229.4586181640625
y: 306.8221435546875
z: 0.1691252440214157
visibility: 0.18782703578472137
","x: 240.5252227783203
y: 343.6751708984375
z: -0.13951638340950012
visibility: 0.994908332824707
","x: 223.11839294433594
y: 342.2147216796875
z: 0.059713948518037796
visibility: 0.4927104115486145
","x: 235.46328735351562
y: 351.79278564453125
z: -0.16366347670555115
visibility: 0.9851987957954407
","x: 219.8301544189453
y: 359.3748474121094
z: 0.043191976845264435
visibility: 0.5092509984970093
","x: 233.74485778808594
y: 344.0057067871094
z: -0.15789461135864258
visibility: 0.9842590093612671
","x: 219.8914031982422
y: 355.8648986816406
z: 0.01604236103594303
visibility: 0.5188955664634705
","x: 234.82786560058594
y: 341.259765625
z: -0.13342730700969696
visibility: 0.9722331166267395
","x: 221.41189575195312
y: 355.0939636230469
z: 0.043071962893009186
visibility: 0.4996615946292877
","x: 233.85540771484375
y: 370.234619140625
z: -0.0757862851023674
visibility: 0.9990488886833191
","x: 218.1349639892578
y: 369.0811767578125
z: 0.0759783610701561
visibility: 0.9975897073745728
","x: 231.4910888671875
y: 446.9377136230469
z: -0.07925622910261154
visibility: 0.9839391112327576
","x: 211.6862030029297
y: 446.24444580078125
z: 0.03416028246283531
visibility: 0.8346475958824158
","x: 229.47161865234375
y: 524.2943725585938
z: -0.021721476688981056
visibility: 0.9874159693717957
","x: 212.38555908203125
y: 525.6614990234375
z: 0.08353173732757568
visibility: 0.9136474132537842
","x: 232.7581329345703
y: 540.3294677734375
z: -0.023789633065462112
visibility: 0.9333897233009338
","x: 217.28109741210938
y: 539.2472534179688
z: 0.08196236193180084
visibility: 0.8929994106292725
","x: 214.57044982910156
y: 544.919677734375
z: -0.1187368780374527
visibility: 0.9831238389015198
","x: 195.49166870117188
y: 543.2623901367188
z: 0.0025143257807940245
visibility: 0.9377546906471252
","x: 245.89723205566406
y: 342.70465087890625
z: 0.0
","x: 240.42742919921875
y: 343.51104736328125
z: 0.0028184012044221163
","x: 235.8658905029297
y: 341.322509765625
z: 0.001349538448266685
","x: 232.85256958007812
y: 340.4029541015625
z: -0.0012569701066240668
","x: 231.05654907226562
y: 339.8145751953125
z: -0.0031543460208922625
","x: 234.71990966796875
y: 328.8335876464844
z: -0.00227733189240098
","x: 229.69638061523438
y: 334.8298645019531
z: -0.005338054150342941
","x: 230.79164123535156
y: 339.55340576171875
z: -0.005504172295331955
","x: 232.2769012451172
y: 341.0864562988281
z: -0.0053041246719658375
","x: 236.1230010986328
y: 328.9360046386719
z: -0.006198004353791475
","x: 231.7844696044922
y: 338.8995056152344
z: -0.008959406986832619
","x: 233.5968475341797
y: 342.9957580566406
z: -0.007313030306249857
","x: 235.25111389160156
y: 343.16448974609375
z: -0.0060292799025774
","x: 237.73260498046875
y: 330.7572021484375
z: -0.010059128515422344
","x: 233.83311462402344
y: 340.8345031738281
z: -0.011949717998504639
","x: 235.78822326660156
y: 344.16546630859375
z: -0.009090776555240154
","x: 237.47830200195312
y: 343.7763977050781
z: -0.007169382181018591
","x: 239.34494018554688
y: 333.86993408203125
z: -0.013848116621375084
","x: 236.06507873535156
y: 342.0163269042969
z: -0.014457210898399353
","x: 237.26370239257812
y: 344.93157958984375
z: -0.012239222414791584
","x: 238.81985473632812
y: 344.8882751464844
z: -0.010637001134455204
",,,,,,,,,,,,,,,,,,,,,
13,"x: 214.3334503173828
y: 227.52996826171875
z: -0.07964491099119186
visibility: 0.9997466206550598
","x: 216.04348754882812
y: 220.15390014648438
z: -0.09223832190036774
visibility: 0.9996692538261414
","x: 217.08084106445312
y: 219.59432983398438
z: -0.09234800189733505
visibility: 0.9997285604476929
","x: 218.16796875
y: 219.2821044921875
z: -0.09247253835201263
visibility: 0.9997761249542236
","x: 214.356689453125
y: 220.35122680664062
z: -0.06434566527605057
visibility: 0.9995039701461792
","x: 214.1891326904297
y: 220.02728271484375
z: -0.06425388157367706
visibility: 0.9993883371353149
","x: 214.06356811523438
y: 219.6241455078125
z: -0.06423836946487427
visibility: 0.9993211627006531
","x: 223.99215698242188
y: 221.53135681152344
z: -0.09686867892742157
visibility: 0.9998942613601685
","x: 219.2974853515625
y: 221.2325897216797
z: 0.03195280581712723
visibility: 0.9985881447792053
","x: 218.39820861816406
y: 234.82725524902344
z: -0.07639816403388977
visibility: 0.9998990297317505
","x: 216.41876220703125
y: 234.6163330078125
z: -0.04010767862200737
visibility: 0.9995709657669067
","x: 241.47637939453125
y: 258.17108154296875
z: -0.1260242909193039
visibility: 0.9999940395355225
","x: 221.5521240234375
y: 259.28155517578125
z: 0.13703963160514832
visibility: 0.9989262819290161
","x: 259.1261291503906
y: 305.22454833984375
z: -0.17069147527217865
visibility: 0.9991623759269714
","x: 229.4586181640625
y: 306.8221435546875
z: 0.1691252440214157
visibility: 0.18782703578472137
","x: 240.5252227783203
y: 343.6751708984375
z: -0.13951638340950012
visibility: 0.994908332824707
","x: 223.11839294433594
y: 342.2147216796875
z: 0.059713948518037796
visibility: 0.4927104115486145
","x: 235.46328735351562
y: 351.79278564453125
z: -0.16366347670555115
visibility: 0.9851987957954407
","x: 219.8301544189453
y: 359.3748474121094
z: 0.043191976845264435
visibility: 0.5092509984970093
","x: 233.74485778808594
y: 344.0057067871094
z: -0.15789461135864258
visibility: 0.9842590093612671
","x: 219.8914031982422
y: 355.8648986816406
z: 0.01604236103594303
visibility: 0.5188955664634705
","x: 234.82786560058594
y: 341.259765625
z: -0.13342730700969696
visibility: 0.9722331166267395
","x: 221.41189575195312
y: 355.0939636230469
z: 0.043071962893009186
visibility: 0.4996615946292877
","x: 233.85540771484375
y: 370.234619140625
z: -0.0757862851023674
visibility: 0.9990488886833191
","x: 218.1349639892578
y: 369.0811767578125
z: 0.0759783610701561
visibility: 0.9975897073745728
","x: 231.4910888671875
y: 446.9377136230469
z: -0.07925622910261154
visibility: 0.9839391112327576
","x: 211.6862030029297
y: 446.24444580078125
z: 0.03416028246283531
visibility: 0.8346475958824158
","x: 229.47161865234375
y: 524.2943725585938
z: -0.021721476688981056
visibility: 0.9874159693717957
","x: 212.38555908203125
y: 525.6614990234375
z: 0.08353173732757568
visibility: 0.9136474132537842
","x: 232.7581329345703
y: 540.3294677734375
z: -0.023789633065462112
visibility: 0.9333897233009338
","x: 217.28109741210938
y: 539.2472534179688
z: 0.08196236193180084
visibility: 0.8929994106292725
","x: 214.57044982910156
y: 544.919677734375
z: -0.1187368780374527
visibility: 0.9831238389015198
","x: 195.49166870117188
y: 543.2623901367188
z: 0.0025143257807940245
visibility: 0.9377546906471252
","x: 245.89723205566406
y: 342.70465087890625
z: 0.0
","x: 240.42742919921875
y: 343.51104736328125
z: 0.0028184012044221163
","x: 235.8658905029297
y: 341.322509765625
z: 0.001349538448266685
","x: 232.85256958007812
y: 340.4029541015625
z: -0.0012569701066240668
","x: 231.05654907226562
y: 339.8145751953125
z: -0.0031543460208922625
","x: 234.71990966796875
y: 328.8335876464844
z: -0.00227733189240098
","x: 229.69638061523438
y: 334.8298645019531
z: -0.005338054150342941
","x: 230.79164123535156
y: 339.55340576171875
z: -0.005504172295331955
","x: 232.2769012451172
y: 341.0864562988281
z: -0.0053041246719658375
","x: 236.1230010986328
y: 328.9360046386719
z: -0.006198004353791475
","x: 231.7844696044922
y: 338.8995056152344
z: -0.008959406986832619
","x: 233.5968475341797
y: 342.9957580566406
z: -0.007313030306249857
","x: 235.25111389160156
y: 343.16448974609375
z: -0.0060292799025774
","x: 237.73260498046875
y: 330.7572021484375
z: -0.010059128515422344
","x: 233.83311462402344
y: 340.8345031738281
z: -0.011949717998504639
","x: 235.78822326660156
y: 344.16546630859375
z: -0.009090776555240154
","x: 237.47830200195312
y: 343.7763977050781
z: -0.007169382181018591
","x: 239.34494018554688
y: 333.86993408203125
z: -0.013848116621375084
","x: 236.06507873535156
y: 342.0163269042969
z: -0.014457210898399353
","x: 237.26370239257812
y: 344.93157958984375
z: -0.012239222414791584
","x: 238.81985473632812
y: 344.8882751464844
z: -0.010637001134455204
",,,,,,,,,,,,,,,,,,,,,
14,"x: 208.73538208007812
y: 227.85279846191406
z: -0.04535610228776932
visibility: 0.9997228384017944
","x: 210.21182250976562
y: 220.44415283203125
z: -0.06290696561336517
visibility: 0.9996336698532104
","x: 211.04269409179688
y: 219.94482421875
z: -0.06299693882465363
visibility: 0.9996944069862366
","x: 211.93185424804688
y: 219.6357421875
z: -0.06308721005916595
visibility: 0.9997501969337463
","x: 209.0625
y: 220.58387756347656
z: -0.032470472157001495
visibility: 0.9994845986366272
","x: 209.1033935546875
y: 220.291748046875
z: -0.03238854184746742
visibility: 0.9993555545806885
","x: 209.17816162109375
y: 219.92367553710938
z: -0.03238850086927414
visibility: 0.9992806315422058
","x: 217.78213500976562
y: 221.6767120361328
z: -0.09149868041276932
visibility: 0.9998911619186401
","x: 214.4812469482422
y: 221.50845336914062
z: 0.04693446308374405
visibility: 0.9985628128051758
","x: 212.76593017578125
y: 235.0766143798828
z: -0.05229846388101578
visibility: 0.9998812079429626
","x: 211.38916015625
y: 234.90835571289062
z: -0.012314487248659134
visibility: 0.999500036239624
","x: 237.57284545898438
y: 254.34584045410156
z: -0.13258929550647736
visibility: 0.9999929666519165
","x: 218.08685302734375
y: 258.8546447753906
z: 0.13464270532131195
visibility: 0.9987489581108093
","x: 259.9423522949219
y: 294.22186279296875
z: -0.17661385238170624
visibility: 0.9991371035575867
","x: 229.3568572998047
y: 299.88641357421875
z: 0.1686098575592041
visibility: 0.1710330694913864
","x: 242.3833770751953
y: 335.22930908203125
z: -0.14318469166755676
visibility: 0.9945300817489624
","x: 222.51785278320312
y: 339.7016906738281
z: 0.08934666961431503
visibility: 0.44756829738616943
","x: 237.78717041015625
y: 344.9072265625
z: -0.16432605683803558
visibility: 0.9838687181472778
","x: 219.03732299804688
y: 356.7010192871094
z: 0.07907065749168396
visibility: 0.46370360255241394
","x: 235.30601501464844
y: 338.8403015136719
z: -0.15599262714385986
visibility: 0.9827067255973816
","x: 218.94529724121094
y: 350.904541015625
z: 0.0523051992058754
visibility: 0.4729481339454651
","x: 236.0857391357422
y: 335.8033752441406
z: -0.13582870364189148
visibility: 0.9696430563926697
","x: 220.47230529785156
y: 349.57037353515625
z: 0.07348676770925522
visibility: 0.4561983644962311
","x: 233.7470245361328
y: 369.92730712890625
z: -0.07525397092103958
visibility: 0.9989089369773865
","x: 217.62826538085938
y: 368.9607238769531
z: 0.07536987215280533
visibility: 0.9974467158317566
","x: 233.45709228515625
y: 447.2004699707031
z: -0.0688507929444313
visibility: 0.984935462474823
","x: 212.81488037109375
y: 448.69677734375
z: 0.049436576664447784
visibility: 0.8457809090614319
","x: 229.97763061523438
y: 524.308349609375
z: -0.0142354816198349
visibility: 0.9873509407043457
","x: 211.32675170898438
y: 528.4852294921875
z: 0.10602456331253052
visibility: 0.9193113446235657
","x: 232.69081115722656
y: 539.7936401367188
z: -0.015174363739788532
visibility: 0.9317808747291565
","x: 215.78921508789062
y: 541.5119018554688
z: 0.10418780148029327
visibility: 0.8950014710426331
","x: 216.5565185546875
y: 544.7101440429688
z: -0.10517828166484833
visibility: 0.9830529093742371
","x: 193.8756103515625
y: 544.8826293945312
z: 0.03178905323147774
visibility: 0.9406302571296692
",,,,,,,,,,,,,,,,,,,,,,,,,,,,,,,,,,,,,,,,,,
15,"x: 206.63255310058594
y: 228.43084716796875
z: -0.048524364829063416
visibility: 0.9997324347496033
","x: 207.86521911621094
y: 220.94400024414062
z: -0.06429176777601242
visibility: 0.9996457099914551
","x: 208.71359252929688
y: 220.28587341308594
z: -0.06437082588672638
visibility: 0.9997035264968872
","x: 209.6533966064453
y: 219.7969207763672
z: -0.06445728987455368
visibility: 0.9997580647468567
","x: 206.53028869628906
y: 221.39797973632812
z: -0.03455974906682968
visibility: 0.9995098114013672
","x: 206.4326171875
y: 221.14234924316406
z: -0.03448015823960304
visibility: 0.9993849396705627
","x: 206.36085510253906
y: 220.80162048339844
z: -0.03446536511182785
visibility: 0.9993125796318054
","x: 215.69210815429688
y: 221.85044860839844
z: -0.08507673442363739
visibility: 0.9998965263366699
","x: 211.21856689453125
y: 221.75978088378906
z: 0.050644271075725555
visibility: 0.998639702796936
","x: 210.6170196533203
y: 235.1772918701172
z: -0.05234333872795105
visibility: 0.9998831152915955
","x: 208.99008178710938
y: 235.31344604492188
z: -0.013334229588508606
visibility: 0.9995101094245911
","x: 236.2476806640625
y: 253.6626434326172
z: -0.1214757189154625
visibility: 0.9999927878379822
","x: 213.91268920898438
y: 258.6820068359375
z: 0.13800731301307678
visibility: 0.998741626739502
","x: 259.0091552734375
y: 295.80291748046875
z: -0.16255417466163635
visibility: 0.9991494417190552
","x: 229.03659057617188
y: 299.84698486328125
z: 0.16767893731594086
visibility: 0.15802539885044098
","x: 242.34449768066406
y: 335.9615478515625
z: -0.1280243694782257
visibility: 0.9944806098937988
","x: 220.0879364013672
y: 339.02386474609375
z: 0.07238847762346268
visibility: 0.4106295704841614
","x: 237.7467041015625
y: 345.5680847167969
z: -0.15054020285606384
visibility: 0.9835725426673889
","x: 216.96141052246094
y: 353.188232421875
z: 0.05697794631123543
visibility: 0.4262642562389374
","x: 235.23728942871094
y: 339.17608642578125
z: -0.14614635705947876
visibility: 0.9823483228683472
","x: 216.92857360839844
y: 349.220703125
z: 0.030693024396896362
visibility: 0.43545830249786377
","x: 236.0423583984375
y: 336.1489562988281
z: -0.12225116789340973
visibility: 0.9689738750457764
","x: 218.39938354492188
y: 346.24310302734375
z: 0.05638676881790161
visibility: 0.42071378231048584
","x: 233.2691192626953
y: 369.170654296875
z: -0.07391352951526642
visibility: 0.9988940954208374
","x: 216.3762664794922
y: 368.2483215332031
z: 0.07400486618280411
visibility: 0.9975094795227051
","x: 233.1572723388672
y: 447.2832946777344
z: -0.06973553448915482
visibility: 0.9859048128128052
","x: 213.35116577148438
y: 448.2955322265625
z: 0.054826539009809494
visibility: 0.8569841384887695
","x: 230.5382080078125
y: 524.312255859375
z: -0.013893192633986473
visibility: 0.9875985383987427
","x: 211.3860626220703
y: 528.032958984375
z: 0.10536359250545502
visibility: 0.9253858327865601
","x: 232.6556854248047
y: 539.642578125
z: -0.01453743688762188
visibility: 0.9305762052536011
","x: 215.80276489257812
y: 540.998779296875
z: 0.10367782413959503
visibility: 0.8987083435058594
","x: 217.1905517578125
y: 545.13720703125
z: -0.10891367495059967
visibility: 0.9833534359931946
","x: 194.28025817871094
y: 546.1759033203125
z: 0.02953973039984703
visibility: 0.9442305564880371
","x: 243.6610565185547
y: 337.4566955566406
z: 0.0
","x: 239.9293670654297
y: 334.405029296875
z: -0.00016368551587220281
","x: 235.28675842285156
y: 334.33966064453125
z: -0.002288529649376869
","x: 232.437744140625
y: 337.5487060546875
z: -0.004732876550406218
","x: 231.50778198242188
y: 341.7001647949219
z: -0.006624229252338409
","x: 233.80126953125
y: 331.6346740722656
z: -0.0060243974439799786
","x: 229.0957794189453
y: 339.638671875
z: -0.009316476061940193
","x: 230.7208709716797
y: 341.60565185546875
z: -0.009398524649441242
","x: 232.51910400390625
y: 340.1980285644531
z: -0.008975308388471603
","x: 235.01712036132812
y: 334.89752197265625
z: -0.007768767885863781
","x: 230.77146911621094
y: 344.00555419921875
z: -0.01062961295247078
","x: 232.47256469726562
y: 344.9902648925781
z: -0.009263775311410427
","x: 234.0828399658203
y: 342.87359619140625
z: -0.007976068183779716
","x: 236.51473999023438
y: 338.89886474609375
z: -0.009483584202826023
","x: 232.97767639160156
y: 347.15533447265625
z: -0.011647077277302742
","x: 234.49339294433594
y: 347.5029296875
z: -0.009581858292222023
","x: 235.8672637939453
y: 345.2844543457031
z: -0.008050011470913887
","x: 238.2139129638672
y: 343.16552734375
z: -0.011215269565582275
","x: 235.5251007080078
y: 349.3136291503906
z: -0.01257167849689722
","x: 236.53504943847656
y: 349.1128234863281
z: -0.01126160379499197
","x: 237.76034545898438
y: 347.0242919921875
z: -0.01010510977357626
",,,,,,,,,,,,,,,,,,,,,
16,"x: 206.63255310058594
y: 228.43084716796875
z: -0.048524364829063416
visibility: 0.9997324347496033
","x: 207.86521911621094
y: 220.94400024414062
z: -0.06429176777601242
visibility: 0.9996457099914551
","x: 208.71359252929688
y: 220.28587341308594
z: -0.06437082588672638
visibility: 0.9997035264968872
","x: 209.6533966064453
y: 219.7969207763672
z: -0.06445728987455368
visibility: 0.9997580647468567
","x: 206.53028869628906
y: 221.39797973632812
z: -0.03455974906682968
visibility: 0.9995098114013672
","x: 206.4326171875
y: 221.14234924316406
z: -0.03448015823960304
visibility: 0.9993849396705627
","x: 206.36085510253906
y: 220.80162048339844
z: -0.03446536511182785
visibility: 0.9993125796318054
","x: 215.69210815429688
y: 221.85044860839844
z: -0.08507673442363739
visibility: 0.9998965263366699
","x: 211.21856689453125
y: 221.75978088378906
z: 0.050644271075725555
visibility: 0.998639702796936
","x: 210.6170196533203
y: 235.1772918701172
z: -0.05234333872795105
visibility: 0.9998831152915955
","x: 208.99008178710938
y: 235.31344604492188
z: -0.013334229588508606
visibility: 0.9995101094245911
","x: 236.2476806640625
y: 253.6626434326172
z: -0.1214757189154625
visibility: 0.9999927878379822
","x: 213.91268920898438
y: 258.6820068359375
z: 0.13800731301307678
visibility: 0.998741626739502
","x: 259.0091552734375
y: 295.80291748046875
z: -0.16255417466163635
visibility: 0.9991494417190552
","x: 229.03659057617188
y: 299.84698486328125
z: 0.16767893731594086
visibility: 0.15802539885044098
","x: 242.34449768066406
y: 335.9615478515625
z: -0.1280243694782257
visibility: 0.9944806098937988
","x: 220.0879364013672
y: 339.02386474609375
z: 0.07238847762346268
visibility: 0.4106295704841614
","x: 237.7467041015625
y: 345.5680847167969
z: -0.15054020285606384
visibility: 0.9835725426673889
","x: 216.96141052246094
y: 353.188232421875
z: 0.05697794631123543
visibility: 0.4262642562389374
","x: 235.23728942871094
y: 339.17608642578125
z: -0.14614635705947876
visibility: 0.9823483228683472
","x: 216.92857360839844
y: 349.220703125
z: 0.030693024396896362
visibility: 0.43545830249786377
","x: 236.0423583984375
y: 336.1489562988281
z: -0.12225116789340973
visibility: 0.9689738750457764
","x: 218.39938354492188
y: 346.24310302734375
z: 0.05638676881790161
visibility: 0.42071378231048584
","x: 233.2691192626953
y: 369.170654296875
z: -0.07391352951526642
visibility: 0.9988940954208374
","x: 216.3762664794922
y: 368.2483215332031
z: 0.07400486618280411
visibility: 0.9975094795227051
","x: 233.1572723388672
y: 447.2832946777344
z: -0.06973553448915482
visibility: 0.9859048128128052
","x: 213.35116577148438
y: 448.2955322265625
z: 0.054826539009809494
visibility: 0.8569841384887695
","x: 230.5382080078125
y: 524.312255859375
z: -0.013893192633986473
visibility: 0.9875985383987427
","x: 211.3860626220703
y: 528.032958984375
z: 0.10536359250545502
visibility: 0.9253858327865601
","x: 232.6556854248047
y: 539.642578125
z: -0.01453743688762188
visibility: 0.9305762052536011
","x: 215.80276489257812
y: 540.998779296875
z: 0.10367782413959503
visibility: 0.8987083435058594
","x: 217.1905517578125
y: 545.13720703125
z: -0.10891367495059967
visibility: 0.9833534359931946
","x: 194.28025817871094
y: 546.1759033203125
z: 0.02953973039984703
visibility: 0.9442305564880371
","x: 243.6610565185547
y: 337.4566955566406
z: 0.0
","x: 239.9293670654297
y: 334.405029296875
z: -0.00016368551587220281
","x: 235.28675842285156
y: 334.33966064453125
z: -0.002288529649376869
","x: 232.437744140625
y: 337.5487060546875
z: -0.004732876550406218
","x: 231.50778198242188
y: 341.7001647949219
z: -0.006624229252338409
","x: 233.80126953125
y: 331.6346740722656
z: -0.0060243974439799786
","x: 229.0957794189453
y: 339.638671875
z: -0.009316476061940193
","x: 230.7208709716797
y: 341.60565185546875
z: -0.009398524649441242
","x: 232.51910400390625
y: 340.1980285644531
z: -0.008975308388471603
","x: 235.01712036132812
y: 334.89752197265625
z: -0.007768767885863781
","x: 230.77146911621094
y: 344.00555419921875
z: -0.01062961295247078
","x: 232.47256469726562
y: 344.9902648925781
z: -0.009263775311410427
","x: 234.0828399658203
y: 342.87359619140625
z: -0.007976068183779716
","x: 236.51473999023438
y: 338.89886474609375
z: -0.009483584202826023
","x: 232.97767639160156
y: 347.15533447265625
z: -0.011647077277302742
","x: 234.49339294433594
y: 347.5029296875
z: -0.009581858292222023
","x: 235.8672637939453
y: 345.2844543457031
z: -0.008050011470913887
","x: 238.2139129638672
y: 343.16552734375
z: -0.011215269565582275
","x: 235.5251007080078
y: 349.3136291503906
z: -0.01257167849689722
","x: 236.53504943847656
y: 349.1128234863281
z: -0.01126160379499197
","x: 237.76034545898438
y: 347.0242919921875
z: -0.01010510977357626
",,,,,,,,,,,,,,,,,,,,,
17,"x: 206.673583984375
y: 229.614501953125
z: -0.15040841698646545
visibility: 0.9997416734695435
","x: 208.0898895263672
y: 221.90887451171875
z: -0.15693344175815582
visibility: 0.9996548295021057
","x: 209.16217041015625
y: 221.22195434570312
z: -0.15701717138290405
visibility: 0.9997143745422363
","x: 210.30845642089844
y: 220.6297607421875
z: -0.1571197211742401
visibility: 0.9997668862342834
","x: 206.19483947753906
y: 222.40359497070312
z: -0.13368934392929077
visibility: 0.9995203018188477
","x: 205.87124633789062
y: 222.11831665039062
z: -0.13364963233470917
visibility: 0.999394953250885
","x: 205.588623046875
y: 221.7408905029297
z: -0.13363045454025269
visibility: 0.999316930770874
","x: 215.94403076171875
y: 222.00650024414062
z: -0.13601087033748627
visibility: 0.9999011158943176
","x: 210.1377410888672
y: 222.19017028808594
z: -0.029215652495622635
visibility: 0.9986348748207092
","x: 210.71734619140625
y: 235.8770751953125
z: -0.1389491707086563
visibility: 0.999885082244873
","x: 208.3195037841797
y: 236.34982299804688
z: -0.10827185213565826
visibility: 0.9995201826095581
","x: 236.68682861328125
y: 255.2459716796875
z: -0.14871571958065033
visibility: 0.999992311000824
","x: 211.49876403808594
y: 260.3172607421875
z: 0.08520235121250153
visibility: 0.9986802339553833
","x: 249.88131713867188
y: 312.97845458984375
z: -0.1671341210603714
visibility: 0.9991491436958313
","x: 219.06094360351562
y: 310.4737243652344
z: 0.13111849129199982
visibility: 0.1470256745815277
","x: 239.0721893310547
y: 360.56951904296875
z: -0.16593441367149353
visibility: 0.9944970011711121
","x: 214.85752868652344
y: 349.468017578125
z: 0.029615450650453568
visibility: 0.38264185190200806
","x: 237.35430908203125
y: 373.8536376953125
z: -0.19502240419387817
visibility: 0.9836820363998413
","x: 212.24632263183594
y: 364.81982421875
z: 0.011828803457319736
visibility: 0.3982764482498169
","x: 233.60232543945312
y: 370.1714782714844
z: -0.2112082540988922
visibility: 0.9825527667999268
","x: 212.04940795898438
y: 362.5892639160156
z: -0.018022187054157257
visibility: 0.40749531984329224
","x: 233.6462860107422
y: 365.7075500488281
z: -0.17167460918426514
visibility: 0.9694067239761353
","x: 213.33114624023438
y: 357.9162292480469
z: 0.013146976940333843
visibility: 0.39362600445747375
","x: 232.0764923095703
y: 369.4518737792969
z: -0.06941091269254684
visibility: 0.9988968372344971
","x: 214.30133056640625
y: 368.7655334472656
z: 0.06955815106630325
visibility: 0.9975998997688293
","x: 232.1355438232422
y: 447.42742919921875
z: -0.07397632300853729
visibility: 0.9862815141677856
","x: 212.01837158203125
y: 448.1829528808594
z: 0.025781909003853798
visibility: 0.8673768043518066
","x: 230.5253448486328
y: 524.508544921875
z: -0.007278658449649811
visibility: 0.9877507090568542
","x: 210.9546661376953
y: 528.1853637695312
z: 0.08436380326747894
visibility: 0.9313062429428101
","x: 232.48898315429688
y: 539.6195678710938
z: -0.0073608942329883575
visibility: 0.9274532198905945
","x: 215.52923583984375
y: 540.857421875
z: 0.08341506123542786
visibility: 0.9029737710952759
","x: 216.97718811035156
y: 545.3905029296875
z: -0.11234652996063232
visibility: 0.9833592772483826
","x: 194.4272918701172
y: 547.0343017578125
z: -0.00555763253942132
visibility: 0.9480175375938416
",,,,,,,,,,,,,,,,,,,,,,,,,,,,,,,,,,,,,,,,,,
18,"x: 206.3199005126953
y: 230.26858520507812
z: -0.13181672990322113
visibility: 0.9997437596321106
","x: 208.05386352539062
y: 222.4066162109375
z: -0.14275169372558594
visibility: 0.9996569752693176
","x: 209.19346618652344
y: 221.7070770263672
z: -0.14282692968845367
visibility: 0.9997197985649109
","x: 210.36158752441406
y: 221.05706787109375
z: -0.14292268455028534
visibility: 0.9997702240943909
","x: 206.05206298828125
y: 222.9554443359375
z: -0.11725050210952759
visibility: 0.9995214343070984
","x: 205.746826171875
y: 222.6986541748047
z: -0.11721132695674896
visibility: 0.9993977546691895
","x: 205.49166870117188
y: 222.35272216796875
z: -0.1172027736902237
visibility: 0.999316394329071
","x: 216.08993530273438
y: 222.0594024658203
z: -0.13807204365730286
visibility: 0.9999038577079773
","x: 210.57537841796875
y: 222.42637634277344
z: -0.02173352800309658
visibility: 0.9986536502838135
","x: 210.50534057617188
y: 236.50518798828125
z: -0.1258576214313507
visibility: 0.9998840689659119
","x: 207.98268127441406
y: 237.1605224609375
z: -0.09226588159799576
visibility: 0.9995223879814148
","x: 236.21859741210938
y: 255.59967041015625
z: -0.1570979505777359
visibility: 0.9999923706054688
","x: 210.2310333251953
y: 261.107177734375
z: 0.09056130796670914
visibility: 0.9986854195594788
","x: 247.7802734375
y: 314.3066101074219
z: -0.18321608006954193
visibility: 0.999142050743103
","x: 212.34695434570312
y: 317.6036682128906
z: 0.13698384165763855
visibility: 0.1394493728876114
","x: 229.85975646972656
y: 355.8372497558594
z: -0.18482652306556702
visibility: 0.9944890737533569
","x: 209.82159423828125
y: 354.1209411621094
z: 0.03571101650595665
visibility: 0.359416663646698
","x: 225.5723876953125
y: 366.8847351074219
z: -0.21344728767871857
visibility: 0.9836196899414062
","x: 208.3704071044922
y: 367.7787780761719
z: 0.018534168601036072
visibility: 0.3740274906158447
","x: 222.49493408203125
y: 361.205078125
z: -0.21870927512645721
visibility: 0.9824842214584351
","x: 208.37818908691406
y: 365.2366638183594
z: -0.011034553870558739
visibility: 0.38324853777885437
","x: 223.44456481933594
y: 357.67132568359375
z: -0.18454687297344208
visibility: 0.9692016243934631
","x: 209.55043029785156
y: 359.88470458984375
z: 0.020051000639796257
visibility: 0.369964599609375
","x: 229.47613525390625
y: 369.37493896484375
z: -0.07110998034477234
visibility: 0.9988873600959778
","x: 211.51577758789062
y: 368.7295837402344
z: 0.07124900817871094
visibility: 0.9976815581321716
","x: 228.4654541015625
y: 447.79461669921875
z: -0.06701984256505966
visibility: 0.9868463277816772
","x: 208.71981811523438
y: 448.46929931640625
z: 0.03320769965648651
visibility: 0.8768112063407898
","x: 229.3653106689453
y: 525.5884399414062
z: 0.01395347248762846
visibility: 0.9881600141525269
","x: 210.6813507080078
y: 528.274658203125
z: 0.09463172405958176
visibility: 0.9366183280944824
","x: 231.8587646484375
y: 540.6688842773438
z: 0.015054479241371155
visibility: 0.9265029430389404
","x: 215.45193481445312
y: 541.4049072265625
z: 0.09419707208871841
visibility: 0.907261848449707
","x: 216.8340301513672
y: 549.3865356445312
z: -0.09264002740383148
visibility: 0.9837174415588379
","x: 193.2276611328125
y: 547.9053344726562
z: 0.008389471098780632
visibility: 0.9515100717544556
",,,,,,,,,,,,,,,,,,,,,,,,,,,,,,,,,,,,,,,,,,
19,"x: 206.43893432617188
y: 231.4814453125
z: -0.1339206099510193
visibility: 0.9997492432594299
","x: 208.29653930664062
y: 223.51548767089844
z: -0.14349046349525452
visibility: 0.9996619820594788
","x: 209.4781494140625
y: 222.7325439453125
z: -0.143572598695755
visibility: 0.9997254014015198
","x: 210.72750854492188
y: 221.95697021484375
z: -0.14366766810417175
visibility: 0.9997740387916565
","x: 206.08497619628906
y: 224.25332641601562
z: -0.1192963719367981
visibility: 0.9995284676551819
","x: 205.7021484375
y: 224.0060577392578
z: -0.11926529556512833
visibility: 0.9994038939476013
","x: 205.37081909179688
y: 223.671630859375
z: -0.1192636713385582
visibility: 0.9993217587471008
","x: 216.19728088378906
y: 222.30349731445312
z: -0.13300231099128723
visibility: 0.999907910823822
","x: 209.8290557861328
y: 222.8628387451172
z: -0.01866402104496956
visibility: 0.9986922740936279
","x: 210.48263549804688
y: 237.21311950683594
z: -0.12408916652202606
visibility: 0.9998877048492432
","x: 207.8487091064453
y: 238.2689208984375
z: -0.09205631911754608
visibility: 0.9995408654212952
","x: 235.16024780273438
y: 255.7328643798828
z: -0.1509564220905304
visibility: 0.9999924898147583
","x: 208.3612518310547
y: 261.10467529296875
z: 0.09572280943393707
visibility: 0.9987326860427856
","x: 248.34898376464844
y: 312.9361267089844
z: -0.1790059506893158
visibility: 0.9991594552993774
","x: 210.65838623046875
y: 318.2886657714844
z: 0.1457168459892273
visibility: 0.13403324782848358
","x: 228.0831298828125
y: 352.6531982421875
z: -0.18824385106563568
visibility: 0.994556725025177
","x: 205.8025360107422
y: 349.78216552734375
z: 0.03540543466806412
visibility: 0.349191278219223
","x: 222.40875244140625
y: 363.61309814453125
z: -0.2168257236480713
visibility: 0.9837819337844849
","x: 203.96446228027344
y: 362.35211181640625
z: 0.016676347702741623
visibility: 0.3641131818294525
","x: 219.90838623046875
y: 357.9222412109375
z: -0.21939608454704285
visibility: 0.982646644115448
","x: 203.94244384765625
y: 359.8519592285156
z: -0.012117267586290836
visibility: 0.37395426630973816
","x: 221.24717712402344
y: 354.0449523925781
z: -0.18635185062885284
visibility: 0.9694250822067261
","x: 205.3424530029297
y: 355.0797119140625
z: 0.01942288875579834
visibility: 0.35987070202827454
","x: 227.3638153076172
y: 370.0514221191406
z: -0.07178384810686111
visibility: 0.9988738894462585
","x: 209.44293212890625
y: 369.1595764160156
z: 0.07188236713409424
visibility: 0.9977496266365051
","x: 224.93777465820312
y: 449.02899169921875
z: -0.06945095956325531
visibility: 0.9875926375389099
","x: 205.7018585205078
y: 448.4266662597656
z: 0.034147121012210846
visibility: 0.8866671323776245
","x: 228.6785430908203
y: 525.63623046875
z: 0.016602780669927597
visibility: 0.9887396693229675
","x: 210.70396423339844
y: 528.09228515625
z: 0.10507155954837799
visibility: 0.9418361783027649
","x: 231.61354064941406
y: 540.794921875
z: 0.01838398352265358
visibility: 0.9274889230728149
","x: 215.77867126464844
y: 541.3773193359375
z: 0.10537558794021606
visibility: 0.9129188060760498
","x: 215.46766662597656
y: 548.93212890625
z: -0.08911337703466415
visibility: 0.9843621850013733
","x: 194.01065063476562
y: 548.281982421875
z: 0.02166036143898964
visibility: 0.9549850225448608
",,,,,,,,,,,,,,,,,,,,,,,,,,,,,,,,,,,,,,,,,,
20,"x: 204.37022399902344
y: 232.02853393554688
z: -0.18630389869213104
visibility: 0.9997626543045044
","x: 206.50540161132812
y: 224.1354217529297
z: -0.19230535626411438
visibility: 0.9996809959411621
","x: 207.73948669433594
y: 223.45602416992188
z: -0.19238048791885376
visibility: 0.9997427463531494
","x: 209.04647827148438
y: 222.75672912597656
z: -0.19247131049633026
visibility: 0.9997882843017578
","x: 204.27243041992188
y: 224.64903259277344
z: -0.16848933696746826
visibility: 0.9995486736297607
","x: 203.91558837890625
y: 224.37161254882812
z: -0.1684955507516861
visibility: 0.9994295835494995
","x: 203.6314697265625
y: 224.0203094482422
z: -0.16848595440387726
visibility: 0.9993500113487244
","x: 214.6710968017578
y: 223.22927856445312
z: -0.16757626831531525
visibility: 0.9999140501022339
","x: 208.57998657226562
y: 223.79388427734375
z: -0.05696028470993042
visibility: 0.9987307786941528
","x: 208.3052215576172
y: 238.0537567138672
z: -0.17312310636043549
visibility: 0.9998933672904968
","x: 205.61203002929688
y: 238.8946533203125
z: -0.14144952595233917
visibility: 0.9995579719543457
","x: 234.45823669433594
y: 260.5185241699219
z: -0.18009230494499207
visibility: 0.9999924898147583
","x: 206.0420379638672
y: 264.43475341796875
z: 0.07741386443376541
visibility: 0.9987587332725525
","x: 242.6951446533203
y: 324.77886962890625
z: -0.20799104869365692
visibility: 0.9991666674613953
","x: 203.5691375732422
y: 323.33697509765625
z: 0.11142124235630035
visibility: 0.14561083912849426
","x: 230.05093383789062
y: 366.04913330078125
z: -0.24434185028076172
visibility: 0.9945882558822632
","x: 189.58065795898438
y: 338.68328857421875
z: -0.04717757925391197
visibility: 0.38643327355384827
","x: 226.24461364746094
y: 378.7767333984375
z: -0.27494633197784424
visibility: 0.9840844869613647
","x: 183.71507263183594
y: 336.36480712890625
z: -0.07042470574378967
visibility: 0.39954322576522827
","x: 223.2850799560547
y: 375.56256103515625
z: -0.28974950313568115
visibility: 0.9830865859985352
","x: 185.17034912109375
y: 331.557861328125
z: -0.09922559559345245
visibility: 0.4106491804122925
","x: 224.013671875
y: 371.69476318359375
z: -0.2482217252254486
visibility: 0.9703038930892944
","x: 187.48643493652344
y: 330.1078796386719
z: -0.06487949192523956
visibility: 0.39462119340896606
","x: 224.54165649414062
y: 370.8341979980469
z: -0.08249151706695557
visibility: 0.9989120960235596
","x: 206.56517028808594
y: 370.32708740234375
z: 0.0825682282447815
visibility: 0.9978398680686951
","x: 219.10324096679688
y: 450.3768310546875
z: -0.11736482381820679
visibility: 0.9881197214126587
","x: 201.5822296142578
y: 449.37554931640625
z: 0.040543608367443085
visibility: 0.8923729658126831
","x: 228.5778350830078
y: 526.545654296875
z: -0.04657129570841789
visibility: 0.9894819259643555
","x: 209.76168823242188
y: 528.515625
z: 0.10973167419433594
visibility: 0.945832371711731
","x: 231.73851013183594
y: 541.847900390625
z: -0.04668308049440384
visibility: 0.9301049709320068
","x: 215.46180725097656
y: 542.1824951171875
z: 0.11010754108428955
visibility: 0.9174438118934631
","x: 214.85562133789062
y: 548.6336669921875
z: -0.1578836441040039
visibility: 0.9853096008300781
","x: 193.58139038085938
y: 548.923095703125
z: 0.02641482651233673
visibility: 0.9575916528701782
",,,,,,,,,,,,,,,,,,,,,,,,,,,,,,,,,,,,,,,,,,
21,"x: 201.00003051757812
y: 230.8326416015625
z: -0.18813040852546692
visibility: 0.9997732639312744
","x: 203.56105041503906
y: 223.11337280273438
z: -0.19744710624217987
visibility: 0.9996912479400635
","x: 204.82872009277344
y: 222.59213256835938
z: -0.1975136697292328
visibility: 0.9997532963752747
","x: 206.2021942138672
y: 222.07215881347656
z: -0.19760431349277496
visibility: 0.9997965097427368
","x: 201.48670959472656
y: 223.3181915283203
z: -0.17221736907958984
visibility: 0.9995641112327576
","x: 201.21559143066406
y: 222.97731018066406
z: -0.17221206426620483
visibility: 0.9994513988494873
","x: 201.02037048339844
y: 222.576171875
z: -0.17221172153949738
visibility: 0.9993740320205688
","x: 212.18344116210938
y: 223.14561462402344
z: -0.18651506304740906
visibility: 0.9999175071716309
","x: 206.31857299804688
y: 223.25091552734375
z: -0.06896252185106277
visibility: 0.9987807869911194
","x: 204.732177734375
y: 237.2290802001953
z: -0.1796409785747528
visibility: 0.9998974204063416
","x: 202.093994140625
y: 237.51736450195312
z: -0.1458994448184967
visibility: 0.9995751976966858
","x: 231.72833251953125
y: 260.36572265625
z: -0.1975366324186325
visibility: 0.9999925494194031
","x: 203.46499633789062
y: 264.2196350097656
z: 0.057401757687330246
visibility: 0.9988284707069397
","x: 245.5720672607422
y: 320.2113342285156
z: -0.21970827877521515
visibility: 0.9992028474807739
","x: 202.7615203857422
y: 322.0517578125
z: 0.12546010315418243
visibility: 0.15468335151672363
","x: 232.6475372314453
y: 361.1263732910156
z: -0.24539117515087128
visibility: 0.9946715235710144
","x: 192.03631591796875
y: 341.8826904296875
z: 0.01439735759049654
visibility: 0.411586195230484
","x: 229.64122009277344
y: 374.232421875
z: -0.27498820424079895
visibility: 0.984393835067749
","x: 187.59664916992188
y: 341.3608093261719
z: 0.0004490274586714804
visibility: 0.4219200015068054
","x: 225.93002319335938
y: 370.1069641113281
z: -0.28782862424850464
visibility: 0.983494222164154
","x: 189.38687133789062
y: 338.6241455078125
z: -0.04091228172183037
visibility: 0.43448472023010254
","x: 226.0177459716797
y: 365.9832458496094
z: -0.2482445240020752
visibility: 0.9711157083511353
","x: 191.7412109375
y: 340.3126525878906
z: -0.005053539760410786
visibility: 0.41666585206985474
","x: 221.71043395996094
y: 370.7418212890625
z: -0.08309118449687958
visibility: 0.9989285469055176
","x: 203.9168701171875
y: 370.30816650390625
z: 0.08317297697067261
visibility: 0.9979133009910583
","x: 217.75460815429688
y: 450.5966796875
z: -0.1101330891251564
visibility: 0.9887034296989441
","x: 200.54354858398438
y: 449.4095153808594
z: 0.04224958270788193
visibility: 0.8988050818443298
","x: 228.24317932128906
y: 527.1105346679688
z: -0.03979901224374771
visibility: 0.9901794791221619
","x: 209.2474365234375
y: 528.39306640625
z: 0.11645545065402985
visibility: 0.9496355652809143
","x: 231.6865234375
y: 541.861083984375
z: -0.040124885737895966
visibility: 0.9326502084732056
","x: 214.90402221679688
y: 541.9721069335938
z: 0.11773314327001572
visibility: 0.9216853380203247
","x: 214.31179809570312
y: 548.58984375
z: -0.15258152782917023
visibility: 0.9861760139465332
","x: 193.01463317871094
y: 549.1414184570312
z: 0.026619696989655495
visibility: 0.96023029088974
",,,,,,,,,,,,,,,,,,,,,,,,,,,,,,,,,,,,,,,,,,
22,"x: 199.67083740234375
y: 229.79574584960938
z: -0.17072056233882904
visibility: 0.9997850656509399
","x: 201.63540649414062
y: 222.36767578125
z: -0.18195655941963196
visibility: 0.9997046589851379
","x: 202.82803344726562
y: 221.79664611816406
z: -0.1820158064365387
visibility: 0.9997653365135193
","x: 204.10491943359375
y: 221.207275390625
z: -0.1821025013923645
visibility: 0.9998056888580322
","x: 199.7335968017578
y: 222.54701232910156
z: -0.15564312040805817
visibility: 0.9995830655097961
","x: 199.49664306640625
y: 222.13308715820312
z: -0.1556234359741211
visibility: 0.9994765520095825
","x: 199.33377075195312
y: 221.64279174804688
z: -0.1556144505739212
visibility: 0.9994019865989685
","x: 210.0251007080078
y: 221.81973266601562
z: -0.1758749932050705
visibility: 0.9999223947525024
","x: 204.3147735595703
y: 221.98245239257812
z: -0.05320661514997482
visibility: 0.998845636844635
","x: 203.50257873535156
y: 235.97720336914062
z: -0.16353894770145416
visibility: 0.999903678894043
","x: 201.0706329345703
y: 236.1776123046875
z: -0.12839609384536743
visibility: 0.9996004104614258
","x: 229.90696716308594
y: 258.69915771484375
z: -0.18630850315093994
visibility: 0.9999929070472717
","x: 201.73199462890625
y: 261.8008728027344
z: 0.06610432267189026
visibility: 0.9989094138145447
","x: 246.13832092285156
y: 318.61553955078125
z: -0.21162906289100647
visibility: 0.9992408752441406
","x: 203.40927124023438
y: 319.26220703125
z: 0.12100589275360107
visibility: 0.16390663385391235
","x: 234.7228546142578
y: 359.7637634277344
z: -0.2321242392063141
visibility: 0.9947932958602905
","x: 192.26791381835938
y: 344.2793273925781
z: 0.006121800746768713
visibility: 0.4317050576210022
","x: 230.9745330810547
y: 372.80206298828125
z: -0.2622520923614502
visibility: 0.9847495555877686
","x: 189.41754150390625
y: 351.6317138671875
z: -0.011959523893892765
visibility: 0.4393160343170166
","x: 227.37716674804688
y: 368.39044189453125
z: -0.2717202305793762
visibility: 0.9839386343955994
","x: 189.42225646972656
y: 349.5117492675781
z: -0.04721849411725998
visibility: 0.4532003104686737
","x: 227.47543334960938
y: 364.2438049316406
z: -0.2335289716720581
visibility: 0.9719753861427307
","x: 191.02207946777344
y: 347.43994140625
z: -0.012434225529432297
visibility: 0.43402472138404846
","x: 219.91781616210938
y: 370.6108093261719
z: -0.08362056314945221
visibility: 0.9989558458328247
","x: 202.54855346679688
y: 369.563720703125
z: 0.08371947705745697
visibility: 0.9979919195175171
","x: 217.8663330078125
y: 450.426025390625
z: -0.10260015726089478
visibility: 0.989280104637146
","x: 201.8168182373047
y: 449.39434814453125
z: 0.06068091467022896
visibility: 0.9044231176376343
","x: 228.1090850830078
y: 527.0081787109375
z: -0.03159821778535843
visibility: 0.9907604455947876
","x: 209.1149139404297
y: 528.0512084960938
z: 0.14159713685512543
visibility: 0.9528456330299377
","x: 231.76498413085938
y: 540.9868774414062
z: -0.031604498624801636
visibility: 0.9340413808822632
","x: 215.48533630371094
y: 541.611083984375
z: 0.14317385852336884
visibility: 0.9252490401268005
","x: 214.1649932861328
y: 548.5018310546875
z: -0.14186245203018188
visibility: 0.9868540167808533
","x: 192.99755859375
y: 549.146484375
z: 0.060264550149440765
visibility: 0.9624109268188477
",,,,,,,,,,,,,,,,,,,,,,,,,,,,,,,,,,,,,,,,,,
23,"x: 198.9641571044922
y: 226.13853454589844
z: -0.21387441456317902
visibility: 0.9998021125793457
","x: 201.15426635742188
y: 218.2140350341797
z: -0.21809856593608856
visibility: 0.9997252821922302
","x: 202.4619140625
y: 217.61061096191406
z: -0.21817806363105774
visibility: 0.9997827410697937
","x: 203.8274383544922
y: 217.052734375
z: -0.21827039122581482
visibility: 0.9998190999031067
","x: 198.65716552734375
y: 218.5739288330078
z: -0.19593988358974457
visibility: 0.9996114373207092
","x: 198.21994018554688
y: 218.25921630859375
z: -0.1959269940853119
visibility: 0.9995128512382507
","x: 197.85244750976562
y: 217.91429138183594
z: -0.19588153064250946
visibility: 0.9994414448738098
","x: 208.81619262695312
y: 218.95733642578125
z: -0.17911142110824585
visibility: 0.9999281167984009
","x: 201.62095642089844
y: 219.30128479003906
z: -0.07554605603218079
visibility: 0.998924970626831
","x: 202.6241912841797
y: 232.13133239746094
z: -0.19447721540927887
visibility: 0.9999111890792847
","x: 199.52296447753906
y: 232.32179260253906
z: -0.1650678813457489
visibility: 0.9996313452720642
","x: 226.5989227294922
y: 256.115478515625
z: -0.18469856679439545
visibility: 0.9999935626983643
","x: 196.96810913085938
y: 260.2041320800781
z: 0.07544590532779694
visibility: 0.999004602432251
","x: 245.7259979248047
y: 307.306884765625
z: -0.21155259013175964
visibility: 0.9993028044700623
","x: 195.2205047607422
y: 310.81488037109375
z: 0.16937799751758575
visibility: 0.17721590399742126
","x: 248.10728454589844
y: 353.072509765625
z: -0.266145795583725
visibility: 0.9951934814453125
","x: 187.02154541015625
y: 329.5379943847656
z: 0.06908921897411346
visibility: 0.47726765275001526
","x: 247.2454833984375
y: 366.888671875
z: -0.2965075969696045
visibility: 0.9858772158622742
","x: 185.05386352539062
y: 332.6213073730469
z: 0.05933456867933273
visibility: 0.4849033057689667
","x: 242.58486938476562
y: 367.3564147949219
z: -0.3153870403766632
visibility: 0.985171377658844
","x: 185.97079467773438
y: 330.85321044921875
z: 0.029587581753730774
visibility: 0.4983639717102051
","x: 241.51536560058594
y: 363.365966796875
z: -0.27208206057548523
visibility: 0.9741473197937012
","x: 186.97837829589844
y: 328.982421875
z: 0.054370779544115067
visibility: 0.47935324907302856
","x: 218.6109161376953
y: 369.6529846191406
z: -0.09165136516094208
visibility: 0.9990420937538147
","x: 201.4308624267578
y: 368.1812744140625
z: 0.09168565273284912
visibility: 0.9981634020805359
","x: 209.95281982421875
y: 448.76031494140625
z: -0.14012876152992249
visibility: 0.9896678328514099
","x: 202.7042999267578
y: 449.3051452636719
z: 0.05888857692480087
visibility: 0.8959855437278748
","x: 227.36900329589844
y: 520.963623046875
z: -0.04128538444638252
visibility: 0.9911316633224487
","x: 209.15927124023438
y: 528.1490478515625
z: 0.1556522250175476
visibility: 0.9536401629447937
","x: 232.53086853027344
y: 531.3142700195312
z: -0.03662324696779251
visibility: 0.9365056157112122
","x: 215.57965087890625
y: 542.2101440429688
z: 0.15889839828014374
visibility: 0.9270714521408081
","x: 214.3715057373047
y: 547.563720703125
z: -0.14087142050266266
visibility: 0.9874836802482605
","x: 191.58396911621094
y: 549.6607666015625
z: 0.07779677212238312
visibility: 0.9631122350692749
",,,,,,,,,,,,,,,,,,,,,,,,,,,,,,,,,,,,,,,,,,
24,"x: 200.0595703125
y: 225.562744140625
z: -0.19124814867973328
visibility: 0.9998213648796082
","x: 202.34744262695312
y: 217.48486328125
z: -0.19024130702018738
visibility: 0.9997516870498657
","x: 203.64219665527344
y: 216.8712615966797
z: -0.19030961394309998
visibility: 0.9998036623001099
","x: 204.97059631347656
y: 216.32540893554688
z: -0.19039878249168396
visibility: 0.999836266040802
","x: 199.48890686035156
y: 217.97299194335938
z: -0.17179058492183685
visibility: 0.9996488690376282
","x: 198.81161499023438
y: 217.6885986328125
z: -0.1717759668827057
visibility: 0.9995599389076233
","x: 198.21238708496094
y: 217.37266540527344
z: -0.17172330617904663
visibility: 0.9994953274726868
","x: 209.20059204101562
y: 218.26437377929688
z: -0.11582335084676743
visibility: 0.99993497133255
","x: 200.2691650390625
y: 218.71575927734375
z: -0.058804821223020554
visibility: 0.999028205871582
","x: 203.41021728515625
y: 231.55702209472656
z: -0.16892874240875244
visibility: 0.9999194145202637
","x: 199.9926300048828
y: 231.76754760742188
z: -0.14231008291244507
visibility: 0.9996662139892578
","x: 224.7983856201172
y: 255.277099609375
z: -0.10737694799900055
visibility: 0.9999940991401672
","x: 194.43228149414062
y: 260.1379089355469
z: 0.09476866573095322
visibility: 0.9990938305854797
","x: 241.45692443847656
y: 306.8240051269531
z: -0.10480570793151855
visibility: 0.9993007779121399
","x: 191.6260528564453
y: 314.19329833984375
z: 0.05500829964876175
visibility: 0.2234504222869873
","x: 249.52593994140625
y: 350.4757385253906
z: -0.14902406930923462
visibility: 0.9952781200408936
","x: 186.43429565429688
y: 320.0264892578125
z: -0.19823381304740906
visibility: 0.5259760022163391
","x: 251.7823486328125
y: 364.3913269042969
z: -0.16968251764774323
visibility: 0.9862145185470581
","x: 185.4969940185547
y: 320.9461669921875
z: -0.23124296963214874
visibility: 0.5324794054031372
","x: 249.00662231445312
y: 364.88775634765625
z: -0.19407986104488373
visibility: 0.9857026934623718
","x: 186.51419067382812
y: 315.6637268066406
z: -0.24736377596855164
visibility: 0.5447496175765991
","x: 247.3809814453125
y: 361.3045959472656
z: -0.15737509727478027
visibility: 0.9754038453102112
","x: 187.20285034179688
y: 314.9326477050781
z: -0.21118757128715515
visibility: 0.5261194109916687
","x: 216.09718322753906
y: 369.2519836425781
z: -0.09031858295202255
visibility: 0.9991313219070435
","x: 199.25326538085938
y: 367.93084716796875
z: 0.09031253308057785
visibility: 0.998334527015686
","x: 205.69459533691406
y: 448.0143737792969
z: -0.15309874713420868
visibility: 0.9901415705680847
","x: 201.26504516601562
y: 449.74871826171875
z: 0.061758726835250854
visibility: 0.8819047808647156
","x: 224.19483947753906
y: 521.464111328125
z: -0.07459349930286407
visibility: 0.9915015697479248
","x: 209.54852294921875
y: 528.583251953125
z: 0.14698046445846558
visibility: 0.9520759582519531
","x: 230.84213256835938
y: 532.7733764648438
z: -0.07089843600988388
visibility: 0.9387324452400208
","x: 215.9552459716797
y: 543.2428588867188
z: 0.14878195524215698
visibility: 0.9252767562866211
","x: 210.61676025390625
y: 548.374755859375
z: -0.15954641997814178
visibility: 0.9880731701850891
","x: 191.05599975585938
y: 550.2579345703125
z: 0.06959788501262665
visibility: 0.961935818195343
",,,,,,,,,,,,,,,,,,,,,,,,,,,,,,,,,,,,,,,,,,
25,"x: 200.81118774414062
y: 225.84092712402344
z: -0.207999587059021
visibility: 0.999838650226593
","x: 203.19117736816406
y: 217.98187255859375
z: -0.20329749584197998
visibility: 0.9997757077217102
","x: 204.51446533203125
y: 217.34266662597656
z: -0.20337864756584167
visibility: 0.9998226761817932
","x: 205.85989379882812
y: 216.70187377929688
z: -0.20348365604877472
visibility: 0.9998520016670227
","x: 200.072509765625
y: 218.42337036132812
z: -0.18658308684825897
visibility: 0.9996827840805054
","x: 199.19741821289062
y: 218.1306610107422
z: -0.18655483424663544
visibility: 0.9996022582054138
","x: 198.36117553710938
y: 217.7923583984375
z: -0.18648213148117065
visibility: 0.9995434880256653
","x: 210.49609375
y: 218.51600646972656
z: -0.12689833343029022
visibility: 0.9999412298202515
","x: 199.55960083007812
y: 218.9779815673828
z: -0.0548085942864418
visibility: 0.999120831489563
","x: 204.1131134033203
y: 231.5933837890625
z: -0.17720529437065125
visibility: 0.9999269843101501
","x: 200.3829345703125
y: 231.9917449951172
z: -0.15493956208229065
visibility: 0.9996975660324097
","x: 225.33843994140625
y: 255.83570861816406
z: -0.12304520606994629
visibility: 0.9999946355819702
","x: 193.81248474121094
y: 260.1700744628906
z: 0.09676278382539749
visibility: 0.9991679787635803
","x: 240.00555419921875
y: 308.66094970703125
z: -0.13306072354316711
visibility: 0.9993129968643188
","x: 192.37606811523438
y: 314.35400390625
z: 0.08754406869411469
visibility: 0.2268981635570526
","x: 246.36961364746094
y: 351.2336730957031
z: -0.1753772646188736
visibility: 0.995393693447113
","x: 186.5237274169922
y: 324.8655700683594
z: -0.12804949283599854
visibility: 0.5543985962867737
","x: 246.4549560546875
y: 364.4201965332031
z: -0.20066866278648376
visibility: 0.9866617918014526
","x: 185.19381713867188
y: 329.0426025390625
z: -0.15513300895690918
visibility: 0.5629534721374512
","x: 243.0623016357422
y: 363.5757141113281
z: -0.21878394484519958
visibility: 0.9863006472587585
","x: 185.9291534423828
y: 324.48321533203125
z: -0.1790871024131775
visibility: 0.5753002166748047
","x: 242.2843017578125
y: 360.0142822265625
z: -0.18105652928352356
visibility: 0.976570725440979
","x: 187.14419555664062
y: 323.01995849609375
z: -0.1437608003616333
visibility: 0.5555597543716431
","x: 215.28411865234375
y: 369.81756591796875
z: -0.08982733637094498
visibility: 0.9992081522941589
","x: 198.64837646484375
y: 368.746826171875
z: 0.08984092622995377
visibility: 0.9984766840934753
","x: 203.79254150390625
y: 448.0319519042969
z: -0.1537313014268875
visibility: 0.9902098178863525
","x: 198.42759704589844
y: 450.8660583496094
z: 0.06423495709896088
visibility: 0.8693352341651917
","x: 223.82232666015625
y: 521.6988525390625
z: -0.0926058292388916
visibility: 0.9915975332260132
","x: 209.40463256835938
y: 528.8492431640625
z: 0.14885392785072327
visibility: 0.9493204951286316
","x: 230.8984375
y: 533.5582885742188
z: -0.09144681692123413
visibility: 0.9386730790138245
","x: 216.0772705078125
y: 543.8284912109375
z: 0.15030482411384583
visibility: 0.9229177832603455
","x: 210.48703002929688
y: 548.6904296875
z: -0.18653520941734314
visibility: 0.9882687926292419
","x: 190.7213134765625
y: 550.9063110351562
z: 0.07101979851722717
visibility: 0.9598702788352966
",,,,,,,,,,,,,,,,,,,,,,,,,,,,,,,,,,,,,,,,,,
26,"x: 200.74244689941406
y: 226.06881713867188
z: -0.1846655011177063
visibility: 0.9998515844345093
","x: 203.3042449951172
y: 218.11415100097656
z: -0.1796237975358963
visibility: 0.9997933506965637
","x: 204.6368408203125
y: 217.56954956054688
z: -0.17973259091377258
visibility: 0.9998366832733154
","x: 206.03286743164062
y: 217.0876922607422
z: -0.17983557283878326
visibility: 0.9998636245727539
","x: 200.33834838867188
y: 218.60044860839844
z: -0.1625840663909912
visibility: 0.9997075200080872
