uscmakers/ReverseChoreography/data/5_slow_dancing_in_the_dark_joji.csv
,NOSE,LEFT_EYE_INNER,LEFT_EYE,LEFT_EYE_OUTER,RIGHT_EYE_INNER,RIGHT_EYE,RIGHT_EYE_OUTER,LEFT_EAR,RIGHT_EAR,MOUTH_LEFT,MOUTH_RIGHT,LEFT_SHOULDER,RIGHT_SHOULDER,LEFT_ELBOW,RIGHT_ELBOW,LEFT_WRIST,RIGHT_WRIST,LEFT_PINKY,RIGHT_PINKY,LEFT_INDEX,RIGHT_INDEX,LEFT_THUMB,RIGHT_THUMB,LEFT_HIP,RIGHT_HIP,LEFT_KNEE,RIGHT_KNEE,LEFT_ANKLE,RIGHT_ANKLE,LEFT_HEEL,RIGHT_HEEL,LEFT_FOOT_INDEX,RIGHT_FOOT_INDEX,WRIST,THUMB_CPC,THUMB_MCP,THUMB_IP,THUMB_TIP,INDEX_FINGER_MCP,INDEX_FINGER_PIP,INDEX_FINGER_DIP,INDEX_FINGER_TIP,MIDDLE_FINGER_MCP,MIDDLE_FINGER_PIP,MIDDLE_FINGER_DIP,MIDDLE_FINGER_TIP,RING_FINGER_PIP,RING_FINGER_DIP,RING_FINGER_TIP,RING_FINGER_MCP,PINKY_MCP,PINKY_PIP,PINKY_DIP,PINKY_TIP,WRIST2,THUMB_CPC2,THUMB_MCP2,THUMB_IP2,THUMB_TIP2,INDEX_FINGER_MCP2,INDEX_FINGER_PIP2,INDEX_FINGER_DIP2,INDEX_FINGER_TIP2,MIDDLE_FINGER_MCP2,MIDDLE_FINGER_PIP2,MIDDLE_FINGER_DIP2,MIDDLE_FINGER_TIP2,RING_FINGER_PIP2,RING_FINGER_DIP2,RING_FINGER_TIP2,RING_FINGER_MCP2,PINKY_MCP2,PINKY_PIP2,PINKY_DIP2,PINKY_TIP2
0,"x: 190.98927307128906
y: 232.12335205078125
z: -0.3911387026309967
visibility: 0.9999921321868896
","x: 193.2769012451172
y: 223.86993408203125
z: -0.38618192076683044
visibility: 0.9999699592590332
","x: 195.00050354003906
y: 223.1564483642578
z: -0.38624459505081177
visibility: 0.9999723434448242
","x: 196.7474822998047
y: 222.459716796875
z: -0.3863573968410492
visibility: 0.999969482421875
","x: 189.24008178710938
y: 223.9762725830078
z: -0.38049963116645813
visibility: 0.9999545812606812
","x: 188.0604705810547
y: 223.39012145996094
z: -0.3805347681045532
visibility: 0.9999475479125977
","x: 186.858154296875
y: 222.8366241455078
z: -0.3805268108844757
visibility: 0.9999374151229858
","x: 200.29246520996094
y: 220.9853973388672
z: -0.2785632908344269
visibility: 0.9999760389328003
","x: 186.27682495117188
y: 222.0769500732422
z: -0.24840259552001953
visibility: 0.9999253749847412
","x: 194.75613403320312
y: 237.58181762695312
z: -0.3442290127277374
visibility: 0.9999949932098389
","x: 189.21917724609375
y: 237.0994415283203
z: -0.335711807012558
visibility: 0.9999892711639404
","x: 220.3130340576172
y: 253.4461212158203
z: -0.16457420587539673
visibility: 0.9999983310699463
","x: 176.1124725341797
y: 260.4529113769531
z: -0.14421331882476807
visibility: 0.9999842643737793
","x: 236.04029846191406
y: 302.6095886230469
z: -0.20746764540672302
visibility: 0.9943087697029114
","x: 165.8031463623047
y: 314.0830078125
z: -0.19136932492256165
visibility: 0.9802476167678833
","x: 260.1476745605469
y: 322.6676025390625
z: -0.42330312728881836
visibility: 0.9942958950996399
","x: 147.62107849121094
y: 344.96148681640625
z: -0.4147399365901947
visibility: 0.9882717728614807
","x: 265.0081481933594
y: 334.9716796875
z: -0.4716324210166931
visibility: 0.9891834259033203
","x: 142.05419921875
y: 356.81298828125
z: -0.4630712866783142
visibility: 0.9809070229530334
","x: 262.8201599121094
y: 332.28973388671875
z: -0.5109082460403442
visibility: 0.9915016889572144
","x: 142.6476287841797
y: 352.37158203125
z: -0.4964880347251892
visibility: 0.9834791421890259
","x: 260.9299011230469
y: 328.12896728515625
z: -0.4441775679588318
visibility: 0.9882495403289795
","x: 145.23007202148438
y: 347.8427734375
z: -0.4341229796409607
visibility: 0.9788534045219421
","x: 210.292236328125
y: 371.81903076171875
z: -0.00871251616626978
visibility: 0.9997913241386414
","x: 184.5374298095703
y: 370.7272033691406
z: 0.008695119060575962
visibility: 0.9996790885925293
","x: 208.738037109375
y: 462.8356628417969
z: -0.07185681909322739
visibility: 0.9951879978179932
","x: 187.2060546875
y: 464.8068542480469
z: -0.013972124084830284
visibility: 0.9933398365974426
","x: 212.49266052246094
y: 536.2006225585938
z: 0.14749214053153992
visibility: 0.9914647936820984
","x: 197.9539031982422
y: 541.0999755859375
z: 0.18466085195541382
visibility: 0.990321934223175
","x: 211.6640625
y: 544.1512451171875
z: 0.16239149868488312
visibility: 0.8573960065841675
","x: 202.3463897705078
y: 550.8218994140625
z: 0.19835062325000763
visibility: 0.8944423198699951
","x: 216.7980194091797
y: 563.6011352539062
z: 0.027517318725585938
visibility: 0.987223744392395
","x: 193.8646240234375
y: 568.9703369140625
z: 0.0759071484208107
visibility: 0.9863167405128479
",,,,,,,,,,,,,,,,,,,,,,,,,,,,,,,,,,,,,,,,,,
1,"x: 202.65155029296875
y: 226.7080078125
z: -0.38653630018234253
visibility: 0.9999910593032837
","x: 204.7533721923828
y: 218.3455047607422
z: -0.3746437430381775
visibility: 0.9999660849571228
","x: 206.22935485839844
y: 218.1014404296875
z: -0.3746259808540344
visibility: 0.9999677538871765
","x: 207.62548828125
y: 217.88250732421875
z: -0.37462013959884644
visibility: 0.9999630451202393
","x: 200.80384826660156
y: 218.00689697265625
z: -0.3743447959423065
visibility: 0.9999523758888245
","x: 199.40835571289062
y: 217.50592041015625
z: -0.37441444396972656
visibility: 0.9999464154243469
","x: 197.9918670654297
y: 217.05848693847656
z: -0.3744778633117676
visibility: 0.9999368190765381
","x: 210.47438049316406
y: 218.427978515625
z: -0.2503948211669922
visibility: 0.9999688863754272
","x: 196.9536590576172
y: 217.99851989746094
z: -0.2482387274503708
visibility: 0.9999248385429382
","x: 205.3046875
y: 232.69610595703125
z: -0.3355243504047394
visibility: 0.999993085861206
","x: 200.89019775390625
y: 232.51739501953125
z: -0.33454638719558716
visibility: 0.9999882578849792
","x: 227.0148468017578
y: 254.02655029296875
z: -0.12768177688121796
visibility: 0.9999954700469971
","x: 183.45578002929688
y: 255.3053436279297
z: -0.16392730176448822
visibility: 0.9999825358390808
","x: 236.64486694335938
y: 317.63140869140625
z: -0.0712442398071289
visibility: 0.9940089583396912
","x: 175.7693328857422
y: 308.60614013671875
z: -0.2567576467990875
visibility: 0.9817643761634827
","x: 251.6898193359375
y: 369.06396484375
z: -0.16980841755867004
visibility: 0.9942152500152588
","x: 197.12852478027344
y: 313.1827392578125
z: -0.4753791391849518
visibility: 0.9891511797904968
","x: 256.4745178222656
y: 385.99835205078125
z: -0.19599203765392303
visibility: 0.9888304471969604
","x: 203.0272674560547
y: 322.5960693359375
z: -0.5243375897407532
visibility: 0.9821358323097229
","x: 255.3502197265625
y: 385.960693359375
z: -0.23237912356853485
visibility: 0.9910327196121216
","x: 206.53582763671875
y: 317.0974426269531
z: -0.5354003310203552
visibility: 0.9844388961791992
","x: 253.28744506835938
y: 380.568115234375
z: -0.1853284388780594
visibility: 0.987657368183136
","x: 205.35728454589844
y: 312.9190673828125
z: -0.48275667428970337
visibility: 0.9797793030738831
","x: 216.28729248046875
y: 372.0217590332031
z: -0.0028929258696734905
visibility: 0.9997363686561584
","x: 192.65609741210938
y: 370.49365234375
z: 0.0028769501950591803
visibility: 0.9996557831764221
","x: 214.29820251464844
y: 461.4321594238281
z: -0.029450664296746254
visibility: 0.9939559698104858
","x: 191.16290283203125
y: 461.3143615722656
z: -0.0351320281624794
visibility: 0.9925598502159119
","x: 212.49366760253906
y: 536.36572265625
z: 0.15049543976783752
visibility: 0.9899072647094727
","x: 198.3661346435547
y: 541.1148681640625
z: 0.12408865988254547
visibility: 0.989486813545227
","x: 211.6241455078125
y: 546.0172119140625
z: 0.1624150276184082
visibility: 0.8559426069259644
","x: 202.57861328125
y: 551.6715087890625
z: 0.13324803113937378
visibility: 0.893193244934082
","x: 214.83242797851562
y: 561.129150390625
z: 0.029170531779527664
visibility: 0.985777735710144
","x: 193.88717651367188
y: 568.8837280273438
z: -0.0013025181833654642
visibility: 0.9854083061218262
","x: 199.73751831054688
y: 307.35986328125
z: 0.0
","x: 204.08551025390625
y: 304.10089111328125
z: 4.5540132305177394e-06
","x: 208.45591735839844
y: 304.7781982421875
z: -0.0009474469698034227
","x: 211.83084106445312
y: 306.7504577636719
z: -0.0021080782171338797
","x: 214.38270568847656
y: 306.7457580566406
z: -0.0032726298086345196
","x: 210.2083282470703
y: 311.77008056640625
z: -0.0026873948518186808
","x: 214.42221069335938
y: 316.22393798828125
z: -0.0047805835492908955
","x: 216.62808227539062
y: 319.7860107421875
z: -0.005388139747083187
","x: 218.1262664794922
y: 322.600830078125
z: -0.005602126009762287
","x: 208.546630859375
y: 316.5701904296875
z: -0.004181019030511379
","x: 212.4971160888672
y: 323.77923583984375
z: -0.0061313989572227
","x: 214.54837036132812
y: 328.187255859375
z: -0.006357132922858
","x: 215.93797302246094
y: 331.2799072265625
z: -0.006471565924584866
","x: 206.5766143798828
y: 320.4773254394531
z: -0.005650253500789404
","x: 209.8474884033203
y: 327.7242736816406
z: -0.008009467273950577
","x: 211.77682495117188
y: 331.52886962890625
z: -0.008294562809169292
","x: 213.15835571289062
y: 334.0762023925781
z: -0.008294135332107544
","x: 204.32012939453125
y: 323.3876037597656
z: -0.007144913077354431
","x: 206.55455017089844
y: 329.61846923828125
z: -0.009285405278205872
","x: 207.96902465820312
y: 332.88104248046875
z: -0.009760422632098198
","x: 209.18690490722656
y: 335.31219482421875
z: -0.009838060475885868
",,,,,,,,,,,,,,,,,,,,,
2,"x: 202.65155029296875
y: 226.7080078125
z: -0.38653630018234253
visibility: 0.9999910593032837
","x: 204.7533721923828
y: 218.3455047607422
z: -0.3746437430381775
visibility: 0.9999660849571228
","x: 206.22935485839844
y: 218.1014404296875
z: -0.3746259808540344
visibility: 0.9999677538871765
","x: 207.62548828125
y: 217.88250732421875
z: -0.37462013959884644
visibility: 0.9999630451202393
","x: 200.80384826660156
y: 218.00689697265625
z: -0.3743447959423065
visibility: 0.9999523758888245
","x: 199.40835571289062
y: 217.50592041015625
z: -0.37441444396972656
visibility: 0.9999464154243469
","x: 197.9918670654297
y: 217.05848693847656
z: -0.3744778633117676
visibility: 0.9999368190765381
","x: 210.47438049316406
y: 218.427978515625
z: -0.2503948211669922
visibility: 0.9999688863754272
","x: 196.9536590576172
y: 217.99851989746094
z: -0.2482387274503708
visibility: 0.9999248385429382
","x: 205.3046875
y: 232.69610595703125
z: -0.3355243504047394
visibility: 0.999993085861206
","x: 200.89019775390625
y: 232.51739501953125
z: -0.33454638719558716
visibility: 0.9999882578849792
","x: 227.0148468017578
y: 254.02655029296875
z: -0.12768177688121796
visibility: 0.9999954700469971
","x: 183.45578002929688
y: 255.3053436279297
z: -0.16392730176448822
visibility: 0.9999825358390808
","x: 236.64486694335938
y: 317.63140869140625
z: -0.0712442398071289
visibility: 0.9940089583396912
","x: 175.7693328857422
y: 308.60614013671875
z: -0.2567576467990875
visibility: 0.9817643761634827
","x: 251.6898193359375
y: 369.06396484375
z: -0.16980841755867004
visibility: 0.9942152500152588
","x: 197.12852478027344
y: 313.1827392578125
z: -0.4753791391849518
visibility: 0.9891511797904968
","x: 256.4745178222656
y: 385.99835205078125
z: -0.19599203765392303
visibility: 0.9888304471969604
","x: 203.0272674560547
y: 322.5960693359375
z: -0.5243375897407532
visibility: 0.9821358323097229
","x: 255.3502197265625
y: 385.960693359375
z: -0.23237912356853485
visibility: 0.9910327196121216
","x: 206.53582763671875
y: 317.0974426269531
z: -0.5354003310203552
visibility: 0.9844388961791992
","x: 253.28744506835938
y: 380.568115234375
z: -0.1853284388780594
visibility: 0.987657368183136
","x: 205.35728454589844
y: 312.9190673828125
z: -0.48275667428970337
visibility: 0.9797793030738831
","x: 216.28729248046875
y: 372.0217590332031
z: -0.0028929258696734905
visibility: 0.9997363686561584
","x: 192.65609741210938
y: 370.49365234375
z: 0.0028769501950591803
visibility: 0.9996557831764221
","x: 214.29820251464844
y: 461.4321594238281
z: -0.029450664296746254
visibility: 0.9939559698104858
","x: 191.16290283203125
y: 461.3143615722656
z: -0.0351320281624794
visibility: 0.9925598502159119
","x: 212.49366760253906
y: 536.36572265625
z: 0.15049543976783752
visibility: 0.9899072647094727
","x: 198.3661346435547
y: 541.1148681640625
z: 0.12408865988254547
visibility: 0.989486813545227
","x: 211.6241455078125
y: 546.0172119140625
z: 0.1624150276184082
visibility: 0.8559426069259644
","x: 202.57861328125
y: 551.6715087890625
z: 0.13324803113937378
visibility: 0.893193244934082
","x: 214.83242797851562
y: 561.129150390625
z: 0.029170531779527664
visibility: 0.985777735710144
","x: 193.88717651367188
y: 568.8837280273438
z: -0.0013025181833654642
visibility: 0.9854083061218262
","x: 199.73751831054688
y: 307.35986328125
z: 0.0
","x: 204.08551025390625
y: 304.10089111328125
z: 4.5540132305177394e-06
","x: 208.45591735839844
y: 304.7781982421875
z: -0.0009474469698034227
","x: 211.83084106445312
y: 306.7504577636719
z: -0.0021080782171338797
","x: 214.38270568847656
y: 306.7457580566406
z: -0.0032726298086345196
","x: 210.2083282470703
y: 311.77008056640625
z: -0.0026873948518186808
","x: 214.42221069335938
y: 316.22393798828125
z: -0.0047805835492908955
","x: 216.62808227539062
y: 319.7860107421875
z: -0.005388139747083187
","x: 218.1262664794922
y: 322.600830078125
z: -0.005602126009762287
","x: 208.546630859375
y: 316.5701904296875
z: -0.004181019030511379
","x: 212.4971160888672
y: 323.77923583984375
z: -0.0061313989572227
","x: 214.54837036132812
y: 328.187255859375
z: -0.006357132922858
","x: 215.93797302246094
y: 331.2799072265625
z: -0.006471565924584866
","x: 206.5766143798828
y: 320.4773254394531
z: -0.005650253500789404
","x: 209.8474884033203
y: 327.7242736816406
z: -0.008009467273950577
","x: 211.77682495117188
y: 331.52886962890625
z: -0.008294562809169292
","x: 213.15835571289062
y: 334.0762023925781
z: -0.008294135332107544
","x: 204.32012939453125
y: 323.3876037597656
z: -0.007144913077354431
","x: 206.55455017089844
y: 329.61846923828125
z: -0.009285405278205872
","x: 207.96902465820312
y: 332.88104248046875
z: -0.009760422632098198
","x: 209.18690490722656
y: 335.31219482421875
z: -0.009838060475885868
",,,,,,,,,,,,,,,,,,,,,
3,"x: 205.99856567382812
y: 227.29833984375
z: -0.38774457573890686
visibility: 0.9999893307685852
","x: 207.97930908203125
y: 218.91873168945312
z: -0.3764512240886688
visibility: 0.9999591708183289
","x: 209.26890563964844
y: 218.5408935546875
z: -0.37645047903060913
visibility: 0.9999600648880005
","x: 210.5974578857422
y: 218.1807861328125
z: -0.37647485733032227
visibility: 0.9999532699584961
","x: 204.26751708984375
y: 218.70370483398438
z: -0.37459641695022583
visibility: 0.9999487996101379
","x: 202.9142303466797
y: 218.1815948486328
z: -0.3746422827243805
visibility: 0.9999435544013977
","x: 201.64810180664062
y: 217.71109008789062
z: -0.37466904520988464
visibility: 0.9999344944953918
","x: 212.8948974609375
y: 218.9335479736328
z: -0.25435101985931396
visibility: 0.9999594688415527
","x: 199.83245849609375
y: 218.22137451171875
z: -0.2530011534690857
visibility: 0.9999236464500427
","x: 208.353759765625
y: 233.14883422851562
z: -0.3364286422729492
visibility: 0.9999884963035583
","x: 203.95632934570312
y: 232.9353485107422
z: -0.33816105127334595
visibility: 0.9999853372573853
","x: 228.72926330566406
y: 258.33416748046875
z: -0.1345616579055786
visibility: 0.9999866485595703
","x: 186.3682861328125
y: 255.47323608398438
z: -0.17182090878486633
visibility: 0.9999797344207764
","x: 241.01243591308594
y: 319.54876708984375
z: -0.10020747035741806
visibility: 0.9938633441925049
","x: 177.4922332763672
y: 308.89312744140625
z: -0.27246585488319397
visibility: 0.982628583908081
","x: 259.4693603515625
y: 365.0802001953125
z: -0.21441678702831268
visibility: 0.9938427209854126
","x: 197.37774658203125
y: 317.383544921875
z: -0.5063780546188354
visibility: 0.9896031618118286
","x: 266.5722961425781
y: 379.8013610839844
z: -0.2430543452501297
visibility: 0.9877280592918396
","x: 204.0395050048828
y: 324.5716857910156
z: -0.5572645664215088
visibility: 0.9825552105903625
","x: 266.7167053222656
y: 378.9988708496094
z: -0.280994176864624
visibility: 0.9899819493293762
","x: 206.75918579101562
y: 316.7123107910156
z: -0.5704265832901001
visibility: 0.9846624135971069
","x: 264.2178649902344
y: 374.5567626953125
z: -0.23227429389953613
visibility: 0.9864608645439148
","x: 205.10696411132812
y: 313.6668701171875
z: -0.5160010457038879
visibility: 0.9796655178070068
","x: 217.7574920654297
y: 375.9158630371094
z: -0.003481077728793025
visibility: 0.9996262192726135
","x: 194.27304077148438
y: 372.4220275878906
z: 0.003463542787358165
visibility: 0.9996403455734253
","x: 216.4148406982422
y: 460.5894470214844
z: -0.04460322484374046
visibility: 0.992682695388794
","x: 190.71568298339844
y: 458.2347106933594
z: -0.09271692484617233
visibility: 0.9922263622283936
","x: 212.42462158203125
y: 536.3584594726562
z: 0.08648815006017685
visibility: 0.9879478812217712
","x: 197.64808654785156
y: 541.074951171875
z: 0.029440725222229958
visibility: 0.9892240762710571
","x: 210.76458740234375
y: 546.1715087890625
z: 0.09079800546169281
visibility: 0.8549697995185852
","x: 201.892578125
y: 551.8751220703125
z: 0.0336885079741478
visibility: 0.8956391215324402
","x: 214.57302856445312
y: 559.06494140625
z: -0.043205708265304565
visibility: 0.9836645722389221
","x: 185.29531860351562
y: 563.715576171875
z: -0.10396957397460938
visibility: 0.9851142168045044
","x: 198.79910278320312
y: 313.57281494140625
z: 0.0
","x: 203.17050170898438
y: 309.62347412109375
z: 0.0005732168210670352
","x: 207.49180603027344
y: 309.162109375
z: -1.734027136990335e-05
","x: 211.05416870117188
y: 309.8525390625
z: -0.0008735082228668034
","x: 213.73672485351562
y: 309.6229248046875
z: -0.0016948375850915909
","x: 209.77670288085938
y: 316.2859191894531
z: -0.0009214270976372063
","x: 213.86935424804688
y: 318.43389892578125
z: -0.002421924378722906
","x: 216.5679168701172
y: 319.9931335449219
z: -0.0029872010927647352
","x: 218.66348266601562
y: 321.32916259765625
z: -0.003224290907382965
","x: 208.75843811035156
y: 320.9918518066406
z: -0.002652449067682028
","x: 212.98692321777344
y: 325.665771484375
z: -0.0039679016917943954
","x: 215.8010711669922
y: 328.77215576171875
z: -0.004418033175170422
","x: 218.093505859375
y: 331.2750549316406
z: -0.0048659020103514194
","x: 207.1529998779297
y: 324.814208984375
z: -0.004417111165821552
","x: 210.88006591796875
y: 330.1575927734375
z: -0.006019516382366419
","x: 213.35531616210938
y: 333.480224609375
z: -0.00663559278473258
","x: 215.40219116210938
y: 336.02520751953125
z: -0.007093322463333607
","x: 205.1485137939453
y: 327.62567138671875
z: -0.006181785836815834
","x: 207.72694396972656
y: 332.66754150390625
z: -0.007685071788728237
","x: 209.5261688232422
y: 336.066162109375
z: -0.008202547207474709
","x: 211.17897033691406
y: 338.91448974609375
z: -0.008510774001479149
",,,,,,,,,,,,,,,,,,,,,
4,"x: 205.99856567382812
y: 227.29833984375
z: -0.38774457573890686
visibility: 0.9999893307685852
","x: 207.97930908203125
y: 218.91873168945312
z: -0.3764512240886688
visibility: 0.9999591708183289
","x: 209.26890563964844
y: 218.5408935546875
z: -0.37645047903060913
visibility: 0.9999600648880005
","x: 210.5974578857422
y: 218.1807861328125
z: -0.37647485733032227
visibility: 0.9999532699584961
","x: 204.26751708984375
y: 218.70370483398438
z: -0.37459641695022583
visibility: 0.9999487996101379
","x: 202.9142303466797
y: 218.1815948486328
z: -0.3746422827243805
visibility: 0.9999435544013977
","x: 201.64810180664062
y: 217.71109008789062
z: -0.37466904520988464
visibility: 0.9999344944953918
","x: 212.8948974609375
y: 218.9335479736328
z: -0.25435101985931396
visibility: 0.9999594688415527
","x: 199.83245849609375
y: 218.22137451171875
z: -0.2530011534690857
visibility: 0.9999236464500427
","x: 208.353759765625
y: 233.14883422851562
z: -0.3364286422729492
visibility: 0.9999884963035583
","x: 203.95632934570312
y: 232.9353485107422
z: -0.33816105127334595
visibility: 0.9999853372573853
","x: 228.72926330566406
y: 258.33416748046875
z: -0.1345616579055786
visibility: 0.9999866485595703
","x: 186.3682861328125
y: 255.47323608398438
z: -0.17182090878486633
visibility: 0.9999797344207764
","x: 241.01243591308594
y: 319.54876708984375
z: -0.10020747035741806
visibility: 0.9938633441925049
","x: 177.4922332763672
y: 308.89312744140625
z: -0.27246585488319397
visibility: 0.982628583908081
","x: 259.4693603515625
y: 365.0802001953125
z: -0.21441678702831268
visibility: 0.9938427209854126
","x: 197.37774658203125
y: 317.383544921875
z: -0.5063780546188354
visibility: 0.9896031618118286
","x: 266.5722961425781
y: 379.8013610839844
z: -0.2430543452501297
visibility: 0.9877280592918396
","x: 204.0395050048828
y: 324.5716857910156
z: -0.5572645664215088
visibility: 0.9825552105903625
","x: 266.7167053222656
y: 378.9988708496094
z: -0.280994176864624
visibility: 0.9899819493293762
","x: 206.75918579101562
y: 316.7123107910156
z: -0.5704265832901001
visibility: 0.9846624135971069
","x: 264.2178649902344
y: 374.5567626953125
z: -0.23227429389953613
visibility: 0.9864608645439148
","x: 205.10696411132812
y: 313.6668701171875
z: -0.5160010457038879
visibility: 0.9796655178070068
","x: 217.7574920654297
y: 375.9158630371094
z: -0.003481077728793025
visibility: 0.9996262192726135
","x: 194.27304077148438
y: 372.4220275878906
z: 0.003463542787358165
visibility: 0.9996403455734253
","x: 216.4148406982422
y: 460.5894470214844
z: -0.04460322484374046
visibility: 0.992682695388794
","x: 190.71568298339844
y: 458.2347106933594
z: -0.09271692484617233
visibility: 0.9922263622283936
","x: 212.42462158203125
y: 536.3584594726562
z: 0.08648815006017685
visibility: 0.9879478812217712
","x: 197.64808654785156
y: 541.074951171875
z: 0.029440725222229958
visibility: 0.9892240762710571
","x: 210.76458740234375
y: 546.1715087890625
z: 0.09079800546169281
visibility: 0.8549697995185852
","x: 201.892578125
y: 551.8751220703125
z: 0.0336885079741478
visibility: 0.8956391215324402
","x: 214.57302856445312
y: 559.06494140625
z: -0.043205708265304565
visibility: 0.9836645722389221
","x: 185.29531860351562
y: 563.715576171875
z: -0.10396957397460938
visibility: 0.9851142168045044
","x: 198.79910278320312
y: 313.57281494140625
z: 0.0
","x: 203.17050170898438
y: 309.62347412109375
z: 0.0005732168210670352
","x: 207.49180603027344
y: 309.162109375
z: -1.734027136990335e-05
","x: 211.05416870117188
y: 309.8525390625
z: -0.0008735082228668034
","x: 213.73672485351562
y: 309.6229248046875
z: -0.0016948375850915909
","x: 209.77670288085938
y: 316.2859191894531
z: -0.0009214270976372063
","x: 213.86935424804688
y: 318.43389892578125
z: -0.002421924378722906
","x: 216.5679168701172
y: 319.9931335449219
z: -0.0029872010927647352
","x: 218.66348266601562
y: 321.32916259765625
z: -0.003224290907382965
","x: 208.75843811035156
y: 320.9918518066406
z: -0.002652449067682028
","x: 212.98692321777344
y: 325.665771484375
z: -0.0039679016917943954
","x: 215.8010711669922
y: 328.77215576171875
z: -0.004418033175170422
","x: 218.093505859375
y: 331.2750549316406
z: -0.0048659020103514194
","x: 207.1529998779297
y: 324.814208984375
z: -0.004417111165821552
","x: 210.88006591796875
y: 330.1575927734375
z: -0.006019516382366419
","x: 213.35531616210938
y: 333.480224609375
z: -0.00663559278473258
","x: 215.40219116210938
y: 336.02520751953125
z: -0.007093322463333607
","x: 205.1485137939453
y: 327.62567138671875
z: -0.006181785836815834
","x: 207.72694396972656
y: 332.66754150390625
z: -0.007685071788728237
","x: 209.5261688232422
y: 336.066162109375
z: -0.008202547207474709
","x: 211.17897033691406
y: 338.91448974609375
z: -0.008510774001479149
",,,,,,,,,,,,,,,,,,,,,
5,"x: 205.27850341796875
y: 226.71295166015625
z: -0.349002480506897
visibility: 0.9999864101409912
","x: 207.67715454101562
y: 218.7230224609375
z: -0.3359447121620178
visibility: 0.9999488592147827
","x: 209.0537567138672
y: 218.37179565429688
z: -0.3359561264514923
visibility: 0.9999486207962036
","x: 210.40145874023438
y: 218.0616455078125
z: -0.3359849750995636
visibility: 0.9999386668205261
","x: 203.98577880859375
y: 218.54852294921875
z: -0.3350905776023865
visibility: 0.9999420046806335
","x: 202.7147216796875
y: 218.0575408935547
z: -0.33513230085372925
visibility: 0.9999371767044067
","x: 201.4856414794922
y: 217.5790252685547
z: -0.3351829946041107
visibility: 0.9999269843101501
","x: 213.32237243652344
y: 219.01580810546875
z: -0.2186766117811203
visibility: 0.9999433159828186
","x: 200.2694549560547
y: 218.40467834472656
z: -0.21708381175994873
visibility: 0.9999169111251831
","x: 208.14532470703125
y: 232.66085815429688
z: -0.30133211612701416
visibility: 0.9999817609786987
","x: 203.5594940185547
y: 232.2978973388672
z: -0.301348477602005
visibility: 0.999980092048645
","x: 228.87432861328125
y: 258.6318054199219
z: -0.1048358902335167
visibility: 0.9999766945838928
","x: 187.9548797607422
y: 255.71719360351562
z: -0.14837846159934998
visibility: 0.9999746084213257
","x: 242.86480712890625
y: 316.93072509765625
z: -0.06893442571163177
visibility: 0.9936684370040894
","x: 178.49209594726562
y: 306.6849365234375
z: -0.24536044895648956
visibility: 0.9826939702033997
","x: 264.21319580078125
y: 356.4226989746094
z: -0.18061847984790802
visibility: 0.9935888051986694
","x: 194.53732299804688
y: 315.5741271972656
z: -0.4776173233985901
visibility: 0.9896422028541565
","x: 271.5397644042969
y: 369.63934326171875
z: -0.20733194053173065
visibility: 0.9869030117988586
","x: 200.92520141601562
y: 322.4905700683594
z: -0.5268901586532593
visibility: 0.9822860956192017
","x: 271.4180603027344
y: 368.82427978515625
z: -0.24536709487438202
visibility: 0.9892262816429138
","x: 203.76271057128906
y: 314.83740234375
z: -0.5437244176864624
visibility: 0.9842573404312134
","x: 269.1400451660156
y: 364.3626403808594
z: -0.19863201677799225
visibility: 0.9856232404708862
","x: 201.7633056640625
y: 311.39068603515625
z: -0.48888152837753296
visibility: 0.9788174033164978
","x: 217.59043884277344
y: 375.6117248535156
z: -0.002624248154461384
visibility: 0.9995415806770325
","x: 194.12460327148438
y: 371.803466796875
z: 0.002673244569450617
visibility: 0.9996129870414734
","x: 216.28248596191406
y: 458.80072021484375
z: -0.02632593736052513
visibility: 0.9919381737709045
","x: 190.12667846679688
y: 454.5403747558594
z: -0.060457147657871246
visibility: 0.9921531677246094
","x: 212.4183349609375
y: 536.406005859375
z: 0.07478655874729156
visibility: 0.9872406721115112
","x: 195.14427185058594
y: 538.6572875976562
z: 0.06018688157200813
visibility: 0.9893288016319275
","x: 210.39102172851562
y: 547.056396484375
z: 0.07528036087751389
visibility: 0.8593895435333252
","x: 198.8957977294922
y: 549.9388427734375
z: 0.06276365369558334
visibility: 0.898800790309906
","x: 214.67745971679688
y: 557.6967163085938
z: -0.05473971366882324
visibility: 0.9826244115829468
","x: 179.19918823242188
y: 557.4669799804688
z: -0.0669921487569809
visibility: 0.9850664734840393
","x: 197.65968322753906
y: 312.4942321777344
z: 0.0
","x: 201.23158264160156
y: 307.5929260253906
z: -0.0012075583217665553
","x: 205.58668518066406
y: 306.19622802734375
z: -0.002705672290176153
","x: 209.15403747558594
y: 306.4859619140625
z: -0.0041259718127548695
","x: 211.82681274414062
y: 306.45721435546875
z: -0.005586814135313034
","x: 207.61317443847656
y: 313.8175048828125
z: -0.0037859827280044556
","x: 211.9627685546875
y: 316.0824890136719
z: -0.00608866848051548
","x: 215.00221252441406
y: 317.8494873046875
z: -0.007271999958902597
","x: 217.40878295898438
y: 319.29766845703125
z: -0.008047780953347683
","x: 206.51426696777344
y: 318.63836669921875
z: -0.004909452982246876
","x: 210.8281707763672
y: 323.3717041015625
z: -0.007288090419024229
","x: 213.92745971679688
y: 326.533935546875
z: -0.008404581807553768
","x: 216.428466796875
y: 328.9004821777344
z: -0.009314823895692825
","x: 204.9018096923828
y: 322.573974609375
z: -0.006065748631954193
","x: 208.78269958496094
y: 327.8759765625
z: -0.00875157956033945
","x: 211.5908966064453
y: 331.35186767578125
z: -0.010024982504546642
","x: 213.91891479492188
y: 333.7432556152344
z: -0.010865260846912861
","x: 202.9058380126953
y: 325.5210876464844
z: -0.00728424871340394
","x: 205.7640380859375
y: 330.52874755859375
z: -0.00970385316759348
","x: 207.7304229736328
y: 333.8858642578125
z: -0.01080350112169981
","x: 209.48143005371094
y: 336.4827880859375
z: -0.011513467878103256
",,,,,,,,,,,,,,,,,,,,,
6,"x: 205.27850341796875
y: 226.71295166015625
z: -0.349002480506897
visibility: 0.9999864101409912
","x: 207.67715454101562
y: 218.7230224609375
z: -0.3359447121620178
visibility: 0.9999488592147827
","x: 209.0537567138672
y: 218.37179565429688
z: -0.3359561264514923
visibility: 0.9999486207962036
","x: 210.40145874023438
y: 218.0616455078125
z: -0.3359849750995636
visibility: 0.9999386668205261
","x: 203.98577880859375
y: 218.54852294921875
z: -0.3350905776023865
visibility: 0.9999420046806335
","x: 202.7147216796875
y: 218.0575408935547
z: -0.33513230085372925
visibility: 0.9999371767044067
","x: 201.4856414794922
y: 217.5790252685547
z: -0.3351829946041107
visibility: 0.9999269843101501
","x: 213.32237243652344
y: 219.01580810546875
z: -0.2186766117811203
visibility: 0.9999433159828186
","x: 200.2694549560547
y: 218.40467834472656
z: -0.21708381175994873
visibility: 0.9999169111251831
","x: 208.14532470703125
y: 232.66085815429688
z: -0.30133211612701416
visibility: 0.9999817609786987
","x: 203.5594940185547
y: 232.2978973388672
z: -0.301348477602005
visibility: 0.999980092048645
","x: 228.87432861328125
y: 258.6318054199219
z: -0.1048358902335167
visibility: 0.9999766945838928
","x: 187.9548797607422
y: 255.71719360351562
z: -0.14837846159934998
visibility: 0.9999746084213257
","x: 242.86480712890625
y: 316.93072509765625
z: -0.06893442571163177
visibility: 0.9936684370040894
","x: 178.49209594726562
y: 306.6849365234375
z: -0.24536044895648956
visibility: 0.9826939702033997
","x: 264.21319580078125
y: 356.4226989746094
z: -0.18061847984790802
visibility: 0.9935888051986694
","x: 194.53732299804688
y: 315.5741271972656
z: -0.4776173233985901
visibility: 0.9896422028541565
","x: 271.5397644042969
y: 369.63934326171875
z: -0.20733194053173065
visibility: 0.9869030117988586
","x: 200.92520141601562
y: 322.4905700683594
z: -0.5268901586532593
visibility: 0.9822860956192017
","x: 271.4180603027344
y: 368.82427978515625
z: -0.24536709487438202
visibility: 0.9892262816429138
","x: 203.76271057128906
y: 314.83740234375
z: -0.5437244176864624
visibility: 0.9842573404312134
","x: 269.1400451660156
y: 364.3626403808594
z: -0.19863201677799225
visibility: 0.9856232404708862
","x: 201.7633056640625
y: 311.39068603515625
z: -0.48888152837753296
visibility: 0.9788174033164978
","x: 217.59043884277344
y: 375.6117248535156
z: -0.002624248154461384
visibility: 0.9995415806770325
","x: 194.12460327148438
y: 371.803466796875
z: 0.002673244569450617
visibility: 0.9996129870414734
","x: 216.28248596191406
y: 458.80072021484375
z: -0.02632593736052513
visibility: 0.9919381737709045
","x: 190.12667846679688
y: 454.5403747558594
z: -0.060457147657871246
visibility: 0.9921531677246094
","x: 212.4183349609375
y: 536.406005859375
z: 0.07478655874729156
visibility: 0.9872406721115112
","x: 195.14427185058594
y: 538.6572875976562
z: 0.06018688157200813
visibility: 0.9893288016319275
","x: 210.39102172851562
y: 547.056396484375
z: 0.07528036087751389
visibility: 0.8593895435333252
","x: 198.8957977294922
y: 549.9388427734375
z: 0.06276365369558334
visibility: 0.898800790309906
","x: 214.67745971679688
y: 557.6967163085938
z: -0.05473971366882324
visibility: 0.9826244115829468
","x: 179.19918823242188
y: 557.4669799804688
z: -0.0669921487569809
visibility: 0.9850664734840393
","x: 197.65968322753906
y: 312.4942321777344
z: 0.0
","x: 201.23158264160156
y: 307.5929260253906
z: -0.0012075583217665553
","x: 205.58668518066406
y: 306.19622802734375
z: -0.002705672290176153
","x: 209.15403747558594
y: 306.4859619140625
z: -0.0041259718127548695
","x: 211.82681274414062
y: 306.45721435546875
z: -0.005586814135313034
","x: 207.61317443847656
y: 313.8175048828125
z: -0.0037859827280044556
","x: 211.9627685546875
y: 316.0824890136719
z: -0.00608866848051548
","x: 215.00221252441406
y: 317.8494873046875
z: -0.007271999958902597
","x: 217.40878295898438
y: 319.29766845703125
z: -0.008047780953347683
","x: 206.51426696777344
y: 318.63836669921875
z: -0.004909452982246876
","x: 210.8281707763672
y: 323.3717041015625
z: -0.007288090419024229
","x: 213.92745971679688
y: 326.533935546875
z: -0.008404581807553768
","x: 216.428466796875
y: 328.9004821777344
z: -0.009314823895692825
","x: 204.9018096923828
y: 322.573974609375
z: -0.006065748631954193
","x: 208.78269958496094
y: 327.8759765625
z: -0.00875157956033945
","x: 211.5908966064453
y: 331.35186767578125
z: -0.010024982504546642
","x: 213.91891479492188
y: 333.7432556152344
z: -0.010865260846912861
","x: 202.9058380126953
y: 325.5210876464844
z: -0.00728424871340394
","x: 205.7640380859375
y: 330.52874755859375
z: -0.00970385316759348
","x: 207.7304229736328
y: 333.8858642578125
z: -0.01080350112169981
","x: 209.48143005371094
y: 336.4827880859375
z: -0.011513467878103256
",,,,,,,,,,,,,,,,,,,,,
7,"x: 203.4318084716797
y: 224.9628448486328
z: -0.20684263110160828
visibility: 0.9999858736991882
","x: 206.1169891357422
y: 216.78375244140625
z: -0.19424904882907867
visibility: 0.9999477863311768
","x: 207.53033447265625
y: 216.54833984375
z: -0.1942954957485199
visibility: 0.9999469518661499
","x: 208.8673095703125
y: 216.35885620117188
z: -0.19430673122406006
visibility: 0.9999366402626038
","x: 202.2802276611328
y: 216.32081604003906
z: -0.1921059787273407
visibility: 0.999941885471344
","x: 201.0611572265625
y: 215.67843627929688
z: -0.1921100914478302
visibility: 0.9999368190765381
","x: 199.8841552734375
y: 215.05210876464844
z: -0.19211488962173462
visibility: 0.9999268651008606
","x: 211.72828674316406
y: 217.95411682128906
z: -0.08721766620874405
visibility: 0.9999395608901978
","x: 199.2543182373047
y: 216.30523681640625
z: -0.07888168841600418
visibility: 0.9999144673347473
","x: 206.45603942871094
y: 231.13406372070312
z: -0.16350123286247253
visibility: 0.9999786019325256
","x: 201.44955444335938
y: 230.44232177734375
z: -0.16115739941596985
visibility: 0.9999775886535645
","x: 227.71774291992188
y: 257.6363525390625
z: 0.0006266016280278563
visibility: 0.999976634979248
","x: 186.73361206054688
y: 251.86521911621094
z: -0.007028238382190466
visibility: 0.999971866607666
","x: 241.7635955810547
y: 315.0009765625
z: 0.020559493452310562
visibility: 0.9930848479270935
","x: 177.30322265625
y: 301.9837646484375
z: -0.08923649787902832
visibility: 0.9807095527648926
","x: 263.5572509765625
y: 345.9623718261719
z: -0.1215965747833252
visibility: 0.9935125708580017
","x: 189.49147033691406
y: 309.554931640625
z: -0.3266850709915161
visibility: 0.9893836379051208
","x: 270.2731018066406
y: 352.9771728515625
z: -0.15434607863426208
visibility: 0.9868173003196716
","x: 195.02796936035156
y: 316.29254150390625
z: -0.3734850287437439
visibility: 0.9817400574684143
","x: 270.37249755859375
y: 349.55438232421875
z: -0.1920882612466812
visibility: 0.989109456539154
","x: 197.70375061035156
y: 308.79437255859375
z: -0.38868749141693115
visibility: 0.9835926294326782
","x: 267.4953918457031
y: 346.7893981933594
z: -0.14049696922302246
visibility: 0.9854479432106018
","x: 196.45526123046875
y: 305.595947265625
z: -0.33792048692703247
visibility: 0.9777216911315918
","x: 217.20721435546875
y: 373.5774230957031
z: -0.004001905210316181
visibility: 0.9995503425598145
","x: 192.9503936767578
y: 369.72705078125
z: 0.004158967174589634
visibility: 0.9996139407157898
","x: 215.59544372558594
y: 455.2300720214844
z: -0.03777097910642624
visibility: 0.9922340512275696
","x: 183.4292449951172
y: 451.1534118652344
z: -0.010510931722819805
visibility: 0.9925180673599243
","x: 212.4302978515625
y: 536.2450561523438
z: 0.03794005140662193
visibility: 0.9878904223442078
","x: 179.20120239257812
y: 531.6063232421875
z: 0.09545430541038513
visibility: 0.989967405796051
","x: 210.09645080566406
y: 547.01025390625
z: 0.03634382039308548
visibility: 0.866985023021698
","x: 183.32948303222656
y: 543.1900634765625
z: 0.09873678535223007
visibility: 0.9047287106513977
","x: 214.5045928955078
y: 557.9534301757812
z: -0.09293459355831146
visibility: 0.9832934737205505
","x: 163.7607421875
y: 551.32861328125
z: -0.022968273609876633
visibility: 0.9858106374740601
","x: 192.9658203125
y: 305.8072204589844
z: 0.0
","x: 195.9916534423828
y: 300.4897766113281
z: -0.0014683968620374799
","x: 200.00302124023438
y: 299.2878723144531
z: -0.003132584737613797
","x: 203.36459350585938
y: 300.1522521972656
z: -0.004537816159427166
","x: 205.96397399902344
y: 300.268310546875
z: -0.006061852909624577
","x: 201.9333953857422
y: 307.0982971191406
z: -0.005077109206467867
","x: 206.32025146484375
y: 309.2319641113281
z: -0.007472191471606493
","x: 209.27854919433594
y: 311.00714111328125
z: -0.008626064285635948
","x: 211.64892578125
y: 312.5168151855469
z: -0.00936126708984375
","x: 200.9017791748047
y: 312.1767578125
z: -0.00588271114975214
","x: 205.28578186035156
y: 316.5246276855469
z: -0.008290867321193218
","x: 208.39024353027344
y: 319.559326171875
z: -0.00927247665822506
","x: 210.8610076904297
y: 321.95855712890625
z: -0.010099492967128754
","x: 199.3551483154297
y: 315.9009094238281
z: -0.006633070297539234
","x: 203.2508087158203
y: 320.80389404296875
z: -0.009366024285554886
","x: 205.99542236328125
y: 324.18597412109375
z: -0.010670318268239498
","x: 208.21897888183594
y: 326.7540283203125
z: -0.01153607852756977
","x: 197.4547882080078
y: 318.353271484375
z: -0.007392990402877331
","x: 200.16299438476562
y: 322.94732666015625
z: -0.009949244558811188
","x: 202.06546020507812
y: 326.2218017578125
z: -0.011120067909359932
","x: 203.69281005859375
y: 328.90057373046875
z: -0.01185024343430996
",,,,,,,,,,,,,,,,,,,,,
8,"x: 203.4318084716797
y: 224.9628448486328
z: -0.20684263110160828
visibility: 0.9999858736991882
","x: 206.1169891357422
y: 216.78375244140625
z: -0.19424904882907867
visibility: 0.9999477863311768
","x: 207.53033447265625
y: 216.54833984375
z: -0.1942954957485199
visibility: 0.9999469518661499
","x: 208.8673095703125
y: 216.35885620117188
z: -0.19430673122406006
visibility: 0.9999366402626038
","x: 202.2802276611328
y: 216.32081604003906
z: -0.1921059787273407
visibility: 0.999941885471344
","x: 201.0611572265625
y: 215.67843627929688
z: -0.1921100914478302
visibility: 0.9999368190765381
","x: 199.8841552734375
y: 215.05210876464844
z: -0.19211488962173462
visibility: 0.9999268651008606
","x: 211.72828674316406
y: 217.95411682128906
z: -0.08721766620874405
visibility: 0.9999395608901978
","x: 199.2543182373047
y: 216.30523681640625
z: -0.07888168841600418
visibility: 0.9999144673347473
","x: 206.45603942871094
y: 231.13406372070312
z: -0.16350123286247253
visibility: 0.9999786019325256
","x: 201.44955444335938
y: 230.44232177734375
z: -0.16115739941596985
visibility: 0.9999775886535645
","x: 227.71774291992188
y: 257.6363525390625
z: 0.0006266016280278563
visibility: 0.999976634979248
","x: 186.73361206054688
y: 251.86521911621094
z: -0.007028238382190466
visibility: 0.999971866607666
","x: 241.7635955810547
y: 315.0009765625
z: 0.020559493452310562
visibility: 0.9930848479270935
","x: 177.30322265625
y: 301.9837646484375
z: -0.08923649787902832
visibility: 0.9807095527648926
","x: 263.5572509765625
y: 345.9623718261719
z: -0.1215965747833252
visibility: 0.9935125708580017
","x: 189.49147033691406
y: 309.554931640625
z: -0.3266850709915161
visibility: 0.9893836379051208
","x: 270.2731018066406
y: 352.9771728515625
z: -0.15434607863426208
visibility: 0.9868173003196716
","x: 195.02796936035156
y: 316.29254150390625
z: -0.3734850287437439
visibility: 0.9817400574684143
","x: 270.37249755859375
y: 349.55438232421875
z: -0.1920882612466812
visibility: 0.989109456539154
","x: 197.70375061035156
y: 308.79437255859375
z: -0.38868749141693115
visibility: 0.9835926294326782
","x: 267.4953918457031
y: 346.7893981933594
z: -0.14049696922302246
visibility: 0.9854479432106018
","x: 196.45526123046875
y: 305.595947265625
z: -0.33792048692703247
visibility: 0.9777216911315918
","x: 217.20721435546875
y: 373.5774230957031
z: -0.004001905210316181
visibility: 0.9995503425598145
","x: 192.9503936767578
y: 369.72705078125
z: 0.004158967174589634
visibility: 0.9996139407157898
","x: 215.59544372558594
y: 455.2300720214844
z: -0.03777097910642624
visibility: 0.9922340512275696
","x: 183.4292449951172
y: 451.1534118652344
z: -0.010510931722819805
visibility: 0.9925180673599243
","x: 212.4302978515625
y: 536.2450561523438
z: 0.03794005140662193
visibility: 0.9878904223442078
","x: 179.20120239257812
y: 531.6063232421875
z: 0.09545430541038513
visibility: 0.989967405796051
","x: 210.09645080566406
y: 547.01025390625
z: 0.03634382039308548
visibility: 0.866985023021698
","x: 183.32948303222656
y: 543.1900634765625
z: 0.09873678535223007
visibility: 0.9047287106513977
","x: 214.5045928955078
y: 557.9534301757812
z: -0.09293459355831146
visibility: 0.9832934737205505
","x: 163.7607421875
y: 551.32861328125
z: -0.022968273609876633
visibility: 0.9858106374740601
","x: 192.9658203125
y: 305.8072204589844
z: 0.0
","x: 195.9916534423828
y: 300.4897766113281
z: -0.0014683968620374799
","x: 200.00302124023438
y: 299.2878723144531
z: -0.003132584737613797
","x: 203.36459350585938
y: 300.1522521972656
z: -0.004537816159427166
","x: 205.96397399902344
y: 300.268310546875
z: -0.006061852909624577
","x: 201.9333953857422
y: 307.0982971191406
z: -0.005077109206467867
","x: 206.32025146484375
y: 309.2319641113281
z: -0.007472191471606493
","x: 209.27854919433594
y: 311.00714111328125
z: -0.008626064285635948
","x: 211.64892578125
y: 312.5168151855469
z: -0.00936126708984375
","x: 200.9017791748047
y: 312.1767578125
z: -0.00588271114975214
","x: 205.28578186035156
y: 316.5246276855469
z: -0.008290867321193218
","x: 208.39024353027344
y: 319.559326171875
z: -0.00927247665822506
","x: 210.8610076904297
y: 321.95855712890625
z: -0.010099492967128754
","x: 199.3551483154297
y: 315.9009094238281
z: -0.006633070297539234
","x: 203.2508087158203
y: 320.80389404296875
z: -0.009366024285554886
","x: 205.99542236328125
y: 324.18597412109375
z: -0.010670318268239498
","x: 208.21897888183594
y: 326.7540283203125
z: -0.01153607852756977
","x: 197.4547882080078
y: 318.353271484375
z: -0.007392990402877331
","x: 200.16299438476562
y: 322.94732666015625
z: -0.009949244558811188
","x: 202.06546020507812
y: 326.2218017578125
z: -0.011120067909359932
","x: 203.69281005859375
y: 328.90057373046875
z: -0.01185024343430996
",,,,,,,,,,,,,,,,,,,,,
9,"x: 204.1082000732422
y: 224.78094482421875
z: -0.244341179728508
visibility: 0.9999849796295166
","x: 206.51019287109375
y: 216.72315979003906
z: -0.2318834811449051
visibility: 0.999945342540741
","x: 207.63441467285156
y: 216.48658752441406
z: -0.23191502690315247
visibility: 0.9999433159828186
","x: 208.72584533691406
y: 216.29736328125
z: -0.23193839192390442
visibility: 0.9999325275421143
","x: 203.15811157226562
y: 216.0948486328125
z: -0.23242036998271942
visibility: 0.9999411106109619
","x: 202.01126098632812
y: 215.37249755859375
z: -0.23243144154548645
visibility: 0.9999356269836426
","x: 200.85093688964844
y: 214.68099975585938
z: -0.23244862258434296
visibility: 0.9999263286590576
","x: 210.67848205566406
y: 217.6034393310547
z: -0.1198640912771225
visibility: 0.9999303221702576
","x: 198.96774291992188
y: 215.6196746826172
z: -0.12344180047512054
visibility: 0.9999127984046936
","x: 206.2521514892578
y: 230.89491271972656
z: -0.1986592411994934
visibility: 0.9999752044677734
","x: 201.46038818359375
y: 229.91323852539062
z: -0.19980750977993011
visibility: 0.9999761581420898
","x: 225.2745819091797
y: 257.58587646484375
z: -0.015973025932908058
visibility: 0.9999758005142212
","x: 186.07960510253906
y: 250.77578735351562
z: -0.04942212253808975
visibility: 0.9999715685844421
","x: 234.656982421875
y: 314.4310302734375
z: 0.02419026754796505
visibility: 0.992110013961792
","x: 175.511474609375
y: 300.6147155761719
z: -0.12195005267858505
visibility: 0.9809097051620483
","x: 259.8216552734375
y: 339.07537841796875
z: -0.11657540500164032
visibility: 0.9932923913002014
","x: 185.5857696533203
y: 308.3392028808594
z: -0.34463661909103394
visibility: 0.9893879294395447
","x: 267.9479064941406
y: 343.3233642578125
z: -0.14735224843025208
visibility: 0.986470103263855
","x: 190.29393005371094
y: 315.48944091796875
z: -0.39051681756973267
visibility: 0.9813814163208008
","x: 269.891357421875
y: 338.5426330566406
z: -0.1888066828250885
visibility: 0.9888095855712891
","x: 193.3405303955078
y: 307.8229675292969
z: -0.40562596917152405
visibility: 0.9831135272979736
","x: 266.6802062988281
y: 336.2003173828125
z: -0.13714179396629333
visibility: 0.9849749207496643
","x: 192.38255310058594
y: 304.0914001464844
z: -0.35505712032318115
visibility: 0.9768208861351013
","x: 211.17218017578125
y: 372.6275634765625
z: 0.0002749582636170089
visibility: 0.9995477795600891
","x: 187.33621215820312
y: 369.14312744140625
z: -0.00011155146785313264
visibility: 0.9996113181114197
","x: 215.56475830078125
y: 454.6241760253906
z: -0.03793279454112053
visibility: 0.9926348328590393
","x: 179.4607391357422
y: 451.8275451660156
z: -0.0009216018952429295
visibility: 0.9929429888725281
","x: 212.6538543701172
y: 536.2103881835938
z: 0.030065258964896202
visibility: 0.9886241555213928
","x: 174.48141479492188
y: 530.2349853515625
z: 0.10750530660152435
visibility: 0.9905664324760437
","x: 209.85145568847656
y: 546.9300537109375
z: 0.027450352907180786
visibility: 0.8743087649345398
","x: 177.30662536621094
y: 541.4000244140625
z: 0.11546158790588379
visibility: 0.909615695476532
","x: 214.58660888671875
y: 558.218994140625
z: -0.10902278125286102
visibility: 0.9840651154518127
","x: 160.81625366210938
y: 550.48876953125
z: -0.008941484615206718
visibility: 0.9865073561668396
","x: 187.71517944335938
y: 305.0711364746094
z: 0.0
","x: 190.96556091308594
y: 300.52691650390625
z: -0.0012140671024098992
","x: 194.94493103027344
y: 299.4206848144531
z: -0.0025402565952390432
","x: 198.33856201171875
y: 300.0712890625
z: -0.003706216812133789
","x: 201.00643920898438
y: 300.5353698730469
z: -0.004895673133432865
","x: 196.76150512695312
y: 307.4052734375
z: -0.003800933016464114
","x: 201.15960693359375
y: 309.6820373535156
z: -0.005774474237114191
","x: 204.04116821289062
y: 311.2803955078125
z: -0.006572560872882605
","x: 206.23292541503906
y: 312.77142333984375
z: -0.007090637926012278
","x: 195.71807861328125
y: 312.3676452636719
z: -0.004730902146548033
","x: 200.0373077392578
y: 316.74627685546875
z: -0.006677313707768917
","x: 202.86781311035156
y: 319.760986328125
z: -0.007310832850635052
","x: 205.0041961669922
y: 322.3345642089844
z: -0.007901245728135109
","x: 194.14979553222656
y: 316.0333557128906
z: -0.005680897738784552
","x: 197.79783630371094
y: 320.97247314453125
z: -0.008081942796707153
","x: 200.32241821289062
y: 324.2709655761719
z: -0.009113632142543793
","x: 202.32818603515625
y: 326.8693542480469
z: -0.009788169525563717
","x: 192.16554260253906
y: 318.4091491699219
z: -0.0066885328851640224
","x: 194.5699462890625
y: 323.027587890625
z: -0.008993114344775677
","x: 196.22084045410156
y: 326.11944580078125
z: -0.010003854520618916
","x: 197.6351318359375
y: 328.7110595703125
z: -0.010614216327667236
","x: 257.94183349609375
y: 334.1323547363281
z: 0.0
","x: 258.1791076660156
y: 329.57818603515625
z: -0.004477744922041893
","x: 260.2662658691406
y: 326.0150451660156
z: -0.007571731228381395
","x: 262.71435546875
y: 325.1358642578125
z: -0.010685363784432411
","x: 264.9445495605469
y: 325.00177001953125
z: -0.013592995703220367
","x: 267.1986389160156
y: 331.26861572265625
z: -0.003889236832037568
","x: 271.1060791015625
y: 329.724365234375
z: -0.007469045929610729
","x: 272.922119140625
y: 329.4146728515625
z: -0.009478623047471046
","x: 273.7620544433594
y: 329.3389587402344
z: -0.01037875097244978
","x: 268.4192199707031
y: 335.8838195800781
z: -0.003947169054299593
","x: 273.0423583984375
y: 336.7356872558594
z: -0.007187276147305965
","x: 273.89300537109375
y: 337.5849609375
z: -0.00870200339704752
","x: 273.7234802246094
y: 338.0511169433594
z: -0.009233083575963974
","x: 268.7046813964844
y: 339.9240417480469
z: -0.004710787907242775
","x: 272.9531555175781
y: 341.7225341796875
z: -0.008041147142648697
","x: 273.87554931640625
y: 342.68292236328125
z: -0.009033475071191788
","x: 274.0294189453125
y: 343.1363525390625
z: -0.009179629385471344
","x: 268.10919189453125
y: 343.5229187011719
z: -0.006039159372448921
","x: 271.38934326171875
y: 346.31280517578125
z: -0.008354190737009048
","x: 272.4288635253906
y: 347.5793762207031
z: -0.009119278751313686
","x: 272.90679931640625
y: 348.0828857421875
z: -0.009253283031284809
"
10,"x: 204.1082000732422
y: 224.78094482421875
z: -0.244341179728508
visibility: 0.9999849796295166
","x: 206.51019287109375
y: 216.72315979003906
z: -0.2318834811449051
visibility: 0.999945342540741
","x: 207.63441467285156
y: 216.48658752441406
z: -0.23191502690315247
visibility: 0.9999433159828186
","x: 208.72584533691406
y: 216.29736328125
z: -0.23193839192390442
visibility: 0.9999325275421143
","x: 203.15811157226562
y: 216.0948486328125
z: -0.23242036998271942
visibility: 0.9999411106109619
","x: 202.01126098632812
y: 215.37249755859375
z: -0.23243144154548645
visibility: 0.9999356269836426
","x: 200.85093688964844
y: 214.68099975585938
z: -0.23244862258434296
visibility: 0.9999263286590576
","x: 210.67848205566406
y: 217.6034393310547
z: -0.1198640912771225
visibility: 0.9999303221702576
","x: 198.96774291992188
y: 215.6196746826172
z: -0.12344180047512054
visibility: 0.9999127984046936
","x: 206.2521514892578
y: 230.89491271972656
z: -0.1986592411994934
visibility: 0.9999752044677734
","x: 201.46038818359375
y: 229.91323852539062
z: -0.19980750977993011
visibility: 0.9999761581420898
","x: 225.2745819091797
y: 257.58587646484375
z: -0.015973025932908058
visibility: 0.9999758005142212
","x: 186.07960510253906
y: 250.77578735351562
z: -0.04942212253808975
visibility: 0.9999715685844421
","x: 234.656982421875
y: 314.4310302734375
z: 0.02419026754796505
visibility: 0.992110013961792
","x: 175.511474609375
y: 300.6147155761719
z: -0.12195005267858505
visibility: 0.9809097051620483
","x: 259.8216552734375
y: 339.07537841796875
z: -0.11657540500164032
visibility: 0.9932923913002014
","x: 185.5857696533203
y: 308.3392028808594
z: -0.34463661909103394
visibility: 0.9893879294395447
","x: 267.9479064941406
y: 343.3233642578125
z: -0.14735224843025208
visibility: 0.986470103263855
","x: 190.29393005371094
y: 315.48944091796875
z: -0.39051681756973267
visibility: 0.9813814163208008
","x: 269.891357421875
y: 338.5426330566406
z: -0.1888066828250885
visibility: 0.9888095855712891
","x: 193.3405303955078
y: 307.8229675292969
z: -0.40562596917152405
visibility: 0.9831135272979736
","x: 266.6802062988281
y: 336.2003173828125
z: -0.13714179396629333
visibility: 0.9849749207496643
","x: 192.38255310058594
y: 304.0914001464844
z: -0.35505712032318115
visibility: 0.9768208861351013
","x: 211.17218017578125
y: 372.6275634765625
z: 0.0002749582636170089
visibility: 0.9995477795600891
","x: 187.33621215820312
y: 369.14312744140625
z: -0.00011155146785313264
visibility: 0.9996113181114197
","x: 215.56475830078125
y: 454.6241760253906
z: -0.03793279454112053
visibility: 0.9926348328590393
","x: 179.4607391357422
y: 451.8275451660156
z: -0.0009216018952429295
visibility: 0.9929429888725281
","x: 212.6538543701172
y: 536.2103881835938
z: 0.030065258964896202
visibility: 0.9886241555213928
","x: 174.48141479492188
y: 530.2349853515625
z: 0.10750530660152435
visibility: 0.9905664324760437
","x: 209.85145568847656
y: 546.9300537109375
z: 0.027450352907180786
visibility: 0.8743087649345398
","x: 177.30662536621094
y: 541.4000244140625
z: 0.11546158790588379
visibility: 0.909615695476532
","x: 214.58660888671875
y: 558.218994140625
z: -0.10902278125286102
visibility: 0.9840651154518127
","x: 160.81625366210938
y: 550.48876953125
z: -0.008941484615206718
visibility: 0.9865073561668396
","x: 187.71517944335938
y: 305.0711364746094
z: 0.0
","x: 190.96556091308594
y: 300.52691650390625
z: -0.0012140671024098992
","x: 194.94493103027344
y: 299.4206848144531
z: -0.0025402565952390432
","x: 198.33856201171875
y: 300.0712890625
z: -0.003706216812133789
","x: 201.00643920898438
y: 300.5353698730469
z: -0.004895673133432865
","x: 196.76150512695312
y: 307.4052734375
z: -0.003800933016464114
","x: 201.15960693359375
y: 309.6820373535156
z: -0.005774474237114191
","x: 204.04116821289062
y: 311.2803955078125
z: -0.006572560872882605
","x: 206.23292541503906
y: 312.77142333984375
z: -0.007090637926012278
","x: 195.71807861328125
y: 312.3676452636719
z: -0.004730902146548033
","x: 200.0373077392578
y: 316.74627685546875
z: -0.006677313707768917
","x: 202.86781311035156
y: 319.760986328125
z: -0.007310832850635052
","x: 205.0041961669922
y: 322.3345642089844
z: -0.007901245728135109
","x: 194.14979553222656
y: 316.0333557128906
z: -0.005680897738784552
","x: 197.79783630371094
y: 320.97247314453125
z: -0.008081942796707153
","x: 200.32241821289062
y: 324.2709655761719
z: -0.009113632142543793
","x: 202.32818603515625
y: 326.8693542480469
z: -0.009788169525563717
","x: 192.16554260253906
y: 318.4091491699219
z: -0.0066885328851640224
","x: 194.5699462890625
y: 323.027587890625
z: -0.008993114344775677
","x: 196.22084045410156
y: 326.11944580078125
z: -0.010003854520618916
","x: 197.6351318359375
y: 328.7110595703125
z: -0.010614216327667236
","x: 257.94183349609375
y: 334.1323547363281
z: 0.0
","x: 258.1791076660156
y: 329.57818603515625
z: -0.004477744922041893
","x: 260.2662658691406
y: 326.0150451660156
z: -0.007571731228381395
","x: 262.71435546875
y: 325.1358642578125
z: -0.010685363784432411
","x: 264.9445495605469
y: 325.00177001953125
z: -0.013592995703220367
","x: 267.1986389160156
y: 331.26861572265625
z: -0.003889236832037568
","x: 271.1060791015625
y: 329.724365234375
z: -0.007469045929610729
","x: 272.922119140625
y: 329.4146728515625
z: -0.009478623047471046
","x: 273.7620544433594
y: 329.3389587402344
z: -0.01037875097244978
","x: 268.4192199707031
y: 335.8838195800781
z: -0.003947169054299593
","x: 273.0423583984375
y: 336.7356872558594
z: -0.007187276147305965
","x: 273.89300537109375
y: 337.5849609375
z: -0.00870200339704752
","x: 273.7234802246094
y: 338.0511169433594
z: -0.009233083575963974
","x: 268.7046813964844
y: 339.9240417480469
z: -0.004710787907242775
","x: 272.9531555175781
y: 341.7225341796875
z: -0.008041147142648697
","x: 273.87554931640625
y: 342.68292236328125
z: -0.009033475071191788
","x: 274.0294189453125
y: 343.1363525390625
z: -0.009179629385471344
","x: 268.10919189453125
y: 343.5229187011719
z: -0.006039159372448921
","x: 271.38934326171875
y: 346.31280517578125
z: -0.008354190737009048
","x: 272.4288635253906
y: 347.5793762207031
z: -0.009119278751313686
","x: 272.90679931640625
y: 348.0828857421875
z: -0.009253283031284809
"
11,"x: 204.1082000732422
y: 224.78094482421875
z: -0.244341179728508
visibility: 0.9999849796295166
","x: 206.51019287109375
y: 216.72315979003906
z: -0.2318834811449051
visibility: 0.999945342540741
","x: 207.63441467285156
y: 216.48658752441406
z: -0.23191502690315247
visibility: 0.9999433159828186
","x: 208.72584533691406
y: 216.29736328125
z: -0.23193839192390442
visibility: 0.9999325275421143
","x: 203.15811157226562
y: 216.0948486328125
z: -0.23242036998271942
visibility: 0.9999411106109619
","x: 202.01126098632812
y: 215.37249755859375
z: -0.23243144154548645
visibility: 0.9999356269836426
","x: 200.85093688964844
y: 214.68099975585938
z: -0.23244862258434296
visibility: 0.9999263286590576
","x: 210.67848205566406
y: 217.6034393310547
z: -0.1198640912771225
visibility: 0.9999303221702576
","x: 198.96774291992188
y: 215.6196746826172
z: -0.12344180047512054
visibility: 0.9999127984046936
","x: 206.2521514892578
y: 230.89491271972656
z: -0.1986592411994934
visibility: 0.9999752044677734
","x: 201.46038818359375
y: 229.91323852539062
z: -0.19980750977993011
visibility: 0.9999761581420898
","x: 225.2745819091797
y: 257.58587646484375
z: -0.015973025932908058
visibility: 0.9999758005142212
","x: 186.07960510253906
y: 250.77578735351562
z: -0.04942212253808975
visibility: 0.9999715685844421
","x: 234.656982421875
y: 314.4310302734375
z: 0.02419026754796505
visibility: 0.992110013961792
","x: 175.511474609375
y: 300.6147155761719
z: -0.12195005267858505
visibility: 0.9809097051620483
","x: 259.8216552734375
y: 339.07537841796875
z: -0.11657540500164032
visibility: 0.9932923913002014
","x: 185.5857696533203
y: 308.3392028808594
z: -0.34463661909103394
visibility: 0.9893879294395447
","x: 267.9479064941406
y: 343.3233642578125
z: -0.14735224843025208
visibility: 0.986470103263855
","x: 190.29393005371094
y: 315.48944091796875
z: -0.39051681756973267
visibility: 0.9813814163208008
","x: 269.891357421875
y: 338.5426330566406
z: -0.1888066828250885
visibility: 0.9888095855712891
","x: 193.3405303955078
y: 307.8229675292969
z: -0.40562596917152405
visibility: 0.9831135272979736
","x: 266.6802062988281
y: 336.2003173828125
z: -0.13714179396629333
visibility: 0.9849749207496643
","x: 192.38255310058594
y: 304.0914001464844
z: -0.35505712032318115
visibility: 0.9768208861351013
","x: 211.17218017578125
y: 372.6275634765625
z: 0.0002749582636170089
visibility: 0.9995477795600891
","x: 187.33621215820312
y: 369.14312744140625
z: -0.00011155146785313264
visibility: 0.9996113181114197
","x: 215.56475830078125
y: 454.6241760253906
z: -0.03793279454112053
visibility: 0.9926348328590393
","x: 179.4607391357422
y: 451.8275451660156
z: -0.0009216018952429295
visibility: 0.9929429888725281
","x: 212.6538543701172
y: 536.2103881835938
z: 0.030065258964896202
visibility: 0.9886241555213928
","x: 174.48141479492188
y: 530.2349853515625
z: 0.10750530660152435
visibility: 0.9905664324760437
","x: 209.85145568847656
y: 546.9300537109375
z: 0.027450352907180786
visibility: 0.8743087649345398
","x: 177.30662536621094
y: 541.4000244140625
z: 0.11546158790588379
visibility: 0.909615695476532
","x: 214.58660888671875
y: 558.218994140625
z: -0.10902278125286102
visibility: 0.9840651154518127
","x: 160.81625366210938
y: 550.48876953125
z: -0.008941484615206718
visibility: 0.9865073561668396
","x: 187.71517944335938
y: 305.0711364746094
z: 0.0
","x: 190.96556091308594
y: 300.52691650390625
z: -0.0012140671024098992
","x: 194.94493103027344
y: 299.4206848144531
z: -0.0025402565952390432
","x: 198.33856201171875
y: 300.0712890625
z: -0.003706216812133789
","x: 201.00643920898438
y: 300.5353698730469
z: -0.004895673133432865
","x: 196.76150512695312
y: 307.4052734375
z: -0.003800933016464114
","x: 201.15960693359375
y: 309.6820373535156
z: -0.005774474237114191
","x: 204.04116821289062
y: 311.2803955078125
z: -0.006572560872882605
","x: 206.23292541503906
y: 312.77142333984375
z: -0.007090637926012278
","x: 195.71807861328125
y: 312.3676452636719
z: -0.004730902146548033
","x: 200.0373077392578
y: 316.74627685546875
z: -0.006677313707768917
","x: 202.86781311035156
y: 319.760986328125
z: -0.007310832850635052
","x: 205.0041961669922
y: 322.3345642089844
z: -0.007901245728135109
","x: 194.14979553222656
y: 316.0333557128906
z: -0.005680897738784552
","x: 197.79783630371094
y: 320.97247314453125
z: -0.008081942796707153
","x: 200.32241821289062
y: 324.2709655761719
z: -0.009113632142543793
","x: 202.32818603515625
y: 326.8693542480469
z: -0.009788169525563717
","x: 192.16554260253906
y: 318.4091491699219
z: -0.0066885328851640224
","x: 194.5699462890625
y: 323.027587890625
z: -0.008993114344775677
","x: 196.22084045410156
y: 326.11944580078125
z: -0.010003854520618916
","x: 197.6351318359375
y: 328.7110595703125
z: -0.010614216327667236
","x: 257.94183349609375
y: 334.1323547363281
z: 0.0
","x: 258.1791076660156
y: 329.57818603515625
z: -0.004477744922041893
","x: 260.2662658691406
y: 326.0150451660156
z: -0.007571731228381395
","x: 262.71435546875
y: 325.1358642578125
z: -0.010685363784432411
","x: 264.9445495605469
y: 325.00177001953125
z: -0.013592995703220367
","x: 267.1986389160156
y: 331.26861572265625
z: -0.003889236832037568
","x: 271.1060791015625
y: 329.724365234375
z: -0.007469045929610729
","x: 272.922119140625
y: 329.4146728515625
z: -0.009478623047471046
","x: 273.7620544433594
y: 329.3389587402344
z: -0.01037875097244978
","x: 268.4192199707031
y: 335.8838195800781
z: -0.003947169054299593
","x: 273.0423583984375
y: 336.7356872558594
z: -0.007187276147305965
","x: 273.89300537109375
y: 337.5849609375
z: -0.00870200339704752
","x: 273.7234802246094
y: 338.0511169433594
z: -0.009233083575963974
","x: 268.7046813964844
y: 339.9240417480469
z: -0.004710787907242775
","x: 272.9531555175781
y: 341.7225341796875
z: -0.008041147142648697
","x: 273.87554931640625
y: 342.68292236328125
z: -0.009033475071191788
","x: 274.0294189453125
y: 343.1363525390625
z: -0.009179629385471344
","x: 268.10919189453125
y: 343.5229187011719
z: -0.006039159372448921
","x: 271.38934326171875
y: 346.31280517578125
z: -0.008354190737009048
","x: 272.4288635253906
y: 347.5793762207031
z: -0.009119278751313686
","x: 272.90679931640625
y: 348.0828857421875
z: -0.009253283031284809
"
12,"x: 202.9107666015625
y: 224.6916046142578
z: -0.19380703568458557
visibility: 0.9999847412109375
","x: 205.29937744140625
y: 216.83193969726562
z: -0.1792602688074112
visibility: 0.9999462962150574
","x: 206.54800415039062
y: 216.62066650390625
z: -0.1793264001607895
visibility: 0.9999439120292664
","x: 207.878173828125
y: 216.45730590820312
z: -0.17938585579395294
visibility: 0.9999340772628784
","x: 202.0620574951172
y: 216.10818481445312
z: -0.17848071455955505
visibility: 0.9999425411224365
","x: 201.0369415283203
y: 215.36648559570312
z: -0.17847366631031036
visibility: 0.9999355673789978
","x: 200.015380859375
y: 214.66326904296875
z: -0.17847786843776703
visibility: 0.9999262094497681
","x: 209.4953155517578
y: 217.69163513183594
z: -0.0689525306224823
visibility: 0.9999291896820068
","x: 198.14804077148438
y: 215.46490478515625
z: -0.06846858561038971
visibility: 0.9999091625213623
","x: 206.2010955810547
y: 230.54983520507812
z: -0.1503891944885254
visibility: 0.999973475933075
","x: 200.4965057373047
y: 229.61228942871094
z: -0.15034782886505127
visibility: 0.9999746680259705
","x: 219.765625
y: 261.72076416015625
z: 0.008533943444490433
visibility: 0.9999755024909973
","x: 182.83494567871094
y: 248.53671264648438
z: 0.0023314733989536762
visibility: 0.9999668002128601
","x: 228.69918823242188
y: 315.36297607421875
z: 0.0099425558000803
visibility: 0.9912453293800354
","x: 167.09469604492188
y: 291.67327880859375
z: -0.09323455393314362
visibility: 0.9768581390380859
","x: 254.1029815673828
y: 331.5962219238281
z: -0.14820358157157898
visibility: 0.9931734204292297
","x: 183.16555786132812
y: 304.05535888671875
z: -0.3368566334247589
visibility: 0.9860182404518127
","x: 262.3212890625
y: 333.235595703125
z: -0.1839594542980194
visibility: 0.9863289594650269
","x: 189.99436950683594
y: 310.29656982421875
z: -0.3825574219226837
visibility: 0.976020336151123
","x: 263.1067199707031
y: 326.87725830078125
z: -0.22116076946258545
visibility: 0.9886828660964966
","x: 187.0147705078125
y: 304.12957763671875
z: -0.3970149755477905
visibility: 0.9777995944023132
","x: 260.086181640625
y: 325.4337158203125
z: -0.16733896732330322
visibility: 0.984631359577179
","x: 187.22129821777344
y: 300.7286376953125
z: -0.3485323190689087
visibility: 0.9700215458869934
","x: 201.85768127441406
y: 372.4215087890625
z: -0.0004302200395613909
visibility: 0.9995644092559814
","x: 179.65255737304688
y: 369.1603088378906
z: 0.0005869666929356754
visibility: 0.9996160268783569
","x: 210.90411376953125
y: 454.5031433105469
z: -0.08327608555555344
visibility: 0.9929190278053284
","x: 175.08645629882812
y: 451.724853515625
z: 0.01410591322928667
visibility: 0.9930931925773621
","x: 211.9995880126953
y: 536.1986083984375
z: -0.06109888479113579
visibility: 0.9892452955245972
","x: 173.45062255859375
y: 530.0343017578125
z: 0.13320240378379822
visibility: 0.9909446239471436
","x: 208.38580322265625
y: 546.9078369140625
z: -0.06740329414606094
visibility: 0.8831501603126526
","x: 177.29539489746094
y: 540.7793579101562
z: 0.13682669401168823
visibility: 0.9135973453521729
","x: 215.09664916992188
y: 557.9876708984375
z: -0.2015199214220047
visibility: 0.9847740530967712
","x: 159.51377868652344
y: 549.6715698242188
z: 0.02156938426196575
visibility: 0.9867838621139526
","x: 181.31744384765625
y: 304.2444763183594
z: 0.0
","x: 184.93045043945312
y: 300.38775634765625
z: -0.0013243473367765546
","x: 189.22296142578125
y: 299.53240966796875
z: -0.0029277142602950335
","x: 192.75466918945312
y: 300.70806884765625
z: -0.004392186179757118
","x: 195.32601928710938
y: 301.841552734375
z: -0.005841458681970835
","x: 190.28469848632812
y: 307.1893310546875
z: -0.004871663637459278
","x: 195.01425170898438
y: 310.5611877441406
z: -0.007297190371900797
","x: 197.73904418945312
y: 312.7182922363281
z: -0.008074142970144749
","x: 199.84835815429688
y: 314.5340270996094
z: -0.00854491163045168
","x: 189.01748657226562
y: 311.95281982421875
z: -0.006023387890309095
","x: 193.4248809814453
y: 317.65570068359375
z: -0.008525067940354347
","x: 195.96739196777344
y: 321.4190368652344
z: -0.009015743620693684
","x: 197.92994689941406
y: 324.3597412109375
z: -0.009437178261578083
","x: 187.35313415527344
y: 315.62799072265625
z: -0.007164405193179846
","x: 190.97842407226562
y: 321.5884094238281
z: -0.009965975768864155
","x: 193.25149536132812
y: 325.4175109863281
z: -0.010690577328205109
","x: 195.040771484375
y: 328.3099060058594
z: -0.011104064993560314
","x: 185.3723602294922
y: 318.2033386230469
z: -0.008371224626898766
","x: 187.77029418945312
y: 323.33453369140625
z: -0.010900014080107212
","x: 189.30374145507812
y: 326.6422119140625
z: -0.011785948649048805
","x: 190.6332244873047
y: 329.3467712402344
z: -0.012274034321308136
","x: 252.4205322265625
y: 327.5760498046875
z: 0.0
","x: 253.94033813476562
y: 321.6766052246094
z: -0.0021105280611664057
","x: 257.25299072265625
y: 316.87530517578125
z: -0.0036890567280352116
","x: 260.09454345703125
y: 313.85595703125
z: -0.005585974548012018
","x: 261.78857421875
y: 310.8208312988281
z: -0.007431045640259981
","x: 262.1750793457031
y: 321.1593017578125
z: -0.0010672516655176878
","x: 265.6269226074219
y: 319.82391357421875
z: -0.0036204217467457056
","x: 267.4220886230469
y: 319.2621765136719
z: -0.005150394514203072
","x: 268.72650146484375
y: 318.8321533203125
z: -0.005971697624772787
","x: 262.7743835449219
y: 325.868408203125
z: -0.00203163200058043
","x: 266.41448974609375
y: 325.5580139160156
z: -0.004310427699238062
","x: 267.9184875488281
y: 325.627685546875
z: -0.005471826996654272
","x: 269.18890380859375
y: 325.5550842285156
z: -0.006137013901025057
","x: 262.5860900878906
y: 330.3170166015625
z: -0.003563455305993557
","x: 266.1361389160156
y: 331.0577697753906
z: -0.0061965808272361755
","x: 267.60247802734375
y: 331.8628234863281
z: -0.007136047352105379
","x: 268.7991943359375
y: 332.3805236816406
z: -0.007502474822103977
","x: 261.6556396484375
y: 334.5534973144531
z: -0.005437050946056843
","x: 264.59722900390625
y: 336.1042785644531
z: -0.007456100545823574
","x: 265.8974609375
y: 337.2646789550781
z: -0.008147278800606728
","x: 266.9393615722656
y: 338.01104736328125
z: -0.008408873341977596
"
13,"x: 202.9107666015625
y: 224.6916046142578
z: -0.19380703568458557
visibility: 0.9999847412109375
","x: 205.29937744140625
y: 216.83193969726562
z: -0.1792602688074112
visibility: 0.9999462962150574
","x: 206.54800415039062
y: 216.62066650390625
z: -0.1793264001607895
visibility: 0.9999439120292664
","x: 207.878173828125
y: 216.45730590820312
z: -0.17938585579395294
visibility: 0.9999340772628784
","x: 202.0620574951172
y: 216.10818481445312
z: -0.17848071455955505
visibility: 0.9999425411224365
","x: 201.0369415283203
y: 215.36648559570312
z: -0.17847366631031036
visibility: 0.9999355673789978
","x: 200.015380859375
y: 214.66326904296875
z: -0.17847786843776703
visibility: 0.9999262094497681
","x: 209.4953155517578
y: 217.69163513183594
z: -0.0689525306224823
visibility: 0.9999291896820068
","x: 198.14804077148438
y: 215.46490478515625
z: -0.06846858561038971
visibility: 0.9999091625213623
","x: 206.2010955810547
y: 230.54983520507812
z: -0.1503891944885254
visibility: 0.999973475933075
","x: 200.4965057373047
y: 229.61228942871094
z: -0.15034782886505127
visibility: 0.9999746680259705
","x: 219.765625
y: 261.72076416015625
z: 0.008533943444490433
visibility: 0.9999755024909973
","x: 182.83494567871094
y: 248.53671264648438
z: 0.0023314733989536762
visibility: 0.9999668002128601
","x: 228.69918823242188
y: 315.36297607421875
z: 0.0099425558000803
visibility: 0.9912453293800354
","x: 167.09469604492188
y: 291.67327880859375
z: -0.09323455393314362
visibility: 0.9768581390380859
","x: 254.1029815673828
y: 331.5962219238281
z: -0.14820358157157898
visibility: 0.9931734204292297
","x: 183.16555786132812
y: 304.05535888671875
z: -0.3368566334247589
visibility: 0.9860182404518127
","x: 262.3212890625
y: 333.235595703125
z: -0.1839594542980194
visibility: 0.9863289594650269
","x: 189.99436950683594
y: 310.29656982421875
z: -0.3825574219226837
visibility: 0.976020336151123
","x: 263.1067199707031
y: 326.87725830078125
z: -0.22116076946258545
visibility: 0.9886828660964966
","x: 187.0147705078125
y: 304.12957763671875
z: -0.3970149755477905
visibility: 0.9777995944023132
","x: 260.086181640625
y: 325.4337158203125
z: -0.16733896732330322
visibility: 0.984631359577179
","x: 187.22129821777344
y: 300.7286376953125
z: -0.3485323190689087
visibility: 0.9700215458869934
","x: 201.85768127441406
y: 372.4215087890625
z: -0.0004302200395613909
visibility: 0.9995644092559814
","x: 179.65255737304688
y: 369.1603088378906
z: 0.0005869666929356754
visibility: 0.9996160268783569
","x: 210.90411376953125
y: 454.5031433105469
z: -0.08327608555555344
visibility: 0.9929190278053284
","x: 175.08645629882812
y: 451.724853515625
z: 0.01410591322928667
visibility: 0.9930931925773621
","x: 211.9995880126953
y: 536.1986083984375
z: -0.06109888479113579
visibility: 0.9892452955245972
","x: 173.45062255859375
y: 530.0343017578125
z: 0.13320240378379822
visibility: 0.9909446239471436
","x: 208.38580322265625
y: 546.9078369140625
z: -0.06740329414606094
visibility: 0.8831501603126526
","x: 177.29539489746094
y: 540.7793579101562
z: 0.13682669401168823
visibility: 0.9135973453521729
","x: 215.09664916992188
y: 557.9876708984375
z: -0.2015199214220047
visibility: 0.9847740530967712
","x: 159.51377868652344
y: 549.6715698242188
z: 0.02156938426196575
visibility: 0.9867838621139526
","x: 181.31744384765625
y: 304.2444763183594
z: 0.0
","x: 184.93045043945312
y: 300.38775634765625
z: -0.0013243473367765546
","x: 189.22296142578125
y: 299.53240966796875
z: -0.0029277142602950335
","x: 192.75466918945312
y: 300.70806884765625
z: -0.004392186179757118
","x: 195.32601928710938
y: 301.841552734375
z: -0.005841458681970835
","x: 190.28469848632812
y: 307.1893310546875
z: -0.004871663637459278
","x: 195.01425170898438
y: 310.5611877441406
z: -0.007297190371900797
","x: 197.73904418945312
y: 312.7182922363281
z: -0.008074142970144749
","x: 199.84835815429688
y: 314.5340270996094
z: -0.00854491163045168
","x: 189.01748657226562
y: 311.95281982421875
z: -0.006023387890309095
","x: 193.4248809814453
y: 317.65570068359375
z: -0.008525067940354347
","x: 195.96739196777344
y: 321.4190368652344
z: -0.009015743620693684
","x: 197.92994689941406
y: 324.3597412109375
z: -0.009437178261578083
","x: 187.35313415527344
y: 315.62799072265625
z: -0.007164405193179846
","x: 190.97842407226562
y: 321.5884094238281
z: -0.009965975768864155
","x: 193.25149536132812
y: 325.4175109863281
z: -0.010690577328205109
","x: 195.040771484375
y: 328.3099060058594
z: -0.011104064993560314
","x: 185.3723602294922
y: 318.2033386230469
z: -0.008371224626898766
","x: 187.77029418945312
y: 323.33453369140625
z: -0.010900014080107212
","x: 189.30374145507812
y: 326.6422119140625
z: -0.011785948649048805
","x: 190.6332244873047
y: 329.3467712402344
z: -0.012274034321308136
","x: 252.4205322265625
y: 327.5760498046875
z: 0.0
","x: 253.94033813476562
y: 321.6766052246094
z: -0.0021105280611664057
","x: 257.25299072265625
y: 316.87530517578125
z: -0.0036890567280352116
","x: 260.09454345703125
y: 313.85595703125
z: -0.005585974548012018
","x: 261.78857421875
y: 310.8208312988281
z: -0.007431045640259981
","x: 262.1750793457031
y: 321.1593017578125
z: -0.0010672516655176878
","x: 265.6269226074219
y: 319.82391357421875
z: -0.0036204217467457056
","x: 267.4220886230469
y: 319.2621765136719
z: -0.005150394514203072
","x: 268.72650146484375
y: 318.8321533203125
z: -0.005971697624772787
","x: 262.7743835449219
y: 325.868408203125
z: -0.00203163200058043
","x: 266.41448974609375
y: 325.5580139160156
z: -0.004310427699238062
","x: 267.9184875488281
y: 325.627685546875
z: -0.005471826996654272
","x: 269.18890380859375
y: 325.5550842285156
z: -0.006137013901025057
","x: 262.5860900878906
y: 330.3170166015625
z: -0.003563455305993557
","x: 266.1361389160156
y: 331.0577697753906
z: -0.0061965808272361755
","x: 267.60247802734375
y: 331.8628234863281
z: -0.007136047352105379
","x: 268.7991943359375
y: 332.3805236816406
z: -0.007502474822103977
","x: 261.6556396484375
y: 334.5534973144531
z: -0.005437050946056843
","x: 264.59722900390625
y: 336.1042785644531
z: -0.007456100545823574
","x: 265.8974609375
y: 337.2646789550781
z: -0.008147278800606728
","x: 266.9393615722656
y: 338.01104736328125
z: -0.008408873341977596
"
14,"x: 202.9107666015625
y: 224.6916046142578
z: -0.19380703568458557
visibility: 0.9999847412109375
","x: 205.29937744140625
y: 216.83193969726562
z: -0.1792602688074112
visibility: 0.9999462962150574
","x: 206.54800415039062
y: 216.62066650390625
z: -0.1793264001607895
visibility: 0.9999439120292664
","x: 207.878173828125
y: 216.45730590820312
z: -0.17938585579395294
visibility: 0.9999340772628784
","x: 202.0620574951172
y: 216.10818481445312
z: -0.17848071455955505
visibility: 0.9999425411224365
","x: 201.0369415283203
y: 215.36648559570312
z: -0.17847366631031036
visibility: 0.9999355673789978
","x: 200.015380859375
y: 214.66326904296875
z: -0.17847786843776703
visibility: 0.9999262094497681
","x: 209.4953155517578
y: 217.69163513183594
z: -0.0689525306224823
visibility: 0.9999291896820068
","x: 198.14804077148438
y: 215.46490478515625
z: -0.06846858561038971
visibility: 0.9999091625213623
","x: 206.2010955810547
y: 230.54983520507812
z: -0.1503891944885254
visibility: 0.999973475933075
","x: 200.4965057373047
y: 229.61228942871094
z: -0.15034782886505127
visibility: 0.9999746680259705
","x: 219.765625
y: 261.72076416015625
z: 0.008533943444490433
visibility: 0.9999755024909973
","x: 182.83494567871094
y: 248.53671264648438
z: 0.0023314733989536762
visibility: 0.9999668002128601
","x: 228.69918823242188
y: 315.36297607421875
z: 0.0099425558000803
visibility: 0.9912453293800354
","x: 167.09469604492188
y: 291.67327880859375
z: -0.09323455393314362
visibility: 0.9768581390380859
","x: 254.1029815673828
y: 331.5962219238281
z: -0.14820358157157898
visibility: 0.9931734204292297
","x: 183.16555786132812
y: 304.05535888671875
z: -0.3368566334247589
visibility: 0.9860182404518127
","x: 262.3212890625
y: 333.235595703125
z: -0.1839594542980194
visibility: 0.9863289594650269
","x: 189.99436950683594
y: 310.29656982421875
z: -0.3825574219226837
visibility: 0.976020336151123
","x: 263.1067199707031
y: 326.87725830078125
z: -0.22116076946258545
visibility: 0.9886828660964966
","x: 187.0147705078125
y: 304.12957763671875
z: -0.3970149755477905
visibility: 0.9777995944023132
","x: 260.086181640625
y: 325.4337158203125
z: -0.16733896732330322
visibility: 0.984631359577179
","x: 187.22129821777344
y: 300.7286376953125
z: -0.3485323190689087
visibility: 0.9700215458869934
","x: 201.85768127441406
y: 372.4215087890625
z: -0.0004302200395613909
visibility: 0.9995644092559814
","x: 179.65255737304688
y: 369.1603088378906
z: 0.0005869666929356754
visibility: 0.9996160268783569
","x: 210.90411376953125
y: 454.5031433105469
z: -0.08327608555555344
visibility: 0.9929190278053284
","x: 175.08645629882812
y: 451.724853515625
z: 0.01410591322928667
visibility: 0.9930931925773621
","x: 211.9995880126953
y: 536.1986083984375
z: -0.06109888479113579
visibility: 0.9892452955245972
","x: 173.45062255859375
y: 530.0343017578125
z: 0.13320240378379822
visibility: 0.9909446239471436
","x: 208.38580322265625
y: 546.9078369140625
z: -0.06740329414606094
visibility: 0.8831501603126526
","x: 177.29539489746094
y: 540.7793579101562
z: 0.13682669401168823
visibility: 0.9135973453521729
","x: 215.09664916992188
y: 557.9876708984375
z: -0.2015199214220047
visibility: 0.9847740530967712
","x: 159.51377868652344
y: 549.6715698242188
z: 0.02156938426196575
visibility: 0.9867838621139526
","x: 181.31744384765625
y: 304.2444763183594
z: 0.0
","x: 184.93045043945312
y: 300.38775634765625
z: -0.0013243473367765546
","x: 189.22296142578125
y: 299.53240966796875
z: -0.0029277142602950335
","x: 192.75466918945312
y: 300.70806884765625
z: -0.004392186179757118
","x: 195.32601928710938
y: 301.841552734375
z: -0.005841458681970835
","x: 190.28469848632812
y: 307.1893310546875
z: -0.004871663637459278
","x: 195.01425170898438
y: 310.5611877441406
z: -0.007297190371900797
","x: 197.73904418945312
y: 312.7182922363281
z: -0.008074142970144749
","x: 199.84835815429688
y: 314.5340270996094
z: -0.00854491163045168
","x: 189.01748657226562
y: 311.95281982421875
z: -0.006023387890309095
","x: 193.4248809814453
y: 317.65570068359375
z: -0.008525067940354347
","x: 195.96739196777344
y: 321.4190368652344
z: -0.009015743620693684
","x: 197.92994689941406
y: 324.3597412109375
z: -0.009437178261578083
","x: 187.35313415527344
y: 315.62799072265625
z: -0.007164405193179846
","x: 190.97842407226562
y: 321.5884094238281
z: -0.009965975768864155
","x: 193.25149536132812
y: 325.4175109863281
z: -0.010690577328205109
","x: 195.040771484375
y: 328.3099060058594
z: -0.011104064993560314
","x: 185.3723602294922
y: 318.2033386230469
z: -0.008371224626898766
","x: 187.77029418945312
y: 323.33453369140625
z: -0.010900014080107212
","x: 189.30374145507812
y: 326.6422119140625
z: -0.011785948649048805
","x: 190.6332244873047
y: 329.3467712402344
z: -0.012274034321308136
","x: 252.4205322265625
y: 327.5760498046875
z: 0.0
","x: 253.94033813476562
y: 321.6766052246094
z: -0.0021105280611664057
","x: 257.25299072265625
y: 316.87530517578125
z: -0.0036890567280352116
","x: 260.09454345703125
y: 313.85595703125
z: -0.005585974548012018
","x: 261.78857421875
y: 310.8208312988281
z: -0.007431045640259981
","x: 262.1750793457031
y: 321.1593017578125
z: -0.0010672516655176878
","x: 265.6269226074219
y: 319.82391357421875
z: -0.0036204217467457056
","x: 267.4220886230469
y: 319.2621765136719
z: -0.005150394514203072
","x: 268.72650146484375
y: 318.8321533203125
z: -0.005971697624772787
","x: 262.7743835449219
y: 325.868408203125
z: -0.00203163200058043
","x: 266.41448974609375
y: 325.5580139160156
z: -0.004310427699238062
","x: 267.9184875488281
y: 325.627685546875
z: -0.005471826996654272
","x: 269.18890380859375
y: 325.5550842285156
z: -0.006137013901025057
","x: 262.5860900878906
y: 330.3170166015625
z: -0.003563455305993557
","x: 266.1361389160156
y: 331.0577697753906
z: -0.0061965808272361755
","x: 267.60247802734375
y: 331.8628234863281
z: -0.007136047352105379
","x: 268.7991943359375
y: 332.3805236816406
z: -0.007502474822103977
","x: 261.6556396484375
y: 334.5534973144531
z: -0.005437050946056843
","x: 264.59722900390625
y: 336.1042785644531
z: -0.007456100545823574
","x: 265.8974609375
y: 337.2646789550781
z: -0.008147278800606728
","x: 266.9393615722656
y: 338.01104736328125
z: -0.008408873341977596
"
15,"x: 202.76527404785156
y: 222.85623168945312
z: -0.22707173228263855
visibility: 0.9999788999557495
","x: 205.23902893066406
y: 215.15260314941406
z: -0.21041712164878845
visibility: 0.9999344348907471
","x: 206.23233032226562
y: 215.0460968017578
z: -0.21051566302776337
visibility: 0.999934196472168
","x: 207.3445587158203
y: 215.00059509277344
z: -0.21061165630817413
visibility: 0.9999246001243591
","x: 202.43678283691406
y: 214.29324340820312
z: -0.2107313573360443
visibility: 0.9999247789382935
","x: 201.40415954589844
y: 213.5709228515625
z: -0.2107187956571579
visibility: 0.9999092221260071
","x: 200.330322265625
y: 212.8794708251953
z: -0.21070416271686554
visibility: 0.9998869299888611
","x: 208.2050323486328
y: 216.76458740234375
z: -0.09788541495800018
visibility: 0.9999197721481323
","x: 197.64266967773438
y: 214.07701110839844
z: -0.10177968442440033
visibility: 0.9998328685760498
","x: 206.04322814941406
y: 228.72882080078125
z: -0.1839539110660553
visibility: 0.9999638795852661
","x: 199.9439239501953
y: 227.89476013183594
z: -0.1852400153875351
visibility: 0.9999603033065796
","x: 214.4153594970703
y: 265.68963623046875
z: -0.03820877522230148
visibility: 0.9999743700027466
","x: 177.93310546875
y: 248.42138671875
z: -0.014002147130668163
visibility: 0.9999168515205383
","x: 224.39813232421875
y: 316.70208740234375
z: -0.037685975432395935
visibility: 0.9911020398139954
","x: 150.13316345214844
y: 280.13006591796875
z: -0.11829431354999542
visibility: 0.9692150950431824
","x: 250.06344604492188
y: 329.4242858886719
z: -0.15199662744998932
visibility: 0.9932904243469238
","x: 150.08433532714844
y: 277.813720703125
z: -0.3711424171924591
visibility: 0.9785891771316528
","x: 258.0967102050781
y: 331.2498474121094
z: -0.20727655291557312
visibility: 0.9865079522132874
","x: 148.5799102783203
y: 278.99359130859375
z: -0.4180236756801605
visibility: 0.9646164774894714
","x: 258.1809387207031
y: 324.3263244628906
z: -0.2231556922197342
visibility: 0.9888288974761963
","x: 151.99073791503906
y: 274.1795654296875
z: -0.4351333975791931
visibility: 0.9669950604438782
","x: 255.37925720214844
y: 322.6939697265625
z: -0.1757534146308899
visibility: 0.98472660779953
","x: 153.4991455078125
y: 274.3940124511719
z: -0.3842126131057739
visibility: 0.9581783413887024
","x: 194.78814697265625
y: 372.6399230957031
z: -0.0037659225054085255
visibility: 0.9995450973510742
","x: 172.69482421875
y: 369.4215393066406
z: 0.003950267098844051
visibility: 0.9995880126953125
","x: 206.03292846679688
y: 454.80523681640625
z: -0.055745579302310944
visibility: 0.9934759736061096
","x: 172.42588806152344
y: 452.3132019042969
z: 0.030821088701486588
visibility: 0.9934893846511841
","x: 211.41110229492188
y: 536.041748046875
z: 0.019087065011262894
visibility: 0.9901344180107117
","x: 173.6193389892578
y: 531.0509033203125
z: 0.1645592302083969
visibility: 0.991577684879303
","x: 208.1641387939453
y: 546.8644409179688
z: 0.018347909674048424
visibility: 0.8916824460029602
","x: 177.88180541992188
y: 541.5238037109375
z: 0.16916398704051971
visibility: 0.9186893105506897
","x: 215.05465698242188
y: 558.02490234375
z: -0.11548414081335068
visibility: 0.9858616590499878
","x: 160.06825256347656
y: 550.7462158203125
z: 0.05092290788888931
visibility: 0.9875377416610718
",,,,,,,,,,,,,,,,,,,,,,,,,,,,,,,,,,,,,,,,,,
16,"x: 200.96897888183594
y: 229.20657348632812
z: -0.25942355394363403
visibility: 0.9999797940254211
","x: 204.12356567382812
y: 223.16555786132812
z: -0.2430664747953415
visibility: 0.9999376535415649
","x: 205.01087951660156
y: 223.51205444335938
z: -0.24312110245227814
visibility: 0.9999372959136963
","x: 205.90789794921875
y: 223.84243774414062
z: -0.24319930374622345
visibility: 0.9999282360076904
","x: 201.12689208984375
y: 221.02745056152344
z: -0.24455802142620087
visibility: 0.9999286532402039
","x: 199.859130859375
y: 219.8644256591797
z: -0.24456076323986053
visibility: 0.9999133944511414
","x: 198.53549194335938
y: 218.65553283691406
z: -0.244548037648201
visibility: 0.9998923540115356
","x: 205.03025817871094
y: 225.35353088378906
z: -0.12135970592498779
visibility: 0.9999236464500427
","x: 194.36865234375
y: 218.39495849609375
z: -0.13010500371456146
visibility: 0.9998419880867004
","x: 201.92431640625
y: 234.82244873046875
z: -0.2118055373430252
visibility: 0.9999659061431885
","x: 196.90159606933594
y: 232.6220703125
z: -0.2142558991909027
visibility: 0.9999629855155945
","x: 209.58175659179688
y: 273.6838684082031
z: -0.035862475633621216
visibility: 0.9999762773513794
","x: 172.7076873779297
y: 249.2921600341797
z: -0.04815472289919853
visibility: 0.999921977519989
","x: 219.7344970703125
y: 322.9622802734375
z: -0.03494087606668472
visibility: 0.9912459850311279
","x: 151.5885009765625
y: 282.8817443847656
z: -0.1481025069952011
visibility: 0.9705192446708679
","x: 245.418212890625
y: 330.5444641113281
z: -0.20258359611034393
visibility: 0.9936496615409851
","x: 159.3023681640625
y: 291.6073913574219
z: -0.4194558560848236
visibility: 0.9795289039611816
","x: 252.90406799316406
y: 334.7615966796875
z: -0.24545864760875702
visibility: 0.9872120022773743
","x: 154.2392578125
y: 287.1121826171875
z: -0.47357994318008423
visibility: 0.9657822847366333
","x: 252.8218994140625
y: 328.625
z: -0.27813446521759033
visibility: 0.9894059896469116
","x: 157.94247436523438
y: 275.9815673828125
z: -0.4851907789707184
visibility: 0.9680071473121643
","x: 250.12315368652344
y: 327.1107482910156
z: -0.22276881337165833
visibility: 0.985382080078125
","x: 154.05087280273438
y: 282.63165283203125
z: -0.4303731322288513
visibility: 0.9590738415718079
","x: 186.7515411376953
y: 373.4327392578125
z: -0.002785246353596449
visibility: 0.9995797872543335
","x: 163.5433807373047
y: 370.8517761230469
z: 0.00296593876555562
visibility: 0.9996119737625122
","x: 200.85621643066406
y: 454.89788818359375
z: -0.07439937442541122
visibility: 0.9940374493598938
","x: 166.0770263671875
y: 453.7732238769531
z: 0.060420624911785126
visibility: 0.9937838315963745
","x: 211.078857421875
y: 536.0363159179688
z: -0.0019210793543606997
visibility: 0.9910002946853638
","x: 171.39707946777344
y: 530.76513671875
z: 0.251241534948349
visibility: 0.9920528531074524
","x: 207.53192138671875
y: 546.8373413085938
z: -0.0029130293987691402
visibility: 0.8997219800949097
","x: 176.63043212890625
y: 541.076904296875
z: 0.26232045888900757
visibility: 0.923019289970398
","x: 215.19989013671875
y: 558.1310424804688
z: -0.15105462074279785
visibility: 0.9870292544364929
","x: 160.8994903564453
y: 550.9503784179688
z: 0.14072009921073914
visibility: 0.9881135821342468
",,,,,,,,,,,,,,,,,,,,,,"x: 243.6481170654297
y: 333.83013916015625
z: 0.0
","x: 245.23741149902344
y: 327.0927429199219
z: -0.0015174613799899817
","x: 248.3498992919922
y: 321.54730224609375
z: -0.0025227272417396307
","x: 251.0752716064453
y: 318.47015380859375
z: -0.0037802199367433786
","x: 252.8213653564453
y: 316.1882019042969
z: -0.005013739224523306
","x: 252.63336181640625
y: 325.2044372558594
z: -0.0008394799660891294
","x: 256.2547912597656
y: 322.794677734375
z: -0.002944038715213537
","x: 258.4539489746094
y: 321.9808654785156
z: -0.004097774624824524
","x: 260.2391662597656
y: 321.5211486816406
z: -0.004707794636487961
","x: 253.38111877441406
y: 329.7655029296875
z: -0.0018520981539040804
","x: 257.36468505859375
y: 328.79669189453125
z: -0.0037339278496801853
","x: 259.54296875
y: 328.87158203125
z: -0.004553200211375952
","x: 261.3178405761719
y: 328.892822265625
z: -0.005022529046982527
","x: 253.3961639404297
y: 334.18365478515625
z: -0.003311492968350649
","x: 257.3242492675781
y: 333.98443603515625
z: -0.0055333636701107025
","x: 259.4322509765625
y: 334.2340087890625
z: -0.006238597445189953
","x: 261.1254577636719
y: 334.29931640625
z: -0.006495972629636526
","x: 252.77513122558594
y: 338.53948974609375
z: -0.005063402932137251
","x: 256.08294677734375
y: 338.81005859375
z: -0.0068634068593382835
","x: 258.1529235839844
y: 338.84844970703125
z: -0.007504208944737911
","x: 259.8930358886719
y: 338.6695861816406
z: -0.007763960864394903
"
17,"x: 200.96897888183594
y: 229.20657348632812
z: -0.25942355394363403
visibility: 0.9999797940254211
","x: 204.12356567382812
y: 223.16555786132812
z: -0.2430664747953415
visibility: 0.9999376535415649
","x: 205.01087951660156
y: 223.51205444335938
z: -0.24312110245227814
visibility: 0.9999372959136963
","x: 205.90789794921875
y: 223.84243774414062
z: -0.24319930374622345
visibility: 0.9999282360076904
","x: 201.12689208984375
y: 221.02745056152344
z: -0.24455802142620087
visibility: 0.9999286532402039
","x: 199.859130859375
y: 219.8644256591797
z: -0.24456076323986053
visibility: 0.9999133944511414
","x: 198.53549194335938
y: 218.65553283691406
z: -0.244548037648201
visibility: 0.9998923540115356
","x: 205.03025817871094
y: 225.35353088378906
z: -0.12135970592498779
visibility: 0.9999236464500427
","x: 194.36865234375
y: 218.39495849609375
z: -0.13010500371456146
visibility: 0.9998419880867004
","x: 201.92431640625
y: 234.82244873046875
z: -0.2118055373430252
visibility: 0.9999659061431885
","x: 196.90159606933594
y: 232.6220703125
z: -0.2142558991909027
visibility: 0.9999629855155945
","x: 209.58175659179688
y: 273.6838684082031
z: -0.035862475633621216
visibility: 0.9999762773513794
","x: 172.7076873779297
y: 249.2921600341797
z: -0.04815472289919853
visibility: 0.999921977519989
","x: 219.7344970703125
y: 322.9622802734375
z: -0.03494087606668472
visibility: 0.9912459850311279
","x: 151.5885009765625
y: 282.8817443847656
z: -0.1481025069952011
visibility: 0.9705192446708679
","x: 245.418212890625
y: 330.5444641113281
z: -0.20258359611034393
visibility: 0.9936496615409851
","x: 159.3023681640625
y: 291.6073913574219
z: -0.4194558560848236
visibility: 0.9795289039611816
","x: 252.90406799316406
y: 334.7615966796875
z: -0.24545864760875702
visibility: 0.9872120022773743
","x: 154.2392578125
y: 287.1121826171875
z: -0.47357994318008423
visibility: 0.9657822847366333
","x: 252.8218994140625
y: 328.625
z: -0.27813446521759033
visibility: 0.9894059896469116
","x: 157.94247436523438
y: 275.9815673828125
z: -0.4851907789707184
visibility: 0.9680071473121643
","x: 250.12315368652344
y: 327.1107482910156
z: -0.22276881337165833
visibility: 0.985382080078125
","x: 154.05087280273438
y: 282.63165283203125
z: -0.4303731322288513
visibility: 0.9590738415718079
","x: 186.7515411376953
y: 373.4327392578125
z: -0.002785246353596449
visibility: 0.9995797872543335
","x: 163.5433807373047
y: 370.8517761230469
z: 0.00296593876555562
visibility: 0.9996119737625122
","x: 200.85621643066406
y: 454.89788818359375
z: -0.07439937442541122
visibility: 0.9940374493598938
","x: 166.0770263671875
y: 453.7732238769531
z: 0.060420624911785126
visibility: 0.9937838315963745
","x: 211.078857421875
y: 536.0363159179688
z: -0.0019210793543606997
visibility: 0.9910002946853638
","x: 171.39707946777344
y: 530.76513671875
z: 0.251241534948349
visibility: 0.9920528531074524
","x: 207.53192138671875
y: 546.8373413085938
z: -0.0029130293987691402
visibility: 0.8997219800949097
","x: 176.63043212890625
y: 541.076904296875
z: 0.26232045888900757
visibility: 0.923019289970398
","x: 215.19989013671875
y: 558.1310424804688
z: -0.15105462074279785
visibility: 0.9870292544364929
","x: 160.8994903564453
y: 550.9503784179688
z: 0.14072009921073914
visibility: 0.9881135821342468
",,,,,,,,,,,,,,,,,,,,,,"x: 243.6481170654297
y: 333.83013916015625
z: 0.0
","x: 245.23741149902344
y: 327.0927429199219
z: -0.0015174613799899817
","x: 248.3498992919922
y: 321.54730224609375
z: -0.0025227272417396307
","x: 251.0752716064453
y: 318.47015380859375
z: -0.0037802199367433786
","x: 252.8213653564453
y: 316.1882019042969
z: -0.005013739224523306
","x: 252.63336181640625
y: 325.2044372558594
z: -0.0008394799660891294
","x: 256.2547912597656
y: 322.794677734375
z: -0.002944038715213537
","x: 258.4539489746094
y: 321.9808654785156
z: -0.004097774624824524
","x: 260.2391662597656
y: 321.5211486816406
z: -0.004707794636487961
","x: 253.38111877441406
y: 329.7655029296875
z: -0.0018520981539040804
","x: 257.36468505859375
y: 328.79669189453125
z: -0.0037339278496801853
","x: 259.54296875
y: 328.87158203125
z: -0.004553200211375952
","x: 261.3178405761719
y: 328.892822265625
z: -0.005022529046982527
","x: 253.3961639404297
y: 334.18365478515625
z: -0.003311492968350649
","x: 257.3242492675781
y: 333.98443603515625
z: -0.0055333636701107025
","x: 259.4322509765625
y: 334.2340087890625
z: -0.006238597445189953
","x: 261.1254577636719
y: 334.29931640625
z: -0.006495972629636526
","x: 252.77513122558594
y: 338.53948974609375
z: -0.005063402932137251
","x: 256.08294677734375
y: 338.81005859375
z: -0.0068634068593382835
","x: 258.1529235839844
y: 338.84844970703125
z: -0.007504208944737911
","x: 259.8930358886719
y: 338.6695861816406
z: -0.007763960864394903
"
18,"x: 196.76315307617188
y: 236.55564880371094
z: -0.2311384379863739
visibility: 0.9999809861183167
","x: 200.2276611328125
y: 231.63514709472656
z: -0.21233996748924255
visibility: 0.9999412894248962
","x: 201.24900817871094
y: 232.40423583984375
z: -0.2123824656009674
visibility: 0.9999405741691589
","x: 202.18846130371094
y: 233.10743713378906
z: -0.21245265007019043
visibility: 0.999932050704956
","x: 196.39414978027344
y: 228.56478881835938
z: -0.21678857505321503
visibility: 0.9999332427978516
","x: 194.70974731445312
y: 227.24551391601562
z: -0.21677395701408386
visibility: 0.9999187588691711
","x: 193.05511474609375
y: 225.87205505371094
z: -0.21674604713916779
visibility: 0.9998994469642639
","x: 201.55926513671875
y: 234.88302612304688
z: -0.09038364887237549
visibility: 0.9999271631240845
","x: 189.3358917236328
y: 224.68289184570312
z: -0.11168104410171509
visibility: 0.999853789806366
","x: 196.97006225585938
y: 242.8404541015625
z: -0.18390512466430664
visibility: 0.9999682307243347
","x: 191.8282928466797
y: 239.5375213623047
z: -0.1903475672006607
visibility: 0.9999659657478333
","x: 205.00912475585938
y: 282.2408447265625
z: -0.0017720169853419065
visibility: 0.9999780058860779
","x: 168.57968139648438
y: 250.82398986816406
z: -0.05486912652850151
visibility: 0.9999285936355591
","x: 212.64202880859375
y: 332.73150634765625
z: 0.014683814719319344
visibility: 0.9908194541931152
","x: 150.3085174560547
y: 285.0999755859375
z: -0.17322754859924316
visibility: 0.9723535180091858
","x: 237.3633270263672
y: 343.02850341796875
z: -0.14547701179981232
visibility: 0.9937171339988708
","x: 162.3256378173828
y: 300.1388854980469
z: -0.4217650890350342
visibility: 0.9807862639427185
","x: 244.71966552734375
y: 343.05230712890625
z: -0.18245111405849457
visibility: 0.9873651266098022
","x: 161.62933349609375
y: 308.26080322265625
z: -0.4762372374534607
visibility: 0.9675112366676331
","x: 245.22409057617188
y: 335.9410400390625
z: -0.21709971129894257
visibility: 0.9895032644271851
","x: 164.3568878173828
y: 303.2828063964844
z: -0.4827902913093567
visibility: 0.9695413708686829
","x: 242.4905242919922
y: 336.27850341796875
z: -0.16440503299236298
visibility: 0.9854574799537659
","x: 163.3378448486328
y: 303.21026611328125
z: -0.4303744435310364
visibility: 0.960750937461853
","x: 181.8740997314453
y: 377.27008056640625
z: 0.008942121639847755
visibility: 0.9996117353439331
","x: 158.83853149414062
y: 373.9154357910156
z: -0.008838784880936146
visibility: 0.9996359348297119
","x: 196.8402557373047
y: 455.0972900390625
z: -0.07003772258758545
visibility: 0.9945065975189209
","x: 160.2562255859375
y: 454.06048583984375
z: 0.03639975190162659
visibility: 0.9939862489700317
","x: 210.36959838867188
y: 536.039306640625
z: 0.024923382326960564
visibility: 0.9916982054710388
","x: 170.37742614746094
y: 529.3317260742188
z: 0.22191846370697021
visibility: 0.9923691153526306
","x: 207.2838134765625
y: 546.9843139648438
z: 0.026096070185303688
visibility: 0.9059613943099976
","x: 175.30572509765625
y: 539.8413696289062
z: 0.23331812024116516
visibility: 0.926245927810669
","x: 215.18431091308594
y: 558.1705932617188
z: -0.1153845340013504
visibility: 0.987967848777771
","x: 160.66436767578125
y: 550.9612426757812
z: 0.1194843202829361
visibility: 0.9885132908821106
",,,,,,,,,,,,,,,,,,,,,,,,,,,,,,,,,,,,,,,,,,
19,"x: 188.92950439453125
y: 238.85862731933594
z: -0.2305448353290558
visibility: 0.9999818801879883
","x: 192.89540100097656
y: 233.96243286132812
z: -0.21553757786750793
visibility: 0.9999438524246216
","x: 194.10122680664062
y: 234.6609649658203
z: -0.215571790933609
visibility: 0.9999427199363708
","x: 195.17185974121094
y: 235.2327880859375
z: -0.21562008559703827
visibility: 0.999934196472168
","x: 188.82058715820312
y: 230.8977508544922
z: -0.21703259646892548
visibility: 0.9999365210533142
","x: 187.33143615722656
y: 229.57093811035156
z: -0.21701987087726593
visibility: 0.999922513961792
","x: 185.95252990722656
y: 228.2001495361328
z: -0.21699826419353485
visibility: 0.9999048709869385
","x: 196.13604736328125
y: 236.36578369140625
z: -0.10137587785720825
visibility: 0.999929666519165
","x: 184.25509643554688
y: 226.87539672851562
z: -0.10860663652420044
visibility: 0.9998630881309509
","x: 189.89413452148438
y: 245.05706787109375
z: -0.1848551630973816
visibility: 0.999970018863678
","x: 185.22637939453125
y: 241.57440185546875
z: -0.18726584315299988
visibility: 0.9999685287475586
","x: 200.54852294921875
y: 279.3994445800781
z: -0.015022207982838154
visibility: 0.9999797344207764
","x: 164.12734985351562
y: 251.07337951660156
z: -0.04397091269493103
visibility: 0.9999350309371948
","x: 206.1310272216797
y: 332.156005859375
z: -7.447721145581454e-06
visibility: 0.9901644587516785
","x: 146.00682067871094
y: 284.56951904296875
z: -0.1546846181154251
visibility: 0.9735896587371826
","x: 221.70333862304688
y: 354.0206298828125
z: -0.15837492048740387
visibility: 0.993489146232605
","x: 159.4895477294922
y: 301.6007080078125
z: -0.39202338457107544
visibility: 0.9819566011428833
","x: 229.35696411132812
y: 360.10137939453125
z: -0.19752433896064758
visibility: 0.9871015548706055
","x: 162.6429443359375
y: 315.0813903808594
z: -0.44586291909217834
visibility: 0.9692900776863098
","x: 230.37060546875
y: 355.9195251464844
z: -0.2313545197248459
visibility: 0.9891939163208008
","x: 166.4573974609375
y: 310.2005615234375
z: -0.45293155312538147
visibility: 0.9711442589759827
","x: 227.29464721679688
y: 353.45849609375
z: -0.17663605511188507
visibility: 0.9849863648414612
","x: 165.45590209960938
y: 308.0153503417969
z: -0.4003872275352478
visibility: 0.9626185297966003
","x: 178.85269165039062
y: 376.88189697265625
z: 0.008305158466100693
visibility: 0.9996382594108582
","x: 155.83901977539062
y: 373.90234375
z: -0.008100693114101887
visibility: 0.9996587038040161
","x: 193.54344177246094
y: 454.7679443359375
z: -0.05386124178767204
visibility: 0.9949229955673218
","x: 158.73085021972656
y: 454.0835266113281
z: 0.03667374700307846
visibility: 0.9941569566726685
","x: 208.15792846679688
y: 535.4231567382812
z: 0.06013937667012215
visibility: 0.9923610687255859
","x: 170.2126007080078
y: 529.4912109375
z: 0.21016104519367218
visibility: 0.9927842617034912
","x: 205.0986785888672
y: 546.7281494140625
z: 0.0637679398059845
visibility: 0.9118383526802063
","x: 176.05055236816406
y: 540.2186279296875
z: 0.2204725742340088
visibility: 0.9310355186462402
","x: 212.21966552734375
y: 557.6959838867188
z: -0.06954444944858551
visibility: 0.9888705611228943
","x: 160.08810424804688
y: 550.780029296875
z: 0.10979557037353516
visibility: 0.9891043305397034
","x: 161.64031982421875
y: 310.78564453125
z: 0.0
","x: 165.9259490966797
y: 307.9963684082031
z: -0.0012518014991655946
","x: 170.15597534179688
y: 308.84039306640625
z: -0.0027091987431049347
","x: 173.49658203125
y: 311.54583740234375
z: -0.0039167399518191814
","x: 175.9427490234375
y: 313.5840148925781
z: -0.005148287862539291
","x: 170.10491943359375
