uscmakers/ReverseChoreography/data/5_thats_what_i_like_bruno_mars.csv
,NOSE,LEFT_EYE_INNER,LEFT_EYE,LEFT_EYE_OUTER,RIGHT_EYE_INNER,RIGHT_EYE,RIGHT_EYE_OUTER,LEFT_EAR,RIGHT_EAR,MOUTH_LEFT,MOUTH_RIGHT,LEFT_SHOULDER,RIGHT_SHOULDER,LEFT_ELBOW,RIGHT_ELBOW,LEFT_WRIST,RIGHT_WRIST,LEFT_PINKY,RIGHT_PINKY,LEFT_INDEX,RIGHT_INDEX,LEFT_THUMB,RIGHT_THUMB,LEFT_HIP,RIGHT_HIP,LEFT_KNEE,RIGHT_KNEE,LEFT_ANKLE,RIGHT_ANKLE,LEFT_HEEL,RIGHT_HEEL,LEFT_FOOT_INDEX,RIGHT_FOOT_INDEX,WRIST,THUMB_CPC,THUMB_MCP,THUMB_IP,THUMB_TIP,INDEX_FINGER_MCP,INDEX_FINGER_PIP,INDEX_FINGER_DIP,INDEX_FINGER_TIP,MIDDLE_FINGER_MCP,MIDDLE_FINGER_PIP,MIDDLE_FINGER_DIP,MIDDLE_FINGER_TIP,RING_FINGER_PIP,RING_FINGER_DIP,RING_FINGER_TIP,RING_FINGER_MCP,PINKY_MCP,PINKY_PIP,PINKY_DIP,PINKY_TIP,WRIST2,THUMB_CPC2,THUMB_MCP2,THUMB_IP2,THUMB_TIP2,INDEX_FINGER_MCP2,INDEX_FINGER_PIP2,INDEX_FINGER_DIP2,INDEX_FINGER_TIP2,MIDDLE_FINGER_MCP2,MIDDLE_FINGER_PIP2,MIDDLE_FINGER_DIP2,MIDDLE_FINGER_TIP2,RING_FINGER_PIP2,RING_FINGER_DIP2,RING_FINGER_TIP2,RING_FINGER_MCP2,PINKY_MCP2,PINKY_PIP2,PINKY_DIP2,PINKY_TIP2
0,"x: 180.51568603515625
y: 217.3365936279297
z: -0.031861063092947006
visibility: 0.9999041557312012
","x: 182.63148498535156
y: 209.15768432617188
z: -0.04914209246635437
visibility: 0.9998955726623535
","x: 183.5255584716797
y: 208.5889892578125
z: -0.04921557009220123
visibility: 0.9999123811721802
","x: 184.52537536621094
y: 208.00723266601562
z: -0.04929102584719658
visibility: 0.9999223947525024
","x: 181.76173400878906
y: 209.42181396484375
z: -0.015122005715966225
visibility: 0.9998400211334229
","x: 182.01129150390625
y: 209.0709686279297
z: -0.015068495646119118
visibility: 0.9998005032539368
","x: 182.34133911132812
y: 208.65985107421875
z: -0.01510634459555149
visibility: 0.9998027682304382
","x: 192.80538940429688
y: 208.6920928955078
z: -0.0762123316526413
visibility: 0.9999500513076782
","x: 189.87147521972656
y: 209.2086944580078
z: 0.07724396139383316
visibility: 0.9998633861541748
","x: 184.8023681640625
y: 223.60023498535156
z: -0.037650711834430695
visibility: 0.9999022483825684
","x: 183.45965576171875
y: 223.701171875
z: 0.0064079975709319115
visibility: 0.9997325539588928
","x: 213.0974578857422
y: 241.0301513671875
z: -0.12341735512018204
visibility: 0.9999873638153076
","x: 192.85064697265625
y: 250.7233428955078
z: 0.1763334721326828
visibility: 0.9996178150177002
","x: 223.662841796875
y: 291.7525939941406
z: -0.251006156206131
visibility: 0.9963427186012268
","x: 194.485107421875
y: 307.0425109863281
z: 0.20938178896903992
visibility: 0.0441381074488163
","x: 196.44525146484375
y: 254.6193084716797
z: -0.2877167761325836
visibility: 0.9907159805297852
","x: 185.66311645507812
y: 335.4707336425781
z: 0.11565641313791275
visibility: 0.1315215528011322
","x: 190.626953125
y: 245.48214721679688
z: -0.31782108545303345
visibility: 0.9751249551773071
","x: 181.3511962890625
y: 344.63641357421875
z: 0.10554667562246323
visibility: 0.15189743041992188
","x: 191.3457489013672
y: 239.12518310546875
z: -0.29671409726142883
visibility: 0.9714035987854004
","x: 180.95513916015625
y: 341.01959228515625
z: 0.08203857392072678
visibility: 0.15845155715942383
","x: 192.9095916748047
y: 242.1039581298828
z: -0.2783668339252472
visibility: 0.9464708566665649
","x: 182.7252960205078
y: 337.2381286621094
z: 0.10050486028194427
visibility: 0.15648260712623596
","x: 206.9047393798828
y: 363.83416748046875
z: -0.09429609030485153
visibility: 0.9997325539588928
","x: 191.65403747558594
y: 364.8575439453125
z: 0.09428653120994568
visibility: 0.9995372295379639
","x: 196.909423828125
y: 456.3705139160156
z: -0.13775752484798431
visibility: 0.9704266786575317
","x: 187.19508361816406
y: 452.5233154296875
z: 0.008602484129369259
visibility: 0.9536267518997192
","x: 200.96282958984375
y: 543.8255615234375
z: -0.06945923715829849
visibility: 0.9865599870681763
","x: 216.38783264160156
y: 531.0684814453125
z: 0.10662631690502167
visibility: 0.9767821431159973
","x: 203.48765563964844
y: 557.8710327148438
z: -0.06849599629640579
visibility: 0.9126153588294983
","x: 226.62014770507812
y: 544.7752685546875
z: 0.11200787872076035
visibility: 0.9634637236595154
","x: 178.7368927001953
y: 566.6594848632812
z: -0.17390304803848267
visibility: 0.9840494394302368
","x: 208.05401611328125
y: 551.3125
z: 0.047108814120292664
visibility: 0.9751405119895935
",,,,,,,,,,,,,,,,,,,,,,,,,,,,,,,,,,,,,,,,,,
1,"x: 201.0897674560547
y: 216.69212341308594
z: -0.18246309459209442
visibility: 0.9999107718467712
","x: 203.46888732910156
y: 208.7969207763672
z: -0.1895744353532791
visibility: 0.9999008774757385
","x: 204.7386932373047
y: 208.2522735595703
z: -0.1896214634180069
visibility: 0.9999173283576965
","x: 206.05860900878906
y: 207.6649169921875
z: -0.18967267870903015
visibility: 0.9999265074729919
","x: 201.1897430419922
y: 209.0079345703125
z: -0.16274936497211456
visibility: 0.9998491406440735
","x: 200.9066162109375
y: 208.6802978515625
z: -0.1627519428730011
visibility: 0.9998129606246948
","x: 200.6810302734375
y: 208.31124877929688
z: -0.16268327832221985
visibility: 0.9998142123222351
","x: 211.58737182617188
y: 208.45315551757812
z: -0.16151948273181915
visibility: 0.9999530911445618
","x: 204.13356018066406
y: 209.07395935058594
z: -0.0377153679728508
visibility: 0.99985671043396
","x: 204.60079956054688
y: 223.09979248046875
z: -0.16774921119213104
visibility: 0.999910295009613
","x: 201.80966186523438
y: 223.0299072265625
z: -0.1322052776813507
visibility: 0.9997522830963135
","x: 230.45700073242188
y: 242.6500701904297
z: -0.17366981506347656
visibility: 0.9999884963035583
","x: 199.794921875
y: 249.5990753173828
z: 0.11549229919910431
visibility: 0.9996348023414612
","x: 253.8004608154297
y: 291.73223876953125
z: -0.21886257827281952
visibility: 0.9966962337493896
","x: 194.18118286132812
y: 299.82305908203125
z: 0.19758856296539307
visibility: 0.10585108399391174
","x: 242.21829223632812
y: 333.25518798828125
z: -0.26446789503097534
visibility: 0.9915434718132019
","x: 183.48406982421875
y: 307.0933837890625
z: 0.07930789887905121
visibility: 0.21417337656021118
","x: 237.59010314941406
y: 342.8179626464844
z: -0.291938841342926
visibility: 0.9772216081619263
","x: 179.10269165039062
y: 307.3648681640625
z: 0.0655425637960434
visibility: 0.23165395855903625
","x: 234.70692443847656
y: 336.80645751953125
z: -0.29854458570480347
visibility: 0.973881721496582
","x: 179.79458618164062
y: 302.9671325683594
z: 0.04272622987627983
visibility: 0.23791375756263733
","x: 235.64784240722656
y: 333.0798034667969
z: -0.2660900354385376
visibility: 0.9511282444000244
","x: 181.84439086914062
y: 303.5629577636719
z: 0.06631112098693848
visibility: 0.23489300906658173
","x: 222.4036865234375
y: 364.01251220703125
z: -0.1011480838060379
visibility: 0.9997222423553467
","x: 205.76077270507812
y: 364.6780090332031
z: 0.10115176439285278
visibility: 0.9995056390762329
","x: 211.87120056152344
y: 455.6492614746094
z: -0.1449001133441925
visibility: 0.972276508808136
","x: 206.50283813476562
y: 453.5672302246094
z: 0.07153524458408356
visibility: 0.9353220462799072
","x: 229.177978515625
y: 543.1435546875
z: -0.11195728927850723
visibility: 0.9872629046440125
","x: 218.04299926757812
y: 537.112548828125
z: 0.13001276552677155
visibility: 0.9697697162628174
","x: 236.52914428710938
y: 557.8519897460938
z: -0.11424767971038818
visibility: 0.9176973700523376
","x: 225.5866241455078
y: 554.1747436523438
z: 0.12932083010673523
visibility: 0.955769956111908
","x: 206.34121704101562
y: 566.3910522460938
z: -0.22869107127189636
visibility: 0.9848957657814026
","x: 200.54177856445312
y: 556.7188720703125
z: 0.04986035078763962
visibility: 0.9718670845031738
",,,,,,,,,,,,,,,,,,,,,,,,,,,,,,,,,,,,,,,,,,
2,"x: 206.6141815185547
y: 211.37208557128906
z: -0.1802699863910675
visibility: 0.9999115467071533
","x: 209.54347229003906
y: 203.29872131347656
z: -0.18370187282562256
visibility: 0.9998892545700073
","x: 210.8353271484375
y: 202.93658447265625
z: -0.18377205729484558
visibility: 0.9999118447303772
","x: 212.19363403320312
y: 202.61334228515625
z: -0.183826744556427
visibility: 0.9999188184738159
","x: 207.23983764648438
y: 203.47726440429688
z: -0.16184578835964203
visibility: 0.9998372197151184
","x: 206.88270568847656
y: 203.28004455566406
z: -0.16180524230003357
visibility: 0.9998053312301636
","x: 206.58197021484375
y: 203.12196350097656
z: -0.16174642741680145
visibility: 0.999797523021698
","x: 216.8250274658203
y: 205.91896057128906
z: -0.14534184336662292
visibility: 0.9999501705169678
","x: 208.4816436767578
y: 206.5598907470703
z: -0.04308392480015755
visibility: 0.9997944235801697
","x: 209.27223205566406
y: 218.3937225341797
z: -0.16189226508140564
visibility: 0.9999139904975891
","x: 206.21307373046875
y: 217.76963806152344
z: -0.1328153908252716
visibility: 0.9997568130493164
","x: 234.0002899169922
y: 241.94100952148438
z: -0.15801072120666504
visibility: 0.99998939037323
","x: 201.7786407470703
y: 248.54920959472656
z: 0.11414311081171036
visibility: 0.9996031522750854
","x: 260.29730224609375
y: 283.48663330078125
z: -0.1710839569568634
visibility: 0.9970077276229858
","x: 193.61773681640625
y: 290.529541015625
z: 0.22609619796276093
visibility: 0.16453365981578827
","x: 250.6880340576172
y: 332.18115234375
z: -0.21729238331317902
visibility: 0.992273211479187
","x: 182.7067413330078
y: 280.3717956542969
z: 0.17572005093097687
visibility: 0.28887510299682617
","x: 247.4600067138672
y: 342.57421875
z: -0.24023179709911346
visibility: 0.9790158271789551
","x: 179.17678833007812
y: 280.51446533203125
z: 0.17018723487854004
visibility: 0.30273157358169556
","x: 243.92990112304688
y: 338.101318359375
z: -0.2652386426925659
visibility: 0.9760352373123169
","x: 181.4390411376953
y: 276.1098937988281
z: 0.15195968747138977
visibility: 0.3086059093475342
","x: 244.4547882080078
y: 334.36517333984375
z: -0.22408190369606018
visibility: 0.9552684426307678
","x: 182.68438720703125
y: 276.2481689453125
z: 0.16652359068393707
visibility: 0.30417555570602417
","x: 226.626708984375
y: 363.94635009765625
z: -0.09228406846523285
visibility: 0.9996997117996216
","x: 210.01364135742188
y: 364.6786193847656
z: 0.09229736775159836
visibility: 0.9994610548019409
","x: 227.7411651611328
y: 455.0609130859375
z: -0.10322965681552887
visibility: 0.9747068285942078
","x: 216.33883666992188
y: 454.2129211425781
z: 0.10666583478450775
visibility: 0.9378450512886047
","x: 241.14495849609375
y: 541.8798217773438
z: -0.028657620772719383
visibility: 0.9882509112358093
","x: 218.72027587890625
y: 537.8417358398438
z: 0.21097207069396973
visibility: 0.9712644219398499
","x: 246.49789428710938
y: 555.7252807617188
z: -0.028507471084594727
visibility: 0.9216911196708679
","x: 225.10986328125
y: 553.7567749023438
z: 0.2133372277021408
visibility: 0.9557027816772461
","x: 227.04714965820312
y: 567.2554931640625
z: -0.15913203358650208
visibility: 0.9859898090362549
","x: 196.7017822265625
y: 558.261474609375
z: 0.1230161190032959
visibility: 0.9734782576560974
",,,,,,,,,,,,,,,,,,,,,,,,,,,,,,,,,,,,,,,,,,
3,"x: 215.6692657470703
y: 210.1708221435547
z: -0.2105177342891693
visibility: 0.9999189376831055
","x: 219.25010681152344
y: 202.10867309570312
z: -0.20163480937480927
visibility: 0.9998970627784729
","x: 220.71644592285156
y: 202.13035583496094
z: -0.20169875025749207
visibility: 0.99991774559021
","x: 222.0783233642578
y: 202.20663452148438
z: -0.2017553299665451
visibility: 0.9999239444732666
","x: 215.25401306152344
y: 201.36416625976562
z: -0.1901589184999466
visibility: 0.9998500943183899
","x: 213.8092041015625
y: 200.8357391357422
z: -0.19010953605175018
visibility: 0.9998205304145813
","x: 212.51022338867188
y: 200.30747985839844
z: -0.1899990737438202
visibility: 0.9998126029968262
","x: 224.8900604248047
y: 205.49668884277344
z: -0.12247128784656525
visibility: 0.9999539256095886
","x: 211.74526977539062
y: 202.74305725097656
z: -0.06252171099185944
visibility: 0.9998053312301636
","x: 217.75164794921875
y: 217.89170837402344
z: -0.17564566433429718
visibility: 0.9999212026596069
","x: 212.76068115234375
y: 216.7212677001953
z: -0.16087499260902405
visibility: 0.9997779130935669
","x: 238.14088439941406
y: 241.44418334960938
z: -0.12008492648601532
visibility: 0.9999901056289673
","x: 201.91586303710938
y: 245.39913940429688
z: 0.09372265636920929
visibility: 0.9995904564857483
","x: 266.285888671875
y: 278.5294189453125
z: -0.13888926804065704
visibility: 0.9972679615020752
","x: 186.01040649414062
y: 282.23529052734375
z: 0.09339432418346405
visibility: 0.22534413635730743
","x: 259.0441589355469
y: 329.79498291015625
z: -0.20891515910625458
visibility: 0.9927406907081604
","x: 184.62008666992188
y: 270.0701599121094
z: -0.08403817564249039
visibility: 0.3524942100048065
","x: 256.35858154296875
y: 341.02642822265625
z: -0.23822350800037384
visibility: 0.9799068570137024
","x: 184.9547119140625
y: 269.0228576660156
z: -0.11131227016448975
visibility: 0.36044439673423767
","x: 252.60939025878906
y: 337.0533752441406
z: -0.25917625427246094
visibility: 0.9772620797157288
","x: 187.3282012939453
y: 265.77264404296875
z: -0.11876802146434784
visibility: 0.36583590507507324
","x: 252.64974975585938
y: 333.2756042480469
z: -0.21552088856697083
visibility: 0.9579342603683472
","x: 188.14602661132812
y: 266.6431884765625
z: -0.09254195541143417
visibility: 0.35963174700737
","x: 233.05422973632812
y: 365.21624755859375
z: -0.07668788731098175
visibility: 0.9996496438980103
","x: 212.4518280029297
y: 367.3966979980469
z: 0.07671119272708893
visibility: 0.9993966817855835
","x: 238.78211975097656
y: 454.9759216308594
z: -0.08176864683628082
visibility: 0.9768259525299072
","x: 218.87411499023438
y: 455.6941223144531
z: 0.07872135937213898
visibility: 0.9415033459663391
","x: 249.37191772460938
y: 538.1015625
z: 0.005371701903641224
visibility: 0.9889670014381409
","x: 219.5026397705078
y: 539.2867431640625
z: 0.18962928652763367
visibility: 0.9732089638710022
","x: 250.9205322265625
y: 550.194580078125
z: 0.005025326274335384
visibility: 0.9214510321617126
","x: 224.90603637695312
y: 554.4262084960938
z: 0.19234251976013184
visibility: 0.9572773575782776
","x: 242.44351196289062
y: 566.284912109375
z: -0.12694670259952545
visibility: 0.9865409731864929
","x: 198.14422607421875
y: 559.4407958984375
z: 0.09794183820486069
visibility: 0.9750702977180481
","x: 190.31614685058594
y: 255.47964477539062
z: 0.0
","x: 188.39842224121094
y: 259.4956970214844
z: -0.0038446267135441303
","x: 187.12835693359375
y: 263.80230712890625
z: -0.00810324028134346
","x: 186.96792602539062
y: 266.49334716796875
z: -0.011426804587244987
","x: 187.5468292236328
y: 267.64654541015625
z: -0.014670721255242825
","x: 186.18870544433594
y: 261.6095275878906
z: -0.015472562052309513
","x: 188.1118621826172
y: 268.23345947265625
z: -0.01976996473968029
","x: 189.07070922851562
y: 268.1283264160156
z: -0.020873483270406723
","x: 189.5664825439453
y: 266.68560791015625
z: -0.02127586305141449
","x: 187.62771606445312
y: 259.3371276855469
z: -0.01528242975473404
","x: 190.74349975585938
y: 266.4152526855469
z: -0.01894768886268139
","x: 190.83604431152344
y: 266.0936279296875
z: -0.017471885308623314
","x: 190.35824584960938
y: 264.2591857910156
z: -0.016764728352427483
","x: 189.55548095703125
y: 257.59619140625
z: -0.014429067261517048
","x: 192.59571838378906
y: 264.029052734375
z: -0.017183396965265274
","x: 192.25531005859375
y: 263.76055908203125
z: -0.014950876124203205
","x: 191.54676818847656
y: 262.2975158691406
z: -0.013748867437243462
","x: 191.5933837890625
y: 256.521484375
z: -0.013705601915717125
","x: 193.63697814941406
y: 261.84088134765625
z: -0.015699902549386024
","x: 193.4337921142578
y: 261.90850830078125
z: -0.014647374860942364
","x: 192.8944549560547
y: 260.95892333984375
z: -0.013940922915935516
",,,,,,,,,,,,,,,,,,,,,
4,"x: 215.6692657470703
y: 210.1708221435547
z: -0.2105177342891693
visibility: 0.9999189376831055
","x: 219.25010681152344
y: 202.10867309570312
z: -0.20163480937480927
visibility: 0.9998970627784729
","x: 220.71644592285156
y: 202.13035583496094
z: -0.20169875025749207
visibility: 0.99991774559021
","x: 222.0783233642578
y: 202.20663452148438
z: -0.2017553299665451
visibility: 0.9999239444732666
","x: 215.25401306152344
y: 201.36416625976562
z: -0.1901589184999466
visibility: 0.9998500943183899
","x: 213.8092041015625
y: 200.8357391357422
z: -0.19010953605175018
visibility: 0.9998205304145813
","x: 212.51022338867188
y: 200.30747985839844
z: -0.1899990737438202
visibility: 0.9998126029968262
","x: 224.8900604248047
y: 205.49668884277344
z: -0.12247128784656525
visibility: 0.9999539256095886
","x: 211.74526977539062
y: 202.74305725097656
z: -0.06252171099185944
visibility: 0.9998053312301636
","x: 217.75164794921875
y: 217.89170837402344
z: -0.17564566433429718
visibility: 0.9999212026596069
","x: 212.76068115234375
y: 216.7212677001953
z: -0.16087499260902405
visibility: 0.9997779130935669
","x: 238.14088439941406
y: 241.44418334960938
z: -0.12008492648601532
visibility: 0.9999901056289673
","x: 201.91586303710938
y: 245.39913940429688
z: 0.09372265636920929
visibility: 0.9995904564857483
","x: 266.285888671875
y: 278.5294189453125
z: -0.13888926804065704
visibility: 0.9972679615020752
","x: 186.01040649414062
y: 282.23529052734375
z: 0.09339432418346405
visibility: 0.22534413635730743
","x: 259.0441589355469
y: 329.79498291015625
z: -0.20891515910625458
visibility: 0.9927406907081604
","x: 184.62008666992188
y: 270.0701599121094
z: -0.08403817564249039
visibility: 0.3524942100048065
","x: 256.35858154296875
y: 341.02642822265625
z: -0.23822350800037384
visibility: 0.9799068570137024
","x: 184.9547119140625
y: 269.0228576660156
z: -0.11131227016448975
visibility: 0.36044439673423767
","x: 252.60939025878906
y: 337.0533752441406
z: -0.25917625427246094
visibility: 0.9772620797157288
","x: 187.3282012939453
y: 265.77264404296875
z: -0.11876802146434784
visibility: 0.36583590507507324
","x: 252.64974975585938
y: 333.2756042480469
z: -0.21552088856697083
visibility: 0.9579342603683472
","x: 188.14602661132812
y: 266.6431884765625
z: -0.09254195541143417
visibility: 0.35963174700737
","x: 233.05422973632812
y: 365.21624755859375
z: -0.07668788731098175
visibility: 0.9996496438980103
","x: 212.4518280029297
y: 367.3966979980469
z: 0.07671119272708893
visibility: 0.9993966817855835
","x: 238.78211975097656
y: 454.9759216308594
z: -0.08176864683628082
visibility: 0.9768259525299072
","x: 218.87411499023438
y: 455.6941223144531
z: 0.07872135937213898
visibility: 0.9415033459663391
","x: 249.37191772460938
y: 538.1015625
z: 0.005371701903641224
visibility: 0.9889670014381409
","x: 219.5026397705078
y: 539.2867431640625
z: 0.18962928652763367
visibility: 0.9732089638710022
","x: 250.9205322265625
y: 550.194580078125
z: 0.005025326274335384
visibility: 0.9214510321617126
","x: 224.90603637695312
y: 554.4262084960938
z: 0.19234251976013184
visibility: 0.9572773575782776
","x: 242.44351196289062
y: 566.284912109375
z: -0.12694670259952545
visibility: 0.9865409731864929
","x: 198.14422607421875
y: 559.4407958984375
z: 0.09794183820486069
visibility: 0.9750702977180481
","x: 190.31614685058594
y: 255.47964477539062
z: 0.0
","x: 188.39842224121094
y: 259.4956970214844
z: -0.0038446267135441303
","x: 187.12835693359375
y: 263.80230712890625
z: -0.00810324028134346
","x: 186.96792602539062
y: 266.49334716796875
z: -0.011426804587244987
","x: 187.5468292236328
y: 267.64654541015625
z: -0.014670721255242825
","x: 186.18870544433594
y: 261.6095275878906
z: -0.015472562052309513
","x: 188.1118621826172
y: 268.23345947265625
z: -0.01976996473968029
","x: 189.07070922851562
y: 268.1283264160156
z: -0.020873483270406723
","x: 189.5664825439453
y: 266.68560791015625
z: -0.02127586305141449
","x: 187.62771606445312
y: 259.3371276855469
z: -0.01528242975473404
","x: 190.74349975585938
y: 266.4152526855469
z: -0.01894768886268139
","x: 190.83604431152344
y: 266.0936279296875
z: -0.017471885308623314
","x: 190.35824584960938
y: 264.2591857910156
z: -0.016764728352427483
","x: 189.55548095703125
y: 257.59619140625
z: -0.014429067261517048
","x: 192.59571838378906
y: 264.029052734375
z: -0.017183396965265274
","x: 192.25531005859375
y: 263.76055908203125
z: -0.014950876124203205
","x: 191.54676818847656
y: 262.2975158691406
z: -0.013748867437243462
","x: 191.5933837890625
y: 256.521484375
z: -0.013705601915717125
","x: 193.63697814941406
y: 261.84088134765625
z: -0.015699902549386024
","x: 193.4337921142578
y: 261.90850830078125
z: -0.014647374860942364
","x: 192.8944549560547
y: 260.95892333984375
z: -0.013940922915935516
",,,,,,,,,,,,,,,,,,,,,
5,"x: 222.21839904785156
y: 207.84689331054688
z: -0.219516322016716
visibility: 0.9999256730079651
","x: 225.80690002441406
y: 200.33297729492188
z: -0.20684318244457245
visibility: 0.9999033212661743
","x: 227.37103271484375
y: 200.59645080566406
z: -0.2069016695022583
visibility: 0.9999217987060547
","x: 228.88644409179688
y: 200.89646911621094
z: -0.2069307565689087
visibility: 0.9999265074729919
","x: 221.28720092773438
y: 198.89312744140625
z: -0.20157749950885773
visibility: 0.9998614192008972
","x: 219.79953002929688
y: 198.10972595214844
z: -0.20156607031822205
visibility: 0.9998343586921692
","x: 218.42413330078125
y: 197.3375701904297
z: -0.2015032321214676
visibility: 0.9998264312744141
","x: 231.49729919433594
y: 204.2816925048828
z: -0.11999180167913437
visibility: 0.9999558329582214
","x: 217.27194213867188
y: 199.38194274902344
z: -0.07886160910129547
visibility: 0.9998147487640381
","x: 225.02967834472656
y: 215.443603515625
z: -0.17786651849746704
visibility: 0.9999271631240845
","x: 219.5105743408203
y: 214.2057647705078
z: -0.17144308984279633
visibility: 0.9997971653938293
","x: 245.02146911621094
y: 241.32015991210938
z: -0.0667039304971695
visibility: 0.9999900460243225
","x: 203.61863708496094
y: 243.26905822753906
z: 0.036777254194021225
visibility: 0.9996135234832764
","x: 268.0553894042969
y: 280.3677673339844
z: -0.0707814022898674
visibility: 0.997402548789978
","x: 187.82798767089844
y: 284.6789855957031
z: -0.05037304759025574
visibility: 0.29595693945884705
","x: 265.949462890625
y: 340.2044982910156
z: -0.16963428258895874
visibility: 0.9929372072219849
","x: 190.5545196533203
y: 282.7495422363281
z: -0.3259887099266052
visibility: 0.41528987884521484
","x: 266.8538513183594
y: 353.48565673828125
z: -0.2046772539615631
visibility: 0.9802693724632263
","x: 190.96771240234375
y: 286.9353332519531
z: -0.3754297196865082
visibility: 0.4212363064289093
","x: 262.5763854980469
y: 352.15570068359375
z: -0.23149029910564423
visibility: 0.9779238104820251
","x: 193.1603240966797
y: 283.2635803222656
z: -0.39143994450569153
visibility: 0.42619696259498596
","x: 261.1914367675781
y: 347.0621337890625
z: -0.18030938506126404
visibility: 0.959951639175415
","x: 194.09422302246094
y: 282.0648498535156
z: -0.3391575515270233
visibility: 0.4196220934391022
","x: 238.06637573242188
y: 366.171875
z: -0.0461861789226532
visibility: 0.9996379613876343
","x: 215.08140563964844
y: 367.48968505859375
z: 0.04622124880552292
visibility: 0.9994062185287476
","x: 243.90249633789062
y: 455.5769348144531
z: -0.05385987088084221
visibility: 0.978671669960022
","x: 218.79913330078125
y: 457.3456115722656
z: 0.0610680989921093
visibility: 0.9458723664283752
","x: 250.1473388671875
y: 537.6238403320312
z: 0.06585636734962463
visibility: 0.9892724752426147
","x: 219.5707244873047
y: 541.261474609375
z: 0.17080478370189667
visibility: 0.9752265214920044
","x: 249.6865997314453
y: 549.3890991210938
z: 0.06800562888383865
visibility: 0.9183521866798401
","x: 225.04443359375
y: 555.6173095703125
z: 0.17354440689086914
visibility: 0.9582820534706116
","x: 251.09739685058594
y: 565.7702026367188
z: -0.057765305042266846
visibility: 0.9865479469299316
","x: 198.60621643066406
y: 560.3571166992188
z: 0.07934047281742096
visibility: 0.9765112996101379
",,,,,,,,,,,,,,,,,,,,,,,,,,,,,,,,,,,,,,,,,,
6,"x: 228.2230682373047
y: 207.88482666015625
z: -0.2363395392894745
visibility: 0.9999327659606934
","x: 231.16864013671875
y: 200.12159729003906
z: -0.22202260792255402
visibility: 0.9999116063117981
","x: 232.6391143798828
y: 200.45712280273438
z: -0.2220575511455536
visibility: 0.9999281167984009
","x: 234.0790557861328
y: 200.84129333496094
z: -0.22205758094787598
visibility: 0.9999322891235352
","x: 226.85577392578125
y: 198.68569946289062
z: -0.21899685263633728
visibility: 0.9998738169670105
","x: 225.3975372314453
y: 197.96156311035156
z: -0.21899037063121796
visibility: 0.9998492002487183
","x: 223.91326904296875
y: 197.2765350341797
z: -0.21897204220294952
visibility: 0.9998418092727661
","x: 236.54443359375
y: 204.2723388671875
z: -0.11622507870197296
visibility: 0.9999585747718811
","x: 222.70504760742188
y: 199.62832641601562
z: -0.10170193761587143
visibility: 0.9998292326927185
","x: 230.8132781982422
y: 215.37600708007812
z: -0.19350366294384003
visibility: 0.9999336004257202
","x: 225.5713348388672
y: 214.60096740722656
z: -0.19048714637756348
visibility: 0.999816358089447
","x: 250.7046356201172
y: 244.75253295898438
z: -0.06157433241605759
visibility: 0.9999895691871643
","x: 207.6551055908203
y: 243.87857055664062
z: 0.002382374834269285
visibility: 0.9996466636657715
","x: 262.6095886230469
y: 305.169677734375
z: -0.038775891065597534
visibility: 0.9973216652870178
","x: 195.65089416503906
y: 288.16448974609375
z: -0.03107418678700924
visibility: 0.35744667053222656
","x: 272.2590026855469
y: 364.0504150390625
z: -0.13053742051124573
visibility: 0.9931436777114868
","x: 190.58326721191406
y: 321.7727355957031
z: -0.23870165646076202
visibility: 0.4703802764415741
","x: 275.85198974609375
y: 378.5963439941406
z: -0.15963853895664215
visibility: 0.9810318350791931
","x: 189.1096649169922
y: 334.02008056640625
z: -0.27859026193618774
visibility: 0.4741833508014679
","x: 272.9499816894531
y: 378.7574768066406
z: -0.19640569388866425
visibility: 0.979032039642334
","x: 190.76559448242188
y: 332.20220947265625
z: -0.31034785509109497
visibility: 0.4791725277900696
","x: 270.9555358886719
y: 374.28533935546875
z: -0.14623823761940002
visibility: 0.9624778032302856
","x: 192.01504516601562
y: 328.80377197265625
z: -0.2571505904197693
visibility: 0.47255852818489075
","x: 243.5876922607422
y: 367.0508117675781
z: -0.02948114275932312
visibility: 0.9996408224105835
","x: 218.31832885742188
y: 368.1649169921875
z: 0.029492324218153954
visibility: 0.9994478225708008
","x: 247.40878295898438
y: 457.0411376953125
z: -0.022495809942483902
visibility: 0.9803807735443115
","x: 216.4583282470703
y: 458.4664611816406
z: 0.008513488806784153
visibility: 0.9508249163627625
","x: 250.59347534179688
y: 537.6978149414062
z: 0.09998437017202377
visibility: 0.989802360534668
","x: 219.50106811523438
y: 540.9069213867188
z: 0.12800315022468567
visibility: 0.9774531126022339
","x: 249.40818786621094
y: 549.1991577148438
z: 0.10201410204172134
visibility: 0.9162760376930237
","x: 224.91665649414062
y: 555.5971069335938
z: 0.12960122525691986
visibility: 0.9600858092308044
","x: 251.3188018798828
y: 565.75
z: -0.026178866624832153
visibility: 0.987002432346344
","x: 198.60618591308594
y: 560.9835205078125
z: 0.008336037397384644
visibility: 0.9784027338027954
",,,,,,,,,,,,,,,,,,,,,,,,,,,,,,,,,,,,,,,,,,
7,"x: 233.7444610595703
y: 208.13070678710938
z: -0.256273090839386
visibility: 0.999934732913971
","x: 236.61460876464844
y: 200.22386169433594
z: -0.2435196340084076
visibility: 0.9999013543128967
","x: 238.2185821533203
y: 200.856201171875
z: -0.24356290698051453
visibility: 0.9999149441719055
","x: 239.66331481933594
y: 201.50062561035156
z: -0.2435615062713623
visibility: 0.9999185800552368
","x: 232.1399688720703
y: 199.12530517578125
z: -0.23866026103496552
visibility: 0.999869704246521
","x: 230.78118896484375
y: 198.40554809570312
z: -0.23867638409137726
visibility: 0.9998438954353333
","x: 229.3813018798828
y: 197.6456298828125
z: -0.23870961368083954
visibility: 0.9998382925987244
","x: 242.09423828125
y: 204.93405151367188
z: -0.14523158967494965
visibility: 0.99993497133255
","x: 228.52999877929688
y: 199.98727416992188
z: -0.122566357254982
visibility: 0.9997976422309875
","x: 236.49058532714844
y: 215.42019653320312
z: -0.21805596351623535
visibility: 0.9999293684959412
","x: 231.23760986328125
y: 214.90049743652344
z: -0.21129140257835388
visibility: 0.999821662902832
","x: 258.606201171875
y: 250.30752563476562
z: -0.08382416516542435
visibility: 0.9999819397926331
","x: 213.70175170898438
y: 249.4837188720703
z: -0.01807798072695732
visibility: 0.9996699094772339
","x: 266.7161865234375
y: 310.03912353515625
z: -0.086325503885746
visibility: 0.9966646432876587
","x: 202.40899658203125
y: 311.0836486816406
z: 0.03655407950282097
visibility: 0.4147849977016449
","x: 268.1864013671875
y: 359.00750732421875
z: -0.1874348372220993
visibility: 0.9917030334472656
","x: 191.12423706054688
y: 356.6141052246094
z: -0.09429076313972473
visibility: 0.5201732516288757
","x: 268.7112121582031
y: 373.5073547363281
z: -0.21579480171203613
visibility: 0.9787423610687256
","x: 188.024169921875
y: 372.42852783203125
z: -0.1211756244301796
visibility: 0.5213672518730164
","x: 265.4981689453125
y: 371.2845458984375
z: -0.24733391404151917
visibility: 0.9771108627319336
","x: 189.39527893066406
y: 371.5945129394531
z: -0.15384605526924133
visibility: 0.5264480710029602
","x: 264.42877197265625
y: 367.2200927734375
z: -0.18070997297763824
visibility: 0.9609501361846924
","x: 190.99034118652344
y: 366.033447265625
z: -0.11047327518463135
visibility: 0.5199005603790283
","x: 248.19363403320312
y: 372.71240234375
z: -0.030595460906624794
visibility: 0.9995825886726379
","x: 221.46495056152344
y: 372.578857421875
z: 0.030612478032708168
visibility: 0.9994573593139648
","x: 252.6307830810547
y: 460.4292297363281
z: -0.05042033642530441
visibility: 0.9817164540290833
","x: 213.4691162109375
y: 458.4884033203125
z: -0.004057044629007578
visibility: 0.9552479982376099
","x: 251.6342010498047
y: 537.9851684570312
z: 0.06454841047525406
visibility: 0.9901058077812195
","x: 220.03866577148438
y: 541.3121337890625
z: 0.12061663717031479
visibility: 0.9793169498443604
","x: 249.24842834472656
y: 549.5623779296875
z: 0.06657331436872482
visibility: 0.913067638874054
","x: 225.0359649658203
y: 555.9088134765625
z: 0.12341499328613281
visibility: 0.9609144330024719
","x: 253.063720703125
y: 565.7294921875
z: -0.062092430889606476
visibility: 0.9869775772094727
","x: 199.253662109375
y: 560.6632690429688
z: 0.008750880137085915
visibility: 0.9798011779785156
",,,,,,,,,,,,,,,,,,,,,,,,,,,,,,,,,,,,,,,,,,
8,"x: 239.88084411621094
y: 220.4130859375
z: -0.338783323764801
visibility: 0.9999388456344604
","x: 242.4148712158203
y: 212.43426513671875
z: -0.326526403427124
visibility: 0.9999027252197266
","x: 243.9667510986328
y: 212.56268310546875
z: -0.32655441761016846
visibility: 0.9999135732650757
","x: 245.48074340820312
y: 212.61090087890625
z: -0.3265758752822876
visibility: 0.9999169707298279
","x: 237.7547607421875
y: 211.26893615722656
z: -0.3226868510246277
visibility: 0.9998751878738403
","x: 236.16024780273438
y: 210.4642333984375
z: -0.3227408528327942
visibility: 0.9998502731323242
","x: 234.6177978515625
y: 209.82373046875
z: -0.3227744698524475
visibility: 0.999846339225769
","x: 247.36355590820312
y: 212.9391326904297
z: -0.21827618777751923
visibility: 0.9999307990074158
","x: 233.3265838623047
y: 210.13088989257812
z: -0.19857504963874817
visibility: 0.9998034834861755
","x: 242.35519409179688
y: 227.22769165039062
z: -0.2951207756996155
visibility: 0.9999330043792725
","x: 237.03854370117188
y: 226.70945739746094
z: -0.2894290089607239
visibility: 0.9998356699943542
","x: 264.38787841796875
y: 257.76654052734375
z: -0.14602987468242645
visibility: 0.9999809861183167
","x: 218.79327392578125
y: 257.7284851074219
z: -0.07970017194747925
visibility: 0.9996976852416992
","x: 276.57696533203125
y: 314.41595458984375
z: -0.1425895094871521
visibility: 0.9964901804924011
","x: 204.5555877685547
y: 319.5982971191406
z: -0.022956980392336845
visibility: 0.47004392743110657
","x: 269.42547607421875
y: 351.128662109375
z: -0.3069530129432678
visibility: 0.9913941025733948
","x: 192.65553283691406
y: 364.1484069824219
z: -0.14846013486385345
visibility: 0.5662422776222229
","x: 266.6347961425781
y: 362.7493896484375
z: -0.34976011514663696
visibility: 0.9782235622406006
","x: 187.8560028076172
y: 379.2047424316406
z: -0.1830468475818634
visibility: 0.5655608177185059
","x: 263.4481201171875
y: 355.58477783203125
z: -0.37516623735427856
visibility: 0.9767491817474365
","x: 189.2530517578125
y: 379.24609375
z: -0.2221827208995819
visibility: 0.5704824924468994
","x: 263.488525390625
y: 352.3199157714844
z: -0.31822988390922546
visibility: 0.9607574939727783
","x: 191.65203857421875
y: 374.37432861328125
z: -0.1674804836511612
visibility: 0.5639722943305969
","x: 252.77830505371094
y: 381.187255859375
z: -0.02767021954059601
visibility: 0.9995771050453186
","x: 225.63079833984375
y: 379.1885986328125
z: 0.02766699716448784
visibility: 0.9994905591011047
","x: 258.1940002441406
y: 466.56103515625
z: -0.09072373062372208
visibility: 0.9832359552383423
","x: 212.0393829345703
y: 460.1871337890625
z: -0.0652562826871872
visibility: 0.959498941898346
","x: 253.17172241210938
y: 538.2575073242188
z: 0.0823935866355896
visibility: 0.9905984401702881
","x: 220.48602294921875
y: 541.0682373046875
z: 0.12008905410766602
visibility: 0.981180727481842
","x: 250.62603759765625
y: 549.7852783203125
z: 0.09188555181026459
visibility: 0.9129135012626648
","x: 225.27056884765625
y: 555.436767578125
z: 0.12749825417995453
visibility: 0.9629958868026733
","x: 255.0066680908203
y: 566.0809326171875
z: -0.03960870951414108
visibility: 0.9873682260513306
","x: 198.86294555664062
y: 560.2701416015625
z: 0.015281766653060913
visibility: 0.9814077019691467
",,,,,,,,,,,,,,,,,,,,,,,,,,,,,,,,,,,,,,,,,,
9,"x: 242.79075622558594
y: 229.156494140625
z: -0.3323209285736084
visibility: 0.9999423027038574
","x: 245.18228149414062
y: 221.43287658691406
z: -0.32201817631721497
visibility: 0.9998993277549744
","x: 246.78663635253906
y: 221.3675079345703
z: -0.32204166054725647
visibility: 0.9999073147773743
","x: 248.41409301757812
y: 221.2657470703125
z: -0.3220420479774475
visibility: 0.9999099373817444
","x: 240.77139282226562
y: 220.63331604003906
z: -0.3179684281349182
visibility: 0.9998766779899597
","x: 239.43995666503906
y: 220.0393524169922
z: -0.31801342964172363
visibility: 0.9998518824577332
","x: 237.97695922851562
y: 219.4334716796875
z: -0.3180464208126068
visibility: 0.9998491406440735
","x: 250.68560791015625
y: 221.02247619628906
z: -0.21724680066108704
visibility: 0.9999182224273682
","x: 236.38755798339844
y: 219.1824493408203
z: -0.19677166640758514
visibility: 0.9997958540916443
","x: 245.13018798828125
y: 235.8546600341797
z: -0.2890276312828064
visibility: 0.9999329447746277
","x: 240.25094604492188
y: 235.0225067138672
z: -0.2831914722919464
visibility: 0.9998444318771362
","x: 266.7584228515625
y: 264.9283142089844
z: -0.14372238516807556
visibility: 0.9999780654907227
","x: 221.9443817138672
y: 262.73529052734375
z: -0.07579980790615082
visibility: 0.9997230172157288
","x: 276.48382568359375
y: 319.4861145019531
z: -0.12673097848892212
visibility: 0.9960442781448364
","x: 210.0316619873047
y: 322.3636169433594
z: -0.006732614245265722
visibility: 0.5181583762168884
","x: 275.1986083984375
y: 363.95684814453125
z: -0.2692549228668213
visibility: 0.9902158975601196
","x: 195.05313110351562
y: 370.7667236328125
z: -0.1222890242934227
visibility: 0.6067957282066345
","x: 273.93841552734375
y: 378.1111145019531
z: -0.30463486909866333
visibility: 0.9759942293167114
","x: 189.7242431640625
y: 384.93414306640625
z: -0.15285542607307434
visibility: 0.603861391544342
","x: 270.9161682128906
y: 375.1131896972656
z: -0.3260519206523895
visibility: 0.9749234318733215
","x: 190.40171813964844
y: 385.07086181640625
z: -0.19487199187278748
visibility: 0.6089686751365662
","x: 270.4278259277344
y: 370.6916809082031
z: -0.2761629521846771
visibility: 0.9591923356056213
","x: 192.67538452148438
y: 380.27838134765625
z: -0.14257609844207764
visibility: 0.6026094555854797
","x: 255.54457092285156
y: 386.56024169921875
z: -0.025652874261140823
visibility: 0.9995300769805908
","x: 228.57257080078125
y: 383.4670715332031
z: 0.025664156302809715
visibility: 0.999513566493988
","x: 259.5883483886719
y: 470.5103759765625
z: -0.05818494036793709
visibility: 0.9844960570335388
","x: 212.43186950683594
y: 462.47137451171875
z: -0.052729059010744095
visibility: 0.9633495211601257
","x: 253.98043823242188
y: 538.2881469726562
z: 0.1309775859117508
visibility: 0.9908918142318726
","x: 220.46090698242188
y: 542.3987426757812
z: 0.11850714683532715
visibility: 0.9828624129295349
","x: 251.60650634765625
y: 549.4702758789062
z: 0.1409240961074829
visibility: 0.9117026925086975
","x: 225.19717407226562
y: 555.3772583007812
z: 0.12630783021450043
visibility: 0.964756429195404
","x: 254.43838500976562
y: 565.9961547851562
z: 0.013418314047157764
visibility: 0.9875643253326416
","x: 198.24459838867188
y: 559.9852905273438
z: 0.009863121435046196
visibility: 0.9828574061393738
",,,,,,,,,,,,,,,,,,,,,,,,,,,,,,,,,,,,,,,,,,
10,"x: 245.82958984375
y: 234.5709991455078
z: -0.329350084066391
visibility: 0.9999464750289917
","x: 247.839599609375
y: 226.42295837402344
z: -0.3201134204864502
visibility: 0.9999004602432251
","x: 249.1000213623047
y: 226.1935272216797
z: -0.32014206051826477
visibility: 0.9999070763587952
","x: 250.4483184814453
y: 225.8651885986328
z: -0.32015490531921387
visibility: 0.9999087452888489
","x: 244.05369567871094
y: 225.55067443847656
z: -0.3186834156513214
visibility: 0.9998815059661865
","x: 242.77166748046875
y: 224.7605743408203
z: -0.31872642040252686
visibility: 0.9998586773872375
","x: 241.3931121826172
y: 223.9905548095703
z: -0.31874269247055054
visibility: 0.9998558163642883
","x: 252.55780029296875
y: 224.52166748046875
z: -0.21476073563098907
visibility: 0.9999105930328369
","x: 239.27024841308594
y: 222.92803955078125
z: -0.20662744343280792
visibility: 0.9997993111610413
","x: 247.79737854003906
y: 239.79794311523438
z: -0.2849676311016083
visibility: 0.9999353885650635
","x: 243.45889282226562
y: 239.1268310546875
z: -0.2827228307723999
visibility: 0.9998546242713928
","x: 268.4090881347656
y: 265.32281494140625
z: -0.1387626826763153
visibility: 0.9999781250953674
","x: 224.31735229492188
y: 262.5873107910156
z: -0.09072672575712204
visibility: 0.999747633934021
","x: 280.0952453613281
y: 317.1263427734375
z: -0.07028347253799438
visibility: 0.9961364269256592
","x: 213.6688995361328
y: 322.2425537109375
z: -0.02373458445072174
visibility: 0.5642801523208618
","x: 289.33099365234375
y: 356.7407531738281
z: -0.1821456104516983
visibility: 0.9905742406845093
","x: 198.80130004882812
y: 367.742431640625
z: -0.13306258618831635
visibility: 0.6449317336082458
","x: 292.1050109863281
y: 370.317138671875
z: -0.21230347454547882
visibility: 0.9767639636993408
","x: 193.64010620117188
y: 381.47259521484375
z: -0.1624097377061844
visibility: 0.6410554051399231
","x: 289.4543151855469
y: 368.2908935546875
z: -0.2522939145565033
visibility: 0.9760056734085083
","x: 193.82469177246094
y: 380.4704284667969
z: -0.20776362717151642
visibility: 0.6459674835205078
","x: 287.71844482421875
y: 363.4794616699219
z: -0.20001494884490967
visibility: 0.9614565968513489
","x: 195.9839630126953
y: 376.29400634765625
z: -0.1539274901151657
visibility: 0.6398552656173706
","x: 254.93470764160156
y: 386.86962890625
z: -0.02243855781853199
visibility: 0.9995076656341553
","x: 229.04029846191406
y: 383.150146484375
z: 0.022461291402578354
visibility: 0.9995232224464417
","x: 249.50958251953125
y: 470.2911376953125
z: -0.0113630136474967
visibility: 0.9856459498405457
","x: 216.30120849609375
y: 464.99005126953125
z: -0.0024304259568452835
visibility: 0.9667271971702576
","x: 251.54421997070312
y: 540.624267578125
z: 0.12188906967639923
visibility: 0.9913554787635803
","x: 218.74378967285156
y: 543.0845336914062
z: 0.14495006203651428
visibility: 0.9843100309371948
","x: 250.22412109375
y: 550.550537109375
z: 0.12631815671920776
visibility: 0.9136839509010315
","x: 223.71841430664062
y: 555.135986328125
z: 0.1505485624074936
visibility: 0.965391218662262
","x: 252.64349365234375
y: 566.2018432617188
z: 0.005076324567198753
visibility: 0.9880331158638
","x: 196.64263916015625
y: 560.486572265625
z: 0.03326138108968735
visibility: 0.9840967655181885
",,,,,,,,,,,,,,,,,,,,,,,,,,,,,,,,,,,,,,,,,,
11,"x: 244.39578247070312
y: 230.47174072265625
z: -0.3163142204284668
visibility: 0.9999516010284424
","x: 247.0850067138672
y: 222.61209106445312
z: -0.30406486988067627
visibility: 0.9999093413352966
","x: 248.54676818847656
y: 222.4932098388672
z: -0.3040577471256256
visibility: 0.9999154210090637
","x: 250.0674285888672
y: 222.34117126464844
z: -0.3040573298931122
visibility: 0.999916672706604
","x: 243.18263244628906
y: 221.9405517578125
z: -0.3030847907066345
visibility: 0.9998921155929565
","x: 241.89871215820312
y: 221.33084106445312
z: -0.3030925691127777
visibility: 0.9998717308044434
","x: 240.72003173828125
y: 220.75807189941406
z: -0.3030286729335785
visibility: 0.9998691082000732
","x: 253.35079956054688
y: 222.94732666015625
z: -0.1965429186820984
visibility: 0.9999175667762756
","x: 239.40257263183594
y: 221.2708740234375
z: -0.1917085200548172
visibility: 0.9998171329498291
","x: 247.21128845214844
y: 236.7254638671875
z: -0.2732084095478058
visibility: 0.9999414682388306
","x: 242.0316162109375
y: 235.95655822753906
z: -0.2720969021320343
visibility: 0.9998685121536255
","x: 268.8873291015625
y: 264.4412536621094
z: -0.09456498920917511
visibility: 0.9999798536300659
","x: 225.8284149169922
y: 261.4596862792969
z: -0.07896970212459564
visibility: 0.9997710585594177
","x: 283.742919921875
y: 316.85626220703125
z: 0.04283840209245682
visibility: 0.9963274598121643
","x: 214.84115600585938
y: 318.3050842285156
z: 0.016083285212516785
visibility: 0.6070236563682556
","x: 293.52789306640625
y: 347.9175109863281
z: 0.02588384784758091
visibility: 0.9911248087882996
","x: 200.39305114746094
y: 358.0044250488281
z: -0.018671168014407158
visibility: 0.6794319152832031
","x: 297.1737060546875
y: 359.1828918457031
z: 0.017000123858451843
visibility: 0.9775567054748535
","x: 195.5717010498047
y: 371.1763000488281
z: -0.03460531681776047
visibility: 0.6743570566177368
","x: 294.45111083984375
y: 356.9143371582031
z: -0.021975958719849586
visibility: 0.9770785570144653
","x: 196.1216583251953
y: 370.1322937011719
z: -0.07321568578481674
visibility: 0.6789625883102417
","x: 292.4489440917969
y: 353.1246337890625
z: 0.011143540032207966
visibility: 0.9636494517326355
","x: 198.42086791992188
y: 365.6106262207031
z: -0.03441258892416954
visibility: 0.6729941964149475
","x: 253.75253295898438
y: 386.1139221191406
z: -0.0061956653371453285
visibility: 0.9995365142822266
","x: 228.46829223632812
y: 381.2434387207031
z: 0.006127406843006611
visibility: 0.9995514750480652
","x: 247.60400390625
y: 469.45245361328125
z: -0.005065763369202614
visibility: 0.9867757558822632
","x: 216.3524169921875
y: 463.8558349609375
z: -0.023597022518515587
visibility: 0.969879686832428
","x: 251.3289031982422
y: 541.6473999023438
z: 0.16331538558006287
visibility: 0.9918079972267151
","x: 204.56053161621094
y: 536.4330444335938
z: 0.1447337418794632
visibility: 0.9856334924697876
","x: 250.0523681640625
y: 550.9207763671875
z: 0.1721266508102417
visibility: 0.9152871370315552
","x: 206.3987274169922
y: 544.8969116210938
z: 0.15303367376327515
visibility: 0.9638850092887878
","x: 253.28524780273438
y: 566.2635498046875
z: 0.04490497335791588
visibility: 0.988487720489502
","x: 196.256103515625
y: 561.2244262695312
z: 0.03025365248322487
visibility: 0.9852661490440369
",,,,,,,,,,,,,,,,,,,,,,,,,,,,,,,,,,,,,,,,,,
12,"x: 242.80157470703125
y: 228.3402862548828
z: -0.3439551889896393
visibility: 0.9999560117721558
","x: 245.5964813232422
y: 220.52041625976562
z: -0.3320080041885376
visibility: 0.9999162554740906
","x: 247.09848022460938
y: 220.44403076171875
z: -0.3320143222808838
visibility: 0.9999217987060547
","x: 248.63885498046875
y: 220.36062622070312
z: -0.33202555775642395
visibility: 0.9999227523803711
","x: 241.3116912841797
y: 219.8026123046875
z: -0.3312409520149231
visibility: 0.999900758266449
","x: 239.9888916015625
y: 219.20655822753906
z: -0.3312881588935852
visibility: 0.9998825192451477
","x: 238.7058563232422
y: 218.64498901367188
z: -0.3312680125236511
visibility: 0.9998797178268433
","x: 251.21961975097656
y: 221.44837951660156
z: -0.22218048572540283
visibility: 0.9999217987060547
","x: 237.65232849121094
y: 219.4165802001953
z: -0.2195710837841034
visibility: 0.9998302459716797
","x: 245.78106689453125
y: 234.82717895507812
z: -0.3000359833240509
visibility: 0.9999462962150574
","x: 240.0153045654297
y: 234.06431579589844
z: -0.29931119084358215
visibility: 0.999880313873291
","x: 267.2049255371094
y: 264.1160888671875
z: -0.11692045629024506
visibility: 0.9999810457229614
","x: 223.30349731445312
y: 260.7123107910156
z: -0.12010185420513153
visibility: 0.9997920393943787
","x: 281.5169372558594
y: 315.9830322265625
z: -0.05400393530726433
visibility: 0.9965118765830994
","x: 212.50880432128906
y: 316.3448181152344
z: -0.08672795444726944
visibility: 0.6449791789054871
","x: 295.0611267089844
y: 356.7935791015625
z: -0.05960174649953842
visibility: 0.9916744828224182
","x: 199.50607299804688
y: 354.3902282714844
z: -0.21575403213500977
visibility: 0.7095182538032532
","x: 300.01654052734375
y: 369.5592956542969
z: -0.07679926604032516
visibility: 0.9786805510520935
","x: 195.4386749267578
y: 367.3970947265625
z: -0.2497725784778595
visibility: 0.7027056217193604
","x: 298.6670837402344
y: 368.8526611328125
z: -0.17550313472747803
visibility: 0.9784250855445862
","x: 196.12261962890625
y: 365.9264831542969
z: -0.2874983549118042
visibility: 0.7073341012001038
","x: 296.51116943359375
y: 364.80474853515625
z: -0.07691570371389389
visibility: 0.9660715460777283
","x: 198.0872039794922
y: 361.4075927734375
z: -0.234328955411911
visibility: 0.7011607885360718
","x: 251.81658935546875
y: 385.4220886230469
z: -0.0017833387246355414
visibility: 0.9995577931404114
","x: 226.07467651367188
y: 380.1995544433594
z: 0.0017253924161195755
visibility: 0.9995816349983215
","x: 248.039306640625
y: 468.9346008300781
z: 0.024692397564649582
visibility: 0.9878729581832886
","x: 215.96771240234375
y: 463.37396240234375
z: -0.025422165170311928
visibility: 0.9727882742881775
","x: 250.74832153320312
y: 541.7173461914062
z: 0.18006360530853271
visibility: 0.9923877120018005
","x: 196.03317260742188
y: 534.783203125
z: 0.11788696050643921
visibility: 0.9869164228439331
","x: 249.25794982910156
y: 550.9991455078125
z: 0.18717385828495026
visibility: 0.9188709855079651
","x: 197.137939453125
y: 544.0117797851562
z: 0.12334750592708588
visibility: 0.9622135162353516
","x: 254.24380493164062
y: 565.8030395507812
z: 0.057240866124629974
visibility: 0.9891524314880371
","x: 187.88267517089844
y: 561.2689819335938
z: -0.012935495004057884
visibility: 0.9864068031311035
",,,,,,,,,,,,,,,,,,,,,,,,,,,,,,,,,,,,,,,,,,
13,"x: 243.01560974121094
y: 225.002197265625
z: -0.3030869960784912
visibility: 0.9999600648880005
","x: 245.76678466796875
y: 217.12969970703125
z: -0.2919107675552368
visibility: 0.9999231696128845
","x: 247.05694580078125
y: 217.53456115722656
z: -0.2919348478317261
visibility: 0.9999281167984009
","x: 248.3524169921875
y: 217.8764190673828
z: -0.29195231199264526
visibility: 0.9999289512634277
","x: 241.55050659179688
y: 215.52467346191406
z: -0.28954559564590454
visibility: 0.9999092817306519
","x: 240.04698181152344
y: 214.91294860839844
z: -0.2895664572715759
visibility: 0.9998927712440491
","x: 238.54833984375
y: 214.3141326904297
z: -0.2895527482032776
visibility: 0.9998900294303894
","x: 249.5357666015625
y: 219.029541015625
z: -0.17847275733947754
visibility: 0.9999262094497681
","x: 236.17098999023438
y: 215.37686157226562
z: -0.18310442566871643
visibility: 0.9998433589935303
","x: 244.8750457763672
y: 231.5980224609375
z: -0.26263004541397095
visibility: 0.9999505877494812
","x: 239.2792510986328
y: 230.54429626464844
z: -0.26084405183792114
visibility: 0.9998911619186401
","x: 262.942138671875
y: 262.6112976074219
z: -0.08356517553329468
visibility: 0.9999815225601196
","x: 220.88970947265625
y: 259.6891174316406
z: -0.09062840044498444
visibility: 0.9998098015785217
","x: 278.8311462402344
y: 317.38067626953125
z: -0.05214283615350723
visibility: 0.9964280724525452
","x: 210.66043090820312
y: 316.496826171875
z: -0.056645382195711136
visibility: 0.6786210536956787
","x: 284.5263366699219
y: 359.6464538574219
z: -0.15284842252731323
visibility: 0.9919959902763367
","x: 198.20082092285156
y: 360.17889404296875
z: -0.17186757922172546
visibility: 0.7361137866973877
","x: 288.9078674316406
y: 373.399658203125
z: -0.19367477297782898
visibility: 0.9794437289237976
","x: 194.3117218017578
y: 374.285888671875
z: -0.20432917773723602
visibility: 0.7277069687843323
","x: 288.1729736328125
y: 372.6365966796875
z: -0.25491875410079956
visibility: 0.9794185757637024
","x: 195.19239807128906
y: 373.8170166015625
z: -0.24242258071899414
visibility: 0.7324502468109131
","x: 286.4261474609375
y: 368.10107421875
z: -0.18463456630706787
visibility: 0.9679604172706604
","x: 197.04727172851562
y: 369.527587890625
z: -0.18993604183197021
visibility: 0.7260483503341675
","x: 249.54620361328125
y: 384.0777282714844
z: 0.002807056065648794
visibility: 0.999564528465271
","x: 224.41322326660156
y: 379.6044616699219
z: -0.0027984115295112133
visibility: 0.9996007680892944
","x: 248.0952606201172
y: 467.86865234375
z: 0.023973282426595688
visibility: 0.9888221621513367
","x: 213.65402221679688
y: 462.9032897949219
z: -0.020140772685408592
visibility: 0.9753726124763489
","x: 250.55923461914062
y: 541.7545776367188
z: 0.14154167473316193
visibility: 0.9928237199783325
","x: 195.64663696289062
y: 538.707275390625
z: 0.08911548554897308
visibility: 0.9880341291427612
","x: 248.6697540283203
y: 551.0608520507812
z: 0.1449904888868332
visibility: 0.9217461943626404
","x: 197.36109924316406
y: 547.6580200195312
z: 0.0903434306383133
visibility: 0.9592662453651428
","x: 255.0940399169922
y: 565.6925048828125
z: 0.01756424643099308
visibility: 0.9895836710929871
","x: 186.5843963623047
y: 564.0136108398438
z: -0.04416351765394211
visibility: 0.9872575998306274
",,,,,,,,,,,,,,,,,,,,,,,,,,,,,,,,,,,,,,,,,,
14,"x: 239.09085083007812
y: 219.3252716064453
z: -0.24248504638671875
visibility: 0.9999637007713318
","x: 241.89700317382812
y: 212.13514709472656
z: -0.22638598084449768
visibility: 0.9999299049377441
","x: 243.36184692382812
y: 212.801513671875
z: -0.22644516825675964
visibility: 0.999934196472168
","x: 244.79190063476562
y: 213.35513305664062
z: -0.2264728993177414
visibility: 0.99993497133255
","x: 237.72280883789062
y: 209.8134002685547
z: -0.2268228977918625
visibility: 0.9999174475669861
","x: 236.35826110839844
y: 208.90328979492188
z: -0.22677958011627197
visibility: 0.9999022483825684
","x: 235.0252227783203
y: 208.01954650878906
z: -0.22673654556274414
visibility: 0.9998998045921326
","x: 246.603271484375
y: 215.51791381835938
z: -0.11357244104146957
visibility: 0.9999315142631531
","x: 234.08798217773438
y: 208.60696411132812
z: -0.1149795651435852
visibility: 0.9998572468757629
","x: 241.29461669921875
y: 227.41159057617188
z: -0.19948750734329224
visibility: 0.9999551177024841
","x: 236.09713745117188
y: 224.9815216064453
z: -0.20001232624053955
visibility: 0.9999016523361206
","x: 261.5065002441406
y: 262.1341247558594
z: -0.044592179358005524
visibility: 0.9999820590019226
","x: 213.09158325195312
y: 251.7633056640625
z: -0.043229345232248306
visibility: 0.99982750415802
","x: 273.5806884765625
y: 306.58056640625
z: -0.10894687473773956
visibility: 0.9958455562591553
","x: 199.6247100830078
y: 308.2192687988281
z: -0.02125026099383831
visibility: 0.7100009918212891
","x: 282.06365966796875
y: 336.2825927734375
z: -0.3624691963195801
visibility: 0.9918475151062012
","x: 190.28195190429688
y: 357.1676940917969
z: -0.14298444986343384
visibility: 0.7611823678016663
","x: 284.323486328125
y: 347.0523376464844
z: -0.41729244589805603
visibility: 0.9796373248100281
","x: 187.0996856689453
y: 371.7989807128906
z: -0.17736773192882538
visibility: 0.7518768310546875
","x: 285.4840393066406
y: 344.43475341796875
z: -0.4444674551486969
visibility: 0.9797838926315308
","x: 189.86741638183594
y: 371.2331848144531
z: -0.20962390303611755
visibility: 0.7563889622688293
","x: 281.63970947265625
y: 340.5151062011719
z: -0.3793139159679413
visibility: 0.9686235785484314
","x: 191.7734375
y: 366.2439270019531
z: -0.15873347222805023
visibility: 0.749923825263977
","x: 245.98748779296875
y: 381.1697082519531
z: -0.0015999343013390899
visibility: 0.9995822310447693
","x: 218.64981079101562
y: 375.9000244140625
z: 0.00167034100741148
visibility: 0.9996260404586792
","x: 247.33099365234375
y: 464.45208740234375
z: 0.007638917304575443
visibility: 0.9896320104598999
","x: 205.98876953125
y: 461.9761657714844
z: -0.01798233762383461
visibility: 0.9777073264122009
","x: 250.48681640625
y: 541.5684814453125
z: 0.12130548059940338
visibility: 0.9930989146232605
","x: 194.82907104492188
y: 540.317626953125
z: 0.09180621802806854
visibility: 0.9890179634094238
","x: 248.38357543945312
y: 551.0960693359375
z: 0.12526632845401764
visibility: 0.9225912690162659
","x: 197.47532653808594
y: 549.21728515625
z: 0.0929354801774025
visibility: 0.9576546549797058
","x: 255.11114501953125
y: 565.510498046875
z: 0.0001539878867333755
visibility: 0.989624559879303
","x: 184.9987030029297
y: 565.4998779296875
z: -0.036879390478134155
visibility: 0.9878886342048645
",,,,,,,,,,,,,,,,,,,,,,,,,,,,,,,,,,,,,,,,,,
15,"x: 238.7285919189453
y: 217.3353271484375
z: -0.23155143857002258
visibility: 0.9999669790267944
","x: 241.1983642578125
y: 210.01046752929688
z: -0.21537336707115173
visibility: 0.9999359250068665
","x: 242.68370056152344
y: 210.67556762695312
z: -0.21543273329734802
visibility: 0.9999396204948425
","x: 244.2212677001953
y: 211.37210083007812
z: -0.2154586762189865
visibility: 0.9999402761459351
","x: 237.62924194335938
y: 207.59121704101562
z: -0.2159206122159958
visibility: 0.9999248385429382
","x: 235.6999053955078
y: 206.5961456298828
z: -0.21588821709156036
visibility: 0.999910831451416
","x: 233.49937438964844
y: 205.4598846435547
z: -0.2158447802066803
visibility: 0.9999087452888489
","x: 244.41644287109375
y: 213.95883178710938
z: -0.09965015947818756
visibility: 0.9999368190765381
","x: 229.5924072265625
y: 205.49200439453125
z: -0.10077456384897232
visibility: 0.9998703598976135
","x: 238.97117614746094
y: 225.28033447265625
z: -0.18682727217674255
visibility: 0.9999592900276184
","x: 234.07566833496094
y: 222.89398193359375
z: -0.18740391731262207
visibility: 0.9999112486839294
","x: 254.41285705566406
y: 262.0015869140625
z: -0.028228212147951126
visibility: 0.999983012676239
","x: 207.09512329101562
y: 245.56509399414062
z: -0.015405809506773949
visibility: 0.9998441338539124
","x: 268.64727783203125
y: 304.4753723144531
z: -0.10710170120000839
visibility: 0.9957149028778076
","x: 191.52520751953125
y: 300.3441162109375
z: -0.00993167795240879
visibility: 0.738401472568512
","x: 271.507080078125
y: 316.2453918457031
z: -0.3558789789676666
visibility: 0.9917956590652466
","x: 181.7083740234375
y: 352.42938232421875
z: -0.14541688561439514
visibility: 0.784243106842041
","x: 271.94354248046875
y: 325.50433349609375
z: -0.4095875322818756
visibility: 0.9796913862228394
","x: 178.28692626953125
y: 367.7508544921875
z: -0.18182532489299774
visibility: 0.7746641635894775
","x: 268.4642028808594
y: 318.5671691894531
z: -0.42831364274024963
visibility: 0.9799129366874695
","x: 180.6843719482422
y: 369.1653137207031
z: -0.21227121353149414
visibility: 0.778883159160614
","x: 266.6813049316406
y: 314.14031982421875
z: -0.3689603805541992
visibility: 0.968824565410614
","x: 183.07667541503906
y: 363.2857666015625
z: -0.16044534742832184
visibility: 0.7725584506988525
","x: 237.4058074951172
y: 378.2803039550781
z: -0.003824434708803892
visibility: 0.9996023178100586
","x: 210.6378173828125
y: 373.7545166015625
z: 0.00386643223464489
visibility: 0.9996500611305237
","x: 246.62884521484375
y: 462.53167724609375
z: -0.008032180368900299
visibility: 0.9904657602310181
","x: 199.8522491455078
y: 461.7698974609375
z: -0.016247179359197617
visibility: 0.9797964096069336
","x: 249.89920043945312
y: 540.9174194335938
z: 0.11531287431716919
visibility: 0.9934868216514587
","x: 194.4726104736328
y: 540.932373046875
z: 0.10326699912548065
visibility: 0.9899230599403381
","x: 248.1314239501953
y: 550.825439453125
z: 0.12044431269168854
visibility: 0.9237309098243713
","x: 197.60772705078125
y: 550.4192504882812
z: 0.10625948756933212
visibility: 0.9580203294754028
","x: 253.5586700439453
y: 565.1640625
z: -0.012688291259109974
visibility: 0.989983081817627
","x: 184.427978515625
y: 565.9798583984375
z: -0.01988063007593155
visibility: 0.9885967373847961
",,,,,,,,,,,,,,,,,,,,,,,,,,,,,,,,,,,,,,,,,,
16,"x: 229.2784423828125
y: 217.1378173828125
z: -0.23958392441272736
visibility: 0.9999697804450989
","x: 232.58030700683594
y: 209.5628662109375
z: -0.22297072410583496
visibility: 0.9999401569366455
","x: 234.10842895507812
y: 210.213623046875
z: -0.22294478118419647
visibility: 0.9999436736106873
","x: 235.46359252929688
y: 210.8988037109375
z: -0.22294814884662628
visibility: 0.9999438524246216
","x: 228.44647216796875
y: 207.14369201660156
z: -0.22443798184394836
visibility: 0.9999297857284546
","x: 226.60362243652344
y: 206.1178436279297
z: -0.2243325412273407
visibility: 0.9999162554740906
","x: 224.64569091796875
y: 205.0762176513672
z: -0.2243373841047287
visibility: 0.99991375207901
","x: 236.2551727294922
y: 213.6923370361328
z: -0.1256370097398758
visibility: 0.99993896484375
","x: 221.14306640625
y: 205.31228637695312
z: -0.11174504458904266
visibility: 0.9998780488967896
","x: 230.18460083007812
y: 224.82244873046875
z: -0.19629794359207153
visibility: 0.9999623894691467
","x: 224.63111877441406
y: 222.63241577148438
z: -0.19737669825553894
visibility: 0.9999192953109741
","x: 244.59039306640625
y: 262.07330322265625
z: -0.05176820605993271
visibility: 0.9999839663505554
","x: 200.0815887451172
y: 244.113525390625
z: -0.03890322148799896
visibility: 0.9998589754104614
","x: 247.98074340820312
y: 315.5780029296875
z: -0.08746127039194107
visibility: 0.9944159984588623
","x: 181.8200225830078
y: 301.07952880859375
z: -0.026897570118308067
visibility: 0.7635763883590698
","x: 265.239501953125
y: 323.09698486328125
z: -0.29451873898506165
visibility: 0.991918683052063
","x: 165.8507843017578
y: 348.7652282714844
z: -0.14899440109729767
visibility: 0.8050132989883423
","x: 270.4291076660156
y: 330.446044921875
z: -0.3378598093986511
visibility: 0.9803804159164429
","x: 161.0960693359375
y: 363.29156494140625
z: -0.18000026047229767
visibility: 0.7952859997749329
","x: 268.56695556640625
y: 323.53826904296875
z: -0.37047427892684937
visibility: 0.9808117747306824
","x: 162.96441650390625
y: 363.64508056640625
z: -0.21400603652000427
visibility: 0.7993009686470032
","x: 266.76226806640625
y: 321.3360595703125
z: -0.31244561076164246
visibility: 0.9703491926193237
","x: 164.91427612304688
y: 358.280029296875
z: -0.1658436357975006
visibility: 0.793330192565918
","x: 226.0730438232422
y: 377.1056823730469
z: 0.0029928735457360744
visibility: 0.9996229410171509
","x: 199.8961181640625
y: 373.3742980957031
z: -0.002980342833325267
visibility: 0.9996708631515503
","x: 238.7523956298828
y: 459.8150939941406
z: -0.013742424547672272
visibility: 0.9912670254707336
","x: 194.16661071777344
y: 461.6123962402344
z: -0.007582964841276407
visibility: 0.9816848635673523
","x: 249.34950256347656
y: 539.3253173828125
z: 0.11158913373947144
visibility: 0.9939851760864258
","x: 193.40496826171875
y: 540.9417114257812
z: 0.15644016861915588
visibility: 0.990774393081665
","x: 247.82530212402344
y: 550.4212036132812
z: 0.11644530296325684
visibility: 0.9281998872756958
","x: 197.34768676757812
y: 550.2904663085938
z: 0.16387830674648285
visibility: 0.9585704207420349
","x: 254.0526580810547
y: 563.7883911132812
z: -0.018937349319458008
visibility: 0.9906321167945862
","x: 185.16433715820312
y: 567.009521484375
z: 0.03190334513783455
visibility: 0.9893696904182434
",,,,,,,,,,,,,,,,,,,,,,,,,,,,,,,,,,,,,,,,,,
17,"x: 220.6500244140625
y: 220.0363006591797
z: -0.24568815529346466
visibility: 0.9999715685844421
","x: 223.7725830078125
y: 212.80047607421875
z: -0.23301568627357483
visibility: 0.999941349029541
","x: 225.14755249023438
y: 213.78216552734375
z: -0.23302216827869415
visibility: 0.9999442100524902
","x: 226.4161376953125
y: 214.73324584960938
z: -0.23303425312042236
visibility: 0.9999433159828186
","x: 220.0244140625
y: 209.39344787597656
z: -0.2302541732788086
visibility: 0.999932050704956
","x: 218.44627380371094
y: 207.880615234375
z: -0.23019909858703613
visibility: 0.9999181628227234
","x: 216.761474609375
y: 206.43414306640625
z: -0.23018503189086914
visibility: 0.9999158382415771
","x: 227.15591430664062
y: 217.6083984375
z: -0.12879101932048798
visibility: 0.999935507774353
","x: 213.43405151367188
y: 206.7163848876953
z: -0.11272621154785156
visibility: 0.9998827576637268
","x: 221.35643005371094
y: 228.45556640625
z: -0.20542974770069122
visibility: 0.9999644160270691
","x: 216.29916381835938
y: 224.88999938964844
z: -0.2007329910993576
visibility: 0.9999262690544128
","x: 234.43890380859375
y: 266.8746337890625
z: -0.05669578164815903
visibility: 0.9999829530715942
","x: 191.42494201660156
y: 245.5671844482422
z: -0.044151462614536285
visibility: 0.9998722076416016
","x: 239.37657165527344
y: 322.00018310546875
z: -0.10757869482040405
visibility: 0.9919472336769104
","x: 171.77362060546875
y: 301.68438720703125
z: -0.04483206942677498
visibility: 0.7864401936531067
","x: 248.67164611816406
y: 326.4151306152344
z: -0.3366125822067261
visibility: 0.9903052449226379
","x: 154.69439697265625
y: 342.5909729003906
z: -0.18678560853004456
visibility: 0.8239879012107849
","x: 251.93307495117188
y: 331.14093017578125
z: -0.38463112711906433
visibility: 0.9779415726661682
","x: 149.543212890625
y: 357.54937744140625
z: -0.2211136817932129
visibility: 0.8145713210105896
","x: 251.91355895996094
y: 323.732177734375
z: -0.409130334854126
visibility: 0.9787591695785522
","x: 151.03846740722656
y: 356.1346740722656
z: -0.25192826986312866
visibility: 0.8183060884475708
","x: 250.1470489501953
y: 322.5906982421875
z: -0.35240697860717773
visibility: 0.9680148959159851
","x: 153.19692993164062
y: 350.53948974609375
z: -0.20291106402873993
visibility: 0.8127074241638184
","x: 214.16981506347656
y: 377.44091796875
z: 0.0031017789151519537
visibility: 0.9996210336685181
","x: 188.52175903320312
y: 373.989501953125
z: -0.0031411617528647184
visibility: 0.9996808171272278
","x: 224.9744110107422
y: 459.9874572753906
z: -0.010414952412247658
visibility: 0.991957426071167
","x: 187.14735412597656
y: 464.30010986328125
z: -0.004950623493641615
visibility: 0.9833583235740662
","x: 242.64097595214844
y: 539.3714599609375
z: 0.1277998685836792
visibility: 0.9943861365318298
","x: 192.84588623046875
y: 541.43212890625
z: 0.16914036870002747
visibility: 0.9914780855178833
","x: 238.71348571777344
y: 550.4349975585938
z: 0.1343611627817154
visibility: 0.9321122765541077
","x: 197.12974548339844
y: 550.6317749023438
z: 0.1781475991010666
visibility: 0.958941638469696
","x: 252.70840454101562
y: 563.3916625976562
z: 0.004662749357521534
visibility: 0.9911762475967407
","x: 185.8746795654297
y: 566.8380126953125
z: 0.05228007584810257
visibility: 0.9899434447288513
",,,,,,,,,,,,,,,,,,,,,,,,,,,,,,,,,,,,,,,,,,
18,"x: 214.4538116455078
y: 224.7333526611328
z: -0.3407225012779236
visibility: 0.9999714493751526
","x: 217.34718322753906
y: 218.18109130859375
z: -0.32674771547317505
visibility: 0.9999392628669739
","x: 218.64768981933594
y: 218.7987518310547
z: -0.32680851221084595
visibility: 0.9999424815177917
","x: 219.91622924804688
y: 219.41766357421875
z: -0.3268880546092987
visibility: 0.9999414682388306
","x: 213.47891235351562
y: 215.63009643554688
z: -0.32566481828689575
visibility: 0.9999262690544128
","x: 211.98764038085938
y: 214.34817504882812
z: -0.3256717026233673
visibility: 0.9999112486839294
","x: 210.35623168945312
y: 212.95535278320312
z: -0.3256682753562927
visibility: 0.9999078512191772
","x: 220.81558227539062
y: 220.89077758789062
z: -0.21130697429180145
visibility: 0.9999327659606934
","x: 207.33934020996094
y: 212.26678466796875
z: -0.20436672866344452
visibility: 0.9998615980148315
","x: 215.1158905029297
y: 231.6116180419922
z: -0.29484274983406067
visibility: 0.9999663233757019
","x: 210.61065673828125
y: 229.14828491210938
z: -0.29322192072868347
visibility: 0.9999309778213501
","x: 229.85330200195312
y: 269.6531982421875
z: -0.14171908795833588
visibility: 0.9999837875366211
","x: 186.5342559814453
y: 249.18836975097656
z: -0.09406617283821106
visibility: 0.9998809695243835
","x: 234.78067016601562
y: 330.93475341796875
z: -0.19564247131347656
visibility: 0.9919343590736389
","x: 167.87429809570312
y: 302.20574951171875
z: -0.06216324120759964
visibility: 0.8061810731887817
","x: 231.63706970214844
y: 332.44189453125
z: -0.4095074534416199
visibility: 0.9897711873054504
","x: 150.9482879638672
y: 340.8208923339844
z: -0.19583849608898163
visibility: 0.8396732211112976
","x: 229.13372802734375
y: 334.4084167480469
z: -0.4606857895851135
visibility: 0.9768948554992676
","x: 146.12957763671875
y: 352.17919921875
z: -0.23127920925617218
visibility: 0.8296276926994324
","x: 227.9652557373047
y: 327.0794372558594
z: -0.47793975472450256
visibility: 0.9777513742446899
","x: 146.7355194091797
y: 349.424072265625
z: -0.26549333333969116
visibility: 0.8333433270454407
","x: 227.80177307128906
y: 325.1407470703125
z: -0.4206157624721527
visibility: 0.9665791988372803
","x: 148.80943298339844
y: 345.4150390625
z: -0.21337690949440002
visibility: 0.8276888728141785
","x: 209.89337158203125
y: 377.7975158691406
z: -0.004862390924245119
visibility: 0.9996282458305359
","x: 185.341552734375
y: 374.0108947753906
z: 0.004738323390483856
visibility: 0.9996805787086487
","x: 209.77297973632812
y: 462.4107360839844
z: -0.05395709350705147
visibility: 0.9925207495689392
","x: 185.8778839111328
y: 465.8099365234375
z: 0.012608446180820465
visibility: 0.9843491911888123
","x: 219.4838104248047
y: 535.8239135742188
z: 0.19095957279205322
visibility: 0.9943234920501709
","x: 192.23040771484375
y: 541.1337890625
z: 0.23602326214313507
visibility: 0.9913781881332397
","x: 218.71224975585938
y: 543.71923828125
z: 0.21140465140342712
visibility: 0.9282141327857971
","x: 196.3125457763672
y: 550.3809814453125
z: 0.25204160809516907
visibility: 0.9518746733665466
","x: 222.8058624267578
y: 562.8818359375
z: 0.09880898892879486
visibility: 0.9911598563194275
","x: 186.12957763671875
y: 566.4935302734375
z: 0.13872410356998444
visibility: 0.9894540309906006
",,,,,,,,,,,,,,,,,,,,,,,,,,,,,,,,,,,,,,,,,,
19,"x: 207.70999145507812
y: 223.238525390625
z: -0.30348071455955505
visibility: 0.9999731779098511
","x: 210.29946899414062
y: 216.92959594726562
z: -0.29024723172187805
visibility: 0.9999409317970276
","x: 211.6765899658203
y: 217.64422607421875
z: -0.29030200839042664
visibility: 0.999943733215332
","x: 212.98121643066406
y: 218.34991455078125
z: -0.290348619222641
visibility: 0.9999421834945679
","x: 206.34033203125
y: 214.450439453125
z: -0.28918272256851196
visibility: 0.9999291896820068
","x: 204.840087890625
y: 213.31825256347656
z: -0.28918641805648804
visibility: 0.999915361404419
","x: 203.0840606689453
y: 212.0053253173828
z: -0.2891753017902374
visibility: 0.9999115467071533
","x: 214.4643096923828
y: 220.5736083984375
z: -0.18237239122390747
visibility: 0.9999313950538635
","x: 199.86126708984375
y: 212.171875
z: -0.18147562444210052
visibility: 0.9998665452003479
","x: 208.82693481445312
y: 230.0727996826172
z: -0.2606569528579712
visibility: 0.9999674558639526
","x: 204.27230834960938
y: 228.18023681640625
z: -0.2600365877151489
visibility: 0.999935507774353
","x: 225.242431640625
y: 268.67083740234375
z: -0.11688718944787979
visibility: 0.999980628490448
","x: 181.66635131835938
y: 249.4120635986328
z: -0.09571010619401932
visibility: 0.9998900890350342
","x: 228.43963623046875
y: 328.48236083984375
z: -0.042465563863515854
visibility: 0.9914644956588745
","x: 168.50938415527344
y: 299.41387939453125
z: -0.09014270454645157
visibility: 0.8236382603645325
","x: 233.76937866210938
y: 378.0853576660156
z: -0.12743543088436127
visibility: 0.9882147908210754
","x: 155.4099578857422
y: 333.385986328125
z: -0.23620276153087616
visibility: 0.8543484210968018
","x: 235.51925659179688
y: 392.6777648925781
z: -0.15059894323349
visibility: 0.9732605814933777
","x: 149.4758758544922
y: 343.9017028808594
z: -0.27141624689102173
visibility: 0.8442127108573914
","x: 233.70956420898438
y: 392.0783996582031
z: -0.18533840775489807
visibility: 0.9746965169906616
","x: 150.19189453125
y: 341.0608215332031
z: -0.3026588559150696
visibility: 0.8478150963783264
","x: 232.12042236328125
y: 388.62249755859375
z: -0.14333036541938782
visibility: 0.9641467928886414
","x: 152.58644104003906
y: 338.2821044921875
z: -0.2527143061161041
visibility: 0.8422645926475525
","x: 208.44203186035156
y: 375.7098693847656
z: -0.0025224529672414064
visibility: 0.9996044635772705
","x: 184.82107543945312
y: 372.6721496582031
z: 0.002421052660793066
visibility: 0.9996744990348816
","x: 207.2362518310547
y: 462.48095703125
z: 0.015013771131634712
visibility: 0.9923896789550781
","x: 186.8541259765625
y: 465.7434387207031
z: 0.012395101599395275
visibility: 0.9848909974098206
","x: 213.88961791992188
y: 536.4420166015625
z: 0.15926426649093628
visibility: 0.9939594268798828
","x: 192.9303741455078
y: 541.3045654296875
z: 0.1783224642276764
visibility: 0.9913243651390076
","x: 212.72994995117188
y: 546.3099365234375
z: 0.16763901710510254
visibility: 0.9274290204048157
","x: 196.15798950195312
y: 550.6715698242188
z: 0.18350903689861298
visibility: 0.9469575881958008
","x: 222.8876190185547
y: 562.9005737304688
z: 0.05114908143877983
visibility: 0.9907727837562561
","x: 185.6003875732422
y: 566.4349975585938
z: 0.07416136562824249
visibility: 0.98907470703125
",,,,,,,,,,,,,,,,,,,,,,,,,,,,,,,,,,,,,,,,,,
20,"x: 203.34483337402344
y: 218.8029327392578
z: -0.2860834002494812
visibility: 0.9999756813049316
","x: 205.9241943359375
y: 211.82498168945312
z: -0.2674313187599182
visibility: 0.9999461770057678
","x: 207.43960571289062
y: 212.28700256347656
z: -0.2674344778060913
visibility: 0.9999487400054932
","x: 208.90528869628906
y: 212.73765563964844
z: -0.2674398124217987
visibility: 0.999947190284729
","x: 201.57626342773438
y: 209.83018493652344
z: -0.27052801847457886
visibility: 0.9999353289604187
","x: 200.10150146484375
y: 208.86831665039062
z: -0.27053922414779663
visibility: 0.9999229311943054
","x: 198.58872985839844
y: 207.82911682128906
z: -0.2704766094684601
visibility: 0.9999192357063293
","x: 210.36900329589844
y: 214.32620239257812
z: -0.14584922790527344
visibility: 0.9999376535415649
","x: 196.0154571533203
y: 208.7167510986328
z: -0.15747004747390747
visibility: 0.9998776912689209
","x: 205.12860107421875
y: 225.09564208984375
z: -0.23648302257061005
visibility: 0.9999704957008362
","x: 199.86679077148438
y: 223.6424102783203
z: -0.24145174026489258
visibility: 0.9999415874481201
","x: 221.98361206054688
y: 259.80511474609375
z: -0.05805337429046631
visibility: 0.9999821782112122
","x: 179.3814697265625
y: 248.55039978027344
z: -0.075450100004673
visibility: 0.9998961687088013
","x: 232.23011779785156
y: 326.700439453125
z: -0.007214640732854605
visibility: 0.9918085932731628
","x: 167.16336059570312
y: 295.9902648925781
z: -0.16042819619178772
visibility: 0.8384538888931274
","x: 242.62716674804688
y: 368.4035949707031
z: -0.11702247709035873
visibility: 0.9888702034950256
","x: 162.35513305664062
y: 291.2377014160156
z: -0.4377659857273102
visibility: 0.8679882287979126
","x: 245.87794494628906
y: 381.4792175292969
z: -0.1403210312128067
visibility: 0.9745975136756897
","x: 157.8104248046875
y: 289.5655517578125
z: -0.49225419759750366
visibility: 0.8581929206848145
","x: 244.46881103515625
y: 381.26202392578125
z: -0.17811188101768494
visibility: 0.9760181903839111
","x: 158.81272888183594
y: 284.35858154296875
z: -0.5059113502502441
visibility: 0.861512303352356
","x: 242.89215087890625
y: 377.109130859375
z: -0.13365957140922546
visibility: 0.9662207365036011
","x: 161.24517822265625
y: 285.6506652832031
z: -0.45048874616622925
visibility: 0.8558993935585022
","x: 209.00405883789062
y: 373.298583984375
z: -0.0038511871825903654
visibility: 0.9996262788772583
","x: 184.11790466308594
y: 372.13885498046875
z: 0.003737331833690405
visibility: 0.9996787905693054
","x: 213.2003631591797
y: 461.63873291015625
z: -0.0014338435139507055
visibility: 0.9929617643356323
","x: 186.32708740234375
y: 465.28582763671875
z: 0.009040584787726402
visibility: 0.9858756065368652
","x: 220.8234100341797
y: 531.94140625
z: 0.20576760172843933
visibility: 0.9941039085388184
","x: 193.08499145507812
y: 541.2650756835938
z: 0.1975097954273224
visibility: 0.9917411804199219
","x: 219.67410278320312
y: 541.539794921875
z: 0.22081145644187927
visibility: 0.9217166304588318
","x: 196.08558654785156
y: 550.6365356445312
z: 0.20955140888690948
visibility: 0.9459443688392639
","x: 222.58392333984375
y: 562.220703125
z: 0.08587218075990677
visibility: 0.99100261926651
","x: 186.04197692871094
y: 566.6712646484375
z: 0.08080580830574036
visibility: 0.9895706176757812
",,,,,,,,,,,,,,,,,,,,,,,,,,,,,,,,,,,,,,,,,,
21,"x: 201.94308471679688
y: 214.4491424560547
z: -0.2784895598888397
visibility: 0.999977707862854
","x: 204.90658569335938
y: 207.84548950195312
z: -0.26146283745765686
visibility: 0.999950110912323
","x: 206.3587646484375
y: 208.40455627441406
z: -0.26145419478416443
visibility: 0.9999523162841797
","x: 207.7950439453125
y: 208.8823699951172
z: -0.2614419460296631
visibility: 0.9999504089355469
","x: 199.8218231201172
y: 205.51504516601562
z: -0.2659817337989807
visibility: 0.9999402165412903
","x: 198.10360717773438
y: 204.5918426513672
z: -0.2660004198551178
visibility: 0.9999290704727173
","x: 196.50863647460938
y: 203.6341552734375
z: -0.26591676473617554
visibility: 0.9999254941940308
","x: 208.9630126953125
y: 210.60830688476562
z: -0.1435094177722931
visibility: 0.9999422430992126
","x: 193.67958068847656
y: 204.29547119140625
z: -0.15561982989311218
visibility: 0.9998871684074402
","x: 203.86817932128906
y: 221.2972412109375
z: -0.22938549518585205
visibility: 0.9999727606773376
","x: 197.84320068359375
y: 219.43565368652344
z: -0.2355855405330658
visibility: 0.9999467134475708
","x: 220.39340209960938
y: 252.46710205078125
z: -0.0493612103164196
visibility: 0.9999834895133972
","x: 176.44564819335938
y: 247.46157836914062
z: -0.06963889300823212
visibility: 0.9999024271965027
","x: 234.71893310546875
y: 313.71014404296875
z: -0.000979110598564148
visibility: 0.9922345876693726
","x: 161.0489959716797
y: 296.130126953125
z: -0.1761161983013153
visibility: 0.853661298751831
","x: 246.94387817382812
y: 359.7790832519531
z: -0.11051616817712784
visibility: 0.9896027445793152
","x: 170.63011169433594
y: 276.000732421875
z: -0.4362572729587555
visibility: 0.8807387948036194
","x: 246.75750732421875
y: 372.0948791503906
z: -0.13094064593315125
visibility: 0.9760257601737976
","x: 177.55609130859375
y: 270.8420104980469
z: -0.48589539527893066
visibility: 0.8712456822395325
","x: 245.3470001220703
y: 371.15234375
z: -0.16756640374660492
visibility: 0.9774010181427002
","x: 178.5298614501953
y: 265.47662353515625
z: -0.4891298711299896
visibility: 0.874207079410553
","x: 245.74362182617188
y: 366.9575500488281
z: -0.12632499635219574
visibility: 0.9683008790016174
","x: 177.18560791015625
y: 267.2906799316406
z: -0.44288843870162964
visibility: 0.8685287833213806
","x: 209.84962463378906
y: 368.7486572265625
z: -0.0021031470969319344
visibility: 0.9996362924575806
","x: 185.07559204101562
y: 369.45086669921875
z: 0.0019823734182864428
visibility: 0.9996740221977234
","x: 215.0716552734375
y: 458.36419677734375
z: -0.0034151114523410797
visibility: 0.993337869644165
","x: 187.2606964111328
y: 462.32293701171875
z: 0.006214749068021774
visibility: 0.9867140054702759
","x: 225.5548553466797
y: 532.8746948242188
z: 0.17132440209388733
visibility: 0.9940869212150574
","x: 193.1219482421875
y: 541.2465209960938
z: 0.1680527776479721
visibility: 0.9919856786727905
","x: 223.9979248046875
y: 542.691162109375
z: 0.18098978698253632
visibility: 0.9154407978057861
","x: 196.19924926757812
y: 550.6425170898438
z: 0.17769460380077362
visibility: 0.9441754221916199
","x: 228.5873565673828
y: 562.4842529296875
z: 0.05434766411781311
visibility: 0.9908647537231445
","x: 186.0006866455078
y: 566.4951782226562
z: 0.04238218814134598
visibility: 0.989762008190155
",,,,,,,,,,,,,,,,,,,,,,,,,,,,,,,,,,,,,,,,,,
22,"x: 202.53790283203125
y: 214.40042114257812
z: -0.2365214079618454
visibility: 0.9999788999557495
","x: 204.69891357421875
y: 206.96646118164062
z: -0.22086279094219208
visibility: 0.9999515414237976
","x: 205.98243713378906
y: 207.21534729003906
z: -0.22086206078529358
visibility: 0.9999530911445618
","x: 207.10903930664062
y: 207.40869140625
z: -0.22084474563598633
visibility: 0.9999502301216125
","x: 200.06707763671875
y: 205.5003662109375
z: -0.22388139367103577
visibility: 0.9999430179595947
","x: 198.2325897216797
y: 204.79364013671875
z: -0.22387948632240295
visibility: 0.9999330639839172
","x: 196.45130920410156
y: 204.02621459960938
z: -0.22384163737297058
visibility: 0.9999296069145203
","x: 208.08663940429688
y: 209.145751953125
z: -0.10615894943475723
visibility: 0.9999428391456604
","x: 193.1729278564453
y: 204.92581176757812
z: -0.11882559210062027
visibility: 0.9998939037322998
","x: 204.62802124023438
y: 221.05340576171875
z: -0.19027121365070343
visibility: 0.9999736547470093
","x: 198.77418518066406
y: 219.6748046875
z: -0.19450747966766357
visibility: 0.9999504685401917
","x: 221.47610473632812
y: 249.61962890625
z: -0.01176296267658472
visibility: 0.9999836683273315
","x: 178.40032958984375
y: 247.36581420898438
z: -0.05727202817797661
visibility: 0.9999062418937683
","x: 237.76670837402344
y: 302.0977783203125
z: 0.03877987340092659
visibility: 0.9925089478492737
","x: 162.50872802734375
y: 297.23272705078125
z: -0.16029487550258636
visibility: 0.8678327798843384
","x: 245.5196533203125
y: 355.9912414550781
z: -0.049169592559337616
visibility: 0.9900261759757996
","x: 178.80796813964844
y: 276.81402587890625
z: -0.38747745752334595
visibility: 0.8923357129096985
","x: 246.81149291992188
y: 367.6048583984375
z: -0.06826139986515045
visibility: 0.9765713214874268
","x: 186.47825622558594
y: 271.139892578125
z: -0.4338468015193939
visibility: 0.8832052946090698
","x: 243.74234008789062
y: 366.591552734375
z: -0.09833453595638275
visibility: 0.9778878688812256
","x: 187.53623962402344
y: 265.1846923828125
z: -0.4353673458099365
visibility: 0.8858052492141724
","x: 243.04275512695312
y: 362.460693359375
z: -0.06163697689771652
visibility: 0.9691930413246155
","x: 186.0597381591797
y: 266.8587951660156
z: -0.3920767903327942
visibility: 0.880081295967102
","x: 211.17279052734375
y: 369.2181091308594
z: 0.004633577074855566
visibility: 0.999653697013855
","x: 186.23989868164062
y: 369.4859619140625
z: -0.004700065590441227
visibility: 0.9996849894523621
","x: 218.03878784179688
y: 458.685302734375
z: -0.001010140054859221
visibility: 0.9937660098075867
","x: 187.44357299804688
y: 461.07623291015625
z: 0.005214240867644548
visibility: 0.9877500534057617
","x: 225.93162536621094
y: 534.655517578125
z: 0.16284440457820892
visibility: 0.9942513704299927
","x: 192.87908935546875
y: 541.0979614257812
z: 0.16631990671157837
visibility: 0.99245285987854
","x: 223.4289093017578
y: 544.6088256835938
z: 0.17106831073760986
visibility: 0.9182220101356506
","x: 196.6165008544922
y: 550.1091918945312
z: 0.17502236366271973
visibility: 0.9446882605552673
","x: 230.87875366210938
y: 562.5299682617188
z: 0.042761992663145065
visibility: 0.9910013675689697
","x: 184.89495849609375
y: 566.00537109375
z: 0.042395904660224915
visibility: 0.9901891946792603
","x: 176.08700561523438
y: 275.1330261230469
z: 0.0
","x: 182.8833770751953
y: 272.66162109375
z: 0.0031330655328929424
","x: 188.2923583984375
y: 269.1067810058594
z: 0.0019088878761976957
","x: 192.68826293945312
y: 267.436767578125
z: -0.0007234414224512875
","x: 195.7944793701172
y: 266.7441711425781
z: -0.0024787820875644684
","x: 191.0958251953125
y: 259.57623291015625
z: -6.446403858717531e-05
","x: 194.814208984375
y: 270.0046081542969
z: -0.0030348277650773525
","x: 192.01512145996094
y: 272.7134094238281
z: -0.004138782154768705
","x: 189.53512573242188
y: 271.22100830078125
z: -0.004810253158211708
","x: 189.60765075683594
y: 260.542724609375
z: -0.004304899368435144
","x: 193.0155792236328
y: 272.1860046386719
z: -0.007270412053912878
","x: 190.25856018066406
y: 273.5915832519531
z: -0.006190106272697449
","x: 188.0974578857422
y: 272.37847900390625
z: -0.005760259926319122
","x: 187.5503387451172
y: 262.7767333984375
z: -0.008429737761616707
","x: 190.7505340576172
y: 273.4375305175781
z: -0.010116400197148323
","x: 188.360595703125
y: 274.5650329589844
z: -0.0071960738860070705
","x: 186.6083526611328
y: 272.72418212890625
z: -0.0056848893873393536
","x: 185.38424682617188
y: 265.91925048828125
z: -0.012686804868280888
","x: 187.73818969726562
y: 273.71826171875
z: -0.012960831634700298
","x: 185.9706573486328
y: 274.54351806640625
z: -0.010632490739226341
","x: 184.54217529296875
y: 272.8589782714844
z: -0.009167694486677647
",,,,,,,,,,,,,,,,,,,,,
23,"x: 202.53790283203125
y: 214.40042114257812
z: -0.2365214079618454
visibility: 0.9999788999557495
","x: 204.69891357421875
y: 206.96646118164062
z: -0.22086279094219208
visibility: 0.9999515414237976
","x: 205.98243713378906
y: 207.21534729003906
z: -0.22086206078529358
visibility: 0.9999530911445618
","x: 207.10903930664062
y: 207.40869140625
z: -0.22084474563598633
visibility: 0.9999502301216125
","x: 200.06707763671875
y: 205.5003662109375
z: -0.22388139367103577
visibility: 0.9999430179595947
","x: 198.2325897216797
y: 204.79364013671875
z: -0.22387948632240295
visibility: 0.9999330639839172
","x: 196.45130920410156
y: 204.02621459960938
z: -0.22384163737297058
visibility: 0.9999296069145203
","x: 208.08663940429688
y: 209.145751953125
z: -0.10615894943475723
visibility: 0.9999428391456604
","x: 193.1729278564453
y: 204.92581176757812
z: -0.11882559210062027
visibility: 0.9998939037322998
","x: 204.62802124023438
y: 221.05340576171875
z: -0.19027121365070343
visibility: 0.9999736547470093
","x: 198.77418518066406
y: 219.6748046875
z: -0.19450747966766357
visibility: 0.9999504685401917
","x: 221.47610473632812
y: 249.61962890625
z: -0.01176296267658472
visibility: 0.9999836683273315
","x: 178.40032958984375
y: 247.36581420898438
z: -0.05727202817797661
visibility: 0.9999062418937683
","x: 237.76670837402344
y: 302.0977783203125
z: 0.03877987340092659
visibility: 0.9925089478492737
","x: 162.50872802734375
y: 297.23272705078125
z: -0.16029487550258636
visibility: 0.8678327798843384
","x: 245.5196533203125
y: 355.9912414550781
z: -0.049169592559337616
visibility: 0.9900261759757996
","x: 178.80796813964844
y: 276.81402587890625
z: -0.38747745752334595
visibility: 0.8923357129096985
","x: 246.81149291992188
y: 367.6048583984375
z: -0.06826139986515045
visibility: 0.9765713214874268
","x: 186.47825622558594
y: 271.139892578125
z: -0.4338468015193939
visibility: 0.8832052946090698
","x: 243.74234008789062
y: 366.591552734375
z: -0.09833453595638275
visibility: 0.9778878688812256
","x: 187.53623962402344
y: 265.1846923828125
z: -0.4353673458099365
visibility: 0.8858052492141724
","x: 243.04275512695312
y: 362.460693359375
z: -0.06163697689771652
visibility: 0.9691930413246155
","x: 186.0597381591797
y: 266.8587951660156
z: -0.3920767903327942
visibility: 0.880081295967102
","x: 211.17279052734375
y: 369.2181091308594
z: 0.004633577074855566
visibility: 0.999653697013855
","x: 186.23989868164062
y: 369.4859619140625
z: -0.004700065590441227
visibility: 0.9996849894523621
","x: 218.03878784179688
y: 458.685302734375
z: -0.001010140054859221
visibility: 0.9937660098075867
","x: 187.44357299804688
y: 461.07623291015625
z: 0.005214240867644548
visibility: 0.9877500534057617
","x: 225.93162536621094
y: 534.655517578125
z: 0.16284440457820892
visibility: 0.9942513704299927
","x: 192.87908935546875
y: 541.0979614257812
z: 0.16631990671157837
visibility: 0.99245285987854
","x: 223.4289093017578
y: 544.6088256835938
z: 0.17106831073760986
visibility: 0.9182220101356506
","x: 196.6165008544922
y: 550.1091918945312
z: 0.17502236366271973
visibility: 0.9446882605552673
","x: 230.87875366210938
y: 562.5299682617188
z: 0.042761992663145065
visibility: 0.9910013675689697
","x: 184.89495849609375
y: 566.00537109375
z: 0.042395904660224915
visibility: 0.9901891946792603
","x: 176.08700561523438
y: 275.1330261230469
z: 0.0
","x: 182.8833770751953
y: 272.66162109375
z: 0.0031330655328929424
","x: 188.2923583984375
y: 269.1067810058594
z: 0.0019088878761976957
","x: 192.68826293945312
y: 267.436767578125
z: -0.0007234414224512875
","x: 195.7944793701172
y: 266.7441711425781
z: -0.0024787820875644684
","x: 191.0958251953125
y: 259.57623291015625
z: -6.446403858717531e-05
","x: 194.814208984375
y: 270.0046081542969
z: -0.0030348277650773525
","x: 192.01512145996094
y: 272.7134094238281
z: -0.004138782154768705
","x: 189.53512573242188
y: 271.22100830078125
z: -0.004810253158211708
","x: 189.60765075683594
y: 260.542724609375
z: -0.004304899368435144
","x: 193.0155792236328
y: 272.1860046386719
z: -0.007270412053912878
","x: 190.25856018066406
y: 273.5915832519531
z: -0.006190106272697449
","x: 188.0974578857422
y: 272.37847900390625
z: -0.005760259926319122
","x: 187.5503387451172
y: 262.7767333984375
z: -0.008429737761616707
","x: 190.7505340576172
y: 273.4375305175781
z: -0.010116400197148323
","x: 188.360595703125
y: 274.5650329589844
z: -0.0071960738860070705
","x: 186.6083526611328
y: 272.72418212890625
z: -0.0056848893873393536
","x: 185.38424682617188
y: 265.91925048828125
z: -0.012686804868280888
","x: 187.73818969726562
y: 273.71826171875
z: -0.012960831634700298
","x: 185.9706573486328
y: 274.54351806640625
z: -0.010632490739226341
","x: 184.54217529296875
y: 272.8589782714844
z: -0.009167694486677647
",,,,,,,,,,,,,,,,,,,,,
24,"x: 203.67242431640625
y: 214.833251953125
z: -0.24487726390361786
visibility: 0.9999801516532898
","x: 205.97247314453125
y: 207.066162109375
z: -0.22884586453437805
visibility: 0.9999539852142334
","x: 207.08241271972656
y: 207.2777099609375
z: -0.22885927557945251
visibility: 0.9999549388885498
","x: 208.28109741210938
y: 207.48403930664062
z: -0.2288559228181839
visibility: 0.9999517798423767
","x: 201.61265563964844
y: 205.63763427734375
z: -0.23154978454113007
visibility: 0.9999465942382812
","x: 199.70217895507812
y: 204.8745880126953
z: -0.23155584931373596
visibility: 0.9999375343322754
","x: 197.7251434326172
y: 204.07728576660156
z: -0.23152026534080505
visibility: 0.9999343752861023
","x: 209.44139099121094
y: 209.24859619140625
z: -0.10801064968109131
visibility: 0.999945342540741
","x: 193.7530059814453
y: 205.13868713378906
z: -0.12152280658483505
visibility: 0.9999015927314758
","x: 205.47409057617188
y: 221.5621795654297
z: -0.19682897627353668
visibility: 0.9999749660491943
","x: 199.5678253173828
y: 220.18736267089844
z: -0.2008776217699051
visibility: 0.9999542832374573
","x: 222.33636474609375
y: 247.45970153808594
z: -0.014227570965886116
visibility: 0.999984085559845
","x: 179.35195922851562
y: 246.8164825439453
z: -0.05032084137201309
visibility: 0.999908447265625
","x: 239.89138793945312
y: 291.9955139160156
z: 0.028820395469665527
visibility: 0.992875337600708
","x: 161.9891815185547
y: 297.0857849121094
z: -0.15738742053508759
visibility: 0.8805752396583557
","x: 241.36155700683594
y: 341.40631103515625
z: -0.06629765778779984
visibility: 0.9904426336288452
","x: 179.5242462158203
y: 276.6985778808594
z: -0.3920604884624481
visibility: 0.902682363986969
","x: 240.2305145263672
y: 355.5704345703125
z: -0.09000755846500397
visibility: 0.9770073890686035
","x: 186.49508666992188
y: 271.33673095703125
z: -0.44020169973373413
visibility: 0.8937078714370728
","x: 237.156005859375
y: 354.4438171386719
z: -0.11749865859746933
visibility: 0.9782356023788452
","x: 187.9874267578125
y: 264.7094421386719
z: -0.4411066472530365
visibility: 0.8959645628929138
","x: 236.88296508789062
y: 349.57086181640625
z: -0.07734079658985138
visibility: 0.969731330871582
","x: 186.97344970703125
y: 266.80621337890625
z: -0.3963630497455597
visibility: 0.8900707364082336
","x: 211.62338256835938
y: 368.2232666015625
z: 0.005010266788303852
visibility: 0.9996681213378906
","x: 186.62411499023438
y: 368.6768798828125
z: -0.005045964382588863
visibility: 0.9996938705444336
","x: 217.77561950683594
y: 458.15631103515625
z: 0.00029853821615688503
visibility: 0.9941481947898865
","x: 187.61866760253906
y: 460.92218017578125
z: 0.0047325375489890575
visibility: 0.9886320233345032
","x: 225.7027130126953
y: 534.82958984375
z: 0.16121183335781097
visibility: 0.9944115281105042
","x: 192.60072326660156
y: 541.029052734375
z: 0.16458788514137268
visibility: 0.9928717613220215
","x: 223.09217834472656
y: 544.9675903320312
z: 0.16893088817596436
visibility: 0.921647310256958
","x: 196.35098266601562
y: 550.0695190429688
z: 0.17310310900211334
visibility: 0.9450984001159668
","x: 231.36505126953125
y: 562.0507202148438
z: 0.03984058275818825
visibility: 0.9911679029464722
","x: 184.8966064453125
y: 564.83447265625
z: 0.04237184673547745
visibility: 0.9905456304550171
","x: 178.09304809570312
y: 277.8262023925781
z: 0.0
","x: 184.64031982421875
y: 275.80963134765625
z: 0.003444729372859001
","x: 189.97503662109375
y: 272.1640930175781
z: 0.0031029253732413054
","x: 193.79168701171875
y: 270.4488525390625
z: 0.0014620518777519464
","x: 196.83778381347656
y: 269.2547607421875
z: 0.0007029517437331378
","x: 191.32398986816406
y: 263.3703308105469
z: 0.002403541235253215
","x: 195.34326171875
y: 271.625732421875
z: 0.0006406710599549115
","x: 193.1910400390625
y: 273.2355041503906
z: 0.00021904503228142858
","x: 190.97555541992188
y: 271.30096435546875
z: 6.910374213475734e-05
","x: 189.72698974609375
y: 264.1369323730469
z: -0.0011725048534572124
","x: 193.37286376953125
y: 273.9993896484375
z: -0.002816074527800083
","x: 191.20216369628906
y: 274.81085205078125
z: -0.0018631588900461793
","x: 189.38772583007812
y: 273.1985778808594
z: -0.0013852755073457956
","x: 187.8383331298828
y: 266.25439453125
z: -0.004715295508503914
","x: 191.121826171875
y: 275.3869934082031
z: -0.005775175057351589
","x: 189.0620880126953
y: 276.2866516113281
z: -0.0034538644831627607
","x: 187.4934844970703
y: 274.7000732421875
z: -0.0021183888893574476
","x: 185.85675048828125
y: 269.6035461425781
z: -0.008271432481706142
","x: 188.54061889648438
y: 275.9632263183594
z: -0.008607247844338417
","x: 187.0157928466797
y: 276.54656982421875
z: -0.006684178486466408
","x: 185.65115356445312
y: 275.13690185546875
z: -0.0052734664641320705
",,,,,,,,,,,,,,,,,,,,,
25,"x: 203.67242431640625
y: 214.833251953125
z: -0.24487726390361786
visibility: 0.9999801516532898
","x: 205.97247314453125
y: 207.066162109375
z: -0.22884586453437805
visibility: 0.9999539852142334
","x: 207.08241271972656
y: 207.2777099609375
z: -0.22885927557945251
visibility: 0.9999549388885498
","x: 208.28109741210938
y: 207.48403930664062
z: -0.2288559228181839
visibility: 0.9999517798423767
","x: 201.61265563964844
y: 205.63763427734375
z: -0.23154978454113007
visibility: 0.9999465942382812
","x: 199.70217895507812
y: 204.8745880126953
z: -0.23155584931373596
visibility: 0.9999375343322754
","x: 197.7251434326172
y: 204.07728576660156
z: -0.23152026534080505
visibility: 0.9999343752861023
","x: 209.44139099121094
y: 209.24859619140625
z: -0.10801064968109131
visibility: 0.999945342540741
","x: 193.7530059814453
y: 205.13868713378906
z: -0.12152280658483505
visibility: 0.9999015927314758
","x: 205.47409057617188
y: 221.5621795654297
z: -0.19682897627353668
visibility: 0.9999749660491943
","x: 199.5678253173828
y: 220.18736267089844
z: -0.2008776217699051
visibility: 0.9999542832374573
","x: 222.33636474609375
y: 247.45970153808594
z: -0.014227570965886116
visibility: 0.999984085559845
","x: 179.35195922851562
y: 246.8164825439453
z: -0.05032084137201309
visibility: 0.999908447265625
","x: 239.89138793945312
y: 291.9955139160156
z: 0.028820395469665527
visibility: 0.992875337600708
","x: 161.9891815185547
y: 297.0857849121094
z: -0.15738742053508759
visibility: 0.8805752396583557
","x: 241.36155700683594
y: 341.40631103515625
z: -0.06629765778779984
visibility: 0.9904426336288452
","x: 179.5242462158203
y: 276.6985778808594
z: -0.3920604884624481
visibility: 0.902682363986969
","x: 240.2305145263672
y: 355.5704345703125
z: -0.09000755846500397
visibility: 0.9770073890686035
","x: 186.49508666992188
y: 271.33673095703125
z: -0.44020169973373413
visibility: 0.8937078714370728
","x: 237.156005859375
y: 354.4438171386719
z: -0.11749865859746933
visibility: 0.9782356023788452
","x: 187.9874267578125
y: 264.7094421386719
z: -0.4411066472530365
visibility: 0.8959645628929138
","x: 236.88296508789062
y: 349.57086181640625
z: -0.07734079658985138
visibility: 0.969731330871582
","x: 186.97344970703125
y: 266.80621337890625
z: -0.3963630497455597
visibility: 0.8900707364082336
","x: 211.62338256835938
y: 368.2232666015625
z: 0.005010266788303852
visibility: 0.9996681213378906
","x: 186.62411499023438
y: 368.6768798828125
z: -0.005045964382588863
visibility: 0.9996938705444336
","x: 217.77561950683594
y: 458.15631103515625
z: 0.00029853821615688503
visibility: 0.9941481947898865
","x: 187.61866760253906
y: 460.92218017578125
z: 0.0047325375489890575
visibility: 0.9886320233345032
","x: 225.7027130126953
y: 534.82958984375
z: 0.16121183335781097
visibility: 0.9944115281105042
","x: 192.60072326660156
y: 541.029052734375
z: 0.16458788514137268
visibility: 0.9928717613220215
","x: 223.09217834472656
y: 544.9675903320312
z: 0.16893088817596436
visibility: 0.921647310256958
","x: 196.35098266601562
y: 550.0695190429688
z: 0.17310310900211334
visibility: 0.9450984001159668
","x: 231.36505126953125
y: 562.0507202148438
z: 0.03984058275818825
visibility: 0.9911679029464722
","x: 184.8966064453125
y: 564.83447265625
z: 0.04237184673547745
visibility: 0.9905456304550171
","x: 178.09304809570312
y: 277.8262023925781
z: 0.0
","x: 184.64031982421875
y: 275.80963134765625
z: 0.003444729372859001
","x: 189.97503662109375
y: 272.1640930175781
z: 0.0031029253732413054
","x: 193.79168701171875
y: 270.4488525390625
z: 0.0014620518777519464
","x: 196.83778381347656
y: 269.2547607421875
z: 0.0007029517437331378
","x: 191.32398986816406
y: 263.3703308105469
z: 0.002403541235253215
","x: 195.34326171875
y: 271.625732421875
z: 0.0006406710599549115
","x: 193.1910400390625
y: 273.2355041503906
z: 0.00021904503228142858
","x: 190.97555541992188
y: 271.30096435546875
z: 6.910374213475734e-05
","x: 189.72698974609375
y: 264.1369323730469
z: -0.0011725048534572124
","x: 193.37286376953125
y: 273.9993896484375
z: -0.002816074527800083
","x: 191.20216369628906
y: 274.81085205078125
z: -0.0018631588900461793
","x: 189.38772583007812
y: 273.1985778808594
z: -0.0013852755073457956
","x: 187.8383331298828
y: 266.25439453125
z: -0.004715295508503914
","x: 191.121826171875
y: 275.3869934082031
z: -0.005775175057351589
","x: 189.0620880126953
y: 276.2866516113281
z: -0.0034538644831627607
","x: 187.4934844970703
y: 274.7000732421875
z: -0.0021183888893574476
","x: 185.85675048828125
y: 269.6035461425781
z: -0.008271432481706142
","x: 188.54061889648438
y: 275.9632263183594
z: -0.008607247844338417
","x: 187.0157928466797
y: 276.54656982421875
z: -0.006684178486466408
","x: 185.65115356445312
y: 275.13690185546875
z: -0.0052734664641320705
",,,,,,,,,,,,,,,,,,,,,
26,"x: 203.90017700195312
y: 215.15750122070312
z: -0.1725456267595291
visibility: 0.9999812841415405
","x: 206.34902954101562
y: 207.41619873046875
z: -0.15571776032447815
visibility: 0.9999561309814453
","x: 207.5357208251953
y: 207.65283203125
z: -0.15574179589748383
visibility: 0.9999565482139587
","x: 208.8003387451172
y: 207.87962341308594
z: -0.15573573112487793
visibility: 0.9999531507492065
","x: 202.43008422851562
y: 205.9070587158203
z: -0.15730597078800201
visibility: 0.9999496340751648
","x: 200.8753662109375
y: 205.1095428466797
z: -0.15730875730514526
visibility: 0.9999414682388306
","x: 199.27931213378906
y: 204.267578125
z: -0.15726223587989807
visibility: 0.9999389052391052
","x: 210.5833282470703
y: 209.4751739501953
z: -0.0418056920170784
visibility: 0.9999479055404663
","x: 196.11648559570312
y: 205.7686004638672
z: -0.048574984073638916
visibility: 0.9999082684516907
","x: 205.92819213867188
y: 221.91224670410156
z: -0.12747250497341156
visibility: 0.9999756217002869
","x: 200.7434844970703
y: 220.52896118164062
z: -0.12972787022590637
visibility: 0.9999573230743408
","x: 223.04132080078125
y: 249.27572631835938
z: 0.028744855895638466
visibility: 0.9999845027923584
","x: 180.91102600097656
y: 246.9591522216797
z: 0.022352833300828934
visibility: 0.9999127388000488
","x: 238.31922912597656
y: 292.9877014160156
z: 0.062388040125370026
visibility: 0.9928176999092102
","x: 164.2261505126953
y: 297.1905212402344
z: -0.09758242964744568
visibility: 0.8919957280158997
","x: 243.63790893554688
y: 329.092529296875
z: -0.03177522495388985
visibility: 0.9906466603279114
","x: 180.8085479736328
y: 282.3141174316406
z: -0.33434605598449707
visibility: 0.9122509956359863
","x: 244.1688232421875
y: 341.067138671875
z: -0.056843310594558716
visibility: 0.9773738384246826
","x: 187.4075164794922
y: 278.23779296875
z: -0.3808578550815582
visibility: 0.9039010405540466
","x: 241.58615112304688
y: 340.7816162109375
z: -0.08279071748256683
visibility: 0.9785566926002502
","x: 189.2080078125
y: 272.1168212890625
z: -0.3885480761528015
visibility: 0.9059186577796936
","x: 241.23007202148438
y: 337.0711669921875
z: -0.0434231162071228
visibility: 0.9703631401062012
","x: 188.03504943847656
y: 273.3793029785156
z: -0.34192824363708496
visibility: 0.9003592729568481
","x: 209.1378936767578
y: 368.9445495605469
z: -0.012328173033893108
visibility: 0.9996815919876099
","x: 186.44325256347656
y: 368.95684814453125
z: 0.012359146028757095
visibility: 0.9997010231018066
","x: 207.7228546142578
y: 457.53515625
z: -0.014272749423980713
visibility: 0.9944788813591003
","x: 186.64028930664062
y: 460.73687744140625
z: 0.014005566947162151
visibility: 0.9891976714134216
","x: 225.81387329101562
y: 534.87255859375
z: 0.12661227583885193
visibility: 0.9946338534355164
","x: 191.976806640625
y: 540.9732666015625
z: 0.1565680205821991
visibility: 0.993181049823761
","x: 224.68544006347656
y: 544.3775634765625
z: 0.13267745077610016
visibility: 0.921424388885498
","x: 195.93231201171875
y: 550.0390014648438
z: 0.16344448924064636
visibility: 0.9461168050765991
","x: 230.61557006835938
y: 562.0902709960938
z: 0.009160857647657394
visibility: 0.9915177226066589
