uscmakers/ReverseChoreography/data/5_throwin_elbows_excision.csv
,NOSE,LEFT_EYE_INNER,LEFT_EYE,LEFT_EYE_OUTER,RIGHT_EYE_INNER,RIGHT_EYE,RIGHT_EYE_OUTER,LEFT_EAR,RIGHT_EAR,MOUTH_LEFT,MOUTH_RIGHT,LEFT_SHOULDER,RIGHT_SHOULDER,LEFT_ELBOW,RIGHT_ELBOW,LEFT_WRIST,RIGHT_WRIST,LEFT_PINKY,RIGHT_PINKY,LEFT_INDEX,RIGHT_INDEX,LEFT_THUMB,RIGHT_THUMB,LEFT_HIP,RIGHT_HIP,LEFT_KNEE,RIGHT_KNEE,LEFT_ANKLE,RIGHT_ANKLE,LEFT_HEEL,RIGHT_HEEL,LEFT_FOOT_INDEX,RIGHT_FOOT_INDEX,WRIST,THUMB_CPC,THUMB_MCP,THUMB_IP,THUMB_TIP,INDEX_FINGER_MCP,INDEX_FINGER_PIP,INDEX_FINGER_DIP,INDEX_FINGER_TIP,MIDDLE_FINGER_MCP,MIDDLE_FINGER_PIP,MIDDLE_FINGER_DIP,MIDDLE_FINGER_TIP,RING_FINGER_PIP,RING_FINGER_DIP,RING_FINGER_TIP,RING_FINGER_MCP,PINKY_MCP,PINKY_PIP,PINKY_DIP,PINKY_TIP,WRIST2,THUMB_CPC2,THUMB_MCP2,THUMB_IP2,THUMB_TIP2,INDEX_FINGER_MCP2,INDEX_FINGER_PIP2,INDEX_FINGER_DIP2,INDEX_FINGER_TIP2,MIDDLE_FINGER_MCP2,MIDDLE_FINGER_PIP2,MIDDLE_FINGER_DIP2,MIDDLE_FINGER_TIP2,RING_FINGER_PIP2,RING_FINGER_DIP2,RING_FINGER_TIP2,RING_FINGER_MCP2,PINKY_MCP2,PINKY_PIP2,PINKY_DIP2,PINKY_TIP2
0,"x: 238.45936584472656
y: 227.2020263671875
z: -0.2596035301685333
visibility: 0.9999902248382568
","x: 241.61785888671875
y: 220.60386657714844
z: -0.246749609708786
visibility: 0.9999537467956543
","x: 243.10922241210938
y: 220.9242401123047
z: -0.2467838078737259
visibility: 0.9999645948410034
","x: 244.47607421875
y: 221.26512145996094
z: -0.2467760145664215
visibility: 0.9999635219573975
","x: 237.6492919921875
y: 219.553466796875
z: -0.24271826446056366
visibility: 0.9999475479125977
","x: 236.48574829101562
y: 219.18516540527344
z: -0.2426939308643341
visibility: 0.9999421834945679
","x: 235.51731872558594
y: 219.00001525878906
z: -0.24265706539154053
visibility: 0.9999250173568726
","x: 246.7439727783203
y: 225.56393432617188
z: -0.1578202247619629
visibility: 0.9999551773071289
","x: 234.52871704101562
y: 222.5436248779297
z: -0.135199636220932
visibility: 0.9998000264167786
","x: 240.7235565185547
y: 235.39694213867188
z: -0.2249191701412201
visibility: 0.9999819993972778
","x: 235.36785888671875
y: 233.7622833251953
z: -0.21874110400676727
visibility: 0.9999643564224243
","x: 258.0267639160156
y: 270.1339416503906
z: -0.11768342554569244
visibility: 0.9999969005584717
","x: 217.6079864501953
y: 269.54144287109375
z: -0.03092331625521183
visibility: 0.999932050704956
","x: 263.1183776855469
y: 324.4385986328125
z: -0.1021968349814415
visibility: 0.998477041721344
","x: 204.59307861328125
y: 326.2967529296875
z: 0.02952374890446663
visibility: 0.8894698619842529
","x: 269.8197021484375
y: 372.7585144042969
z: -0.20217284560203552
visibility: 0.9951057434082031
","x: 194.97897338867188
y: 371.21392822265625
z: -0.05281410366296768
visibility: 0.9362123608589172
","x: 272.0136413574219
y: 389.0081481933594
z: -0.23191726207733154
visibility: 0.9862011075019836
","x: 190.7749481201172
y: 386.9136047363281
z: -0.07452218979597092
visibility: 0.8902443647384644
","x: 269.44879150390625
y: 388.4071350097656
z: -0.2623661458492279
visibility: 0.9873878359794617
","x: 191.95077514648438
y: 387.9083557128906
z: -0.11140461266040802
visibility: 0.8986935615539551
","x: 268.2802429199219
y: 382.6689453125
z: -0.21617527306079865
visibility: 0.9840840697288513
","x: 194.00949096679688
y: 382.6293640136719
z: -0.07014945894479752
visibility: 0.8890467882156372
","x: 238.539306640625
y: 371.05859375
z: -0.038075413554906845
visibility: 0.9998156428337097
","x: 215.29417419433594
y: 370.7757873535156
z: 0.03805164620280266
visibility: 0.9997401833534241
","x: 239.40325927734375
y: 453.859130859375
z: -0.06502474099397659
visibility: 0.9979117512702942
","x: 211.9597625732422
y: 453.56451416015625
z: 0.054200123995542526
visibility: 0.9923513531684875
","x: 245.66116333007812
y: 534.6724853515625
z: 0.033687297254800797
visibility: 0.9978510141372681
","x: 212.21310424804688
y: 530.4825439453125
z: 0.18936660885810852
visibility: 0.9949058294296265
","x: 244.97373962402344
y: 546.2047119140625
z: 0.03504452109336853
visibility: 0.8927504420280457
","x: 214.7953338623047
y: 541.6058959960938
z: 0.19519726932048798
visibility: 0.9592565298080444
","x: 241.31712341308594
y: 559.8870239257812
z: -0.10037852823734283
visibility: 0.9953592419624329
","x: 198.30142211914062
y: 550.8792724609375
z: 0.09153907001018524
visibility: 0.9928162097930908
",,,,,,,,,,,,,,,,,,,,,,,,,,,,,,,,,,,,,,,,,,
1,"x: 225.75198364257812
y: 223.96722412109375
z: -0.13723349571228027
visibility: 0.9999911189079285
","x: 228.88229370117188
y: 216.44349670410156
z: -0.12418700754642487
visibility: 0.9999580979347229
","x: 230.32203674316406
y: 216.46751403808594
z: -0.12425132840871811
visibility: 0.9999678730964661
","x: 231.7222900390625
y: 216.60107421875
z: -0.12430115789175034
visibility: 0.9999669194221497
","x: 224.47703552246094
y: 216.09933471679688
z: -0.11817582696676254
visibility: 0.999952495098114
","x: 223.14614868164062
y: 215.82537841796875
z: -0.11815385520458221
visibility: 0.9999476075172424
","x: 221.9593048095703
y: 215.5940399169922
z: -0.11808587610721588
visibility: 0.9999321103096008
","x: 234.10000610351562
y: 219.18336486816406
z: -0.03347647935152054
visibility: 0.9999594688415527
","x: 221.4282684326172
y: 217.14471435546875
z: -0.00406000716611743
visibility: 0.9998190999031067
","x: 228.25503540039062
y: 230.1026611328125
z: -0.10196986049413681
visibility: 0.9999836683273315
","x: 223.03604125976562
y: 229.6407928466797
z: -0.0937316045165062
visibility: 0.9999676942825317
","x: 249.4800567626953
y: 258.9849548339844
z: 0.005354227498173714
visibility: 0.9999971389770508
","x: 208.8806915283203
y: 258.89117431640625
z: 0.07241172343492508
visibility: 0.9999364614486694
","x: 263.0683898925781
y: 306.07135009765625
z: -0.00024469458730891347
visibility: 0.9984894394874573
","x: 198.5644073486328
y: 302.4788513183594
z: 0.0268877986818552
visibility: 0.8936977982521057
","x: 276.6114196777344
y: 350.1051025390625
z: -0.11840951442718506
visibility: 0.9953942894935608
","x: 188.87994384765625
y: 325.83428955078125
z: -0.1873156726360321
visibility: 0.9409628510475159
","x: 280.6671447753906
y: 364.49627685546875
z: -0.15090756118297577
visibility: 0.9870537519454956
","x: 186.1353759765625
y: 331.38677978515625
z: -0.23153948783874512
visibility: 0.8986908197402954
","x: 278.2420959472656
y: 362.39739990234375
z: -0.18358123302459717
visibility: 0.9881847500801086
","x: 187.442138671875
y: 325.8137512207031
z: -0.25735536217689514
visibility: 0.9065989851951599
","x: 276.31097412109375
y: 357.5399169921875
z: -0.13375595211982727
visibility: 0.9850450754165649
","x: 189.05926513671875
y: 324.0339660644531
z: -0.20479759573936462
visibility: 0.8975121378898621
","x: 237.0648193359375
y: 370.1393127441406
z: -0.03241725638508797
visibility: 0.9998213648796082
","x: 213.68016052246094
y: 369.66680908203125
z: 0.032428137958049774
visibility: 0.9997507333755493
","x: 239.58560180664062
y: 453.86273193359375
z: -0.06272369623184204
visibility: 0.9979220032691956
","x: 211.08184814453125
y: 454.01934814453125
z: 0.021610163152217865
visibility: 0.9924474358558655
","x: 245.66070556640625
y: 534.6717529296875
z: 0.033829353749752045
visibility: 0.9977258443832397
","x: 212.1492919921875
y: 530.5382080078125
z: 0.1334935873746872
visibility: 0.9949949383735657
","x: 244.9426727294922
y: 546.3106079101562
z: 0.03509288281202316
visibility: 0.8887040019035339
","x: 215.53128051757812
y: 542.182373046875
z: 0.1366043984889984
visibility: 0.9589228630065918
","x: 241.98106384277344
y: 559.367431640625
z: -0.10004772245883942
visibility: 0.9951567053794861
","x: 198.5283660888672
y: 551.7661743164062
z: 0.02547573484480381
visibility: 0.9928408861160278
",,,,,,,,,,,,,,,,,,,,,,,,,,,,,,,,,,,,,,,,,,
2,"x: 220.86619567871094
y: 231.43893432617188
z: -0.3188701272010803
visibility: 0.9999904036521912
","x: 223.9263153076172
y: 224.4100799560547
z: -0.30872127413749695
visibility: 0.9999550580978394
","x: 225.50357055664062
y: 224.3000030517578
z: -0.3087579607963562
visibility: 0.9999645948410034
","x: 227.05320739746094
y: 224.3082275390625
z: -0.3088112473487854
visibility: 0.9999616742134094
","x: 219.86801147460938
y: 224.2183074951172
z: -0.3042851984500885
visibility: 0.9999505877494812
","x: 218.7385711669922
y: 223.9854278564453
z: -0.3043408989906311
visibility: 0.9999465346336365
","x: 217.64060974121094
y: 223.81666564941406
z: -0.30435776710510254
visibility: 0.9999312162399292
","x: 230.31385803222656
y: 226.16311645507812
z: -0.21229533851146698
visibility: 0.9999558329582214
","x: 217.71817016601562
y: 225.30946350097656
z: -0.1892794519662857
visibility: 0.9998223185539246
","x: 223.7489776611328
y: 237.43862915039062
z: -0.279699444770813
visibility: 0.9999812841415405
","x: 219.1780242919922
y: 237.1610870361328
z: -0.2732246220111847
visibility: 0.9999654293060303
","x: 245.67689514160156
y: 263.5299072265625
z: -0.11187143623828888
visibility: 0.9999937415122986
","x: 205.65493774414062
y: 268.0101318359375
z: -0.10058388859033585
visibility: 0.9999365210533142
","x: 258.9053649902344
y: 313.376708984375
z: -0.06945033371448517
visibility: 0.9978845715522766
","x: 195.6844940185547
y: 323.4570617675781
z: -0.15501290559768677
visibility: 0.9020010828971863
","x: 277.9359130859375
y: 348.6209716796875
z: -0.1917765885591507
visibility: 0.9950578808784485
","x: 186.51416015625
y: 324.1702575683594
z: -0.37996363639831543
visibility: 0.9464990496635437
","x: 283.2431640625
y: 357.0008544921875
z: -0.21584725379943848
visibility: 0.9865468144416809
","x: 184.86769104003906
y: 322.8756103515625
z: -0.42339396476745605
visibility: 0.9080749154090881
","x: 283.470947265625
y: 353.6383056640625
z: -0.25616002082824707
visibility: 0.9878965616226196
","x: 186.001708984375
y: 312.95294189453125
z: -0.44730812311172485
visibility: 0.9152652621269226
","x: 281.5314025878906
y: 351.26513671875
z: -0.21129567921161652
visibility: 0.9847480058670044
","x: 186.89614868164062
y: 313.2854309082031
z: -0.39565297961235046
visibility: 0.906813383102417
","x: 235.58038330078125
y: 373.64459228515625
z: -0.020881693810224533
visibility: 0.9997861385345459
","x: 211.95982360839844
y: 374.1304931640625
z: 0.02087450586259365
visibility: 0.9997318983078003
","x: 238.5695343017578
y: 455.1041259765625
z: -0.06273921579122543
visibility: 0.9978436827659607
","x: 208.73931884765625
y: 457.00982666015625
z: 0.02533886395394802
visibility: 0.9925069808959961
","x: 244.94833374023438
y: 535.2100219726562
z: 0.04220794886350632
visibility: 0.9976468682289124
","x: 211.79515075683594
y: 530.8766479492188
z: 0.15457966923713684
visibility: 0.9950469136238098
","x: 244.3557586669922
y: 547.6087036132812
z: 0.04441987723112106
visibility: 0.8908652663230896
","x: 215.48675537109375
y: 543.4375610351562
z: 0.15952041745185852
visibility: 0.9585770964622498
","x: 242.05140686035156
y: 558.2027587890625
z: -0.08768115192651749
visibility: 0.9951257109642029
","x: 198.4573516845703
y: 552.2800903320312
z: 0.0490274615585804
visibility: 0.9928956031799316
","x: 187.2198028564453
y: 317.6177673339844
z: 0.0
","x: 189.27346801757812
y: 311.84405517578125
z: 0.00042268470861017704
","x: 190.85635375976562
y: 307.2942810058594
z: -0.001631875871680677
","x: 192.259521484375
y: 305.06951904296875
z: -0.004501799587160349
","x: 193.7452850341797
y: 304.0162048339844
z: -0.007155653554946184
","x: 187.22265625
y: 301.32257080078125
z: -0.0034251189790666103
","x: 190.007080078125
y: 302.68603515625
z: -0.0071067046374082565
","x: 192.20114135742188
y: 304.62890625
z: -0.008963712491095066
","x: 193.9287872314453
y: 306.59320068359375
z: -0.00985205452889204
","x: 185.33627319335938
y: 304.361083984375
z: -0.006153266876935959
","x: 188.76239013671875
y: 307.6004638671875
z: -0.009463533759117126
","x: 191.28952026367188
y: 309.78045654296875
z: -0.009421199560165405
","x: 192.9087677001953
y: 311.9378356933594
z: -0.009445350617170334
","x: 183.998779296875
y: 308.7412109375
z: -0.008825325407087803
","x: 187.35794067382812
y: 312.00726318359375
z: -0.011273110285401344
","x: 189.63555908203125
y: 313.5766906738281
z: -0.009807893075048923
","x: 191.07879638671875
y: 314.9783630371094
z: -0.008823228999972343
","x: 183.18878173828125
y: 313.44873046875
z: -0.011727250181138515
","x: 185.80882263183594
y: 316.09918212890625
z: -0.013061298988759518
","x: 187.8164520263672
y: 317.04852294921875
z: -0.011831704527139664
","x: 189.13282775878906
y: 318.0440673828125
z: -0.010796238668262959
",,,,,,,,,,,,,,,,,,,,,
3,"x: 220.86619567871094
y: 231.43893432617188
z: -0.3188701272010803
visibility: 0.9999904036521912
","x: 223.9263153076172
y: 224.4100799560547
z: -0.30872127413749695
visibility: 0.9999550580978394
","x: 225.50357055664062
y: 224.3000030517578
z: -0.3087579607963562
visibility: 0.9999645948410034
","x: 227.05320739746094
y: 224.3082275390625
z: -0.3088112473487854
visibility: 0.9999616742134094
","x: 219.86801147460938
y: 224.2183074951172
z: -0.3042851984500885
visibility: 0.9999505877494812
","x: 218.7385711669922
y: 223.9854278564453
z: -0.3043408989906311
visibility: 0.9999465346336365
","x: 217.64060974121094
y: 223.81666564941406
z: -0.30435776710510254
visibility: 0.9999312162399292
","x: 230.31385803222656
y: 226.16311645507812
z: -0.21229533851146698
visibility: 0.9999558329582214
","x: 217.71817016601562
y: 225.30946350097656
z: -0.1892794519662857
visibility: 0.9998223185539246
","x: 223.7489776611328
y: 237.43862915039062
z: -0.279699444770813
visibility: 0.9999812841415405
","x: 219.1780242919922
y: 237.1610870361328
z: -0.2732246220111847
visibility: 0.9999654293060303
","x: 245.67689514160156
y: 263.5299072265625
z: -0.11187143623828888
visibility: 0.9999937415122986
","x: 205.65493774414062
y: 268.0101318359375
z: -0.10058388859033585
visibility: 0.9999365210533142
","x: 258.9053649902344
y: 313.376708984375
z: -0.06945033371448517
visibility: 0.9978845715522766
","x: 195.6844940185547
y: 323.4570617675781
z: -0.15501290559768677
visibility: 0.9020010828971863
","x: 277.9359130859375
y: 348.6209716796875
z: -0.1917765885591507
visibility: 0.9950578808784485
","x: 186.51416015625
y: 324.1702575683594
z: -0.37996363639831543
visibility: 0.9464990496635437
","x: 283.2431640625
y: 357.0008544921875
z: -0.21584725379943848
visibility: 0.9865468144416809
","x: 184.86769104003906
y: 322.8756103515625
z: -0.42339396476745605
visibility: 0.9080749154090881
","x: 283.470947265625
y: 353.6383056640625
z: -0.25616002082824707
visibility: 0.9878965616226196
","x: 186.001708984375
y: 312.95294189453125
z: -0.44730812311172485
visibility: 0.9152652621269226
","x: 281.5314025878906
y: 351.26513671875
z: -0.21129567921161652
visibility: 0.9847480058670044
","x: 186.89614868164062
y: 313.2854309082031
z: -0.39565297961235046
visibility: 0.906813383102417
","x: 235.58038330078125
y: 373.64459228515625
z: -0.020881693810224533
visibility: 0.9997861385345459
","x: 211.95982360839844
y: 374.1304931640625
z: 0.02087450586259365
visibility: 0.9997318983078003
","x: 238.5695343017578
y: 455.1041259765625
z: -0.06273921579122543
visibility: 0.9978436827659607
","x: 208.73931884765625
y: 457.00982666015625
z: 0.02533886395394802
visibility: 0.9925069808959961
","x: 244.94833374023438
y: 535.2100219726562
z: 0.04220794886350632
visibility: 0.9976468682289124
","x: 211.79515075683594
y: 530.8766479492188
z: 0.15457966923713684
visibility: 0.9950469136238098
","x: 244.3557586669922
y: 547.6087036132812
z: 0.04441987723112106
visibility: 0.8908652663230896
","x: 215.48675537109375
y: 543.4375610351562
z: 0.15952041745185852
visibility: 0.9585770964622498
","x: 242.05140686035156
y: 558.2027587890625
z: -0.08768115192651749
visibility: 0.9951257109642029
","x: 198.4573516845703
y: 552.2800903320312
z: 0.0490274615585804
visibility: 0.9928956031799316
","x: 187.2198028564453
y: 317.6177673339844
z: 0.0
","x: 189.27346801757812
y: 311.84405517578125
z: 0.00042268470861017704
","x: 190.85635375976562
y: 307.2942810058594
z: -0.001631875871680677
","x: 192.259521484375
y: 305.06951904296875
z: -0.004501799587160349
","x: 193.7452850341797
y: 304.0162048339844
z: -0.007155653554946184
","x: 187.22265625
y: 301.32257080078125
z: -0.0034251189790666103
","x: 190.007080078125
y: 302.68603515625
z: -0.0071067046374082565
","x: 192.20114135742188
y: 304.62890625
z: -0.008963712491095066
","x: 193.9287872314453
y: 306.59320068359375
z: -0.00985205452889204
","x: 185.33627319335938
y: 304.361083984375
z: -0.006153266876935959
","x: 188.76239013671875
y: 307.6004638671875
z: -0.009463533759117126
","x: 191.28952026367188
y: 309.78045654296875
z: -0.009421199560165405
","x: 192.9087677001953
y: 311.9378356933594
z: -0.009445350617170334
","x: 183.998779296875
y: 308.7412109375
z: -0.008825325407087803
","x: 187.35794067382812
y: 312.00726318359375
z: -0.011273110285401344
","x: 189.63555908203125
y: 313.5766906738281
z: -0.009807893075048923
","x: 191.07879638671875
y: 314.9783630371094
z: -0.008823228999972343
","x: 183.18878173828125
y: 313.44873046875
z: -0.011727250181138515
","x: 185.80882263183594
y: 316.09918212890625
z: -0.013061298988759518
","x: 187.8164520263672
y: 317.04852294921875
z: -0.011831704527139664
","x: 189.13282775878906
y: 318.0440673828125
z: -0.010796238668262959
",,,,,,,,,,,,,,,,,,,,,
4,"x: 219.87904357910156
y: 230.93197631835938
z: -0.20242854952812195
visibility: 0.999991238117218
","x: 221.98509216308594
y: 223.95989990234375
z: -0.18786956369876862
visibility: 0.9999591708183289
","x: 223.26205444335938
y: 223.9730987548828
z: -0.18788465857505798
visibility: 0.9999676942825317
","x: 224.54383850097656
y: 224.10116577148438
z: -0.18788304924964905
visibility: 0.9999650120735168
","x: 218.4644317626953
y: 223.58306884765625
z: -0.18760141730308533
visibility: 0.9999551773071289
","x: 217.18399047851562
y: 223.35191345214844
z: -0.18760953843593597
visibility: 0.9999514818191528
","x: 215.92247009277344
y: 223.25082397460938
z: -0.1875443011522293
visibility: 0.9999377131462097
","x: 226.3349609375
y: 225.60850524902344
z: -0.08353456854820251
visibility: 0.9999598264694214
","x: 214.09510803222656
y: 224.8380889892578
z: -0.08136129379272461
visibility: 0.9998393654823303
","x: 221.77243041992188
y: 237.22848510742188
z: -0.160818949341774
visibility: 0.9999828934669495
","x: 217.6307373046875
y: 236.96347045898438
z: -0.16037961840629578
visibility: 0.9999685883522034
","x: 241.99327087402344
y: 260.25665283203125
z: -0.019438471645116806
visibility: 0.9999942183494568
","x: 199.48448181152344
y: 265.184814453125
z: 0.0040437583811581135
visibility: 0.9999410510063171
","x: 258.4395446777344
y: 302.0162658691406
z: -0.03215037286281586
visibility: 0.998010516166687
","x: 188.11395263671875
y: 320.4971008300781
z: -0.055092424154281616
visibility: 0.9109745025634766
","x: 271.10369873046875
y: 341.74139404296875
z: -0.19306442141532898
visibility: 0.9954562187194824
","x: 188.07846069335938
y: 314.9389343261719
z: -0.2767258882522583
visibility: 0.9517041444778442
","x: 275.08782958984375
y: 355.1248474121094
z: -0.23079483211040497
visibility: 0.9875897765159607
","x: 189.51358032226562
y: 319.1558532714844
z: -0.3233141601085663
visibility: 0.9169251322746277
","x: 272.0761413574219
y: 353.6907958984375
z: -0.26089680194854736
visibility: 0.9888284206390381
","x: 192.12353515625
y: 309.71124267578125
z: -0.33992069959640503
visibility: 0.9234090447425842
","x: 270.44525146484375
y: 349.94244384765625
z: -0.20962651073932648
visibility: 0.9858670234680176
","x: 191.61654663085938
y: 307.7373962402344
z: -0.2877870500087738
visibility: 0.9156020283699036
","x: 234.09864807128906
y: 372.3047180175781
z: -0.021846560761332512
visibility: 0.9997826218605042
","x: 210.47406005859375
y: 373.2093505859375
z: 0.021876459941267967
visibility: 0.9997325539588928
","x: 238.52989196777344
y: 454.6092224121094
z: -0.04925001785159111
visibility: 0.9977743029594421
","x: 208.8187713623047
y: 456.8173522949219
z: 0.006199677940458059
visibility: 0.9926268458366394
","x: 244.68289184570312
y: 534.8878784179688
z: 0.04194054752588272
visibility: 0.9974278211593628
","x: 211.79859924316406
y: 531.325439453125
z: 0.09325747191905975
visibility: 0.9951035380363464
","x: 243.9813690185547
y: 546.7908325195312
z: 0.04303834214806557
visibility: 0.8913040161132812
","x: 215.45852661132812
y: 543.6537475585938
z: 0.09371472150087357
visibility: 0.9587482810020447
","x: 242.0675811767578
y: 558.144775390625
z: -0.08942408859729767
visibility: 0.9948053956031799
","x: 198.6249542236328
y: 552.2692260742188
z: -0.02474827691912651
visibility: 0.9927964806556702
","x: 189.02996826171875
y: 305.2169189453125
z: 0.0
","x: 192.68231201171875
y: 303.2940673828125
z: 0.0002119257114827633
","x: 196.4998016357422
y: 304.92315673828125
z: -0.0018760389648377895
","x: 199.22288513183594
y: 308.4266662597656
z: -0.003921856172382832
","x: 200.9850616455078
y: 311.583740234375
z: -0.005997407715767622
","x: 196.75830078125
y: 304.63153076171875
z: -0.008374866098165512
","x: 200.5691375732422
y: 309.6032409667969
z: -0.01176624558866024
","x: 202.7752227783203
y: 313.5619201660156
z: -0.012987945228815079
","x: 204.2491912841797
y: 316.8052978515625
z: -0.013614555820822716
","x: 194.99102783203125
y: 307.5802917480469
z: -0.010280076414346695
","x: 198.9513702392578
y: 314.4120178222656
z: -0.01402174960821867
","x: 201.31011962890625
y: 319.2357177734375
z: -0.014378241263329983
","x: 202.916015625
y: 322.6813049316406
z: -0.014643218368291855
","x: 193.02426147460938
y: 310.8694763183594
z: -0.011598039418458939
","x: 196.48239135742188
y: 317.220947265625
z: -0.014568340964615345
","x: 198.5886993408203
y: 321.4632873535156
z: -0.01392411906272173
","x: 200.0995635986328
y: 324.17572021484375
z: -0.013522381894290447
","x: 191.17608642578125
y: 313.87890625
z: -0.012744138948619366
","x: 193.8741455078125
y: 319.0169372558594
z: -0.014998485334217548
","x: 195.5712432861328
y: 322.15521240234375
z: -0.014608923345804214
","x: 196.90005493164062
y: 324.36041259765625
z: -0.014261418022215366
",,,,,,,,,,,,,,,,,,,,,
5,"x: 219.87904357910156
y: 230.93197631835938
z: -0.20242854952812195
visibility: 0.999991238117218
","x: 221.98509216308594
y: 223.95989990234375
z: -0.18786956369876862
visibility: 0.9999591708183289
","x: 223.26205444335938
y: 223.9730987548828
z: -0.18788465857505798
visibility: 0.9999676942825317
","x: 224.54383850097656
y: 224.10116577148438
z: -0.18788304924964905
visibility: 0.9999650120735168
","x: 218.4644317626953
y: 223.58306884765625
z: -0.18760141730308533
visibility: 0.9999551773071289
","x: 217.18399047851562
y: 223.35191345214844
z: -0.18760953843593597
visibility: 0.9999514818191528
","x: 215.92247009277344
y: 223.25082397460938
z: -0.1875443011522293
visibility: 0.9999377131462097
","x: 226.3349609375
y: 225.60850524902344
z: -0.08353456854820251
visibility: 0.9999598264694214
","x: 214.09510803222656
y: 224.8380889892578
z: -0.08136129379272461
visibility: 0.9998393654823303
","x: 221.77243041992188
y: 237.22848510742188
z: -0.160818949341774
visibility: 0.9999828934669495
","x: 217.6307373046875
y: 236.96347045898438
z: -0.16037961840629578
visibility: 0.9999685883522034
","x: 241.99327087402344
y: 260.25665283203125
z: -0.019438471645116806
visibility: 0.9999942183494568
","x: 199.48448181152344
y: 265.184814453125
z: 0.0040437583811581135
visibility: 0.9999410510063171
","x: 258.4395446777344
y: 302.0162658691406
z: -0.03215037286281586
visibility: 0.998010516166687
","x: 188.11395263671875
y: 320.4971008300781
z: -0.055092424154281616
visibility: 0.9109745025634766
","x: 271.10369873046875
y: 341.74139404296875
z: -0.19306442141532898
visibility: 0.9954562187194824
","x: 188.07846069335938
y: 314.9389343261719
z: -0.2767258882522583
visibility: 0.9517041444778442
","x: 275.08782958984375
y: 355.1248474121094
z: -0.23079483211040497
visibility: 0.9875897765159607
","x: 189.51358032226562
y: 319.1558532714844
z: -0.3233141601085663
visibility: 0.9169251322746277
","x: 272.0761413574219
y: 353.6907958984375
z: -0.26089680194854736
visibility: 0.9888284206390381
","x: 192.12353515625
y: 309.71124267578125
z: -0.33992069959640503
visibility: 0.9234090447425842
","x: 270.44525146484375
y: 349.94244384765625
z: -0.20962651073932648
visibility: 0.9858670234680176
","x: 191.61654663085938
y: 307.7373962402344
z: -0.2877870500087738
visibility: 0.9156020283699036
","x: 234.09864807128906
y: 372.3047180175781
z: -0.021846560761332512
visibility: 0.9997826218605042
","x: 210.47406005859375
y: 373.2093505859375
z: 0.021876459941267967
visibility: 0.9997325539588928
","x: 238.52989196777344
y: 454.6092224121094
z: -0.04925001785159111
visibility: 0.9977743029594421
","x: 208.8187713623047
y: 456.8173522949219
z: 0.006199677940458059
visibility: 0.9926268458366394
","x: 244.68289184570312
y: 534.8878784179688
z: 0.04194054752588272
visibility: 0.9974278211593628
","x: 211.79859924316406
y: 531.325439453125
z: 0.09325747191905975
visibility: 0.9951035380363464
","x: 243.9813690185547
y: 546.7908325195312
z: 0.04303834214806557
visibility: 0.8913040161132812
","x: 215.45852661132812
y: 543.6537475585938
z: 0.09371472150087357
visibility: 0.9587482810020447
","x: 242.0675811767578
y: 558.144775390625
z: -0.08942408859729767
visibility: 0.9948053956031799
","x: 198.6249542236328
y: 552.2692260742188
z: -0.02474827691912651
visibility: 0.9927964806556702
","x: 189.02996826171875
y: 305.2169189453125
z: 0.0
","x: 192.68231201171875
y: 303.2940673828125
z: 0.0002119257114827633
","x: 196.4998016357422
y: 304.92315673828125
z: -0.0018760389648377895
","x: 199.22288513183594
y: 308.4266662597656
z: -0.003921856172382832
","x: 200.9850616455078
y: 311.583740234375
z: -0.005997407715767622
","x: 196.75830078125
y: 304.63153076171875
z: -0.008374866098165512
","x: 200.5691375732422
y: 309.6032409667969
z: -0.01176624558866024
","x: 202.7752227783203
y: 313.5619201660156
z: -0.012987945228815079
","x: 204.2491912841797
y: 316.8052978515625
z: -0.013614555820822716
","x: 194.99102783203125
y: 307.5802917480469
z: -0.010280076414346695
","x: 198.9513702392578
y: 314.4120178222656
z: -0.01402174960821867
","x: 201.31011962890625
y: 319.2357177734375
z: -0.014378241263329983
","x: 202.916015625
y: 322.6813049316406
z: -0.014643218368291855
","x: 193.02426147460938
y: 310.8694763183594
z: -0.011598039418458939
","x: 196.48239135742188
y: 317.220947265625
z: -0.014568340964615345
","x: 198.5886993408203
y: 321.4632873535156
z: -0.01392411906272173
","x: 200.0995635986328
y: 324.17572021484375
z: -0.013522381894290447
","x: 191.17608642578125
y: 313.87890625
z: -0.012744138948619366
","x: 193.8741455078125
y: 319.0169372558594
z: -0.014998485334217548
","x: 195.5712432861328
y: 322.15521240234375
z: -0.014608923345804214
","x: 196.90005493164062
y: 324.36041259765625
z: -0.014261418022215366
",,,,,,,,,,,,,,,,,,,,,
6,"x: 211.10064697265625
y: 230.74383544921875
z: -0.24473270773887634
visibility: 0.9999916553497314
","x: 213.23822021484375
y: 223.51564025878906
z: -0.23610952496528625
visibility: 0.9999616146087646
","x: 214.59974670410156
y: 223.18423461914062
z: -0.2360648661851883
visibility: 0.999968945980072
","x: 215.84121704101562
y: 222.910400390625
z: -0.23606543242931366
visibility: 0.9999662637710571
","x: 208.87820434570312
y: 223.25430297851562
z: -0.23622827231884003
visibility: 0.9999584555625916
","x: 207.24069213867188
y: 222.71339416503906
z: -0.23625853657722473
visibility: 0.9999551177024841
","x: 205.75466918945312
y: 222.14295959472656
z: -0.2362533062696457
visibility: 0.9999427795410156
","x: 217.67825317382812
y: 222.54518127441406
z: -0.12655332684516907
visibility: 0.9999615550041199
","x: 204.35519409179688
y: 221.24671936035156
z: -0.13135138154029846
visibility: 0.9998536705970764
","x: 213.49041748046875
y: 235.70086669921875
z: -0.1968904286623001
visibility: 0.9999836683273315
","x: 208.35374450683594
y: 235.64718627929688
z: -0.19982796907424927
visibility: 0.9999710321426392
","x: 234.62977600097656
y: 249.27365112304688
z: -0.04735754057765007
visibility: 0.999994158744812
","x: 192.820556640625
y: 258.87646484375
z: -0.0479607880115509
visibility: 0.9999454021453857
","x: 251.36679077148438
y: 293.0066223144531
z: -0.001529752742499113
visibility: 0.9978594779968262
","x: 179.69869995117188
y: 301.5920104980469
z: -0.11552993208169937
visibility: 0.9191614389419556
","x: 258.0361328125
y: 343.93487548828125
z: -0.08111558854579926
visibility: 0.9954972267150879
","x: 192.99627685546875
y: 312.1383361816406
z: -0.3130399286746979
visibility: 0.9561722874641418
","x: 261.5870666503906
y: 358.0953369140625
z: -0.10388131439685822
visibility: 0.9877433776855469
","x: 198.76480102539062
y: 321.3369140625
z: -0.35475650429725647
visibility: 0.92438805103302
","x: 257.343505859375
y: 358.22882080078125
z: -0.13552412390708923
visibility: 0.9889149069786072
","x: 202.5735626220703
y: 315.1956787109375
z: -0.3674343228340149
visibility: 0.9302060604095459
","x: 254.65467834472656
y: 353.83380126953125
z: -0.09354762732982635
visibility: 0.9857586026191711
","x: 201.20114135742188
y: 311.43255615234375
z: -0.3207249045372009
visibility: 0.9226362109184265
","x: 232.77142333984375
y: 365.5291442871094
z: -0.014494913630187511
visibility: 0.99977046251297
","x: 209.2038116455078
y: 368.8467102050781
z: 0.014515392482280731
visibility: 0.9997332692146301
","x: 238.50453186035156
y: 451.4662170410156
z: -0.029013434424996376
visibility: 0.9977213740348816
","x: 208.7552032470703
y: 456.66888427734375
z: 0.007644181605428457
visibility: 0.992918848991394
","x: 244.27865600585938
y: 532.7653198242188
z: 0.05122646689414978
visibility: 0.9972303509712219
","x: 211.8013916015625
y: 531.3872680664062
z: 0.09962044656276703
visibility: 0.9952446222305298
","x: 242.2718505859375
y: 544.4982299804688
z: 0.05034429952502251
visibility: 0.8936135768890381
","x: 215.70899963378906
y: 543.615234375
z: 0.10134279727935791
visibility: 0.9586707949638367
","x: 243.01611328125
y: 557.283203125
z: -0.07850231975317001
visibility: 0.9945074915885925
","x: 198.6419219970703
y: 552.2286376953125
z: -0.014246515929698944
visibility: 0.9928642511367798
","x: 197.8662567138672
y: 311.8717041015625
z: 0.0
","x: 202.4918975830078
y: 310.377685546875
z: 0.0016486502718180418
","x: 207.1265411376953
y: 312.46533203125
z: 0.0016066482057794929
","x: 210.5931396484375
y: 315.2229919433594
z: 0.001073548337444663
","x: 212.87533569335938
y: 315.13958740234375
z: 0.0005950313061475754
","x: 208.33477783203125
y: 315.9598388671875
z: -0.0008668377995491028
","x: 211.9224853515625
y: 321.1461181640625
z: -0.002054415410384536
","x: 213.7759552001953
y: 324.7998046875
z: -0.0019006658112630248
","x: 215.12091064453125
y: 327.7899475097656
z: -0.0015886237379163504
","x: 206.68212890625
y: 319.60565185546875
z: -0.002789260819554329
","x: 210.33450317382812
y: 326.7644958496094
z: -0.003829784458503127
","x: 211.9233856201172
y: 330.6372375488281
z: -0.0030854910146445036
","x: 212.9147186279297
y: 333.338134765625
z: -0.0024590890388935804
","x: 204.69102478027344
y: 323.228515625
z: -0.00457492982968688
","x: 207.9255828857422
y: 330.68310546875
z: -0.005740730557590723
","x: 209.0231475830078
y: 333.1610107421875
z: -0.004633350297808647
","x: 209.49880981445312
y: 334.2150573730469
z: -0.0037328037433326244
","x: 202.49166870117188
y: 326.50958251953125
z: -0.006304746028035879
","x: 205.00889587402344
y: 332.9040832519531
z: -0.0069766356609761715
","x: 205.86285400390625
y: 334.8525695800781
z: -0.0061936345882713795
","x: 206.28158569335938
y: 335.7417297363281
z: -0.0054774037562310696
",,,,,,,,,,,,,,,,,,,,,
7,"x: 211.10064697265625
y: 230.74383544921875
z: -0.24473270773887634
visibility: 0.9999916553497314
","x: 213.23822021484375
y: 223.51564025878906
z: -0.23610952496528625
visibility: 0.9999616146087646
","x: 214.59974670410156
y: 223.18423461914062
z: -0.2360648661851883
visibility: 0.999968945980072
","x: 215.84121704101562
y: 222.910400390625
z: -0.23606543242931366
visibility: 0.9999662637710571
","x: 208.87820434570312
y: 223.25430297851562
z: -0.23622827231884003
visibility: 0.9999584555625916
","x: 207.24069213867188
y: 222.71339416503906
z: -0.23625853657722473
visibility: 0.9999551177024841
","x: 205.75466918945312
y: 222.14295959472656
z: -0.2362533062696457
visibility: 0.9999427795410156
","x: 217.67825317382812
y: 222.54518127441406
z: -0.12655332684516907
visibility: 0.9999615550041199
","x: 204.35519409179688
y: 221.24671936035156
z: -0.13135138154029846
visibility: 0.9998536705970764
","x: 213.49041748046875
y: 235.70086669921875
z: -0.1968904286623001
visibility: 0.9999836683273315
","x: 208.35374450683594
y: 235.64718627929688
z: -0.19982796907424927
visibility: 0.9999710321426392
","x: 234.62977600097656
y: 249.27365112304688
z: -0.04735754057765007
visibility: 0.999994158744812
","x: 192.820556640625
y: 258.87646484375
z: -0.0479607880115509
visibility: 0.9999454021453857
","x: 251.36679077148438
y: 293.0066223144531
z: -0.001529752742499113
visibility: 0.9978594779968262
","x: 179.69869995117188
y: 301.5920104980469
z: -0.11552993208169937
visibility: 0.9191614389419556
","x: 258.0361328125
y: 343.93487548828125
z: -0.08111558854579926
visibility: 0.9954972267150879
","x: 192.99627685546875
y: 312.1383361816406
z: -0.3130399286746979
visibility: 0.9561722874641418
","x: 261.5870666503906
y: 358.0953369140625
z: -0.10388131439685822
visibility: 0.9877433776855469
","x: 198.76480102539062
y: 321.3369140625
z: -0.35475650429725647
visibility: 0.92438805103302
","x: 257.343505859375
y: 358.22882080078125
z: -0.13552412390708923
visibility: 0.9889149069786072
","x: 202.5735626220703
y: 315.1956787109375
z: -0.3674343228340149
visibility: 0.9302060604095459
","x: 254.65467834472656
y: 353.83380126953125
z: -0.09354762732982635
visibility: 0.9857586026191711
","x: 201.20114135742188
y: 311.43255615234375
z: -0.3207249045372009
visibility: 0.9226362109184265
","x: 232.77142333984375
y: 365.5291442871094
z: -0.014494913630187511
visibility: 0.99977046251297
","x: 209.2038116455078
y: 368.8467102050781
z: 0.014515392482280731
visibility: 0.9997332692146301
","x: 238.50453186035156
y: 451.4662170410156
z: -0.029013434424996376
visibility: 0.9977213740348816
","x: 208.7552032470703
y: 456.66888427734375
z: 0.007644181605428457
visibility: 0.992918848991394
","x: 244.27865600585938
y: 532.7653198242188
z: 0.05122646689414978
visibility: 0.9972303509712219
","x: 211.8013916015625
y: 531.3872680664062
z: 0.09962044656276703
visibility: 0.9952446222305298
","x: 242.2718505859375
y: 544.4982299804688
z: 0.05034429952502251
visibility: 0.8936135768890381
","x: 215.70899963378906
y: 543.615234375
z: 0.10134279727935791
visibility: 0.9586707949638367
","x: 243.01611328125
y: 557.283203125
z: -0.07850231975317001
visibility: 0.9945074915885925
","x: 198.6419219970703
y: 552.2286376953125
z: -0.014246515929698944
visibility: 0.9928642511367798
","x: 197.8662567138672
y: 311.8717041015625
z: 0.0
","x: 202.4918975830078
y: 310.377685546875
z: 0.0016486502718180418
","x: 207.1265411376953
y: 312.46533203125
z: 0.0016066482057794929
","x: 210.5931396484375
y: 315.2229919433594
z: 0.001073548337444663
","x: 212.87533569335938
y: 315.13958740234375
z: 0.0005950313061475754
","x: 208.33477783203125
y: 315.9598388671875
z: -0.0008668377995491028
","x: 211.9224853515625
y: 321.1461181640625
z: -0.002054415410384536
","x: 213.7759552001953
y: 324.7998046875
z: -0.0019006658112630248
","x: 215.12091064453125
y: 327.7899475097656
z: -0.0015886237379163504
","x: 206.68212890625
y: 319.60565185546875
z: -0.002789260819554329
","x: 210.33450317382812
y: 326.7644958496094
z: -0.003829784458503127
","x: 211.9233856201172
y: 330.6372375488281
z: -0.0030854910146445036
","x: 212.9147186279297
y: 333.338134765625
z: -0.0024590890388935804
","x: 204.69102478027344
y: 323.228515625
z: -0.00457492982968688
","x: 207.9255828857422
y: 330.68310546875
z: -0.005740730557590723
","x: 209.0231475830078
y: 333.1610107421875
z: -0.004633350297808647
","x: 209.49880981445312
y: 334.2150573730469
z: -0.0037328037433326244
","x: 202.49166870117188
y: 326.50958251953125
z: -0.006304746028035879
","x: 205.00889587402344
y: 332.9040832519531
z: -0.0069766356609761715
","x: 205.86285400390625
y: 334.8525695800781
z: -0.0061936345882713795
","x: 206.28158569335938
y: 335.7417297363281
z: -0.0054774037562310696
",,,,,,,,,,,,,,,,,,,,,
8,"x: 209.85435485839844
y: 235.1400909423828
z: -0.36366981267929077
visibility: 0.999989926815033
","x: 211.83840942382812
y: 227.0555419921875
z: -0.35407754778862
visibility: 0.9999533891677856
","x: 213.2001953125
y: 226.42861938476562
z: -0.35404056310653687
visibility: 0.9999591112136841
","x: 214.46665954589844
y: 225.7724609375
z: -0.3540436625480652
visibility: 0.9999518990516663
","x: 207.6104736328125
y: 226.8634796142578
z: -0.35539913177490234
visibility: 0.9999538660049438
","x: 206.09317016601562
y: 226.16421508789062
z: -0.3554688096046448
visibility: 0.9999517798423767
","x: 204.64306640625
y: 225.41856384277344
z: -0.3555055558681488
visibility: 0.9999396204948425
","x: 215.90780639648438
y: 224.00390625
z: -0.2425864189863205
visibility: 0.9999428391456604
","x: 202.40943908691406
y: 224.15670776367188
z: -0.25126296281814575
visibility: 0.9998588562011719
","x: 211.9474639892578
y: 238.94845581054688
z: -0.31677955389022827
visibility: 0.9999790191650391
","x: 207.2603302001953
y: 239.638916015625
z: -0.31967052817344666
visibility: 0.9999701976776123
","x: 232.8739013671875
y: 253.67471313476562
z: -0.12642110884189606
visibility: 0.9999901652336121
","x: 190.53094482421875
y: 260.057373046875
z: -0.16247794032096863
visibility: 0.9999485015869141
","x: 247.3533477783203
y: 294.0979919433594
z: -0.05543407052755356
visibility: 0.9971600770950317
","x: 178.24864196777344
y: 306.4284362792969
z: -0.23626308143138885
visibility: 0.9264549612998962
","x: 261.5671081542969
y: 350.1924133300781
z: -0.11362173408269882
visibility: 0.9943918585777283
","x: 195.8257293701172
y: 321.09454345703125
z: -0.4312952160835266
visibility: 0.9597768187522888
","x: 265.62493896484375
y: 364.426513671875
z: -0.15975633263587952
visibility: 0.9855176210403442
","x: 200.6619415283203
y: 333.43341064453125
z: -0.4722067415714264
visibility: 0.9301542043685913
","x: 261.31964111328125
y: 366.272216796875
z: -0.18246003985404968
visibility: 0.9869505763053894
","x: 205.11009216308594
y: 328.00946044921875
z: -0.4838407039642334
visibility: 0.9353976845741272
","x: 259.3739929199219
y: 363.651611328125
z: -0.11584489047527313
visibility: 0.9834420680999756
","x: 204.5544891357422
y: 323.987548828125
z: -0.4385305345058441
visibility: 0.9275889992713928
","x: 231.66156005859375
y: 366.2463073730469
z: -0.003862118348479271
visibility: 0.999744713306427
","x: 208.2366485595703
y: 370.35009765625
z: 0.003837266471236944
visibility: 0.9997273087501526
","x: 238.12744140625
y: 451.28033447265625
z: -0.022579418495297432
visibility: 0.9974008202552795
","x: 208.45156860351562
y: 456.4659118652344
z: -0.0020974385552108288
visibility: 0.99306720495224
","x: 243.4085693359375
y: 531.2435302734375
z: 0.07569409906864166
visibility: 0.9969198703765869
","x: 211.7041778564453
y: 531.4622802734375
z: 0.1118096113204956
visibility: 0.9952260851860046
","x: 240.8040008544922
y: 541.9486083984375
z: 0.07691298425197601
visibility: 0.8974810242652893
","x: 215.70236206054688
y: 543.0316162109375
z: 0.11572244018316269
visibility: 0.9576084017753601
","x: 244.97274780273438
y: 556.8414916992188
z: -0.04697751626372337
visibility: 0.9941455125808716
","x: 198.64666748046875
y: 552.17041015625
z: 0.0013007785892114043
visibility: 0.9927419424057007
","x: 199.71018981933594
y: 325.6364440917969
z: 0.0
","x: 204.01634216308594
y: 325.48333740234375
z: 0.0017741062911227345
","x: 207.84498596191406
y: 329.2509765625
z: 0.001528498250991106
","x: 209.72537231445312
y: 333.77496337890625
z: 0.0008340841741301119
","x: 210.77467346191406
y: 336.84686279296875
z: 0.00026920760865323246
","x: 208.93548583984375
y: 330.9688720703125
z: -0.004026669077575207
","x: 212.49122619628906
y: 339.30914306640625
z: -0.005793020129203796
","x: 212.30728149414062
y: 342.07403564453125
z: -0.004738609306514263
","x: 211.37002563476562
y: 341.8817138671875
z: -0.003402900183573365
","x: 206.7281494140625
y: 333.9073181152344
z: -0.006070130970329046
","x: 209.93917846679688
y: 343.6716003417969
z: -0.007923278026282787
","x: 209.74391174316406
y: 346.2062072753906
z: -0.005958158522844315
","x: 208.92788696289062
y: 345.6535339355469
z: -0.003967368975281715
","x: 204.2039337158203
y: 336.6209716796875
z: -0.007765652611851692
","x: 207.0250244140625
y: 345.8940124511719
z: -0.009352364577353
","x: 206.92124938964844
y: 347.8181457519531
z: -0.007007088977843523
","x: 206.2419891357422
y: 347.1183776855469
z: -0.004936326295137405
","x: 201.61917114257812
y: 338.81298828125
z: -0.00936567410826683
","x: 203.64686584472656
y: 346.4609375
z: -0.010748127475380898
","x: 203.91357421875
y: 348.7980651855469
z: -0.009547894820570946
","x: 203.68173217773438
y: 349.1307373046875
z: -0.008079888299107552
",,,,,,,,,,,,,,,,,,,,,
9,"x: 209.85435485839844
y: 235.1400909423828
z: -0.36366981267929077
visibility: 0.999989926815033
","x: 211.83840942382812
y: 227.0555419921875
z: -0.35407754778862
visibility: 0.9999533891677856
","x: 213.2001953125
y: 226.42861938476562
z: -0.35404056310653687
visibility: 0.9999591112136841
","x: 214.46665954589844
y: 225.7724609375
z: -0.3540436625480652
visibility: 0.9999518990516663
","x: 207.6104736328125
y: 226.8634796142578
z: -0.35539913177490234
visibility: 0.9999538660049438
","x: 206.09317016601562
y: 226.16421508789062
z: -0.3554688096046448
visibility: 0.9999517798423767
","x: 204.64306640625
y: 225.41856384277344
z: -0.3555055558681488
visibility: 0.9999396204948425
","x: 215.90780639648438
y: 224.00390625
z: -0.2425864189863205
visibility: 0.9999428391456604
","x: 202.40943908691406
y: 224.15670776367188
z: -0.25126296281814575
visibility: 0.9998588562011719
","x: 211.9474639892578
y: 238.94845581054688
z: -0.31677955389022827
visibility: 0.9999790191650391
","x: 207.2603302001953
y: 239.638916015625
z: -0.31967052817344666
visibility: 0.9999701976776123
","x: 232.8739013671875
y: 253.67471313476562
z: -0.12642110884189606
visibility: 0.9999901652336121
","x: 190.53094482421875
y: 260.057373046875
z: -0.16247794032096863
visibility: 0.9999485015869141
","x: 247.3533477783203
y: 294.0979919433594
z: -0.05543407052755356
visibility: 0.9971600770950317
","x: 178.24864196777344
y: 306.4284362792969
z: -0.23626308143138885
visibility: 0.9264549612998962
","x: 261.5671081542969
y: 350.1924133300781
z: -0.11362173408269882
visibility: 0.9943918585777283
","x: 195.8257293701172
y: 321.09454345703125
z: -0.4312952160835266
visibility: 0.9597768187522888
","x: 265.62493896484375
y: 364.426513671875
z: -0.15975633263587952
visibility: 0.9855176210403442
","x: 200.6619415283203
y: 333.43341064453125
z: -0.4722067415714264
visibility: 0.9301542043685913
","x: 261.31964111328125
y: 366.272216796875
z: -0.18246003985404968
visibility: 0.9869505763053894
","x: 205.11009216308594
y: 328.00946044921875
z: -0.4838407039642334
visibility: 0.9353976845741272
","x: 259.3739929199219
y: 363.651611328125
z: -0.11584489047527313
visibility: 0.9834420680999756
","x: 204.5544891357422
y: 323.987548828125
z: -0.4385305345058441
visibility: 0.9275889992713928
","x: 231.66156005859375
y: 366.2463073730469
z: -0.003862118348479271
visibility: 0.999744713306427
","x: 208.2366485595703
y: 370.35009765625
z: 0.003837266471236944
visibility: 0.9997273087501526
","x: 238.12744140625
y: 451.28033447265625
z: -0.022579418495297432
visibility: 0.9974008202552795
","x: 208.45156860351562
y: 456.4659118652344
z: -0.0020974385552108288
visibility: 0.99306720495224
","x: 243.4085693359375
y: 531.2435302734375
z: 0.07569409906864166
visibility: 0.9969198703765869
","x: 211.7041778564453
y: 531.4622802734375
z: 0.1118096113204956
visibility: 0.9952260851860046
","x: 240.8040008544922
y: 541.9486083984375
z: 0.07691298425197601
visibility: 0.8974810242652893
","x: 215.70236206054688
y: 543.0316162109375
z: 0.11572244018316269
visibility: 0.9576084017753601
","x: 244.97274780273438
y: 556.8414916992188
z: -0.04697751626372337
visibility: 0.9941455125808716
","x: 198.64666748046875
y: 552.17041015625
z: 0.0013007785892114043
visibility: 0.9927419424057007
","x: 199.71018981933594
y: 325.6364440917969
z: 0.0
","x: 204.01634216308594
y: 325.48333740234375
z: 0.0017741062911227345
","x: 207.84498596191406
y: 329.2509765625
z: 0.001528498250991106
","x: 209.72537231445312
y: 333.77496337890625
z: 0.0008340841741301119
","x: 210.77467346191406
y: 336.84686279296875
z: 0.00026920760865323246
","x: 208.93548583984375
y: 330.9688720703125
z: -0.004026669077575207
","x: 212.49122619628906
y: 339.30914306640625
z: -0.005793020129203796
","x: 212.30728149414062
y: 342.07403564453125
z: -0.004738609306514263
","x: 211.37002563476562
y: 341.8817138671875
z: -0.003402900183573365
","x: 206.7281494140625
y: 333.9073181152344
z: -0.006070130970329046
","x: 209.93917846679688
y: 343.6716003417969
z: -0.007923278026282787
","x: 209.74391174316406
y: 346.2062072753906
z: -0.005958158522844315
","x: 208.92788696289062
y: 345.6535339355469
z: -0.003967368975281715
","x: 204.2039337158203
y: 336.6209716796875
z: -0.007765652611851692
","x: 207.0250244140625
y: 345.8940124511719
z: -0.009352364577353
","x: 206.92124938964844
y: 347.8181457519531
z: -0.007007088977843523
","x: 206.2419891357422
y: 347.1183776855469
z: -0.004936326295137405
","x: 201.61917114257812
y: 338.81298828125
z: -0.00936567410826683
","x: 203.64686584472656
y: 346.4609375
z: -0.010748127475380898
","x: 203.91357421875
y: 348.7980651855469
z: -0.009547894820570946
","x: 203.68173217773438
y: 349.1307373046875
z: -0.008079888299107552
",,,,,,,,,,,,,,,,,,,,,
10,"x: 209.4188232421875
y: 244.19189453125
z: -0.4193290174007416
visibility: 0.9999897480010986
","x: 211.96495056152344
y: 236.486328125
z: -0.4110146164894104
visibility: 0.9999517202377319
","x: 213.3394317626953
y: 235.8213653564453
z: -0.410949170589447
visibility: 0.9999561309814453
","x: 214.62490844726562
y: 234.92311096191406
z: -0.4109506607055664
visibility: 0.9999472498893738
","x: 207.12847900390625
y: 236.35980224609375
z: -0.4131515622138977
visibility: 0.9999539852142334
","x: 205.38169860839844
y: 235.657958984375
z: -0.4132491648197174
visibility: 0.9999527931213379
","x: 203.77706909179688
y: 234.69747924804688
z: -0.41327208280563354
visibility: 0.9999412894248962
","x: 215.6182098388672
y: 231.12103271484375
z: -0.294792115688324
visibility: 0.9999369382858276
","x: 201.1549530029297
y: 231.59588623046875
z: -0.3079707622528076
visibility: 0.9998682141304016
","x: 211.6124725341797
y: 248.03712463378906
z: -0.3696805536746979
visibility: 0.9999779462814331
","x: 206.1232452392578
y: 248.54957580566406
z: -0.3737531900405884
visibility: 0.9999712109565735
","x: 232.39251708984375
y: 256.04833984375
z: -0.16428710520267487
visibility: 0.9999897480010986
","x: 189.6162567138672
y: 263.3704528808594
z: -0.20425161719322205
visibility: 0.9999524354934692
","x: 250.07501220703125
y: 300.9262390136719
z: -0.09338679909706116
visibility: 0.9972320795059204
","x: 179.86370849609375
y: 308.9547424316406
z: -0.2830973267555237
visibility: 0.9334399700164795
","x: 264.61212158203125
y: 348.9971618652344
z: -0.17783108353614807
visibility: 0.9946914911270142
","x: 190.24270629882812
y: 323.14691162109375
z: -0.5000783205032349
visibility: 0.9635130167007446
","x: 271.4866943359375
y: 363.1600341796875
z: -0.20031049847602844
visibility: 0.9861418604850769
","x: 198.67884826660156
y: 333.3160095214844
z: -0.5434895753860474
visibility: 0.9363805651664734
","x: 269.36859130859375
y: 364.33062744140625
z: -0.23673948645591736
visibility: 0.9875396490097046
","x: 201.83712768554688
y: 326.3545227050781
z: -0.5594574213027954
visibility: 0.941123366355896
","x: 266.7298889160156
y: 360.782470703125
z: -0.19175587594509125
visibility: 0.984115719795227
","x: 198.95526123046875
y: 322.65081787109375
z: -0.5095579624176025
visibility: 0.9336529970169067
","x: 231.66860961914062
y: 366.7082214355469
z: 0.0004215064109303057
visibility: 0.9997373223304749
","x: 207.68287658691406
y: 371.2308044433594
z: -0.0004913957673124969
visibility: 0.9997313618659973
","x: 237.88363647460938
y: 451.2466735839844
z: -0.029842164367437363
visibility: 0.9970514178276062
","x: 207.95489501953125
y: 455.2526550292969
z: -0.045549385249614716
visibility: 0.9931328296661377
","x: 243.02450561523438
y: 530.6323852539062
z: 0.06671750545501709
visibility: 0.9965874552726746
","x: 211.5869903564453
y: 531.4739990234375
z: 0.07036946713924408
visibility: 0.9951851963996887
","x: 240.47006225585938
y: 541.2752075195312
z: 0.06755869090557098
visibility: 0.9006706476211548
","x: 215.44003295898438
y: 542.86279296875
z: 0.07429207861423492
visibility: 0.956632673740387
","x: 246.50790405273438
y: 556.8108520507812
z: -0.060409337282180786
visibility: 0.9937295913696289
","x: 198.67181396484375
y: 552.1544799804688
z: -0.04825756698846817
visibility: 0.9926391243934631
",,,,,,,,,,,,,,,,,,,,,,"x: 268.3436584472656
y: 343.89739990234375
z: 0.0
","x: 267.8273010253906
y: 350.0487976074219
z: -0.0028082772623747587
","x: 268.6664123535156
y: 355.7974853515625
z: -0.004227399360388517
","x: 269.9143981933594
y: 361.2851257324219
z: -0.005276158452033997
","x: 271.0990295410156
y: 365.7859802246094
z: -0.005932745058089495
","x: 275.0126037597656
y: 358.0041809082031
z: -0.002938547171652317
","x: 276.862060546875
y: 367.2366943359375
z: -0.00436998950317502
","x: 277.6925354003906
y: 373.2958984375
z: -0.004898191429674625
","x: 278.4140319824219
y: 378.1904296875
z: -0.005090516991913319
","x: 276.4128723144531
y: 358.3758544921875
z: -0.0027189371176064014
","x: 278.5564270019531
y: 368.3643798828125
z: -0.004102698527276516
","x: 279.2109680175781
y: 374.9504089355469
z: -0.0045431931503117085
","x: 279.63787841796875
y: 380.5186462402344
z: -0.004816664382815361
","x: 276.8398742675781
y: 359.029296875
z: -0.002773389220237732
","x: 278.814697265625
y: 368.3410949707031
z: -0.004473957698792219
","x: 279.6162109375
y: 374.643310546875
z: -0.005362907890230417
","x: 280.1113586425781
y: 380.0688171386719
z: -0.005913953296840191
","x: 276.35858154296875
y: 359.7103576660156
z: -0.0031355463434010744
","x: 278.1569519042969
y: 367.2758483886719
z: -0.004557645879685879
","x: 279.0009765625
y: 372.4469299316406
z: -0.005250069312751293
","x: 279.4911193847656
y: 377.1014709472656
z: -0.005685684736818075
"
11,"x: 209.4188232421875
y: 244.19189453125
z: -0.4193290174007416
visibility: 0.9999897480010986
","x: 211.96495056152344
y: 236.486328125
z: -0.4110146164894104
visibility: 0.9999517202377319
","x: 213.3394317626953
y: 235.8213653564453
z: -0.410949170589447
visibility: 0.9999561309814453
","x: 214.62490844726562
y: 234.92311096191406
z: -0.4109506607055664
visibility: 0.9999472498893738
","x: 207.12847900390625
y: 236.35980224609375
z: -0.4131515622138977
visibility: 0.9999539852142334
","x: 205.38169860839844
y: 235.657958984375
z: -0.4132491648197174
visibility: 0.9999527931213379
","x: 203.77706909179688
y: 234.69747924804688
z: -0.41327208280563354
visibility: 0.9999412894248962
","x: 215.6182098388672
y: 231.12103271484375
z: -0.294792115688324
visibility: 0.9999369382858276
","x: 201.1549530029297
y: 231.59588623046875
z: -0.3079707622528076
visibility: 0.9998682141304016
","x: 211.6124725341797
y: 248.03712463378906
z: -0.3696805536746979
visibility: 0.9999779462814331
","x: 206.1232452392578
y: 248.54957580566406
z: -0.3737531900405884
visibility: 0.9999712109565735
","x: 232.39251708984375
y: 256.04833984375
z: -0.16428710520267487
visibility: 0.9999897480010986
","x: 189.6162567138672
y: 263.3704528808594
z: -0.20425161719322205
visibility: 0.9999524354934692
","x: 250.07501220703125
y: 300.9262390136719
z: -0.09338679909706116
visibility: 0.9972320795059204
","x: 179.86370849609375
y: 308.9547424316406
z: -0.2830973267555237
visibility: 0.9334399700164795
","x: 264.61212158203125
y: 348.9971618652344
z: -0.17783108353614807
visibility: 0.9946914911270142
","x: 190.24270629882812
y: 323.14691162109375
z: -0.5000783205032349
visibility: 0.9635130167007446
","x: 271.4866943359375
y: 363.1600341796875
z: -0.20031049847602844
visibility: 0.9861418604850769
","x: 198.67884826660156
y: 333.3160095214844
z: -0.5434895753860474
visibility: 0.9363805651664734
","x: 269.36859130859375
y: 364.33062744140625
z: -0.23673948645591736
visibility: 0.9875396490097046
","x: 201.83712768554688
y: 326.3545227050781
z: -0.5594574213027954
visibility: 0.941123366355896
","x: 266.7298889160156
y: 360.782470703125
z: -0.19175587594509125
visibility: 0.984115719795227
","x: 198.95526123046875
y: 322.65081787109375
z: -0.5095579624176025
visibility: 0.9336529970169067
","x: 231.66860961914062
y: 366.7082214355469
z: 0.0004215064109303057
visibility: 0.9997373223304749
","x: 207.68287658691406
y: 371.2308044433594
z: -0.0004913957673124969
visibility: 0.9997313618659973
","x: 237.88363647460938
y: 451.2466735839844
z: -0.029842164367437363
visibility: 0.9970514178276062
","x: 207.95489501953125
y: 455.2526550292969
z: -0.045549385249614716
visibility: 0.9931328296661377
","x: 243.02450561523438
y: 530.6323852539062
z: 0.06671750545501709
visibility: 0.9965874552726746
","x: 211.5869903564453
y: 531.4739990234375
z: 0.07036946713924408
visibility: 0.9951851963996887
","x: 240.47006225585938
y: 541.2752075195312
z: 0.06755869090557098
visibility: 0.9006706476211548
","x: 215.44003295898438
y: 542.86279296875
z: 0.07429207861423492
visibility: 0.956632673740387
","x: 246.50790405273438
y: 556.8108520507812
z: -0.060409337282180786
visibility: 0.9937295913696289
","x: 198.67181396484375
y: 552.1544799804688
z: -0.04825756698846817
visibility: 0.9926391243934631
",,,,,,,,,,,,,,,,,,,,,,"x: 268.3436584472656
y: 343.89739990234375
z: 0.0
","x: 267.8273010253906
y: 350.0487976074219
z: -0.0028082772623747587
","x: 268.6664123535156
y: 355.7974853515625
z: -0.004227399360388517
","x: 269.9143981933594
y: 361.2851257324219
z: -0.005276158452033997
","x: 271.0990295410156
y: 365.7859802246094
z: -0.005932745058089495
","x: 275.0126037597656
y: 358.0041809082031
z: -0.002938547171652317
","x: 276.862060546875
y: 367.2366943359375
z: -0.00436998950317502
","x: 277.6925354003906
y: 373.2958984375
z: -0.004898191429674625
","x: 278.4140319824219
y: 378.1904296875
z: -0.005090516991913319
","x: 276.4128723144531
y: 358.3758544921875
z: -0.0027189371176064014
","x: 278.5564270019531
y: 368.3643798828125
z: -0.004102698527276516
","x: 279.2109680175781
y: 374.9504089355469
z: -0.0045431931503117085
","x: 279.63787841796875
y: 380.5186462402344
z: -0.004816664382815361
","x: 276.8398742675781
y: 359.029296875
z: -0.002773389220237732
","x: 278.814697265625
y: 368.3410949707031
z: -0.004473957698792219
","x: 279.6162109375
y: 374.643310546875
z: -0.005362907890230417
","x: 280.1113586425781
y: 380.0688171386719
z: -0.005913953296840191
","x: 276.35858154296875
y: 359.7103576660156
z: -0.0031355463434010744
","x: 278.1569519042969
y: 367.2758483886719
z: -0.004557645879685879
","x: 279.0009765625
y: 372.4469299316406
z: -0.005250069312751293
","x: 279.4911193847656
y: 377.1014709472656
z: -0.005685684736818075
"
12,"x: 212.16297912597656
y: 256.79534912109375
z: -0.4126332700252533
visibility: 0.9999851584434509
","x: 214.1260223388672
y: 249.52639770507812
z: -0.404398113489151
visibility: 0.9999319314956665
","x: 215.42286682128906
y: 248.8796844482422
z: -0.4043886661529541
visibility: 0.9999334216117859
","x: 216.68548583984375
y: 248.19334411621094
z: -0.40445008873939514
visibility: 0.9999232292175293
","x: 210.02627563476562
y: 249.7078857421875
z: -0.4048544466495514
visibility: 0.9999354481697083
","x: 208.60321044921875
y: 249.17608642578125
z: -0.40494757890701294
visibility: 0.9999340772628784
","x: 207.24549865722656
y: 248.39840698242188
z: -0.40497881174087524
visibility: 0.9999203085899353
","x: 217.71949768066406
y: 245.6096649169922
z: -0.2890680730342865
visibility: 0.9999082088470459
","x: 204.5580596923828
y: 245.61834716796875
z: -0.29368114471435547
visibility: 0.9998484253883362
","x: 214.33323669433594
y: 260.7015686035156
z: -0.36333635449409485
visibility: 0.9999666810035706
","x: 209.36557006835938
y: 260.7588806152344
z: -0.364836722612381
visibility: 0.999958872795105
","x: 233.8526153564453
y: 272.53070068359375
z: -0.1703171283006668
visibility: 0.9999881982803345
","x: 192.4822235107422
y: 270.32940673828125
z: -0.19121313095092773
visibility: 0.9999538660049438
","x: 251.34194946289062
y: 311.7670593261719
z: -0.15532705187797546
visibility: 0.997178316116333
","x: 182.85997009277344
y: 312.8372802734375
z: -0.2927430272102356
visibility: 0.9385761022567749
","x: 270.1859436035156
y: 344.3979187011719
z: -0.28940266370773315
visibility: 0.9948126673698425
","x: 184.2803497314453
y: 327.2552795410156
z: -0.5472473502159119
visibility: 0.9663377404212952
","x: 276.3262634277344
y: 358.065673828125
z: -0.32023197412490845
visibility: 0.9864258170127869
","x: 182.7454071044922
y: 335.2914123535156
z: -0.5963466763496399
visibility: 0.9410311579704285
","x: 275.2869873046875
y: 357.35308837890625
z: -0.3543078303337097
visibility: 0.9878866672515869
","x: 183.91268920898438
y: 330.8822937011719
z: -0.6181682348251343
visibility: 0.945472002029419
","x: 273.2854309082031
y: 353.2436828613281
z: -0.3063948452472687
visibility: 0.9844388365745544
","x: 185.64039611816406
y: 327.9550476074219
z: -0.5622057914733887
visibility: 0.9381315112113953
","x: 231.28323364257812
y: 368.1393737792969
z: -0.0023460141383111477
visibility: 0.9997251629829407
","x: 207.74708557128906
y: 372.6697998046875
z: 0.002321218606084585
visibility: 0.9997280240058899
","x: 236.62872314453125
y: 451.3164978027344
z: -0.08200175315141678
visibility: 0.9960579872131348
","x: 207.35333251953125
y: 455.08355712890625
z: -0.0880623385310173
visibility: 0.9924240112304688
","x: 241.61260986328125
y: 530.797607421875
z: -0.002794346073642373
visibility: 0.9958191514015198
","x: 211.68557739257812
y: 531.59423828125
z: 0.02617451548576355
visibility: 0.9947382807731628
","x: 239.4275360107422
y: 541.3740844726562
z: -0.0037381979636847973
visibility: 0.9012738466262817
","x: 215.6126708984375
y: 542.9049072265625
z: 0.029596397653222084
visibility: 0.9549665451049805
","x: 246.58309936523438
y: 556.4912109375
z: -0.1333940625190735
visibility: 0.9927715063095093
","x: 198.10401916503906
y: 552.3746337890625
z: -0.09340118616819382
visibility: 0.9921478033065796
",,,,,,,,,,,,,,,,,,,,,,,,,,,,,,,,,,,,,,,,,,
13,"x: 214.49661254882812
y: 257.1239929199219
z: -0.38115695118904114
visibility: 0.999982476234436
","x: 216.70346069335938
y: 249.45913696289062
z: -0.3751530051231384
visibility: 0.9999191164970398
","x: 218.0125732421875
y: 248.9244384765625
z: -0.3751627802848816
visibility: 0.9999189376831055
","x: 219.26797485351562
y: 248.3895721435547
z: -0.3752121031284332
visibility: 0.9999045729637146
","x: 212.6341552734375
y: 249.22743225097656
z: -0.3735281825065613
visibility: 0.9999220371246338
","x: 211.20681762695312
y: 248.51722717285156
z: -0.37360259890556335
visibility: 0.9999187588691711
","x: 209.84046936035156
y: 247.6241455078125
z: -0.37363654375076294
visibility: 0.9999015927314758
","x: 220.6175079345703
y: 245.67596435546875
z: -0.2689134180545807
visibility: 0.9998883605003357
","x: 207.38430786132812
y: 243.38674926757812
z: -0.26308515667915344
visibility: 0.9998263120651245
","x: 216.56236267089844
y: 260.7950439453125
z: -0.33496028184890747
visibility: 0.9999569058418274
","x: 211.6815948486328
y: 260.2769775390625
z: -0.3334151804447174
visibility: 0.999947190284729
","x: 235.61659240722656
y: 273.33465576171875
z: -0.1556462198495865
visibility: 0.9999862313270569
","x: 195.1231689453125
y: 270.334716796875
z: -0.15560409426689148
visibility: 0.9999560117721558
","x: 251.54159545898438
y: 316.9604187011719
z: -0.11361576616764069
visibility: 0.9967619180679321
","x: 184.71263122558594
y: 314.43353271484375
z: -0.18682490289211273
visibility: 0.9423529505729675
","x: 271.5694580078125
y: 344.0292053222656
z: -0.2652883529663086
visibility: 0.9945681095123291
","x: 175.0326690673828
y: 340.3800964355469
z: -0.3843217194080353
visibility: 0.9688895344734192
","x: 277.8311462402344
y: 354.2521667480469
z: -0.25955525040626526
visibility: 0.9859924912452698
","x: 169.47125244140625
y: 348.6142578125
z: -0.42732366919517517
visibility: 0.9454046487808228
","x: 277.5392150878906
y: 351.1407165527344
z: -0.3397456407546997
visibility: 0.9876362681388855
","x: 169.3264617919922
y: 347.2702331542969
z: -0.44667506217956543
visibility: 0.9496681690216064
","x: 275.47662353515625
y: 348.22576904296875
z: -0.2859196066856384
visibility: 0.9842274188995361
","x: 171.45001220703125
y: 345.02459716796875
z: -0.3963108956813812
visibility: 0.9428074955940247
","x: 231.05613708496094
y: 373.6327819824219
z: -0.0059328945353627205
visibility: 0.9996998310089111
","x: 207.73414611816406
y: 376.1376953125
z: 0.00593226496130228
visibility: 0.9997096061706543
","x: 235.83998107910156
y: 452.748291015625
z: -0.08333198726177216
visibility: 0.9954654574394226
","x: 206.35055541992188
y: 455.9788513183594
z: -0.05472550541162491
visibility: 0.9921615123748779
","x: 241.1124267578125
y: 530.89404296875
z: -0.004061351530253887
visibility: 0.9953745007514954
","x: 211.6309356689453
y: 531.62939453125
z: 0.06154177337884903
visibility: 0.9945330023765564
","x: 238.74334716796875
y: 541.654541015625
z: -0.0045180050656199455
visibility: 0.9032372832298279
","x: 215.61810302734375
y: 542.8946533203125
z: 0.06521432101726532
visibility: 0.9545661807060242
","x: 246.46038818359375
y: 556.2488403320312
z: -0.1252901554107666
visibility: 0.9923089146614075
","x: 197.0289306640625
y: 552.325927734375
z: -0.0474802665412426
visibility: 0.9919539093971252
",,,,,,,,,,,,,,,,,,,,,,,,,,,,,,,,,,,,,,,,,,
14,"x: 215.1163330078125
y: 247.4031219482422
z: -0.29652824997901917
visibility: 0.999980628490448
","x: 217.4049072265625
y: 240.42327880859375
z: -0.29019278287887573
visibility: 0.999908447265625
","x: 218.90089416503906
y: 239.93704223632812
z: -0.2902122139930725
visibility: 0.9999061822891235
","x: 220.26658630371094
y: 239.37872314453125
z: -0.2902149558067322
visibility: 0.9998921155929565
","x: 213.03231811523438
y: 239.37255859375
z: -0.2888166010379791
visibility: 0.999912440776825
","x: 212.02854919433594
y: 238.18138122558594
z: -0.28885695338249207
visibility: 0.9999079704284668
","x: 210.87451171875
y: 236.7987823486328
z: -0.288900226354599
visibility: 0.9998924136161804
","x: 221.40663146972656
y: 236.26046752929688
z: -0.19499018788337708
visibility: 0.9998565316200256
","x: 209.33535766601562
y: 232.7232208251953
z: -0.19103166460990906
visibility: 0.9998040199279785
","x: 217.4794921875
y: 249.85731506347656
z: -0.25580570101737976
visibility: 0.9999515414237976
","x: 212.38027954101562
y: 249.04074096679688
z: -0.25467604398727417
visibility: 0.9999430775642395
","x: 236.92405700683594
y: 265.59716796875
z: -0.10228830575942993
visibility: 0.9999851584434509
","x: 195.79762268066406
y: 261.174072265625
z: -0.08826646953821182
visibility: 0.9999581575393677
","x: 252.14022827148438
y: 309.56341552734375
z: -0.05139472335577011
visibility: 0.9965976476669312
","x: 185.63433837890625
y: 312.83135986328125
z: -0.032559625804424286
visibility: 0.9468045234680176
","x: 269.984130859375
y: 339.69671630859375
z: -0.15749526023864746
visibility: 0.994290292263031
","x: 173.7152557373047
y: 347.1081848144531
z: -0.134164959192276
visibility: 0.9711364507675171
","x: 275.0480651855469
y: 353.2093505859375
z: -0.17934313416481018
visibility: 0.9852706789970398
","x: 168.2877197265625
y: 360.4228210449219
z: -0.15999022126197815
visibility: 0.9489884972572327
","x: 273.39776611328125
y: 351.7520446777344
z: -0.22090446949005127
visibility: 0.9870373010635376
","x: 169.24801635742188
y: 360.2581481933594
z: -0.20120158791542053
visibility: 0.9531014561653137
","x: 271.5379333496094
y: 347.1962890625
z: -0.17465533316135406
visibility: 0.983510434627533
","x: 171.4364471435547
y: 355.979248046875
z: -0.1531922072172165
visibility: 0.9466138482093811
","x: 231.0663299560547
y: 372.8904724121094
z: -0.006185024045407772
visibility: 0.9996861815452576
","x: 207.53750610351562
y: 374.53021240234375
z: 0.00618019001558423
visibility: 0.9997005462646484
","x: 235.92739868164062
y: 453.17974853515625
z: -0.03415409475564957
visibility: 0.9952080249786377
","x: 206.67030334472656
y: 454.6853332519531
z: -0.03560047596693039
visibility: 0.992523729801178
","x: 241.03506469726562
y: 531.06298828125
z: 0.03715859353542328
visibility: 0.995340883731842
","x: 211.63119506835938
y: 531.5831909179688
z: 0.07688616961240768
visibility: 0.9947220087051392
","x: 238.70803833007812
y: 542.18603515625
z: 0.036214493215084076
visibility: 0.9070501923561096
","x: 215.6267852783203
y: 542.708984375
z: 0.07928986847400665
visibility: 0.9547083973884583
","x: 247.07925415039062
y: 556.2903442382812
z: -0.07627822458744049
visibility: 0.9922810196876526
","x: 197.07293701171875
y: 552.265625
z: -0.03155012056231499
visibility: 0.9921784400939941
","x: 171.7655029296875
y: 347.51947021484375
z: 0.0
","x: 173.42022705078125
y: 354.599365234375
z: -2.5443190679652616e-05
","x: 172.8378448486328
y: 362.48406982421875
z: 0.00028529262635856867
","x: 171.7899169921875
y: 368.8772277832031
z: 0.0004319717118050903
","x: 170.78277587890625
y: 374.197509765625
z: 0.0011417571222409606
","x: 167.3587188720703
y: 366.6187744140625
z: 0.002174738561734557
","x: 166.72305297851562
y: 375.6805419921875
z: 0.0022061585914343596
","x: 168.5982208251953
y: 379.5422058105469
z: 0.002694764407351613
","x: 170.4115753173828
y: 381.0509033203125
z: 0.0034094112925231457
","x: 166.43035888671875
y: 366.7730407714844
z: 0.001876632682979107
","x: 166.06834411621094
y: 376.0235595703125
z: 0.0021475302055478096
","x: 168.16087341308594
y: 379.6338195800781
z: 0.002357479417696595
","x: 170.19549560546875
y: 380.59808349609375
z: 0.0026854784227907658
","x: 166.4329071044922
y: 366.80474853515625
z: 0.0013832456897944212
","x: 166.3931121826172
y: 375.47479248046875
z: 0.0015618483303114772
","x: 168.15354919433594
y: 379.1986083984375
z: 0.0016654097707942128
","x: 169.85995483398438
y: 380.6581115722656
z: 0.0018659625202417374
","x: 166.97238159179688
y: 366.52154541015625
z: 0.0007227975293062627
","x: 166.88906860351562
y: 373.9726257324219
z: 0.0009222341468557715
","x: 168.00914001464844
y: 377.36676025390625
z: 0.0011308093089610338
","x: 169.30133056640625
y: 378.84783935546875
z: 0.001494155265390873
",,,,,,,,,,,,,,,,,,,,,
15,"x: 215.1163330078125
y: 247.4031219482422
z: -0.29652824997901917
visibility: 0.999980628490448
","x: 217.4049072265625
y: 240.42327880859375
z: -0.29019278287887573
visibility: 0.999908447265625
","x: 218.90089416503906
y: 239.93704223632812
z: -0.2902122139930725
visibility: 0.9999061822891235
","x: 220.26658630371094
y: 239.37872314453125
z: -0.2902149558067322
visibility: 0.9998921155929565
","x: 213.03231811523438
y: 239.37255859375
z: -0.2888166010379791
visibility: 0.999912440776825
","x: 212.02854919433594
y: 238.18138122558594
z: -0.28885695338249207
visibility: 0.9999079704284668
","x: 210.87451171875
y: 236.7987823486328
z: -0.288900226354599
visibility: 0.9998924136161804
","x: 221.40663146972656
y: 236.26046752929688
z: -0.19499018788337708
visibility: 0.9998565316200256
","x: 209.33535766601562
y: 232.7232208251953
z: -0.19103166460990906
visibility: 0.9998040199279785
","x: 217.4794921875
y: 249.85731506347656
z: -0.25580570101737976
visibility: 0.9999515414237976
","x: 212.38027954101562
y: 249.04074096679688
z: -0.25467604398727417
visibility: 0.9999430775642395
","x: 236.92405700683594
y: 265.59716796875
z: -0.10228830575942993
visibility: 0.9999851584434509
","x: 195.79762268066406
y: 261.174072265625
z: -0.08826646953821182
visibility: 0.9999581575393677
","x: 252.14022827148438
y: 309.56341552734375
z: -0.05139472335577011
visibility: 0.9965976476669312
","x: 185.63433837890625
y: 312.83135986328125
z: -0.032559625804424286
visibility: 0.9468045234680176
","x: 269.984130859375
y: 339.69671630859375
z: -0.15749526023864746
visibility: 0.994290292263031
","x: 173.7152557373047
y: 347.1081848144531
z: -0.134164959192276
visibility: 0.9711364507675171
","x: 275.0480651855469
y: 353.2093505859375
z: -0.17934313416481018
visibility: 0.9852706789970398
","x: 168.2877197265625
y: 360.4228210449219
z: -0.15999022126197815
visibility: 0.9489884972572327
","x: 273.39776611328125
y: 351.7520446777344
z: -0.22090446949005127
visibility: 0.9870373010635376
","x: 169.24801635742188
y: 360.2581481933594
z: -0.20120158791542053
visibility: 0.9531014561653137
","x: 271.5379333496094
y: 347.1962890625
z: -0.17465533316135406
visibility: 0.983510434627533
","x: 171.4364471435547
y: 355.979248046875
z: -0.1531922072172165
visibility: 0.9466138482093811
","x: 231.0663299560547
y: 372.8904724121094
z: -0.006185024045407772
visibility: 0.9996861815452576
","x: 207.53750610351562
y: 374.53021240234375
z: 0.00618019001558423
visibility: 0.9997005462646484
","x: 235.92739868164062
y: 453.17974853515625
z: -0.03415409475564957
visibility: 0.9952080249786377
","x: 206.67030334472656
y: 454.6853332519531
z: -0.03560047596693039
visibility: 0.992523729801178
","x: 241.03506469726562
y: 531.06298828125
z: 0.03715859353542328
visibility: 0.995340883731842
","x: 211.63119506835938
y: 531.5831909179688
z: 0.07688616961240768
visibility: 0.9947220087051392
","x: 238.70803833007812
y: 542.18603515625
z: 0.036214493215084076
visibility: 0.9070501923561096
","x: 215.6267852783203
y: 542.708984375
z: 0.07928986847400665
visibility: 0.9547083973884583
","x: 247.07925415039062
y: 556.2903442382812
z: -0.07627822458744049
visibility: 0.9922810196876526
","x: 197.07293701171875
y: 552.265625
z: -0.03155012056231499
visibility: 0.9921784400939941
","x: 171.7655029296875
y: 347.51947021484375
z: 0.0
","x: 173.42022705078125
y: 354.599365234375
z: -2.5443190679652616e-05
","x: 172.8378448486328
y: 362.48406982421875
z: 0.00028529262635856867
","x: 171.7899169921875
y: 368.8772277832031
z: 0.0004319717118050903
","x: 170.78277587890625
y: 374.197509765625
z: 0.0011417571222409606
","x: 167.3587188720703
y: 366.6187744140625
z: 0.002174738561734557
","x: 166.72305297851562
y: 375.6805419921875
z: 0.0022061585914343596
","x: 168.5982208251953
y: 379.5422058105469
z: 0.002694764407351613
","x: 170.4115753173828
y: 381.0509033203125
z: 0.0034094112925231457
","x: 166.43035888671875
y: 366.7730407714844
z: 0.001876632682979107
","x: 166.06834411621094
y: 376.0235595703125
z: 0.0021475302055478096
","x: 168.16087341308594
y: 379.6338195800781
z: 0.002357479417696595
","x: 170.19549560546875
y: 380.59808349609375
z: 0.0026854784227907658
","x: 166.4329071044922
y: 366.80474853515625
z: 0.0013832456897944212
","x: 166.3931121826172
y: 375.47479248046875
z: 0.0015618483303114772
","x: 168.15354919433594
y: 379.1986083984375
z: 0.0016654097707942128
","x: 169.85995483398438
y: 380.6581115722656
z: 0.0018659625202417374
","x: 166.97238159179688
y: 366.52154541015625
z: 0.0007227975293062627
","x: 166.88906860351562
y: 373.9726257324219
z: 0.0009222341468557715
","x: 168.00914001464844
y: 377.36676025390625
z: 0.0011308093089610338
","x: 169.30133056640625
y: 378.84783935546875
z: 0.001494155265390873
",,,,,,,,,,,,,,,,,,,,,
16,"x: 222.2951202392578
y: 224.02304077148438
z: -0.3002740144729614
visibility: 0.9999819397926331
","x: 224.85411071777344
y: 218.8404541015625
z: -0.2967514395713806
visibility: 0.9999154210090637
","x: 226.4580078125
y: 219.47994995117188
z: -0.2967608571052551
visibility: 0.9999130964279175
","x: 227.86557006835938
y: 220.032470703125
z: -0.2967744469642639
visibility: 0.9999004602432251
","x: 220.0422821044922
y: 217.02044677734375
z: -0.29194176197052
visibility: 0.9999192357063293
","x: 218.57086181640625
y: 216.6514892578125
z: -0.29198896884918213
visibility: 0.9999151229858398
","x: 217.1478271484375
y: 216.29342651367188
z: -0.2920418083667755
visibility: 0.9999012351036072
","x: 229.08889770507812
y: 223.53089904785156
z: -0.19664770364761353
visibility: 0.9998655319213867
","x: 215.66050720214844
y: 218.98431396484375
z: -0.20211288332939148
visibility: 0.9998190999031067
","x: 224.7205047607422
y: 231.08358764648438
z: -0.2628995478153229
visibility: 0.999954879283905
","x: 219.0216522216797
y: 230.27926635742188
z: -0.27012044191360474
visibility: 0.9999474287033081
","x: 241.07969665527344
y: 264.20245361328125
z: -0.11707928031682968
visibility: 0.9999841451644897
","x: 199.00306701660156
y: 260.7492980957031
z: -0.09921611100435257
visibility: 0.9999586939811707
","x: 252.48361206054688
y: 308.6427001953125
z: -0.08162122219800949
visibility: 0.9964080452919006
","x: 186.1467742919922
y: 312.8845520019531
z: -0.053172312676906586
visibility: 0.9511069059371948
","x: 262.8694763183594
y: 342.107666015625
z: -0.19573871791362762
visibility: 0.9937652349472046
","x: 175.96485900878906
y: 359.05780029296875
z: -0.14695176482200623
visibility: 0.9727987051010132
","x: 262.73321533203125
y: 354.8773193359375
z: -0.22542087733745575
visibility: 0.9839695692062378
","x: 171.56248474121094
y: 373.74676513671875
z: -0.173130601644516
visibility: 0.9513201117515564
","x: 259.8603210449219
y: 355.0317687988281
z: -0.2581508159637451
visibility: 0.985792338848114
","x: 172.9307403564453
y: 373.7713623046875
z: -0.210932657122612
visibility: 0.9553691744804382
","x: 259.2897644042969
y: 350.60198974609375
z: -0.21061737835407257
visibility: 0.9818515181541443
","x: 174.8002166748047
y: 368.3094787597656
z: -0.16429544985294342
visibility: 0.9490798115730286
","x: 231.8782196044922
y: 371.36376953125
z: -0.0070051029324531555
visibility: 0.9996916055679321
","x: 208.71640014648438
y: 371.9473876953125
z: 0.006964036263525486
visibility: 0.9997081160545349
","x: 236.41639709472656
y: 453.231201171875
z: -0.018241416662931442
visibility: 0.9951267242431641
","x: 207.89552307128906
y: 454.6423034667969
z: -0.004291880875825882
visibility: 0.9926745891571045
","x: 241.205810546875
y: 531.0767211914062
z: 0.06769996881484985
visibility: 0.9953517317771912
","x: 211.6013946533203
y: 531.5777587890625
z: 0.09327121824026108
visibility: 0.9947885870933533
","x: 238.78814697265625
y: 541.8932495117188
z: 0.06798816472291946
visibility: 0.9077166318893433
","x: 215.67906188964844
y: 542.233154296875
z: 0.09321392327547073
visibility: 0.9516966342926025
","x: 246.86602783203125
y: 556.3076171875
z: -0.050757020711898804
visibility: 0.9922453165054321
","x: 197.11517333984375
y: 552.1376953125
z: -0.01793229766190052
visibility: 0.9922121167182922
",,,,,,,,,,,,,,,,,,,,,,"x: 262.0674743652344
y: 346.46820068359375
z: 0.0
","x: 257.81866455078125
y: 345.8841247558594
z: -0.003263800172135234
","x: 254.39434814453125
y: 349.2881774902344
z: -0.004483724012970924
","x: 252.63140869140625
y: 354.0352783203125
z: -0.005010335706174374
","x: 251.28465270996094
y: 357.90386962890625
z: -0.005194454919546843
","x: 256.8915710449219
y: 358.05572509765625
z: -0.004357434809207916
","x: 254.759765625
y: 365.9747009277344
z: -0.004988444037735462
","x: 253.03851318359375
y: 369.44464111328125
z: -0.004648220259696245
","x: 251.78286743164062
y: 371.6119079589844
z: -0.0041065760888159275
","x: 258.9961853027344
y: 360.96502685546875
z: -0.0030792804900556803
","x: 256.6949157714844
y: 369.162353515625
z: -0.003231128677725792
","x: 254.63983154296875
y: 371.9749450683594
z: -0.0027993363328278065
","x: 253.15655517578125
y: 373.2742004394531
z: -0.002488873666152358
","x: 260.5347900390625
y: 362.6226501464844
z: -0.0018763825064525008
","x: 258.3379211425781
y: 369.99395751953125
z: -0.0022257387172430754
","x: 256.4485778808594
y: 371.9552001953125
z: -0.002452109707519412
","x: 254.97462463378906
y: 372.2574462890625
z: -0.0026156206149607897
","x: 261.60369873046875
y: 363.3607482910156
z: -0.0009469689684920013
","x: 259.69927978515625
y: 369.6635437011719
z: -0.001533767324872315
","x: 257.83026123046875
y: 371.5930480957031
z: -0.0018309593433514237
","x: 256.233642578125
y: 371.49749755859375
z: -0.0018494498217478395
"
17,"x: 222.2951202392578
y: 224.02304077148438
z: -0.3002740144729614
visibility: 0.9999819397926331
","x: 224.85411071777344
y: 218.8404541015625
z: -0.2967514395713806
visibility: 0.9999154210090637
","x: 226.4580078125
y: 219.47994995117188
z: -0.2967608571052551
visibility: 0.9999130964279175
","x: 227.86557006835938
y: 220.032470703125
z: -0.2967744469642639
visibility: 0.9999004602432251
","x: 220.0422821044922
y: 217.02044677734375
z: -0.29194176197052
visibility: 0.9999192357063293
","x: 218.57086181640625
y: 216.6514892578125
z: -0.29198896884918213
visibility: 0.9999151229858398
","x: 217.1478271484375
y: 216.29342651367188
z: -0.2920418083667755
visibility: 0.9999012351036072
","x: 229.08889770507812
y: 223.53089904785156
z: -0.19664770364761353
visibility: 0.9998655319213867
","x: 215.66050720214844
y: 218.98431396484375
z: -0.20211288332939148
visibility: 0.9998190999031067
","x: 224.7205047607422
y: 231.08358764648438
z: -0.2628995478153229
visibility: 0.999954879283905
","x: 219.0216522216797
y: 230.27926635742188
z: -0.27012044191360474
visibility: 0.9999474287033081
","x: 241.07969665527344
y: 264.20245361328125
z: -0.11707928031682968
visibility: 0.9999841451644897
","x: 199.00306701660156
y: 260.7492980957031
z: -0.09921611100435257
visibility: 0.9999586939811707
","x: 252.48361206054688
y: 308.6427001953125
z: -0.08162122219800949
visibility: 0.9964080452919006
","x: 186.1467742919922
y: 312.8845520019531
z: -0.053172312676906586
visibility: 0.9511069059371948
","x: 262.8694763183594
y: 342.107666015625
z: -0.19573871791362762
visibility: 0.9937652349472046
","x: 175.96485900878906
y: 359.05780029296875
z: -0.14695176482200623
visibility: 0.9727987051010132
","x: 262.73321533203125
y: 354.8773193359375
z: -0.22542087733745575
visibility: 0.9839695692062378
","x: 171.56248474121094
y: 373.74676513671875
z: -0.173130601644516
visibility: 0.9513201117515564
","x: 259.8603210449219
y: 355.0317687988281
z: -0.2581508159637451
visibility: 0.985792338848114
","x: 172.9307403564453
y: 373.7713623046875
z: -0.210932657122612
visibility: 0.9553691744804382
","x: 259.2897644042969
y: 350.60198974609375
z: -0.21061737835407257
visibility: 0.9818515181541443
","x: 174.8002166748047
y: 368.3094787597656
z: -0.16429544985294342
visibility: 0.9490798115730286
","x: 231.8782196044922
y: 371.36376953125
z: -0.0070051029324531555
visibility: 0.9996916055679321
","x: 208.71640014648438
y: 371.9473876953125
z: 0.006964036263525486
visibility: 0.9997081160545349
","x: 236.41639709472656
y: 453.231201171875
z: -0.018241416662931442
visibility: 0.9951267242431641
","x: 207.89552307128906
y: 454.6423034667969
z: -0.004291880875825882
visibility: 0.9926745891571045
","x: 241.205810546875
y: 531.0767211914062
z: 0.06769996881484985
visibility: 0.9953517317771912
","x: 211.6013946533203
y: 531.5777587890625
z: 0.09327121824026108
visibility: 0.9947885870933533
","x: 238.78814697265625
y: 541.8932495117188
z: 0.06798816472291946
visibility: 0.9077166318893433
","x: 215.67906188964844
y: 542.233154296875
z: 0.09321392327547073
visibility: 0.9516966342926025
","x: 246.86602783203125
y: 556.3076171875
z: -0.050757020711898804
visibility: 0.9922453165054321
","x: 197.11517333984375
y: 552.1376953125
z: -0.01793229766190052
visibility: 0.9922121167182922
",,,,,,,,,,,,,,,,,,,,,,"x: 262.0674743652344
y: 346.46820068359375
z: 0.0
","x: 257.81866455078125
y: 345.8841247558594
z: -0.003263800172135234
","x: 254.39434814453125
y: 349.2881774902344
z: -0.004483724012970924
","x: 252.63140869140625
y: 354.0352783203125
z: -0.005010335706174374
","x: 251.28465270996094
y: 357.90386962890625
z: -0.005194454919546843
","x: 256.8915710449219
y: 358.05572509765625
z: -0.004357434809207916
","x: 254.759765625
y: 365.9747009277344
z: -0.004988444037735462
","x: 253.03851318359375
y: 369.44464111328125
z: -0.004648220259696245
","x: 251.78286743164062
y: 371.6119079589844
z: -0.0041065760888159275
","x: 258.9961853027344
y: 360.96502685546875
z: -0.0030792804900556803
","x: 256.6949157714844
y: 369.162353515625
z: -0.003231128677725792
","x: 254.63983154296875
y: 371.9749450683594
z: -0.0027993363328278065
","x: 253.15655517578125
y: 373.2742004394531
z: -0.002488873666152358
","x: 260.5347900390625
y: 362.6226501464844
z: -0.0018763825064525008
","x: 258.3379211425781
y: 369.99395751953125
z: -0.0022257387172430754
","x: 256.4485778808594
y: 371.9552001953125
z: -0.002452109707519412
","x: 254.97462463378906
y: 372.2574462890625
z: -0.0026156206149607897
","x: 261.60369873046875
y: 363.3607482910156
z: -0.0009469689684920013
","x: 259.69927978515625
y: 369.6635437011719
z: -0.001533767324872315
","x: 257.83026123046875
y: 371.5930480957031
z: -0.0018309593433514237
","x: 256.233642578125
y: 371.49749755859375
z: -0.0018494498217478395
"
18,"x: 227.5041046142578
y: 221.326904296875
z: -0.3492718040943146
visibility: 0.9999831914901733
","x: 229.7276611328125
y: 216.73912048339844
z: -0.33530017733573914
visibility: 0.9999217391014099
","x: 231.1223602294922
y: 217.3137664794922
z: -0.335302472114563
visibility: 0.999919593334198
","x: 232.36619567871094
y: 217.94390869140625
z: -0.335316002368927
visibility: 0.9999080896377563
","x: 225.3203125
y: 215.49200439453125
z: -0.3384397327899933
visibility: 0.9999253153800964
","x: 223.7666473388672
y: 215.3415069580078
z: -0.3384871184825897
visibility: 0.9999216794967651
","x: 222.21820068359375
y: 215.25901794433594
z: -0.3384955823421478
visibility: 0.9999091625213623
","x: 233.46408081054688
y: 222.8988800048828
z: -0.23001590371131897
visibility: 0.9998732805252075
","x: 220.52622985839844
y: 219.50213623046875
z: -0.2492731362581253
visibility: 0.9998324513435364
","x: 229.4563751220703
y: 228.79141235351562
z: -0.3091224730014801
visibility: 0.999957263469696
","x: 224.30699157714844
y: 228.31167602539062
z: -0.3153666853904724
visibility: 0.9999507665634155
","x: 243.90328979492188
y: 264.99310302734375
z: -0.15220065414905548
visibility: 0.999981164932251
","x: 202.8255157470703
y: 261.2946472167969
z: -0.14968553185462952
visibility: 0.9999586343765259
","x: 252.6787109375
y: 313.58782958984375
z: -0.10750193893909454
visibility: 0.9956594705581665
","x: 190.90234375
y: 322.1844482421875
z: -0.0843753069639206
visibility: 0.9547388553619385
","x: 263.1085205078125
y: 353.7333984375
z: -0.20657949149608612
visibility: 0.9921464920043945
","x: 178.44815063476562
y: 370.3343505859375
z: -0.1704486757516861
visibility: 0.9740074872970581
","x: 265.28643798828125
y: 365.358154296875
z: -0.23210398852825165
visibility: 0.9804543256759644
","x: 175.4648895263672
y: 386.41180419921875
z: -0.1927250325679779
visibility: 0.9528506398200989
","x: 263.2431335449219
y: 364.4173583984375
z: -0.266305536031723
visibility: 0.9826449155807495
","x: 176.4640350341797
y: 386.992431640625
z: -0.23148834705352783
visibility: 0.9569241404533386
","x: 262.01416015625
y: 360.7264709472656
z: -0.2226140797138214
visibility: 0.978303849697113
","x: 178.14996337890625
y: 382.3099060058594
z: -0.18786011636257172
visibility: 0.9508231282234192
","x: 233.94781494140625
y: 369.47125244140625
z: -0.00585957383736968
visibility: 0.9996959567070007
","x: 210.6852264404297
y: 369.6166687011719
z: 0.0057709431275725365
visibility: 0.9997153282165527
","x: 237.06715393066406
y: 452.91192626953125
z: -0.02446991391479969
visibility: 0.9948715567588806
","x: 209.485595703125
y: 454.06146240234375
z: -0.0011136465473100543
visibility: 0.9925428032875061
","x: 241.29733276367188
y: 531.1248779296875
z: 0.05928319692611694
visibility: 0.9952909350395203
","x: 211.30197143554688
y: 531.5712890625
z: 0.09461526572704315
visibility: 0.9947225451469421
","x: 238.28460693359375
y: 542.287353515625
z: 0.059433143585920334
visibility: 0.9085589647293091
","x: 215.68576049804688
y: 542.0642700195312
z: 0.09549818933010101
visibility: 0.9473745226860046
","x: 246.69168090820312
y: 556.0592041015625
z: -0.05983157828450203
visibility: 0.9921374917030334
","x: 197.259033203125
y: 552.13330078125
z: -0.016478773206472397
visibility: 0.9920588731765747
",,,,,,,,,,,,,,,,,,,,,,"x: 259.7417907714844
y: 354.2535095214844
z: 0.0
","x: 258.6437683105469
y: 354.0499267578125
z: -0.008342251181602478
","x: 258.6609191894531
y: 356.6445617675781
z: -0.012469845823943615
","x: 258.9302062988281
y: 360.47314453125
z: -0.015176041051745415
","x: 258.8416748046875
y: 364.1137390136719
z: -0.017532505095005035
","x: 264.55682373046875
y: 362.3309326171875
z: -0.010846449993550777
","x: 265.8365478515625
y: 369.61834716796875
z: -0.014679777435958385
","x: 264.6231384277344
y: 373.6636962890625
z: -0.016972554847598076
","x: 263.012451171875
y: 375.63616943359375
z: -0.018137028440833092
","x: 265.1120300292969
y: 365.204345703125
z: -0.008081427775323391
","x: 265.9857177734375
y: 373.2821044921875
z: -0.012141887098550797
","x: 264.67205810546875
y: 378.799560546875
z: -0.014727238565683365
","x: 263.0820007324219
y: 381.9051513671875
z: -0.016295433044433594
","x: 264.9023742675781
y: 367.4124450683594
z: -0.0056786625646054745
","x: 265.7174377441406
y: 374.7656555175781
z: -0.009403867647051811
","x: 264.4954833984375
y: 379.8280029296875
z: -0.011986038647592068
","x: 263.09576416015625
y: 383.05987548828125
z: -0.013499664142727852
","x: 264.2774658203125
y: 369.05755615234375
z: -0.0038360757753252983
","x: 264.6835632324219
y: 374.9487609863281
z: -0.006829759106040001
","x: 263.7547912597656
y: 378.8888854980469
z: -0.008702344261109829
","x: 262.5475158691406
y: 381.4783020019531
z: -0.009800738655030727
"
19,"x: 227.5041046142578
y: 221.326904296875
z: -0.3492718040943146
visibility: 0.9999831914901733
","x: 229.7276611328125
y: 216.73912048339844
z: -0.33530017733573914
visibility: 0.9999217391014099
","x: 231.1223602294922
y: 217.3137664794922
z: -0.335302472114563
visibility: 0.999919593334198
","x: 232.36619567871094
y: 217.94390869140625
z: -0.335316002368927
visibility: 0.9999080896377563
","x: 225.3203125
y: 215.49200439453125
z: -0.3384397327899933
visibility: 0.9999253153800964
","x: 223.7666473388672
y: 215.3415069580078
z: -0.3384871184825897
visibility: 0.9999216794967651
","x: 222.21820068359375
y: 215.25901794433594
z: -0.3384955823421478
visibility: 0.9999091625213623
","x: 233.46408081054688
y: 222.8988800048828
z: -0.23001590371131897
visibility: 0.9998732805252075
","x: 220.52622985839844
y: 219.50213623046875
z: -0.2492731362581253
visibility: 0.9998324513435364
","x: 229.4563751220703
y: 228.79141235351562
z: -0.3091224730014801
visibility: 0.999957263469696
","x: 224.30699157714844
y: 228.31167602539062
z: -0.3153666853904724
visibility: 0.9999507665634155
","x: 243.90328979492188
y: 264.99310302734375
z: -0.15220065414905548
visibility: 0.999981164932251
","x: 202.8255157470703
y: 261.2946472167969
z: -0.14968553185462952
visibility: 0.9999586343765259
","x: 252.6787109375
y: 313.58782958984375
z: -0.10750193893909454
visibility: 0.9956594705581665
","x: 190.90234375
y: 322.1844482421875
z: -0.0843753069639206
visibility: 0.9547388553619385
","x: 263.1085205078125
y: 353.7333984375
z: -0.20657949149608612
visibility: 0.9921464920043945
","x: 178.44815063476562
y: 370.3343505859375
z: -0.1704486757516861
visibility: 0.9740074872970581
","x: 265.28643798828125
y: 365.358154296875
z: -0.23210398852825165
visibility: 0.9804543256759644
","x: 175.4648895263672
y: 386.41180419921875
z: -0.1927250325679779
visibility: 0.9528506398200989
","x: 263.2431335449219
y: 364.4173583984375
z: -0.266305536031723
visibility: 0.9826449155807495
","x: 176.4640350341797
y: 386.992431640625
z: -0.23148834705352783
visibility: 0.9569241404533386
","x: 262.01416015625
y: 360.7264709472656
z: -0.2226140797138214
visibility: 0.978303849697113
","x: 178.14996337890625
y: 382.3099060058594
z: -0.18786011636257172
visibility: 0.9508231282234192
","x: 233.94781494140625
y: 369.47125244140625
z: -0.00585957383736968
visibility: 0.9996959567070007
","x: 210.6852264404297
y: 369.6166687011719
z: 0.0057709431275725365
visibility: 0.9997153282165527
","x: 237.06715393066406
y: 452.91192626953125
z: -0.02446991391479969
visibility: 0.9948715567588806
","x: 209.485595703125
y: 454.06146240234375
z: -0.0011136465473100543
visibility: 0.9925428032875061
","x: 241.29733276367188
y: 531.1248779296875
z: 0.05928319692611694
visibility: 0.9952909350395203
","x: 211.30197143554688
y: 531.5712890625
z: 0.09461526572704315
visibility: 0.9947225451469421
","x: 238.28460693359375
y: 542.287353515625
z: 0.059433143585920334
visibility: 0.9085589647293091
","x: 215.68576049804688
y: 542.0642700195312
z: 0.09549818933010101
visibility: 0.9473745226860046
","x: 246.69168090820312
y: 556.0592041015625
z: -0.05983157828450203
visibility: 0.9921374917030334
","x: 197.259033203125
y: 552.13330078125
z: -0.016478773206472397
visibility: 0.9920588731765747
",,,,,,,,,,,,,,,,,,,,,,"x: 259.7417907714844
y: 354.2535095214844
z: 0.0
","x: 258.6437683105469
y: 354.0499267578125
z: -0.008342251181602478
","x: 258.6609191894531
y: 356.6445617675781
z: -0.012469845823943615
","x: 258.9302062988281
y: 360.47314453125
z: -0.015176041051745415
","x: 258.8416748046875
y: 364.1137390136719
z: -0.017532505095005035
","x: 264.55682373046875
y: 362.3309326171875
z: -0.010846449993550777
","x: 265.8365478515625
y: 369.61834716796875
z: -0.014679777435958385
","x: 264.6231384277344
y: 373.6636962890625
z: -0.016972554847598076
","x: 263.012451171875
y: 375.63616943359375
z: -0.018137028440833092
","x: 265.1120300292969
y: 365.204345703125
z: -0.008081427775323391
","x: 265.9857177734375
y: 373.2821044921875
z: -0.012141887098550797
","x: 264.67205810546875
y: 378.799560546875
z: -0.014727238565683365
","x: 263.0820007324219
y: 381.9051513671875
z: -0.016295433044433594
","x: 264.9023742675781
y: 367.4124450683594
z: -0.0056786625646054745
","x: 265.7174377441406
y: 374.7656555175781
z: -0.009403867647051811
","x: 264.4954833984375
y: 379.8280029296875
z: -0.011986038647592068
","x: 263.09576416015625
y: 383.05987548828125
z: -0.013499664142727852
","x: 264.2774658203125
y: 369.05755615234375
z: -0.0038360757753252983
","x: 264.6835632324219
y: 374.9487609863281
z: -0.006829759106040001
","x: 263.7547912597656
y: 378.8888854980469
z: -0.008702344261109829
","x: 262.5475158691406
y: 381.4783020019531
z: -0.009800738655030727
"
20,"x: 229.04763793945312
y: 216.45925903320312
z: -0.2780172824859619
visibility: 0.9999838471412659
","x: 231.0540771484375
y: 212.22943115234375
z: -0.26372426748275757
visibility: 0.9999249577522278
","x: 232.2809600830078
y: 212.90972900390625
z: -0.2637677788734436
visibility: 0.9999229311943054
","x: 233.4857635498047
y: 213.58743286132812
z: -0.2637816071510315
visibility: 0.9999122619628906
","x: 227.33200073242188
y: 210.87860107421875
z: -0.266604483127594
visibility: 0.9999285340309143
","x: 225.9208984375
y: 210.71829223632812
z: -0.266610711812973
visibility: 0.9999253153800964
","x: 224.49220275878906
y: 210.6461181640625
z: -0.2666076719760895
visibility: 0.9999139308929443
","x: 234.75732421875
y: 217.7519073486328
z: -0.1615348905324936
visibility: 0.9998766183853149
","x: 222.26925659179688
y: 214.814208984375
z: -0.17590449750423431
visibility: 0.9998398423194885
","x: 230.50941467285156
y: 223.56048583984375
z: -0.23839275538921356
visibility: 0.9999589323997498
","x: 226.1055908203125
y: 222.16896057128906
z: -0.24262003600597382
visibility: 0.9999531507492065
","x: 245.72547912597656
y: 259.8992919921875
z: -0.09335380047559738
visibility: 0.9999814033508301
","x: 204.42822265625
y: 258.7884521484375
z: -0.08808059990406036
visibility: 0.9999592900276184
","x: 256.1011962890625
y: 310.2196044921875
z: -0.062225591391325
visibility: 0.9953824281692505
","x: 192.8419647216797
y: 321.08917236328125
z: -0.0380646251142025
visibility: 0.9572227001190186
","x: 267.2720031738281
y: 349.4410400390625
z: -0.1746639609336853
visibility: 0.9915432333946228
","x: 179.34481811523438
y: 365.8824157714844
z: -0.13117890059947968
visibility: 0.9751307964324951
","x: 269.3887634277344
y: 361.7039794921875
z: -0.20297245681285858
visibility: 0.9791877865791321
","x: 175.62396240234375
y: 381.53179931640625
z: -0.15715357661247253
visibility: 0.9547408819198608
","x: 268.59881591796875
y: 361.3102722167969
z: -0.2376267910003662
visibility: 0.9815360307693481
","x: 176.22442626953125
y: 381.31671142578125
z: -0.19944651424884796
visibility: 0.958794116973877
","x: 267.15277099609375
y: 356.8801574707031
z: -0.19152824580669403
visibility: 0.9771602153778076
","x: 177.91844177246094
y: 376.2915344238281
z: -0.1506977081298828
visibility: 0.9528441429138184
","x: 234.6935272216797
y: 368.20672607421875
z: -0.005745724309235811
visibility: 0.9997002482414246
","x: 211.26126098632812
y: 367.8935546875
z: 0.005702212452888489
visibility: 0.9997135996818542
","x: 237.49008178710938
y: 453.06939697265625
z: -0.02395840547978878
visibility: 0.9949308037757874
","x: 210.1790771484375
y: 453.98309326171875
z: -0.0027481713332235813
visibility: 0.9928237795829773
","x: 241.37930297851562
y: 531.15673828125
z: 0.05780767276883125
visibility: 0.9953354001045227
","x: 211.09271240234375
y: 531.5767822265625
z: 0.09259206056594849
visibility: 0.9948185682296753
","x: 237.96035766601562
y: 542.653076171875
z: 0.05756735801696777
visibility: 0.9099885821342468
","x: 215.69004821777344
y: 542.02490234375
z: 0.09359399974346161
visibility: 0.9455253481864929
","x: 246.6207733154297
y: 555.8260498046875
z: -0.0626019686460495
visibility: 0.992138683795929
","x: 197.82064819335938
y: 552.1491088867188
z: -0.018831808120012283
visibility: 0.9921326041221619
",,,,,,,,,,,,,,,,,,,,,,"x: 270.36138916015625
y: 341.0274963378906
z: 0.0
","x: 267.5052185058594
y: 341.8917541503906
z: -0.00866676028817892
","x: 266.0713806152344
y: 345.1214294433594
z: -0.013614725321531296
","x: 266.2114562988281
y: 348.81915283203125
z: -0.016526145860552788
","x: 266.4251403808594
y: 351.9717712402344
z: -0.018896952271461487
","x: 272.5357971191406
y: 349.9331359863281
z: -0.016929425299167633
","x: 272.71978759765625
y: 359.78057861328125
z: -0.020659886300563812
","x: 270.87744140625
y: 364.8094482421875
z: -0.021162696182727814
","x: 268.9547119140625
y: 367.0060729980469
z: -0.02085498347878456
","x: 274.3842468261719
y: 352.53826904296875
z: -0.013456433080136776
","x: 274.1841735839844
y: 363.1013488769531
z: -0.01655411161482334
","x: 271.8392028808594
y: 367.97784423828125
z: -0.015925776213407516
","x: 269.63616943359375
y: 369.9229736328125
z: -0.015364442020654678
","x: 274.9660949707031
y: 354.80999755859375
z: -0.00995048601180315
","x: 274.6344299316406
y: 364.2012023925781
z: -0.013022287748754025
","x: 272.3636169433594
y: 368.59124755859375
z: -0.013445863500237465
","x: 270.2064514160156
y: 370.51336669921875
z: -0.013479780405759811
","x: 274.7228698730469
y: 356.81060791015625
z: -0.0068822745233774185
","x: 274.405029296875
y: 364.115966796875
z: -0.009753425605595112
","x: 272.6395263671875
y: 367.84210205078125
z: -0.010692759416997433
","x: 270.5945129394531
y: 369.4356994628906
z: -0.010917325504124165
"
21,"x: 229.04763793945312
y: 216.45925903320312
z: -0.2780172824859619
visibility: 0.9999838471412659
","x: 231.0540771484375
y: 212.22943115234375
z: -0.26372426748275757
visibility: 0.9999249577522278
","x: 232.2809600830078
y: 212.90972900390625
z: -0.2637677788734436
visibility: 0.9999229311943054
","x: 233.4857635498047
y: 213.58743286132812
z: -0.2637816071510315
visibility: 0.9999122619628906
","x: 227.33200073242188
y: 210.87860107421875
z: -0.266604483127594
visibility: 0.9999285340309143
","x: 225.9208984375
y: 210.71829223632812
z: -0.266610711812973
visibility: 0.9999253153800964
","x: 224.49220275878906
y: 210.6461181640625
z: -0.2666076719760895
visibility: 0.9999139308929443
","x: 234.75732421875
y: 217.7519073486328
z: -0.1615348905324936
visibility: 0.9998766183853149
","x: 222.26925659179688
y: 214.814208984375
z: -0.17590449750423431
visibility: 0.9998398423194885
","x: 230.50941467285156
y: 223.56048583984375
z: -0.23839275538921356
visibility: 0.9999589323997498
","x: 226.1055908203125
y: 222.16896057128906
z: -0.24262003600597382
visibility: 0.9999531507492065
","x: 245.72547912597656
y: 259.8992919921875
z: -0.09335380047559738
visibility: 0.9999814033508301
","x: 204.42822265625
y: 258.7884521484375
z: -0.08808059990406036
visibility: 0.9999592900276184
","x: 256.1011962890625
y: 310.2196044921875
z: -0.062225591391325
visibility: 0.9953824281692505
","x: 192.8419647216797
y: 321.08917236328125
z: -0.0380646251142025
visibility: 0.9572227001190186
","x: 267.2720031738281
y: 349.4410400390625
z: -0.1746639609336853
visibility: 0.9915432333946228
","x: 179.34481811523438
y: 365.8824157714844
z: -0.13117890059947968
visibility: 0.9751307964324951
","x: 269.3887634277344
y: 361.7039794921875
z: -0.20297245681285858
visibility: 0.9791877865791321
","x: 175.62396240234375
y: 381.53179931640625
z: -0.15715357661247253
visibility: 0.9547408819198608
","x: 268.59881591796875
y: 361.3102722167969
z: -0.2376267910003662
visibility: 0.9815360307693481
","x: 176.22442626953125
y: 381.31671142578125
z: -0.19944651424884796
visibility: 0.958794116973877
","x: 267.15277099609375
y: 356.8801574707031
z: -0.19152824580669403
visibility: 0.9771602153778076
","x: 177.91844177246094
y: 376.2915344238281
z: -0.1506977081298828
visibility: 0.9528441429138184
","x: 234.6935272216797
y: 368.20672607421875
z: -0.005745724309235811
visibility: 0.9997002482414246
","x: 211.26126098632812
y: 367.8935546875
z: 0.005702212452888489
visibility: 0.9997135996818542
","x: 237.49008178710938
y: 453.06939697265625
z: -0.02395840547978878
visibility: 0.9949308037757874
","x: 210.1790771484375
y: 453.98309326171875
z: -0.0027481713332235813
visibility: 0.9928237795829773
","x: 241.37930297851562
y: 531.15673828125
z: 0.05780767276883125
visibility: 0.9953354001045227
","x: 211.09271240234375
y: 531.5767822265625
z: 0.09259206056594849
visibility: 0.9948185682296753
","x: 237.96035766601562
y: 542.653076171875
z: 0.05756735801696777
visibility: 0.9099885821342468
","x: 215.69004821777344
y: 542.02490234375
z: 0.09359399974346161
visibility: 0.9455253481864929
","x: 246.6207733154297
y: 555.8260498046875
z: -0.0626019686460495
visibility: 0.992138683795929
","x: 197.82064819335938
y: 552.1491088867188
z: -0.018831808120012283
visibility: 0.9921326041221619
",,,,,,,,,,,,,,,,,,,,,,"x: 270.36138916015625
y: 341.0274963378906
z: 0.0
","x: 267.5052185058594
y: 341.8917541503906
z: -0.00866676028817892
","x: 266.0713806152344
y: 345.1214294433594
z: -0.013614725321531296
","x: 266.2114562988281
y: 348.81915283203125
z: -0.016526145860552788
","x: 266.4251403808594
y: 351.9717712402344
z: -0.018896952271461487
","x: 272.5357971191406
y: 349.9331359863281
z: -0.016929425299167633
","x: 272.71978759765625
y: 359.78057861328125
z: -0.020659886300563812
","x: 270.87744140625
y: 364.8094482421875
z: -0.021162696182727814
","x: 268.9547119140625
y: 367.0060729980469
z: -0.02085498347878456
","x: 274.3842468261719
y: 352.53826904296875
z: -0.013456433080136776
","x: 274.1841735839844
y: 363.1013488769531
z: -0.01655411161482334
","x: 271.8392028808594
y: 367.97784423828125
z: -0.015925776213407516
","x: 269.63616943359375
y: 369.9229736328125
z: -0.015364442020654678
","x: 274.9660949707031
y: 354.80999755859375
z: -0.00995048601180315
","x: 274.6344299316406
y: 364.2012023925781
z: -0.013022287748754025
","x: 272.3636169433594
