uscmakers/ReverseChoreography/data/5_tik_tok_kesha.csv
,NOSE,LEFT_EYE_INNER,LEFT_EYE,LEFT_EYE_OUTER,RIGHT_EYE_INNER,RIGHT_EYE,RIGHT_EYE_OUTER,LEFT_EAR,RIGHT_EAR,MOUTH_LEFT,MOUTH_RIGHT,LEFT_SHOULDER,RIGHT_SHOULDER,LEFT_ELBOW,RIGHT_ELBOW,LEFT_WRIST,RIGHT_WRIST,LEFT_PINKY,RIGHT_PINKY,LEFT_INDEX,RIGHT_INDEX,LEFT_THUMB,RIGHT_THUMB,LEFT_HIP,RIGHT_HIP,LEFT_KNEE,RIGHT_KNEE,LEFT_ANKLE,RIGHT_ANKLE,LEFT_HEEL,RIGHT_HEEL,LEFT_FOOT_INDEX,RIGHT_FOOT_INDEX,WRIST,THUMB_CPC,THUMB_MCP,THUMB_IP,THUMB_TIP,INDEX_FINGER_MCP,INDEX_FINGER_PIP,INDEX_FINGER_DIP,INDEX_FINGER_TIP,MIDDLE_FINGER_MCP,MIDDLE_FINGER_PIP,MIDDLE_FINGER_DIP,MIDDLE_FINGER_TIP,RING_FINGER_PIP,RING_FINGER_DIP,RING_FINGER_TIP,RING_FINGER_MCP,PINKY_MCP,PINKY_PIP,PINKY_DIP,PINKY_TIP,WRIST2,THUMB_CPC2,THUMB_MCP2,THUMB_IP2,THUMB_TIP2,INDEX_FINGER_MCP2,INDEX_FINGER_PIP2,INDEX_FINGER_DIP2,INDEX_FINGER_TIP2,MIDDLE_FINGER_MCP2,MIDDLE_FINGER_PIP2,MIDDLE_FINGER_DIP2,MIDDLE_FINGER_TIP2,RING_FINGER_PIP2,RING_FINGER_DIP2,RING_FINGER_TIP2,RING_FINGER_MCP2,PINKY_MCP2,PINKY_PIP2,PINKY_DIP2,PINKY_TIP2
0,"x: 172.65234375
y: 219.9285125732422
z: -0.28953224420547485
visibility: 0.9999949932098389
","x: 175.6709442138672
y: 214.12286376953125
z: -0.2759707272052765
visibility: 0.9999834299087524
","x: 177.0897674560547
y: 214.5540008544922
z: -0.27601325511932373
visibility: 0.9999806880950928
","x: 178.5354461669922
y: 215.039794921875
z: -0.276053249835968
visibility: 0.9999790191650391
","x: 171.31536865234375
y: 212.6115264892578
z: -0.2773800194263458
visibility: 0.9999845027923584
","x: 169.8305206298828
y: 212.076171875
z: -0.27742043137550354
visibility: 0.9999822378158569
","x: 168.50363159179688
y: 211.63479614257812
z: -0.27743151783943176
visibility: 0.9999799728393555
","x: 180.95066833496094
y: 218.9585723876953
z: -0.16772545874118805
visibility: 0.999956488609314
","x: 166.89952087402344
y: 213.9091339111328
z: -0.17579340934753418
visibility: 0.9999707937240601
","x: 175.28237915039062
y: 227.69085693359375
z: -0.24701690673828125
visibility: 0.999984860420227
","x: 169.42591857910156
y: 226.5141143798828
z: -0.24929504096508026
visibility: 0.9999860525131226
","x: 192.9480743408203
y: 263.1075439453125
z: -0.06262889504432678
visibility: 0.9999698400497437
","x: 152.9801483154297
y: 254.39303588867188
z: -0.10687907785177231
visibility: 0.9999855756759644
","x: 210.96621704101562
y: 308.673583984375
z: -0.01940339244902134
visibility: 0.9942672848701477
","x: 137.67306518554688
y: 296.69537353515625
z: -0.1024760752916336
visibility: 0.9923858642578125
","x: 234.40118408203125
y: 335.37628173828125
z: -0.13652029633522034
visibility: 0.994309663772583
","x: 116.0448226928711
y: 309.7777099609375
z: -0.24338898062705994
visibility: 0.9952038526535034
","x: 242.79441833496094
y: 342.248291015625
z: -0.15888933837413788
visibility: 0.9834073185920715
","x: 108.65554809570312
y: 320.20672607421875
z: -0.27579593658447266
visibility: 0.9891594052314758
","x: 243.58990478515625
y: 340.0669860839844
z: -0.2002309262752533
visibility: 0.9870010614395142
","x: 108.4427490234375
y: 313.30908203125
z: -0.3123513162136078
visibility: 0.9910367727279663
","x: 241.15689086914062
y: 338.10919189453125
z: -0.15729780495166779
visibility: 0.9859917759895325
","x: 111.50789642333984
y: 308.2422180175781
z: -0.26261138916015625
visibility: 0.9889112710952759
","x: 180.15548706054688
y: 368.468505859375
z: 0.02189589850604534
visibility: 0.9996104836463928
","x: 156.4869842529297
y: 366.077392578125
z: -0.021963555365800858
visibility: 0.9997681975364685
","x: 186.2640838623047
y: 450.70843505859375
z: 0.029377108439803123
visibility: 0.9931176900863647
","x: 153.34271240234375
y: 450.45758056640625
z: -0.02184501476585865
visibility: 0.9982070922851562
","x: 193.25010681152344
y: 525.9107666015625
z: 0.12706969678401947
visibility: 0.9963020086288452
","x: 154.1728973388672
y: 525.6207885742188
z: 0.08998040109872818
visibility: 0.9985021352767944
","x: 190.292236328125
y: 536.6046142578125
z: 0.12878090143203735
visibility: 0.9751850366592407
","x: 157.08868408203125
y: 533.8416137695312
z: 0.09317923337221146
visibility: 0.9599971771240234
","x: 206.2865753173828
y: 545.0026245117188
z: 0.01198519952595234
visibility: 0.9945888519287109
","x: 152.04124450683594
y: 548.9263305664062
z: -0.03099381923675537
visibility: 0.997170627117157
",,,,,,,,,,,,,,,,,,,,,,,,,,,,,,,,,,,,,,,,,,
1,"x: 160.59532165527344
y: 220.39793395996094
z: -0.2895108759403229
visibility: 0.9999940395355225
","x: 162.22084045410156
y: 214.3167724609375
z: -0.2758934795856476
visibility: 0.9999753832817078
","x: 163.46612548828125
y: 214.5897674560547
z: -0.27593791484832764
visibility: 0.9999731183052063
","x: 164.73013305664062
y: 215.0272979736328
z: -0.2759811580181122
visibility: 0.9999693036079407
","x: 158.47569274902344
y: 213.55470275878906
z: -0.27736061811447144
visibility: 0.99997878074646
","x: 157.1080322265625
y: 213.26429748535156
z: -0.2773970663547516
visibility: 0.9999771118164062
","x: 155.8060760498047
y: 213.0162811279297
z: -0.27740591764450073
visibility: 0.9999732375144958
","x: 166.42001342773438
y: 218.68223571777344
z: -0.16800549626350403
visibility: 0.9999421834945679
","x: 153.5845947265625
y: 215.08505249023438
z: -0.1757766753435135
visibility: 0.9999622106552124
","x: 162.9476776123047
y: 227.68617248535156
z: -0.2470693141222
visibility: 0.9999827146530151
","x: 158.19383239746094
y: 226.68112182617188
z: -0.24929997324943542
visibility: 0.9999844431877136
","x: 181.71148681640625
y: 255.95425415039062
z: -0.07106655836105347
visibility: 0.9999716281890869
","x: 141.2592010498047
y: 258.154541015625
z: -0.10649795830249786
visibility: 0.9999847412109375
","x: 204.48329162597656
y: 295.1614074707031
z: -0.029091160744428635
visibility: 0.9943996667861938
","x: 123.82460021972656
y: 305.006591796875
z: -0.10905536264181137
visibility: 0.9923658967018127
","x: 230.2632293701172
y: 322.3394775390625
z: -0.1365317553281784
visibility: 0.9941916465759277
","x: 108.7422866821289
y: 335.95294189453125
z: -0.23910340666770935
visibility: 0.994530439376831
","x: 239.10205078125
y: 328.7817687988281
z: -0.15889032185077667
visibility: 0.9828780889511108
","x: 104.25721740722656
y: 351.3965148925781
z: -0.26740431785583496
visibility: 0.9873647093772888
","x: 239.8025665283203
y: 327.70111083984375
z: -0.1993543654680252
visibility: 0.9866229295730591
","x: 106.01618957519531
y: 352.0469970703125
z: -0.3026905059814453
visibility: 0.9894144535064697
","x: 236.13125610351562
y: 326.1196594238281
z: -0.15713731944561005
visibility: 0.9854903817176819
","x: 107.89649963378906
y: 345.4469299316406
z: -0.25680384039878845
visibility: 0.9870190024375916
","x: 175.51560974121094
y: 368.0506591796875
z: 0.013201987370848656
visibility: 0.9996118545532227
","x: 152.8116912841797
y: 366.9864196777344
z: -0.013239840976893902
visibility: 0.9997536540031433
","x: 185.31820678710938
y: 450.64520263671875
z: 0.0011083321878686547
visibility: 0.9934927821159363
","x: 152.63812255859375
y: 450.6594543457031
z: -0.010756975039839745
visibility: 0.9980792999267578
","x: 191.84031677246094
y: 527.0112915039062
z: 0.11020885407924652
visibility: 0.9963996410369873
","x: 154.0615692138672
y: 525.6546630859375
z: 0.11825136840343475
visibility: 0.9983727931976318
","x: 188.41473388671875
y: 536.8947143554688
z: 0.11268148571252823
visibility: 0.9732855558395386
","x: 156.6212615966797
y: 534.0120849609375
z: 0.12320111691951752
visibility: 0.958244264125824
","x: 199.9069061279297
y: 549.3054809570312
z: -0.017429126426577568
visibility: 0.9946288466453552
","x: 152.04241943359375
y: 549.0606689453125
z: 0.000986486324109137
visibility: 0.9969852566719055
","x: 102.67932891845703
y: 344.3101501464844
z: 0.0
","x: 105.60961151123047
y: 345.828369140625
z: -0.0023569923359900713
","x: 107.28278350830078
y: 350.9171142578125
z: -0.0036469472106546164
","x: 108.06954193115234
y: 356.4547424316406
z: -0.004565307404845953
","x: 108.70687103271484
y: 361.0439758300781
z: -0.005173133220523596
","x: 103.17350769042969
y: 360.64984130859375
z: -0.002146604936569929
","x: 103.97073364257812
y: 369.50823974609375
z: -0.003233288647606969
","x: 105.15984344482422
y: 374.133544921875
z: -0.0033911087084561586
","x: 106.2657241821289
y: 377.33856201171875
z: -0.0031738243997097015
","x: 101.51954650878906
y: 362.266357421875
z: -0.001753040705807507
","x: 102.46565246582031
y: 371.1904296875
z: -0.0024078632704913616
","x: 103.86051177978516
y: 375.7992858886719
z: -0.002348710782825947
","x: 105.17218017578125
y: 379.2740478515625
z: -0.0022827372886240482
","x: 100.81623077392578
y: 363.0056457519531
z: -0.0016303610755130649
","x: 101.72796630859375
y: 371.1387634277344
z: -0.0026969697792083025
","x: 103.05957794189453
y: 375.4989929199219
z: -0.0030665083322674036
","x: 104.21273803710938
y: 378.6309814453125
z: -0.00320610823109746
","x: 100.71813201904297
y: 363.2657470703125
z: -0.001809734501875937
","x: 101.49408721923828
y: 370.3567810058594
z: -0.0028700041584670544
","x: 102.52330017089844
y: 374.32452392578125
z: -0.003349822945892811
","x: 103.5790023803711
y: 377.14801025390625
z: -0.0034877939615398645
",,,,,,,,,,,,,,,,,,,,,
2,"x: 160.59532165527344
y: 220.39793395996094
z: -0.2895108759403229
visibility: 0.9999940395355225
","x: 162.22084045410156
y: 214.3167724609375
z: -0.2758934795856476
visibility: 0.9999753832817078
","x: 163.46612548828125
y: 214.5897674560547
z: -0.27593791484832764
visibility: 0.9999731183052063
","x: 164.73013305664062
y: 215.0272979736328
z: -0.2759811580181122
visibility: 0.9999693036079407
","x: 158.47569274902344
y: 213.55470275878906
z: -0.27736061811447144
visibility: 0.99997878074646
","x: 157.1080322265625
y: 213.26429748535156
z: -0.2773970663547516
visibility: 0.9999771118164062
","x: 155.8060760498047
y: 213.0162811279297
z: -0.27740591764450073
visibility: 0.9999732375144958
","x: 166.42001342773438
y: 218.68223571777344
z: -0.16800549626350403
visibility: 0.9999421834945679
","x: 153.5845947265625
y: 215.08505249023438
z: -0.1757766753435135
visibility: 0.9999622106552124
","x: 162.9476776123047
y: 227.68617248535156
z: -0.2470693141222
visibility: 0.9999827146530151
","x: 158.19383239746094
y: 226.68112182617188
z: -0.24929997324943542
visibility: 0.9999844431877136
","x: 181.71148681640625
y: 255.95425415039062
z: -0.07106655836105347
visibility: 0.9999716281890869
","x: 141.2592010498047
y: 258.154541015625
z: -0.10649795830249786
visibility: 0.9999847412109375
","x: 204.48329162597656
y: 295.1614074707031
z: -0.029091160744428635
visibility: 0.9943996667861938
","x: 123.82460021972656
y: 305.006591796875
z: -0.10905536264181137
visibility: 0.9923658967018127
","x: 230.2632293701172
y: 322.3394775390625
z: -0.1365317553281784
visibility: 0.9941916465759277
","x: 108.7422866821289
y: 335.95294189453125
z: -0.23910340666770935
visibility: 0.994530439376831
","x: 239.10205078125
y: 328.7817687988281
z: -0.15889032185077667
visibility: 0.9828780889511108
","x: 104.25721740722656
y: 351.3965148925781
z: -0.26740431785583496
visibility: 0.9873647093772888
","x: 239.8025665283203
y: 327.70111083984375
z: -0.1993543654680252
visibility: 0.9866229295730591
","x: 106.01618957519531
y: 352.0469970703125
z: -0.3026905059814453
visibility: 0.9894144535064697
","x: 236.13125610351562
y: 326.1196594238281
z: -0.15713731944561005
visibility: 0.9854903817176819
","x: 107.89649963378906
y: 345.4469299316406
z: -0.25680384039878845
visibility: 0.9870190024375916
","x: 175.51560974121094
y: 368.0506591796875
z: 0.013201987370848656
visibility: 0.9996118545532227
","x: 152.8116912841797
y: 366.9864196777344
z: -0.013239840976893902
visibility: 0.9997536540031433
","x: 185.31820678710938
y: 450.64520263671875
z: 0.0011083321878686547
visibility: 0.9934927821159363
","x: 152.63812255859375
y: 450.6594543457031
z: -0.010756975039839745
visibility: 0.9980792999267578
","x: 191.84031677246094
y: 527.0112915039062
z: 0.11020885407924652
visibility: 0.9963996410369873
","x: 154.0615692138672
y: 525.6546630859375
z: 0.11825136840343475
visibility: 0.9983727931976318
","x: 188.41473388671875
y: 536.8947143554688
z: 0.11268148571252823
visibility: 0.9732855558395386
","x: 156.6212615966797
y: 534.0120849609375
z: 0.12320111691951752
visibility: 0.958244264125824
","x: 199.9069061279297
y: 549.3054809570312
z: -0.017429126426577568
visibility: 0.9946288466453552
","x: 152.04241943359375
y: 549.0606689453125
z: 0.000986486324109137
visibility: 0.9969852566719055
","x: 102.67932891845703
y: 344.3101501464844
z: 0.0
","x: 105.60961151123047
y: 345.828369140625
z: -0.0023569923359900713
","x: 107.28278350830078
y: 350.9171142578125
z: -0.0036469472106546164
","x: 108.06954193115234
y: 356.4547424316406
z: -0.004565307404845953
","x: 108.70687103271484
y: 361.0439758300781
z: -0.005173133220523596
","x: 103.17350769042969
y: 360.64984130859375
z: -0.002146604936569929
","x: 103.97073364257812
y: 369.50823974609375
z: -0.003233288647606969
","x: 105.15984344482422
y: 374.133544921875
z: -0.0033911087084561586
","x: 106.2657241821289
y: 377.33856201171875
z: -0.0031738243997097015
","x: 101.51954650878906
y: 362.266357421875
z: -0.001753040705807507
","x: 102.46565246582031
y: 371.1904296875
z: -0.0024078632704913616
","x: 103.86051177978516
y: 375.7992858886719
z: -0.002348710782825947
","x: 105.17218017578125
y: 379.2740478515625
z: -0.0022827372886240482
","x: 100.81623077392578
y: 363.0056457519531
z: -0.0016303610755130649
","x: 101.72796630859375
y: 371.1387634277344
z: -0.0026969697792083025
","x: 103.05957794189453
y: 375.4989929199219
z: -0.0030665083322674036
","x: 104.21273803710938
y: 378.6309814453125
z: -0.00320610823109746
","x: 100.71813201904297
y: 363.2657470703125
z: -0.001809734501875937
","x: 101.49408721923828
y: 370.3567810058594
z: -0.0028700041584670544
","x: 102.52330017089844
y: 374.32452392578125
z: -0.003349822945892811
","x: 103.5790023803711
y: 377.14801025390625
z: -0.0034877939615398645
",,,,,,,,,,,,,,,,,,,,,
3,"x: 156.63165283203125
y: 223.40463256835938
z: -0.2984260022640228
visibility: 0.9999931454658508
","x: 158.23997497558594
y: 216.517822265625
z: -0.28472769260406494
visibility: 0.9999688267707825
","x: 159.83607482910156
y: 216.3790740966797
z: -0.28477492928504944
visibility: 0.9999672174453735
","x: 161.38638305664062
y: 216.32904052734375
z: -0.28482142090797424
visibility: 0.999962329864502
","x: 154.19161987304688
y: 216.3798370361328
z: -0.28440061211586
visibility: 0.999973475933075
","x: 152.85244750976562
y: 216.1820831298828
z: -0.2844233512878418
visibility: 0.9999723434448242
","x: 151.54617309570312
y: 216.01992797851562
z: -0.28442996740341187
visibility: 0.9999671578407288
","x: 164.0046844482422
y: 218.99267578125
z: -0.18145574629306793
visibility: 0.9999301433563232
","x: 150.2672119140625
y: 218.84869384765625
z: -0.17941586673259735
visibility: 0.9999533891677856
","x: 159.33160400390625
y: 229.5345458984375
z: -0.25846758484840393
visibility: 0.9999807476997375
","x: 154.57269287109375
y: 229.9986572265625
z: -0.2577594816684723
visibility: 0.9999825358390808
","x: 180.6729736328125
y: 256.43011474609375
z: -0.09482060372829437
visibility: 0.9999729990959167
","x: 139.275390625
y: 264.4842529296875
z: -0.1069241315126419
visibility: 0.9999830722808838
","x: 204.6975860595703
y: 294.20068359375
z: -0.07015057653188705
visibility: 0.9946126937866211
","x: 123.58048248291016
y: 311.64630126953125
z: -0.11884695291519165
visibility: 0.9922640323638916
","x: 228.02467346191406
y: 323.7738342285156
z: -0.185993030667305
visibility: 0.994170606136322
","x: 108.5752944946289
y: 343.80914306640625
z: -0.2550410032272339
visibility: 0.9937466382980347
","x: 236.23065185546875
y: 331.1512451171875
z: -0.21296270191669464
visibility: 0.9826368689537048
","x: 104.12095642089844
y: 359.2207336425781
z: -0.28512492775917053
visibility: 0.9852997660636902
","x: 236.1873779296875
y: 330.2041931152344
z: -0.25035762786865234
visibility: 0.9864605665206909
","x: 105.95140075683594
y: 360.9130554199219
z: -0.31886014342308044
visibility: 0.9875271916389465
","x: 232.9866943359375
y: 328.2999267578125
z: -0.20469239354133606
visibility: 0.9851855635643005
","x: 107.87931823730469
y: 354.03515625
z: -0.27216988801956177
visibility: 0.9848827719688416
","x: 175.51983642578125
y: 368.7408142089844
z: 0.0071724653244018555
visibility: 0.9996050596237183
","x: 152.13206481933594
y: 368.4886474609375
z: -0.00719297444447875
visibility: 0.9997355937957764
","x: 184.89756774902344
y: 452.5859375
z: -0.006788535509258509
visibility: 0.993705153465271
","x: 152.25167846679688
y: 451.0312194824219
z: -0.025700768455863
visibility: 0.9979809522628784
","x: 191.30484008789062
y: 528.050537109375
z: 0.1037299782037735
visibility: 0.996442437171936
","x: 154.0642852783203
y: 525.64697265625
z: 0.10965421050786972
visibility: 0.9982192516326904
","x: 188.16087341308594
y: 538.710693359375
z: 0.10608086735010147
visibility: 0.971484899520874
","x: 156.6922149658203
y: 533.9812622070312
z: 0.11359260976314545
visibility: 0.9555175304412842
","x: 199.0761260986328
y: 550.7412109375
z: -0.026044685393571854
visibility: 0.9945822358131409
","x: 152.02584838867188
y: 549.68310546875
z: -0.009463325142860413
visibility: 0.9967418909072876
","x: 107.40316009521484
y: 345.515625
z: 0.0
","x: 109.79737854003906
y: 350.86505126953125
z: -0.001057272544130683
","x: 110.27606964111328
y: 357.41729736328125
z: -0.0019004594068974257
","x: 110.05472564697266
y: 363.352783203125
z: -0.0029938628431409597
","x: 110.18194580078125
y: 368.55609130859375
z: -0.004051406402140856
","x: 105.24851989746094
y: 363.09228515625
z: 0.00024293480964843184
","x: 104.80213165283203
y: 370.6434631347656
z: -0.001299783936701715
","x: 105.04080200195312
y: 375.4146728515625
z: -0.0023619739804416895
","x: 105.47860717773438
y: 379.0787048339844
z: -0.0029360961634665728
","x: 103.44596862792969
y: 362.9920654296875
z: -0.0007186177535913885
","x: 102.72062683105469
y: 370.8201599121094
z: -0.0020384457893669605
","x: 103.1880111694336
y: 376.2121887207031
z: -0.002987280022352934
","x: 103.90782928466797
y: 380.5478210449219
z: -0.0037063234485685825
","x: 102.29989624023438
y: 362.29669189453125
z: -0.002103452105075121
","x: 101.41773986816406
y: 369.671875
z: -0.0037779423873871565
","x: 101.85517883300781
y: 374.64349365234375
z: -0.004732229746878147
","x: 102.49840545654297
y: 378.5728759765625
z: -0.005352802574634552
","x: 101.66000366210938
y: 360.7540588378906
z: -0.0037625127006322145
","x: 100.54852294921875
y: 366.5710144042969
z: -0.00525224395096302
","x: 100.63626098632812
y: 370.3250427246094
z: -0.005879645235836506
","x: 101.08634948730469
y: 373.3987731933594
z: -0.006229623686522245
",,,,,,,,,,,,,,,,,,,,,
4,"x: 156.63165283203125
y: 223.40463256835938
z: -0.2984260022640228
visibility: 0.9999931454658508
","x: 158.23997497558594
y: 216.517822265625
z: -0.28472769260406494
visibility: 0.9999688267707825
","x: 159.83607482910156
y: 216.3790740966797
z: -0.28477492928504944
visibility: 0.9999672174453735
","x: 161.38638305664062
y: 216.32904052734375
z: -0.28482142090797424
visibility: 0.999962329864502
","x: 154.19161987304688
y: 216.3798370361328
z: -0.28440061211586
visibility: 0.999973475933075
","x: 152.85244750976562
y: 216.1820831298828
z: -0.2844233512878418
visibility: 0.9999723434448242
","x: 151.54617309570312
y: 216.01992797851562
z: -0.28442996740341187
visibility: 0.9999671578407288
","x: 164.0046844482422
y: 218.99267578125
z: -0.18145574629306793
visibility: 0.9999301433563232
","x: 150.2672119140625
y: 218.84869384765625
z: -0.17941586673259735
visibility: 0.9999533891677856
","x: 159.33160400390625
y: 229.5345458984375
z: -0.25846758484840393
visibility: 0.9999807476997375
","x: 154.57269287109375
y: 229.9986572265625
z: -0.2577594816684723
visibility: 0.9999825358390808
","x: 180.6729736328125
y: 256.43011474609375
z: -0.09482060372829437
visibility: 0.9999729990959167
","x: 139.275390625
y: 264.4842529296875
z: -0.1069241315126419
visibility: 0.9999830722808838
","x: 204.6975860595703
y: 294.20068359375
z: -0.07015057653188705
visibility: 0.9946126937866211
","x: 123.58048248291016
y: 311.64630126953125
z: -0.11884695291519165
visibility: 0.9922640323638916
","x: 228.02467346191406
y: 323.7738342285156
z: -0.185993030667305
visibility: 0.994170606136322
","x: 108.5752944946289
y: 343.80914306640625
z: -0.2550410032272339
visibility: 0.9937466382980347
","x: 236.23065185546875
y: 331.1512451171875
z: -0.21296270191669464
visibility: 0.9826368689537048
","x: 104.12095642089844
y: 359.2207336425781
z: -0.28512492775917053
visibility: 0.9852997660636902
","x: 236.1873779296875
y: 330.2041931152344
z: -0.25035762786865234
visibility: 0.9864605665206909
","x: 105.95140075683594
y: 360.9130554199219
z: -0.31886014342308044
visibility: 0.9875271916389465
","x: 232.9866943359375
y: 328.2999267578125
z: -0.20469239354133606
visibility: 0.9851855635643005
","x: 107.87931823730469
y: 354.03515625
z: -0.27216988801956177
visibility: 0.9848827719688416
","x: 175.51983642578125
y: 368.7408142089844
z: 0.0071724653244018555
visibility: 0.9996050596237183
","x: 152.13206481933594
y: 368.4886474609375
z: -0.00719297444447875
visibility: 0.9997355937957764
","x: 184.89756774902344
y: 452.5859375
z: -0.006788535509258509
visibility: 0.993705153465271
","x: 152.25167846679688
y: 451.0312194824219
z: -0.025700768455863
visibility: 0.9979809522628784
","x: 191.30484008789062
y: 528.050537109375
z: 0.1037299782037735
visibility: 0.996442437171936
","x: 154.0642852783203
y: 525.64697265625
z: 0.10965421050786972
visibility: 0.9982192516326904
","x: 188.16087341308594
y: 538.710693359375
z: 0.10608086735010147
visibility: 0.971484899520874
","x: 156.6922149658203
y: 533.9812622070312
z: 0.11359260976314545
visibility: 0.9555175304412842
","x: 199.0761260986328
y: 550.7412109375
z: -0.026044685393571854
visibility: 0.9945822358131409
","x: 152.02584838867188
y: 549.68310546875
z: -0.009463325142860413
visibility: 0.9967418909072876
","x: 107.40316009521484
y: 345.515625
z: 0.0
","x: 109.79737854003906
y: 350.86505126953125
z: -0.001057272544130683
","x: 110.27606964111328
y: 357.41729736328125
z: -0.0019004594068974257
","x: 110.05472564697266
y: 363.352783203125
z: -0.0029938628431409597
","x: 110.18194580078125
y: 368.55609130859375
z: -0.004051406402140856
","x: 105.24851989746094
y: 363.09228515625
z: 0.00024293480964843184
","x: 104.80213165283203
y: 370.6434631347656
z: -0.001299783936701715
","x: 105.04080200195312
y: 375.4146728515625
z: -0.0023619739804416895
","x: 105.47860717773438
y: 379.0787048339844
z: -0.0029360961634665728
","x: 103.44596862792969
y: 362.9920654296875
z: -0.0007186177535913885
","x: 102.72062683105469
y: 370.8201599121094
z: -0.0020384457893669605
","x: 103.1880111694336
y: 376.2121887207031
z: -0.002987280022352934
","x: 103.90782928466797
y: 380.5478210449219
z: -0.0037063234485685825
","x: 102.29989624023438
y: 362.29669189453125
z: -0.002103452105075121
","x: 101.41773986816406
y: 369.671875
z: -0.0037779423873871565
","x: 101.85517883300781
y: 374.64349365234375
z: -0.004732229746878147
","x: 102.49840545654297
y: 378.5728759765625
z: -0.005352802574634552
","x: 101.66000366210938
y: 360.7540588378906
z: -0.0037625127006322145
","x: 100.54852294921875
y: 366.5710144042969
z: -0.00525224395096302
","x: 100.63626098632812
y: 370.3250427246094
z: -0.005879645235836506
","x: 101.08634948730469
y: 373.3987731933594
z: -0.006229623686522245
",,,,,,,,,,,,,,,,,,,,,
5,"x: 155.70419311523438
y: 224.72410583496094
z: -0.30069461464881897
visibility: 0.9999932050704956
","x: 157.55526733398438
y: 217.79388427734375
z: -0.28822463750839233
visibility: 0.9999683499336243
","x: 159.146240234375
y: 217.587646484375
z: -0.2882715165615082
visibility: 0.9999671578407288
","x: 160.7230224609375
y: 217.41162109375
z: -0.28830215334892273
visibility: 0.999962329864502
","x: 153.60662841796875
y: 217.62081909179688
z: -0.2864993214607239
visibility: 0.9999722242355347
","x: 152.37559509277344
y: 217.3666229248047
z: -0.2865142524242401
visibility: 0.9999709725379944
","x: 151.1287841796875
y: 217.17172241210938
z: -0.2865058481693268
visibility: 0.9999649524688721
","x: 163.5078887939453
y: 219.53367614746094
z: -0.1884620487689972
visibility: 0.9999313950538635
","x: 150.15382385253906
y: 219.86114501953125
z: -0.17980453372001648
visibility: 0.9999490976333618
","x: 158.57554626464844
y: 230.52694702148438
z: -0.2618626356124878
visibility: 0.9999814629554749
","x: 153.58741760253906
y: 231.0663604736328
z: -0.25931569933891296
visibility: 0.9999826550483704
","x: 180.98460388183594
y: 256.3953857421875
z: -0.11279913038015366
visibility: 0.9999750852584839
","x: 138.72071838378906
y: 265.423828125
z: -0.09642015397548676
visibility: 0.999980628490448
","x: 204.31385803222656
y: 290.952392578125
z: -0.12099794298410416
visibility: 0.9949890971183777
","x: 123.15631103515625
y: 313.26220703125
z: -0.10008341073989868
visibility: 0.9923105239868164
","x: 222.76473999023438
y: 323.7501525878906
z: -0.2749696373939514
visibility: 0.9945401549339294
","x: 108.9198989868164
y: 345.9179382324219
z: -0.2334749400615692
visibility: 0.9935146570205688
","x: 229.8944549560547
y: 332.5675048828125
z: -0.30909863114356995
visibility: 0.9836810231208801
","x: 104.22038269042969
y: 361.2690734863281
z: -0.2628173232078552
visibility: 0.9845890402793884
","x: 227.6553955078125
y: 331.08929443359375
z: -0.34456780552864075
visibility: 0.9872625470161438
","x: 105.7115249633789
y: 362.1416931152344
z: -0.2971346378326416
visibility: 0.9868533611297607
","x: 224.9066619873047
y: 329.51324462890625
z: -0.29249805212020874
visibility: 0.9859645366668701
","x: 107.58940887451172
y: 355.7057189941406
z: -0.25054946541786194
visibility: 0.9841437339782715
","x: 175.708984375
y: 369.35552978515625
z: 3.999130967713427e-06
visibility: 0.9996177554130554
","x: 152.15093994140625
y: 369.7051696777344
z: -2.138921081495937e-05
visibility: 0.9997284412384033
","x: 184.94435119628906
y: 453.1547546386719
z: -0.01765347272157669
visibility: 0.9939888119697571
","x: 152.1498565673828
y: 451.1712341308594
z: -0.02565009333193302
visibility: 0.997974693775177
","x: 190.33856201171875
y: 527.7185668945312
z: 0.10428134351968765
visibility: 0.9964964985847473
","x: 154.43414306640625
y: 525.6710205078125
z: 0.11603640019893646
visibility: 0.9981366395950317
","x: 187.52830505371094
y: 538.1641845703125
z: 0.10772769153118134
visibility: 0.9703330993652344
","x: 157.63766479492188
y: 533.9822998046875
z: 0.12161974608898163
visibility: 0.9546331763267517
","x: 198.74404907226562
y: 550.7508544921875
z: -0.021159030497074127
visibility: 0.9945580363273621
","x: 152.03433227539062
y: 550.0205688476562
z: 0.0028463297057896852
visibility: 0.9965632557868958
","x: 110.31507873535156
y: 346.5036315917969
z: 0.0
","x: 112.15521240234375
y: 352.33465576171875
z: -0.00024719975772313774
","x: 111.62239074707031
y: 359.20184326171875
z: -0.0004536109045147896
","x: 110.28890228271484
y: 364.6643371582031
z: -0.0010118588106706738
","x: 109.48931121826172
y: 368.9613037109375
z: -0.0014376364415511489
","x: 107.0263671875
y: 363.43603515625
z: 0.0018396085361018777
","x: 105.69080352783203
y: 370.46063232421875
z: 0.0008985857130028307
","x: 105.28007507324219
y: 375.2054138183594
z: 0.0002175778936361894
","x: 105.08766174316406
y: 378.881591796875
z: -0.00010658304381649941
","x: 105.21485900878906
y: 362.72265625
z: 0.0007847865927033126
","x: 103.83734130859375
y: 370.03515625
z: 7.894429290900007e-05
","x: 103.48473358154297
y: 375.14599609375
z: -0.0005499687977135181
","x: 103.38520812988281
y: 379.3334655761719
z: -0.00102140789385885
","x: 103.87138366699219
y: 361.6131896972656
z: -0.0006513551925309002
","x: 102.33515930175781
y: 368.52899169921875
z: -0.0017187007470056415
","x: 102.0287094116211
y: 373.1058349609375
z: -0.0022858951706439257
","x: 101.95845031738281
y: 376.6334533691406
z: -0.0026188124902546406
","x: 102.87339782714844
y: 359.7991638183594
z: -0.002321080304682255
","x: 101.24781799316406
y: 365.24761962890625
z: -0.0032329303212463856
","x: 100.74394989013672
y: 368.78900146484375
z: -0.0035867325495928526
","x: 100.55345916748047
y: 371.67327880859375
z: -0.0037471994291990995
",,,,,,,,,,,,,,,,,,,,,
6,"x: 155.70419311523438
y: 224.72410583496094
z: -0.30069461464881897
visibility: 0.9999932050704956
","x: 157.55526733398438
y: 217.79388427734375
z: -0.28822463750839233
visibility: 0.9999683499336243
","x: 159.146240234375
y: 217.587646484375
z: -0.2882715165615082
visibility: 0.9999671578407288
","x: 160.7230224609375
y: 217.41162109375
z: -0.28830215334892273
visibility: 0.999962329864502
","x: 153.60662841796875
y: 217.62081909179688
z: -0.2864993214607239
visibility: 0.9999722242355347
","x: 152.37559509277344
y: 217.3666229248047
z: -0.2865142524242401
visibility: 0.9999709725379944
","x: 151.1287841796875
y: 217.17172241210938
z: -0.2865058481693268
visibility: 0.9999649524688721
","x: 163.5078887939453
y: 219.53367614746094
z: -0.1884620487689972
visibility: 0.9999313950538635
","x: 150.15382385253906
y: 219.86114501953125
z: -0.17980453372001648
visibility: 0.9999490976333618
","x: 158.57554626464844
y: 230.52694702148438
z: -0.2618626356124878
visibility: 0.9999814629554749
","x: 153.58741760253906
y: 231.0663604736328
z: -0.25931569933891296
visibility: 0.9999826550483704
","x: 180.98460388183594
y: 256.3953857421875
z: -0.11279913038015366
visibility: 0.9999750852584839
","x: 138.72071838378906
y: 265.423828125
z: -0.09642015397548676
visibility: 0.999980628490448
","x: 204.31385803222656
y: 290.952392578125
z: -0.12099794298410416
visibility: 0.9949890971183777
","x: 123.15631103515625
y: 313.26220703125
z: -0.10008341073989868
visibility: 0.9923105239868164
","x: 222.76473999023438
y: 323.7501525878906
z: -0.2749696373939514
visibility: 0.9945401549339294
","x: 108.9198989868164
y: 345.9179382324219
z: -0.2334749400615692
visibility: 0.9935146570205688
","x: 229.8944549560547
y: 332.5675048828125
z: -0.30909863114356995
visibility: 0.9836810231208801
","x: 104.22038269042969
y: 361.2690734863281
z: -0.2628173232078552
visibility: 0.9845890402793884
","x: 227.6553955078125
y: 331.08929443359375
z: -0.34456780552864075
visibility: 0.9872625470161438
","x: 105.7115249633789
y: 362.1416931152344
z: -0.2971346378326416
visibility: 0.9868533611297607
","x: 224.9066619873047
y: 329.51324462890625
z: -0.29249805212020874
visibility: 0.9859645366668701
","x: 107.58940887451172
y: 355.7057189941406
z: -0.25054946541786194
visibility: 0.9841437339782715
","x: 175.708984375
y: 369.35552978515625
z: 3.999130967713427e-06
visibility: 0.9996177554130554
","x: 152.15093994140625
y: 369.7051696777344
z: -2.138921081495937e-05
visibility: 0.9997284412384033
","x: 184.94435119628906
y: 453.1547546386719
z: -0.01765347272157669
visibility: 0.9939888119697571
","x: 152.1498565673828
y: 451.1712341308594
z: -0.02565009333193302
visibility: 0.997974693775177
","x: 190.33856201171875
y: 527.7185668945312
z: 0.10428134351968765
visibility: 0.9964964985847473
","x: 154.43414306640625
y: 525.6710205078125
z: 0.11603640019893646
visibility: 0.9981366395950317
","x: 187.52830505371094
y: 538.1641845703125
z: 0.10772769153118134
visibility: 0.9703330993652344
","x: 157.63766479492188
y: 533.9822998046875
z: 0.12161974608898163
visibility: 0.9546331763267517
","x: 198.74404907226562
y: 550.7508544921875
z: -0.021159030497074127
visibility: 0.9945580363273621
","x: 152.03433227539062
y: 550.0205688476562
z: 0.0028463297057896852
visibility: 0.9965632557868958
","x: 110.31507873535156
y: 346.5036315917969
z: 0.0
","x: 112.15521240234375
y: 352.33465576171875
z: -0.00024719975772313774
","x: 111.62239074707031
y: 359.20184326171875
z: -0.0004536109045147896
","x: 110.28890228271484
y: 364.6643371582031
z: -0.0010118588106706738
","x: 109.48931121826172
y: 368.9613037109375
z: -0.0014376364415511489
","x: 107.0263671875
y: 363.43603515625
z: 0.0018396085361018777
","x: 105.69080352783203
y: 370.46063232421875
z: 0.0008985857130028307
","x: 105.28007507324219
y: 375.2054138183594
z: 0.0002175778936361894
","x: 105.08766174316406
y: 378.881591796875
z: -0.00010658304381649941
","x: 105.21485900878906
y: 362.72265625
z: 0.0007847865927033126
","x: 103.83734130859375
y: 370.03515625
z: 7.894429290900007e-05
","x: 103.48473358154297
y: 375.14599609375
z: -0.0005499687977135181
","x: 103.38520812988281
y: 379.3334655761719
z: -0.00102140789385885
","x: 103.87138366699219
y: 361.6131896972656
z: -0.0006513551925309002
","x: 102.33515930175781
y: 368.52899169921875
z: -0.0017187007470056415
","x: 102.0287094116211
y: 373.1058349609375
z: -0.0022858951706439257
","x: 101.95845031738281
y: 376.6334533691406
z: -0.0026188124902546406
","x: 102.87339782714844
y: 359.7991638183594
z: -0.002321080304682255
","x: 101.24781799316406
y: 365.24761962890625
z: -0.0032329303212463856
","x: 100.74394989013672
y: 368.78900146484375
z: -0.0035867325495928526
","x: 100.55345916748047
y: 371.67327880859375
z: -0.0037471994291990995
",,,,,,,,,,,,,,,,,,,,,
7,"x: 155.12338256835938
y: 227.30889892578125
z: -0.2942928671836853
visibility: 0.999992311000824
","x: 157.09298706054688
y: 219.84072875976562
z: -0.2819864749908447
visibility: 0.9999635219573975
","x: 158.5749969482422
y: 219.4956817626953
z: -0.28203508257865906
visibility: 0.9999624490737915
","x: 160.01638793945312
y: 219.1361083984375
z: -0.28207844495773315
visibility: 0.9999563694000244
","x: 153.22769165039062
y: 219.7859344482422
z: -0.2797425091266632
visibility: 0.9999676942825317
","x: 152.07931518554688
y: 219.48240661621094
z: -0.27975887060165405
visibility: 0.9999668598175049
","x: 150.95736694335938
y: 219.2009735107422
z: -0.279761403799057
visibility: 0.9999594688415527
","x: 163.0310516357422
y: 220.7842254638672
z: -0.1853272020816803
visibility: 0.9999232888221741
","x: 150.21751403808594
y: 221.7306671142578
z: -0.17321816086769104
visibility: 0.9999426007270813
","x: 158.06056213378906
y: 232.51695251464844
z: -0.2562856674194336
visibility: 0.9999802112579346
","x: 152.9722900390625
y: 233.5096435546875
z: -0.2529723048210144
visibility: 0.999981164932251
","x: 180.82272338867188
y: 256.5137634277344
z: -0.09973438829183578
visibility: 0.9999762177467346
","x: 139.0390625
y: 267.89178466796875
z: -0.09749936312437057
visibility: 0.9999797940254211
","x: 203.6468505859375
y: 292.59820556640625
z: -0.07895870506763458
visibility: 0.9950652122497559
","x: 125.76985168457031
y: 314.0706481933594
z: -0.14326442778110504
visibility: 0.9917624592781067
","x: 225.31124877929688
y: 324.9295654296875
z: -0.21658310294151306
visibility: 0.9946064949035645
","x: 112.98750305175781
y: 345.96636962890625
z: -0.32670748233795166
visibility: 0.9930814504623413
","x: 232.99700927734375
y: 333.24444580078125
z: -0.24005572497844696
visibility: 0.9839078187942505
","x: 108.14006805419922
y: 360.3878479003906
z: -0.36507636308670044
visibility: 0.983910322189331
","x: 231.78070068359375
y: 332.08062744140625
z: -0.2794354259967804
visibility: 0.9874448180198669
","x: 110.10328674316406
y: 360.6906433105469
z: -0.39614051580429077
visibility: 0.9862139225006104
","x: 229.25418090820312
y: 330.329833984375
z: -0.23616325855255127
visibility: 0.9861013293266296
","x: 112.3179702758789
y: 354.99505615234375
z: -0.3444707691669464
visibility: 0.9833284020423889
","x: 175.44017028808594
y: 372.01055908203125
z: 0.004248741082847118
visibility: 0.9996277093887329
","x: 151.8268280029297
y: 372.26361083984375
z: -0.0042850179597735405
visibility: 0.9997271299362183
","x: 184.92056274414062
y: 454.39471435546875
z: -0.009329588152468204
visibility: 0.9941883683204651
","x: 151.9556884765625
y: 452.5321960449219
z: -0.027782848104834557
visibility: 0.9979884028434753
","x: 190.04150390625
y: 527.7037353515625
z: 0.10571873188018799
visibility: 0.9965200424194336
","x: 154.38714599609375
y: 525.7182006835938
z: 0.11355043947696686
visibility: 0.9980576634407043
","x: 187.07505798339844
y: 538.25927734375
z: 0.11222665011882782
visibility: 0.9698295593261719
","x: 157.70046997070312
y: 533.9855346679688
z: 0.11977943032979965
visibility: 0.9530131220817566
","x: 198.65895080566406
y: 550.6290283203125
z: -0.011927753686904907
visibility: 0.9945350885391235
","x: 151.9827423095703
y: 550.5222778320312
z: 0.0034911695402115583
visibility: 0.9964326620101929
",,,,,,,,,,,,,,,,,,,,,,,,,,,,,,,,,,,,,,,,,,
8,"x: 156.58132934570312
y: 226.6773681640625
z: -0.325442910194397
visibility: 0.9999925494194031
","x: 158.64083862304688
y: 219.482666015625
z: -0.3130643963813782
visibility: 0.9999645948410034
","x: 160.12197875976562
y: 219.23635864257812
z: -0.3130989968776703
visibility: 0.9999635815620422
","x: 161.58396911621094
y: 218.97488403320312
z: -0.3131383955478668
visibility: 0.999957799911499
","x: 154.56387329101562
y: 219.228515625
z: -0.3119051456451416
visibility: 0.9999683499336243
","x: 153.32669067382812
y: 218.89649963378906
z: -0.31193217635154724
visibility: 0.9999675750732422
","x: 152.20535278320312
y: 218.59674072265625
z: -0.3119290769100189
visibility: 0.9999602437019348
","x: 164.27236938476562
y: 220.82977294921875
z: -0.20904159545898438
visibility: 0.999926745891571
","x: 151.25192260742188
y: 221.11981201171875
z: -0.20381954312324524
visibility: 0.9999434351921082
","x: 159.58099365234375
y: 232.20838928222656
z: -0.28455981612205505
visibility: 0.9999812841415405
","x: 154.1276397705078
y: 232.8841552734375
z: -0.2830509543418884
visibility: 0.9999819993972778
","x: 181.6036834716797
y: 256.9241943359375
z: -0.11938675493001938
visibility: 0.9999780058860779
","x: 139.69705200195312
y: 266.46783447265625
z: -0.118342325091362
visibility: 0.999979555606842
","x: 204.3471221923828
y: 293.35919189453125
z: -0.09123082458972931
visibility: 0.995391845703125
","x: 126.80218505859375
y: 314.6719665527344
z: -0.1329076588153839
visibility: 0.9916549324989319
","x: 224.9486541748047
y: 330.80035400390625
z: -0.21334895491600037
visibility: 0.9948951601982117
","x: 115.04483795166016
y: 350.0306396484375
z: -0.2896652817726135
visibility: 0.9927488565444946
","x: 232.11627197265625
y: 344.057373046875
z: -0.24207857251167297
visibility: 0.9846821427345276
","x: 109.00857543945312
y: 362.20556640625
z: -0.32498329877853394
visibility: 0.9832487106323242
","x: 230.47402954101562
y: 344.6888732910156
z: -0.2811960279941559
visibility: 0.9880211353302002
","x: 110.22539520263672
y: 361.960693359375
z: -0.35948115587234497
visibility: 0.9855997562408447
","x: 227.65744018554688
y: 340.2712707519531
z: -0.23209638893604279
visibility: 0.986649215221405
","x: 113.09390258789062
y: 357.142578125
z: -0.30791640281677246
visibility: 0.9825611114501953
","x: 175.69119262695312
y: 371.79754638671875
z: 0.003288009436801076
visibility: 0.9996456503868103
","x: 152.0983123779297
y: 372.0873718261719
z: -0.0033188206143677235
visibility: 0.9997344017028809
","x: 185.90260314941406
y: 454.41162109375
z: -0.01582220010459423
visibility: 0.9945096373558044
","x: 151.91949462890625
y: 453.6967468261719
z: -0.027003109455108643
visibility: 0.998019814491272
","x: 190.06130981445312
y: 527.1785888671875
z: 0.11046861112117767
visibility: 0.996617317199707
","x: 154.2968292236328
y: 526.0809326171875
z: 0.12238068878650665
visibility: 0.9980337619781494
","x: 187.14544677734375
y: 537.300048828125
z: 0.1187482699751854
visibility: 0.9691148400306702
","x: 157.7127685546875
y: 534.1459350585938
z: 0.12941858172416687
visibility: 0.9523206949234009
","x: 198.6090087890625
y: 550.535400390625
z: -0.008455680683255196
visibility: 0.9946136474609375
","x: 151.63487243652344
y: 550.8739624023438
z: 0.011499131098389626
visibility: 0.9963669776916504
","x: 116.84447479248047
y: 348.90362548828125
z: 0.0
","x: 117.80155181884766
y: 355.00531005859375
z: -0.0020293581765145063
","x: 117.05972290039062
y: 360.13800048828125
z: -0.0036774491891264915
","x: 115.48854064941406
y: 362.9693908691406
z: -0.0055801584385335445
","x: 113.99159240722656
y: 365.3385009765625
z: -0.00738711841404438
","x: 110.614501953125
y: 365.45135498046875
z: -0.0011359394993633032
","x: 107.86428833007812
y: 372.40252685546875
z: -0.0035332338884472847
","x: 106.4972915649414
y: 376.8189697265625
z: -0.005261560901999474
","x: 105.19941711425781
y: 380.6981201171875
z: -0.006325405091047287
","x: 108.98687744140625
y: 363.35003662109375
z: -0.0022223673295229673
","x: 105.49234771728516
y: 369.2448425292969
z: -0.004233360756188631
","x: 103.42559051513672
y: 373.043212890625
z: -0.005589515436440706
","x: 101.6231460571289
y: 376.39617919921875
z: -0.006622351706027985
","x: 108.073486328125
y: 360.864990234375
z: -0.0038242696318775415
","x: 104.51307678222656
y: 364.7798156738281
z: -0.006099505815654993
","x: 102.159912109375
y: 367.16156005859375
z: -0.007384536787867546
","x: 100.07258605957031
y: 369.43841552734375
z: -0.008261426351964474
","x: 107.84811401367188
y: 357.7816467285156
z: -0.005828494671732187
","x: 104.73039245605469
y: 359.8411865234375
z: -0.0076848240569233894
","x: 102.62090301513672
y: 361.25079345703125
z: -0.008640619926154613
","x: 100.79447937011719
y: 362.7458190917969
z: -0.009296736679971218
",,,,,,,,,,,,,,,,,,,,,
9,"x: 156.58132934570312
y: 226.6773681640625
z: -0.325442910194397
visibility: 0.9999925494194031
","x: 158.64083862304688
y: 219.482666015625
z: -0.3130643963813782
visibility: 0.9999645948410034
","x: 160.12197875976562
y: 219.23635864257812
z: -0.3130989968776703
visibility: 0.9999635815620422
","x: 161.58396911621094
y: 218.97488403320312
z: -0.3131383955478668
visibility: 0.999957799911499
","x: 154.56387329101562
y: 219.228515625
z: -0.3119051456451416
visibility: 0.9999683499336243
","x: 153.32669067382812
y: 218.89649963378906
z: -0.31193217635154724
visibility: 0.9999675750732422
","x: 152.20535278320312
y: 218.59674072265625
z: -0.3119290769100189
visibility: 0.9999602437019348
","x: 164.27236938476562
y: 220.82977294921875
z: -0.20904159545898438
visibility: 0.999926745891571
","x: 151.25192260742188
y: 221.11981201171875
z: -0.20381954312324524
visibility: 0.9999434351921082
","x: 159.58099365234375
y: 232.20838928222656
z: -0.28455981612205505
visibility: 0.9999812841415405
","x: 154.1276397705078
y: 232.8841552734375
z: -0.2830509543418884
visibility: 0.9999819993972778
","x: 181.6036834716797
y: 256.9241943359375
z: -0.11938675493001938
visibility: 0.9999780058860779
","x: 139.69705200195312
y: 266.46783447265625
z: -0.118342325091362
visibility: 0.999979555606842
","x: 204.3471221923828
y: 293.35919189453125
z: -0.09123082458972931
visibility: 0.995391845703125
","x: 126.80218505859375
y: 314.6719665527344
z: -0.1329076588153839
visibility: 0.9916549324989319
","x: 224.9486541748047
y: 330.80035400390625
z: -0.21334895491600037
visibility: 0.9948951601982117
","x: 115.04483795166016
y: 350.0306396484375
z: -0.2896652817726135
visibility: 0.9927488565444946
","x: 232.11627197265625
y: 344.057373046875
z: -0.24207857251167297
visibility: 0.9846821427345276
","x: 109.00857543945312
y: 362.20556640625
z: -0.32498329877853394
visibility: 0.9832487106323242
","x: 230.47402954101562
y: 344.6888732910156
z: -0.2811960279941559
visibility: 0.9880211353302002
","x: 110.22539520263672
y: 361.960693359375
z: -0.35948115587234497
visibility: 0.9855997562408447
","x: 227.65744018554688
y: 340.2712707519531
z: -0.23209638893604279
visibility: 0.986649215221405
","x: 113.09390258789062
y: 357.142578125
z: -0.30791640281677246
visibility: 0.9825611114501953
","x: 175.69119262695312
y: 371.79754638671875
z: 0.003288009436801076
visibility: 0.9996456503868103
","x: 152.0983123779297
y: 372.0873718261719
z: -0.0033188206143677235
visibility: 0.9997344017028809
","x: 185.90260314941406
y: 454.41162109375
z: -0.01582220010459423
visibility: 0.9945096373558044
","x: 151.91949462890625
y: 453.6967468261719
z: -0.027003109455108643
visibility: 0.998019814491272
","x: 190.06130981445312
y: 527.1785888671875
z: 0.11046861112117767
visibility: 0.996617317199707
","x: 154.2968292236328
y: 526.0809326171875
z: 0.12238068878650665
visibility: 0.9980337619781494
","x: 187.14544677734375
y: 537.300048828125
z: 0.1187482699751854
visibility: 0.9691148400306702
","x: 157.7127685546875
y: 534.1459350585938
z: 0.12941858172416687
visibility: 0.9523206949234009
","x: 198.6090087890625
y: 550.535400390625
z: -0.008455680683255196
visibility: 0.9946136474609375
","x: 151.63487243652344
y: 550.8739624023438
z: 0.011499131098389626
visibility: 0.9963669776916504
","x: 116.84447479248047
y: 348.90362548828125
z: 0.0
","x: 117.80155181884766
y: 355.00531005859375
z: -0.0020293581765145063
","x: 117.05972290039062
y: 360.13800048828125
z: -0.0036774491891264915
","x: 115.48854064941406
y: 362.9693908691406
z: -0.0055801584385335445
","x: 113.99159240722656
y: 365.3385009765625
z: -0.00738711841404438
","x: 110.614501953125
y: 365.45135498046875
z: -0.0011359394993633032
","x: 107.86428833007812
y: 372.40252685546875
z: -0.0035332338884472847
","x: 106.4972915649414
y: 376.8189697265625
z: -0.005261560901999474
","x: 105.19941711425781
y: 380.6981201171875
z: -0.006325405091047287
","x: 108.98687744140625
y: 363.35003662109375
z: -0.0022223673295229673
","x: 105.49234771728516
y: 369.2448425292969
z: -0.004233360756188631
","x: 103.42559051513672
y: 373.043212890625
z: -0.005589515436440706
","x: 101.6231460571289
y: 376.39617919921875
z: -0.006622351706027985
","x: 108.073486328125
y: 360.864990234375
z: -0.0038242696318775415
","x: 104.51307678222656
y: 364.7798156738281
z: -0.006099505815654993
","x: 102.159912109375
y: 367.16156005859375
z: -0.007384536787867546
","x: 100.07258605957031
y: 369.43841552734375
z: -0.008261426351964474
","x: 107.84811401367188
y: 357.7816467285156
z: -0.005828494671732187
","x: 104.73039245605469
y: 359.8411865234375
z: -0.0076848240569233894
","x: 102.62090301513672
y: 361.25079345703125
z: -0.008640619926154613
","x: 100.79447937011719
y: 362.7458190917969
z: -0.009296736679971218
",,,,,,,,,,,,,,,,,,,,,
10,"x: 156.91738891601562
y: 221.91171264648438
z: -0.2659410238265991
visibility: 0.999993085861206
","x: 158.7267303466797
y: 214.64028930664062
z: -0.25074389576911926
visibility: 0.9999672770500183
","x: 160.39585876464844
y: 214.60873413085938
z: -0.2507936954498291
visibility: 0.9999662637710571
","x: 162.09088134765625
y: 214.6564483642578
z: -0.250808447599411
visibility: 0.9999610185623169
","x: 155.01895141601562
y: 214.2499542236328
z: -0.2514328360557556
visibility: 0.9999707341194153
","x: 153.69337463378906
y: 214.02366638183594
z: -0.25144168734550476
visibility: 0.9999698996543884
","x: 152.27151489257812
y: 213.8958740234375
z: -0.25142136216163635
visibility: 0.999963104724884
","x: 164.5226593017578
y: 217.58364868164062
z: -0.14599309861660004
visibility: 0.9999319314956665
","x: 152.2380828857422
y: 217.24851989746094
z: -0.15037116408348083
visibility: 0.9999474287033081
","x: 159.7104034423828
y: 228.2539520263672
z: -0.226311594247818
visibility: 0.9999827146530151
","x: 154.91458129882812
y: 228.7827911376953
z: -0.22747115790843964
visibility: 0.9999833106994629
","x: 181.87734985351562
y: 255.62326049804688
z: -0.07096445560455322
visibility: 0.9999794960021973
","x: 140.4888458251953
y: 262.8807678222656
z: -0.08388285338878632
visibility: 0.9999800324440002
","x: 204.99710083007812
y: 294.6667785644531
z: -0.08277785032987595
visibility: 0.9955759048461914
","x: 127.46874237060547
y: 312.7508544921875
z: -0.08942694962024689
visibility: 0.9916771650314331
","x: 222.2713165283203
y: 333.70037841796875
z: -0.2007293999195099
visibility: 0.9950813055038452
","x: 116.86827087402344
y: 350.1228332519531
z: -0.2185525894165039
visibility: 0.992425262928009
","x: 227.91114807128906
y: 347.16387939453125
z: -0.23167097568511963
visibility: 0.9852423071861267
","x: 110.46400451660156
y: 362.7266845703125
z: -0.250152051448822
visibility: 0.9825257062911987
","x: 225.06619262695312
y: 348.25146484375
z: -0.2672787308692932
visibility: 0.9884128570556641
","x: 112.06040954589844
y: 362.5549621582031
z: -0.2847267985343933
visibility: 0.9849032163619995
","x: 222.8568878173828
y: 343.732666015625
z: -0.21844258904457092
visibility: 0.9869759678840637
","x: 115.11792755126953
y: 357.8140869140625
z: -0.23561470210552216
visibility: 0.9817284941673279
","x: 177.2996368408203
y: 371.7198181152344
z: 0.007550717331469059
visibility: 0.999667763710022
","x: 154.01806640625
y: 371.78704833984375
z: -0.00757445115596056
visibility: 0.9997462034225464
","x: 187.18572998046875
y: 453.32220458984375
z: -0.008817454800009727
visibility: 0.9942343831062317
","x: 152.48892211914062
y: 453.591552734375
z: -0.02655647136271
visibility: 0.9979102611541748
","x: 190.11692810058594
y: 527.9864501953125
z: 0.0946749746799469
visibility: 0.9964471459388733
","x: 154.245849609375
y: 526.3192138671875
z: 0.09292913228273392
visibility: 0.9979149103164673
","x: 186.58883666992188
y: 540.3101806640625
z: 0.09601081162691116
visibility: 0.9693320989608765
","x: 157.6861114501953
y: 534.5783081054688
z: 0.09600991010665894
visibility: 0.9505995512008667
","x: 204.08885192871094
y: 550.0681762695312
z: -0.019284341484308243
visibility: 0.9943948984146118
","x: 151.32994079589844
y: 550.881591796875
z: -0.016846220940351486
visibility: 0.996122419834137
","x: 117.41169738769531
y: 350.7074279785156
z: 0.0
","x: 117.48346710205078
y: 359.2347412109375
z: -0.00021503341849893332
","x: 115.64533996582031
y: 366.2039794921875
z: -0.0009792714845389128
","x: 113.45452880859375
y: 370.8035583496094
z: -0.0022581492085009813
","x: 111.92693328857422
y: 374.4748229980469
z: -0.0035254834219813347
","x: 110.55115509033203
y: 366.761474609375
z: -0.0002933003706857562
","x: 107.23228454589844
y: 372.3727722167969
z: -0.002498097252100706
","x: 105.18423461914062
y: 376.04937744140625
z: -0.0039331126026809216
","x: 103.39067077636719
y: 378.96923828125
z: -0.004937576130032539
","x: 109.03850555419922
y: 363.3345031738281
z: -0.0023785019293427467
","x: 104.83434295654297
y: 367.8979187011719
z: -0.004627172835171223
","x: 102.15231323242188
y: 370.9185485839844
z: -0.005834911484271288
","x: 99.80101776123047
y: 373.48114013671875
z: -0.006847859360277653
","x: 108.32518005371094
y: 359.5467834472656
z: -0.004766110796481371
","x: 104.09161376953125
y: 362.13232421875
z: -0.007324916776269674
","x: 101.27013397216797
y: 363.8102722167969
z: -0.008375088684260845
","x: 98.8351058959961
y: 365.2154541015625
z: -0.009110699407756329
","x: 108.40217590332031
y: 355.1956787109375
z: -0.007350516971200705
","x: 104.96202087402344
y: 355.86444091796875
z: -0.009543804451823235
","x: 102.61868286132812
y: 356.3879089355469
z: -0.01038351934403181
","x: 100.5458984375
y: 356.93310546875
z: -0.010941199027001858
","x: 221.3878173828125
y: 336.0802917480469
z: 0.0
","x: 219.4158477783203
y: 341.9525451660156
z: -0.0015162103809416294
","x: 218.94378662109375
y: 347.70111083984375
z: -0.0018531474051997066
","x: 219.82107543945312
y: 352.307373046875
z: -0.002199706854298711
","x: 220.48931884765625
y: 356.023193359375
z: -0.0024022599682211876
","x: 222.7834014892578
y: 352.82940673828125
z: -4.759950388688594e-05
","x: 224.36599731445312
y: 359.7032165527344
z: -0.0007493154262192547
","x: 225.2141571044922
y: 363.21038818359375
z: -0.0009356684167869389
","x: 225.89100646972656
y: 366.0232849121094
z: -0.0008711013360880315
","x: 224.841796875
y: 351.3077087402344
z: -0.0003359107649885118
","x: 226.38458251953125
y: 357.7807312011719
z: -0.00042159974691458046
","x: 227.03871154785156
y: 361.35491943359375
z: -0.00016516521282028407
","x: 227.56820678710938
y: 364.45977783203125
z: -4.78032416140195e-05
","x: 226.3040313720703
y: 348.96441650390625
z: -0.00104660470969975
","x: 227.90280151367188
y: 354.3621826171875
z: -0.0016646160511299968
","x: 228.702392578125
y: 357.90472412109375
z: -0.0018627160461619496
","x: 229.17892456054688
y: 360.79827880859375
z: -0.0020133042708039284
","x: 227.2470245361328
y: 345.93310546875
z: -0.0020773685537278652
","x: 228.83692932128906
y: 349.78265380859375
z: -0.0029978177044540644
","x: 229.62510681152344
y: 352.480712890625
z: -0.0032851488795131445
","x: 230.1034698486328
y: 354.75262451171875
z: -0.003323501907289028
"
11,"x: 156.91738891601562
y: 221.91171264648438
z: -0.2659410238265991
visibility: 0.999993085861206
","x: 158.7267303466797
y: 214.64028930664062
z: -0.25074389576911926
visibility: 0.9999672770500183
","x: 160.39585876464844
y: 214.60873413085938
z: -0.2507936954498291
visibility: 0.9999662637710571
","x: 162.09088134765625
y: 214.6564483642578
z: -0.250808447599411
visibility: 0.9999610185623169
","x: 155.01895141601562
y: 214.2499542236328
z: -0.2514328360557556
visibility: 0.9999707341194153
","x: 153.69337463378906
y: 214.02366638183594
z: -0.25144168734550476
visibility: 0.9999698996543884
","x: 152.27151489257812
y: 213.8958740234375
z: -0.25142136216163635
visibility: 0.999963104724884
","x: 164.5226593017578
y: 217.58364868164062
z: -0.14599309861660004
visibility: 0.9999319314956665
","x: 152.2380828857422
y: 217.24851989746094
z: -0.15037116408348083
visibility: 0.9999474287033081
","x: 159.7104034423828
y: 228.2539520263672
z: -0.226311594247818
visibility: 0.9999827146530151
","x: 154.91458129882812
y: 228.7827911376953
z: -0.22747115790843964
visibility: 0.9999833106994629
","x: 181.87734985351562
y: 255.62326049804688
z: -0.07096445560455322
visibility: 0.9999794960021973
","x: 140.4888458251953
y: 262.8807678222656
z: -0.08388285338878632
visibility: 0.9999800324440002
","x: 204.99710083007812
y: 294.6667785644531
z: -0.08277785032987595
visibility: 0.9955759048461914
","x: 127.46874237060547
y: 312.7508544921875
z: -0.08942694962024689
visibility: 0.9916771650314331
","x: 222.2713165283203
y: 333.70037841796875
z: -0.2007293999195099
visibility: 0.9950813055038452
","x: 116.86827087402344
y: 350.1228332519531
z: -0.2185525894165039
visibility: 0.992425262928009
","x: 227.91114807128906
y: 347.16387939453125
z: -0.23167097568511963
visibility: 0.9852423071861267
","x: 110.46400451660156
y: 362.7266845703125
z: -0.250152051448822
visibility: 0.9825257062911987
","x: 225.06619262695312
y: 348.25146484375
z: -0.2672787308692932
visibility: 0.9884128570556641
","x: 112.06040954589844
y: 362.5549621582031
z: -0.2847267985343933
visibility: 0.9849032163619995
","x: 222.8568878173828
y: 343.732666015625
z: -0.21844258904457092
visibility: 0.9869759678840637
","x: 115.11792755126953
y: 357.8140869140625
z: -0.23561470210552216
visibility: 0.9817284941673279
","x: 177.2996368408203
y: 371.7198181152344
z: 0.007550717331469059
visibility: 0.999667763710022
","x: 154.01806640625
y: 371.78704833984375
z: -0.00757445115596056
visibility: 0.9997462034225464
","x: 187.18572998046875
y: 453.32220458984375
z: -0.008817454800009727
visibility: 0.9942343831062317
","x: 152.48892211914062
y: 453.591552734375
z: -0.02655647136271
visibility: 0.9979102611541748
","x: 190.11692810058594
y: 527.9864501953125
z: 0.0946749746799469
visibility: 0.9964471459388733
","x: 154.245849609375
y: 526.3192138671875
z: 0.09292913228273392
visibility: 0.9979149103164673
","x: 186.58883666992188
y: 540.3101806640625
z: 0.09601081162691116
visibility: 0.9693320989608765
","x: 157.6861114501953
y: 534.5783081054688
z: 0.09600991010665894
visibility: 0.9505995512008667
","x: 204.08885192871094
y: 550.0681762695312
z: -0.019284341484308243
visibility: 0.9943948984146118
","x: 151.32994079589844
y: 550.881591796875
z: -0.016846220940351486
visibility: 0.996122419834137
","x: 117.41169738769531
y: 350.7074279785156
z: 0.0
","x: 117.48346710205078
y: 359.2347412109375
z: -0.00021503341849893332
","x: 115.64533996582031
y: 366.2039794921875
z: -0.0009792714845389128
","x: 113.45452880859375
y: 370.8035583496094
z: -0.0022581492085009813
","x: 111.92693328857422
y: 374.4748229980469
z: -0.0035254834219813347
","x: 110.55115509033203
y: 366.761474609375
z: -0.0002933003706857562
","x: 107.23228454589844
y: 372.3727722167969
z: -0.002498097252100706
","x: 105.18423461914062
y: 376.04937744140625
z: -0.0039331126026809216
","x: 103.39067077636719
y: 378.96923828125
z: -0.004937576130032539
","x: 109.03850555419922
y: 363.3345031738281
z: -0.0023785019293427467
","x: 104.83434295654297
y: 367.8979187011719
z: -0.004627172835171223
","x: 102.15231323242188
y: 370.9185485839844
z: -0.005834911484271288
","x: 99.80101776123047
y: 373.48114013671875
z: -0.006847859360277653
","x: 108.32518005371094
y: 359.5467834472656
z: -0.004766110796481371
","x: 104.09161376953125
y: 362.13232421875
z: -0.007324916776269674
","x: 101.27013397216797
y: 363.8102722167969
z: -0.008375088684260845
","x: 98.8351058959961
y: 365.2154541015625
z: -0.009110699407756329
","x: 108.40217590332031
y: 355.1956787109375
z: -0.007350516971200705
","x: 104.96202087402344
y: 355.86444091796875
z: -0.009543804451823235
","x: 102.61868286132812
y: 356.3879089355469
z: -0.01038351934403181
","x: 100.5458984375
y: 356.93310546875
z: -0.010941199027001858
","x: 221.3878173828125
y: 336.0802917480469
z: 0.0
","x: 219.4158477783203
y: 341.9525451660156
z: -0.0015162103809416294
","x: 218.94378662109375
y: 347.70111083984375
z: -0.0018531474051997066
","x: 219.82107543945312
y: 352.307373046875
z: -0.002199706854298711
","x: 220.48931884765625
y: 356.023193359375
z: -0.0024022599682211876
","x: 222.7834014892578
y: 352.82940673828125
z: -4.759950388688594e-05
","x: 224.36599731445312
y: 359.7032165527344
z: -0.0007493154262192547
","x: 225.2141571044922
y: 363.21038818359375
z: -0.0009356684167869389
","x: 225.89100646972656
y: 366.0232849121094
z: -0.0008711013360880315
","x: 224.841796875
y: 351.3077087402344
z: -0.0003359107649885118
","x: 226.38458251953125
y: 357.7807312011719
z: -0.00042159974691458046
","x: 227.03871154785156
y: 361.35491943359375
z: -0.00016516521282028407
","x: 227.56820678710938
y: 364.45977783203125
z: -4.78032416140195e-05
","x: 226.3040313720703
y: 348.96441650390625
z: -0.00104660470969975
","x: 227.90280151367188
y: 354.3621826171875
z: -0.0016646160511299968
","x: 228.702392578125
y: 357.90472412109375
z: -0.0018627160461619496
","x: 229.17892456054688
y: 360.79827880859375
z: -0.0020133042708039284
","x: 227.2470245361328
y: 345.93310546875
z: -0.0020773685537278652
","x: 228.83692932128906
y: 349.78265380859375
z: -0.0029978177044540644
","x: 229.62510681152344
y: 352.480712890625
z: -0.0032851488795131445
","x: 230.1034698486328
y: 354.75262451171875
z: -0.003323501907289028
"
12,"x: 156.91738891601562
y: 221.91171264648438
z: -0.2659410238265991
visibility: 0.999993085861206
","x: 158.7267303466797
y: 214.64028930664062
z: -0.25074389576911926
visibility: 0.9999672770500183
","x: 160.39585876464844
y: 214.60873413085938
z: -0.2507936954498291
visibility: 0.9999662637710571
","x: 162.09088134765625
y: 214.6564483642578
z: -0.250808447599411
visibility: 0.9999610185623169
","x: 155.01895141601562
y: 214.2499542236328
z: -0.2514328360557556
visibility: 0.9999707341194153
","x: 153.69337463378906
y: 214.02366638183594
z: -0.25144168734550476
visibility: 0.9999698996543884
","x: 152.27151489257812
y: 213.8958740234375
z: -0.25142136216163635
visibility: 0.999963104724884
","x: 164.5226593017578
y: 217.58364868164062
z: -0.14599309861660004
visibility: 0.9999319314956665
","x: 152.2380828857422
y: 217.24851989746094
z: -0.15037116408348083
visibility: 0.9999474287033081
","x: 159.7104034423828
y: 228.2539520263672
z: -0.226311594247818
visibility: 0.9999827146530151
","x: 154.91458129882812
y: 228.7827911376953
z: -0.22747115790843964
visibility: 0.9999833106994629
","x: 181.87734985351562
y: 255.62326049804688
z: -0.07096445560455322
visibility: 0.9999794960021973
","x: 140.4888458251953
y: 262.8807678222656
z: -0.08388285338878632
visibility: 0.9999800324440002
","x: 204.99710083007812
y: 294.6667785644531
z: -0.08277785032987595
visibility: 0.9955759048461914
","x: 127.46874237060547
y: 312.7508544921875
z: -0.08942694962024689
visibility: 0.9916771650314331
","x: 222.2713165283203
y: 333.70037841796875
z: -0.2007293999195099
visibility: 0.9950813055038452
","x: 116.86827087402344
y: 350.1228332519531
z: -0.2185525894165039
visibility: 0.992425262928009
","x: 227.91114807128906
y: 347.16387939453125
z: -0.23167097568511963
visibility: 0.9852423071861267
","x: 110.46400451660156
y: 362.7266845703125
z: -0.250152051448822
visibility: 0.9825257062911987
","x: 225.06619262695312
y: 348.25146484375
z: -0.2672787308692932
visibility: 0.9884128570556641
","x: 112.06040954589844
y: 362.5549621582031
z: -0.2847267985343933
visibility: 0.9849032163619995
","x: 222.8568878173828
y: 343.732666015625
z: -0.21844258904457092
visibility: 0.9869759678840637
","x: 115.11792755126953
y: 357.8140869140625
z: -0.23561470210552216
visibility: 0.9817284941673279
","x: 177.2996368408203
y: 371.7198181152344
z: 0.007550717331469059
visibility: 0.999667763710022
","x: 154.01806640625
y: 371.78704833984375
z: -0.00757445115596056
visibility: 0.9997462034225464
","x: 187.18572998046875
y: 453.32220458984375
z: -0.008817454800009727
visibility: 0.9942343831062317
","x: 152.48892211914062
y: 453.591552734375
z: -0.02655647136271
visibility: 0.9979102611541748
","x: 190.11692810058594
y: 527.9864501953125
z: 0.0946749746799469
visibility: 0.9964471459388733
","x: 154.245849609375
y: 526.3192138671875
z: 0.09292913228273392
visibility: 0.9979149103164673
","x: 186.58883666992188
y: 540.3101806640625
z: 0.09601081162691116
visibility: 0.9693320989608765
","x: 157.6861114501953
y: 534.5783081054688
z: 0.09600991010665894
visibility: 0.9505995512008667
","x: 204.08885192871094
y: 550.0681762695312
z: -0.019284341484308243
visibility: 0.9943948984146118
","x: 151.32994079589844
y: 550.881591796875
z: -0.016846220940351486
visibility: 0.996122419834137
","x: 117.41169738769531
y: 350.7074279785156
z: 0.0
","x: 117.48346710205078
y: 359.2347412109375
z: -0.00021503341849893332
","x: 115.64533996582031
y: 366.2039794921875
z: -0.0009792714845389128
","x: 113.45452880859375
y: 370.8035583496094
z: -0.0022581492085009813
","x: 111.92693328857422
y: 374.4748229980469
z: -0.0035254834219813347
","x: 110.55115509033203
y: 366.761474609375
z: -0.0002933003706857562
","x: 107.23228454589844
y: 372.3727722167969
z: -0.002498097252100706
","x: 105.18423461914062
y: 376.04937744140625
z: -0.0039331126026809216
","x: 103.39067077636719
y: 378.96923828125
z: -0.004937576130032539
","x: 109.03850555419922
y: 363.3345031738281
z: -0.0023785019293427467
","x: 104.83434295654297
y: 367.8979187011719
z: -0.004627172835171223
","x: 102.15231323242188
y: 370.9185485839844
z: -0.005834911484271288
","x: 99.80101776123047
y: 373.48114013671875
z: -0.006847859360277653
","x: 108.32518005371094
y: 359.5467834472656
z: -0.004766110796481371
","x: 104.09161376953125
y: 362.13232421875
z: -0.007324916776269674
","x: 101.27013397216797
y: 363.8102722167969
z: -0.008375088684260845
","x: 98.8351058959961
y: 365.2154541015625
z: -0.009110699407756329
","x: 108.40217590332031
y: 355.1956787109375
z: -0.007350516971200705
","x: 104.96202087402344
y: 355.86444091796875
z: -0.009543804451823235
","x: 102.61868286132812
y: 356.3879089355469
z: -0.01038351934403181
","x: 100.5458984375
y: 356.93310546875
z: -0.010941199027001858
","x: 221.3878173828125
y: 336.0802917480469
z: 0.0
","x: 219.4158477783203
y: 341.9525451660156
z: -0.0015162103809416294
","x: 218.94378662109375
y: 347.70111083984375
z: -0.0018531474051997066
","x: 219.82107543945312
y: 352.307373046875
z: -0.002199706854298711
","x: 220.48931884765625
y: 356.023193359375
z: -0.0024022599682211876
","x: 222.7834014892578
y: 352.82940673828125
z: -4.759950388688594e-05
","x: 224.36599731445312
y: 359.7032165527344
z: -0.0007493154262192547
","x: 225.2141571044922
y: 363.21038818359375
z: -0.0009356684167869389
","x: 225.89100646972656
y: 366.0232849121094
z: -0.0008711013360880315
","x: 224.841796875
y: 351.3077087402344
z: -0.0003359107649885118
","x: 226.38458251953125
y: 357.7807312011719
z: -0.00042159974691458046
","x: 227.03871154785156
y: 361.35491943359375
z: -0.00016516521282028407
","x: 227.56820678710938
y: 364.45977783203125
z: -4.78032416140195e-05
","x: 226.3040313720703
y: 348.96441650390625
z: -0.00104660470969975
","x: 227.90280151367188
y: 354.3621826171875
z: -0.0016646160511299968
","x: 228.702392578125
y: 357.90472412109375
z: -0.0018627160461619496
","x: 229.17892456054688
y: 360.79827880859375
z: -0.0020133042708039284
","x: 227.2470245361328
y: 345.93310546875
z: -0.0020773685537278652
","x: 228.83692932128906
y: 349.78265380859375
z: -0.0029978177044540644
","x: 229.62510681152344
y: 352.480712890625
z: -0.0032851488795131445
","x: 230.1034698486328
y: 354.75262451171875
z: -0.003323501907289028
"
13,"x: 165.76116943359375
y: 216.7901611328125
z: -0.2331829071044922
visibility: 0.9999933242797852
","x: 167.86178588867188
y: 210.53611755371094
z: -0.22008581459522247
visibility: 0.9999688267707825
","x: 169.50381469726562
y: 210.68902587890625
z: -0.22011883556842804
visibility: 0.9999676942825317
","x: 171.16363525390625
y: 210.91246032714844
z: -0.22009488940238953
visibility: 0.9999627470970154
","x: 163.75697326660156
y: 210.25469970703125
z: -0.2182081937789917
visibility: 0.9999719858169556
","x: 162.4141082763672
y: 210.2266845703125
z: -0.21822544932365417
visibility: 0.9999710917472839
","x: 161.1317901611328
y: 210.31454467773438
z: -0.218227818608284
visibility: 0.9999646544456482
","x: 174.2347869873047
y: 214.81008911132812
z: -0.12588974833488464
visibility: 0.9999330639839172
","x: 161.36801147460938
y: 214.2613067626953
z: -0.11939653009176254
visibility: 0.9999492168426514
","x: 168.662109375
y: 223.8620147705078
z: -0.19758516550064087
visibility: 0.9999834895133972
","x: 163.7366943359375
y: 224.06187438964844
z: -0.19554397463798523
visibility: 0.9999840259552002
","x: 190.33970642089844
y: 255.07745361328125
z: -0.0568699836730957
visibility: 0.9999801516532898
","x: 149.2513427734375
y: 257.3607177734375
z: -0.06091253086924553
visibility: 0.999980628490448
","x: 208.21148681640625
y: 295.7171325683594
z: -0.07196412980556488
visibility: 0.9954652786254883
","x: 132.50082397460938
y: 310.745361328125
z: -0.05834837630391121
visibility: 0.9918031692504883
","x: 220.63560485839844
y: 336.9981689453125
z: -0.20583483576774597
visibility: 0.9951175451278687
","x: 118.65226745605469
y: 345.6719970703125
z: -0.17708177864551544
visibility: 0.992570698261261
","x: 222.77261352539062
y: 351.9973449707031
z: -0.23777401447296143
visibility: 0.9855564832687378
","x: 112.4737777709961
y: 357.73931884765625
z: -0.20670795440673828
visibility: 0.982891321182251
","x: 220.25674438476562
y: 351.9495849609375
z: -0.26948612928390503
visibility: 0.9885682463645935
","x: 113.3415756225586
y: 356.9256286621094
z: -0.23972241580486298
visibility: 0.9851769208908081
","x: 219.07479858398438
y: 346.51373291015625
z: -0.22144396603107452
visibility: 0.9870492219924927
","x: 116.197265625
y: 352.599365234375
z: -0.19343332946300507
visibility: 0.9820771813392639
","x: 183.56228637695312
y: 371.6759948730469
z: 0.01245137955993414
visibility: 0.99969083070755
","x: 160.8485107421875
y: 371.5527648925781
z: -0.012547925114631653
visibility: 0.9997603893280029
","x: 188.22657775878906
y: 452.87359619140625
z: 0.017103660851716995
visibility: 0.9934240579605103
","x: 155.00344848632812
y: 453.15924072265625
z: -0.017231203615665436
visibility: 0.9978302121162415
","x: 190.19900512695312
y: 528.6144409179688
z: 0.10534048080444336
visibility: 0.9960977435112
","x: 154.2615966796875
y: 526.3118286132812
z: 0.0940440222620964
visibility: 0.9978026151657104
","x: 186.4029998779297
y: 541.6710205078125
z: 0.10626403242349625
visibility: 0.9692378044128418
","x: 157.6522216796875
y: 534.5828857421875
z: 0.09680116921663284
visibility: 0.948822021484375
","x: 206.85696411132812
y: 549.8421630859375
z: 0.009556048549711704
visibility: 0.9940564632415771
","x: 151.336181640625
y: 550.9271850585938
z: -0.0037100096233189106
visibility: 0.9959133863449097
","x: 119.40750122070312
y: 344.774658203125
z: 0.0
","x: 119.08078002929688
y: 351.42144775390625
z: -0.0018118297448381782
","x: 116.8522720336914
y: 357.4117431640625
z: -0.0037017581053078175
","x: 114.88695526123047
y: 361.8568420410156
z: -0.005917584523558617
","x: 113.49349975585938
y: 366.2539367675781
z: -0.008111566305160522
","x: 111.29498291015625
y: 356.1540222167969
z: -0.00258003082126379
","x: 106.83663940429688
y: 359.50994873046875
z: -0.005531894508749247
","x: 104.45272064208984
y: 361.4869384765625
z: -0.0073695555329322815
","x: 102.42839813232422
y: 363.1713562011719
z: -0.008578658103942871
","x: 110.87857818603516
y: 353.3443908691406
z: -0.004084030631929636
","x: 106.16645050048828
y: 354.87005615234375
z: -0.007072786334902048
","x: 103.42008209228516
y: 355.8585205078125
z: -0.008524862118065357
","x: 101.10224914550781
y: 356.7923278808594
z: -0.009547995403409004
","x: 111.2587661743164
y: 350.510986328125
z: -0.005957119166851044
","x: 107.51371765136719
y: 350.8908386230469
z: -0.009113235399127007
","x: 105.27253723144531
y: 351.29693603515625
z: -0.010181576944887638
","x: 103.31355285644531
y: 351.8180847167969
z: -0.010764568112790585
","x: 112.2735366821289
y: 347.9052734375
z: -0.00815350841730833
","x: 109.28384399414062
y: 347.8199462890625
z: -0.01077962201088667
","x: 107.36294555664062
y: 348.1943054199219
z: -0.011681938543915749
","x: 105.6849365234375
y: 348.635009765625
z: -0.012164179235696793
","x: 218.35252380371094
y: 342.09783935546875
z: 0.0
","x: 215.8458709716797
y: 345.262939453125
z: -0.0022270972840487957
","x: 214.29080200195312
y: 349.4931335449219
z: -0.0030787568539381027
","x: 214.2423095703125
y: 353.28399658203125
z: -0.0040465774945914745
","x: 214.9037628173828
y: 355.7699890136719
z: -0.004846177529543638
","x: 217.09877014160156
y: 357.4739074707031
z: -0.0004985554260201752
","x: 217.26495361328125
y: 363.90289306640625
z: -0.001739769708365202
","x: 217.29957580566406
y: 366.8060302734375
z: -0.002423773752525449
","x: 217.2944793701172
y: 368.7032775878906
z: -0.0027207122184336185
","x: 218.99942016601562
y: 357.15081787109375
z: -0.0007087500998750329
","x: 219.8894805908203
y: 363.9952392578125
z: -0.0014099751133471727
","x: 219.86744689941406
y: 366.36956787109375
z: -0.0017134769586846232
","x: 219.6715850830078
y: 367.3531799316406
z: -0.001852278015576303
","x: 220.5508575439453
y: 355.49053955078125
z: -0.0014504548162221909
","x: 221.5768585205078
y: 360.3642272949219
z: -0.002523263683542609
","x: 221.5615692138672
y: 360.92352294921875
z: -0.002784639596939087
","x: 221.28150939941406
y: 360.31414794921875
z: -0.002714766887947917
","x: 221.87091064453125
y: 352.77325439453125
z: -0.00263076345436275
","x: 222.7391357421875
y: 356.16778564453125
z: -0.0037296051159501076
","x: 222.84976196289062
y: 356.8648681640625
z: -0.004042222164571285
","x: 222.66812133789062
y: 356.5758972167969
z: -0.003951312508434057
"
14,"x: 165.76116943359375
y: 216.7901611328125
z: -0.2331829071044922
visibility: 0.9999933242797852
","x: 167.86178588867188
y: 210.53611755371094
z: -0.22008581459522247
visibility: 0.9999688267707825
","x: 169.50381469726562
y: 210.68902587890625
z: -0.22011883556842804
visibility: 0.9999676942825317
","x: 171.16363525390625
y: 210.91246032714844
z: -0.22009488940238953
visibility: 0.9999627470970154
","x: 163.75697326660156
y: 210.25469970703125
z: -0.2182081937789917
visibility: 0.9999719858169556
","x: 162.4141082763672
y: 210.2266845703125
z: -0.21822544932365417
visibility: 0.9999710917472839
","x: 161.1317901611328
y: 210.31454467773438
z: -0.218227818608284
visibility: 0.9999646544456482
","x: 174.2347869873047
y: 214.81008911132812
z: -0.12588974833488464
visibility: 0.9999330639839172
","x: 161.36801147460938
y: 214.2613067626953
z: -0.11939653009176254
visibility: 0.9999492168426514
","x: 168.662109375
y: 223.8620147705078
z: -0.19758516550064087
visibility: 0.9999834895133972
","x: 163.7366943359375
y: 224.06187438964844
z: -0.19554397463798523
visibility: 0.9999840259552002
","x: 190.33970642089844
y: 255.07745361328125
z: -0.0568699836730957
visibility: 0.9999801516532898
","x: 149.2513427734375
y: 257.3607177734375
z: -0.06091253086924553
visibility: 0.999980628490448
","x: 208.21148681640625
y: 295.7171325683594
z: -0.07196412980556488
visibility: 0.9954652786254883
","x: 132.50082397460938
y: 310.745361328125
z: -0.05834837630391121
visibility: 0.9918031692504883
","x: 220.63560485839844
y: 336.9981689453125
z: -0.20583483576774597
visibility: 0.9951175451278687
","x: 118.65226745605469
y: 345.6719970703125
z: -0.17708177864551544
visibility: 0.992570698261261
","x: 222.77261352539062
y: 351.9973449707031
z: -0.23777401447296143
visibility: 0.9855564832687378
","x: 112.4737777709961
y: 357.73931884765625
z: -0.20670795440673828
visibility: 0.982891321182251
","x: 220.25674438476562
y: 351.9495849609375
z: -0.26948612928390503
visibility: 0.9885682463645935
","x: 113.3415756225586
y: 356.9256286621094
z: -0.23972241580486298
visibility: 0.9851769208908081
","x: 219.07479858398438
y: 346.51373291015625
z: -0.22144396603107452
visibility: 0.9870492219924927
","x: 116.197265625
y: 352.599365234375
z: -0.19343332946300507
visibility: 0.9820771813392639
","x: 183.56228637695312
y: 371.6759948730469
z: 0.01245137955993414
visibility: 0.99969083070755
","x: 160.8485107421875
y: 371.5527648925781
z: -0.012547925114631653
visibility: 0.9997603893280029
","x: 188.22657775878906
y: 452.87359619140625
z: 0.017103660851716995
visibility: 0.9934240579605103
","x: 155.00344848632812
y: 453.15924072265625
z: -0.017231203615665436
visibility: 0.9978302121162415
","x: 190.19900512695312
y: 528.6144409179688
z: 0.10534048080444336
visibility: 0.9960977435112
","x: 154.2615966796875
y: 526.3118286132812
z: 0.0940440222620964
visibility: 0.9978026151657104
","x: 186.4029998779297
y: 541.6710205078125
z: 0.10626403242349625
visibility: 0.9692378044128418
","x: 157.6522216796875
y: 534.5828857421875
z: 0.09680116921663284
visibility: 0.948822021484375
","x: 206.85696411132812
y: 549.8421630859375
z: 0.009556048549711704
visibility: 0.9940564632415771
","x: 151.336181640625
y: 550.9271850585938
z: -0.0037100096233189106
visibility: 0.9959133863449097
","x: 119.40750122070312
y: 344.774658203125
z: 0.0
","x: 119.08078002929688
y: 351.42144775390625
z: -0.0018118297448381782
","x: 116.8522720336914
y: 357.4117431640625
z: -0.0037017581053078175
","x: 114.88695526123047
y: 361.8568420410156
z: -0.005917584523558617
","x: 113.49349975585938
y: 366.2539367675781
z: -0.008111566305160522
","x: 111.29498291015625
y: 356.1540222167969
z: -0.00258003082126379
","x: 106.83663940429688
y: 359.50994873046875
z: -0.005531894508749247
","x: 104.45272064208984
y: 361.4869384765625
z: -0.0073695555329322815
","x: 102.42839813232422
y: 363.1713562011719
z: -0.008578658103942871
","x: 110.87857818603516
y: 353.3443908691406
z: -0.004084030631929636
","x: 106.16645050048828
y: 354.87005615234375
z: -0.007072786334902048
","x: 103.42008209228516
y: 355.8585205078125
z: -0.008524862118065357
","x: 101.10224914550781
y: 356.7923278808594
z: -0.009547995403409004
","x: 111.2587661743164
y: 350.510986328125
z: -0.005957119166851044
","x: 107.51371765136719
y: 350.8908386230469
z: -0.009113235399127007
","x: 105.27253723144531
y: 351.29693603515625
z: -0.010181576944887638
","x: 103.31355285644531
y: 351.8180847167969
z: -0.010764568112790585
","x: 112.2735366821289
y: 347.9052734375
z: -0.00815350841730833
","x: 109.28384399414062
y: 347.8199462890625
z: -0.01077962201088667
","x: 107.36294555664062
y: 348.1943054199219
z: -0.011681938543915749
","x: 105.6849365234375
y: 348.635009765625
z: -0.012164179235696793
","x: 218.35252380371094
y: 342.09783935546875
z: 0.0
","x: 215.8458709716797
y: 345.262939453125
z: -0.0022270972840487957
","x: 214.29080200195312
y: 349.4931335449219
z: -0.0030787568539381027
","x: 214.2423095703125
y: 353.28399658203125
z: -0.0040465774945914745
","x: 214.9037628173828
y: 355.7699890136719
z: -0.004846177529543638
","x: 217.09877014160156
y: 357.4739074707031
z: -0.0004985554260201752
","x: 217.26495361328125
y: 363.90289306640625
z: -0.001739769708365202
","x: 217.29957580566406
y: 366.8060302734375
z: -0.002423773752525449
","x: 217.2944793701172
y: 368.7032775878906
z: -0.0027207122184336185
","x: 218.99942016601562
y: 357.15081787109375
z: -0.0007087500998750329
","x: 219.8894805908203
y: 363.9952392578125
z: -0.0014099751133471727
","x: 219.86744689941406
y: 366.36956787109375
z: -0.0017134769586846232
","x: 219.6715850830078
y: 367.3531799316406
z: -0.001852278015576303
","x: 220.5508575439453
y: 355.49053955078125
z: -0.0014504548162221909
","x: 221.5768585205078
y: 360.3642272949219
z: -0.002523263683542609
","x: 221.5615692138672
y: 360.92352294921875
z: -0.002784639596939087
","x: 221.28150939941406
y: 360.31414794921875
z: -0.002714766887947917
","x: 221.87091064453125
y: 352.77325439453125
z: -0.00263076345436275
","x: 222.7391357421875
y: 356.16778564453125
z: -0.0037296051159501076
","x: 222.84976196289062
y: 356.8648681640625
z: -0.004042222164571285
","x: 222.66812133789062
y: 356.5758972167969
z: -0.003951312508434057
"
15,"x: 165.76116943359375
y: 216.7901611328125
z: -0.2331829071044922
visibility: 0.9999933242797852
","x: 167.86178588867188
y: 210.53611755371094
z: -0.22008581459522247
visibility: 0.9999688267707825
","x: 169.50381469726562
y: 210.68902587890625
z: -0.22011883556842804
visibility: 0.9999676942825317
","x: 171.16363525390625
y: 210.91246032714844
z: -0.22009488940238953
visibility: 0.9999627470970154
","x: 163.75697326660156
y: 210.25469970703125
z: -0.2182081937789917
visibility: 0.9999719858169556
","x: 162.4141082763672
y: 210.2266845703125
z: -0.21822544932365417
visibility: 0.9999710917472839
","x: 161.1317901611328
y: 210.31454467773438
z: -0.218227818608284
visibility: 0.9999646544456482
","x: 174.2347869873047
y: 214.81008911132812
z: -0.12588974833488464
visibility: 0.9999330639839172
","x: 161.36801147460938
y: 214.2613067626953
z: -0.11939653009176254
visibility: 0.9999492168426514
","x: 168.662109375
y: 223.8620147705078
z: -0.19758516550064087
visibility: 0.9999834895133972
","x: 163.7366943359375
y: 224.06187438964844
z: -0.19554397463798523
visibility: 0.9999840259552002
","x: 190.33970642089844
y: 255.07745361328125
z: -0.0568699836730957
visibility: 0.9999801516532898
","x: 149.2513427734375
y: 257.3607177734375
z: -0.06091253086924553
visibility: 0.999980628490448
","x: 208.21148681640625
y: 295.7171325683594
z: -0.07196412980556488
visibility: 0.9954652786254883
","x: 132.50082397460938
y: 310.745361328125
z: -0.05834837630391121
visibility: 0.9918031692504883
","x: 220.63560485839844
y: 336.9981689453125
z: -0.20583483576774597
visibility: 0.9951175451278687
","x: 118.65226745605469
y: 345.6719970703125
z: -0.17708177864551544
visibility: 0.992570698261261
","x: 222.77261352539062
y: 351.9973449707031
z: -0.23777401447296143
visibility: 0.9855564832687378
","x: 112.4737777709961
y: 357.73931884765625
z: -0.20670795440673828
visibility: 0.982891321182251
","x: 220.25674438476562
y: 351.9495849609375
z: -0.26948612928390503
visibility: 0.9885682463645935
","x: 113.3415756225586
y: 356.9256286621094
z: -0.23972241580486298
visibility: 0.9851769208908081
","x: 219.07479858398438
y: 346.51373291015625
z: -0.22144396603107452
visibility: 0.9870492219924927
","x: 116.197265625
y: 352.599365234375
z: -0.19343332946300507
visibility: 0.9820771813392639
","x: 183.56228637695312
y: 371.6759948730469
z: 0.01245137955993414
visibility: 0.99969083070755
","x: 160.8485107421875
y: 371.5527648925781
z: -0.012547925114631653
visibility: 0.9997603893280029
","x: 188.22657775878906
y: 452.87359619140625
z: 0.017103660851716995
visibility: 0.9934240579605103
","x: 155.00344848632812
y: 453.15924072265625
z: -0.017231203615665436
visibility: 0.9978302121162415
","x: 190.19900512695312
y: 528.6144409179688
z: 0.10534048080444336
visibility: 0.9960977435112
","x: 154.2615966796875
y: 526.3118286132812
z: 0.0940440222620964
visibility: 0.9978026151657104
","x: 186.4029998779297
y: 541.6710205078125
z: 0.10626403242349625
visibility: 0.9692378044128418
","x: 157.6522216796875
y: 534.5828857421875
z: 0.09680116921663284
visibility: 0.948822021484375
","x: 206.85696411132812
y: 549.8421630859375
z: 0.009556048549711704
visibility: 0.9940564632415771
","x: 151.336181640625
y: 550.9271850585938
z: -0.0037100096233189106
visibility: 0.9959133863449097
","x: 119.40750122070312
y: 344.774658203125
z: 0.0
","x: 119.08078002929688
y: 351.42144775390625
z: -0.0018118297448381782
","x: 116.8522720336914
y: 357.4117431640625
z: -0.0037017581053078175
","x: 114.88695526123047
y: 361.8568420410156
z: -0.005917584523558617
","x: 113.49349975585938
y: 366.2539367675781
z: -0.008111566305160522
","x: 111.29498291015625
y: 356.1540222167969
z: -0.00258003082126379
","x: 106.83663940429688
y: 359.50994873046875
z: -0.005531894508749247
","x: 104.45272064208984
y: 361.4869384765625
z: -0.0073695555329322815
","x: 102.42839813232422
y: 363.1713562011719
z: -0.008578658103942871
","x: 110.87857818603516
y: 353.3443908691406
z: -0.004084030631929636
","x: 106.16645050048828
y: 354.87005615234375
z: -0.007072786334902048
","x: 103.42008209228516
y: 355.8585205078125
z: -0.008524862118065357
","x: 101.10224914550781
y: 356.7923278808594
z: -0.009547995403409004
","x: 111.2587661743164
y: 350.510986328125
z: -0.005957119166851044
","x: 107.51371765136719
y: 350.8908386230469
z: -0.009113235399127007
","x: 105.27253723144531
y: 351.29693603515625
z: -0.010181576944887638
","x: 103.31355285644531
y: 351.8180847167969
z: -0.010764568112790585
","x: 112.2735366821289
y: 347.9052734375
z: -0.00815350841730833
","x: 109.28384399414062
y: 347.8199462890625
z: -0.01077962201088667
","x: 107.36294555664062
y: 348.1943054199219
z: -0.011681938543915749
","x: 105.6849365234375
y: 348.635009765625
z: -0.012164179235696793
","x: 218.35252380371094
y: 342.09783935546875
z: 0.0
","x: 215.8458709716797
y: 345.262939453125
z: -0.0022270972840487957
","x: 214.29080200195312
y: 349.4931335449219
z: -0.0030787568539381027
","x: 214.2423095703125
y: 353.28399658203125
z: -0.0040465774945914745
","x: 214.9037628173828
y: 355.7699890136719
z: -0.004846177529543638
","x: 217.09877014160156
y: 357.4739074707031
z: -0.0004985554260201752
","x: 217.26495361328125
y: 363.90289306640625
z: -0.001739769708365202
","x: 217.29957580566406
y: 366.8060302734375
z: -0.002423773752525449
","x: 217.2944793701172
y: 368.7032775878906
z: -0.0027207122184336185
","x: 218.99942016601562
y: 357.15081787109375
z: -0.0007087500998750329
","x: 219.8894805908203
y: 363.9952392578125
z: -0.0014099751133471727
","x: 219.86744689941406
y: 366.36956787109375
z: -0.0017134769586846232
","x: 219.6715850830078
y: 367.3531799316406
z: -0.001852278015576303
","x: 220.5508575439453
y: 355.49053955078125
z: -0.0014504548162221909
","x: 221.5768585205078
y: 360.3642272949219
z: -0.002523263683542609
","x: 221.5615692138672
y: 360.92352294921875
z: -0.002784639596939087
","x: 221.28150939941406
y: 360.31414794921875
z: -0.002714766887947917
","x: 221.87091064453125
y: 352.77325439453125
z: -0.00263076345436275
","x: 222.7391357421875
y: 356.16778564453125
z: -0.0037296051159501076
","x: 222.84976196289062
y: 356.8648681640625
z: -0.004042222164571285
","x: 222.66812133789062
y: 356.5758972167969
z: -0.003951312508434057
"
16,"x: 175.4156951904297
y: 216.23826599121094
z: -0.23982617259025574
visibility: 0.9999934434890747
","x: 177.59144592285156
y: 210.23806762695312
z: -0.2249123603105545
visibility: 0.9999701380729675
","x: 178.9972381591797
y: 210.49781799316406
z: -0.2249322384595871
visibility: 0.9999687671661377
","x: 180.3433074951172
y: 210.80776977539062
z: -0.22490596771240234
visibility: 0.9999640583992004
","x: 173.33111572265625
y: 209.8563232421875
z: -0.22655685245990753
visibility: 0.9999729990959167
","x: 171.81398010253906
y: 209.90438842773438
z: -0.22658729553222656
visibility: 0.9999721646308899
","x: 170.37548828125
y: 210.04092407226562
z: -0.22659023106098175
visibility: 0.9999661445617676
","x: 182.10903930664062
y: 214.84375
z: -0.12290547788143158
visibility: 0.999932050704956
","x: 169.17010498046875
y: 213.98439025878906
z: -0.13371820747852325
visibility: 0.9999510645866394
","x: 177.8383331298828
y: 223.61529541015625
z: -0.20114043354988098
visibility: 0.999983549118042
","x: 172.50291442871094
y: 223.55035400390625
z: -0.20416994392871857
visibility: 0.9999843835830688
","x: 196.03463745117188
y: 255.38702392578125
z: -0.044627852737903595
visibility: 0.9999803900718689
","x: 155.33348083496094
y: 256.0769958496094
z: -0.07476936280727386
visibility: 0.9999812245368958
","x: 209.10812377929688
y: 304.4796447753906
z: -0.029507387429475784
visibility: 0.9951866269111633
","x: 139.89727783203125
y: 306.93035888671875
z: -0.07825122028589249
visibility: 0.9921321272850037
","x: 219.42938232421875
y: 350.0711669921875
z: -0.15159070491790771
visibility: 0.9951189160346985
","x: 125.049072265625
y: 344.0170593261719
z: -0.20971889793872833
visibility: 0.9928781390190125
","x: 220.66661071777344
y: 365.6776428222656
z: -0.18090327084064484
visibility: 0.9857441186904907
","x: 119.09078979492188
y: 350.969482421875
z: -0.24178311228752136
visibility: 0.9836592674255371
","x: 218.9552764892578
y: 364.74969482421875
z: -0.21354064345359802
visibility: 0.9886153936386108
","x: 119.5892562866211
y: 350.4347229003906
z: -0.2745876908302307
visibility: 0.9858205914497375
","x: 217.8950958251953
y: 359.6095275878906
z: -0.16742563247680664
visibility: 0.9870242476463318
","x: 121.90579986572266
y: 349.6767578125
z: -0.22625991702079773
visibility: 0.9827936887741089
","x: 188.7727813720703
y: 371.14013671875
z: 0.02352800965309143
visibility: 0.9997104406356812
","x: 166.43040466308594
y: 370.1327819824219
z: -0.02362794615328312
visibility: 0.9997738003730774
","x: 190.5260772705078
y: 452.411865234375
z: 0.024875514209270477
visibility: 0.9927192330360413
","x: 160.59671020507812
y: 450.5142822265625
z: -0.0399215966463089
visibility: 0.9977425932884216
","x: 190.22679138183594
y: 528.948486328125
z: 0.10407739877700806
visibility: 0.9958673715591431
","x: 154.43682861328125
y: 525.9522094726562
z: 0.059295423328876495
visibility: 0.9977078437805176
","x: 186.13491821289062
y: 542.5096435546875
z: 0.10435265302658081
visibility: 0.969803512096405
","x: 157.4388427734375
y: 534.5464477539062
z: 0.062167130410671234
visibility: 0.9464091062545776
","x: 207.4827117919922
y: 549.7723388671875
z: 0.0064566731452941895
visibility: 0.9938395619392395
","x: 151.34271240234375
y: 550.8240356445312
z: -0.0474778451025486
visibility: 0.9957121014595032
",,,,,,,,,,,,,,,,,,,,,,,,,,,,,,,,,,,,,,,,,,
17,"x: 187.32891845703125
y: 221.57208251953125
z: -0.2500680387020111
visibility: 0.9999938607215881
","x: 189.117919921875
y: 215.01751708984375
z: -0.23305658996105194
visibility: 0.9999725222587585
","x: 190.28965759277344
y: 215.3897705078125
z: -0.23303882777690887
visibility: 0.9999710917472839
","x: 191.37625122070312
y: 215.74942016601562
z: -0.23300042748451233
visibility: 0.9999667406082153
","x: 184.89498901367188
y: 213.66302490234375
z: -0.23964452743530273
visibility: 0.9999751448631287
","x: 183.05931091308594
y: 213.18756103515625
z: -0.23968005180358887
visibility: 0.9999743700027466
","x: 181.19052124023438
y: 212.86639404296875
z: -0.23967459797859192
visibility: 0.9999688267707825
","x: 191.69161987304688
y: 219.19656372070312
z: -0.11638838052749634
visibility: 0.9999358057975769
","x: 177.7696990966797
y: 216.47320556640625
z: -0.14754602313041687
visibility: 0.9999551773071289
","x: 188.66583251953125
y: 229.2581024169922
z: -0.20596131682395935
visibility: 0.9999843239784241
","x: 183.72193908691406
y: 228.56626892089844
z: -0.21604546904563904
visibility: 0.9999853372573853
","x: 201.59222412109375
y: 264.7851257324219
z: -0.01474662683904171
visibility: 0.9999798536300659
","x: 162.97564697265625
y: 258.3101806640625
z: -0.11355330795049667
visibility: 0.9999817609786987
","x: 209.82508850097656
y: 322.1086120605469
z: 0.044923026114702225
visibility: 0.9905939102172852
","x: 152.9750518798828
y: 310.77093505859375
z: -0.179861918091774
visibility: 0.9919348359107971
","x: 220.05001831054688
y: 369.6846008300781
z: -0.05043620988726616
visibility: 0.9941465854644775
","x: 146.60858154296875
y: 334.7204284667969
z: -0.3583972156047821
visibility: 0.9929123520851135
","x: 222.83908081054688
y: 383.5303039550781
z: -0.06899883598089218
visibility: 0.9843806028366089
","x: 145.14259338378906
y: 336.6467590332031
z: -0.39791253209114075
visibility: 0.9841482639312744
","x: 219.83782958984375
y: 384.70684814453125
z: -0.10740102827548981
visibility: 0.9873629808425903
","x: 146.31642150878906
y: 331.5228576660156
z: -0.41756677627563477
visibility: 0.9861809015274048
","x: 219.81683349609375
y: 380.00128173828125
z: -0.06813662499189377
visibility: 0.9856381416320801
","x: 147.12823486328125
y: 331.07574462890625
z: -0.36981210112571716
visibility: 0.9830308556556702
","x: 198.4005889892578
y: 371.6703796386719
z: 0.042953506112098694
visibility: 0.9997336864471436
","x: 178.3019256591797
y: 371.3140869140625
z: -0.043051693588495255
visibility: 0.9997901916503906
","x: 194.4338836669922
y: 454.3880615234375
z: 0.037981949746608734
visibility: 0.9905134439468384
","x: 175.61248779296875
y: 452.31378173828125
z: -0.03792055323719978
visibility: 0.9972438812255859
","x: 190.39111328125
y: 529.0999755859375
z: 0.14047862589359283
visibility: 0.9948344826698303
","x: 158.64393615722656
y: 519.0154418945312
z: 0.12105964124202728
visibility: 0.9974168539047241
","x: 186.1663360595703
y: 542.3229370117188
z: 0.14373937249183655
visibility: 0.9699832797050476
","x: 158.91297912597656
y: 524.8902587890625
z: 0.13069859147071838
visibility: 0.9446367621421814
","x: 207.57830810546875
y: 549.9971923828125
z: 0.049786511808633804
visibility: 0.9931029081344604
","x: 152.71788024902344
y: 548.4923095703125
z: 0.03088262677192688
visibility: 0.9952858090400696
",,,,,,,,,,,,,,,,,,,,,,,,,,,,,,,,,,,,,,,,,,
18,"x: 193.1455078125
y: 222.1904296875
z: -0.25620561838150024
visibility: 0.9999940395355225
","x: 194.65087890625
y: 215.62135314941406
z: -0.23815174400806427
visibility: 0.9999741911888123
","x: 195.59402465820312
y: 215.9759521484375
z: -0.2381252944469452
visibility: 0.9999726414680481
","x: 196.5161590576172
y: 216.296142578125
z: -0.23808686435222626
visibility: 0.9999685287475586
","x: 191.17355346679688
y: 214.00143432617188
z: -0.2449449747800827
visibility: 0.999976634979248
","x: 189.56634521484375
y: 213.36422729492188
z: -0.24494946002960205
visibility: 0.9999760389328003
","x: 187.83865356445312
y: 212.916259765625
z: -0.24492259323596954
visibility: 0.9999708533287048
","x: 196.23355102539062
y: 219.50958251953125
z: -0.11624117940664291
visibility: 0.9999363422393799
","x: 183.7609100341797
y: 216.4290771484375
z: -0.17986981570720673
visibility: 0.9999585747718811
","x: 193.9412841796875
y: 229.62197875976562
z: -0.21030393242835999
visibility: 0.9999843835830688
","x: 189.6580810546875
y: 228.7845458984375
z: -0.21685846149921417
visibility: 0.9999860525131226
","x: 204.9935302734375
y: 267.0434265136719
z: 0.0022428964730352163
visibility: 0.9999769926071167
","x: 167.47470092773438
y: 258.11273193359375
z: -0.16042861342430115
visibility: 0.9999821186065674
","x: 211.78240966796875
y: 325.0158386230469
z: 0.07124371826648712
visibility: 0.9781057238578796
","x: 156.58734130859375
y: 308.3125915527344
z: -0.2540143132209778
visibility: 0.9923186898231506
","x: 227.13308715820312
y: 366.46728515625
z: -0.021711070090532303
visibility: 0.9918881058692932
","x: 164.23663330078125
y: 317.6601257324219
z: -0.43657946586608887
visibility: 0.9931746125221252
","x: 232.9331817626953
y: 377.8328857421875
z: -0.03583914414048195
visibility: 0.981534481048584
","x: 165.68487548828125
y: 321.39453125
z: -0.47929269075393677
visibility: 0.9849244952201843
","x: 233.21951293945312
y: 377.6422119140625
z: -0.07376362383365631
visibility: 0.984799325466156
","x: 167.59841918945312
y: 315.062744140625
z: -0.4869670271873474
visibility: 0.9867696166038513
","x: 231.76254272460938
y: 374.3843994140625
z: -0.03913385793566704
visibility: 0.9827468395233154
","x: 167.48692321777344
y: 314.0390930175781
z: -0.4420737326145172
visibility: 0.983437180519104
","x: 200.82656860351562
y: 371.35113525390625
z: 0.06701540946960449
visibility: 0.9997488260269165
","x: 181.74169921875
y: 369.8428955078125
z: -0.06715227663516998
visibility: 0.9997952580451965
","x: 197.42843627929688
y: 453.90802001953125
z: 0.04680566117167473
visibility: 0.9807144999504089
","x: 188.10585021972656
y: 448.94146728515625
z: -0.09671833366155624
visibility: 0.9968428611755371
","x: 191.11849975585938
y: 529.537841796875
z: 0.15387295186519623
visibility: 0.9912111759185791
","x: 168.74110412597656
y: 515.75048828125
z: 0.06900214403867722
visibility: 0.9964997172355652
","x: 186.3141632080078
y: 542.1010131835938
z: 0.1584964543581009
visibility: 0.9656819701194763
","x: 165.8341827392578
y: 521.5021362304688
z: 0.08198029547929764
visibility: 0.938953161239624
","x: 208.50137329101562
y: 550.4765014648438
z: 0.07678113877773285
visibility: 0.9911504983901978
","x: 170.8839111328125
y: 546.2119140625
z: 0.006942973472177982
visibility: 0.9943225979804993
",,,,,,,,,,,,,,,,,,,,,,,,,,,,,,,,,,,,,,,,,,
19,"x: 201.6285400390625
y: 217.32901000976562
z: -0.18545010685920715
visibility: 0.9999892115592957
","x: 202.88548278808594
y: 210.35467529296875
z: -0.16448251903057098
visibility: 0.9999645352363586
","x: 203.73634338378906
y: 210.6658935546875
z: -0.16452595591545105
visibility: 0.999958336353302
","x: 204.51219177246094
y: 210.93788146972656
z: -0.16452617943286896
visibility: 0.9999533295631409
","x: 199.4330596923828
y: 208.83767700195312
z: -0.18117021024227142
visibility: 0.9999701380729675
","x: 197.87799072265625
y: 208.17471313476562
z: -0.18119695782661438
visibility: 0.9999701380729675
","x: 196.07273864746094
y: 207.5233612060547
z: -0.18126477301120758
visibility: 0.9999667406082153
","x: 202.86483764648438
y: 214.10107421875
z: -0.04529386758804321
visibility: 0.9998745322227478
","x: 190.6868133544922
y: 210.38597106933594
z: -0.12556710839271545
visibility: 0.9999571442604065
","x: 202.33975219726562
y: 224.74525451660156
z: -0.13919459283351898
visibility: 0.9999771118164062
","x: 197.90821838378906
y: 223.9212646484375
z: -0.1613527089357376
visibility: 0.999984622001648
","x: 209.31663513183594
y: 266.69171142578125
z: 0.08541888743638992
visibility: 0.9999465942382812
","x: 173.8760223388672
y: 252.02146911621094
z: -0.13229194283485413
visibility: 0.9999826550483704
","x: 216.4405059814453
y: 319.3144836425781
z: 0.1415296494960785
visibility: 0.9305276274681091
","x: 162.764404296875
y: 305.46209716796875
z: -0.19917157292366028
visibility: 0.9928464889526367
","x: 235.20809936523438
y: 354.8779296875
z: 0.01406070776283741
visibility: 0.9738262295722961
","x: 179.46719360351562
y: 319.6578369140625
z: -0.3503142297267914
visibility: 0.9934691190719604
","x: 241.53720092773438
y: 355.6646423339844
z: -0.005939488764852285
visibility: 0.9623088836669922
","x: 183.9472198486328
y: 322.3294677734375
z: -0.39264577627182007
visibility: 0.9855518341064453
","x: 242.43101501464844
y: 352.7035827636719
z: -0.04036329314112663
visibility: 0.9671768546104431
","x: 187.4408416748047
y: 321.82403564453125
z: -0.40056362748146057
visibility: 0.9871583580970764
","x: 240.36973571777344
y: 352.72564697265625
z: -0.004396351054310799
visibility: 0.962734043598175
","x: 186.52293395996094
y: 319.67333984375
z: -0.35495176911354065
visibility: 0.9834657907485962
","x: 202.1707305908203
y: 368.22857666015625
z: 0.0732722282409668
visibility: 0.9996547102928162
","x: 183.36495971679688
y: 365.31365966796875
z: -0.07327811419963837
visibility: 0.9997308850288391
","x: 197.2057647705078
y: 446.8879699707031
z: 0.04660334065556526
visibility: 0.9320287704467773
","x: 193.97727966308594
y: 444.7826843261719
z: -0.10549867153167725
visibility: 0.9880746603012085
","x: 191.11790466308594
y: 527.2508544921875
z: 0.14341387152671814
visibility: 0.9614020586013794
","x: 192.32130432128906
y: 523.5383911132812
z: -0.0043434505350887775
visibility: 0.9864723682403564
","x: 186.3305206298828
y: 541.3225708007812
z: 0.1434708535671234
visibility: 0.9427202939987183
","x: 188.32611083984375
y: 538.1763916015625
z: -0.00025080860359594226
visibility: 0.9237251877784729
","x: 208.45616149902344
y: 548.4392700195312
z: 0.0450931191444397
visibility: 0.9727391600608826
","x: 208.39288330078125
y: 550.1019287109375
z: -0.1142454594373703
visibility: 0.9851334691047668
",,,,,,,,,,,,,,,,,,,,,,,,,,,,,,,,,,,,,,,,,,
20,"x: 204.749755859375
y: 215.46841430664062
z: -0.19051329791545868
visibility: 0.9999876022338867
","x: 205.2703857421875
y: 208.40956115722656
z: -0.16902874410152435
visibility: 0.9999611973762512
","x: 205.9076690673828
y: 208.57618713378906
z: -0.16910916566848755
visibility: 0.9999529719352722
","x: 206.49307250976562
y: 208.7255859375
z: -0.16913959383964539
visibility: 0.9999487400054932
","x: 202.10464477539062
y: 207.64263916015625
z: -0.18796417117118835
visibility: 0.9999682903289795
","x: 200.47036743164062
y: 207.30502319335938
z: -0.18796516954898834
visibility: 0.9999677538871765
","x: 198.62953186035156
y: 206.95217895507812
z: -0.1880173683166504
visibility: 0.9999653697013855
","x: 204.60499572753906
y: 211.69406127929688
z: -0.047987233847379684
visibility: 0.9998509883880615
","x: 193.99029541015625
y: 209.68710327148438
z: -0.13332748413085938
visibility: 0.9999563097953796
","x: 205.00732421875
y: 222.64523315429688
z: -0.14318014681339264
visibility: 0.9999745488166809
","x: 201.05987548828125
y: 222.29510498046875
z: -0.1677996963262558
visibility: 0.9999839663505554
","x: 210.42152404785156
y: 263.13787841796875
z: 0.08818311244249344
visibility: 0.9999416470527649
","x: 179.197021484375
y: 251.50221252441406
z: -0.1384752094745636
visibility: 0.9999831318855286
","x: 215.58184814453125
y: 316.8808288574219
z: 0.15504680573940277
visibility: 0.9033213257789612
","x: 171.18988037109375
y: 309.9904479980469
z: -0.1726713478565216
visibility: 0.9933223724365234
","x: 237.6657257080078
y: 332.0968933105469
z: 0.025643358007073402
visibility: 0.9727222919464111
","x: 179.63148498535156
y: 354.892333984375
z: -0.2722774147987366
visibility: 0.9937027096748352
","x: 243.0850372314453
y: 331.4930725097656
z: 0.004138151649385691
visibility: 0.9612792134284973
","x: 179.30763244628906
y: 372.17852783203125
z: -0.3136880099773407
visibility: 0.98597651720047
","x: 243.6078643798828
y: 327.764404296875
z: -0.03476060926914215
visibility: 0.9663907885551453
","x: 183.27606201171875
y: 373.3303527832031
z: -0.32145124673843384
visibility: 0.9873838424682617
","x: 241.77259826660156
y: 327.76055908203125
z: 0.004811703693121672
visibility: 0.9611923694610596
","x: 183.9906463623047
y: 367.84368896484375
z: -0.27531230449676514
visibility: 0.9834540486335754
","x: 203.7967529296875
y: 367.2296447753906
z: 0.08070109039545059
visibility: 0.9994454383850098
","x: 187.52813720703125
y: 364.173828125
z: -0.08062451332807541
visibility: 0.9996540546417236
","x: 197.53512573242188
y: 447.4449462890625
z: 0.10019688308238983
visibility: 0.9000345468521118
","x: 194.3720245361328
y: 444.9241638183594
z: -0.11719578504562378
visibility: 0.9863266348838806
","x: 190.92416381835938
y: 524.1868896484375
z: 0.21657566726207733
visibility: 0.9407638907432556
","x: 203.87005615234375
y: 534.33642578125
z: -0.058992933481931686
visibility: 0.9855054616928101
","x: 185.4427032470703
y: 534.7450561523438
z: 0.22257904708385468
