uscmakers/ReverseChoreography/data/5_woman_doja_cat.csv
,NOSE,LEFT_EYE_INNER,LEFT_EYE,LEFT_EYE_OUTER,RIGHT_EYE_INNER,RIGHT_EYE,RIGHT_EYE_OUTER,LEFT_EAR,RIGHT_EAR,MOUTH_LEFT,MOUTH_RIGHT,LEFT_SHOULDER,RIGHT_SHOULDER,LEFT_ELBOW,RIGHT_ELBOW,LEFT_WRIST,RIGHT_WRIST,LEFT_PINKY,RIGHT_PINKY,LEFT_INDEX,RIGHT_INDEX,LEFT_THUMB,RIGHT_THUMB,LEFT_HIP,RIGHT_HIP,LEFT_KNEE,RIGHT_KNEE,LEFT_ANKLE,RIGHT_ANKLE,LEFT_HEEL,RIGHT_HEEL,LEFT_FOOT_INDEX,RIGHT_FOOT_INDEX,WRIST2,THUMB_CPC2,THUMB_MCP2,THUMB_IP2,THUMB_TIP2,INDEX_FINGER_MCP2,INDEX_FINGER_PIP2,INDEX_FINGER_DIP2,INDEX_FINGER_TIP2,MIDDLE_FINGER_MCP2,MIDDLE_FINGER_PIP2,MIDDLE_FINGER_DIP2,MIDDLE_FINGER_TIP2,RING_FINGER_PIP2,RING_FINGER_DIP2,RING_FINGER_TIP2,RING_FINGER_MCP2,PINKY_MCP2,PINKY_PIP2,PINKY_DIP2,PINKY_TIP2,WRIST,THUMB_CPC,THUMB_MCP,THUMB_IP,THUMB_TIP,INDEX_FINGER_MCP,INDEX_FINGER_PIP,INDEX_FINGER_DIP,INDEX_FINGER_TIP,MIDDLE_FINGER_MCP,MIDDLE_FINGER_PIP,MIDDLE_FINGER_DIP,MIDDLE_FINGER_TIP,RING_FINGER_PIP,RING_FINGER_DIP,RING_FINGER_TIP,RING_FINGER_MCP,PINKY_MCP,PINKY_PIP,PINKY_DIP,PINKY_TIP
0,"x: 189.79312133789062
y: 218.9966583251953
z: -0.31150567531585693
visibility: 0.9999662637710571
","x: 193.0321502685547
y: 210.4029541015625
z: -0.30598127841949463
visibility: 0.9998180270195007
","x: 194.9176483154297
y: 209.97018432617188
z: -0.30605319142341614
visibility: 0.9998348951339722
","x: 196.79315185546875
y: 209.54664611816406
z: -0.3061103820800781
visibility: 0.9998279809951782
","x: 189.1964111328125
y: 210.22271728515625
z: -0.2996116280555725
visibility: 0.9997718930244446
","x: 188.20355224609375
y: 209.58920288085938
z: -0.2996245324611664
visibility: 0.9997454285621643
","x: 187.20367431640625
y: 208.9232635498047
z: -0.2996376156806946
visibility: 0.9996991157531738
","x: 201.44476318359375
y: 209.3956298828125
z: -0.2116728127002716
visibility: 0.9998399019241333
","x: 188.50901794433594
y: 207.7622833251953
z: -0.17944057285785675
visibility: 0.9993832111358643
","x: 193.20501708984375
y: 224.97972106933594
z: -0.27054479718208313
visibility: 0.999963641166687
","x: 188.2848358154297
y: 224.58815002441406
z: -0.2615140974521637
visibility: 0.9999254941940308
","x: 219.64283752441406
y: 246.85777282714844
z: -0.13129007816314697
visibility: 0.9999955892562866
","x: 175.21859741210938
y: 246.5375518798828
z: -0.060176849365234375
visibility: 0.9999326467514038
","x: 239.57394409179688
y: 292.4337463378906
z: -0.10801758617162704
visibility: 0.9978265166282654
","x: 159.12522888183594
y: 304.56463623046875
z: -0.007409808225929737
visibility: 0.9681193232536316
","x: 244.89381408691406
y: 339.6174621582031
z: -0.22099509835243225
visibility: 0.9920884370803833
","x: 134.05992126464844
y: 341.4145202636719
z: -0.1133309006690979
visibility: 0.9802672863006592
","x: 249.45376586914062
y: 354.1681213378906
z: -0.2511417269706726
visibility: 0.9792933464050293
","x: 127.13944244384766
y: 349.94317626953125
z: -0.1378006488084793
visibility: 0.9622213244438171
","x: 244.56979370117188
y: 353.71087646484375
z: -0.28587526082992554
visibility: 0.9818794131278992
","x: 126.51200103759766
y: 348.0743103027344
z: -0.1847301572561264
visibility: 0.9676414132118225
","x: 242.00534057617188
y: 348.64251708984375
z: -0.2359510362148285
visibility: 0.978217601776123
","x: 129.30181884765625
y: 345.6721496582031
z: -0.13524004817008972
visibility: 0.9645861983299255
","x: 206.7117919921875
y: 367.35784912109375
z: -0.0282016359269619
visibility: 0.9993721842765808
","x: 183.23239135742188
y: 367.97216796875
z: 0.028189506381750107
visibility: 0.9985888600349426
","x: 206.19212341308594
y: 458.369384765625
z: -0.04509471356868744
visibility: 0.9916362762451172
","x: 186.4156036376953
y: 457.54583740234375
z: 0.036992255598306656
visibility: 0.9805909991264343
","x: 207.60482788085938
y: 538.7500610351562
z: 0.09394121170043945
visibility: 0.9894388318061829
","x: 193.91070556640625
y: 536.7401733398438
z: 0.17570839822292328
visibility: 0.9849262237548828
","x: 208.9121551513672
y: 552.3491821289062
z: 0.09932871162891388
visibility: 0.8407396078109741
","x: 198.6134490966797
y: 549.2243041992188
z: 0.18251661956310272
visibility: 0.9121509194374084
","x: 200.0352020263672
y: 563.22021484375
z: -0.034792326390743256
visibility: 0.9820873141288757
","x: 185.169677734375
y: 564.4302978515625
z: 0.06565092504024506
visibility: 0.9821159839630127
","x: 242.5540313720703
y: 338.18035888671875
z: 0.0
","x: 240.34829711914062
y: 344.337158203125
z: -0.0019377073040232062
","x: 239.84512329101562
y: 351.4593200683594
z: -0.003023341530933976
","x: 240.65171813964844
y: 356.4105529785156
z: -0.004324103239923716
","x: 241.3316650390625
y: 359.79449462890625
z: -0.005670312792062759
","x: 244.2355194091797
y: 356.7789001464844
z: -0.001382067333906889
","x: 246.1659393310547
y: 363.72369384765625
z: -0.00358440144918859
","x: 247.4398956298828
y: 367.6486511230469
z: -0.005101298913359642
","x: 248.62901306152344
y: 371.04193115234375
z: -0.006108913570642471
","x: 246.6474151611328
y: 355.07196044921875
z: -0.0024958420544862747
","x: 249.19552612304688
y: 362.1251220703125
z: -0.004375905264168978
","x: 250.87313842773438
y: 366.4683837890625
z: -0.005734844598919153
","x: 252.4296875
y: 370.0310974121094
z: -0.006818059831857681
","x: 248.4532012939453
y: 352.2391357421875
z: -0.004091362468898296
","x: 251.4322509765625
y: 358.2481689453125
z: -0.006515666376799345
","x: 253.33937072753906
y: 361.90521240234375
z: -0.008034358732402325
","x: 255.010498046875
y: 364.7796630859375
z: -0.009012012742459774
","x: 249.73094177246094
y: 348.3094787597656
z: -0.005992725025862455
","x: 252.50894165039062
y: 352.13726806640625
z: -0.00823715515434742
","x: 254.3767852783203
y: 354.650146484375
z: -0.00934530794620514
","x: 256.00531005859375
y: 356.7274475097656
z: -0.010035241022706032
",,,,,,,,,,,,,,,,,,,,,
1,"x: 189.79312133789062
y: 218.9966583251953
z: -0.31150567531585693
visibility: 0.9999662637710571
","x: 193.0321502685547
y: 210.4029541015625
z: -0.30598127841949463
visibility: 0.9998180270195007
","x: 194.9176483154297
y: 209.97018432617188
z: -0.30605319142341614
visibility: 0.9998348951339722
","x: 196.79315185546875
y: 209.54664611816406
z: -0.3061103820800781
visibility: 0.9998279809951782
","x: 189.1964111328125
y: 210.22271728515625
z: -0.2996116280555725
visibility: 0.9997718930244446
","x: 188.20355224609375
y: 209.58920288085938
z: -0.2996245324611664
visibility: 0.9997454285621643
","x: 187.20367431640625
y: 208.9232635498047
z: -0.2996376156806946
visibility: 0.9996991157531738
","x: 201.44476318359375
y: 209.3956298828125
z: -0.2116728127002716
visibility: 0.9998399019241333
","x: 188.50901794433594
y: 207.7622833251953
z: -0.17944057285785675
visibility: 0.9993832111358643
","x: 193.20501708984375
y: 224.97972106933594
z: -0.27054479718208313
visibility: 0.999963641166687
","x: 188.2848358154297
y: 224.58815002441406
z: -0.2615140974521637
visibility: 0.9999254941940308
","x: 219.64283752441406
y: 246.85777282714844
z: -0.13129007816314697
visibility: 0.9999955892562866
","x: 175.21859741210938
y: 246.5375518798828
z: -0.060176849365234375
visibility: 0.9999326467514038
","x: 239.57394409179688
y: 292.4337463378906
z: -0.10801758617162704
visibility: 0.9978265166282654
","x: 159.12522888183594
y: 304.56463623046875
z: -0.007409808225929737
visibility: 0.9681193232536316
","x: 244.89381408691406
y: 339.6174621582031
z: -0.22099509835243225
visibility: 0.9920884370803833
","x: 134.05992126464844
y: 341.4145202636719
z: -0.1133309006690979
visibility: 0.9802672863006592
","x: 249.45376586914062
y: 354.1681213378906
z: -0.2511417269706726
visibility: 0.9792933464050293
","x: 127.13944244384766
y: 349.94317626953125
z: -0.1378006488084793
visibility: 0.9622213244438171
","x: 244.56979370117188
y: 353.71087646484375
z: -0.28587526082992554
visibility: 0.9818794131278992
","x: 126.51200103759766
y: 348.0743103027344
z: -0.1847301572561264
visibility: 0.9676414132118225
","x: 242.00534057617188
y: 348.64251708984375
z: -0.2359510362148285
visibility: 0.978217601776123
","x: 129.30181884765625
y: 345.6721496582031
z: -0.13524004817008972
visibility: 0.9645861983299255
","x: 206.7117919921875
y: 367.35784912109375
z: -0.0282016359269619
visibility: 0.9993721842765808
","x: 183.23239135742188
y: 367.97216796875
z: 0.028189506381750107
visibility: 0.9985888600349426
","x: 206.19212341308594
y: 458.369384765625
z: -0.04509471356868744
visibility: 0.9916362762451172
","x: 186.4156036376953
y: 457.54583740234375
z: 0.036992255598306656
visibility: 0.9805909991264343
","x: 207.60482788085938
y: 538.7500610351562
z: 0.09394121170043945
visibility: 0.9894388318061829
","x: 193.91070556640625
y: 536.7401733398438
z: 0.17570839822292328
visibility: 0.9849262237548828
","x: 208.9121551513672
y: 552.3491821289062
z: 0.09932871162891388
visibility: 0.8407396078109741
","x: 198.6134490966797
y: 549.2243041992188
z: 0.18251661956310272
visibility: 0.9121509194374084
","x: 200.0352020263672
y: 563.22021484375
z: -0.034792326390743256
visibility: 0.9820873141288757
","x: 185.169677734375
y: 564.4302978515625
z: 0.06565092504024506
visibility: 0.9821159839630127
","x: 242.5540313720703
y: 338.18035888671875
z: 0.0
","x: 240.34829711914062
y: 344.337158203125
z: -0.0019377073040232062
","x: 239.84512329101562
y: 351.4593200683594
z: -0.003023341530933976
","x: 240.65171813964844
y: 356.4105529785156
z: -0.004324103239923716
","x: 241.3316650390625
y: 359.79449462890625
z: -0.005670312792062759
","x: 244.2355194091797
y: 356.7789001464844
z: -0.001382067333906889
","x: 246.1659393310547
y: 363.72369384765625
z: -0.00358440144918859
","x: 247.4398956298828
y: 367.6486511230469
z: -0.005101298913359642
","x: 248.62901306152344
y: 371.04193115234375
z: -0.006108913570642471
","x: 246.6474151611328
y: 355.07196044921875
z: -0.0024958420544862747
","x: 249.19552612304688
y: 362.1251220703125
z: -0.004375905264168978
","x: 250.87313842773438
y: 366.4683837890625
z: -0.005734844598919153
","x: 252.4296875
y: 370.0310974121094
z: -0.006818059831857681
","x: 248.4532012939453
y: 352.2391357421875
z: -0.004091362468898296
","x: 251.4322509765625
y: 358.2481689453125
z: -0.006515666376799345
","x: 253.33937072753906
y: 361.90521240234375
z: -0.008034358732402325
","x: 255.010498046875
y: 364.7796630859375
z: -0.009012012742459774
","x: 249.73094177246094
y: 348.3094787597656
z: -0.005992725025862455
","x: 252.50894165039062
y: 352.13726806640625
z: -0.00823715515434742
","x: 254.3767852783203
y: 354.650146484375
z: -0.00934530794620514
","x: 256.00531005859375
y: 356.7274475097656
z: -0.010035241022706032
",,,,,,,,,,,,,,,,,,,,,
2,"x: 187.8030242919922
y: 215.70361328125
z: -0.14024724066257477
visibility: 0.9999666810035706
","x: 190.92425537109375
y: 206.54100036621094
z: -0.1335083693265915
visibility: 0.9998267292976379
","x: 192.74075317382812
y: 206.0404052734375
z: -0.1335442215204239
visibility: 0.9998428821563721
","x: 194.5723114013672
y: 205.6211700439453
z: -0.13356193900108337
visibility: 0.9998348951339722
","x: 187.0723876953125
y: 207.00946044921875
z: -0.1185481920838356
visibility: 0.9997856020927429
","x: 186.1653289794922
y: 206.6903076171875
z: -0.1185704693198204
visibility: 0.999761700630188
","x: 185.2726287841797
y: 206.3682403564453
z: -0.11852876842021942
visibility: 0.9997192025184631
","x: 199.25991821289062
y: 206.82028198242188
z: -0.061041779816150665
visibility: 0.9998506903648376
","x: 186.3080596923828
y: 206.8462371826172
z: 0.00808123592287302
visibility: 0.9994143843650818
","x: 191.45053100585938
y: 221.83523559570312
z: -0.11087287962436676
visibility: 0.9999621510505676
","x: 186.5315399169922
y: 222.1389923095703
z: -0.09116385877132416
visibility: 0.9999235272407532
","x: 216.9746856689453
y: 246.4169921875
z: -0.04104370251297951
visibility: 0.9999943971633911
","x: 174.44613647460938
y: 247.31890869140625
z: 0.12173394858837128
visibility: 0.9999210834503174
","x: 232.86834716796875
y: 293.3238525390625
z: -0.04194542393088341
visibility: 0.9979235529899597
","x: 158.6987762451172
y: 300.0426940917969
z: 0.022398028522729874
visibility: 0.9698523283004761
","x: 238.16265869140625
y: 339.9298095703125
z: -0.10381381213665009
visibility: 0.9926139116287231
","x: 151.61038208007812
y: 256.423828125
z: -0.2395055741071701
visibility: 0.9820756912231445
","x: 239.60398864746094
y: 355.2615051269531
z: -0.1269102692604065
visibility: 0.9804572463035583
","x: 152.37548828125
y: 243.59640502929688
z: -0.285799503326416
visibility: 0.9655248522758484
","x: 235.85040283203125
y: 354.4051513671875
z: -0.15238241851329803
visibility: 0.9828053712844849
","x: 155.31417846679688
y: 236.43606567382812
z: -0.28800591826438904
visibility: 0.9703843593597412
","x: 234.1449432373047
y: 349.38604736328125
z: -0.1129513755440712
visibility: 0.9792238473892212
","x: 156.10345458984375
y: 240.83087158203125
z: -0.24848179519176483
visibility: 0.9673682451248169
","x: 203.8062286376953
y: 367.4571533203125
z: -0.056280333548784256
visibility: 0.9993859529495239
","x: 181.21128845214844
y: 367.9638671875
z: 0.05629785731434822
visibility: 0.998687744140625
","x: 205.6937255859375
y: 458.42022705078125
z: -0.0637112483382225
visibility: 0.9918007850646973
","x: 183.3786163330078
y: 457.9611511230469
z: 0.05230986326932907
visibility: 0.980938732624054
","x: 206.8926544189453
y: 539.958740234375
z: 0.048609327524900436
visibility: 0.9895536303520203
","x: 187.80882263183594
y: 538.596435546875
z: 0.16289690136909485
visibility: 0.9853865504264832
","x: 207.24185180664062
y: 553.40478515625
z: 0.05130276083946228
visibility: 0.8462647795677185
","x: 191.83615112304688
y: 550.966064453125
z: 0.16589704155921936
visibility: 0.9166481494903564
","x: 199.79246520996094
y: 562.7203979492188
z: -0.07534250617027283
visibility: 0.9825050234794617
","x: 171.08116149902344
y: 563.0936279296875
z: 0.05910737067461014
visibility: 0.9825811386108398
",,,,,,,,,,,,,,,,,,,,,,"x: 154.7487335205078
y: 249.3299102783203
z: 0.0
","x: 158.75283813476562
y: 246.33248901367188
z: -0.001037613139487803
","x: 161.78025817871094
y: 241.27305603027344
z: -0.0019615713972598314
","x: 163.52560424804688
y: 236.8443145751953
z: -0.0035481995437294245
","x: 164.80374145507812
y: 233.23785400390625
z: -0.00495942123234272
","x: 161.3451385498047
y: 233.4630126953125
z: 0.0007968985009938478
","x: 163.15957641601562
y: 227.13333129882812
z: -0.0023636275436729193
","x: 165.03587341308594
y: 225.52066040039062
z: -0.004686681088060141
","x: 166.7058563232422
y: 225.47918701171875
z: -0.0059227850288152695
","x: 159.8031768798828
y: 232.5830841064453
z: -0.0009620944620110095
","x: 161.44920349121094
y: 225.51058959960938
z: -0.00427638366818428
","x: 163.63519287109375
y: 223.76905822753906
z: -0.006589772645384073
","x: 165.7588348388672
y: 224.16830444335938
z: -0.007852297276258469
","x: 158.03102111816406
y: 232.6866912841797
z: -0.0033768690191209316
","x: 159.2749481201172
y: 225.69302368164062
z: -0.006396911572664976
","x: 161.1897735595703
y: 223.9509735107422
z: -0.00805655401200056
","x: 163.18202209472656
y: 224.0823211669922
z: -0.008872603066265583
","x: 156.0118865966797
y: 233.91094970703125
z: -0.006134846713393927
","x: 156.4251708984375
y: 228.5635223388672
z: -0.008251110091805458
","x: 157.55023193359375
y: 226.78993225097656
z: -0.009223878383636475
","x: 158.9806365966797
y: 226.46156311035156
z: -0.009758398868143559
"
3,"x: 187.8030242919922
y: 215.70361328125
z: -0.14024724066257477
visibility: 0.9999666810035706
","x: 190.92425537109375
y: 206.54100036621094
z: -0.1335083693265915
visibility: 0.9998267292976379
","x: 192.74075317382812
y: 206.0404052734375
z: -0.1335442215204239
visibility: 0.9998428821563721
","x: 194.5723114013672
y: 205.6211700439453
z: -0.13356193900108337
visibility: 0.9998348951339722
","x: 187.0723876953125
y: 207.00946044921875
z: -0.1185481920838356
visibility: 0.9997856020927429
","x: 186.1653289794922
y: 206.6903076171875
z: -0.1185704693198204
visibility: 0.999761700630188
","x: 185.2726287841797
y: 206.3682403564453
z: -0.11852876842021942
visibility: 0.9997192025184631
","x: 199.25991821289062
y: 206.82028198242188
z: -0.061041779816150665
visibility: 0.9998506903648376
","x: 186.3080596923828
y: 206.8462371826172
z: 0.00808123592287302
visibility: 0.9994143843650818
","x: 191.45053100585938
y: 221.83523559570312
z: -0.11087287962436676
visibility: 0.9999621510505676
","x: 186.5315399169922
y: 222.1389923095703
z: -0.09116385877132416
visibility: 0.9999235272407532
","x: 216.9746856689453
y: 246.4169921875
z: -0.04104370251297951
visibility: 0.9999943971633911
","x: 174.44613647460938
y: 247.31890869140625
z: 0.12173394858837128
visibility: 0.9999210834503174
","x: 232.86834716796875
y: 293.3238525390625
z: -0.04194542393088341
visibility: 0.9979235529899597
","x: 158.6987762451172
y: 300.0426940917969
z: 0.022398028522729874
visibility: 0.9698523283004761
","x: 238.16265869140625
y: 339.9298095703125
z: -0.10381381213665009
visibility: 0.9926139116287231
","x: 151.61038208007812
y: 256.423828125
z: -0.2395055741071701
visibility: 0.9820756912231445
","x: 239.60398864746094
y: 355.2615051269531
z: -0.1269102692604065
visibility: 0.9804572463035583
","x: 152.37548828125
y: 243.59640502929688
z: -0.285799503326416
visibility: 0.9655248522758484
","x: 235.85040283203125
y: 354.4051513671875
z: -0.15238241851329803
visibility: 0.9828053712844849
","x: 155.31417846679688
y: 236.43606567382812
z: -0.28800591826438904
visibility: 0.9703843593597412
","x: 234.1449432373047
y: 349.38604736328125
z: -0.1129513755440712
visibility: 0.9792238473892212
","x: 156.10345458984375
y: 240.83087158203125
z: -0.24848179519176483
visibility: 0.9673682451248169
","x: 203.8062286376953
y: 367.4571533203125
z: -0.056280333548784256
visibility: 0.9993859529495239
","x: 181.21128845214844
y: 367.9638671875
z: 0.05629785731434822
visibility: 0.998687744140625
","x: 205.6937255859375
y: 458.42022705078125
z: -0.0637112483382225
visibility: 0.9918007850646973
","x: 183.3786163330078
y: 457.9611511230469
z: 0.05230986326932907
visibility: 0.980938732624054
","x: 206.8926544189453
y: 539.958740234375
z: 0.048609327524900436
visibility: 0.9895536303520203
","x: 187.80882263183594
y: 538.596435546875
z: 0.16289690136909485
visibility: 0.9853865504264832
","x: 207.24185180664062
y: 553.40478515625
z: 0.05130276083946228
visibility: 0.8462647795677185
","x: 191.83615112304688
y: 550.966064453125
z: 0.16589704155921936
visibility: 0.9166481494903564
","x: 199.79246520996094
y: 562.7203979492188
z: -0.07534250617027283
visibility: 0.9825050234794617
","x: 171.08116149902344
y: 563.0936279296875
z: 0.05910737067461014
visibility: 0.9825811386108398
",,,,,,,,,,,,,,,,,,,,,,"x: 154.7487335205078
y: 249.3299102783203
z: 0.0
","x: 158.75283813476562
y: 246.33248901367188
z: -0.001037613139487803
","x: 161.78025817871094
y: 241.27305603027344
z: -0.0019615713972598314
","x: 163.52560424804688
y: 236.8443145751953
z: -0.0035481995437294245
","x: 164.80374145507812
y: 233.23785400390625
z: -0.00495942123234272
","x: 161.3451385498047
y: 233.4630126953125
z: 0.0007968985009938478
","x: 163.15957641601562
y: 227.13333129882812
z: -0.0023636275436729193
","x: 165.03587341308594
y: 225.52066040039062
z: -0.004686681088060141
","x: 166.7058563232422
y: 225.47918701171875
z: -0.0059227850288152695
","x: 159.8031768798828
y: 232.5830841064453
z: -0.0009620944620110095
","x: 161.44920349121094
y: 225.51058959960938
z: -0.00427638366818428
","x: 163.63519287109375
y: 223.76905822753906
z: -0.006589772645384073
","x: 165.7588348388672
y: 224.16830444335938
z: -0.007852297276258469
","x: 158.03102111816406
y: 232.6866912841797
z: -0.0033768690191209316
","x: 159.2749481201172
y: 225.69302368164062
z: -0.006396911572664976
","x: 161.1897735595703
y: 223.9509735107422
z: -0.00805655401200056
","x: 163.18202209472656
y: 224.0823211669922
z: -0.008872603066265583
","x: 156.0118865966797
y: 233.91094970703125
z: -0.006134846713393927
","x: 156.4251708984375
y: 228.5635223388672
z: -0.008251110091805458
","x: 157.55023193359375
y: 226.78993225097656
z: -0.009223878383636475
","x: 158.9806365966797
y: 226.46156311035156
z: -0.009758398868143559
"
4,"x: 181.20887756347656
y: 211.9889678955078
z: -0.12181305885314941
visibility: 0.9999676942825317
","x: 184.0681915283203
y: 203.27786254882812
z: -0.12489960342645645
visibility: 0.9998371005058289
","x: 185.4733123779297
y: 202.769775390625
z: -0.12490198761224747
visibility: 0.9998531937599182
","x: 186.90692138671875
y: 202.29661560058594
z: -0.12492060661315918
visibility: 0.9998451471328735
","x: 181.4932861328125
y: 203.78500366210938
z: -0.10101483762264252
visibility: 0.9997993111610413
","x: 181.08621215820312
y: 203.57984924316406
z: -0.10104294866323471
visibility: 0.9997785687446594
","x: 180.74746704101562
y: 203.3842315673828
z: -0.10101739317178726
visibility: 0.9997398257255554
","x: 193.716064453125
y: 204.80938720703125
z: -0.09080754220485687
visibility: 0.9998618364334106
","x: 184.6858673095703
y: 205.5001678466797
z: 0.016879862174391747
visibility: 0.99945068359375
","x: 184.81884765625
y: 219.27227783203125
z: -0.1067674532532692
visibility: 0.9999614953994751
","x: 181.60250854492188
y: 219.55148315429688
z: -0.07578659057617188
visibility: 0.9999212622642517
","x: 210.77471923828125
y: 246.37123107910156
z: -0.08274344354867935
visibility: 0.9999930262565613
","x: 172.97329711914062
y: 247.94146728515625
z: 0.13503244519233704
visibility: 0.9999097585678101
","x: 221.13238525390625
y: 302.84271240234375
z: -0.06046098470687866
visibility: 0.9980422258377075
","x: 156.83657836914062
y: 293.7095947265625
z: 0.04787954315543175
visibility: 0.9708213210105896
","x: 227.84710693359375
y: 356.8328552246094
z: -0.08398167788982391
visibility: 0.9929119944572449
","x: 156.8535919189453
y: 247.2684326171875
z: -0.18776920437812805
visibility: 0.9833696484565735
","x: 232.87710571289062
y: 372.085205078125
z: -0.09440434724092484
visibility: 0.9808327555656433
","x: 159.30335998535156
y: 235.21226501464844
z: -0.2242751121520996
visibility: 0.9674911499023438
","x: 229.59544372558594
y: 373.14385986328125
z: -0.11977598816156387
visibility: 0.9829743504524231
","x: 161.37728881835938
y: 230.7283172607422
z: -0.25007909536361694
visibility: 0.9717609286308289
","x: 226.60159301757812
y: 370.36962890625
z: -0.09117995202541351
visibility: 0.9792263507843018
","x: 161.8384246826172
y: 234.82366943359375
z: -0.19675782322883606
visibility: 0.968299388885498
","x: 197.25440979003906
y: 367.6243591308594
z: -0.0790603905916214
visibility: 0.9993993043899536
","x: 178.58860778808594
y: 368.1094665527344
z: 0.07891582697629929
visibility: 0.9987831115722656
","x: 195.01177978515625
y: 458.1663513183594
z: -0.06576237827539444
visibility: 0.9921550154685974
","x: 181.55661010742188
y: 457.4140625
z: 0.09048253297805786
visibility: 0.9806384444236755
","x: 205.8911895751953
y: 540.3269653320312
z: 0.029724324122071266
visibility: 0.9901583194732666
","x: 186.3689422607422
y: 538.6920166015625
z: 0.17703454196453094
visibility: 0.9858535528182983
","x: 207.33673095703125
y: 553.860595703125
z: 0.03192786127328873
visibility: 0.8569304943084717
","x: 191.07057189941406
y: 551.0609741210938
z: 0.17799623310565948
visibility: 0.9217973947525024
","x: 197.88107299804688
y: 563.753173828125
z: -0.08576836436986923
visibility: 0.983670175075531
","x: 167.6539764404297
y: 562.6989135742188
z: 0.09214387834072113
visibility: 0.9833917617797852
","x: 224.4307403564453
y: 359.5768737792969
z: 0.0
","x: 222.4620361328125
y: 365.31787109375
z: -0.0021184198558330536
","x: 222.01661682128906
y: 372.3782043457031
z: -0.0033826627768576145
","x: 222.90171813964844
y: 376.8738098144531
z: -0.004944082349538803
","x: 223.9899139404297
y: 379.51495361328125
z: -0.006450597196817398
","x: 227.33856201171875
y: 378.7996826171875
z: -0.0004918021732009947
","x: 229.3157958984375
y: 385.1611633300781
z: -0.0026179999113082886
","x: 230.30743408203125
y: 388.5849609375
z: -0.0040517933666706085
","x: 231.2179718017578
y: 391.36962890625
z: -0.004901669453829527
","x: 229.79885864257812
y: 376.83929443359375
z: -0.0015527104260399938
","x: 232.7808380126953
y: 383.362060546875
z: -0.003111815545707941
","x: 234.3604736328125
y: 387.02435302734375
z: -0.004237342160195112
","x: 235.86793518066406
y: 389.76068115234375
z: -0.005113274324685335
","x: 231.58705139160156
y: 373.58648681640625
z: -0.00324080279096961
","x: 234.8128204345703
y: 379.0232849121094
z: -0.005316989496350288
","x: 236.5889434814453
y: 382.4349670410156
z: -0.006592920515686274
","x: 238.0065460205078
y: 384.9269104003906
z: -0.0073956940323114395
","x: 232.73931884765625
y: 369.174072265625
z: -0.0053235325030982494
","x: 235.630859375
y: 372.5892333984375
z: -0.007122114300727844
","x: 237.22874450683594
y: 374.86016845703125
z: -0.008046342059969902
","x: 238.451171875
y: 376.6050720214844
z: -0.008629482239484787
","x: 155.4903106689453
y: 246.98410034179688
z: 0.0
","x: 160.2412109375
y: 243.45880126953125
z: 0.001147384406067431
","x: 163.2579803466797
y: 238.72177124023438
z: 0.0016852940898388624
","x: 164.91864013671875
y: 234.57904052734375
z: 0.00104942312464118
","x: 166.13307189941406
y: 231.66018676757812
z: 0.0005562491132877767
","x: 162.83135986328125
y: 231.88595581054688
z: 0.005559959448873997
","x: 165.53570556640625
y: 227.73094177246094
z: 0.0034544612281024456
","x: 167.94528198242188
y: 227.10482788085938
z: 0.00121412449516356
","x: 169.92530822753906
y: 227.7503662109375
z: 4.84147276438307e-05
","x: 161.67288208007812
y: 230.4854736328125
z: 0.0031588480342179537
","x: 164.486328125
y: 225.82681274414062
z: 0.00046066034701652825
","x: 167.08131408691406
y: 225.4944610595703
z: -0.002441635588183999
","x: 169.31053161621094
y: 226.88040161132812
z: -0.004004738759249449
","x: 160.29278564453125
y: 229.65170288085938
z: 0.0001337688008788973
","x: 162.9932861328125
y: 224.79299926757812
z: -0.002200244925916195
","x: 165.55343627929688
y: 224.28759765625
z: -0.0040005953051149845
","x: 167.67762756347656
y: 225.63455200195312
z: -0.00485745444893837
","x: 158.70858764648438
y: 229.60365295410156
z: -0.003135816426947713
","x: 160.73899841308594
y: 225.32386779785156
z: -0.004600252024829388
","x: 162.88710021972656
y: 224.37881469726562
z: -0.005444244481623173
","x: 164.80235290527344
y: 225.00259399414062
z: -0.00587031664326787
"
5,"x: 181.20887756347656
y: 211.9889678955078
z: -0.12181305885314941
visibility: 0.9999676942825317
","x: 184.0681915283203
y: 203.27786254882812
z: -0.12489960342645645
visibility: 0.9998371005058289
","x: 185.4733123779297
y: 202.769775390625
z: -0.12490198761224747
visibility: 0.9998531937599182
","x: 186.90692138671875
y: 202.29661560058594
z: -0.12492060661315918
visibility: 0.9998451471328735
","x: 181.4932861328125
y: 203.78500366210938
z: -0.10101483762264252
visibility: 0.9997993111610413
","x: 181.08621215820312
y: 203.57984924316406
z: -0.10104294866323471
visibility: 0.9997785687446594
","x: 180.74746704101562
y: 203.3842315673828
z: -0.10101739317178726
visibility: 0.9997398257255554
","x: 193.716064453125
y: 204.80938720703125
z: -0.09080754220485687
visibility: 0.9998618364334106
","x: 184.6858673095703
y: 205.5001678466797
z: 0.016879862174391747
visibility: 0.99945068359375
","x: 184.81884765625
y: 219.27227783203125
z: -0.1067674532532692
visibility: 0.9999614953994751
","x: 181.60250854492188
y: 219.55148315429688
z: -0.07578659057617188
visibility: 0.9999212622642517
","x: 210.77471923828125
y: 246.37123107910156
z: -0.08274344354867935
visibility: 0.9999930262565613
","x: 172.97329711914062
y: 247.94146728515625
z: 0.13503244519233704
visibility: 0.9999097585678101
","x: 221.13238525390625
y: 302.84271240234375
z: -0.06046098470687866
visibility: 0.9980422258377075
","x: 156.83657836914062
y: 293.7095947265625
z: 0.04787954315543175
visibility: 0.9708213210105896
","x: 227.84710693359375
y: 356.8328552246094
z: -0.08398167788982391
visibility: 0.9929119944572449
","x: 156.8535919189453
y: 247.2684326171875
z: -0.18776920437812805
visibility: 0.9833696484565735
","x: 232.87710571289062
y: 372.085205078125
z: -0.09440434724092484
visibility: 0.9808327555656433
","x: 159.30335998535156
y: 235.21226501464844
z: -0.2242751121520996
visibility: 0.9674911499023438
","x: 229.59544372558594
y: 373.14385986328125
z: -0.11977598816156387
visibility: 0.9829743504524231
","x: 161.37728881835938
y: 230.7283172607422
z: -0.25007909536361694
visibility: 0.9717609286308289
","x: 226.60159301757812
y: 370.36962890625
z: -0.09117995202541351
visibility: 0.9792263507843018
","x: 161.8384246826172
y: 234.82366943359375
z: -0.19675782322883606
visibility: 0.968299388885498
","x: 197.25440979003906
y: 367.6243591308594
z: -0.0790603905916214
visibility: 0.9993993043899536
","x: 178.58860778808594
y: 368.1094665527344
z: 0.07891582697629929
visibility: 0.9987831115722656
","x: 195.01177978515625
y: 458.1663513183594
z: -0.06576237827539444
visibility: 0.9921550154685974
","x: 181.55661010742188
y: 457.4140625
z: 0.09048253297805786
visibility: 0.9806384444236755
","x: 205.8911895751953
y: 540.3269653320312
z: 0.029724324122071266
visibility: 0.9901583194732666
","x: 186.3689422607422
y: 538.6920166015625
z: 0.17703454196453094
visibility: 0.9858535528182983
","x: 207.33673095703125
y: 553.860595703125
z: 0.03192786127328873
visibility: 0.8569304943084717
","x: 191.07057189941406
y: 551.0609741210938
z: 0.17799623310565948
visibility: 0.9217973947525024
","x: 197.88107299804688
y: 563.753173828125
z: -0.08576836436986923
visibility: 0.983670175075531
","x: 167.6539764404297
y: 562.6989135742188
z: 0.09214387834072113
visibility: 0.9833917617797852
","x: 224.4307403564453
y: 359.5768737792969
z: 0.0
","x: 222.4620361328125
y: 365.31787109375
z: -0.0021184198558330536
","x: 222.01661682128906
y: 372.3782043457031
z: -0.0033826627768576145
","x: 222.90171813964844
y: 376.8738098144531
z: -0.004944082349538803
","x: 223.9899139404297
y: 379.51495361328125
z: -0.006450597196817398
","x: 227.33856201171875
y: 378.7996826171875
z: -0.0004918021732009947
","x: 229.3157958984375
y: 385.1611633300781
z: -0.0026179999113082886
","x: 230.30743408203125
y: 388.5849609375
z: -0.0040517933666706085
","x: 231.2179718017578
y: 391.36962890625
z: -0.004901669453829527
","x: 229.79885864257812
y: 376.83929443359375
z: -0.0015527104260399938
","x: 232.7808380126953
y: 383.362060546875
z: -0.003111815545707941
","x: 234.3604736328125
y: 387.02435302734375
z: -0.004237342160195112
","x: 235.86793518066406
y: 389.76068115234375
z: -0.005113274324685335
","x: 231.58705139160156
y: 373.58648681640625
z: -0.00324080279096961
","x: 234.8128204345703
y: 379.0232849121094
z: -0.005316989496350288
","x: 236.5889434814453
y: 382.4349670410156
z: -0.006592920515686274
","x: 238.0065460205078
y: 384.9269104003906
z: -0.0073956940323114395
","x: 232.73931884765625
y: 369.174072265625
z: -0.0053235325030982494
","x: 235.630859375
y: 372.5892333984375
z: -0.007122114300727844
","x: 237.22874450683594
y: 374.86016845703125
z: -0.008046342059969902
","x: 238.451171875
y: 376.6050720214844
z: -0.008629482239484787
","x: 155.4903106689453
y: 246.98410034179688
z: 0.0
","x: 160.2412109375
y: 243.45880126953125
z: 0.001147384406067431
","x: 163.2579803466797
y: 238.72177124023438
z: 0.0016852940898388624
","x: 164.91864013671875
y: 234.57904052734375
z: 0.00104942312464118
","x: 166.13307189941406
y: 231.66018676757812
z: 0.0005562491132877767
","x: 162.83135986328125
y: 231.88595581054688
z: 0.005559959448873997
","x: 165.53570556640625
y: 227.73094177246094
z: 0.0034544612281024456
","x: 167.94528198242188
y: 227.10482788085938
z: 0.00121412449516356
","x: 169.92530822753906
y: 227.7503662109375
z: 4.84147276438307e-05
","x: 161.67288208007812
y: 230.4854736328125
z: 0.0031588480342179537
","x: 164.486328125
y: 225.82681274414062
z: 0.00046066034701652825
","x: 167.08131408691406
y: 225.4944610595703
z: -0.002441635588183999
","x: 169.31053161621094
y: 226.88040161132812
z: -0.004004738759249449
","x: 160.29278564453125
y: 229.65170288085938
z: 0.0001337688008788973
","x: 162.9932861328125
y: 224.79299926757812
z: -0.002200244925916195
","x: 165.55343627929688
y: 224.28759765625
z: -0.0040005953051149845
","x: 167.67762756347656
y: 225.63455200195312
z: -0.00485745444893837
","x: 158.70858764648438
y: 229.60365295410156
z: -0.003135816426947713
","x: 160.73899841308594
y: 225.32386779785156
z: -0.004600252024829388
","x: 162.88710021972656
y: 224.37881469726562
z: -0.005444244481623173
","x: 164.80235290527344
y: 225.00259399414062
z: -0.00587031664326787
"
6,"x: 181.20887756347656
y: 211.9889678955078
z: -0.12181305885314941
visibility: 0.9999676942825317
","x: 184.0681915283203
y: 203.27786254882812
z: -0.12489960342645645
visibility: 0.9998371005058289
","x: 185.4733123779297
y: 202.769775390625
z: -0.12490198761224747
visibility: 0.9998531937599182
","x: 186.90692138671875
y: 202.29661560058594
z: -0.12492060661315918
visibility: 0.9998451471328735
","x: 181.4932861328125
y: 203.78500366210938
z: -0.10101483762264252
visibility: 0.9997993111610413
","x: 181.08621215820312
y: 203.57984924316406
z: -0.10104294866323471
visibility: 0.9997785687446594
","x: 180.74746704101562
y: 203.3842315673828
z: -0.10101739317178726
visibility: 0.9997398257255554
","x: 193.716064453125
y: 204.80938720703125
z: -0.09080754220485687
visibility: 0.9998618364334106
","x: 184.6858673095703
y: 205.5001678466797
z: 0.016879862174391747
visibility: 0.99945068359375
","x: 184.81884765625
y: 219.27227783203125
z: -0.1067674532532692
visibility: 0.9999614953994751
","x: 181.60250854492188
y: 219.55148315429688
z: -0.07578659057617188
visibility: 0.9999212622642517
","x: 210.77471923828125
y: 246.37123107910156
z: -0.08274344354867935
visibility: 0.9999930262565613
","x: 172.97329711914062
y: 247.94146728515625
z: 0.13503244519233704
visibility: 0.9999097585678101
","x: 221.13238525390625
y: 302.84271240234375
z: -0.06046098470687866
visibility: 0.9980422258377075
","x: 156.83657836914062
y: 293.7095947265625
z: 0.04787954315543175
visibility: 0.9708213210105896
","x: 227.84710693359375
y: 356.8328552246094
z: -0.08398167788982391
visibility: 0.9929119944572449
","x: 156.8535919189453
y: 247.2684326171875
z: -0.18776920437812805
visibility: 0.9833696484565735
","x: 232.87710571289062
y: 372.085205078125
z: -0.09440434724092484
visibility: 0.9808327555656433
","x: 159.30335998535156
y: 235.21226501464844
z: -0.2242751121520996
visibility: 0.9674911499023438
","x: 229.59544372558594
y: 373.14385986328125
z: -0.11977598816156387
visibility: 0.9829743504524231
","x: 161.37728881835938
y: 230.7283172607422
z: -0.25007909536361694
visibility: 0.9717609286308289
","x: 226.60159301757812
y: 370.36962890625
z: -0.09117995202541351
visibility: 0.9792263507843018
","x: 161.8384246826172
y: 234.82366943359375
z: -0.19675782322883606
visibility: 0.968299388885498
","x: 197.25440979003906
y: 367.6243591308594
z: -0.0790603905916214
visibility: 0.9993993043899536
","x: 178.58860778808594
y: 368.1094665527344
z: 0.07891582697629929
visibility: 0.9987831115722656
","x: 195.01177978515625
y: 458.1663513183594
z: -0.06576237827539444
visibility: 0.9921550154685974
","x: 181.55661010742188
y: 457.4140625
z: 0.09048253297805786
visibility: 0.9806384444236755
","x: 205.8911895751953
y: 540.3269653320312
z: 0.029724324122071266
visibility: 0.9901583194732666
","x: 186.3689422607422
y: 538.6920166015625
z: 0.17703454196453094
visibility: 0.9858535528182983
","x: 207.33673095703125
y: 553.860595703125
z: 0.03192786127328873
visibility: 0.8569304943084717
","x: 191.07057189941406
y: 551.0609741210938
z: 0.17799623310565948
visibility: 0.9217973947525024
","x: 197.88107299804688
y: 563.753173828125
z: -0.08576836436986923
visibility: 0.983670175075531
","x: 167.6539764404297
y: 562.6989135742188
z: 0.09214387834072113
visibility: 0.9833917617797852
","x: 224.4307403564453
y: 359.5768737792969
z: 0.0
","x: 222.4620361328125
y: 365.31787109375
z: -0.0021184198558330536
","x: 222.01661682128906
y: 372.3782043457031
z: -0.0033826627768576145
","x: 222.90171813964844
y: 376.8738098144531
z: -0.004944082349538803
","x: 223.9899139404297
y: 379.51495361328125
z: -0.006450597196817398
","x: 227.33856201171875
y: 378.7996826171875
z: -0.0004918021732009947
","x: 229.3157958984375
y: 385.1611633300781
z: -0.0026179999113082886
","x: 230.30743408203125
y: 388.5849609375
z: -0.0040517933666706085
","x: 231.2179718017578
y: 391.36962890625
z: -0.004901669453829527
","x: 229.79885864257812
y: 376.83929443359375
z: -0.0015527104260399938
","x: 232.7808380126953
y: 383.362060546875
z: -0.003111815545707941
","x: 234.3604736328125
y: 387.02435302734375
z: -0.004237342160195112
","x: 235.86793518066406
y: 389.76068115234375
z: -0.005113274324685335
","x: 231.58705139160156
y: 373.58648681640625
z: -0.00324080279096961
","x: 234.8128204345703
y: 379.0232849121094
z: -0.005316989496350288
","x: 236.5889434814453
y: 382.4349670410156
z: -0.006592920515686274
","x: 238.0065460205078
y: 384.9269104003906
z: -0.0073956940323114395
","x: 232.73931884765625
y: 369.174072265625
z: -0.0053235325030982494
","x: 235.630859375
y: 372.5892333984375
z: -0.007122114300727844
","x: 237.22874450683594
y: 374.86016845703125
z: -0.008046342059969902
","x: 238.451171875
y: 376.6050720214844
z: -0.008629482239484787
","x: 155.4903106689453
y: 246.98410034179688
z: 0.0
","x: 160.2412109375
y: 243.45880126953125
z: 0.001147384406067431
","x: 163.2579803466797
y: 238.72177124023438
z: 0.0016852940898388624
","x: 164.91864013671875
y: 234.57904052734375
z: 0.00104942312464118
","x: 166.13307189941406
y: 231.66018676757812
z: 0.0005562491132877767
","x: 162.83135986328125
y: 231.88595581054688
z: 0.005559959448873997
","x: 165.53570556640625
y: 227.73094177246094
z: 0.0034544612281024456
","x: 167.94528198242188
y: 227.10482788085938
z: 0.00121412449516356
","x: 169.92530822753906
y: 227.7503662109375
z: 4.84147276438307e-05
","x: 161.67288208007812
y: 230.4854736328125
z: 0.0031588480342179537
","x: 164.486328125
y: 225.82681274414062
z: 0.00046066034701652825
","x: 167.08131408691406
y: 225.4944610595703
z: -0.002441635588183999
","x: 169.31053161621094
y: 226.88040161132812
z: -0.004004738759249449
","x: 160.29278564453125
y: 229.65170288085938
z: 0.0001337688008788973
","x: 162.9932861328125
y: 224.79299926757812
z: -0.002200244925916195
","x: 165.55343627929688
y: 224.28759765625
z: -0.0040005953051149845
","x: 167.67762756347656
y: 225.63455200195312
z: -0.00485745444893837
","x: 158.70858764648438
y: 229.60365295410156
z: -0.003135816426947713
","x: 160.73899841308594
y: 225.32386779785156
z: -0.004600252024829388
","x: 162.88710021972656
y: 224.37881469726562
z: -0.005444244481623173
","x: 164.80235290527344
y: 225.00259399414062
z: -0.00587031664326787
"
7,"x: 178.8296356201172
y: 209.266357421875
z: -0.15196184813976288
visibility: 0.9999691843986511
","x: 181.6275177001953
y: 201.3343505859375
z: -0.152137890458107
visibility: 0.999847948551178
","x: 183.0220184326172
y: 200.90292358398438
z: -0.15211278200149536
visibility: 0.9998636841773987
","x: 184.45623779296875
y: 200.5422821044922
z: -0.15212926268577576
visibility: 0.9998556971549988
","x: 178.88876342773438
y: 201.918701171875
z: -0.12925459444522858
visibility: 0.9998126029968262
","x: 178.36441040039062
y: 201.85696411132812
z: -0.12930606305599213
visibility: 0.9997943043708801
","x: 177.877197265625
y: 201.8182373046875
z: -0.12928766012191772
visibility: 0.9997592568397522
","x: 190.5806427001953
y: 204.4895782470703
z: -0.11264978349208832
visibility: 0.9998723268508911
","x: 181.38861083984375
y: 205.07131958007812
z: -0.009681595489382744
visibility: 0.9994873404502869
","x: 182.5150909423828
y: 217.10935974121094
z: -0.1357484608888626
visibility: 0.999960720539093
","x: 179.1885528564453
y: 217.26736450195312
z: -0.10634949058294296
visibility: 0.9999191164970398
","x: 206.165283203125
y: 246.82553100585938
z: -0.11312735080718994
visibility: 0.9999927282333374
","x: 172.21743774414062
y: 248.45462036132812
z: 0.10733573138713837
visibility: 0.9999061226844788
","x: 216.8408203125
y: 309.7760314941406
z: -0.127497598528862
visibility: 0.9982123374938965
","x: 152.28814697265625
y: 284.6731262207031
z: 0.01755145564675331
visibility: 0.9723286032676697
","x: 228.232421875
y: 367.513427734375
z: -0.12184830009937286
visibility: 0.9933199286460876
","x: 159.70338439941406
y: 236.83157348632812
z: -0.24634835124015808
visibility: 0.9845821857452393
","x: 234.2449493408203
y: 382.8372497558594
z: -0.12991979718208313
visibility: 0.9814824461936951
","x: 161.66024780273438
y: 223.40481567382812
z: -0.28095608949661255
visibility: 0.9694226980209351
","x: 231.201416015625
y: 384.3069763183594
z: -0.15125291049480438
visibility: 0.9834850430488586
","x: 163.56613159179688
y: 221.46969604492188
z: -0.26964762806892395
visibility: 0.9731345772743225
","x: 227.8705596923828
y: 380.9892578125
z: -0.1275886446237564
visibility: 0.9796603322029114
","x: 164.2718048095703
y: 225.65777587890625
z: -0.24916532635688782
visibility: 0.9693772196769714
","x: 193.95164489746094
y: 365.952880859375
z: -0.09097372740507126
visibility: 0.999451220035553
","x: 176.52015686035156
y: 366.5519714355469
z: 0.0907464325428009
visibility: 0.9988999366760254
","x: 180.1287384033203
y: 450.5111389160156
z: -0.1569737046957016
visibility: 0.9923999905586243
","x: 177.4375762939453
y: 453.0690002441406
z: 0.037940505892038345
visibility: 0.9693821668624878
","x: 205.5103302001953
y: 531.279052734375
z: -0.06358840316534042
visibility: 0.9906160235404968
","x: 185.15533447265625
y: 538.6624755859375
z: 0.11065969616174698
visibility: 0.9844890236854553
","x: 211.7552032470703
y: 537.33837890625
z: -0.056730806827545166
visibility: 0.8685114979743958
","x: 190.65567016601562
y: 551.7301025390625
z: 0.1129515990614891
visibility: 0.9252790808677673
","x: 196.71295166015625
y: 562.7776489257812
z: -0.13103216886520386
visibility: 0.9846318960189819
","x: 163.79446411132812
y: 562.911376953125
z: 0.03679715096950531
visibility: 0.9826230406761169
",,,,,,,,,,,,,,,,,,,,,,"x: 159.0900421142578
y: 233.29623413085938
z: 0.0
","x: 163.23692321777344
y: 231.05267333984375
z: 1.4530716725857928e-05
","x: 166.65980529785156
y: 226.2322998046875
z: -0.0009646567050367594
","x: 168.33645629882812
y: 221.80020141601562
z: -0.003121953224763274
","x: 169.015869140625
y: 217.76019287109375
z: -0.004735592287033796
","x: 166.54345703125
y: 216.83529663085938
z: 0.0021184745710343122
","x: 168.80123901367188
y: 209.99148559570312
z: -0.0010843294439837337
","x: 170.36489868164062
y: 212.63304138183594
z: -0.002764281118288636
","x: 170.6332550048828
y: 216.6272735595703
z: -0.0033366354182362556
","x: 164.96192932128906
y: 215.9430694580078
z: -0.00030969842919148505
","x: 167.63365173339844
y: 209.43251037597656
z: -0.004048082511872053
","x: 169.04989624023438
y: 212.36013793945312
z: -0.0054070306941866875
","x: 168.99163818359375
y: 216.1607666015625
z: -0.005452222656458616
","x: 163.0077667236328
y: 215.55316162109375
z: -0.0034029234666377306
","x: 165.39466857910156
y: 209.35543823242188
z: -0.006387659348547459
","x: 167.0645751953125
y: 211.7501220703125
z: -0.005911691579967737
","x: 167.38388061523438
y: 215.09054565429688
z: -0.004978973884135485
","x: 160.77655029296875
y: 215.80484008789062
z: -0.006925646215677261
","x: 162.69189453125
y: 210.4351043701172
z: -0.008610609918832779
","x: 164.52687072753906
y: 210.759033203125
z: -0.008154058828949928
","x: 165.5049591064453
y: 212.46759033203125
z: -0.007372397463768721
"
8,"x: 178.8296356201172
y: 209.266357421875
z: -0.15196184813976288
visibility: 0.9999691843986511
","x: 181.6275177001953
y: 201.3343505859375
z: -0.152137890458107
visibility: 0.999847948551178
","x: 183.0220184326172
y: 200.90292358398438
z: -0.15211278200149536
visibility: 0.9998636841773987
","x: 184.45623779296875
y: 200.5422821044922
z: -0.15212926268577576
visibility: 0.9998556971549988
","x: 178.88876342773438
y: 201.918701171875
z: -0.12925459444522858
visibility: 0.9998126029968262
","x: 178.36441040039062
y: 201.85696411132812
z: -0.12930606305599213
visibility: 0.9997943043708801
","x: 177.877197265625
y: 201.8182373046875
z: -0.12928766012191772
visibility: 0.9997592568397522
","x: 190.5806427001953
y: 204.4895782470703
z: -0.11264978349208832
visibility: 0.9998723268508911
","x: 181.38861083984375
y: 205.07131958007812
z: -0.009681595489382744
visibility: 0.9994873404502869
","x: 182.5150909423828
y: 217.10935974121094
z: -0.1357484608888626
visibility: 0.999960720539093
","x: 179.1885528564453
y: 217.26736450195312
z: -0.10634949058294296
visibility: 0.9999191164970398
","x: 206.165283203125
y: 246.82553100585938
z: -0.11312735080718994
visibility: 0.9999927282333374
","x: 172.21743774414062
y: 248.45462036132812
z: 0.10733573138713837
visibility: 0.9999061226844788
","x: 216.8408203125
y: 309.7760314941406
z: -0.127497598528862
visibility: 0.9982123374938965
","x: 152.28814697265625
y: 284.6731262207031
z: 0.01755145564675331
visibility: 0.9723286032676697
","x: 228.232421875
y: 367.513427734375
z: -0.12184830009937286
visibility: 0.9933199286460876
","x: 159.70338439941406
y: 236.83157348632812
z: -0.24634835124015808
visibility: 0.9845821857452393
","x: 234.2449493408203
y: 382.8372497558594
z: -0.12991979718208313
visibility: 0.9814824461936951
","x: 161.66024780273438
y: 223.40481567382812
z: -0.28095608949661255
visibility: 0.9694226980209351
","x: 231.201416015625
y: 384.3069763183594
z: -0.15125291049480438
visibility: 0.9834850430488586
","x: 163.56613159179688
y: 221.46969604492188
z: -0.26964762806892395
visibility: 0.9731345772743225
","x: 227.8705596923828
y: 380.9892578125
z: -0.1275886446237564
visibility: 0.9796603322029114
","x: 164.2718048095703
y: 225.65777587890625
z: -0.24916532635688782
visibility: 0.9693772196769714
","x: 193.95164489746094
y: 365.952880859375
z: -0.09097372740507126
visibility: 0.999451220035553
","x: 176.52015686035156
y: 366.5519714355469
z: 0.0907464325428009
visibility: 0.9988999366760254
","x: 180.1287384033203
y: 450.5111389160156
z: -0.1569737046957016
visibility: 0.9923999905586243
","x: 177.4375762939453
y: 453.0690002441406
z: 0.037940505892038345
visibility: 0.9693821668624878
","x: 205.5103302001953
y: 531.279052734375
z: -0.06358840316534042
visibility: 0.9906160235404968
","x: 185.15533447265625
y: 538.6624755859375
z: 0.11065969616174698
visibility: 0.9844890236854553
","x: 211.7552032470703
y: 537.33837890625
z: -0.056730806827545166
visibility: 0.8685114979743958
","x: 190.65567016601562
y: 551.7301025390625
z: 0.1129515990614891
visibility: 0.9252790808677673
","x: 196.71295166015625
y: 562.7776489257812
z: -0.13103216886520386
visibility: 0.9846318960189819
","x: 163.79446411132812
y: 562.911376953125
z: 0.03679715096950531
visibility: 0.9826230406761169
",,,,,,,,,,,,,,,,,,,,,,"x: 159.0900421142578
y: 233.29623413085938
z: 0.0
","x: 163.23692321777344
y: 231.05267333984375
z: 1.4530716725857928e-05
","x: 166.65980529785156
y: 226.2322998046875
z: -0.0009646567050367594
","x: 168.33645629882812
y: 221.80020141601562
z: -0.003121953224763274
","x: 169.015869140625
y: 217.76019287109375
z: -0.004735592287033796
","x: 166.54345703125
y: 216.83529663085938
z: 0.0021184745710343122
","x: 168.80123901367188
y: 209.99148559570312
z: -0.0010843294439837337
","x: 170.36489868164062
y: 212.63304138183594
z: -0.002764281118288636
","x: 170.6332550048828
y: 216.6272735595703
z: -0.0033366354182362556
","x: 164.96192932128906
y: 215.9430694580078
z: -0.00030969842919148505
","x: 167.63365173339844
y: 209.43251037597656
z: -0.004048082511872053
","x: 169.04989624023438
y: 212.36013793945312
z: -0.0054070306941866875
","x: 168.99163818359375
y: 216.1607666015625
z: -0.005452222656458616
","x: 163.0077667236328
y: 215.55316162109375
z: -0.0034029234666377306
","x: 165.39466857910156
y: 209.35543823242188
z: -0.006387659348547459
","x: 167.0645751953125
y: 211.7501220703125
z: -0.005911691579967737
","x: 167.38388061523438
y: 215.09054565429688
z: -0.004978973884135485
","x: 160.77655029296875
y: 215.80484008789062
z: -0.006925646215677261
","x: 162.69189453125
y: 210.4351043701172
z: -0.008610609918832779
","x: 164.52687072753906
y: 210.759033203125
z: -0.008154058828949928
","x: 165.5049591064453
y: 212.46759033203125
z: -0.007372397463768721
"
9,"x: 177.48280334472656
y: 207.39544677734375
z: -0.15469343960285187
visibility: 0.9999687075614929
","x: 180.5552520751953
y: 200.09616088867188
z: -0.15699967741966248
visibility: 0.9998538494110107
","x: 181.90240478515625
y: 199.63807678222656
z: -0.15698370337486267
visibility: 0.9998705983161926
","x: 183.27967834472656
y: 199.2296142578125
z: -0.15701238811016083
visibility: 0.9998615384101868
","x: 178.01988220214844
y: 200.52610778808594
z: -0.1299929916858673
visibility: 0.9998184442520142
","x: 177.58909606933594
y: 200.39785766601562
z: -0.13004061579704285
visibility: 0.9998038411140442
","x: 177.18051147460938
y: 200.2804412841797
z: -0.12999951839447021
visibility: 0.9997722506523132
","x: 189.56907653808594
y: 203.51309204101562
z: -0.12591110169887543
visibility: 0.9998801350593567
","x: 181.01571655273438
y: 203.8843536376953
z: -0.00548966322094202
visibility: 0.9995110630989075
","x: 181.23388671875
y: 215.5640869140625
z: -0.14265809953212738
visibility: 0.9999564290046692
","x: 177.9166717529297
y: 215.5532684326172
z: -0.10785208642482758
visibility: 0.9999063014984131
","x: 204.62176513671875
y: 246.68356323242188
z: -0.14633212983608246
visibility: 0.9999926686286926
","x: 171.75343322753906
y: 248.58206176757812
z: 0.12361480295658112
visibility: 0.9998996257781982
","x: 219.08885192871094
y: 306.6403503417969
z: -0.17285576462745667
visibility: 0.9983779191970825
","x: 150.0692596435547
y: 274.63201904296875
z: 0.03308265283703804
visibility: 0.973425030708313
","x: 231.93458557128906
y: 360.8170166015625
z: -0.13404534757137299
visibility: 0.9938048720359802
","x: 160.2574005126953
y: 223.23509216308594
z: -0.2049124538898468
visibility: 0.9857020378112793
","x: 237.07534790039062
y: 376.6069030761719
z: -0.16443610191345215
visibility: 0.982383668422699
","x: 163.41290283203125
y: 210.56398010253906
z: -0.23387198150157928
visibility: 0.9712333679199219
","x: 233.96493530273438
y: 376.1458740234375
z: -0.1893993318080902
visibility: 0.9842836856842041
","x: 165.38900756835938
y: 209.50819396972656
z: -0.24896757304668427
visibility: 0.974453330039978
","x: 230.79559326171875
y: 372.2243957519531
z: -0.15140986442565918
visibility: 0.9804935455322266
","x: 165.5772705078125
y: 213.90005493164062
z: -0.21034595370292664
visibility: 0.9704686999320984
","x: 192.65597534179688
y: 364.2781066894531
z: -0.10841576755046844
visibility: 0.9994971752166748
","x: 176.2913360595703
y: 366.0049133300781
z: 0.1081286072731018
visibility: 0.9990048408508301
","x: 174.45367431640625
y: 446.29083251953125
z: -0.18593725562095642
visibility: 0.9927061200141907
","x: 174.73292541503906
y: 452.6223449707031
z: 0.0692455843091011
visibility: 0.9437106847763062
","x: 205.59657287597656
y: 524.8265380859375
z: -0.0876300185918808
visibility: 0.991100549697876
","x: 184.63345336914062
y: 539.189208984375
z: 0.13806429505348206
visibility: 0.9802325367927551
","x: 213.94093322753906
y: 528.9144287109375
z: -0.07826826721429825
visibility: 0.8803251385688782
","x: 191.68740844726562
y: 552.186767578125
z: 0.14175941050052643
visibility: 0.9258149266242981
","x: 196.41619873046875
y: 561.8230590820312
z: -0.13446210324764252
visibility: 0.9856619834899902
","x: 164.72714233398438
y: 564.5549926757812
z: 0.07192341983318329
visibility: 0.9800640344619751
",,,,,,,,,,,,,,,,,,,,,,"x: 160.540283203125
y: 221.47589111328125
z: 0.0
","x: 164.54486083984375
y: 219.9313507080078
z: -0.0009743349510245025
","x: 168.26220703125
y: 216.126953125
z: -0.0018756240606307983
","x: 170.67379760742188
y: 212.10211181640625
z: -0.003454334568232298
","x: 171.67726135253906
y: 208.36302185058594
z: -0.004443850833922625
","x: 167.33750915527344
y: 207.25975036621094
z: 0.0021468610502779484
","x: 169.15658569335938
y: 201.90391540527344
z: -0.00047640939010307193
","x: 169.9457244873047
y: 204.06478881835938
z: -0.0019688268657773733
","x: 169.9097442626953
y: 206.97023010253906
z: -0.002495663706213236
","x: 165.57864379882812
y: 205.65049743652344
z: 0.0006880342261865735
","x: 167.3536834716797
y: 200.1299285888672
z: -0.0022210213355720043
","x: 168.3655242919922
y: 202.5759735107422
z: -0.0035278897266834974
","x: 168.38040161132812
y: 205.55908203125
z: -0.0037469803355634212
","x: 163.5291290283203
y: 204.59622192382812
z: -0.0014837139751762152
","x: 165.14462280273438
y: 198.80709838867188
z: -0.003922345116734505
","x: 166.48233032226562
y: 200.91065979003906
z: -0.0038462860975414515
","x: 166.8343048095703
y: 203.8268280029297
z: -0.0032596266828477383
","x: 161.17652893066406
y: 204.19845581054688
z: -0.004083804786205292
","x: 162.51939392089844
y: 199.05667114257812
z: -0.005504670552909374
","x: 164.03150939941406
y: 199.71554565429688
z: -0.005304563324898481
","x: 164.90980529785156
y: 201.55453491210938
z: -0.004749896936118603
"
10,"x: 177.48280334472656
y: 207.39544677734375
z: -0.15469343960285187
visibility: 0.9999687075614929
","x: 180.5552520751953
y: 200.09616088867188
z: -0.15699967741966248
visibility: 0.9998538494110107
","x: 181.90240478515625
y: 199.63807678222656
z: -0.15698370337486267
visibility: 0.9998705983161926
","x: 183.27967834472656
y: 199.2296142578125
z: -0.15701238811016083
visibility: 0.9998615384101868
","x: 178.01988220214844
y: 200.52610778808594
z: -0.1299929916858673
visibility: 0.9998184442520142
","x: 177.58909606933594
y: 200.39785766601562
z: -0.13004061579704285
visibility: 0.9998038411140442
","x: 177.18051147460938
y: 200.2804412841797
z: -0.12999951839447021
visibility: 0.9997722506523132
","x: 189.56907653808594
y: 203.51309204101562
z: -0.12591110169887543
visibility: 0.9998801350593567
","x: 181.01571655273438
y: 203.8843536376953
z: -0.00548966322094202
visibility: 0.9995110630989075
","x: 181.23388671875
y: 215.5640869140625
z: -0.14265809953212738
visibility: 0.9999564290046692
","x: 177.9166717529297
y: 215.5532684326172
z: -0.10785208642482758
visibility: 0.9999063014984131
","x: 204.62176513671875
y: 246.68356323242188
z: -0.14633212983608246
visibility: 0.9999926686286926
","x: 171.75343322753906
y: 248.58206176757812
z: 0.12361480295658112
visibility: 0.9998996257781982
","x: 219.08885192871094
y: 306.6403503417969
z: -0.17285576462745667
visibility: 0.9983779191970825
","x: 150.0692596435547
y: 274.63201904296875
z: 0.03308265283703804
visibility: 0.973425030708313
","x: 231.93458557128906
y: 360.8170166015625
z: -0.13404534757137299
visibility: 0.9938048720359802
","x: 160.2574005126953
y: 223.23509216308594
z: -0.2049124538898468
visibility: 0.9857020378112793
","x: 237.07534790039062
y: 376.6069030761719
z: -0.16443610191345215
visibility: 0.982383668422699
","x: 163.41290283203125
y: 210.56398010253906
z: -0.23387198150157928
visibility: 0.9712333679199219
","x: 233.96493530273438
y: 376.1458740234375
z: -0.1893993318080902
visibility: 0.9842836856842041
","x: 165.38900756835938
y: 209.50819396972656
z: -0.24896757304668427
visibility: 0.974453330039978
","x: 230.79559326171875
y: 372.2243957519531
z: -0.15140986442565918
visibility: 0.9804935455322266
","x: 165.5772705078125
y: 213.90005493164062
z: -0.21034595370292664
visibility: 0.9704686999320984
","x: 192.65597534179688
y: 364.2781066894531
z: -0.10841576755046844
visibility: 0.9994971752166748
","x: 176.2913360595703
y: 366.0049133300781
z: 0.1081286072731018
visibility: 0.9990048408508301
","x: 174.45367431640625
y: 446.29083251953125
z: -0.18593725562095642
visibility: 0.9927061200141907
","x: 174.73292541503906
y: 452.6223449707031
z: 0.0692455843091011
visibility: 0.9437106847763062
","x: 205.59657287597656
y: 524.8265380859375
z: -0.0876300185918808
visibility: 0.991100549697876
","x: 184.63345336914062
y: 539.189208984375
z: 0.13806429505348206
visibility: 0.9802325367927551
","x: 213.94093322753906
y: 528.9144287109375
z: -0.07826826721429825
visibility: 0.8803251385688782
","x: 191.68740844726562
y: 552.186767578125
z: 0.14175941050052643
visibility: 0.9258149266242981
","x: 196.41619873046875
y: 561.8230590820312
z: -0.13446210324764252
visibility: 0.9856619834899902
","x: 164.72714233398438
y: 564.5549926757812
z: 0.07192341983318329
visibility: 0.9800640344619751
",,,,,,,,,,,,,,,,,,,,,,"x: 160.540283203125
y: 221.47589111328125
z: 0.0
","x: 164.54486083984375
y: 219.9313507080078
z: -0.0009743349510245025
","x: 168.26220703125
y: 216.126953125
z: -0.0018756240606307983
","x: 170.67379760742188
y: 212.10211181640625
z: -0.003454334568232298
","x: 171.67726135253906
y: 208.36302185058594
z: -0.004443850833922625
","x: 167.33750915527344
y: 207.25975036621094
z: 0.0021468610502779484
","x: 169.15658569335938
y: 201.90391540527344
z: -0.00047640939010307193
","x: 169.9457244873047
y: 204.06478881835938
z: -0.0019688268657773733
","x: 169.9097442626953
y: 206.97023010253906
z: -0.002495663706213236
","x: 165.57864379882812
y: 205.65049743652344
z: 0.0006880342261865735
","x: 167.3536834716797
y: 200.1299285888672
z: -0.0022210213355720043
","x: 168.3655242919922
y: 202.5759735107422
z: -0.0035278897266834974
","x: 168.38040161132812
y: 205.55908203125
z: -0.0037469803355634212
","x: 163.5291290283203
y: 204.59622192382812
z: -0.0014837139751762152
","x: 165.14462280273438
y: 198.80709838867188
z: -0.003922345116734505
","x: 166.48233032226562
y: 200.91065979003906
z: -0.0038462860975414515
","x: 166.8343048095703
y: 203.8268280029297
z: -0.0032596266828477383
","x: 161.17652893066406
y: 204.19845581054688
z: -0.004083804786205292
","x: 162.51939392089844
y: 199.05667114257812
z: -0.005504670552909374
","x: 164.03150939941406
y: 199.71554565429688
z: -0.005304563324898481
","x: 164.90980529785156
y: 201.55453491210938
z: -0.004749896936118603
"
11,"x: 178.44326782226562
y: 207.73841857910156
z: -0.1269901692867279
visibility: 0.9999670386314392
","x: 181.54638671875
y: 200.5190887451172
z: -0.12489928305149078
visibility: 0.9998547434806824
","x: 182.87554931640625
y: 200.10629272460938
z: -0.12490825355052948
visibility: 0.9998729825019836
","x: 184.17257690429688
y: 199.7371063232422
z: -0.1249302476644516
visibility: 0.999863862991333
","x: 178.89651489257812
y: 200.9170684814453
z: -0.10220839083194733
visibility: 0.9998206496238708
","x: 178.3955841064453
y: 200.8096923828125
z: -0.10224615037441254
visibility: 0.9998077750205994
","x: 177.9014892578125
y: 200.69418334960938
z: -0.10221227258443832
visibility: 0.9997812509536743
","x: 189.27334594726562
y: 203.75994873046875
z: -0.08496757596731186
visibility: 0.999885618686676
","x: 180.80271911621094
y: 203.94198608398438
z: 0.018749983981251717
visibility: 0.9995191097259521
","x: 182.10214233398438
y: 215.9517059326172
z: -0.11191542446613312
visibility: 0.9999485611915588
","x: 178.63247680664062
y: 215.88372802734375
z: -0.08222638070583344
visibility: 0.9998884797096252
","x: 204.05032348632812
y: 246.6985321044922
z: -0.12404761463403702
visibility: 0.9999926090240479
","x: 171.6035919189453
y: 250.1865234375
z: 0.14366057515144348
visibility: 0.9998833537101746
","x: 218.5113525390625
y: 304.89935302734375
z: -0.163079634308815
visibility: 0.9985156655311584
","x: 149.0974578857422
y: 276.1498107910156
z: 0.03422370180487633
visibility: 0.9739843010902405
","x: 230.7483367919922
y: 344.74005126953125
z: -0.20153315365314484
visibility: 0.9942923188209534
","x: 160.63250732421875
y: 225.65406799316406
z: -0.22152745723724365
visibility: 0.9867400527000427
","x: 235.6200408935547
y: 356.878662109375
z: -0.2204124927520752
visibility: 0.9835716485977173
","x: 164.03883361816406
y: 212.5449981689453
z: -0.25635528564453125
visibility: 0.972898542881012
","x: 233.3227996826172
y: 355.632568359375
z: -0.23618805408477783
visibility: 0.9853164553642273
","x: 166.1000213623047
y: 212.25701904296875
z: -0.24315714836120605
visibility: 0.9756425023078918
","x: 230.9328155517578
y: 352.1795959472656
z: -0.20728592574596405
visibility: 0.9816027283668518
","x: 166.20867919921875
y: 216.3456573486328
z: -0.2234608232975006
visibility: 0.9714425206184387
","x: 192.5244598388672
y: 364.44189453125
z: -0.0993349477648735
visibility: 0.9995325207710266
","x: 176.5930633544922
y: 366.5450744628906
z: 0.09910779446363449
visibility: 0.9990964531898499
","x: 176.65615844726562
y: 446.57733154296875
z: -0.20020344853401184
visibility: 0.9931002855300903
","x: 171.14356994628906
y: 452.8995361328125
z: 0.020528195425868034
visibility: 0.9363014698028564
","x: 207.70301818847656
y: 524.1165771484375
z: -0.1109996885061264
visibility: 0.9916197061538696
","x: 184.7069549560547
y: 539.2357177734375
z: 0.08653131872415543
visibility: 0.9787684082984924
","x: 216.908447265625
y: 529.79296875
z: -0.10429342836141586
visibility: 0.8891737461090088
","x: 191.9956817626953
y: 552.2424926757812
z: 0.08696236461400986
visibility: 0.9274955987930298
","x: 196.50091552734375
y: 561.5759887695312
z: -0.1780182123184204
visibility: 0.9867077469825745
","x: 165.3684844970703
y: 564.6611328125
z: 0.013854874297976494
visibility: 0.9794518947601318
",,,,,,,,,,,,,,,,,,,,,,"x: 160.8486785888672
y: 223.67239379882812
z: 0.0
","x: 164.50306701660156
y: 221.69500732421875
z: -0.0005914220819249749
","x: 167.57049560546875
y: 217.28494262695312
z: -0.0013174568302929401
","x: 169.2187042236328
y: 213.36810302734375
z: -0.002770343329757452
","x: 169.9803466796875
y: 211.27398681640625
z: -0.0037639576476067305
","x: 166.7865447998047
y: 209.52943420410156
z: 0.0017713138367980719
","x: 167.814453125
y: 203.50531005859375
z: -0.0009513196418993175
","x: 168.77871704101562
y: 204.4847869873047
z: -0.0024803660344332457
","x: 169.21383666992188
y: 206.8435516357422
z: -0.0030151493847370148
","x: 164.86453247070312
y: 208.63023376464844
z: 0.00011043049016734585
","x: 166.16970825195312
y: 202.479248046875
z: -0.0026797426398843527
","x: 167.10366821289062
y: 204.23477172851562
z: -0.003812441136687994
","x: 167.0749053955078
y: 207.0460662841797
z: -0.003923607524484396
","x: 162.74398803710938
y: 208.33648681640625
z: -0.002210874343290925
","x: 163.9297332763672
y: 202.34458923339844
z: -0.004523334093391895
","x: 165.0924072265625
y: 203.83065795898438
z: -0.004360023885965347
","x: 165.3639678955078
y: 206.6177520751953
z: -0.0037160441279411316
","x: 160.34254455566406
y: 208.73507690429688
z: -0.004917807411402464
","x: 161.31683349609375
y: 203.60665893554688
z: -0.0062881032936275005
","x: 162.4792022705078
y: 204.15078735351562
z: -0.005999014247208834
","x: 162.99122619628906
y: 206.08712768554688
z: -0.005367974750697613
"
12,"x: 178.44326782226562
y: 207.73841857910156
z: -0.1269901692867279
visibility: 0.9999670386314392
","x: 181.54638671875
y: 200.5190887451172
z: -0.12489928305149078
visibility: 0.9998547434806824
","x: 182.87554931640625
y: 200.10629272460938
z: -0.12490825355052948
visibility: 0.9998729825019836
","x: 184.17257690429688
y: 199.7371063232422
z: -0.1249302476644516
visibility: 0.999863862991333
","x: 178.89651489257812
y: 200.9170684814453
z: -0.10220839083194733
visibility: 0.9998206496238708
","x: 178.3955841064453
y: 200.8096923828125
z: -0.10224615037441254
visibility: 0.9998077750205994
","x: 177.9014892578125
y: 200.69418334960938
z: -0.10221227258443832
visibility: 0.9997812509536743
","x: 189.27334594726562
y: 203.75994873046875
z: -0.08496757596731186
visibility: 0.999885618686676
","x: 180.80271911621094
y: 203.94198608398438
z: 0.018749983981251717
visibility: 0.9995191097259521
","x: 182.10214233398438
y: 215.9517059326172
z: -0.11191542446613312
visibility: 0.9999485611915588
","x: 178.63247680664062
y: 215.88372802734375
z: -0.08222638070583344
visibility: 0.9998884797096252
","x: 204.05032348632812
y: 246.6985321044922
z: -0.12404761463403702
visibility: 0.9999926090240479
","x: 171.6035919189453
y: 250.1865234375
z: 0.14366057515144348
visibility: 0.9998833537101746
","x: 218.5113525390625
y: 304.89935302734375
z: -0.163079634308815
visibility: 0.9985156655311584
","x: 149.0974578857422
y: 276.1498107910156
z: 0.03422370180487633
visibility: 0.9739843010902405
","x: 230.7483367919922
y: 344.74005126953125
z: -0.20153315365314484
visibility: 0.9942923188209534
","x: 160.63250732421875
y: 225.65406799316406
z: -0.22152745723724365
visibility: 0.9867400527000427
","x: 235.6200408935547
y: 356.878662109375
z: -0.2204124927520752
visibility: 0.9835716485977173
","x: 164.03883361816406
y: 212.5449981689453
z: -0.25635528564453125
visibility: 0.972898542881012
","x: 233.3227996826172
y: 355.632568359375
z: -0.23618805408477783
visibility: 0.9853164553642273
","x: 166.1000213623047
y: 212.25701904296875
z: -0.24315714836120605
visibility: 0.9756425023078918
","x: 230.9328155517578
y: 352.1795959472656
z: -0.20728592574596405
visibility: 0.9816027283668518
","x: 166.20867919921875
y: 216.3456573486328
z: -0.2234608232975006
visibility: 0.9714425206184387
","x: 192.5244598388672
y: 364.44189453125
z: -0.0993349477648735
visibility: 0.9995325207710266
","x: 176.5930633544922
y: 366.5450744628906
z: 0.09910779446363449
visibility: 0.9990964531898499
","x: 176.65615844726562
y: 446.57733154296875
z: -0.20020344853401184
visibility: 0.9931002855300903
","x: 171.14356994628906
y: 452.8995361328125
z: 0.020528195425868034
visibility: 0.9363014698028564
","x: 207.70301818847656
y: 524.1165771484375
z: -0.1109996885061264
visibility: 0.9916197061538696
","x: 184.7069549560547
y: 539.2357177734375
z: 0.08653131872415543
visibility: 0.9787684082984924
","x: 216.908447265625
y: 529.79296875
z: -0.10429342836141586
visibility: 0.8891737461090088
","x: 191.9956817626953
y: 552.2424926757812
z: 0.08696236461400986
visibility: 0.9274955987930298
","x: 196.50091552734375
y: 561.5759887695312
z: -0.1780182123184204
visibility: 0.9867077469825745
","x: 165.3684844970703
y: 564.6611328125
z: 0.013854874297976494
visibility: 0.9794518947601318
",,,,,,,,,,,,,,,,,,,,,,"x: 160.8486785888672
y: 223.67239379882812
z: 0.0
","x: 164.50306701660156
y: 221.69500732421875
z: -0.0005914220819249749
","x: 167.57049560546875
y: 217.28494262695312
z: -0.0013174568302929401
","x: 169.2187042236328
y: 213.36810302734375
z: -0.002770343329757452
","x: 169.9803466796875
y: 211.27398681640625
z: -0.0037639576476067305
","x: 166.7865447998047
y: 209.52943420410156
z: 0.0017713138367980719
","x: 167.814453125
y: 203.50531005859375
z: -0.0009513196418993175
","x: 168.77871704101562
y: 204.4847869873047
z: -0.0024803660344332457
","x: 169.21383666992188
y: 206.8435516357422
z: -0.0030151493847370148
","x: 164.86453247070312
y: 208.63023376464844
z: 0.00011043049016734585
","x: 166.16970825195312
y: 202.479248046875
z: -0.0026797426398843527
","x: 167.10366821289062
y: 204.23477172851562
z: -0.003812441136687994
","x: 167.0749053955078
y: 207.0460662841797
z: -0.003923607524484396
","x: 162.74398803710938
y: 208.33648681640625
z: -0.002210874343290925
","x: 163.9297332763672
y: 202.34458923339844
z: -0.004523334093391895
","x: 165.0924072265625
y: 203.83065795898438
z: -0.004360023885965347
","x: 165.3639678955078
y: 206.6177520751953
z: -0.0037160441279411316
","x: 160.34254455566406
y: 208.73507690429688
z: -0.004917807411402464
","x: 161.31683349609375
y: 203.60665893554688
z: -0.0062881032936275005
","x: 162.4792022705078
y: 204.15078735351562
z: -0.005999014247208834
","x: 162.99122619628906
y: 206.08712768554688
z: -0.005367974750697613
"
13,"x: 175.54270935058594
y: 210.58984375
z: -0.14227265119552612
visibility: 0.9999578595161438
","x: 178.8774871826172
y: 203.81387329101562
z: -0.1452939808368683
visibility: 0.9998360872268677
","x: 180.451416015625
y: 203.31704711914062
z: -0.14528939127922058
visibility: 0.9998568296432495
","x: 181.99581909179688
y: 202.90243530273438
z: -0.14531256258487701
visibility: 0.9998463988304138
","x: 175.94308471679688
y: 204.81597900390625
z: -0.12055553495883942
visibility: 0.9998050928115845
","x: 175.47775268554688
y: 205.00509643554688
z: -0.1206078976392746
visibility: 0.9997934103012085
","x: 175.03341674804688
y: 205.13059997558594
z: -0.12060151249170303
visibility: 0.9997755885124207
","x: 188.1699676513672
y: 208.7858428955078
z: -0.11289796978235245
visibility: 0.9998782873153687
","x: 178.66712951660156
y: 209.67874145507812
z: -0.0018328113947063684
visibility: 0.9994855523109436
","x: 180.0915985107422
y: 218.40606689453125
z: -0.12959949672222137
visibility: 0.9999325275421143
","x: 176.72341918945312
y: 219.1021728515625
z: -0.09687400609254837
visibility: 0.9998548030853271
","x: 205.08114624023438
y: 249.20687866210938
z: -0.12575067579746246
visibility: 0.9999892711639404
","x: 171.58505249023438
y: 255.1614532470703
z: 0.11725345999002457
visibility: 0.9998676180839539
","x: 221.52590942382812
y: 303.6761169433594
z: -0.18848130106925964
visibility: 0.9985523819923401
","x: 149.14561462402344
y: 278.5252685546875
z: 0.03076162375509739
visibility: 0.9734053611755371
","x: 220.94342041015625
y: 331.9217224121094
z: -0.24704739451408386
visibility: 0.9930106997489929
","x: 160.33978271484375
y: 233.63916015625
z: -0.2114894688129425
visibility: 0.9868171811103821
","x: 218.7382049560547
y: 341.5591125488281
z: -0.2695564925670624
visibility: 0.9791075587272644
","x: 162.7358856201172
y: 220.08782958984375
z: -0.24748125672340393
visibility: 0.9720261096954346
","x: 216.12721252441406
y: 336.707275390625
z: -0.274787962436676
visibility: 0.9804989099502563
","x: 164.63381958007812
y: 218.510498046875
z: -0.2347489297389984
visibility: 0.9740164875984192
","x: 216.1585693359375
y: 332.897705078125
z: -0.24753093719482422
visibility: 0.9743898510932922
","x: 165.107421875
y: 222.65963745117188
z: -0.21395926177501678
visibility: 0.9688693284988403
","x: 192.5811767578125
y: 367.12567138671875
z: -0.0924915000796318
visibility: 0.999543309211731
","x: 176.05874633789062
y: 368.95257568359375
z: 0.09225986897945404
visibility: 0.9991706013679504
","x: 178.99195861816406
y: 449.1723937988281
z: -0.16024641692638397
visibility: 0.9933773279190063
","x: 169.1170654296875
y: 453.1002502441406
z: 0.02591179683804512
visibility: 0.9361491799354553
","x: 208.23208618164062
y: 524.6329345703125
z: -0.0409708097577095
visibility: 0.9920671582221985
","x: 184.2353515625
y: 539.3907470703125
z: 0.11434662342071533
visibility: 0.9791162014007568
","x: 216.8925018310547
y: 530.1741943359375
z: -0.03375713527202606
visibility: 0.8965590596199036
","x: 191.33580017089844
y: 552.2010498046875
z: 0.12274030596017838
visibility: 0.930943489074707
","x: 197.39784240722656
y: 561.2586059570312
z: -0.15081611275672913
visibility: 0.9875210523605347
","x: 164.80039978027344
y: 564.885009765625
z: 0.0677545815706253
visibility: 0.9797926545143127
",,,,,,,,,,,,,,,,,,,,,,"x: 160.6118927001953
y: 225.92327880859375
z: 0.0
","x: 164.54747009277344
y: 224.75369262695312
z: -0.000943580293096602
","x: 167.89871215820312
y: 221.39366149902344
z: -0.0020203571766614914
","x: 169.4562225341797
y: 216.95126342773438
z: -0.0037315809167921543
","x: 169.58607482910156
y: 213.2049560546875
z: -0.004768104758113623
","x: 167.6259765625
y: 212.7586669921875
z: 0.000998677802272141
","x: 169.33583068847656
y: 207.92141723632812
z: -0.0015587371308356524
","x: 169.27999877929688
y: 211.75408935546875
z: -0.0024590622633695602
","x: 168.41696166992188
y: 214.68353271484375
z: -0.0025891000404953957
","x: 165.96234130859375
y: 211.60362243652344
z: -0.00033900621929205954
","x: 167.69078063964844
y: 207.40919494628906
z: -0.0030096929986029863
","x: 167.6730194091797
y: 211.6200408935547
z: -0.003161520464345813
","x: 166.82972717285156
y: 213.9665069580078
z: -0.00254945014603436
","x: 164.00241088867188
y: 211.13330078125
z: -0.0023238123394548893
","x: 165.62918090820312
y: 207.2276153564453
z: -0.004688981454819441
","x: 165.78189086914062
y: 210.84091186523438
z: -0.0036368309520184994
","x: 165.12509155273438
y: 213.24609375
z: -0.0023613437078893185
","x: 161.7828369140625
y: 211.25515747070312
z: -0.004670870956033468
","x: 163.34132385253906
y: 208.09036254882812
z: -0.0057860249653458595
","x: 163.69473266601562
y: 210.83856201171875
z: -0.004888783674687147
","x: 163.26170349121094
y: 213.19384765625
z: -0.00379752553999424
"
14,"x: 175.54270935058594
y: 210.58984375
z: -0.14227265119552612
visibility: 0.9999578595161438
","x: 178.8774871826172
y: 203.81387329101562
z: -0.1452939808368683
visibility: 0.9998360872268677
","x: 180.451416015625
y: 203.31704711914062
z: -0.14528939127922058
visibility: 0.9998568296432495
","x: 181.99581909179688
y: 202.90243530273438
z: -0.14531256258487701
visibility: 0.9998463988304138
","x: 175.94308471679688
y: 204.81597900390625
z: -0.12055553495883942
visibility: 0.9998050928115845
","x: 175.47775268554688
y: 205.00509643554688
z: -0.1206078976392746
visibility: 0.9997934103012085
","x: 175.03341674804688
y: 205.13059997558594
z: -0.12060151249170303
visibility: 0.9997755885124207
","x: 188.1699676513672
y: 208.7858428955078
z: -0.11289796978235245
visibility: 0.9998782873153687
","x: 178.66712951660156
y: 209.67874145507812
z: -0.0018328113947063684
visibility: 0.9994855523109436
","x: 180.0915985107422
y: 218.40606689453125
z: -0.12959949672222137
visibility: 0.9999325275421143
","x: 176.72341918945312
y: 219.1021728515625
z: -0.09687400609254837
visibility: 0.9998548030853271
","x: 205.08114624023438
y: 249.20687866210938
z: -0.12575067579746246
visibility: 0.9999892711639404
","x: 171.58505249023438
y: 255.1614532470703
z: 0.11725345999002457
visibility: 0.9998676180839539
","x: 221.52590942382812
y: 303.6761169433594
z: -0.18848130106925964
visibility: 0.9985523819923401
","x: 149.14561462402344
y: 278.5252685546875
z: 0.03076162375509739
visibility: 0.9734053611755371
","x: 220.94342041015625
y: 331.9217224121094
z: -0.24704739451408386
visibility: 0.9930106997489929
","x: 160.33978271484375
y: 233.63916015625
z: -0.2114894688129425
visibility: 0.9868171811103821
","x: 218.7382049560547
y: 341.5591125488281
z: -0.2695564925670624
visibility: 0.9791075587272644
","x: 162.7358856201172
y: 220.08782958984375
z: -0.24748125672340393
visibility: 0.9720261096954346
","x: 216.12721252441406
y: 336.707275390625
z: -0.274787962436676
visibility: 0.9804989099502563
","x: 164.63381958007812
y: 218.510498046875
z: -0.2347489297389984
visibility: 0.9740164875984192
","x: 216.1585693359375
y: 332.897705078125
z: -0.24753093719482422
visibility: 0.9743898510932922
","x: 165.107421875
y: 222.65963745117188
z: -0.21395926177501678
visibility: 0.9688693284988403
","x: 192.5811767578125
y: 367.12567138671875
z: -0.0924915000796318
visibility: 0.999543309211731
","x: 176.05874633789062
y: 368.95257568359375
z: 0.09225986897945404
visibility: 0.9991706013679504
","x: 178.99195861816406
y: 449.1723937988281
z: -0.16024641692638397
visibility: 0.9933773279190063
","x: 169.1170654296875
y: 453.1002502441406
z: 0.02591179683804512
visibility: 0.9361491799354553
","x: 208.23208618164062
y: 524.6329345703125
z: -0.0409708097577095
visibility: 0.9920671582221985
","x: 184.2353515625
y: 539.3907470703125
z: 0.11434662342071533
visibility: 0.9791162014007568
","x: 216.8925018310547
y: 530.1741943359375
z: -0.03375713527202606
visibility: 0.8965590596199036
","x: 191.33580017089844
y: 552.2010498046875
z: 0.12274030596017838
visibility: 0.930943489074707
","x: 197.39784240722656
y: 561.2586059570312
z: -0.15081611275672913
visibility: 0.9875210523605347
","x: 164.80039978027344
y: 564.885009765625
z: 0.0677545815706253
visibility: 0.9797926545143127
",,,,,,,,,,,,,,,,,,,,,,"x: 160.6118927001953
y: 225.92327880859375
z: 0.0
","x: 164.54747009277344
y: 224.75369262695312
z: -0.000943580293096602
","x: 167.89871215820312
y: 221.39366149902344
z: -0.0020203571766614914
","x: 169.4562225341797
y: 216.95126342773438
z: -0.0037315809167921543
","x: 169.58607482910156
y: 213.2049560546875
z: -0.004768104758113623
","x: 167.6259765625
y: 212.7586669921875
z: 0.000998677802272141
","x: 169.33583068847656
y: 207.92141723632812
z: -0.0015587371308356524
","x: 169.27999877929688
y: 211.75408935546875
z: -0.0024590622633695602
","x: 168.41696166992188
y: 214.68353271484375
z: -0.0025891000404953957
","x: 165.96234130859375
y: 211.60362243652344
z: -0.00033900621929205954
","x: 167.69078063964844
y: 207.40919494628906
z: -0.0030096929986029863
","x: 167.6730194091797
y: 211.6200408935547
z: -0.003161520464345813
","x: 166.82972717285156
y: 213.9665069580078
z: -0.00254945014603436
","x: 164.00241088867188
y: 211.13330078125
z: -0.0023238123394548893
","x: 165.62918090820312
y: 207.2276153564453
z: -0.004688981454819441
","x: 165.78189086914062
y: 210.84091186523438
z: -0.0036368309520184994
","x: 165.12509155273438
y: 213.24609375
z: -0.0023613437078893185
","x: 161.7828369140625
y: 211.25515747070312
z: -0.004670870956033468
","x: 163.34132385253906
y: 208.09036254882812
z: -0.0057860249653458595
","x: 163.69473266601562
y: 210.83856201171875
z: -0.004888783674687147
","x: 163.26170349121094
y: 213.19384765625
z: -0.00379752553999424
"
15,"x: 175.7532958984375
y: 214.2099609375
z: -0.15584106743335724
visibility: 0.9999427795410156
","x: 178.9237518310547
y: 207.79257202148438
z: -0.15450824797153473
visibility: 0.9998121857643127
","x: 180.44619750976562
y: 207.4156951904297
z: -0.15451495349407196
visibility: 0.9998390078544617
","x: 181.99075317382812
y: 207.08680725097656
z: -0.15456613898277283
visibility: 0.9998278021812439
","x: 175.93768310546875
y: 208.69891357421875
z: -0.1326003223657608
visibility: 0.9997739791870117
","x: 175.36940002441406
y: 208.9833221435547
z: -0.1326475441455841
visibility: 0.9997605681419373
","x: 174.79525756835938
y: 209.197509765625
z: -0.13259904086589813
visibility: 0.9997523427009583
","x: 188.23471069335938
y: 212.8782958984375
z: -0.11005692183971405
visibility: 0.9998701810836792
","x: 178.0149383544922
y: 213.71868896484375
z: -0.008018318563699722
visibility: 0.9994022250175476
","x: 180.13168334960938
y: 221.9476318359375
z: -0.1384272426366806
visibility: 0.9999112486839294
","x: 176.5426025390625
y: 222.78973388671875
z: -0.10933245718479156
visibility: 0.9998012781143188
","x: 205.35926818847656
y: 251.85850524902344
z: -0.12613330781459808
visibility: 0.9999886155128479
","x: 171.01022338867188
y: 258.53070068359375
z: 0.11784978955984116
visibility: 0.9998278617858887
","x: 225.35084533691406
y: 298.2467041015625
z: -0.23594968020915985
visibility: 0.9986663460731506
","x: 148.22979736328125
y: 277.16192626953125
z: 0.03070741519331932
visibility: 0.9737175703048706
","x: 221.80130004882812
y: 319.924072265625
z: -0.33911892771720886
visibility: 0.9933027625083923
","x: 162.6002655029297
y: 230.89227294921875
z: -0.20233774185180664
visibility: 0.9872053265571594
","x: 219.3519744873047
y: 329.4454345703125
z: -0.37128159403800964
visibility: 0.9794847965240479
","x: 165.88345336914062
y: 217.21963500976562
z: -0.23482286930084229
visibility: 0.9722816348075867
","x: 215.84092712402344
y: 324.05047607421875
z: -0.36844056844711304
visibility: 0.9807180762290955
","x: 168.06198120117188
y: 216.12364196777344
z: -0.22112631797790527
visibility: 0.9737033247947693
","x: 215.57888793945312
y: 320.69677734375
z: -0.33736175298690796
visibility: 0.9739984273910522
","x: 167.76502990722656
y: 220.55819702148438
z: -0.20640893280506134
visibility: 0.9679735898971558
","x: 192.68820190429688
y: 370.86468505859375
z: -0.097452811896801
visibility: 0.999564528465271
","x: 176.21188354492188
y: 372.20440673828125
z: 0.09726323187351227
visibility: 0.9992372393608093
","x: 173.24205017089844
y: 449.802490234375
z: -0.196426659822464
visibility: 0.9934304356575012
","x: 169.57554626464844
y: 455.3323974609375
z: 0.045820869505405426
visibility: 0.9189311861991882
","x: 207.8595733642578
y: 520.9953002929688
z: -0.10076554119586945
visibility: 0.9920846223831177
","x: 184.5010986328125
y: 539.509521484375
z: 0.1239028126001358
visibility: 0.975230872631073
","x: 216.06724548339844
y: 525.0908203125
z: -0.09234369546175003
visibility: 0.9027816653251648
","x: 191.54513549804688
y: 552.1659545898438
z: 0.12671013176441193
visibility: 0.9288308024406433
","x: 197.54205322265625
y: 559.0535278320312
z: -0.15667329728603363
visibility: 0.9878292679786682
","x: 165.07861328125
y: 565.0440063476562
z: 0.06310322880744934
visibility: 0.9760307669639587
",,,,,,,,,,,,,,,,,,,,,,"x: 161.9193878173828
y: 229.2347869873047
z: 0.0
","x: 165.4850311279297
y: 228.047607421875
z: -0.0005585764884017408
","x: 168.5113067626953
y: 224.35264587402344
z: -0.0009891950758174062
","x: 170.12930297851562
y: 220.7344970703125
z: -0.002178759081289172
","x: 170.8832244873047
y: 217.55178833007812
z: -0.002985107246786356
","x: 167.92274475097656
y: 216.30404663085938
z: 0.00277452333830297
","x: 169.5185089111328
y: 210.73548889160156
z: 0.0003210888826288283
","x: 171.0534210205078
y: 211.1219482421875
z: -0.0013694445369765162
","x: 171.86813354492188
y: 212.96786499023438
z: -0.00205536512658
","x: 166.3827362060547
y: 215.14468383789062
z: 0.0011737876338884234
","x: 168.52056884765625
y: 209.34536743164062
z: -0.0015660673379898071
","x: 170.03164672851562
y: 210.46548461914062
z: -0.003231998300179839
","x: 170.4673309326172
y: 213.15208435058594
z: -0.0037152052391320467
","x: 164.68795776367188
y: 214.356689453125
z: -0.0011197223793715239
","x: 166.55780029296875
y: 208.9584503173828
z: -0.00330843566916883
","x: 167.91604614257812
y: 210.25985717773438
z: -0.003566592698916793
","x: 168.2830047607422
y: 213.14199829101562
z: -0.003192837815731764
","x: 162.67079162597656
y: 214.09347534179688
z: -0.0038259283173829317
","x: 164.25999450683594
y: 209.24838256835938
z: -0.0051659937016665936
","x: 165.58387756347656
y: 209.61068725585938
z: -0.0051258038729429245
","x: 166.22720336914062
y: 211.7183837890625
z: -0.004690487869083881
"
16,"x: 175.7532958984375
y: 214.2099609375
z: -0.15584106743335724
visibility: 0.9999427795410156
","x: 178.9237518310547
y: 207.79257202148438
z: -0.15450824797153473
visibility: 0.9998121857643127
","x: 180.44619750976562
y: 207.4156951904297
z: -0.15451495349407196
visibility: 0.9998390078544617
","x: 181.99075317382812
y: 207.08680725097656
z: -0.15456613898277283
visibility: 0.9998278021812439
","x: 175.93768310546875
y: 208.69891357421875
z: -0.1326003223657608
visibility: 0.9997739791870117
","x: 175.36940002441406
y: 208.9833221435547
z: -0.1326475441455841
visibility: 0.9997605681419373
","x: 174.79525756835938
y: 209.197509765625
z: -0.13259904086589813
visibility: 0.9997523427009583
","x: 188.23471069335938
y: 212.8782958984375
z: -0.11005692183971405
visibility: 0.9998701810836792
","x: 178.0149383544922
y: 213.71868896484375
z: -0.008018318563699722
visibility: 0.9994022250175476
","x: 180.13168334960938
y: 221.9476318359375
z: -0.1384272426366806
visibility: 0.9999112486839294
","x: 176.5426025390625
y: 222.78973388671875
z: -0.10933245718479156
visibility: 0.9998012781143188
","x: 205.35926818847656
y: 251.85850524902344
z: -0.12613330781459808
visibility: 0.9999886155128479
","x: 171.01022338867188
y: 258.53070068359375
z: 0.11784978955984116
visibility: 0.9998278617858887
","x: 225.35084533691406
y: 298.2467041015625
z: -0.23594968020915985
visibility: 0.9986663460731506
","x: 148.22979736328125
y: 277.16192626953125
z: 0.03070741519331932
visibility: 0.9737175703048706
","x: 221.80130004882812
y: 319.924072265625
z: -0.33911892771720886
visibility: 0.9933027625083923
","x: 162.6002655029297
y: 230.89227294921875
z: -0.20233774185180664
visibility: 0.9872053265571594
","x: 219.3519744873047
y: 329.4454345703125
z: -0.37128159403800964
visibility: 0.9794847965240479
","x: 165.88345336914062
y: 217.21963500976562
z: -0.23482286930084229
visibility: 0.9722816348075867
","x: 215.84092712402344
y: 324.05047607421875
z: -0.36844056844711304
visibility: 0.9807180762290955
","x: 168.06198120117188
y: 216.12364196777344
z: -0.22112631797790527
visibility: 0.9737033247947693
","x: 215.57888793945312
y: 320.69677734375
z: -0.33736175298690796
visibility: 0.9739984273910522
","x: 167.76502990722656
y: 220.55819702148438
z: -0.20640893280506134
visibility: 0.9679735898971558
","x: 192.68820190429688
y: 370.86468505859375
z: -0.097452811896801
visibility: 0.999564528465271
","x: 176.21188354492188
y: 372.20440673828125
z: 0.09726323187351227
visibility: 0.9992372393608093
","x: 173.24205017089844
y: 449.802490234375
z: -0.196426659822464
visibility: 0.9934304356575012
","x: 169.57554626464844
y: 455.3323974609375
z: 0.045820869505405426
visibility: 0.9189311861991882
","x: 207.8595733642578
y: 520.9953002929688
z: -0.10076554119586945
visibility: 0.9920846223831177
","x: 184.5010986328125
y: 539.509521484375
z: 0.1239028126001358
visibility: 0.975230872631073
","x: 216.06724548339844
y: 525.0908203125
z: -0.09234369546175003
visibility: 0.9027816653251648
","x: 191.54513549804688
y: 552.1659545898438
z: 0.12671013176441193
visibility: 0.9288308024406433
","x: 197.54205322265625
y: 559.0535278320312
z: -0.15667329728603363
visibility: 0.9878292679786682
","x: 165.07861328125
y: 565.0440063476562
z: 0.06310322880744934
visibility: 0.9760307669639587
",,,,,,,,,,,,,,,,,,,,,,"x: 161.9193878173828
y: 229.2347869873047
z: 0.0
","x: 165.4850311279297
y: 228.047607421875
z: -0.0005585764884017408
","x: 168.5113067626953
y: 224.35264587402344
z: -0.0009891950758174062
","x: 170.12930297851562
y: 220.7344970703125
z: -0.002178759081289172
","x: 170.8832244873047
y: 217.55178833007812
z: -0.002985107246786356
","x: 167.92274475097656
y: 216.30404663085938
z: 0.00277452333830297
","x: 169.5185089111328
y: 210.73548889160156
z: 0.0003210888826288283
","x: 171.0534210205078
y: 211.1219482421875
z: -0.0013694445369765162
","x: 171.86813354492188
y: 212.96786499023438
z: -0.00205536512658
","x: 166.3827362060547
y: 215.14468383789062
z: 0.0011737876338884234
","x: 168.52056884765625
y: 209.34536743164062
z: -0.0015660673379898071
","x: 170.03164672851562
y: 210.46548461914062
z: -0.003231998300179839
","x: 170.4673309326172
y: 213.15208435058594
z: -0.0037152052391320467
","x: 164.68795776367188
y: 214.356689453125
z: -0.0011197223793715239
","x: 166.55780029296875
y: 208.9584503173828
z: -0.00330843566916883
","x: 167.91604614257812
y: 210.25985717773438
z: -0.003566592698916793
","x: 168.2830047607422
y: 213.14199829101562
z: -0.003192837815731764
","x: 162.67079162597656
y: 214.09347534179688
z: -0.0038259283173829317
","x: 164.25999450683594
y: 209.24838256835938
z: -0.0051659937016665936
","x: 165.58387756347656
y: 209.61068725585938
z: -0.0051258038729429245
","x: 166.22720336914062
y: 211.7183837890625
z: -0.004690487869083881
"
17,"x: 174.8617401123047
y: 215.62982177734375
z: -0.13255327939987183
visibility: 0.9999092817306519
","x: 178.4099884033203
y: 208.87255859375
z: -0.1346530318260193
visibility: 0.9997499585151672
","x: 179.86192321777344
y: 208.45449829101562
z: -0.1346723735332489
visibility: 0.9997934699058533
","x: 181.33975219726562
y: 208.09405517578125
z: -0.13470348715782166
visibility: 0.9997717142105103
","x: 175.90591430664062
y: 209.70745849609375
z: -0.11028707027435303
visibility: 0.9997081160545349
","x: 175.58929443359375
y: 209.8907470703125
z: -0.11034516245126724
visibility: 0.9997024536132812
","x: 175.23983764648438
y: 210.01260375976562
z: -0.110322967171669
visibility: 0.999709963798523
","x: 187.47447204589844
y: 213.9989471435547
z: -0.10450054705142975
visibility: 0.9998291730880737
","x: 178.84213256835938
y: 214.5951690673828
z: 0.006584784481674433
visibility: 0.9992983937263489
","x: 178.94168090820312
y: 223.43096923828125
z: -0.12059305608272552
visibility: 0.999843418598175
","x: 176.1299285888672
y: 224.05462646484375
z: -0.08854677528142929
visibility: 0.9996837973594666
","x: 203.5761260986328
y: 252.47616577148438
z: -0.132984921336174
visibility: 0.9999840259552002
","x: 171.4432373046875
y: 259.19879150390625
z: 0.12825624644756317
visibility: 0.9998037219047546
","x: 222.0384063720703
y: 297.8607482910156
z: -0.2543969750404358
visibility: 0.9986815452575684
","x: 148.3517303466797
y: 278.3779296875
z: 0.03940422087907791
visibility: 0.973465621471405
","x: 223.0202178955078
y: 318.2342224121094
z: -0.36884933710098267
visibility: 0.9929018020629883
","x: 162.6009521484375
y: 235.1307830810547
z: -0.19733522832393646
visibility: 0.98760586977005
","x: 222.8249053955078
y: 328.02801513671875
z: -0.3988991379737854
visibility: 0.9782748222351074
","x: 166.0386962890625
y: 220.98196411132812
z: -0.23205626010894775
visibility: 0.9728282690048218
","x: 218.6255645751953
y: 322.932861328125
z: -0.4037590026855469
visibility: 0.9794842600822449
","x: 168.5331573486328
y: 219.9360809326172
z: -0.20821133255958557
visibility: 0.9738470315933228
","x: 217.39471435546875
y: 319.54205322265625
z: -0.37089550495147705
visibility: 0.9716153144836426
","x: 168.32461547851562
y: 224.4478759765625
z: -0.20228318870067596
visibility: 0.9677013158798218
","x: 192.2112579345703
y: 372.5917053222656
z: -0.10098588466644287
visibility: 0.9995671510696411
","x: 176.42568969726562
y: 373.10430908203125
z: 0.10077445209026337
visibility: 0.9992995262145996
","x: 172.03640747070312
y: 450.10675048828125
z: -0.1895676851272583
visibility: 0.993176281452179
","x: 169.65704345703125
y: 455.4100036621094
z: 0.03141274303197861
visibility: 0.9016556143760681
","x: 207.8406982421875
y: 519.6617431640625
z: -0.1296854466199875
visibility: 0.9920778870582581
","x: 184.65457153320312
y: 539.5905151367188
z: 0.0860145315527916
visibility: 0.9693681001663208
","x: 216.6786346435547
y: 524.4798583984375
z: -0.1248350590467453
visibility: 0.9093680381774902
","x: 191.31082153320312
y: 552.3033447265625
z: 0.08543811738491058
visibility: 0.9256361126899719
","x: 198.43124389648438
y: 559.115966796875
z: -0.1870507001876831
visibility: 0.9881904125213623
","x: 164.28692626953125
y: 565.0401000976562
z: 0.01524642389267683
visibility: 0.9714876413345337
",,,,,,,,,,,,,,,,,,,,,,"x: 162.07568359375
y: 231.47030639648438
z: 0.0
","x: 165.20904541015625
y: 231.67953491210938
z: -0.0012961304746568203
","x: 168.35665893554688
y: 229.36532592773438
z: -0.0025495414156466722
","x: 170.17254638671875
y: 226.85147094726562
z: -0.004389919340610504
","x: 171.47930908203125
y: 224.76101684570312
z: -0.005836487747728825
","x: 168.25482177734375
y: 219.81640625
z: 0.00014030492457095534
","x: 169.98526000976562
y: 213.92108154296875
z: -0.0026800481136888266
","x: 170.8251953125
y: 214.86305236816406
z: -0.004372205585241318
","x: 170.73643493652344
y: 217.07518005371094
z: -0.005070987623184919
","x: 166.74136352539062
y: 218.51829528808594
z: -0.001203179475851357
","x: 168.65679931640625
y: 212.40420532226562
z: -0.00437393831089139
","x: 169.57798767089844
y: 213.82672119140625
z: -0.005758649203926325
","x: 169.3734588623047
y: 216.529541015625
z: -0.006033746525645256
","x: 165.0052947998047
y: 217.79583740234375
z: -0.0031230314634740353
","x: 166.62161254882812
y: 212.11947631835938
z: -0.005702294409275055
","x: 167.74417114257812
y: 213.1513671875
z: -0.00585697777569294
","x: 167.97665405273438
y: 215.41339111328125
z: -0.0054678176529705524
","x: 162.9546356201172
y: 217.6588592529297
z: -0.00543187977746129
","x: 164.16860961914062
y: 212.9155731201172
z: -0.007002664729952812
","x: 165.21914672851562
y: 213.20997619628906
z: -0.006978324614465237
","x: 165.7082061767578
y: 214.8157501220703
z: -0.006616233382374048
"
18,"x: 174.8617401123047
y: 215.62982177734375
z: -0.13255327939987183
visibility: 0.9999092817306519
","x: 178.4099884033203
y: 208.87255859375
z: -0.1346530318260193
visibility: 0.9997499585151672
","x: 179.86192321777344
y: 208.45449829101562
z: -0.1346723735332489
visibility: 0.9997934699058533
","x: 181.33975219726562
y: 208.09405517578125
z: -0.13470348715782166
visibility: 0.9997717142105103
","x: 175.90591430664062
y: 209.70745849609375
z: -0.11028707027435303
visibility: 0.9997081160545349
","x: 175.58929443359375
y: 209.8907470703125
z: -0.11034516245126724
visibility: 0.9997024536132812
","x: 175.23983764648438
y: 210.01260375976562
z: -0.110322967171669
visibility: 0.999709963798523
","x: 187.47447204589844
y: 213.9989471435547
z: -0.10450054705142975
visibility: 0.9998291730880737
","x: 178.84213256835938
y: 214.5951690673828
z: 0.006584784481674433
visibility: 0.9992983937263489
","x: 178.94168090820312
y: 223.43096923828125
z: -0.12059305608272552
visibility: 0.999843418598175
","x: 176.1299285888672
y: 224.05462646484375
z: -0.08854677528142929
visibility: 0.9996837973594666
","x: 203.5761260986328
y: 252.47616577148438
z: -0.132984921336174
visibility: 0.9999840259552002
","x: 171.4432373046875
y: 259.19879150390625
z: 0.12825624644756317
visibility: 0.9998037219047546
","x: 222.0384063720703
y: 297.8607482910156
z: -0.2543969750404358
visibility: 0.9986815452575684
","x: 148.3517303466797
y: 278.3779296875
z: 0.03940422087907791
visibility: 0.973465621471405
","x: 223.0202178955078
y: 318.2342224121094
z: -0.36884933710098267
visibility: 0.9929018020629883
","x: 162.6009521484375
y: 235.1307830810547
z: -0.19733522832393646
visibility: 0.98760586977005
","x: 222.8249053955078
y: 328.02801513671875
z: -0.3988991379737854
visibility: 0.9782748222351074
","x: 166.0386962890625
y: 220.98196411132812
z: -0.23205626010894775
visibility: 0.9728282690048218
","x: 218.6255645751953
y: 322.932861328125
z: -0.4037590026855469
visibility: 0.9794842600822449
","x: 168.5331573486328
y: 219.9360809326172
z: -0.20821133255958557
visibility: 0.9738470315933228
","x: 217.39471435546875
y: 319.54205322265625
z: -0.37089550495147705
visibility: 0.9716153144836426
","x: 168.32461547851562
y: 224.4478759765625
z: -0.20228318870067596
visibility: 0.9677013158798218
","x: 192.2112579345703
y: 372.5917053222656
z: -0.10098588466644287
visibility: 0.9995671510696411
","x: 176.42568969726562
y: 373.10430908203125
z: 0.10077445209026337
visibility: 0.9992995262145996
","x: 172.03640747070312
y: 450.10675048828125
z: -0.1895676851272583
visibility: 0.993176281452179
","x: 169.65704345703125
y: 455.4100036621094
z: 0.03141274303197861
visibility: 0.9016556143760681
","x: 207.8406982421875
y: 519.6617431640625
z: -0.1296854466199875
visibility: 0.9920778870582581
","x: 184.65457153320312
y: 539.5905151367188
z: 0.0860145315527916
visibility: 0.9693681001663208
","x: 216.6786346435547
y: 524.4798583984375
z: -0.1248350590467453
visibility: 0.9093680381774902
","x: 191.31082153320312
y: 552.3033447265625
z: 0.08543811738491058
visibility: 0.9256361126899719
","x: 198.43124389648438
y: 559.115966796875
z: -0.1870507001876831
visibility: 0.9881904125213623
","x: 164.28692626953125
y: 565.0401000976562
z: 0.01524642389267683
visibility: 0.9714876413345337
",,,,,,,,,,,,,,,,,,,,,,"x: 162.07568359375
y: 231.47030639648438
z: 0.0
","x: 165.20904541015625
y: 231.67953491210938
z: -0.0012961304746568203
","x: 168.35665893554688
y: 229.36532592773438
z: -0.0025495414156466722
","x: 170.17254638671875
y: 226.85147094726562
z: -0.004389919340610504
","x: 171.47930908203125
y: 224.76101684570312
z: -0.005836487747728825
","x: 168.25482177734375
y: 219.81640625
z: 0.00014030492457095534
","x: 169.98526000976562
y: 213.92108154296875
z: -0.0026800481136888266
","x: 170.8251953125
y: 214.86305236816406
z: -0.004372205585241318
","x: 170.73643493652344
y: 217.07518005371094
z: -0.005070987623184919
","x: 166.74136352539062
y: 218.51829528808594
z: -0.001203179475851357
","x: 168.65679931640625
y: 212.40420532226562
z: -0.00437393831089139
","x: 169.57798767089844
y: 213.82672119140625
z: -0.005758649203926325
","x: 169.3734588623047
y: 216.529541015625
z: -0.006033746525645256
","x: 165.0052947998047
y: 217.79583740234375
z: -0.0031230314634740353
","x: 166.62161254882812
y: 212.11947631835938
z: -0.005702294409275055
","x: 167.74417114257812
y: 213.1513671875
z: -0.00585697777569294
","x: 167.97665405273438
y: 215.41339111328125
z: -0.0054678176529705524
","x: 162.9546356201172
y: 217.6588592529297
z: -0.00543187977746129
","x: 164.16860961914062
y: 212.9155731201172
z: -0.007002664729952812
","x: 165.21914672851562
y: 213.20997619628906
z: -0.006978324614465237
","x: 165.7082061767578
y: 214.8157501220703
z: -0.006616233382374048
"
19,"x: 176.072021484375
y: 214.07041931152344
z: -0.1541842669248581
visibility: 0.999910295009613
","x: 179.47677612304688
y: 206.35333251953125
z: -0.15531346201896667
visibility: 0.9997527599334717
","x: 180.94615173339844
y: 205.99948120117188
z: -0.1553317755460739
visibility: 0.9997978210449219
","x: 182.469970703125
y: 205.69891357421875
z: -0.15536773204803467
visibility: 0.9997733235359192
","x: 176.8369140625
y: 207.12149047851562
z: -0.13345426321029663
visibility: 0.9997122287750244
","x: 176.43124389648438
y: 207.31361389160156
z: -0.13350185751914978
visibility: 0.9997105002403259
","x: 175.98805236816406
y: 207.48629760742188
z: -0.13348783552646637
visibility: 0.9997134208679199
","x: 188.43576049804688
y: 210.5752716064453
z: -0.12531913816928864
visibility: 0.9998348951339722
","x: 180.00924682617188
y: 211.479736328125
z: -0.01398392766714096
visibility: 0.9992899894714355
","x: 180.0828399658203
y: 221.79217529296875
z: -0.1376170814037323
visibility: 0.9998469352722168
","x: 176.95309448242188
y: 222.6470184326172
z: -0.1077820435166359
visibility: 0.9996818900108337
","x: 204.66517639160156
y: 249.52857971191406
z: -0.13776502013206482
visibility: 0.9999833703041077
","x: 172.14794921875
y: 258.9370422363281
z: 0.10789622366428375
visibility: 0.9997971653938293
","x: 216.05442810058594
y: 302.3420104980469
z: -0.1836542785167694
visibility: 0.9986307621002197
","x: 155.39385986328125
y: 295.1525573730469
z: 0.013371475040912628
visibility: 0.9706361293792725
","x: 218.24737548828125
y: 334.9009704589844
z: -0.19603195786476135
visibility: 0.9929212927818298
","x: 160.8993682861328
y: 242.68545532226562
z: -0.2655513286590576
visibility: 0.9883950352668762
","x: 220.38473510742188
y: 344.6729736328125
z: -0.21108372509479523
visibility: 0.9785127639770508
","x: 162.68511962890625
y: 232.9066619873047
z: -0.3044370710849762
visibility: 0.9746050238609314
","x: 216.4962615966797
y: 341.4886474609375
z: -0.23261818289756775
visibility: 0.9796503782272339
","x: 165.22169494628906
y: 229.60092163085938
z: -0.3022821545600891
visibility: 0.9754823446273804
","x: 214.36656188964844
y: 338.49786376953125
z: -0.2016560584306717
visibility: 0.971716046333313
","x: 165.72628784179688
y: 233.45848083496094
z: -0.27373772859573364
visibility: 0.9694454073905945
","x: 193.03147888183594
y: 370.30682373046875
z: -0.0942482128739357
visibility: 0.9995639324188232
","x: 176.50540161132812
y: 370.5279846191406
z: 0.09406876564025879
visibility: 0.9993378520011902
","x: 182.08091735839844
y: 450.51123046875
z: -0.11190678924322128
visibility: 0.9934242963790894
","x: 172.19078063964844
y: 454.61968994140625
z: 0.08397839963436127
visibility: 0.9064479470252991
","x: 210.57232666015625
y: 526.8656005859375
z: -0.018008096143603325
visibility: 0.992489755153656
","x: 184.8759002685547
y: 539.5789794921875
z: 0.1800534576177597
visibility: 0.9703699350357056
","x: 218.02578735351562
y: 535.883544921875
z: -0.014874410815536976
visibility: 0.9143308401107788
","x: 190.80531311035156
y: 552.2847290039062
z: 0.18349900841712952
visibility: 0.9281358122825623
","x: 198.55868530273438
y: 559.2545166015625
z: -0.13312257826328278
visibility: 0.988853394985199
","x: 165.0955810546875
y: 564.7843017578125
z: 0.09682037681341171
visibility: 0.9726129174232483
",,,,,,,,,,,,,,,,,,,,,,,,,,,,,,,,,,,,,,,,,,
20,"x: 178.8730926513672
y: 213.49728393554688
z: -0.15939024090766907
visibility: 0.9999057650566101
","x: 181.69833374023438
