uscmakers/ReverseChoreography/data/6_all_i_wanna_do_jay_park.csv
,NOSE,LEFT_EYE_INNER,LEFT_EYE,LEFT_EYE_OUTER,RIGHT_EYE_INNER,RIGHT_EYE,RIGHT_EYE_OUTER,LEFT_EAR,RIGHT_EAR,MOUTH_LEFT,MOUTH_RIGHT,LEFT_SHOULDER,RIGHT_SHOULDER,LEFT_ELBOW,RIGHT_ELBOW,LEFT_WRIST,RIGHT_WRIST,LEFT_PINKY,RIGHT_PINKY,LEFT_INDEX,RIGHT_INDEX,LEFT_THUMB,RIGHT_THUMB,LEFT_HIP,RIGHT_HIP,LEFT_KNEE,RIGHT_KNEE,LEFT_ANKLE,RIGHT_ANKLE,LEFT_HEEL,RIGHT_HEEL,LEFT_FOOT_INDEX,RIGHT_FOOT_INDEX,WRIST,THUMB_CPC,THUMB_MCP,THUMB_IP,THUMB_TIP,INDEX_FINGER_MCP,INDEX_FINGER_PIP,INDEX_FINGER_DIP,INDEX_FINGER_TIP,MIDDLE_FINGER_MCP,MIDDLE_FINGER_PIP,MIDDLE_FINGER_DIP,MIDDLE_FINGER_TIP,RING_FINGER_PIP,RING_FINGER_DIP,RING_FINGER_TIP,RING_FINGER_MCP,PINKY_MCP,PINKY_PIP,PINKY_DIP,PINKY_TIP,WRIST2,THUMB_CPC2,THUMB_MCP2,THUMB_IP2,THUMB_TIP2,INDEX_FINGER_MCP2,INDEX_FINGER_PIP2,INDEX_FINGER_DIP2,INDEX_FINGER_TIP2,MIDDLE_FINGER_MCP2,MIDDLE_FINGER_PIP2,MIDDLE_FINGER_DIP2,MIDDLE_FINGER_TIP2,RING_FINGER_PIP2,RING_FINGER_DIP2,RING_FINGER_TIP2,RING_FINGER_MCP2,PINKY_MCP2,PINKY_PIP2,PINKY_DIP2,PINKY_TIP2
0,"x: 192.1171417236328
y: 279.5146484375
z: -0.336870938539505
visibility: 0.9999860525131226
","x: 193.85865783691406
y: 273.58660888671875
z: -0.3248438239097595
visibility: 0.999946117401123
","x: 195.2163848876953
y: 273.63372802734375
z: -0.32484209537506104
visibility: 0.9999538660049438
","x: 196.43138122558594
y: 273.82293701171875
z: -0.3248538076877594
visibility: 0.999947190284729
","x: 189.9481201171875
y: 274.08636474609375
z: -0.3247005343437195
visibility: 0.999927282333374
","x: 188.69656372070312
y: 274.4530944824219
z: -0.3247581720352173
visibility: 0.9999375343322754
","x: 187.5094757080078
y: 274.9039001464844
z: -0.32477501034736633
visibility: 0.9999215602874756
","x: 198.7322235107422
y: 277.33978271484375
z: -0.22801434993743896
visibility: 0.9998718500137329
","x: 185.94839477539062
y: 278.72625732421875
z: -0.22779536247253418
visibility: 0.9998288154602051
","x: 195.22361755371094
y: 286.913818359375
z: -0.29870232939720154
visibility: 0.9999679327011108
","x: 190.18016052246094
y: 287.16326904296875
z: -0.2988644540309906
visibility: 0.9999539852142334
","x: 213.0830078125
y: 317.8399963378906
z: -0.14268088340759277
visibility: 0.9999840259552002
","x: 175.45376586914062
y: 315.00384521484375
z: -0.1524398773908615
visibility: 0.9999581575393677
","x: 215.4384307861328
y: 368.16180419921875
z: -0.09211957454681396
visibility: 0.9843927621841431
","x: 171.2548370361328
y: 363.0008239746094
z: -0.11491177976131439
visibility: 0.9654706716537476
","x: 219.3990020751953
y: 408.8416748046875
z: -0.1607407182455063
visibility: 0.9593108296394348
","x: 166.24705505371094
y: 402.2249755859375
z: -0.18681293725967407
visibility: 0.8899261951446533
","x: 221.28421020507812
y: 420.6414489746094
z: -0.18190865218639374
visibility: 0.9069837331771851
","x: 164.71240234375
y: 413.49383544921875
z: -0.21465949714183807
visibility: 0.8001993894577026
","x: 219.9329833984375
y: 419.70880126953125
z: -0.20976027846336365
visibility: 0.9144304990768433
","x: 164.92535400390625
y: 412.60638427734375
z: -0.24327650666236877
visibility: 0.8093094229698181
","x: 218.75045776367188
y: 416.2730407714844
z: -0.173211008310318
visibility: 0.8928593993186951
","x: 166.28750610351562
y: 410.1466369628906
z: -0.20052120089530945
visibility: 0.7849410176277161
","x: 202.31570434570312
y: 410.27001953125
z: 0.0013613977935165167
visibility: 0.999951958656311
","x: 179.74232482910156
y: 409.16131591796875
z: -0.001473691314458847
visibility: 0.9999473094940186
","x: 210.65377807617188
y: 469.6293640136719
z: 0.03458348289132118
visibility: 0.9963487386703491
","x: 167.1020050048828
y: 468.3185119628906
z: -0.02388458512723446
visibility: 0.9980857372283936
","x: 217.2050018310547
y: 527.6642456054688
z: 0.23211613297462463
visibility: 0.9966421127319336
","x: 154.88882446289062
y: 519.5106811523438
z: 0.16741827130317688
visibility: 0.9975005984306335
","x: 214.77215576171875
y: 536.856689453125
z: 0.24576516449451447
visibility: 0.919184148311615
","x: 156.25479125976562
y: 526.915771484375
z: 0.1810646802186966
visibility: 0.9190453886985779
","x: 221.026123046875
y: 548.6849365234375
z: 0.13462114334106445
visibility: 0.992958664894104
","x: 149.64926147460938
y: 543.6011352539062
z: 0.06884472817182541
visibility: 0.9952340722084045
",,,,,,,,,,,,,,,,,,,,,,,,,,,,,,,,,,,,,,,,,,
1,"x: 181.81675720214844
y: 276.0973815917969
z: -0.25566232204437256
visibility: 0.9999869465827942
","x: 184.04957580566406
y: 270.270751953125
z: -0.2412673681974411
visibility: 0.9999502897262573
","x: 185.4903564453125
y: 270.57513427734375
z: -0.24132411181926727
visibility: 0.9999571442604065
","x: 186.64613342285156
y: 270.96063232421875
z: -0.2413351982831955
visibility: 0.9999510049819946
","x: 179.7501983642578
y: 269.9132080078125
z: -0.24123890697956085
visibility: 0.9999328255653381
","x: 178.33624267578125
y: 270.0625915527344
z: -0.24124328792095184
visibility: 0.9999414682388306
","x: 176.90431213378906
y: 270.327880859375
z: -0.2412395179271698
visibility: 0.9999263286590576
","x: 188.124267578125
y: 274.849365234375
z: -0.14406843483448029
visibility: 0.9998826384544373
","x: 174.88119506835938
y: 273.9899597167969
z: -0.14451183378696442
visibility: 0.9998408555984497
","x: 184.40621948242188
y: 283.7228088378906
z: -0.21861311793327332
visibility: 0.9999706149101257
","x: 178.89578247070312
y: 283.64794921875
z: -0.2189255654811859
visibility: 0.999957799911499
","x: 198.49232482910156
y: 317.25164794921875
z: -0.0913618877530098
visibility: 0.9999849200248718
","x: 161.6185302734375
y: 312.41436767578125
z: -0.0750802606344223
visibility: 0.9999583959579468
","x: 199.71035766601562
y: 366.79119873046875
z: -0.0950208529829979
visibility: 0.984451949596405
","x: 151.8829803466797
y: 356.5201416015625
z: -0.09392702579498291
visibility: 0.9620367288589478
","x: 194.97576904296875
y: 395.76910400390625
z: -0.22771823406219482
visibility: 0.9618653059005737
","x: 144.62991333007812
y: 391.2513732910156
z: -0.24879920482635498
visibility: 0.8935871720314026
","x: 192.51156616210938
y: 407.6259765625
z: -0.26341158151626587
visibility: 0.9133827090263367
","x: 140.31903076171875
y: 401.98199462890625
z: -0.2884971499443054
visibility: 0.8103012442588806
","x: 190.3627166748047
y: 399.6641540527344
z: -0.28817617893218994
visibility: 0.9202409386634827
","x: 140.59512329101562
y: 401.404052734375
z: -0.31296223402023315
visibility: 0.8192282319068909
","x: 190.49502563476562
y: 395.4594421386719
z: -0.23994389176368713
visibility: 0.8994566798210144
","x: 142.30471801757812
y: 398.34906005859375
z: -0.2636571526527405
visibility: 0.7962104678153992
","x: 188.6950225830078
y: 409.76171875
z: 0.001338705769740045
visibility: 0.9999515414237976
","x: 167.1726531982422
y: 410.59228515625
z: -0.0014393662568181753
visibility: 0.9999471306800842
","x: 197.57662963867188
y: 471.06036376953125
z: 0.03309663385152817
visibility: 0.9965556263923645
","x: 164.88221740722656
y: 468.41302490234375
z: 0.04618171229958534
visibility: 0.9980287551879883
","x: 206.9480438232422
y: 527.6883544921875
z: 0.1987711787223816
visibility: 0.9966697096824646
","x: 163.35537719726562
y: 520.840576171875
z: 0.26183947920799255
visibility: 0.9973862767219543
","x: 204.76927185058594
y: 536.8218994140625
z: 0.2089788168668747
visibility: 0.9224215745925903
","x: 166.16061401367188
y: 528.2188110351562
z: 0.2771609425544739
visibility: 0.9216116070747375
","x: 214.12452697753906
y: 548.5532836914062
z: 0.1001937985420227
visibility: 0.9931114912033081
","x: 159.29188537597656
y: 544.3463745117188
z: 0.17779995501041412
visibility: 0.9949948191642761
",,,,,,,,,,,,,,,,,,,,,,,,,,,,,,,,,,,,,,,,,,
2,"x: 180.85284423828125
y: 276.369140625
z: -0.23905637860298157
visibility: 0.9999816417694092
","x: 182.83958435058594
y: 270.4177551269531
z: -0.22773131728172302
visibility: 0.9999374151229858
","x: 184.3170928955078
y: 270.66229248046875
z: -0.2277580201625824
visibility: 0.9999439120292664
","x: 185.66940307617188
y: 270.9945068359375
z: -0.2277517020702362
visibility: 0.9999359846115112
","x: 178.9293670654297
y: 270.2713317871094
z: -0.2231617420911789
visibility: 0.9999184608459473
","x: 177.67953491210938
y: 270.48529052734375
z: -0.22321458160877228
visibility: 0.9999247789382935
","x: 176.43089294433594
y: 270.80450439453125
z: -0.22320768237113953
visibility: 0.999908983707428
","x: 187.88983154296875
y: 274.9301452636719
z: -0.14853128790855408
visibility: 0.9998681545257568
","x: 174.7295379638672
y: 274.4559020996094
z: -0.12806658446788788
visibility: 0.999801516532898
","x: 183.60104370117188
y: 283.8650817871094
z: -0.20931699872016907
visibility: 0.9999674558639526
","x: 178.54928588867188
y: 283.93377685546875
z: -0.2035783976316452
visibility: 0.9999541640281677
","x: 199.75643920898438
y: 317.7247314453125
z: -0.11231150478124619
visibility: 0.9999818801879883
","x: 161.50411987304688
y: 312.6078186035156
z: -0.05876884609460831
visibility: 0.99995356798172
","x: 202.22547912597656
y: 364.122314453125
z: -0.18302610516548157
visibility: 0.9852749109268188
","x: 149.94761657714844
y: 350.6029052734375
z: -0.12671023607254028
visibility: 0.9637360572814941
","x: 187.41864013671875
y: 377.66644287109375
z: -0.3167742192745209
visibility: 0.964675784111023
","x: 133.22341918945312
y: 343.0715637207031
z: -0.34659358859062195
visibility: 0.9030725955963135
","x: 183.80068969726562
y: 385.6649475097656
z: -0.3510022461414337
visibility: 0.9196648597717285
","x: 129.69752502441406
y: 336.47265625
z: -0.39110028743743896
visibility: 0.8271391987800598
","x: 181.4418487548828
y: 377.8381652832031
z: -0.3596166968345642
visibility: 0.9257658123970032
","x: 130.96327209472656
y: 331.601806640625
z: -0.40065884590148926
visibility: 0.8352563381195068
","x: 182.3341522216797
y: 374.58697509765625
z: -0.3217430114746094
visibility: 0.9056388139724731
","x: 132.67747497558594
y: 334.3678283691406
z: -0.3575599789619446
visibility: 0.8140044212341309
","x: 190.3209686279297
y: 409.60223388671875
z: -0.0037796974647790194
visibility: 0.9999381303787231
","x: 168.33570861816406
y: 410.5067138671875
z: 0.0036110649816691875
visibility: 0.9999440312385559
","x: 198.13587951660156
y: 471.3333740234375
z: 0.013716273009777069
visibility: 0.9966211318969727
","x: 164.93399047851562
y: 465.3291015625
z: -0.05256558582186699
visibility: 0.9979652762413025
","x: 206.4312744140625
y: 525.621337890625
z: 0.19806548953056335
visibility: 0.9964644908905029
","x: 165.02862548828125
y: 520.3037109375
z: 0.1343662142753601
visibility: 0.997287392616272
","x: 203.593017578125
y: 534.3212890625
z: 0.21042338013648987
visibility: 0.9167262315750122
","x: 167.7999725341797
y: 526.8681640625
z: 0.14803209900856018
visibility: 0.9225714802742004
","x: 212.39483642578125
y: 548.0660400390625
z: 0.10612895339727402
visibility: 0.9926591515541077
","x: 160.8956756591797
y: 544.5396728515625
z: 0.04805673658847809
visibility: 0.9948934316635132
",,,,,,,,,,,,,,,,,,,,,,,,,,,,,,,,,,,,,,,,,,
3,"x: 183.52281188964844
y: 275.10491943359375
z: -0.22957837581634521
visibility: 0.9999729990959167
","x: 185.4398651123047
y: 269.2174987792969
z: -0.21860358119010925
visibility: 0.999925971031189
","x: 186.87376403808594
y: 269.43292236328125
z: -0.2186201810836792
visibility: 0.999930739402771
","x: 188.16314697265625
y: 269.72576904296875
z: -0.21862375736236572
visibility: 0.9999211430549622
","x: 181.4935302734375
y: 268.9937744140625
z: -0.2148408144712448
visibility: 0.9999024868011475
","x: 180.23825073242188
y: 269.1537170410156
z: -0.2148888111114502
visibility: 0.9999057650566101
","x: 178.99771118164062
y: 269.4515686035156
z: -0.21487100422382355
visibility: 0.9998885989189148
","x: 190.35562133789062
y: 273.6111755371094
z: -0.13767021894454956
visibility: 0.999859631061554
","x: 177.1318817138672
y: 273.6884460449219
z: -0.1192447692155838
visibility: 0.9997604489326477
","x: 186.38006591796875
y: 282.4102478027344
z: -0.1984073668718338
visibility: 0.9999643564224243
","x: 181.30625915527344
y: 282.4200134277344
z: -0.19330742955207825
visibility: 0.9999480843544006
","x: 202.99530029296875
y: 314.44049072265625
z: -0.10608341544866562
visibility: 0.9999780654907227
","x: 165.0876922607422
y: 310.0008850097656
z: -0.05555778741836548
visibility: 0.9999306201934814
","x: 203.6962890625
y: 352.9199523925781
z: -0.171315997838974
visibility: 0.9847962260246277
","x: 152.17034912109375
y: 333.2797546386719
z: -0.1468137800693512
visibility: 0.9665712118148804
","x: 194.646240234375
y: 373.226806640625
z: -0.31267085671424866
visibility: 0.9646131992340088
","x: 140.82656860351562
y: 296.4068298339844
z: -0.3553898334503174
visibility: 0.9117740988731384
","x: 191.49960327148438
y: 384.0762023925781
z: -0.34731152653694153
visibility: 0.9208760261535645
","x: 138.2617645263672
y: 286.93505859375
z: -0.40097612142562866
visibility: 0.8420682549476624
","x: 188.83743286132812
y: 376.1127014160156
z: -0.3608289957046509
visibility: 0.9262192249298096
","x: 139.63351440429688
y: 282.1346130371094
z: -0.4039376676082611
visibility: 0.8493014574050903
","x: 189.54293823242188
y: 371.7430114746094
z: -0.320293664932251
visibility: 0.90570068359375
","x: 141.092529296875
y: 285.0271301269531
z: -0.3638812005519867
visibility: 0.82953941822052
","x: 193.03248596191406
y: 408.37835693359375
z: -0.004583727568387985
visibility: 0.9999362230300903
","x: 170.8908233642578
y: 408.9236755371094
z: 0.004441209137439728
visibility: 0.999940812587738
","x: 200.65200805664062
y: 471.9358825683594
z: 0.012998899444937706
visibility: 0.9968541264533997
","x: 167.10179138183594
y: 466.113525390625
z: 0.0433141328394413
visibility: 0.9980345368385315
","x: 206.79556274414062
y: 524.8215942382812
z: 0.20520749688148499
visibility: 0.996576189994812
","x: 165.7861785888672
y: 520.081298828125
z: 0.24454474449157715
visibility: 0.9973180890083313
","x: 203.594970703125
y: 533.1605224609375
z: 0.21862497925758362
visibility: 0.9190035462379456
","x: 168.4076690673828
y: 526.03369140625
z: 0.2601739168167114
visibility: 0.9248837232589722
","x: 212.27642822265625
y: 548.070556640625
z: 0.11285290867090225
visibility: 0.9928617477416992
","x: 161.01646423339844
y: 544.6332397460938
z: 0.16561801731586456
visibility: 0.9949135780334473
",,,,,,,,,,,,,,,,,,,,,,,,,,,,,,,,,,,,,,,,,,
4,"x: 186.81561279296875
y: 275.3625793457031
z: -0.2959606647491455
visibility: 0.9999371767044067
","x: 188.22169494628906
y: 269.4666442871094
z: -0.2826520502567291
visibility: 0.9998703002929688
","x: 189.2769012451172
y: 269.6732177734375
z: -0.2826268970966339
visibility: 0.9998691082000732
","x: 190.56121826171875
y: 269.933837890625
z: -0.28266212344169617
visibility: 0.999860942363739
","x: 185.28085327148438
y: 269.16473388671875
z: -0.2828275263309479
visibility: 0.999833881855011
","x: 184.1446533203125
y: 269.31207275390625
z: -0.2829219698905945
visibility: 0.9998356699943542
","x: 182.83441162109375
y: 269.61260986328125
z: -0.2829223573207855
visibility: 0.999818742275238
","x: 193.30520629882812
y: 273.6807861328125
z: -0.18791434168815613
visibility: 0.9997830390930176
","x: 181.42169189453125
y: 273.928955078125
z: -0.18828360736370087
visibility: 0.9996333122253418
","x: 189.285888671875
y: 282.6730041503906
z: -0.259276807308197
visibility: 0.9999392628669739
","x: 185.65284729003906
y: 282.7371826171875
z: -0.2596575915813446
visibility: 0.9999133348464966
","x: 207.13279724121094
y: 310.5552978515625
z: -0.138154998421669
visibility: 0.9999669790267944
","x: 168.46224975585938
y: 309.48614501953125
z: -0.13255441188812256
visibility: 0.9998624920845032
","x: 216.32557678222656
y: 350.973876953125
z: -0.17706428468227386
visibility: 0.9840326309204102
","x: 153.13340759277344
y: 311.56927490234375
z: -0.2556436359882355
visibility: 0.9693002104759216
","x: 199.85191345214844
y: 376.9478759765625
z: -0.2725435495376587
visibility: 0.9591029286384583
","x: 146.9010009765625
y: 278.505859375
z: -0.434297651052475
visibility: 0.9163604378700256
","x: 196.76853942871094
y: 386.972412109375
z: -0.30019503831863403
visibility: 0.9083354473114014
","x: 144.17213439941406
y: 267.92138671875
z: -0.4785832464694977
visibility: 0.8457751274108887
","x: 194.29672241210938
y: 381.5054931640625
z: -0.312927782535553
visibility: 0.9130276441574097
","x: 142.68882751464844
y: 266.76324462890625
z: -0.47449690103530884
visibility: 0.8510881662368774
","x: 194.92877197265625
y: 377.6159973144531
z: -0.2787711024284363
visibility: 0.8886509537696838
","x: 143.29324340820312
y: 272.4620666503906
z: -0.43928956985473633
visibility: 0.8309062123298645
","x: 198.4969940185547
y: 406.19580078125
z: 0.0013705387245863676
visibility: 0.9999213218688965
","x: 177.72300720214844
y: 405.5520324707031
z: -0.0015084639890119433
visibility: 0.9999263882637024
","x: 201.48388671875
y: 466.8040466308594
z: 0.015171518549323082
visibility: 0.9966903328895569
","x: 176.6893768310547
y: 464.9464111328125
z: 0.02436998300254345
visibility: 0.9974014163017273
","x: 207.57484436035156
y: 524.9627075195312
z: 0.18761733174324036
visibility: 0.9962769746780396
","x: 172.2696075439453
y: 519.8225708007812
z: 0.18187880516052246
visibility: 0.9965548515319824
","x: 204.89590454101562
y: 533.3585815429688
z: 0.1990392953157425
visibility: 0.9151839017868042
","x: 172.36705017089844
y: 525.822021484375
z: 0.1941281110048294
visibility: 0.9141505360603333
","x: 211.716064453125
y: 547.9063110351562
z: 0.08677882701158524
visibility: 0.9923012852668762
","x: 169.97506713867188
y: 542.8681640625
z: 0.08359552919864655
visibility: 0.993945837020874
",,,,,,,,,,,,,,,,,,,,,,,,,,,,,,,,,,,,,,,,,,
5,"x: 191.7652130126953
y: 278.033935546875
z: -0.28680217266082764
visibility: 0.9998622536659241
","x: 193.23699951171875
y: 271.3870849609375
z: -0.2723689675331116
visibility: 0.9997304081916809
","x: 194.50088500976562
y: 271.4327697753906
z: -0.2723611295223236
visibility: 0.999687910079956
","x: 195.88389587402344
y: 271.5185852050781
z: -0.27241843938827515
visibility: 0.9997293949127197
","x: 189.7677001953125
y: 271.1187438964844
z: -0.2748859226703644
visibility: 0.99954754114151
","x: 188.57801818847656
y: 271.061767578125
z: -0.2749404311180115
visibility: 0.9994851350784302
","x: 187.25473022460938
y: 271.0931091308594
z: -0.2749391198158264
visibility: 0.9994689226150513
","x: 198.23080444335938
y: 274.0928955078125
z: -0.17224282026290894
visibility: 0.9996447563171387
","x: 184.96116638183594
y: 274.3317565917969
z: -0.18322636187076569
visibility: 0.9992120862007141
","x: 194.3704833984375
y: 284.8571472167969
z: -0.2480119913816452
visibility: 0.9998900294303894
","x: 190.01162719726562
y: 284.86041259765625
z: -0.25159385800361633
visibility: 0.999825656414032
","x: 209.90158081054688
y: 310.0353698730469
z: -0.10552214086055756
visibility: 0.999957799911499
","x: 173.78494262695312
y: 307.72283935546875
z: -0.131378635764122
visibility: 0.9997534155845642
","x: 220.22621154785156
y: 351.9577331542969
z: -0.08347079902887344
visibility: 0.9797376990318298
","x: 157.46632385253906
y: 281.6102294921875
z: -0.2220444679260254
visibility: 0.9719265699386597
","x: 202.05752563476562
y: 380.00048828125
z: -0.1269272416830063
visibility: 0.9464350938796997
","x: 162.40151977539062
y: 266.7459411621094
z: -0.3249010145664215
visibility: 0.91194087266922
","x: 199.81201171875
y: 389.0698547363281
z: -0.14783427119255066
visibility: 0.8882399797439575
","x: 163.12498474121094
y: 258.7459411621094
z: -0.3644660711288452
visibility: 0.8249194622039795
","x: 197.46055603027344
y: 384.18267822265625
z: -0.16542395949363708
visibility: 0.892615556716919
","x: 163.65325927734375
y: 258.3239440917969
z: -0.3797633647918701
visibility: 0.8261134624481201
","x: 197.86724853515625
y: 380.7143859863281
z: -0.13462454080581665
visibility: 0.8641543388366699
","x: 164.74339294433594
y: 262.5753479003906
z: -0.33290237188339233
visibility: 0.8061391115188599
","x: 203.9512481689453
y: 405.0866394042969
z: 0.013332824222743511
visibility: 0.9999017119407654
","x: 182.75997924804688
y: 403.94921875
z: -0.013378824107348919
visibility: 0.9998946785926819
","x: 204.76840209960938
y: 467.197265625
z: 0.021483588963747025
visibility: 0.9958319664001465
","x: 186.43519592285156
y: 466.445556640625
z: 0.013179788365960121
visibility: 0.9965677261352539
","x: 206.96131896972656
y: 524.2035522460938
z: 0.22516858577728271
visibility: 0.9948954582214355
","x: 183.22276306152344
y: 519.6494140625
z: 0.20727333426475525
visibility: 0.995557427406311
","x: 203.95785522460938
y: 532.0732421875
z: 0.2412605732679367
visibility: 0.9079250693321228
","x: 181.86569213867188
y: 525.4957885742188
z: 0.22399553656578064
visibility: 0.9053711295127869
","x: 211.6878204345703
y: 548.3082275390625
z: 0.13190032541751862
visibility: 0.9906736612319946
","x: 185.88246154785156
y: 544.1649169921875
z: 0.11312802135944366
visibility: 0.9930126667022705
",,,,,,,,,,,,,,,,,,,,,,,,,,,,,,,,,,,,,,,,,,
6,"x: 194.01522827148438
y: 278.9903564453125
z: -0.19749119877815247
visibility: 0.9998565316200256
","x: 194.99072265625
y: 272.0804138183594
z: -0.17767038941383362
visibility: 0.999727189540863
","x: 196.0540313720703
y: 272.0516052246094
z: -0.1776794195175171
visibility: 0.9996771812438965
","x: 197.15492248535156
y: 272.0590515136719
z: -0.17770762741565704
visibility: 0.9997267723083496
","x: 191.63211059570312
y: 271.8455810546875
z: -0.18274757266044617
visibility: 0.999522864818573
","x: 190.27267456054688
y: 271.68194580078125
z: -0.1827721893787384
visibility: 0.9994475841522217
","x: 188.78460693359375
y: 271.56207275390625
z: -0.18277539312839508
visibility: 0.9994388818740845
","x: 198.5072021484375
y: 274.56805419921875
z: -0.07212600111961365
visibility: 0.999643087387085
","x: 185.24005126953125
y: 274.52764892578125
z: -0.09388285130262375
visibility: 0.999193549156189
","x: 196.3179931640625
y: 285.9386901855469
z: -0.158273845911026
visibility: 0.9998905062675476
","x: 192.0082550048828
y: 286.0761413574219
z: -0.1648864895105362
visibility: 0.9998217821121216
","x: 210.0428009033203
y: 310.0571594238281
z: -0.025295432657003403
visibility: 0.9999603033065796
","x: 175.43701171875
y: 305.8166198730469
z: -0.07258136570453644
visibility: 0.9997450709342957
","x: 221.6435546875
y: 347.2059631347656
z: -0.0655723363161087
visibility: 0.9799684882164001
","x: 167.00770568847656
y: 280.3614501953125
z: -0.18632711470127106
visibility: 0.9746370315551758
","x: 202.70428466796875
y: 370.50396728515625
z: -0.1697147786617279
visibility: 0.9471647143363953
","x: 177.203857421875
y: 247.87786865234375
z: -0.25664228200912476
visibility: 0.9188026785850525
","x: 201.22608947753906
y: 379.6558837890625
z: -0.19902434945106506
visibility: 0.8889840841293335
","x: 178.05545043945312
y: 241.20924377441406
z: -0.2947099804878235
visibility: 0.8336158394813538
","x: 198.5523681640625
y: 374.8511047363281
z: -0.20961859822273254
visibility: 0.8928670883178711
","x: 178.45263671875
y: 241.2001953125
z: -0.2786007523536682
visibility: 0.833116888999939
","x: 198.93406677246094
y: 372.0850830078125
z: -0.1763269454240799
visibility: 0.8638664484024048
","x: 178.48541259765625
y: 244.47824096679688
z: -0.25560706853866577
visibility: 0.8135965466499329
","x: 207.2259063720703
y: 404.35650634765625
z: 0.018072087317705154
visibility: 0.9999060034751892
","x: 186.5726776123047
y: 404.3141174316406
z: -0.018077312037348747
visibility: 0.999891459941864
","x: 213.8751220703125
y: 463.12359619140625
z: -0.053841572254896164
visibility: 0.9955417513847351
","x: 188.6370391845703
y: 466.50830078125
z: -0.05231206864118576
visibility: 0.9959200620651245
","x: 207.86880493164062
y: 523.2665405273438
z: 0.14453575015068054
visibility: 0.9939241409301758
","x: 182.73585510253906
y: 519.4932861328125
z: 0.1577189415693283
visibility: 0.9941121935844421
","x: 205.01637268066406
y: 529.61865234375
z: 0.1605939418077469
visibility: 0.9057431817054749
","x: 181.68283081054688
y: 524.02587890625
z: 0.17543038725852966
visibility: 0.8923199772834778
","x: 212.19973754882812
y: 548.5897216796875
z: 0.05877845361828804
visibility: 0.9896654486656189
","x: 186.02334594726562
y: 545.8623657226562
z: 0.0766662210226059
visibility: 0.9917110800743103
",,,,,,,,,,,,,,,,,,,,,,,,,,,,,,,,,,,,,,,,,,
7,"x: 194.1693115234375
y: 278.95654296875
z: -0.17149484157562256
visibility: 0.9998332858085632
","x: 195.0981903076172
y: 272.0895080566406
z: -0.1509130448102951
visibility: 0.9997022151947021
","x: 196.1608428955078
y: 272.0519104003906
z: -0.15092065930366516
visibility: 0.9996387958526611
","x: 197.22607421875
y: 272.0552978515625
z: -0.15094205737113953
visibility: 0.9996970891952515
","x: 191.75682067871094
y: 271.9755859375
z: -0.15547038614749908
visibility: 0.9994563460350037
","x: 190.38021850585938
y: 271.8667907714844
z: -0.15549692511558533
visibility: 0.9993641972541809
","x: 188.90292358398438
y: 271.7599792480469
z: -0.155514657497406
visibility: 0.999350368976593
","x: 198.47683715820312
y: 274.7708435058594
z: -0.04464275389909744
visibility: 0.999609112739563
","x: 185.4562530517578
y: 274.629638671875
z: -0.0631755143404007
visibility: 0.9991188049316406
","x: 196.48419189453125
y: 285.9273376464844
z: -0.13188384473323822
visibility: 0.9998849034309387
","x: 192.0198211669922
y: 286.0631103515625
z: -0.13752850890159607
visibility: 0.999803900718689
","x: 210.0989532470703
y: 310.64312744140625
z: 0.001006032107397914
visibility: 0.9999609589576721
","x: 175.68954467773438
y: 304.3966064453125
z: -0.057394903153181076
visibility: 0.9997408986091614
","x: 222.09483337402344
y: 347.9498596191406
z: -0.06925927102565765
visibility: 0.9788634181022644
","x: 167.78770446777344
y: 281.5671691894531
z: -0.1925181746482849
visibility: 0.9771032929420471
","x: 204.89773559570312
y: 371.5231628417969
z: -0.183477982878685
visibility: 0.9471418261528015
","x: 179.93109130859375
y: 247.703125
z: -0.27272090315818787
visibility: 0.9262314438819885
","x: 201.3822784423828
y: 381.4703674316406
z: -0.20007503032684326
visibility: 0.8892083764076233
","x: 181.17237854003906
y: 240.40093994140625
z: -0.30994293093681335
visibility: 0.8469043374061584
","x: 199.41561889648438
y: 376.43060302734375
z: -0.2301418036222458
visibility: 0.8925610780715942
","x: 181.55419921875
y: 240.66876220703125
z: -0.29752153158187866
visibility: 0.8456715941429138
","x: 199.35977172851562
y: 373.3837585449219
z: -0.19485989212989807
visibility: 0.8630311489105225
","x: 181.576904296875
y: 244.19801330566406
z: -0.2676084339618683
visibility: 0.8267229795455933
","x: 207.81683349609375
y: 404.4778137207031
z: 0.020083677023649216
visibility: 0.9999138712882996
","x: 186.4676513671875
y: 405.4825134277344
z: -0.02008756808936596
visibility: 0.9998974800109863
","x: 214.50022888183594
y: 463.29632568359375
z: -0.1534656286239624
visibility: 0.9953601360321045
","x: 189.2644805908203
y: 466.59686279296875
z: -0.09827719628810883
visibility: 0.9955205321311951
","x: 208.16477966308594
y: 523.4793701171875
z: 0.04209216684103012
visibility: 0.9931879639625549
","x: 182.86740112304688
y: 519.3360595703125
z: 0.13131725788116455
visibility: 0.9919160604476929
","x: 204.5899200439453
y: 530.18701171875
z: 0.05816672369837761
visibility: 0.906099796295166
","x: 180.87376403808594
y: 523.51220703125
z: 0.15039363503456116
visibility: 0.8752476572990417
","x: 212.723388671875
y: 548.7357177734375
z: -0.04364592581987381
visibility: 0.9889451861381531
","x: 186.124755859375
y: 546.3016967773438
z: 0.05819467455148697
visibility: 0.9896156191825867
",,,,,,,,,,,,,,,,,,,,,,,,,,,,,,,,,,,,,,,,,,
8,"x: 194.6593475341797
y: 284.50445556640625
z: -0.19326062500476837
visibility: 0.9998282194137573
","x: 195.8479766845703
y: 277.31121826171875
z: -0.19584250450134277
visibility: 0.9997023344039917
","x: 197.09500122070312
y: 277.0232849121094
z: -0.1959318220615387
visibility: 0.9996333122253418
","x: 198.30514526367188
y: 276.781982421875
z: -0.1959591507911682
visibility: 0.9996892809867859
","x: 192.3520965576172
y: 277.570556640625
z: -0.15843069553375244
visibility: 0.9994609951972961
","x: 190.9778289794922
y: 277.4805908203125
z: -0.15856054425239563
visibility: 0.9993714094161987
","x: 189.46026611328125
y: 277.40191650390625
z: -0.1587561070919037
visibility: 0.9993542432785034
","x: 199.66659545898438
y: 278.2265319824219
z: -0.10789934545755386
visibility: 0.9995994567871094
","x: 185.69407653808594
y: 279.234619140625
z: -0.09454933553934097
visibility: 0.9991194009780884
","x: 197.0574493408203
y: 290.843994140625
z: -0.17702460289001465
visibility: 0.9998828768730164
","x: 192.6647186279297
y: 291.10919189453125
z: -0.15247228741645813
visibility: 0.9997988343238831
","x: 211.17465209960938
y: 312.67340087890625
z: -0.04349987953901291
visibility: 0.9999579787254333
","x: 176.4584197998047
y: 307.8966369628906
z: -0.11994323879480362
visibility: 0.9996991753578186
","x: 222.81265258789062
y: 353.5821533203125
z: -0.08591769635677338
visibility: 0.9787769913673401
","x: 166.664306640625
y: 298.1225280761719
z: -0.28378331661224365
visibility: 0.97929847240448
","x: 204.6843719482422
y: 378.005615234375
z: -0.1855943500995636
visibility: 0.949224591255188
","x: 177.50660705566406
y: 260.5024108886719
z: -0.41822949051856995
visibility: 0.9331254363059998
","x: 200.8063507080078
y: 385.43170166015625
z: -0.20542030036449432
visibility: 0.8917397260665894
","x: 178.33035278320312
y: 251.0679931640625
z: -0.46342262625694275
visibility: 0.860031008720398
","x: 198.23516845703125
y: 377.9161071777344
z: -0.23639170825481415
visibility: 0.8944551348686218
","x: 178.92271423339844
y: 251.275390625
z: -0.44538527727127075
visibility: 0.8583909273147583
","x: 198.79998779296875
y: 376.3104553222656
z: -0.2013275921344757
visibility: 0.8643750548362732
","x: 179.2682342529297
y: 255.49346923828125
z: -0.415917307138443
visibility: 0.839737057685852
","x: 206.6478729248047
y: 409.3835754394531
z: 0.023090874776244164
visibility: 0.9999204874038696
","x: 185.23678588867188
y: 410.5078125
z: -0.02313860133290291
visibility: 0.9999017119407654
","x: 212.8466796875
y: 467.8902893066406
z: -0.09604568779468536
visibility: 0.9951469898223877
","x: 186.9841766357422
y: 471.42626953125
z: -0.02294171415269375
visibility: 0.9947660565376282
","x: 207.33248901367188
y: 523.74609375
z: 0.10405125468969345
visibility: 0.9924185276031494
","x: 182.75961303710938
y: 520.5897827148438
z: 0.2103046178817749
visibility: 0.9903498888015747
","x: 203.55404663085938
y: 530.5103149414062
z: 0.12009190022945404
visibility: 0.9069817662239075
","x: 181.61830139160156
y: 525.8093872070312
z: 0.22837917506694794
visibility: 0.8639267683029175
","x: 212.7940673828125
y: 548.9191284179688
z: 0.011551255360245705
visibility: 0.9882602095603943
","x: 186.20538330078125
y: 546.331298828125
z: 0.124723419547081
visibility: 0.9878945350646973
",,,,,,,,,,,,,,,,,,,,,,,,,,,,,,,,,,,,,,,,,,
9,"x: 194.8406982421875
y: 284.59832763671875
z: -0.2845521569252014
visibility: 0.9997512102127075
","x: 195.85430908203125
y: 277.1884460449219
z: -0.27184993028640747
visibility: 0.9995068311691284
","x: 197.06771850585938
y: 276.776123046875
z: -0.27188101410865784
visibility: 0.9994488954544067
","x: 198.32386779785156
y: 276.44537353515625
z: -0.27191153168678284
visibility: 0.9995003938674927
","x: 192.54254150390625
y: 278.0227966308594
z: -0.26431652903556824
visibility: 0.9990857243537903
","x: 191.2722930908203
y: 278.217041015625
z: -0.2644118070602417
visibility: 0.9989831447601318
","x: 189.8292694091797
y: 278.49603271484375
z: -0.2644845247268677
visibility: 0.998907208442688
","x: 200.43540954589844
y: 278.1244812011719
z: -0.17518675327301025
visibility: 0.9993866682052612
","x: 186.4551239013672
y: 280.38690185546875
z: -0.1584114134311676
visibility: 0.9984668493270874
","x: 197.3480987548828
y: 290.47900390625
z: -0.24918703734874725
visibility: 0.9998236298561096
","x: 193.31712341308594
y: 291.0621337890625
z: -0.2424393594264984
visibility: 0.9996773600578308
","x: 213.40687561035156
y: 312.1956481933594
z: -0.12446727603673935
visibility: 0.9999549984931946
","x: 177.78848266601562
y: 307.85791015625
z: -0.1207381933927536
visibility: 0.9996679425239563
","x: 221.37522888183594
y: 357.33648681640625
z: -0.17106786370277405
visibility: 0.9803417921066284
","x: 166.89117431640625
y: 302.68927001953125
z: -0.23482003808021545
visibility: 0.9807784557342529
","x: 196.11972045898438
y: 379.78472900390625
z: -0.2380947321653366
visibility: 0.9531527161598206
","x: 172.65122985839844
y: 267.6315002441406
z: -0.3775905668735504
visibility: 0.9382928013801575
","x: 190.92129516601562
y: 388.11834716796875
z: -0.26376041769981384
visibility: 0.8986485600471497
","x: 172.66903686523438
y: 258.0399169921875
z: -0.42251524329185486
visibility: 0.8694072365760803
","x: 188.17251586914062
y: 382.0841979980469
z: -0.2696183919906616
visibility: 0.9007909297943115
","x: 173.49343872070312
y: 256.8145751953125
z: -0.413452684879303
visibility: 0.8671095967292786
","x: 189.61558532714844
y: 379.59228515625
z: -0.2403460443019867
visibility: 0.8714262843132019
","x: 174.22576904296875
y: 261.08563232421875
z: -0.38037213683128357
visibility: 0.848122775554657
","x: 206.32447814941406
y: 408.7755126953125
z: 0.016524510458111763
visibility: 0.9999162554740906
","x: 184.5371551513672
y: 407.8251953125
z: -0.016594532877206802
visibility: 0.9999030828475952
","x: 208.38096618652344
y: 469.34393310546875
z: -0.023282822221517563
visibility: 0.9941911101341248
","x: 185.19664001464844
y: 465.8227233886719
z: -0.12282983213663101
visibility: 0.9949988126754761
","x: 205.7786865234375
y: 523.5502319335938
z: 0.20102915167808533
visibility: 0.991461992263794
","x: 181.3707733154297
y: 520.6266479492188
z: 0.07065176218748093
visibility: 0.990614116191864
","x: 202.0368194580078
y: 530.674072265625
z: 0.21860650181770325
visibility: 0.905018150806427
","x: 181.56275939941406
y: 526.3304443359375
z: 0.0854264497756958
visibility: 0.8668926358222961
","x: 212.44386291503906
y: 548.9196166992188
z: 0.11686364561319351
visibility: 0.9869676232337952
","x: 185.4396209716797
y: 546.3018188476562
z: -0.03091255947947502
visibility: 0.9881566166877747
","x: 167.91693115234375
y: 260.324462890625
z: 0.0
","x: 171.07009887695312
y: 257.04156494140625
z: -0.00039408032898791134
","x: 174.38746643066406
y: 253.1549835205078
z: -0.002025294816121459
","x: 177.15518188476562
y: 251.4236602783203
z: -0.0044995988719165325
","x: 179.74923706054688
y: 251.01560974121094
z: -0.006824873853474855
","x: 171.89862060546875
y: 249.81369018554688
z: -0.0019610137678682804
","x: 172.39630126953125
y: 249.85446166992188
z: -0.005866820923984051
","x: 173.0762481689453
y: 251.98776245117188
z: -0.007857431657612324
","x: 173.59861755371094
y: 253.84080505371094
z: -0.008673391304910183
","x: 170.02491760253906
y: 249.26185607910156
z: -0.003974010702222586
","x: 171.32615661621094
y: 250.3391876220703
z: -0.00833642203360796
","x: 171.5306854248047
y: 254.47877502441406
z: -0.009044562466442585
","x: 171.2147979736328
y: 257.8558349609375
z: -0.00878196395933628
","x: 168.0070343017578
y: 249.25437927246094
z: -0.006275268737226725
","x: 169.27951049804688
y: 249.62303161621094
z: -0.009813169948756695
","x: 169.63690185546875
y: 253.47265625
z: -0.008511954918503761
","x: 169.56787109375
y: 256.45184326171875
z: -0.006995366886258125
","x: 165.79783630371094
y: 249.59469604492188
z: -0.008889783173799515
","x: 166.7296600341797
y: 247.78567504882812
z: -0.011003084480762482
","x: 167.62428283691406
y: 249.0892333984375
z: -0.010068727657198906
","x: 168.21974182128906
y: 250.51385498046875
z: -0.008805714547634125
",,,,,,,,,,,,,,,,,,,,,
10,"x: 194.8406982421875
y: 284.59832763671875
z: -0.2845521569252014
visibility: 0.9997512102127075
","x: 195.85430908203125
y: 277.1884460449219
z: -0.27184993028640747
visibility: 0.9995068311691284
","x: 197.06771850585938
y: 276.776123046875
z: -0.27188101410865784
visibility: 0.9994488954544067
","x: 198.32386779785156
y: 276.44537353515625
z: -0.27191153168678284
visibility: 0.9995003938674927
","x: 192.54254150390625
y: 278.0227966308594
z: -0.26431652903556824
visibility: 0.9990857243537903
","x: 191.2722930908203
y: 278.217041015625
z: -0.2644118070602417
visibility: 0.9989831447601318
","x: 189.8292694091797
y: 278.49603271484375
z: -0.2644845247268677
visibility: 0.998907208442688
","x: 200.43540954589844
y: 278.1244812011719
z: -0.17518675327301025
visibility: 0.9993866682052612
","x: 186.4551239013672
y: 280.38690185546875
z: -0.1584114134311676
visibility: 0.9984668493270874
","x: 197.3480987548828
y: 290.47900390625
z: -0.24918703734874725
visibility: 0.9998236298561096
","x: 193.31712341308594
y: 291.0621337890625
z: -0.2424393594264984
visibility: 0.9996773600578308
","x: 213.40687561035156
y: 312.1956481933594
z: -0.12446727603673935
visibility: 0.9999549984931946
","x: 177.78848266601562
y: 307.85791015625
z: -0.1207381933927536
visibility: 0.9996679425239563
","x: 221.37522888183594
y: 357.33648681640625
z: -0.17106786370277405
visibility: 0.9803417921066284
","x: 166.89117431640625
y: 302.68927001953125
z: -0.23482003808021545
visibility: 0.9807784557342529
","x: 196.11972045898438
y: 379.78472900390625
z: -0.2380947321653366
visibility: 0.9531527161598206
","x: 172.65122985839844
y: 267.6315002441406
z: -0.3775905668735504
visibility: 0.9382928013801575
","x: 190.92129516601562
y: 388.11834716796875
z: -0.26376041769981384
visibility: 0.8986485600471497
","x: 172.66903686523438
y: 258.0399169921875
z: -0.42251524329185486
visibility: 0.8694072365760803
","x: 188.17251586914062
y: 382.0841979980469
z: -0.2696183919906616
visibility: 0.9007909297943115
","x: 173.49343872070312
y: 256.8145751953125
z: -0.413452684879303
visibility: 0.8671095967292786
","x: 189.61558532714844
y: 379.59228515625
z: -0.2403460443019867
visibility: 0.8714262843132019
","x: 174.22576904296875
y: 261.08563232421875
z: -0.38037213683128357
visibility: 0.848122775554657
","x: 206.32447814941406
y: 408.7755126953125
z: 0.016524510458111763
visibility: 0.9999162554740906
","x: 184.5371551513672
y: 407.8251953125
z: -0.016594532877206802
visibility: 0.9999030828475952
","x: 208.38096618652344
y: 469.34393310546875
z: -0.023282822221517563
visibility: 0.9941911101341248
","x: 185.19664001464844
y: 465.8227233886719
z: -0.12282983213663101
visibility: 0.9949988126754761
","x: 205.7786865234375
y: 523.5502319335938
z: 0.20102915167808533
visibility: 0.991461992263794
","x: 181.3707733154297
y: 520.6266479492188
z: 0.07065176218748093
visibility: 0.990614116191864
","x: 202.0368194580078
y: 530.674072265625
z: 0.21860650181770325
visibility: 0.905018150806427
","x: 181.56275939941406
y: 526.3304443359375
z: 0.0854264497756958
visibility: 0.8668926358222961
","x: 212.44386291503906
y: 548.9196166992188
z: 0.11686364561319351
visibility: 0.9869676232337952
","x: 185.4396209716797
y: 546.3018188476562
z: -0.03091255947947502
visibility: 0.9881566166877747
","x: 167.91693115234375
y: 260.324462890625
z: 0.0
","x: 171.07009887695312
y: 257.04156494140625
z: -0.00039408032898791134
","x: 174.38746643066406
y: 253.1549835205078
z: -0.002025294816121459
","x: 177.15518188476562
y: 251.4236602783203
z: -0.0044995988719165325
","x: 179.74923706054688
y: 251.01560974121094
z: -0.006824873853474855
","x: 171.89862060546875
y: 249.81369018554688
z: -0.0019610137678682804
","x: 172.39630126953125
y: 249.85446166992188
z: -0.005866820923984051
","x: 173.0762481689453
y: 251.98776245117188
z: -0.007857431657612324
","x: 173.59861755371094
y: 253.84080505371094
z: -0.008673391304910183
","x: 170.02491760253906
y: 249.26185607910156
z: -0.003974010702222586
","x: 171.32615661621094
y: 250.3391876220703
z: -0.00833642203360796
","x: 171.5306854248047
y: 254.47877502441406
z: -0.009044562466442585
","x: 171.2147979736328
y: 257.8558349609375
z: -0.00878196395933628
","x: 168.0070343017578
y: 249.25437927246094
z: -0.006275268737226725
","x: 169.27951049804688
y: 249.62303161621094
z: -0.009813169948756695
","x: 169.63690185546875
y: 253.47265625
z: -0.008511954918503761
","x: 169.56787109375
y: 256.45184326171875
z: -0.006995366886258125
","x: 165.79783630371094
y: 249.59469604492188
z: -0.008889783173799515
","x: 166.7296600341797
y: 247.78567504882812
z: -0.011003084480762482
","x: 167.62428283691406
y: 249.0892333984375
z: -0.010068727657198906
","x: 168.21974182128906
y: 250.51385498046875
z: -0.008805714547634125
",,,,,,,,,,,,,,,,,,,,,
11,"x: 194.29295349121094
y: 285.3923645019531
z: -0.2475908249616623
visibility: 0.9991726279258728
","x: 195.42225646972656
y: 277.37823486328125
z: -0.23920133709907532
visibility: 0.9980340003967285
","x: 196.64466857910156
y: 276.7785339355469
z: -0.23924902081489563
visibility: 0.9979782104492188
","x: 197.88790893554688
y: 276.31884765625
z: -0.23927636444568634
visibility: 0.9980470538139343
","x: 192.0338134765625
y: 278.9050598144531
z: -0.22890546917915344
visibility: 0.9960790872573853
","x: 190.7572479248047
y: 279.2766418457031
z: -0.22896817326545715
visibility: 0.9956062436103821
","x: 189.33026123046875
y: 279.6934814453125
z: -0.2290433645248413
visibility: 0.9956178069114685
","x: 200.35482788085938
y: 278.0165710449219
z: -0.16365350782871246
visibility: 0.9981067180633545
","x: 186.4391632080078
y: 280.42657470703125
z: -0.11833491176366806
visibility: 0.9941871762275696
","x: 196.91246032714844
y: 290.8096923828125
z: -0.21736736595630646
visibility: 0.9995368719100952
","x: 192.70652770996094
y: 292.2317810058594
z: -0.20443680882453918
visibility: 0.9991377592086792
","x: 214.0535430908203
y: 309.2257385253906
z: -0.12583908438682556
visibility: 0.9999516606330872
","x: 178.56576538085938
y: 305.08123779296875
z: -0.06894092261791229
visibility: 0.9996446371078491
","x: 220.22422790527344
y: 351.3203125
z: -0.2002989798784256
visibility: 0.9812389612197876
","x: 166.5381317138672
y: 294.89031982421875
z: -0.17973126471042633
visibility: 0.9820119738578796
","x: 190.1490478515625
y: 371.8819580078125
z: -0.2628871500492096
visibility: 0.9556857943534851
","x: 172.01693725585938
y: 260.0213317871094
z: -0.3064849376678467
visibility: 0.9427219033241272
","x: 184.54461669921875
y: 378.9361267089844
z: -0.2902514934539795
visibility: 0.9034430384635925
","x: 172.39923095703125
y: 250.81381225585938
z: -0.3469630777835846
visibility: 0.8772944211959839
","x: 182.05613708496094
y: 372.90380859375
z: -0.28855544328689575
visibility: 0.9048929810523987
","x: 173.5696563720703
y: 250.41317749023438
z: -0.33275485038757324
visibility: 0.8743369579315186
","x: 183.42037963867188
y: 370.80743408203125
z: -0.2619791030883789
visibility: 0.8752365708351135
","x: 173.92202758789062
y: 253.79293823242188
z: -0.308065801858902
visibility: 0.8556540012359619
","x: 202.63751220703125
y: 408.758544921875
z: -0.0010685917222872376
visibility: 0.9999076724052429
","x: 179.67420959472656
y: 406.06390380859375
z: 0.0009182970970869064
visibility: 0.9999001622200012
","x: 202.44773864746094
y: 472.55242919921875
z: 0.005754256621003151
visibility: 0.9925190806388855
","x: 177.35838317871094
y: 465.7547607421875
z: -0.08819051086902618
visibility: 0.9950069189071655
","x: 206.34555053710938
y: 523.5691528320312
z: 0.245059534907341
visibility: 0.9895927906036377
","x: 180.7923583984375
y: 521.9881591796875
z: 0.11009629815816879
visibility: 0.9902942776679993
","x: 202.7168426513672
y: 530.8007202148438
z: 0.2653207778930664
visibility: 0.8924703598022461
","x: 181.877197265625
y: 527.1656494140625
z: 0.1267768144607544
visibility: 0.8627983331680298
","x: 212.28671264648438
y: 549.0718994140625
z: 0.1652335822582245
visibility: 0.9843767881393433
","x: 184.959228515625
y: 547.091552734375
z: 0.021403033286333084
visibility: 0.9877252578735352
",,,,,,,,,,,,,,,,,,,,,,,,,,,,,,,,,,,,,,,,,,
12,"x: 191.34127807617188
y: 288.911865234375
z: -0.24334827065467834
visibility: 0.9988517761230469
","x: 193.29295349121094
y: 280.67193603515625
z: -0.23976659774780273
visibility: 0.9971923828125
","x: 194.87789916992188
y: 279.60162353515625
z: -0.23980721831321716
visibility: 0.9972384572029114
","x: 196.47763061523438
y: 278.5252685546875
z: -0.23984234035015106
visibility: 0.997264564037323
","x: 189.53854370117188
y: 282.2115173339844
z: -0.22713275253772736
visibility: 0.9941040873527527
","x: 188.40582275390625
y: 282.2134704589844
z: -0.22719545662403107
visibility: 0.9934388399124146
","x: 187.21568298339844
y: 282.1552734375
z: -0.22724883258342743
visibility: 0.9935570955276489
","x: 200.0025177001953
y: 277.9748840332031
z: -0.18246082961559296
visibility: 0.9975751042366028
","x: 186.21005249023438
y: 280.5057067871094
z: -0.11916971206665039
visibility: 0.9909969568252563
","x: 195.42510986328125
y: 293.1549377441406
z: -0.21739450097084045
visibility: 0.9993554353713989
","x: 190.75697326660156
y: 294.6573181152344
z: -0.20002463459968567
visibility: 0.9987339377403259
","x: 214.21841430664062
y: 306.6163024902344
z: -0.16318413615226746
visibility: 0.99995356798172
","x: 179.2359161376953
y: 302.9733581542969
z: -0.05655815079808235
visibility: 0.9996448755264282
","x: 217.6427764892578
y: 348.3953857421875
z: -0.2520802617073059
visibility: 0.9823397994041443
","x: 166.64517211914062
y: 298.2378845214844
z: -0.1524912714958191
visibility: 0.9817409515380859
","x: 188.28028869628906
y: 366.1387939453125
z: -0.3139825165271759
visibility: 0.9586483836174011
","x: 171.90866088867188
y: 263.605712890625
z: -0.3056747019290924
visibility: 0.9463648796081543
","x: 182.05189514160156
y: 372.72088623046875
z: -0.34168529510498047
visibility: 0.9089396595954895
","x: 173.0679931640625
y: 252.1179962158203
z: -0.34640374779701233
visibility: 0.8845135569572449
","x: 179.86424255371094
y: 366.76251220703125
z: -0.3389652371406555
visibility: 0.9097608923912048
","x: 173.583740234375
y: 250.6105194091797
z: -0.3349432051181793
visibility: 0.8811709880828857
","x: 181.4059600830078
y: 364.1882019042969
z: -0.3116670250892639
visibility: 0.8798189163208008
","x: 173.80828857421875
y: 255.56842041015625
z: -0.30820587277412415
visibility: 0.8622710704803467
","x: 199.82899475097656
y: 407.97198486328125
z: -0.014602480456233025
visibility: 0.9999047517776489
","x: 177.44818115234375
y: 403.5762023925781
z: 0.014428062364459038
visibility: 0.999904453754425
","x: 200.35020446777344
y: 473.2213134765625
z: 0.0027691505383700132
visibility: 0.9914605617523193
","x: 175.31634521484375
y: 464.98822021484375
z: -0.16117867827415466
visibility: 0.995154857635498
","x: 206.511962890625
y: 523.5857543945312
z: 0.2461073100566864
visibility: 0.9881195425987244
","x: 181.32496643066406
y: 522.9466552734375
z: 0.036249008029699326
visibility: 0.9900314807891846
","x: 204.73095703125
y: 529.255126953125
z: 0.2693440914154053
visibility: 0.8775495886802673
","x: 182.51568603515625
y: 527.53662109375
z: 0.0538758710026741
visibility: 0.8616933822631836
","x: 212.45620727539062
y: 549.2499389648438
z: 0.1684354841709137
visibility: 0.9814414381980896
","x: 184.81484985351562
y: 547.654296875
z: -0.050312262028455734
visibility: 0.9875320196151733
",,,,,,,,,,,,,,,,,,,,,,,,,,,,,,,,,,,,,,,,,,
13,"x: 191.29063415527344
y: 288.2089538574219
z: -0.17973044514656067
visibility: 0.9988359212875366
","x: 193.2899169921875
y: 279.630859375
z: -0.1766895204782486
visibility: 0.9971572756767273
","x: 194.86026000976562
y: 278.66510009765625
z: -0.17674663662910461
visibility: 0.9972338080406189
","x: 196.43475341796875
y: 277.61102294921875
z: -0.1767645627260208
visibility: 0.9972521662712097
","x: 189.53271484375
y: 280.46160888671875
z: -0.16171328723430634
visibility: 0.9940500855445862
","x: 188.4046630859375
y: 280.17315673828125
z: -0.16173391044139862
visibility: 0.9933475852012634
","x: 187.24624633789062
y: 279.82989501953125
z: -0.1617380827665329
visibility: 0.9933755397796631
","x: 200.13372802734375
y: 277.34161376953125
z: -0.13018803298473358
visibility: 0.9975642561912537
","x: 186.93853759765625
y: 279.2367248535156
z: -0.05876648426055908
visibility: 0.989933431148529
","x: 195.35873413085938
y: 293.075927734375
z: -0.15961503982543945
visibility: 0.9993459582328796
","x: 190.60890197753906
y: 294.5373840332031
z: -0.1398724764585495
visibility: 0.9986536502838135
","x: 214.24595642089844
y: 307.1728820800781
z: -0.15098270773887634
visibility: 0.9999549388885498
","x: 179.69522094726562
y: 303.07470703125
z: 0.009851022623479366
visibility: 0.9996031522750854
","x: 217.6111602783203
y: 349.6535949707031
z: -0.2298842966556549
visibility: 0.9834447503089905
","x: 166.48187255859375
y: 313.1162414550781
z: -0.061637867242097855
visibility: 0.9792355298995972
","x: 189.7537078857422
y: 370.489013671875
z: -0.2183932363986969
visibility: 0.961663007736206
","x: 170.42274475097656
y: 273.3679504394531
z: -0.24584822356700897
visibility: 0.9484834671020508
","x: 184.70755004882812
y: 378.15631103515625
z: -0.24236531555652618
visibility: 0.9147775769233704
","x: 172.7807159423828
y: 262.7440185546875
z: -0.2864419221878052
visibility: 0.8890724778175354
","x: 182.63613891601562
y: 372.68927001953125
z: -0.2473897933959961
visibility: 0.9152565002441406
","x: 172.76332092285156
y: 260.8955078125
z: -0.28058552742004395
visibility: 0.8852853775024414
","x: 184.20399475097656
y: 369.8448486328125
z: -0.2178478240966797
visibility: 0.8858843445777893
","x: 173.63693237304688
y: 265.7071533203125
z: -0.25145936012268066
visibility: 0.866129457950592
","x: 200.64892578125
y: 408.57080078125
z: -0.013500168919563293
visibility: 0.9998968243598938
","x: 178.02166748046875
y: 404.38311767578125
z: 0.013359272852540016
visibility: 0.9998960494995117
","x: 201.9902801513672
y: 473.1185302734375
z: 0.006042876280844212
visibility: 0.9912351965904236
","x: 175.76205444335938
y: 465.1291198730469
z: -0.06290386617183685
visibility: 0.9951416850090027
","x: 206.82858276367188
y: 524.4873657226562
z: 0.22188463807106018
visibility: 0.9879201054573059
","x: 182.07444763183594
y: 524.4805297851562
z: 0.08914120495319366
visibility: 0.9898910522460938
","x: 204.89590454101562
y: 529.8168334960938
z: 0.2396891862154007
visibility: 0.8741443157196045
","x: 183.27197265625
y: 528.7396240234375
z: 0.09650330245494843
visibility: 0.8622481822967529
","x: 212.9754638671875
y: 549.3431396484375
z: 0.13613849878311157
visibility: 0.9810624122619629
","x: 184.90354919433594
y: 547.716796875
z: 0.00888763926923275
visibility: 0.9873616695404053
",,,,,,,,,,,,,,,,,,,,,,,,,,,,,,,,,,,,,,,,,,
14,"x: 191.474853515625
y: 288.6575012207031
z: -0.3159293532371521
visibility: 0.9988800883293152
","x: 193.65902709960938
y: 281.0888366699219
z: -0.3110460638999939
visibility: 0.9973215460777283
","x: 195.14712524414062
y: 280.6088562011719
z: -0.3110385239124298
visibility: 0.9973906874656677
","x: 196.6498565673828
y: 280.0758056640625
z: -0.31108468770980835
visibility: 0.997427761554718
","x: 189.995361328125
y: 281.43597412109375
z: -0.3003551661968231
visibility: 0.9943902492523193
","x: 188.89930725097656
y: 281.27606201171875
z: -0.3004327416419983
visibility: 0.9937078952789307
","x: 187.7781219482422
y: 281.0992431640625
z: -0.3004527688026428
visibility: 0.9937145113945007
","x: 200.36929321289062
y: 280.2685852050781
z: -0.24049122631549835
visibility: 0.9977086186408997
","x: 187.96426391601562
y: 281.2930908203125
z: -0.19180414080619812
visibility: 0.9902179837226868
","x: 195.31942749023438
y: 293.99835205078125
z: -0.287109911441803
visibility: 0.999377965927124
","x: 190.58180236816406
y: 295.0660400390625
z: -0.2734069228172302
visibility: 0.9986933469772339
","x: 214.8621826171875
y: 314.27984619140625
z: -0.18952623009681702
visibility: 0.9999552965164185
","x: 179.72579956054688
y: 306.8839111328125
z: -0.10995230823755264
visibility: 0.9995667338371277
","x: 220.1790313720703
y: 359.5473937988281
z: -0.21447651088237762
visibility: 0.9843857884407043
","x: 166.87103271484375
y: 312.9958190917969
z: -0.17328667640686035
visibility: 0.9792726039886475
","x: 191.34014892578125
y: 380.92352294921875
z: -0.27673107385635376
visibility: 0.963218092918396
","x: 170.39932250976562
y: 277.1045227050781
z: -0.3429602384567261
visibility: 0.9482133388519287
","x: 184.8119354248047
y: 390.46868896484375
z: -0.3033142685890198
visibility: 0.9170850515365601
","x: 171.74888610839844
y: 267.19378662109375
z: -0.3873487114906311
visibility: 0.8871870040893555
","x: 184.12586975097656
y: 384.5052795410156
z: -0.31745022535324097
visibility: 0.9172316789627075
","x: 171.85842895507812
y: 265.5125732421875
z: -0.3852124512195587
visibility: 0.8826338648796082
","x: 184.94427490234375
y: 380.572998046875
z: -0.2811146676540375
visibility: 0.8870784044265747
","x: 172.6564483642578
y: 269.99139404296875
z: -0.350179523229599
visibility: 0.8624452352523804
","x: 204.41217041015625
y: 408.9022216796875
z: -0.00911008007824421
visibility: 0.9998946189880371
","x: 181.95948791503906
y: 405.1669006347656
z: 0.008985628373920918
visibility: 0.9998902678489685
","x: 207.22552490234375
y: 473.027587890625
z: 0.016849176958203316
visibility: 0.9914554357528687
","x: 179.35183715820312
y: 466.4156799316406
z: 0.016967259347438812
visibility: 0.9949206709861755
","x: 206.98513793945312
y: 524.5759887695312
z: 0.22963304817676544
visibility: 0.9880368113517761
","x: 182.90341186523438
y: 524.2889404296875
z: 0.22464947402477264
visibility: 0.9895926117897034
","x: 204.9982147216797
y: 529.8917236328125
z: 0.24629536271095276
visibility: 0.8741851449012756
","x: 183.8707733154297
y: 528.6805419921875
z: 0.24097461998462677
visibility: 0.8584147691726685
","x: 213.0426025390625
y: 549.3665161132812
z: 0.13344340026378632
visibility: 0.9813088774681091
","x: 185.09783935546875
y: 547.6539306640625
z: 0.1340668499469757
visibility: 0.9869949221611023
","x: 169.16098022460938
y: 271.1360168457031
z: 0.0
","x: 166.848388671875
y: 270.81884765625
z: -0.0048965346068143845
","x: 165.9268341064453
y: 270.0509338378906
z: -0.008444788865745068
","x: 167.25637817382812
y: 270.7008056640625
z: -0.011621152982115746
","x: 169.27684020996094
y: 271.7042236328125
z: -0.014546552672982216
","x: 166.92593383789062
y: 262.385498046875
z: -0.009241457097232342
","x: 167.41830444335938
y: 261.51690673828125
z: -0.01369949895888567
","x: 168.05557250976562
y: 262.2676086425781
z: -0.015683729201555252
","x: 168.5314483642578
y: 262.88671875
z: -0.01658051647245884
","x: 169.5147705078125
y: 261.26531982421875
z: -0.00886657927185297
","x: 170.52806091308594
y: 264.18206787109375
z: -0.013427266851067543
","x: 170.2373809814453
y: 267.4248046875
z: -0.013678896240890026
","x: 169.4861602783203
y: 269.02410888671875
z: -0.013334814459085464
","x: 171.86935424804688
y: 261.65374755859375
z: -0.008756006136536598
","x: 173.24742126464844
y: 262.990234375
z: -0.012658398598432541
","x: 172.67636108398438
y: 265.5629577636719
z: -0.011499830521643162
","x: 171.76246643066406
y: 267.2005920410156
z: -0.010222675278782845
","x: 173.9770050048828
y: 262.5579833984375
z: -0.009193017147481441
","x: 176.15396118164062
y: 261.6875305175781
z: -0.012081097811460495
","x: 177.4436798095703
y: 261.99066162109375
z: -0.011914988979697227
","x: 178.26760864257812
y: 261.9730224609375
z: -0.011233103461563587
",,,,,,,,,,,,,,,,,,,,,
15,"x: 191.474853515625
y: 288.6575012207031
z: -0.3159293532371521
visibility: 0.9988800883293152
","x: 193.65902709960938
y: 281.0888366699219
z: -0.3110460638999939
visibility: 0.9973215460777283
","x: 195.14712524414062
y: 280.6088562011719
z: -0.3110385239124298
visibility: 0.9973906874656677
","x: 196.6498565673828
y: 280.0758056640625
z: -0.31108468770980835
visibility: 0.997427761554718
","x: 189.995361328125
y: 281.43597412109375
z: -0.3003551661968231
visibility: 0.9943902492523193
","x: 188.89930725097656
y: 281.27606201171875
z: -0.3004327416419983
visibility: 0.9937078952789307
","x: 187.7781219482422
y: 281.0992431640625
z: -0.3004527688026428
visibility: 0.9937145113945007
","x: 200.36929321289062
y: 280.2685852050781
z: -0.24049122631549835
visibility: 0.9977086186408997
","x: 187.96426391601562
y: 281.2930908203125
z: -0.19180414080619812
visibility: 0.9902179837226868
","x: 195.31942749023438
y: 293.99835205078125
z: -0.287109911441803
visibility: 0.999377965927124
","x: 190.58180236816406
y: 295.0660400390625
z: -0.2734069228172302
visibility: 0.9986933469772339
","x: 214.8621826171875
y: 314.27984619140625
z: -0.18952623009681702
visibility: 0.9999552965164185
","x: 179.72579956054688
y: 306.8839111328125
z: -0.10995230823755264
visibility: 0.9995667338371277
","x: 220.1790313720703
y: 359.5473937988281
z: -0.21447651088237762
visibility: 0.9843857884407043
","x: 166.87103271484375
y: 312.9958190917969
z: -0.17328667640686035
visibility: 0.9792726039886475
","x: 191.34014892578125
y: 380.92352294921875
z: -0.27673107385635376
visibility: 0.963218092918396
","x: 170.39932250976562
y: 277.1045227050781
z: -0.3429602384567261
visibility: 0.9482133388519287
","x: 184.8119354248047
y: 390.46868896484375
z: -0.3033142685890198
visibility: 0.9170850515365601
","x: 171.74888610839844
y: 267.19378662109375
z: -0.3873487114906311
visibility: 0.8871870040893555
","x: 184.12586975097656
y: 384.5052795410156
z: -0.31745022535324097
visibility: 0.9172316789627075
","x: 171.85842895507812
y: 265.5125732421875
z: -0.3852124512195587
visibility: 0.8826338648796082
","x: 184.94427490234375
y: 380.572998046875
z: -0.2811146676540375
visibility: 0.8870784044265747
","x: 172.6564483642578
y: 269.99139404296875
z: -0.350179523229599
visibility: 0.8624452352523804
","x: 204.41217041015625
y: 408.9022216796875
z: -0.00911008007824421
visibility: 0.9998946189880371
","x: 181.95948791503906
y: 405.1669006347656
z: 0.008985628373920918
visibility: 0.9998902678489685
","x: 207.22552490234375
y: 473.027587890625
z: 0.016849176958203316
visibility: 0.9914554357528687
","x: 179.35183715820312
y: 466.4156799316406
z: 0.016967259347438812
visibility: 0.9949206709861755
","x: 206.98513793945312
y: 524.5759887695312
z: 0.22963304817676544
visibility: 0.9880368113517761
","x: 182.90341186523438
y: 524.2889404296875
z: 0.22464947402477264
visibility: 0.9895926117897034
","x: 204.9982147216797
y: 529.8917236328125
z: 0.24629536271095276
visibility: 0.8741851449012756
","x: 183.8707733154297
y: 528.6805419921875
z: 0.24097461998462677
visibility: 0.8584147691726685
","x: 213.0426025390625
y: 549.3665161132812
z: 0.13344340026378632
visibility: 0.9813088774681091
","x: 185.09783935546875
y: 547.6539306640625
z: 0.1340668499469757
visibility: 0.9869949221611023
","x: 169.16098022460938
y: 271.1360168457031
z: 0.0
","x: 166.848388671875
y: 270.81884765625
z: -0.0048965346068143845
","x: 165.9268341064453
y: 270.0509338378906
z: -0.008444788865745068
","x: 167.25637817382812
y: 270.7008056640625
z: -0.011621152982115746
","x: 169.27684020996094
y: 271.7042236328125
z: -0.014546552672982216
","x: 166.92593383789062
y: 262.385498046875
z: -0.009241457097232342
","x: 167.41830444335938
y: 261.51690673828125
z: -0.01369949895888567
","x: 168.05557250976562
y: 262.2676086425781
z: -0.015683729201555252
","x: 168.5314483642578
y: 262.88671875
z: -0.01658051647245884
","x: 169.5147705078125
y: 261.26531982421875
z: -0.00886657927185297
","x: 170.52806091308594
y: 264.18206787109375
z: -0.013427266851067543
","x: 170.2373809814453
y: 267.4248046875
z: -0.013678896240890026
","x: 169.4861602783203
y: 269.02410888671875
z: -0.013334814459085464
","x: 171.86935424804688
y: 261.65374755859375
z: -0.008756006136536598
","x: 173.24742126464844
y: 262.990234375
z: -0.012658398598432541
","x: 172.67636108398438
y: 265.5629577636719
z: -0.011499830521643162
","x: 171.76246643066406
y: 267.2005920410156
z: -0.010222675278782845
","x: 173.9770050048828
y: 262.5579833984375
z: -0.009193017147481441
","x: 176.15396118164062
y: 261.6875305175781
z: -0.012081097811460495
","x: 177.4436798095703
y: 261.99066162109375
z: -0.011914988979697227
","x: 178.26760864257812
y: 261.9730224609375
z: -0.011233103461563587
",,,,,,,,,,,,,,,,,,,,,
16,"x: 194.29440307617188
y: 288.521484375
z: -0.18904516100883484
visibility: 0.9989385604858398
","x: 196.28834533691406
y: 280.8122863769531
z: -0.17039813101291656
visibility: 0.9974989891052246
","x: 197.59132385253906
y: 280.25213623046875
z: -0.17041590809822083
visibility: 0.9975425601005554
","x: 198.81358337402344
y: 279.66650390625
z: -0.17045161128044128
visibility: 0.9975919127464294
","x: 192.32261657714844
y: 281.1403503417969
z: -0.17198555171489716
visibility: 0.9947530627250671
","x: 190.7623748779297
y: 280.8727722167969
z: -0.17200574278831482
visibility: 0.9940914511680603
","x: 189.2133331298828
y: 280.69964599609375
z: -0.17199762165546417
visibility: 0.9940699934959412
","x: 201.35678100585938
y: 279.90826416015625
z: -0.06961315870285034
visibility: 0.9978411793708801
","x: 187.6283416748047
y: 281.04644775390625
z: -0.07373441755771637
visibility: 0.9906656742095947
","x: 197.29673767089844
y: 293.49407958984375
z: -0.1514674425125122
visibility: 0.9994140267372131
","x: 191.75523376464844
y: 294.4771728515625
z: -0.15293748676776886
visibility: 0.998744785785675
","x: 214.66830444335938
y: 314.10870361328125
z: -0.03201531618833542
visibility: 0.9999568462371826
","x: 179.2888946533203
y: 307.11370849609375
z: -0.054332755506038666
visibility: 0.9995028376579285
","x: 223.30636596679688
y: 352.8085632324219
z: -0.11310400813817978
visibility: 0.9842778444290161
","x: 168.27328491210938
y: 304.24298095703125
z: -0.1836589276790619
visibility: 0.9811093807220459
","x: 206.6813507080078
y: 369.2193603515625
z: -0.26192623376846313
visibility: 0.9641534686088562
","x: 178.97669982910156
y: 263.2950439453125
z: -0.32413628697395325
visibility: 0.9524254202842712
","x: 201.9147491455078
y: 379.2572021484375
z: -0.2856375575065613
visibility: 0.9189274907112122
","x: 179.86756896972656
y: 254.74728393554688
z: -0.3659321665763855
visibility: 0.8949120044708252
","x: 199.30213928222656
y: 373.97216796875
z: -0.29591405391693115
visibility: 0.9189843535423279
","x: 180.3942108154297
y: 253.8904571533203
z: -0.3821534514427185
visibility: 0.8902581334114075
","x: 199.9883270263672
y: 370.5833435058594
z: -0.26382285356521606
visibility: 0.8894503116607666
","x: 180.70883178710938
y: 257.5584716796875
z: -0.3325127363204956
visibility: 0.8705660104751587
","x: 208.45880126953125
y: 408.5367431640625
z: 0.005447405856102705
visibility: 0.9999012351036072
","x: 185.58741760253906
y: 406.10089111328125
z: -0.005471933167427778
visibility: 0.9998854398727417
","x: 216.24057006835938
y: 466.601806640625
z: -0.13741937279701233
visibility: 0.9919621348381042
","x: 183.97006225585938
y: 468.351806640625
z: -0.023785773664712906
visibility: 0.9942505359649658
","x: 207.9385986328125
y: 522.7134399414062
z: 0.07957260310649872
visibility: 0.987907886505127
","x: 182.8557891845703
y: 521.4118041992188
z: 0.20374038815498352
visibility: 0.9874781966209412
","x: 205.0126190185547
y: 528.4935913085938
z: 0.09791845083236694
visibility: 0.8768103122711182
","x: 183.2367401123047
y: 524.6063842773438
z: 0.22282059490680695
visibility: 0.8428743481636047
","x: 212.92250061035156
y: 549.27880859375
z: -0.005505484528839588
visibility: 0.9812995195388794
","x: 185.64317321777344
y: 547.6085815429688
z: 0.12761692702770233
visibility: 0.9842436909675598
",,,,,,,,,,,,,,,,,,,,,,,,,,,,,,,,,,,,,,,,,,
17,"x: 196.71766662597656
y: 285.7965087890625
z: -0.1866357922554016
visibility: 0.9989882707595825
","x: 198.1348114013672
y: 278.5653076171875
z: -0.1673896461725235
visibility: 0.9976808428764343
","x: 199.22914123535156
y: 277.968994140625
z: -0.16741426289081573
visibility: 0.9977084398269653
","x: 200.32559204101562
y: 277.3553466796875
z: -0.16744251549243927
visibility: 0.9977638721466064
","x: 194.6228790283203
y: 279.21343994140625
z: -0.17175929248332977
visibility: 0.995125412940979
","x: 193.18218994140625
y: 279.1692810058594
z: -0.17177250981330872
visibility: 0.9944983124732971
","x: 191.65426635742188
y: 279.1687316894531
z: -0.17176871001720428
visibility: 0.9944379925727844
","x: 202.29071044921875
y: 278.59454345703125
z: -0.05962303280830383
visibility: 0.9979805946350098
","x: 188.49269104003906
y: 280.8230285644531
z: -0.07663879543542862
visibility: 0.9912629723548889
","x: 199.28819274902344
y: 290.9780578613281
z: -0.14584952592849731
visibility: 0.9994524121284485
","x: 194.31838989257812
y: 291.70098876953125
z: -0.15103133022785187
visibility: 0.9988179206848145
","x: 215.01837158203125
y: 312.9884948730469
z: -0.019330035895109177
visibility: 0.9999587535858154
","x: 179.58148193359375
y: 307.0386047363281
z: -0.06177033856511116
visibility: 0.9994552731513977
","x: 225.53756713867188
y: 346.3082580566406
z: -0.12668493390083313
visibility: 0.9834656119346619
","x: 170.00469970703125
y: 296.9040832519531
z: -0.2358207404613495
visibility: 0.982859194278717
","x: 214.29464721679688
y: 361.5345764160156
z: -0.3042871057987213
visibility: 0.9655182957649231
","x: 183.85870361328125
y: 259.35662841796875
z: -0.3772054612636566
visibility: 0.9566047191619873
","x: 211.425048828125
y: 368.7315673828125
z: -0.34549492597579956
visibility: 0.9224372506141663
","x: 186.05113220214844
y: 251.92596435546875
z: -0.41907891631126404
visibility: 0.9031933546066284
","x: 209.06527709960938
y: 362.0750427246094
z: -0.34936651587486267
visibility: 0.9225108027458191
","x: 186.43630981445312
y: 250.75660705566406
z: -0.40584665536880493
visibility: 0.8985582590103149
","x: 209.4488983154297
y: 359.50140380859375
z: -0.30963829159736633
visibility: 0.8939333558082581
","x: 185.9996795654297
y: 253.84121704101562
z: -0.37675338983535767
visibility: 0.8795865774154663
","x: 211.368896484375
y: 408.3592529296875
z: 0.014287479221820831
visibility: 0.999909520149231
","x: 188.9665985107422
y: 407.3036193847656
z: -0.014257190749049187
visibility: 0.9998903870582581
","x: 219.8186492919922
y: 463.9697265625
z: -0.12603121995925903
visibility: 0.9925237894058228
","x: 189.10858154296875
y: 468.369384765625
z: -0.0069381496869027615
visibility: 0.9940264821052551
","x: 209.3903045654297
y: 522.4901123046875
z: 0.08672396838665009
visibility: 0.988392174243927
","x: 183.42416381835938
y: 520.8471069335938
z: 0.23266634345054626
visibility: 0.9867395162582397
","x: 205.39199829101562
y: 528.6973876953125
z: 0.10439841449260712
visibility: 0.882233202457428
","x: 182.93923950195312
y: 524.1437377929688
z: 0.2518759071826935
visibility: 0.8307384252548218
","x: 212.94525146484375
y: 549.2894897460938
z: -0.001668586046434939
visibility: 0.9820934534072876
","x: 185.4311065673828
y: 547.758056640625
z: 0.15586456656455994
visibility: 0.9831042885780334
",,,,,,,,,,,,,,,,,,,,,,"x: 215.1723175048828
y: 362.91259765625
z: 0.0
","x: 213.6222686767578
y: 358.497314453125
z: -0.0005623018369078636
","x: 211.4604034423828
y: 355.060546875
z: -0.0019653947092592716
","x: 209.89529418945312
y: 353.807373046875
z: -0.003960755188018084
","x: 208.437744140625
y: 354.0218811035156
z: -0.0057777767069637775
","x: 207.59848022460938
y: 357.34210205078125
z: -0.0008213355322368443
","x: 204.47708129882812
y: 357.4183654785156
z: -0.0031546775717288256
","x: 202.93934631347656
y: 357.9388427734375
z: -0.004775280598551035
","x: 201.8773193359375
y: 358.6178894042969
z: -0.005708551499992609
","x: 207.79278564453125
y: 360.50274658203125
z: -0.002102198312059045
","x: 206.5958709716797
y: 359.66900634765625
z: -0.004758408293128014
","x: 208.52044677734375
y: 358.3997802734375
z: -0.0051094722002744675
","x: 210.22935485839844
y: 357.9722595214844
z: -0.0046735783107578754
","x: 208.5810546875
y: 363.61572265625
z: -0.003685647388920188
","x: 207.8302001953125
y: 362.7347412109375
z: -0.00581800751388073
","x: 209.6186981201172
y: 361.3952331542969
z: -0.005110181402415037
","x: 211.0719451904297
y: 360.8442687988281
z: -0.004198873415589333
","x: 209.76998901367188
y: 366.6603088378906
z: -0.0055678170174360275
","x: 209.09974670410156
y: 365.6103210449219
z: -0.006673209369182587
","x: 210.2746124267578
y: 363.90155029296875
z: -0.006083836778998375
","x: 211.32928466796875
y: 362.9972839355469
z: -0.005332672968506813
"
18,"x: 196.71766662597656
y: 285.7965087890625
z: -0.1866357922554016
visibility: 0.9989882707595825
","x: 198.1348114013672
y: 278.5653076171875
z: -0.1673896461725235
visibility: 0.9976808428764343
","x: 199.22914123535156
y: 277.968994140625
z: -0.16741426289081573
visibility: 0.9977084398269653
","x: 200.32559204101562
y: 277.3553466796875
z: -0.16744251549243927
visibility: 0.9977638721466064
","x: 194.6228790283203
y: 279.21343994140625
z: -0.17175929248332977
visibility: 0.995125412940979
","x: 193.18218994140625
y: 279.1692810058594
z: -0.17177250981330872
visibility: 0.9944983124732971
","x: 191.65426635742188
y: 279.1687316894531
z: -0.17176871001720428
visibility: 0.9944379925727844
","x: 202.29071044921875
y: 278.59454345703125
z: -0.05962303280830383
visibility: 0.9979805946350098
","x: 188.49269104003906
y: 280.8230285644531
z: -0.07663879543542862
visibility: 0.9912629723548889
","x: 199.28819274902344
y: 290.9780578613281
z: -0.14584952592849731
visibility: 0.9994524121284485
","x: 194.31838989257812
y: 291.70098876953125
z: -0.15103133022785187
visibility: 0.9988179206848145
","x: 215.01837158203125
y: 312.9884948730469
z: -0.019330035895109177
visibility: 0.9999587535858154
","x: 179.58148193359375
y: 307.0386047363281
z: -0.06177033856511116
visibility: 0.9994552731513977
","x: 225.53756713867188
y: 346.3082580566406
z: -0.12668493390083313
visibility: 0.9834656119346619
","x: 170.00469970703125
y: 296.9040832519531
z: -0.2358207404613495
visibility: 0.982859194278717
","x: 214.29464721679688
y: 361.5345764160156
z: -0.3042871057987213
visibility: 0.9655182957649231
","x: 183.85870361328125
y: 259.35662841796875
z: -0.3772054612636566
visibility: 0.9566047191619873
","x: 211.425048828125
y: 368.7315673828125
z: -0.34549492597579956
visibility: 0.9224372506141663
","x: 186.05113220214844
y: 251.92596435546875
z: -0.41907891631126404
visibility: 0.9031933546066284
","x: 209.06527709960938
y: 362.0750427246094
z: -0.34936651587486267
visibility: 0.9225108027458191
","x: 186.43630981445312
y: 250.75660705566406
z: -0.40584665536880493
visibility: 0.8985582590103149
","x: 209.4488983154297
y: 359.50140380859375
z: -0.30963829159736633
visibility: 0.8939333558082581
","x: 185.9996795654297
y: 253.84121704101562
z: -0.37675338983535767
visibility: 0.8795865774154663
","x: 211.368896484375
y: 408.3592529296875
z: 0.014287479221820831
visibility: 0.999909520149231
","x: 188.9665985107422
y: 407.3036193847656
z: -0.014257190749049187
visibility: 0.9998903870582581
","x: 219.8186492919922
y: 463.9697265625
z: -0.12603121995925903
visibility: 0.9925237894058228
","x: 189.10858154296875
y: 468.369384765625
z: -0.0069381496869027615
visibility: 0.9940264821052551
","x: 209.3903045654297
y: 522.4901123046875
z: 0.08672396838665009
visibility: 0.988392174243927
","x: 183.42416381835938
y: 520.8471069335938
z: 0.23266634345054626
visibility: 0.9867395162582397
","x: 205.39199829101562
y: 528.6973876953125
z: 0.10439841449260712
visibility: 0.882233202457428
","x: 182.93923950195312
y: 524.1437377929688
z: 0.2518759071826935
visibility: 0.8307384252548218
","x: 212.94525146484375
y: 549.2894897460938
z: -0.001668586046434939
visibility: 0.9820934534072876
","x: 185.4311065673828
y: 547.758056640625
z: 0.15586456656455994
visibility: 0.9831042885780334
",,,,,,,,,,,,,,,,,,,,,,"x: 215.1723175048828
y: 362.91259765625
z: 0.0
","x: 213.6222686767578
y: 358.497314453125
z: -0.0005623018369078636
","x: 211.4604034423828
y: 355.060546875
z: -0.0019653947092592716
","x: 209.89529418945312
y: 353.807373046875
z: -0.003960755188018084
","x: 208.437744140625
y: 354.0218811035156
z: -0.0057777767069637775
","x: 207.59848022460938
y: 357.34210205078125
z: -0.0008213355322368443
","x: 204.47708129882812
y: 357.4183654785156
z: -0.0031546775717288256
","x: 202.93934631347656
y: 357.9388427734375
z: -0.004775280598551035
","x: 201.8773193359375
y: 358.6178894042969
z: -0.005708551499992609
","x: 207.79278564453125
y: 360.50274658203125
z: -0.002102198312059045
","x: 206.5958709716797
y: 359.66900634765625
z: -0.004758408293128014
","x: 208.52044677734375
y: 358.3997802734375
z: -0.0051094722002744675
","x: 210.22935485839844
y: 357.9722595214844
z: -0.0046735783107578754
","x: 208.5810546875
y: 363.61572265625
z: -0.003685647388920188
","x: 207.8302001953125
y: 362.7347412109375
z: -0.00581800751388073
","x: 209.6186981201172
y: 361.3952331542969
z: -0.005110181402415037
","x: 211.0719451904297
y: 360.8442687988281
z: -0.004198873415589333
","x: 209.76998901367188
y: 366.6603088378906
z: -0.0055678170174360275
","x: 209.09974670410156
y: 365.6103210449219
z: -0.006673209369182587
","x: 210.2746124267578
y: 363.90155029296875
z: -0.006083836778998375
","x: 211.32928466796875
y: 362.9972839355469
z: -0.005332672968506813
"
19,"x: 201.8735809326172
y: 285.6454162597656
z: -0.20377859473228455
visibility: 0.9990759491920471
","x: 202.99227905273438
y: 278.5845031738281
z: -0.1832159459590912
visibility: 0.9978970885276794
","x: 204.0176239013672
y: 278.1515808105469
z: -0.1832340657711029
visibility: 0.9979168772697449
","x: 205.03733825683594
y: 277.739013671875
z: -0.1832566261291504
visibility: 0.9979695081710815
","x: 199.74818420410156
y: 279.0997619628906
z: -0.19047853350639343
visibility: 0.9955891966819763
","x: 198.37152099609375
y: 279.0748291015625
z: -0.19049493968486786
visibility: 0.9950219988822937
","x: 196.79795837402344
y: 279.0735168457031
z: -0.19049784541130066
visibility: 0.9949637055397034
","x: 205.6479034423828
y: 279.40374755859375
z: -0.06739866733551025
visibility: 0.9981505274772644
","x: 192.44004821777344
y: 281.1111145019531
z: -0.09272401034832001
visibility: 0.9920884966850281
","x: 203.6517333984375
y: 291.1853332519531
z: -0.16120469570159912
visibility: 0.9994968175888062
","x: 199.2688751220703
y: 292.2372741699219
z: -0.1703576147556305
visibility: 0.9989198446273804
","x: 217.15103149414062
y: 315.5291748046875
z: 0.0010460452176630497
visibility: 0.9999541640281677
","x: 181.9805450439453
y: 313.9033203125
z: -0.09841025620698929
visibility: 0.9993828535079956
","x: 226.81704711914062
y: 352.9003601074219
z: -0.03541034460067749
visibility: 0.9746255874633789
","x: 170.8282470703125
y: 325.16900634765625
z: -0.27021175622940063
visibility: 0.9837231040000916
","x: 220.27603149414062
y: 365.5816955566406
z: -0.16255627572536469
visibility: 0.9618148803710938
","x: 182.9020538330078
y: 281.9866943359375
z: -0.4383299946784973
visibility: 0.9575335383415222
","x: 218.10324096679688
y: 373.0202941894531
z: -0.19111427664756775
visibility: 0.9173502922058105
","x: 187.82870483398438
y: 278.6022644042969
z: -0.4831210970878601
visibility: 0.90396648645401
","x: 216.51589965820312
y: 366.7831726074219
z: -0.19987702369689941
visibility: 0.9175339341163635
","x: 189.1316680908203
y: 279.1458435058594
z: -0.47132936120033264
visibility: 0.898314356803894
","x: 216.62200927734375
y: 364.33514404296875
z: -0.16893379390239716
visibility: 0.8878641724586487
","x: 188.84288024902344
y: 281.49072265625
z: -0.4386303424835205
visibility: 0.8770657777786255
","x: 211.90879821777344
y: 414.7897033691406
z: 0.03539332002401352
visibility: 0.9999144077301025
","x: 191.6151580810547
y: 415.2673034667969
z: -0.0354095920920372
visibility: 0.999890148639679
","x: 217.2864227294922
y: 472.4378662109375
z: 0.019166428595781326
visibility: 0.9923696517944336
","x: 190.94241333007812
y: 473.2057189941406
z: 0.0073191323317587376
visibility: 0.9938402771949768
","x: 208.95181274414062
y: 524.1138916015625
z: 0.23846089839935303
visibility: 0.9884114861488342
","x: 182.75401306152344
y: 520.4078979492188
z: 0.24189813435077667
visibility: 0.9865831136703491
","x: 204.26541137695312
y: 531.182861328125
z: 0.25689664483070374
visibility: 0.8886147141456604
","x: 181.8185577392578
y: 522.8690185546875
z: 0.26157453656196594
visibility: 0.8303753137588501
","x: 214.32125854492188
y: 550.4716186523438
z: 0.17067530751228333
visibility: 0.9824631214141846
","x: 185.47354125976562
y: 548.090576171875
z: 0.16845884919166565
visibility: 0.9827156066894531
",,,,,,,,,,,,,,,,,,,,,,,,,,,,,,,,,,,,,,,,,,
20,"x: 206.3203582763672
y: 289.1876220703125
z: -0.295213520526886
visibility: 0.9991564750671387
","x: 208.21728515625
y: 280.913818359375
z: -0.2823414206504822
visibility: 0.9980813264846802
","x: 209.3439483642578
y: 280.30010986328125
z: -0.2823493778705597
visibility: 0.9980922937393188
","x: 210.45481872558594
y: 279.729736328125
z: -0.28234559297561646
visibility: 0.9981334209442139
","x: 204.52349853515625
y: 281.22320556640625
z: -0.28582844138145447
visibility: 0.9960020780563354
","x: 203.14393615722656
y: 280.791748046875
z: -0.2858763337135315
visibility: 0.9954925775527954
","x: 201.67727661132812
y: 280.2938537597656
z: -0.2859188914299011
visibility: 0.9954426884651184
","x: 211.3463134765625
y: 279.93408203125
z: -0.1690032035112381
visibility: 0.9982524514198303
","x: 198.65675354003906
y: 281.01739501953125
z: -0.18688717484474182
visibility: 0.992849588394165
","x: 207.99053955078125
y: 293.37725830078125
z: -0.2494519054889679
visibility: 0.9995308518409729
","x: 203.76834106445312
y: 293.9005432128906
z: -0.25474482774734497
visibility: 0.9990193843841553
","x: 220.85658264160156
y: 315.12689208984375
z: -0.026349395513534546
visibility: 0.9999514818191528
","x: 185.079833984375
y: 310.9190673828125
z: -0.12895363569259644
visibility: 0.9994409680366516
","x: 225.65396118164062
y: 353.7512512207031
z: -0.06834687292575836
visibility: 0.9685907959938049
","x: 173.7954559326172
y: 345.3233642578125
z: -0.23002716898918152
visibility: 0.9850402474403381
","x: 225.83665466308594
y: 378.2648010253906
z: -0.20600128173828125
visibility: 0.9596285820007324
","x: 183.7821044921875
y: 350.610107421875
z: -0.39277541637420654
visibility: 0.9613370299339294
","x: 224.848388671875
y: 384.3266296386719
z: -0.22959928214550018
visibility: 0.9165277481079102
","x: 187.33506774902344
y: 355.34521484375
z: -0.4368867874145508
visibility: 0.912539541721344
","x: 223.77626037597656
y: 379.6029968261719
z: -0.24893221259117126
visibility: 0.9169729948043823
","x: 189.3229217529297
y: 348.6666564941406
z: -0.4423336088657379
visibility: 0.9074271321296692
","x: 223.2454376220703
y: 376.85443115234375
z: -0.2010083943605423
visibility: 0.8877480626106262
","x: 188.94044494628906
y: 345.9894104003906
z: -0.39801669120788574
visibility: 0.8876112103462219
","x: 210.5071258544922
y: 411.366943359375
z: 0.02596813067793846
visibility: 0.9999138712882996
","x: 189.7085723876953
y: 407.4803161621094
z: -0.02600940130650997
visibility: 0.9998860359191895
","x: 216.08767700195312
y: 470.9659118652344
z: -0.005331733729690313
visibility: 0.9916219711303711
","x: 188.1924285888672
y: 470.0989074707031
z: -0.007175025530159473
visibility: 0.9935978055000305
","x: 208.4393310546875
y: 525.3697509765625
z: 0.2086694985628128
visibility: 0.9876852035522461
","x: 182.40582275390625
y: 519.697998046875
z: 0.21710486710071564
visibility: 0.9865837097167969
","x: 204.19049072265625
y: 533.041015625
z: 0.21382927894592285
visibility: 0.8923267126083374
","x: 181.70530700683594
y: 523.02490234375
z: 0.22585329413414001
visibility: 0.8322714567184448
","x: 214.3135986328125
y: 550.458251953125
z: 0.12495752424001694
visibility: 0.9824262857437134
","x: 185.2267303466797
y: 547.943603515625
z: 0.10840936005115509
visibility: 0.9828086495399475
",,,,,,,,,,,,,,,,,,,,,,,,,,,,,,,,,,,,,,,,,,
21,"x: 204.90359497070312
y: 272.65447998046875
z: -0.29792267084121704
visibility: 0.9992236495018005
","x: 206.55422973632812
y: 266.5234680175781
z: -0.28176385164260864
visibility: 0.9982469081878662
","x: 207.7147216796875
y: 266.6470947265625
z: -0.28178930282592773
visibility: 0.9982572197914124
","x: 208.86444091796875
y: 266.8861083984375
z: -0.2818150818347931
visibility: 0.9982931017875671
","x: 202.83009338378906
y: 267.0665283203125
z: -0.2827971577644348
visibility: 0.9963634014129639
","x: 201.39599609375
y: 267.58673095703125
z: -0.28284525871276855
visibility: 0.9959036707878113
","x: 199.90667724609375
y: 268.19525146484375
z: -0.2828825116157532
visibility: 0.9958537220954895
","x: 210.57183837890625
y: 271.68182373046875
z: -0.16966737806797028
visibility: 0.9983770251274109
","x: 197.43309020996094
y: 272.72100830078125
z: -0.17574825882911682
visibility: 0.9934968948364258
","x: 207.24160766601562
y: 279.8748779296875
z: -0.2551417350769043
visibility: 0.9995603561401367
","x: 202.80198669433594
y: 280.92669677734375
z: -0.2570187747478485
visibility: 0.9990959167480469
","x: 221.95986938476562
y: 314.99676513671875
z: -0.07973141223192215
visibility: 0.9999443888664246
","x: 185.13980102539062
y: 305.82501220703125
z: -0.12016838788986206
visibility: 0.9994523525238037
","x: 225.11256408691406
y: 353.34429931640625
z: -0.10241099447011948
visibility: 0.9627044796943665
","x: 173.86915588378906
y: 343.98919677734375
z: -0.21693763136863708
visibility: 0.9800730347633362
","x: 225.08547973632812
y: 380.7901611328125
z: -0.27290064096450806
visibility: 0.9477312564849854
","x: 183.64422607421875
y: 350.4554443359375
z: -0.394798219203949
visibility: 0.9438234567642212
","x: 224.3309783935547
y: 388.22735595703125
z: -0.31152254343032837
visibility: 0.9026278257369995
","x: 186.34996032714844
y: 356.532470703125
z: -0.4409242272377014
visibility: 0.8920499086380005
","x: 222.98114013671875
y: 384.2504577636719
z: -0.3355179727077484
visibility: 0.9041031002998352
","x: 189.2551727294922
y: 350.9869384765625
z: -0.4494728446006775
visibility: 0.8872541189193726
","x: 222.40402221679688
y: 380.8785705566406
z: -0.2852112650871277
visibility: 0.8731763958930969
","x: 188.81524658203125
y: 348.9644775390625
z: -0.40285593271255493
visibility: 0.8635972738265991
","x: 209.78602600097656
y: 406.07080078125
z: 0.023732813075184822
visibility: 0.999905526638031
","x: 189.35107421875
y: 401.7223815917969
z: -0.023649519309401512
visibility: 0.9998776316642761
","x: 210.75640869140625
y: 470.8819580078125
z: 0.011205261573195457
visibility: 0.9916720986366272
","x: 182.18104553222656
y: 467.3953857421875
z: -0.008163822814822197
visibility: 0.9937901496887207
","x: 208.14852905273438
y: 526.8907470703125
z: 0.204472616314888
visibility: 0.9881573915481567
","x: 172.33876037597656
y: 520.8034057617188
z: 0.19165650010108948
visibility: 0.9873843193054199
","x: 204.06471252441406
y: 536.7572021484375
z: 0.215469628572464
visibility: 0.8953401446342468
","x: 172.47604370117188
y: 525.9315185546875
z: 0.19899961352348328
visibility: 0.8360898494720459
","x: 214.3068389892578
y: 550.4141845703125
z: 0.1137879341840744
visibility: 0.9828879833221436
","x: 169.80564880371094
y: 547.995361328125
z: 0.07161714881658554
visibility: 0.9835793972015381
",,,,,,,,,,,,,,,,,,,,,,,,,,,,,,,,,,,,,,,,,,
22,"x: 203.87242126464844
y: 269.0508117675781
z: -0.26736903190612793
visibility: 0.9992899894714355
","x: 205.27835083007812
y: 263.73150634765625
z: -0.2486320436000824
visibility: 0.9983905553817749
","x: 206.4386749267578
y: 263.89666748046875
z: -0.2486463338136673
visibility: 0.9984003305435181
","x: 207.52728271484375
y: 264.14166259765625
z: -0.24864426255226135
visibility: 0.9984322786331177
","x: 201.69212341308594
y: 264.2834167480469
z: -0.26464927196502686
visibility: 0.9966892004013062
","x: 200.34681701660156
y: 264.85296630859375
z: -0.2646111845970154
visibility: 0.9962755441665649
","x: 198.97010803222656
y: 265.50830078125
z: -0.26470860838890076
visibility: 0.996222734451294
","x: 209.01377868652344
y: 269.23199462890625
z: -0.13992378115653992
visibility: 0.9984689354896545
","x: 196.630126953125
y: 270.77081298828125
z: -0.15544985234737396
visibility: 0.9940708875656128
","x: 206.41110229492188
y: 277.3119812011719
z: -0.22654059529304504
visibility: 0.999589741230011
","x: 201.581298828125
y: 278.27960205078125
z: -0.2514268755912781
visibility: 0.9991684556007385
","x: 220.42605590820312
y: 315.8922119140625
z: -0.049358244985342026
visibility: 0.9999430775642395
","x: 184.16336059570312
y: 303.1867370605469
z: -0.10778184235095978
visibility: 0.999491274356842
","x: 224.6362762451172
y: 353.3433532714844
z: 0.004535927902907133
visibility: 0.9612407088279724
","x: 172.91064453125
y: 340.469482421875
z: -0.12272728979587555
visibility: 0.9770234823226929
","x: 224.5087432861328
y: 384.5706481933594
z: -0.08013107627630234
visibility: 0.9455721974372864
","x: 181.8453369140625
y: 370.4534912109375
z: -0.23768487572669983
visibility: 0.9309916496276855
","x: 224.732177734375
y: 393.5762023925781
z: -0.10314486175775528
visibility: 0.8993463516235352
","x: 186.1317138671875
y: 381.5021057128906
z: -0.2724444270133972
visibility: 0.8751273155212402
","x: 223.71153259277344
y: 389.99761962890625
z: -0.1345086246728897
visibility: 0.9016632437705994
","x: 186.46292114257812
y: 379.90625
z: -0.289597749710083
visibility: 0.870594322681427
","x: 222.76229858398438
y: 386.5423278808594
z: -0.09444443881511688
visibility: 0.8715204000473022
","x: 186.11627197265625
y: 376.41259765625
z: -0.24757888913154602
visibility: 0.8451700210571289
","x: 209.05691528320312
y: 406.1528015136719
z: 0.02108827792108059
visibility: 0.9998924136161804
","x: 189.03567504882812
y: 402.681396484375
z: -0.0210560392588377
visibility: 0.9998679161071777
","x: 209.71568298339844
y: 469.32073974609375
z: 0.0475228875875473
visibility: 0.991807222366333
","x: 178.7129669189453
y: 464.4902038574219
z: -0.010128777474164963
visibility: 0.9941086173057556
","x: 208.1615447998047
y: 526.8255615234375
z: 0.22299809753894806
visibility: 0.9886047840118408
","x: 169.64260864257812
y: 521.8556518554688
z: 0.15861254930496216
visibility: 0.9882427453994751
","x: 204.15628051757812
y: 536.4830322265625
z: 0.23382893204689026
visibility: 0.898916482925415
","x: 169.99342346191406
y: 527.6405029296875
z: 0.16759604215621948
visibility: 0.8429412245750427
","x: 214.32400512695312
y: 550.0155029296875
z: 0.1278616487979889
visibility: 0.9833586812019348
","x: 167.76455688476562
y: 547.9790649414062
z: 0.05116817355155945
visibility: 0.9844784736633301
",,,,,,,,,,,,,,,,,,,,,,"x: 224.12030029296875
y: 391.2544250488281
z: 0.0
","x: 226.71505737304688
y: 388.9736633300781
z: -0.003432618919759989
","x: 227.75668334960938
y: 385.90045166015625
z: -0.007322525139898062
","x: 226.22149658203125
y: 382.57373046875
z: -0.010820805095136166
","x: 224.06411743164062
y: 380.251708984375
z: -0.014020295813679695
","x: 227.155029296875
y: 390.3823547363281
z: -0.010825683362782001
","x: 226.70826721191406
y: 383.5528869628906
z: -0.014904697425663471
","x: 226.40000915527344
y: 380.2818603515625
z: -0.015923677012324333
","x: 225.9937286376953
y: 379.9891662597656
z: -0.016270486637949944
","x: 224.29385375976562
y: 391.0662841796875
z: -0.011523551307618618
","x: 223.5037078857422
y: 383.66571044921875
z: -0.014634321443736553
","x: 223.74119567871094
y: 381.8592834472656
z: -0.012887880206108093
","x: 223.90306091308594
y: 383.24505615234375
z: -0.01210903748869896
","x: 221.81683349609375
y: 390.4647216796875
z: -0.011991491541266441
","x: 221.3520050048828
y: 382.6770324707031
z: -0.013449635356664658
","x: 222.16256713867188
y: 381.4316101074219
z: -0.010593706741929054
","x: 222.82412719726562
y: 382.86956787109375
z: -0.009245083667337894
","x: 219.8279266357422
y: 389.4937438964844
z: -0.012934541329741478
","x: 220.0113525390625
y: 382.35296630859375
z: -0.013141931034624577
","x: 220.91993713378906
y: 381.0334777832031
z: -0.011594866402447224
","x: 221.59800720214844
y: 381.9659423828125
z: -0.010814460925757885
"
23,"x: 203.87242126464844
y: 269.0508117675781
z: -0.26736903190612793
visibility: 0.9992899894714355
","x: 205.27835083007812
y: 263.73150634765625
z: -0.2486320436000824
visibility: 0.9983905553817749
","x: 206.4386749267578
y: 263.89666748046875
z: -0.2486463338136673
visibility: 0.9984003305435181
","x: 207.52728271484375
y: 264.14166259765625
z: -0.24864426255226135
visibility: 0.9984322786331177
","x: 201.69212341308594
y: 264.2834167480469
z: -0.26464927196502686
visibility: 0.9966892004013062
","x: 200.34681701660156
y: 264.85296630859375
z: -0.2646111845970154
visibility: 0.9962755441665649
","x: 198.97010803222656
y: 265.50830078125
z: -0.26470860838890076
visibility: 0.996222734451294
","x: 209.01377868652344
y: 269.23199462890625
z: -0.13992378115653992
visibility: 0.9984689354896545
","x: 196.630126953125
y: 270.77081298828125
z: -0.15544985234737396
visibility: 0.9940708875656128
","x: 206.41110229492188
y: 277.3119812011719
z: -0.22654059529304504
visibility: 0.999589741230011
","x: 201.581298828125
y: 278.27960205078125
z: -0.2514268755912781
visibility: 0.9991684556007385
","x: 220.42605590820312
y: 315.8922119140625
z: -0.049358244985342026
visibility: 0.9999430775642395
","x: 184.16336059570312
y: 303.1867370605469
z: -0.10778184235095978
visibility: 0.999491274356842
","x: 224.6362762451172
y: 353.3433532714844
z: 0.004535927902907133
visibility: 0.9612407088279724
","x: 172.91064453125
y: 340.469482421875
z: -0.12272728979587555
visibility: 0.9770234823226929
","x: 224.5087432861328
y: 384.5706481933594
z: -0.08013107627630234
visibility: 0.9455721974372864
","x: 181.8453369140625
y: 370.4534912109375
z: -0.23768487572669983
visibility: 0.9309916496276855
","x: 224.732177734375
y: 393.5762023925781
z: -0.10314486175775528
visibility: 0.8993463516235352
","x: 186.1317138671875
y: 381.5021057128906
z: -0.2724444270133972
visibility: 0.8751273155212402
","x: 223.71153259277344
y: 389.99761962890625
z: -0.1345086246728897
visibility: 0.9016632437705994
","x: 186.46292114257812
y: 379.90625
z: -0.289597749710083
visibility: 0.870594322681427
","x: 222.76229858398438
y: 386.5423278808594
z: -0.09444443881511688
visibility: 0.8715204000473022
","x: 186.11627197265625
y: 376.41259765625
z: -0.24757888913154602
visibility: 0.8451700210571289
","x: 209.05691528320312
y: 406.1528015136719
z: 0.02108827792108059
visibility: 0.9998924136161804
","x: 189.03567504882812
y: 402.681396484375
z: -0.0210560392588377
visibility: 0.9998679161071777
","x: 209.71568298339844
y: 469.32073974609375
z: 0.0475228875875473
visibility: 0.991807222366333
","x: 178.7129669189453
y: 464.4902038574219
z: -0.010128777474164963
visibility: 0.9941086173057556
","x: 208.1615447998047
y: 526.8255615234375
z: 0.22299809753894806
visibility: 0.9886047840118408
","x: 169.64260864257812
y: 521.8556518554688
z: 0.15861254930496216
visibility: 0.9882427453994751
","x: 204.15628051757812
y: 536.4830322265625
z: 0.23382893204689026
visibility: 0.898916482925415
","x: 169.99342346191406
y: 527.6405029296875
z: 0.16759604215621948
visibility: 0.8429412245750427
","x: 214.32400512695312
y: 550.0155029296875
z: 0.1278616487979889
visibility: 0.9833586812019348
","x: 167.76455688476562
y: 547.9790649414062
z: 0.05116817355155945
visibility: 0.9844784736633301
",,,,,,,,,,,,,,,,,,,,,,"x: 224.12030029296875
y: 391.2544250488281
z: 0.0
","x: 226.71505737304688
y: 388.9736633300781
z: -0.003432618919759989
","x: 227.75668334960938
y: 385.90045166015625
z: -0.007322525139898062
","x: 226.22149658203125
y: 382.57373046875
z: -0.010820805095136166
","x: 224.06411743164062
y: 380.251708984375
z: -0.014020295813679695
","x: 227.155029296875
y: 390.3823547363281
z: -0.010825683362782001
","x: 226.70826721191406
y: 383.5528869628906
z: -0.014904697425663471
","x: 226.40000915527344
y: 380.2818603515625
z: -0.015923677012324333
","x: 225.9937286376953
y: 379.9891662597656
z: -0.016270486637949944
","x: 224.29385375976562
y: 391.0662841796875
z: -0.011523551307618618
","x: 223.5037078857422
y: 383.66571044921875
z: -0.014634321443736553
","x: 223.74119567871094
y: 381.8592834472656
z: -0.012887880206108093
","x: 223.90306091308594
y: 383.24505615234375
z: -0.01210903748869896
","x: 221.81683349609375
y: 390.4647216796875
z: -0.011991491541266441
","x: 221.3520050048828
y: 382.6770324707031
z: -0.013449635356664658
","x: 222.16256713867188
y: 381.4316101074219
z: -0.010593706741929054
","x: 222.82412719726562
y: 382.86956787109375
z: -0.009245083667337894
","x: 219.8279266357422
y: 389.4937438964844
z: -0.012934541329741478
","x: 220.0113525390625
y: 382.35296630859375
z: -0.013141931034624577
","x: 220.91993713378906
y: 381.0334777832031
z: -0.011594866402447224
","x: 221.59800720214844
y: 381.9659423828125
z: -0.010814460925757885
"
24,"x: 202.83871459960938
y: 268.8757629394531
z: -0.24485564231872559
visibility: 0.9993590712547302
","x: 204.12493896484375
y: 263.1517333984375
z: -0.2291521579027176
visibility: 0.9985461235046387
","x: 205.33432006835938
y: 263.21240234375
z: -0.22916236519813538
visibility: 0.9985544681549072
","x: 206.4661407470703
y: 263.36737060546875
z: -0.2291419506072998
visibility: 0.9985825419425964
","x: 200.5269012451172
y: 263.6047058105469
z: -0.23253266513347626
visibility: 0.997013509273529
","x: 199.15286254882812
y: 263.9228515625
z: -0.23251044750213623
visibility: 0.9966402649879456
","x: 197.76473999023438
y: 264.28314208984375
z: -0.23254522681236267
visibility: 0.996591329574585
","x: 208.12290954589844
y: 267.8118591308594
z: -0.12900494039058685
visibility: 0.9986075162887573
","x: 195.62461853027344
y: 268.4616394042969
z: -0.13211128115653992
visibility: 0.9946479201316833
","x: 205.3112030029297
y: 276.0281066894531
z: -0.2078351229429245
visibility: 0.9996281862258911
","x: 200.66650390625
y: 276.5804748535156
z: -0.21453425288200378
visibility: 0.9992490410804749
","x: 218.7688751220703
y: 315.7615051269531
z: -0.05667422339320183
visibility: 0.9999454617500305
","x: 183.19281005859375
y: 300.66644287109375
z: -0.07915624231100082
visibility: 0.9995371699333191
","x: 222.42385864257812
y: 355.4830627441406
z: -0.04848132282495499
visibility: 0.9620341062545776
","x: 171.13278198242188
y: 337.7118225097656
z: -0.1367952525615692
visibility: 0.976954460144043
","x: 228.14967346191406
y: 382.8277893066406
z: -0.24800045788288116
visibility: 0.9493581652641296
","x: 178.5261993408203
y: 358.10687255859375
z: -0.3026030659675598
visibility: 0.9349714517593384
","x: 231.78318786621094
y: 391.1793212890625
z: -0.28981953859329224
visibility: 0.9067144989967346
","x: 180.35545349121094
y: 362.517822265625
z: -0.3431001603603363
visibility: 0.8826932907104492
","x: 231.6210479736328
y: 387.8951721191406
z: -0.3185780644416809
visibility: 0.9090951681137085
","x: 182.14927673339844
y: 357.0364990234375
z: -0.34174269437789917
visibility: 0.8787059783935547
","x: 229.9530029296875
y: 385.72247314453125
z: -0.2649778723716736
visibility: 0.8811438083648682
","x: 182.1868133544922
y: 354.58636474609375
z: -0.3092541992664337
visibility: 0.854375422000885
","x: 207.30926513671875
y: 406.2079162597656
z: 0.012367671355605125
visibility: 0.9998958110809326
","x: 187.1357421875
y: 402.41754150390625
z: -0.01235547848045826
visibility: 0.9998735785484314
","x: 208.11538696289062
y: 469.3872375488281
z: 0.021112564951181412
visibility: 0.9923695921897888
","x: 177.5368194580078
y: 464.81195068359375
z: 0.04323479160666466
visibility: 0.9944837093353271
","x: 208.3284454345703
y: 526.961181640625
z: 0.2072691023349762
visibility: 0.9892902374267578
","x: 169.45703125
y: 522.81640625
z: 0.24576060473918915
visibility: 0.9890890717506409
","x: 204.2090301513672
y: 537.0496215820312
z: 0.22195298969745636
visibility: 0.9044943451881409
","x: 169.7067413330078
y: 528.9788208007812
z: 0.26027342677116394
visibility: 0.8515697717666626
","x: 214.34078979492188
y: 549.6715698242188
z: 0.11751849949359894
visibility: 0.9843651056289673
","x: 167.64407348632812
y: 548.1966552734375
z: 0.15503337979316711
visibility: 0.9854512810707092
",,,,,,,,,,,,,,,,,,,,,,,,,,,,,,,,,,,,,,,,,,
25,"x: 201.6515655517578
y: 270.1722412109375
z: -0.2606586515903473
visibility: 0.9994214773178101
","x: 203.1748809814453
y: 264.45550537109375
z: -0.24448680877685547
visibility: 0.9986868500709534
","x: 204.5554962158203
y: 264.5245056152344
z: -0.2445451021194458
visibility: 0.9986955523490906
","x: 205.76351928710938
y: 264.64666748046875
z: -0.24460332095623016
visibility: 0.9987204670906067
","x: 199.59988403320312
y: 263.98565673828125
z: -0.2434111088514328
visibility: 0.9973019957542419
","x: 198.56675720214844
y: 264.46148681640625
z: -0.24342313408851624
visibility: 0.9969650506973267
","x: 197.4414825439453
y: 265.69329833984375
z: -0.24341800808906555
visibility: 0.9969162940979004
","x: 208.06930541992188
y: 268.5972900390625
z: -0.14082279801368713
visibility: 0.9987419247627258
","x: 195.0413818359375
y: 271.6906433105469
z: -0.13415084779262543
visibility: 0.995161771774292
","x: 204.91712951660156
y: 276.4727783203125
z: -0.2222505807876587
visibility: 0.9996637105941772
","x: 199.4615936279297
y: 278.90093994140625
z: -0.22159862518310547
visibility: 0.9993208050727844
","x: 218.5474090576172
y: 316.9612731933594
z: -0.07914426177740097
visibility: 0.9999498128890991
","x: 182.85018920898438
y: 305.6539611816406
z: -0.07880133390426636
visibility: 0.9995595216751099
","x: 224.6232147216797
y: 360.6437683105469
z: -0.16123861074447632
visibility: 0.9652150869369507
","x: 168.76051330566406
y: 342.875732421875
z: -0.16354194283485413
visibility: 0.975188136100769
","x: 235.22930908203125
y: 363.8121032714844
z: -0.35237592458724976
visibility: 0.9541234970092773
","x: 164.55087280273438
y: 349.7625427246094
z: -0.39935460686683655
visibility: 0.9361284971237183
","x: 238.71006774902344
y: 361.12969970703125
z: -0.39547038078308105
visibility: 0.915340781211853
","x: 164.2311248779297
y: 353.6861572265625
z: -0.4454174041748047
visibility: 0.8851721882820129
","x: 237.58460998535156
y: 356.2999267578125
z: -0.4097355902194977
visibility: 0.9175825715065002
","x: 167.4691162109375
y: 350.65411376953125
z: -0.45510944724082947
visibility: 0.8817324042320251
","x: 236.10714721679688
y: 357.09832763671875
z: -0.36288684606552124
visibility: 0.8920294046401978
","x: 169.19192504882812
y: 349.6688537597656
z: -0.4102339744567871
visibility: 0.8576816320419312
","x: 204.11891174316406
y: 406.2443542480469
z: 0.005391038488596678
visibility: 0.9998879432678223
","x: 182.66436767578125
y: 401.90618896484375
z: -0.0053208814933896065
visibility: 0.999864935874939
","x: 207.15261840820312
y: 469.749267578125
z: -0.0934961587190628
visibility: 0.9923678636550903
","x: 171.1627960205078
y: 460.8934020996094
z: -0.18683896958827972
visibility: 0.9946960806846619
","x: 208.28585815429688
y: 526.2977905273438
z: 0.11215710639953613
visibility: 0.9893850088119507
","x: 168.32833862304688
y: 520.7804565429688
z: 0.024539092555642128
visibility: 0.9895520210266113
","x: 204.2661895751953
y: 535.874267578125
z: 0.12611809372901917
visibility: 0.9053732752799988
","x: 169.39805603027344
y: 526.9542236328125
z: 0.04019193723797798
visibility: 0.8568100333213806
","x: 213.9676971435547
y: 548.9605712890625
z: 0.014950461685657501
visibility: 0.9841160774230957
","x: 168.01316833496094
y: 547.957275390625
z: -0.07849667966365814
visibility: 0.9859317541122437
",,,,,,,,,,,,,,,,,,,,,,,,,,,,,,,,,,,,,,,,,,
26,"x: 196.73683166503906
y: 272.048095703125
z: -0.2360479086637497
visibility: 0.9994776844978333
","x: 197.62591552734375
y: 266.0144348144531
z: -0.2221888303756714
visibility: 0.9988144636154175
","x: 198.81588745117188
y: 265.9927978515625
z: -0.22222056984901428
visibility: 0.9988221526145935
","x: 200.0023956298828
y: 266.0106201171875
z: -0.22227199375629425
visibility: 0.99884432554245
","x: 194.38494873046875
y: 265.6698913574219
z: -0.22213499248027802
visibility: 0.9975675344467163
","x: 193.21148681640625
y: 265.84710693359375
z: -0.22213175892829895
visibility: 0.9972637295722961
","x: 191.9901123046875
y: 266.6004638671875
