uscmakers/ReverseChoreography/data/6_easily_bruno_major.csv
,NOSE,LEFT_EYE_INNER,LEFT_EYE,LEFT_EYE_OUTER,RIGHT_EYE_INNER,RIGHT_EYE,RIGHT_EYE_OUTER,LEFT_EAR,RIGHT_EAR,MOUTH_LEFT,MOUTH_RIGHT,LEFT_SHOULDER,RIGHT_SHOULDER,LEFT_ELBOW,RIGHT_ELBOW,LEFT_WRIST,RIGHT_WRIST,LEFT_PINKY,RIGHT_PINKY,LEFT_INDEX,RIGHT_INDEX,LEFT_THUMB,RIGHT_THUMB,LEFT_HIP,RIGHT_HIP,LEFT_KNEE,RIGHT_KNEE,LEFT_ANKLE,RIGHT_ANKLE,LEFT_HEEL,RIGHT_HEEL,LEFT_FOOT_INDEX,RIGHT_FOOT_INDEX,WRIST,THUMB_CPC,THUMB_MCP,THUMB_IP,THUMB_TIP,INDEX_FINGER_MCP,INDEX_FINGER_PIP,INDEX_FINGER_DIP,INDEX_FINGER_TIP,MIDDLE_FINGER_MCP,MIDDLE_FINGER_PIP,MIDDLE_FINGER_DIP,MIDDLE_FINGER_TIP,RING_FINGER_PIP,RING_FINGER_DIP,RING_FINGER_TIP,RING_FINGER_MCP,PINKY_MCP,PINKY_PIP,PINKY_DIP,PINKY_TIP,WRIST2,THUMB_CPC2,THUMB_MCP2,THUMB_IP2,THUMB_TIP2,INDEX_FINGER_MCP2,INDEX_FINGER_PIP2,INDEX_FINGER_DIP2,INDEX_FINGER_TIP2,MIDDLE_FINGER_MCP2,MIDDLE_FINGER_PIP2,MIDDLE_FINGER_DIP2,MIDDLE_FINGER_TIP2,RING_FINGER_PIP2,RING_FINGER_DIP2,RING_FINGER_TIP2,RING_FINGER_MCP2,PINKY_MCP2,PINKY_PIP2,PINKY_DIP2,PINKY_TIP2
0,"x: 180.47955322265625
y: 277.2732849121094
z: -0.2916693091392517
visibility: 0.9999606609344482
","x: 182.1256103515625
y: 269.96923828125
z: -0.28110164403915405
visibility: 0.9998581409454346
","x: 183.4138946533203
y: 269.64044189453125
z: -0.28110674023628235
visibility: 0.9998542070388794
","x: 184.7227325439453
y: 269.3661804199219
z: -0.2811105251312256
visibility: 0.9998249411582947
","x: 178.8575439453125
y: 270.8389587402344
z: -0.2794029712677002
visibility: 0.9998788833618164
","x: 177.84332275390625
y: 271.1407470703125
z: -0.2794567048549652
visibility: 0.9998797178268433
","x: 176.83132934570312
y: 271.5368957519531
z: -0.27948951721191406
visibility: 0.999869704246521
","x: 188.16680908203125
y: 272.6773681640625
z: -0.19855371117591858
visibility: 0.9995368719100952
","x: 176.33444213867188
y: 275.0006103515625
z: -0.19185347855091095
visibility: 0.9997580647468567
","x: 183.69419860839844
y: 283.6699523925781
z: -0.25979623198509216
visibility: 0.9998874664306641
","x: 179.81101989746094
y: 284.9671325683594
z: -0.25780028104782104
visibility: 0.9999067783355713
","x: 203.68519592285156
y: 313.4332580566406
z: -0.1276405155658722
visibility: 0.9998667240142822
","x: 167.8686981201172
y: 315.85443115234375
z: -0.13014957308769226
visibility: 0.999957799911499
","x: 208.2121124267578
y: 362.963134765625
z: -0.08571775257587433
visibility: 0.9697574973106384
","x: 162.39501953125
y: 367.650634765625
z: -0.09982072561979294
visibility: 0.9641872048377991
","x: 210.4947967529297
y: 407.2974853515625
z: -0.14158177375793457
visibility: 0.933358371257782
","x: 160.0375518798828
y: 410.658935546875
z: -0.15911589562892914
visibility: 0.9071140289306641
","x: 212.02389526367188
y: 419.7290344238281
z: -0.15874561667442322
visibility: 0.8644956946372986
","x: 158.43955993652344
y: 423.0948181152344
z: -0.18114858865737915
visibility: 0.8297452330589294
","x: 209.73619079589844
y: 420.2941589355469
z: -0.18314582109451294
visibility: 0.8708423376083374
","x: 159.27859497070312
y: 422.51666259765625
z: -0.20596995949745178
visibility: 0.8346235156059265
","x: 208.44189453125
y: 416.0811767578125
z: -0.15212145447731018
visibility: 0.8497702479362488
","x: 160.40585327148438
y: 418.1956787109375
z: -0.1706574410200119
visibility: 0.8185205459594727
","x: 194.53933715820312
y: 408.6499328613281
z: 0.004040967207401991
visibility: 0.9997987151145935
","x: 174.0421142578125
y: 408.2095642089844
z: -0.004127200227230787
visibility: 0.9999316930770874
","x: 198.25840759277344
y: 469.2762451171875
z: 0.06779011338949203
visibility: 0.9826703667640686
","x: 171.46978759765625
y: 465.22784423828125
z: -0.02338242158293724
visibility: 0.9959694147109985
","x: 202.47103881835938
y: 526.0480346679688
z: 0.21681511402130127
visibility: 0.9878045320510864
","x: 170.33851623535156
y: 522.8031616210938
z: 0.11141104996204376
visibility: 0.9944382905960083
","x: 199.84442138671875
y: 534.9923095703125
z: 0.2260054647922516
visibility: 0.9244396686553955
","x: 173.1905975341797
y: 531.2640991210938
z: 0.11937019973993301
visibility: 0.9165279269218445
","x: 210.85015869140625
y: 546.6390380859375
z: 0.13436101377010345
visibility: 0.9807650446891785
","x: 164.6156005859375
y: 545.20361328125
z: 0.018442342057824135
visibility: 0.9897778630256653
",,,,,,,,,,,,,,,,,,,,,,,,,,,,,,,,,,,,,,,,,,
1,"x: 184.88223266601562
y: 277.3201904296875
z: -0.2990623712539673
visibility: 0.9999617338180542
","x: 186.4386444091797
y: 270.08349609375
z: -0.28873828053474426
visibility: 0.9998627305030823
","x: 187.72901916503906
y: 269.72662353515625
z: -0.2887539863586426
visibility: 0.9998595714569092
","x: 188.92401123046875
y: 269.4363708496094
z: -0.2887773811817169
visibility: 0.9998319745063782
","x: 182.6669921875
y: 271.1121520996094
z: -0.28663456439971924
visibility: 0.9998807311058044
","x: 181.474365234375
y: 271.4905700683594
z: -0.2866835594177246
visibility: 0.9998805522918701
","x: 180.3498992919922
y: 271.9625244140625
z: -0.2867145240306854
visibility: 0.999869167804718
","x: 191.72698974609375
y: 272.6639099121094
z: -0.20383957028388977
visibility: 0.9995630979537964
","x: 179.46754455566406
y: 275.24822998046875
z: -0.19498038291931152
visibility: 0.9997573494911194
","x: 188.3472900390625
y: 283.6709289550781
z: -0.26573148369789124
visibility: 0.9998935461044312
","x: 183.689208984375
y: 284.9789123535156
z: -0.2632008194923401
visibility: 0.9999094009399414
","x: 207.28343200683594
y: 314.3442077636719
z: -0.1334119737148285
visibility: 0.9998751282691956
","x: 170.66024780273438
y: 314.39483642578125
z: -0.13014695048332214
visibility: 0.9999566674232483
","x: 211.2491912841797
y: 364.4820861816406
z: -0.09544341266155243
visibility: 0.9710260033607483
","x: 163.9712677001953
y: 364.7312927246094
z: -0.10549523681402206
visibility: 0.9601538777351379
","x: 211.23092651367188
y: 410.5777587890625
z: -0.154947429895401
visibility: 0.9360838532447815
","x: 160.5078582763672
y: 407.29486083984375
z: -0.18415993452072144
visibility: 0.8983962535858154
","x: 212.27659606933594
y: 423.62481689453125
z: -0.1744939535856247
visibility: 0.8695550560951233
","x: 158.8558349609375
y: 419.819580078125
z: -0.2091834843158722
visibility: 0.8199222087860107
","x: 209.92037963867188
y: 423.6850280761719
z: -0.1996344029903412
visibility: 0.8757654428482056
","x: 160.22952270507812
y: 418.7991027832031
z: -0.2346290796995163
visibility: 0.8252013921737671
","x: 208.73886108398438
y: 419.3734130859375
z: -0.16540832817554474
visibility: 0.8549021482467651
","x: 161.3778076171875
y: 414.60748291015625
z: -0.19674421846866608
visibility: 0.8085803389549255
","x: 195.88706970214844
y: 409.216552734375
z: 0.0034159093629568815
visibility: 0.9998044371604919
","x: 174.4193115234375
y: 408.2288818359375
z: -0.0034990913700312376
visibility: 0.9999332427978516
","x: 198.5224151611328
y: 471.328125
z: 0.06777364760637283
visibility: 0.983476996421814
","x: 171.99569702148438
y: 466.5284729003906
z: -0.02123429998755455
visibility: 0.9961106181144714
","x: 202.5811004638672
y: 526.0804443359375
z: 0.24557451903820038
visibility: 0.9881979823112488
","x: 170.2871551513672
y: 522.9589233398438
z: 0.13244478404521942
visibility: 0.9946468472480774
","x: 200.00518798828125
y: 535.4966430664062
z: 0.2579955756664276
visibility: 0.9254047870635986
","x: 173.12960815429688
y: 531.8305053710938
z: 0.14225102961063385
visibility: 0.9190625548362732
","x: 210.8437042236328
y: 546.8054809570312
z: 0.1640002727508545
visibility: 0.9813154339790344
","x: 164.30531311035156
y: 545.62158203125
z: 0.03890623897314072
visibility: 0.9901320934295654
",,,,,,,,,,,,,,,,,,,,,,,,,,,,,,,,,,,,,,,,,,
2,"x: 186.28237915039062
y: 277.30023193359375
z: -0.28770411014556885
visibility: 0.9999573230743408
","x: 187.76783752441406
y: 270.12158203125
z: -0.2777915596961975
visibility: 0.9998499155044556
","x: 189.10340881347656
y: 269.77032470703125
z: -0.27782148122787476
visibility: 0.9998487234115601
","x: 190.30575561523438
y: 269.5015869140625
z: -0.2778579294681549
visibility: 0.9998220801353455
","x: 183.9974822998047
y: 271.185546875
z: -0.27400293946266174
visibility: 0.9998623728752136
","x: 182.84181213378906
y: 271.5832214355469
z: -0.274034321308136
visibility: 0.9998589754104614
","x: 181.7553253173828
y: 272.0575256347656
z: -0.2740626931190491
visibility: 0.9998411536216736
","x: 192.72674560546875
y: 272.69384765625
z: -0.1964634358882904
visibility: 0.9995580911636353
","x: 180.7957305908203
y: 275.303955078125
z: -0.1795463114976883
visibility: 0.9996904134750366
","x: 190.22012329101562
y: 283.6828308105469
z: -0.2558257579803467
visibility: 0.9998926520347595
","x: 184.9578857421875
y: 284.972900390625
z: -0.25099125504493713
visibility: 0.9999011754989624
","x: 208.44735717773438
y: 314.6053771972656
z: -0.13270169496536255
visibility: 0.9998812079429626
","x: 171.4658966064453
y: 314.0750427246094
z: -0.11044001579284668
visibility: 0.9999486207962036
","x: 211.63970947265625
y: 365.51263427734375
z: -0.09642665088176727
visibility: 0.9720425605773926
","x: 165.52308654785156
y: 363.3440856933594
z: -0.08607005327939987
visibility: 0.9498254060745239
","x: 211.3090057373047
y: 411.6256103515625
z: -0.15284086763858795
visibility: 0.9379813075065613
","x: 161.04464721679688
y: 406.095703125
z: -0.1824973076581955
visibility: 0.8823004961013794
","x: 212.16893005371094
y: 424.8843994140625
z: -0.1718854308128357
visibility: 0.8733276724815369
","x: 159.77566528320312
y: 418.2796936035156
z: -0.20359280705451965
visibility: 0.8037518858909607
","x: 209.5732421875
y: 424.2550964355469
z: -0.1962805986404419
visibility: 0.8793202042579651
","x: 161.06472778320312
y: 417.2264404296875
z: -0.22925928235054016
visibility: 0.809367835521698
","x: 208.54519653320312
y: 420.0747375488281
z: -0.16289260983467102
visibility: 0.8584954738616943
","x: 162.2516632080078
y: 413.1228942871094
z: -0.19444575905799866
visibility: 0.7920101284980774
","x: 196.6809844970703
y: 410.15185546875
z: 0.0012262926902621984
visibility: 0.999808132648468
","x: 174.7500457763672
y: 408.3201599121094
z: -0.001303770230151713
visibility: 0.9999321699142456
","x: 198.94166564941406
y: 474.138671875
z: 0.05944147706031799
visibility: 0.9840711951255798
","x: 172.23129272460938
y: 467.5030822753906
z: -0.014742131344974041
visibility: 0.9961798191070557
","x: 202.6190948486328
y: 525.85205078125
z: 0.24645650386810303
visibility: 0.988309919834137
","x: 170.28921508789062
y: 523.012451171875
z: 0.14737389981746674
visibility: 0.9947624206542969
","x: 200.00491333007812
y: 535.2933349609375
z: 0.25985050201416016
visibility: 0.9251462817192078
","x: 173.03640747070312
y: 531.8265380859375
z: 0.15811879932880402
visibility: 0.9209468364715576
","x: 210.9501953125
y: 547.2867431640625
z: 0.1660204529762268
visibility: 0.9814611673355103
","x: 164.2898712158203
y: 545.6295166015625
z: 0.055897779762744904
visibility: 0.9903371334075928
",,,,,,,,,,,,,,,,,,,,,,,,,,,,,,,,,,,,,,,,,,
3,"x: 185.72515869140625
y: 276.7041015625
z: -0.24788501858711243
visibility: 0.9999510049819946
","x: 187.25741577148438
y: 269.9256591796875
z: -0.24014878273010254
visibility: 0.9998275637626648
","x: 188.5790557861328
y: 269.5345764160156
z: -0.24017393589019775
visibility: 0.9998283386230469
","x: 189.83984375
y: 269.2511291503906
z: -0.24019181728363037
visibility: 0.9998006224632263
","x: 183.56761169433594
y: 271.1202392578125
z: -0.23379695415496826
visibility: 0.9998379945755005
","x: 182.47686767578125
y: 271.54888916015625
z: -0.23382112383842468
visibility: 0.9998320937156677
","x: 181.49085998535156
y: 272.0409240722656
z: -0.2338564097881317
visibility: 0.999809205532074
","x: 192.535400390625
y: 272.18408203125
z: -0.17160022258758545
visibility: 0.9995242953300476
","x: 180.92958068847656
y: 275.25054931640625
z: -0.1430319845676422
visibility: 0.9996174573898315
","x: 189.7435302734375
y: 283.0771484375
z: -0.2209867686033249
visibility: 0.9998853802680969
","x: 184.52349853515625
y: 284.3868408203125
z: -0.21279862523078918
visibility: 0.9998871088027954
","x: 208.38343811035156
y: 314.01422119140625
z: -0.11613241583108902
visibility: 0.9998788237571716
","x: 173.14791870117188
y: 312.2947998046875
z: -0.08123041689395905
visibility: 0.9999427199363708
","x: 211.4009552001953
y: 365.4072570800781
z: -0.08696922659873962
visibility: 0.971439003944397
","x: 166.8485565185547
y: 359.3987731933594
z: -0.06564734131097794
visibility: 0.9351033568382263
","x: 210.936767578125
y: 411.6119079589844
z: -0.12936988472938538
visibility: 0.9343134760856628
","x: 161.532958984375
y: 403.1945495605469
z: -0.1574113368988037
visibility: 0.8614296317100525
","x: 211.30764770507812
y: 424.892578125
z: -0.1449836641550064
visibility: 0.8680475950241089
","x: 160.41632080078125
y: 414.42218017578125
z: -0.1796591579914093
visibility: 0.7824593782424927
","x: 208.8520050048828
y: 424.2922668457031
z: -0.16664260625839233
visibility: 0.8740647435188293
","x: 161.43545532226562
y: 413.61700439453125
z: -0.20050331950187683
visibility: 0.7881035208702087
","x: 207.93026733398438
y: 420.2158203125
z: -0.13772878050804138
visibility: 0.85257887840271
","x: 162.680419921875
y: 410.52252197265625
z: -0.16863641142845154
visibility: 0.7704919576644897
","x: 197.0369110107422
y: 410.0833740234375
z: -0.0008627742645330727
visibility: 0.9998009204864502
","x: 175.2513427734375
y: 407.3216552734375
z: 0.0007824187050573528
visibility: 0.9999299049377441
","x: 198.99998474121094
y: 473.71588134765625
z: 0.047794409096241
visibility: 0.9845578670501709
","x: 172.4901885986328
y: 465.61358642578125
z: -0.030390750616788864
visibility: 0.9963070750236511
","x: 202.66717529296875
y: 525.4830322265625
z: 0.22066417336463928
visibility: 0.9885319471359253
","x: 170.37152099609375
y: 523.013916015625
z: 0.11317171901464462
visibility: 0.9949295520782471
","x: 200.00485229492188
y: 534.8978271484375
z: 0.2325195074081421
visibility: 0.925082266330719
","x: 173.03024291992188
y: 531.6796264648438
z: 0.12217412889003754
visibility: 0.9230863451957703
","x: 210.9440460205078
y: 547.353271484375
z: 0.13900887966156006
visibility: 0.9816387891769409
","x: 164.29287719726562
y: 545.6229248046875
z: 0.022413793951272964
visibility: 0.9906144142150879
",,,,,,,,,,,,,,,,,,,,,,,,,,,,,,,,,,,,,,,,,,
4,"x: 185.27847290039062
y: 276.18115234375
z: -0.244306281208992
visibility: 0.9999462962150574
","x: 186.82923889160156
y: 269.76953125
z: -0.2363569289445877
visibility: 0.9998133182525635
","x: 188.16879272460938
y: 269.3772277832031
z: -0.23638761043548584
visibility: 0.9998154640197754
","x: 189.43067932128906
y: 269.10382080078125
z: -0.23641209304332733
visibility: 0.9997879862785339
","x: 183.2173309326172
y: 271.0389099121094
z: -0.23005378246307373
visibility: 0.999819278717041
","x: 182.17530822753906
y: 271.5019836425781
z: -0.23007336258888245
visibility: 0.9998102188110352
","x: 181.211669921875
y: 272.0169372558594
z: -0.23010234534740448
visibility: 0.9997813105583191
","x: 192.29281616210938
y: 271.8627014160156
z: -0.16699567437171936
visibility: 0.9995133280754089
","x: 181.01356506347656
y: 275.1973876953125
z: -0.13848716020584106
visibility: 0.9995558857917786
","x: 189.3140106201172
y: 282.33099365234375
z: -0.21715553104877472
visibility: 0.9998828172683716
","x: 184.11976623535156
y: 283.5399475097656
z: -0.20900897681713104
visibility: 0.9998764991760254
","x: 208.20455932617188
y: 313.2181701660156
z: -0.11184008419513702
visibility: 0.9998810887336731
","x: 172.934326171875
y: 312.3163146972656
z: -0.07762390375137329
visibility: 0.9999363422393799
","x: 211.38710021972656
y: 365.3379821777344
z: -0.08477569371461868
visibility: 0.9707756638526917
","x: 166.355224609375
y: 358.6679382324219
z: -0.06875108182430267
visibility: 0.9168230891227722
","x: 210.85304260253906
y: 411.9610290527344
z: -0.12866757810115814
visibility: 0.9306852221488953
","x: 161.79913330078125
y: 401.0441589355469
z: -0.1624728888273239
visibility: 0.8386378884315491
","x: 210.75375366210938
y: 425.48291015625
z: -0.1444651037454605
visibility: 0.8626264929771423
","x: 160.53268432617188
y: 413.4308166503906
z: -0.18648909032344818
visibility: 0.7604566812515259
","x: 208.49200439453125
y: 424.7850036621094
z: -0.1664963662624359
visibility: 0.8687734007835388
","x: 161.9545135498047
y: 412.47314453125
z: -0.20624203979969025
visibility: 0.766422688961029
","x: 207.6884307861328
y: 420.6994934082031
z: -0.13734234869480133
visibility: 0.8469999432563782
","x: 162.92578125
y: 408.0894775390625
z: -0.174294114112854
visibility: 0.748823344707489
","x: 197.10105895996094
y: 409.9841613769531
z: -0.0013842000626027584
visibility: 0.9998023509979248
","x: 175.46726989746094
y: 407.1188049316406
z: 0.0012980611063539982
visibility: 0.9999292492866516
","x: 199.01568603515625
y: 473.8769836425781
z: 0.0463368222117424
visibility: 0.9849423170089722
","x: 172.6554718017578
y: 465.584228515625
z: -0.02962426282465458
visibility: 0.9963734149932861
","x: 202.68370056152344
y: 525.0104370117188
z: 0.22253923118114471
visibility: 0.9886518716812134
","x: 170.4116668701172
y: 522.7967529296875
z: 0.1174582690000534
visibility: 0.9950429201126099
","x: 200.0044708251953
y: 534.5577392578125
z: 0.23553340137004852
visibility: 0.9252322316169739
","x: 173.02732849121094
y: 531.0703735351562
z: 0.1275445520877838
visibility: 0.9247115254402161
","x: 210.88929748535156
y: 547.4121704101562
z: 0.14176401495933533
visibility: 0.9817690849304199
","x: 164.29776000976562
y: 545.6790771484375
z: 0.027513224631547928
visibility: 0.9908328056335449
",,,,,,,,,,,,,,,,,,,,,,,,,,,,,,,,,,,,,,,,,,
5,"x: 185.05587768554688
y: 276.1938171386719
z: -0.25900399684906006
visibility: 0.9999410510063171
","x: 186.63296508789062
y: 269.84814453125
z: -0.25026291608810425
visibility: 0.9997918009757996
","x: 187.9942169189453
y: 269.4686584472656
z: -0.2502851188182831
visibility: 0.9997967481613159
","x: 189.2704620361328
y: 269.21075439453125
z: -0.2503047287464142
visibility: 0.9997686147689819
","x: 183.0282440185547
y: 271.09564208984375
z: -0.24541647732257843
visibility: 0.9997969269752502
","x: 181.9879913330078
y: 271.55084228515625
z: -0.24544450640678406
visibility: 0.9997867941856384
","x: 181.00860595703125
y: 272.0527038574219
z: -0.24547350406646729
visibility: 0.9997530579566956
","x: 192.19200134277344
y: 271.88067626953125
z: -0.17584750056266785
visibility: 0.9994760155677795
","x: 180.8376007080078
y: 275.2023620605469
z: -0.15447382628917694
visibility: 0.9994865655899048
","x: 189.05111694335938
y: 282.3540954589844
z: -0.2300725281238556
visibility: 0.9998778104782104
","x: 183.87168884277344
y: 283.4319763183594
z: -0.22380301356315613
visibility: 0.9998671412467957
","x: 207.96630859375
y: 312.7736511230469
z: -0.11244996637105942
visibility: 0.9998850226402283
","x: 172.62171936035156
y: 312.4600524902344
z: -0.09111198782920837
visibility: 0.9999348521232605
","x: 211.40408325195312
y: 365.2597351074219
z: -0.08690956979990005
visibility: 0.9709318280220032
","x: 166.07643127441406
y: 359.5990295410156
z: -0.062488358467817307
visibility: 0.9072582125663757
","x: 210.80853271484375
y: 412.83575439453125
z: -0.13102130591869354
visibility: 0.9284050464630127
","x: 161.28628540039062
y: 401.61248779296875
z: -0.12830007076263428
visibility: 0.8190184831619263
","x: 210.75790405273438
y: 426.6958923339844
z: -0.14701831340789795
visibility: 0.8586084842681885
","x: 160.4176483154297
y: 414.3514404296875
z: -0.14944252371788025
visibility: 0.739151120185852
","x: 208.47813415527344
y: 426.0772399902344
z: -0.16897210478782654
visibility: 0.8646529316902161
","x: 161.86428833007812
y: 413.54620361328125
z: -0.1728825867176056
visibility: 0.7452400922775269
","x: 207.57000732421875
y: 421.6940612792969
z: -0.13978628814220428
visibility: 0.8425266146659851
","x: 162.880126953125
y: 409.11444091796875
z: -0.1402253806591034
visibility: 0.7275285124778748
","x: 197.14141845703125
y: 410.00714111328125
z: -0.0016899131005629897
visibility: 0.999804675579071
","x: 175.50198364257812
y: 407.1405029296875
z: 0.0016054358566179872
visibility: 0.9999303221702576
","x: 199.04457092285156
y: 473.8680725097656
z: 0.049629900604486465
visibility: 0.9850858449935913
","x: 172.7415771484375
y: 464.665771484375
z: -0.04781276732683182
visibility: 0.9964407086372375
","x: 202.8043212890625
y: 524.4453125
z: 0.24107515811920166
visibility: 0.9885948300361633
","x: 170.5223846435547
y: 522.2301635742188
z: 0.1006544828414917
visibility: 0.9951097965240479
","x: 200.0105438232422
y: 533.9232177734375
z: 0.25466012954711914
visibility: 0.9235913157463074
","x: 173.04193115234375
y: 530.4442749023438
z: 0.11054974794387817
visibility: 0.9259344935417175
","x: 210.826416015625
y: 547.4155883789062
z: 0.1609477549791336
visibility: 0.9816009998321533
","x: 164.2996063232422
y: 545.6280517578125
z: 0.007220874074846506
visibility: 0.9910303354263306
",,,,,,,,,,,,,,,,,,,,,,,,,,,,,,,,,,,,,,,,,,
6,"x: 184.9779815673828
y: 276.1404724121094
z: -0.2757686972618103
visibility: 0.9999379515647888
","x: 186.54977416992188
y: 269.7870788574219
z: -0.2687947750091553
visibility: 0.9997767210006714
","x: 187.9053192138672
y: 269.42529296875
z: -0.26880019903182983
visibility: 0.9997817277908325
","x: 189.1622314453125
y: 269.1852722167969
z: -0.2688213586807251
visibility: 0.9997491240501404
","x: 182.93275451660156
y: 270.9794921875
z: -0.26373159885406494
visibility: 0.9997860789299011
","x: 181.88040161132812
y: 271.40142822265625
z: -0.26377421617507935
visibility: 0.9997766017913818
","x: 180.8831329345703
y: 271.85601806640625
z: -0.26381009817123413
visibility: 0.9997416734695435
","x: 192.0548858642578
y: 271.8465270996094
z: -0.19654269516468048
visibility: 0.9994407296180725
","x: 180.68515014648438
y: 274.84307861328125
z: -0.17362073063850403
visibility: 0.999466598033905
","x: 188.91030883789062
y: 282.3394775390625
z: -0.24694764614105225
visibility: 0.9998732805252075
","x: 183.71165466308594
y: 283.3276672363281
z: -0.24011921882629395
visibility: 0.9998626708984375
","x: 207.89166259765625
y: 312.75726318359375
z: -0.12689748406410217
visibility: 0.9998838305473328
","x: 172.4761199951172
y: 312.5536804199219
z: -0.11032867431640625
visibility: 0.9999371767044067
","x: 211.3717803955078
y: 364.84149169921875
z: -0.08721229434013367
visibility: 0.9712470173835754
","x: 165.48635864257812
y: 360.921630859375
z: -0.07074480503797531
visibility: 0.9113000631332397
","x: 210.86160278320312
y: 412.582275390625
z: -0.1317550539970398
visibility: 0.9278497695922852
","x: 159.62022399902344
y: 402.20013427734375
z: -0.13067613542079926
visibility: 0.8257030844688416
","x: 210.82081604003906
y: 426.2963562011719
z: -0.14848268032073975
visibility: 0.8572272062301636
","x: 158.38299560546875
y: 414.9975280761719
z: -0.15150777995586395
visibility: 0.7455825805664062
","x: 208.59629821777344
y: 425.7832336425781
z: -0.16910052299499512
visibility: 0.86330646276474
","x: 160.41766357421875
y: 413.6538391113281
z: -0.1754157990217209
visibility: 0.7514959573745728
","x: 207.68162536621094
y: 421.4236755371094
z: -0.1398954689502716
visibility: 0.8415947556495667
","x: 161.5803680419922
y: 409.3267517089844
z: -0.14208866655826569
visibility: 0.7334836721420288
","x: 197.08572387695312
y: 409.975830078125
z: -0.0015870403731241822
visibility: 0.9998053312301636
","x: 175.4949493408203
y: 407.1734313964844
z: 0.001490842318162322
visibility: 0.9999309778213501
","x: 199.1668701171875
y: 473.6785583496094
z: 0.06246604770421982
visibility: 0.9853366017341614
","x: 172.72586059570312
y: 465.405029296875
z: 0.0024664755910634995
visibility: 0.9964705109596252
","x: 202.89903259277344
y: 524.4578247070312
z: 0.24953961372375488
visibility: 0.9885424971580505
","x: 170.54588317871094
y: 522.4356689453125
z: 0.15774764120578766
visibility: 0.9951742887496948
","x: 200.02340698242188
y: 533.9304809570312
z: 0.2628978490829468
visibility: 0.9243921637535095
","x: 172.99822998046875
y: 530.6072998046875
z: 0.16817417740821838
visibility: 0.9275660514831543
","x: 211.01116943359375
y: 547.5134887695312
z: 0.17368167638778687
visibility: 0.9816579222679138
","x: 164.29025268554688
y: 545.6445922851562
z: 0.06905926764011383
visibility: 0.9911137223243713
",,,,,,,,,,,,,,,,,,,,,,,,,,,,,,,,,,,,,,,,,,
7,"x: 185.21542358398438
y: 277.13323974609375
z: -0.3096676170825958
visibility: 0.9999418258666992
","x: 186.77923583984375
y: 270.637451171875
z: -0.30091699957847595
visibility: 0.9997888207435608
","x: 188.1535186767578
y: 270.23388671875
z: -0.3009149730205536
visibility: 0.9997943639755249
","x: 189.40554809570312
y: 269.9554138183594
z: -0.30093035101890564
visibility: 0.999763548374176
","x: 183.14459228515625
y: 271.9314270019531
z: -0.29736965894699097
visibility: 0.9997963905334473
","x: 182.08909606933594
y: 272.34173583984375
z: -0.29742011427879333
visibility: 0.9997879266738892
","x: 181.08572387695312
y: 272.753662109375
z: -0.29745492339134216
visibility: 0.9997538328170776
","x: 192.28294372558594
y: 272.1806945800781
z: -0.21962568163871765
visibility: 0.9994754791259766
","x: 180.70179748535156
y: 275.5672607421875
z: -0.20286817848682404
visibility: 0.9994919896125793
","x: 189.235107421875
y: 283.08917236328125
z: -0.2772570252418518
visibility: 0.9998816251754761
","x: 183.82762145996094
y: 283.9296875
z: -0.2725156247615814
visibility: 0.9998704791069031
","x: 207.98460388183594
y: 313.5299377441406
z: -0.14434990286827087
visibility: 0.9998927712440491
","x: 172.25376892089844
y: 312.57769775390625
z: -0.1334684044122696
visibility: 0.9999403357505798
","x: 211.67401123046875
y: 366.42041015625
z: -0.10023993253707886
visibility: 0.9730852842330933
","x: 165.41781616210938
y: 362.3194885253906
z: -0.09335654228925705
visibility: 0.9162607789039612
","x: 212.4749298095703
y: 413.28509521484375
z: -0.1589861512184143
visibility: 0.9324431419372559
","x: 158.783447265625
y: 404.3681640625
z: -0.15190225839614868
visibility: 0.8344386219978333
","x: 212.85658264160156
y: 426.43634033203125
z: -0.17771285772323608
visibility: 0.8651321530342102
","x: 157.09031677246094
y: 417.7900695800781
z: -0.17503216862678528
visibility: 0.7548689246177673
","x: 210.80145263671875
y: 425.9996337890625
z: -0.204353928565979
visibility: 0.871085524559021
","x: 158.79989624023438
y: 416.5408630371094
z: -0.202506422996521
visibility: 0.7606216669082642
","x: 209.974365234375
y: 421.8164367675781
z: -0.17028622329235077
visibility: 0.8502629995346069
","x: 160.07615661621094
y: 412.30267333984375
z: -0.16479933261871338
visibility: 0.7426935434341431
","x: 197.10125732421875
y: 409.4695739746094
z: -0.001471611438319087
visibility: 0.9998086094856262
","x: 175.43218994140625
y: 407.11297607421875
z: 0.0013767119962722063
visibility: 0.9999264478683472
","x: 201.5662078857422
y: 468.0151672363281
z: 0.034236304461956024
visibility: 0.9860726594924927
","x: 170.55325317382812
y: 465.35357666015625
z: 0.008444403298199177
visibility: 0.9964982867240906
","x: 203.1824951171875
y: 523.8495483398438
z: 0.2046651542186737
visibility: 0.9888986349105835
","x: 170.43307495117188
y: 522.4407348632812
z: 0.1867554634809494
visibility: 0.9951998591423035
","x: 200.12744140625
y: 533.0618896484375
z: 0.2159966230392456
visibility: 0.9245891571044922
","x: 172.90921020507812
y: 530.401611328125
z: 0.19913655519485474
visibility: 0.9276211857795715
","x: 210.99224853515625
y: 547.4207153320312
z: 0.11542320251464844
visibility: 0.9822652339935303
","x: 164.31695556640625
y: 545.76513671875
z: 0.09796889126300812
visibility: 0.9911869764328003
",,,,,,,,,,,,,,,,,,,,,,,,,,,,,,,,,,,,,,,,,,
8,"x: 186.25405883789062
y: 279.26898193359375
z: -0.3025384843349457
visibility: 0.999942421913147
","x: 187.96133422851562
y: 272.68804931640625
z: -0.29118531942367554
visibility: 0.9997835755348206
","x: 189.37640380859375
y: 272.40313720703125
z: -0.29119738936424255
visibility: 0.9997918605804443
","x: 190.74630737304688
y: 272.2329406738281
z: -0.29121989011764526
visibility: 0.9997597932815552
","x: 184.25
y: 273.5322265625
z: -0.2884424924850464
visibility: 0.9997917413711548
","x: 183.1605987548828
y: 273.79449462890625
z: -0.2885013222694397
visibility: 0.999787449836731
","x: 182.17288208007812
y: 274.08978271484375
z: -0.28854048252105713
visibility: 0.9997554421424866
","x: 193.47775268554688
y: 274.8410949707031
z: -0.21031586825847626
visibility: 0.9994701743125916
","x: 181.45880126953125
y: 276.76611328125
z: -0.1936063915491104
visibility: 0.9995059967041016
","x: 190.11317443847656
y: 285.8975524902344
z: -0.26944833993911743
visibility: 0.9998828768730164
","x: 184.6593475341797
y: 286.1077880859375
z: -0.2658523917198181
visibility: 0.9998736381530762
","x: 208.2550048828125
y: 316.81744384765625
z: -0.14336971938610077
visibility: 0.9998969435691833
","x: 172.33737182617188
y: 313.380859375
z: -0.12671037018299103
visibility: 0.9999427795410156
","x: 212.421875
y: 368.7641906738281
z: -0.09865827113389969
visibility: 0.9738679528236389
","x: 165.010498046875
y: 366.5841979980469
z: -0.0942290797829628
visibility: 0.9217327833175659
","x: 214.85545349121094
y: 416.5609436035156
z: -0.15764926373958588
visibility: 0.9315453171730042
","x: 157.57244873046875
y: 408.25555419921875
z: -0.16124184429645538
visibility: 0.842490017414093
","x: 215.1855926513672
y: 428.8021240234375
z: -0.17540030181407928
visibility: 0.8626436591148376
","x: 155.94073486328125
y: 420.6243896484375
z: -0.18615055084228516
visibility: 0.7626270651817322
","x: 213.44561767578125
y: 428.8128662109375
z: -0.19979774951934814
visibility: 0.8689616918563843
","x: 157.29537963867188
y: 419.2909240722656
z: -0.21212968230247498
visibility: 0.768488883972168
","x: 212.76211547851562
y: 424.794189453125
z: -0.1684536635875702
visibility: 0.8480574488639832
","x: 158.5026397705078
y: 415.45343017578125
z: -0.1739760786294937
visibility: 0.7506384253501892
","x: 197.4041290283203
y: 409.6070556640625
z: -0.0012562430929392576
visibility: 0.9997988343238831
","x: 175.27613830566406
y: 407.12255859375
z: 0.0011633652029559016
visibility: 0.9999217987060547
","x: 203.1614227294922
y: 467.7980041503906
z: -0.03674625977873802
visibility: 0.9861230254173279
","x: 169.4002685546875
y: 461.57342529296875
z: -0.1379810869693756
visibility: 0.9964900016784668
","x: 203.6241455078125
y: 523.8817749023438
z: 0.13382209837436676
visibility: 0.9887619018554688
","x: 170.25465393066406
y: 522.3565063476562
z: 0.02888559177517891
visibility: 0.9951127171516418
","x: 200.37709045410156
y: 533.0809936523438
z: 0.14414459466934204
visibility: 0.9188483357429504
","x: 172.79832458496094
y: 530.318115234375
z: 0.039633799344301224
visibility: 0.9258297085762024
","x: 210.92617797851562
y: 547.4214477539062
z: 0.03529766947031021
visibility: 0.9818205833435059
","x: 164.72781372070312
y: 545.7655639648438
z: -0.07500254362821579
visibility: 0.9911893010139465
",,,,,,,,,,,,,,,,,,,,,,,,,,,,,,,,,,,,,,,,,,
9,"x: 188.19720458984375
y: 279.81988525390625
z: -0.2806923985481262
visibility: 0.9999467134475708
","x: 189.83770751953125
y: 273.06280517578125
z: -0.26843756437301636
visibility: 0.9997985363006592
","x: 191.27658081054688
y: 272.7984313964844
z: -0.2684502601623535
visibility: 0.9998064637184143
","x: 192.59017944335938
y: 272.66900634765625
z: -0.26845812797546387
visibility: 0.9997766613960266
","x: 186.08380126953125
y: 274.10491943359375
z: -0.2661437690258026
visibility: 0.9998058080673218
","x: 185.01573181152344
y: 274.4837646484375
z: -0.26618942618370056
visibility: 0.9998019337654114
","x: 183.986572265625
y: 274.897216796875
z: -0.26621106266975403
visibility: 0.9997724294662476
","x: 195.36012268066406
y: 275.5559997558594
z: -0.18529365956783295
visibility: 0.9995095133781433
","x: 183.2398681640625
y: 277.9835205078125
z: -0.172591432929039
visibility: 0.9995422959327698
","x: 191.9964141845703
y: 286.6510314941406
z: -0.2483094185590744
visibility: 0.9998915195465088
","x: 187.09149169921875
y: 287.06402587890625
z: -0.24507565796375275
visibility: 0.999882698059082
","x: 209.8660125732422
y: 318.742431640625
z: -0.12248389422893524
visibility: 0.9999040365219116
","x: 174.15414428710938
y: 313.7599792480469
z: -0.10996335744857788
visibility: 0.999945342540741
","x: 214.39662170410156
y: 369.34857177734375
z: -0.08899780362844467
visibility: 0.9754722118377686
","x: 164.99258422851562
y: 366.3924865722656
z: -0.0807742029428482
visibility: 0.9264352321624756
","x: 215.7575225830078
y: 416.87335205078125
z: -0.15498611330986023
visibility: 0.9355981349945068
","x: 157.05723571777344
y: 408.20733642578125
z: -0.15286733210086823
visibility: 0.8514963388442993
","x: 216.16455078125
y: 428.9767761230469
z: -0.17136496305465698
visibility: 0.8695687055587769
","x: 155.23667907714844
y: 420.5972900390625
z: -0.1791040599346161
visibility: 0.7730141282081604
","x: 214.35879516601562
y: 428.8607482910156
z: -0.19567988812923431
visibility: 0.8757148385047913
","x: 156.70941162109375
y: 419.52392578125
z: -0.20521850883960724
visibility: 0.7788394689559937
","x: 213.65318298339844
y: 424.77191162109375
z: -0.16503269970417023
visibility: 0.8555617928504944
","x: 157.94598388671875
y: 415.8134765625
z: -0.16585998237133026
visibility: 0.7614892721176147
","x: 197.35797119140625
y: 411.089111328125
z: -0.0018235419411212206
visibility: 0.9998005032539368
","x: 175.14678955078125
y: 407.3604736328125
z: 0.0017290828982368112
visibility: 0.999920666217804
","x: 202.89077758789062
y: 467.9117431640625
z: 0.0036188275553286076
visibility: 0.9868443608283997
","x: 168.21481323242188
y: 461.96527099609375
z: -0.07195638865232468
visibility: 0.9966466426849365
","x: 203.6293487548828
y: 523.7760620117188
z: 0.17484983801841736
visibility: 0.989213228225708
","x: 170.19985961914062
y: 522.3583984375
z: 0.053749412298202515
visibility: 0.9952558875083923
","x: 200.42596435546875
y: 532.8839721679688
z: 0.1858852654695511
visibility: 0.9180479645729065
","x: 172.73736572265625
y: 530.2776489257812
z: 0.04217781499028206
visibility: 0.9272499084472656
","x: 210.69088745117188
y: 547.1990356445312
z: 0.08409635722637177
visibility: 0.9824180603027344
","x: 164.79147338867188
y: 545.7650146484375
z: -0.05573476478457451
visibility: 0.991441011428833
",,,,,,,,,,,,,,,,,,,,,,,,,,,,,,,,,,,,,,,,,,
10,"x: 191.7578125
y: 282.6759948730469
z: -0.30145418643951416
visibility: 0.9999499917030334
","x: 193.41188049316406
y: 275.0018615722656
z: -0.2908530831336975
visibility: 0.9998101592063904
","x: 194.7616424560547
y: 274.6066589355469
z: -0.2908720076084137
visibility: 0.9998179078102112
","x: 196.04962158203125
y: 274.39508056640625
z: -0.29089242219924927
visibility: 0.9997892379760742
","x: 189.54135131835938
y: 276.55242919921875
z: -0.28851836919784546
visibility: 0.9998162984848022
","x: 188.36659240722656
y: 277.0751647949219
z: -0.28857094049453735
visibility: 0.9998127818107605
","x: 187.24142456054688
y: 277.6313171386719
z: -0.2886044383049011
visibility: 0.9997852444648743
","x: 198.7845916748047
y: 277.45355224609375
z: -0.20508475601673126
visibility: 0.9995416402816772
","x: 185.66061401367188
y: 280.20501708984375
z: -0.19339719414710999
visibility: 0.9995726943016052
","x: 195.10775756835938
y: 289.359619140625
z: -0.2675290107727051
visibility: 0.9998984932899475
","x: 190.6505889892578
y: 289.9523010253906
z: -0.2642853856086731
visibility: 0.9998902082443237
","x: 212.38851928710938
y: 320.9562683105469
z: -0.13207919895648956
visibility: 0.9999109506607056
","x: 176.15380859375
y: 315.2874755859375
z: -0.12329798936843872
visibility: 0.9999486804008484
","x: 215.27049255371094
y: 372.04852294921875
z: -0.09484215080738068
visibility: 0.976655125617981
","x: 164.9901123046875
y: 366.2630920410156
z: -0.08826079964637756
visibility: 0.9313945174217224
","x: 215.7611541748047
y: 419.064697265625
z: -0.1630595624446869
visibility: 0.9386118054389954
","x: 156.77024841308594
y: 407.43548583984375
z: -0.15996316075325012
visibility: 0.861263632774353
","x: 216.09848022460938
y: 430.59716796875
z: -0.18271468579769135
visibility: 0.8745226263999939
","x: 154.95294189453125
y: 419.602783203125
z: -0.18621471524238586
visibility: 0.7851991653442383
","x: 214.3791046142578
y: 430.04449462890625
z: -0.20734408497810364
visibility: 0.880519688129425
","x: 156.31883239746094
y: 418.9789123535156
z: -0.2129453867673874
visibility: 0.7908379435539246
","x: 213.59344482421875
y: 426.3249206542969
z: -0.17394734919071198
visibility: 0.86094069480896
","x: 157.59637451171875
y: 415.6261901855469
z: -0.17317523062229156
visibility: 0.7738544344902039
","x: 197.23361206054688
y: 412.5869140625
z: -0.0020007260609418154
visibility: 0.9998089075088501
","x: 174.91978454589844
y: 407.55419921875
z: 0.0019058840116485953
visibility: 0.999923825263977
","x: 202.4683837890625
y: 471.92071533203125
z: 0.03184116631746292
visibility: 0.9874574542045593
","x: 167.55824279785156
y: 462.2315979003906
z: -0.0665271133184433
visibility: 0.9968202114105225
","x: 203.8176727294922
y: 524.4950561523438
z: 0.23021991550922394
visibility: 0.9896972179412842
","x: 170.08963012695312
y: 522.5187377929688
z: 0.12400861829519272
visibility: 0.9954514503479004
","x: 200.55722045898438
y: 534.0880126953125
z: 0.24406082928180695
visibility: 0.9195991158485413
","x: 172.6471710205078
y: 530.6407470703125
z: 0.1339976042509079
visibility: 0.9298876523971558
","x: 210.86178588867188
y: 547.64013671875
z: 0.14252597093582153
visibility: 0.983164370059967
","x: 164.64102172851562
y: 546.1732177734375
z: 0.028438523411750793
visibility: 0.9917721748352051
",,,,,,,,,,,,,,,,,,,,,,,,,,,,,,,,,,,,,,,,,,
11,"x: 192.877685546875
y: 282.63043212890625
z: -0.295168936252594
visibility: 0.9999510049819946
","x: 194.7404022216797
y: 275.34539794921875
z: -0.2856716811656952
visibility: 0.9998107552528381
","x: 196.165283203125
y: 275.0548095703125
z: -0.285708487033844
visibility: 0.999819815158844
","x: 197.468994140625
y: 274.92462158203125
z: -0.28573834896087646
visibility: 0.9997913241386414
","x: 190.90463256835938
y: 276.640625
z: -0.2823368012905121
visibility: 0.9998141527175903
","x: 189.77688598632812
y: 277.0916442871094
z: -0.2823631167411804
visibility: 0.9998095631599426
","x: 188.68101501464844
y: 277.5881042480469
z: -0.28240150213241577
visibility: 0.9997804164886475
","x: 200.1895294189453
y: 278.1904296875
z: -0.20228269696235657
visibility: 0.9995545148849487
","x: 187.54312133789062
y: 280.3375244140625
z: -0.18609502911567688
visibility: 0.99956876039505
","x: 196.39064025878906
y: 289.3377685546875
z: -0.2618589997291565
visibility: 0.999901533126831
","x: 191.72003173828125
y: 289.9014587402344
z: -0.2572524845600128
visibility: 0.9998916387557983
","x: 212.94529724121094
y: 321.5314025878906
z: -0.1313200294971466
visibility: 0.9999169707298279
","x: 177.3226318359375
y: 315.251953125
z: -0.11441700160503387
visibility: 0.999950110912323
","x: 215.98690795898438
y: 372.4049377441406
z: -0.09447403252124786
visibility: 0.9777334332466125
","x: 165.88877868652344
y: 364.463134765625
z: -0.07423684000968933
visibility: 0.9321321249008179
","x: 215.46432495117188
y: 420.66815185546875
z: -0.15874889492988586
visibility: 0.9414383172988892
","x: 156.3390655517578
y: 405.46160888671875
z: -0.13803020119667053
visibility: 0.864406943321228
","x: 215.9436492919922
y: 432.04327392578125
z: -0.17745660245418549
visibility: 0.8792199492454529
","x: 154.4246826171875
y: 417.1692199707031
z: -0.1609293520450592
visibility: 0.7880098819732666
","x: 214.2249755859375
y: 431.00274658203125
z: -0.20189723372459412
visibility: 0.8850962519645691
","x: 155.60638427734375
y: 417.1307373046875
z: -0.18749432265758514
visibility: 0.7937935590744019
","x: 213.3733367919922
y: 427.42047119140625
z: -0.16939055919647217
visibility: 0.8660783171653748
","x: 156.90672302246094
y: 414.2052001953125
z: -0.1510922610759735
visibility: 0.7769775986671448
","x: 196.55218505859375
y: 412.7807922363281
z: -0.0019948987755924463
visibility: 0.9998103380203247
","x: 174.42080688476562
y: 407.5366516113281
z: 0.0018962121102958918
visibility: 0.999923586845398
","x: 200.61703491210938
y: 472.1712646484375
z: 0.03602876514196396
visibility: 0.9878842234611511
","x: 167.21861267089844
y: 462.42083740234375
z: -0.05958399176597595
visibility: 0.9969462752342224
","x: 203.75994873046875
y: 524.7694702148438
z: 0.22612497210502625
visibility: 0.9900418519973755
","x: 169.45550537109375
y: 523.3165893554688
z: 0.12859800457954407
visibility: 0.9955810904502869
","x: 200.3765869140625
y: 534.2321166992188
z: 0.23915068805217743
visibility: 0.9197703003883362
","x: 171.9082489013672
y: 531.583251953125
z: 0.13991083204746246
visibility: 0.931313157081604
","x: 210.86074829101562
y: 547.9007568359375
z: 0.1394985020160675
visibility: 0.9836792349815369
","x: 164.56503295898438
y: 546.704833984375
z: 0.03584350273013115
visibility: 0.9920074343681335
",,,,,,,,,,,,,,,,,,,,,,,,,,,,,,,,,,,,,,,,,,
12,"x: 195.78680419921875
y: 282.25909423828125
z: -0.2939484715461731
visibility: 0.9999489784240723
","x: 197.6453399658203
y: 275.0587158203125
z: -0.28361618518829346
visibility: 0.9998006224632263
","x: 198.9037628173828
y: 274.83135986328125
z: -0.2836483120918274
visibility: 0.9998123049736023
","x: 200.05213928222656
y: 274.7655944824219
z: -0.2836775481700897
visibility: 0.9997830390930176
","x: 193.89114379882812
y: 276.35089111328125
z: -0.28090041875839233
visibility: 0.9997993111610413
","x: 192.7130889892578
y: 276.8587646484375
z: -0.28093311190605164
visibility: 0.9997925758361816
","x: 191.6141357421875
y: 277.4460144042969
z: -0.2809753119945526
visibility: 0.9997596144676208
","x: 202.06387329101562
y: 278.2215576171875
z: -0.20090822875499725
visibility: 0.999548614025116
","x: 190.3148651123047
y: 280.0196228027344
z: -0.18643978238105774
visibility: 0.9995405673980713
","x: 198.69944763183594
y: 288.89056396484375
z: -0.26067641377449036
visibility: 0.9999000430107117
","x: 194.06704711914062
y: 289.52984619140625
z: -0.25711727142333984
visibility: 0.9998884201049805
","x: 213.16477966308594
y: 322.7625732421875
z: -0.129917711019516
visibility: 0.9999213814735413
","x: 178.40194702148438
y: 315.033447265625
z: -0.11726584285497665
visibility: 0.9999487996101379
","x: 215.80157470703125
y: 374.1314392089844
z: -0.09479151666164398
visibility: 0.9782789945602417
","x: 166.63568115234375
y: 360.279052734375
z: -0.08790846914052963
visibility: 0.9317361116409302
","x: 214.53648376464844
y: 422.8855895996094
z: -0.16384188830852509
visibility: 0.9430886507034302
","x: 156.58868408203125
y: 401.5153503417969
z: -0.16151472926139832
visibility: 0.8644116520881653
","x: 214.53016662597656
y: 434.91046142578125
z: -0.1836278885602951
visibility: 0.8822628259658813
","x: 154.7154541015625
y: 413.5377502441406
z: -0.18727874755859375
visibility: 0.7875217199325562
","x: 212.85301208496094
y: 433.68310546875
z: -0.2088027000427246
visibility: 0.8881043195724487
","x: 155.84756469726562
y: 413.4018249511719
z: -0.2121763527393341
visibility: 0.7935882210731506
","x: 211.9508056640625
y: 429.4706726074219
z: -0.1748138815164566
visibility: 0.8692799210548401
","x: 157.1150665283203
y: 410.5335693359375
z: -0.17400681972503662
visibility: 0.77630615234375
","x: 195.1280517578125
y: 413.1352233886719
z: -0.0010717316763475537
visibility: 0.9998113512992859
","x: 173.64523315429688
y: 407.5438232421875
z: 0.0009751131874509156
visibility: 0.9999237060546875
","x: 198.60250854492188
y: 472.15594482421875
z: 0.04184732958674431
visibility: 0.9884222745895386
","x: 167.29769897460938
y: 463.7731628417969
z: -0.05627111718058586
visibility: 0.9970601797103882
","x: 203.5576934814453
y: 525.3736572265625
z: 0.23389644920825958
visibility: 0.9904783964157104
","x: 169.28317260742188
y: 525.128173828125
z: 0.118070587515831
visibility: 0.9957247376441956
","x: 200.38223266601562
y: 534.2611083984375
z: 0.24701133370399475
visibility: 0.9198471307754517
","x: 171.72943115234375
y: 533.2203369140625
z: 0.1294552981853485
visibility: 0.9321207404136658
","x: 210.77586364746094
y: 548.1361083984375
z: 0.14399972558021545
visibility: 0.9842336177825928
","x: 164.56443786621094
y: 547.3399658203125
z: 0.01944011077284813
visibility: 0.9922371506690979
",,,,,,,,,,,,,,,,,,,,,,,,,,,,,,,,,,,,,,,,,,
13,"x: 198.59751892089844
y: 282.22760009765625
z: -0.293030709028244
visibility: 0.9999464750289917
","x: 200.48423767089844
y: 274.86810302734375
z: -0.2798120677471161
visibility: 0.9997857809066772
","x: 201.55426025390625
y: 274.7269287109375
z: -0.2798628509044647
visibility: 0.9998002648353577
","x: 202.48011779785156
y: 274.7494812011719
z: -0.2799099087715149
visibility: 0.9997687339782715
","x: 196.81063842773438
y: 276.1304016113281
z: -0.27966660261154175
visibility: 0.9997818470001221
","x: 195.45761108398438
y: 276.3560791015625
z: -0.279702365398407
visibility: 0.9997767210006714
","x: 194.24830627441406
y: 276.648681640625
z: -0.27974241971969604
visibility: 0.9997421503067017
","x: 203.8511199951172
y: 278.2361145019531
z: -0.1863994598388672
visibility: 0.9995135068893433
","x: 192.23655700683594
y: 279.1461486816406
z: -0.18968763947486877
visibility: 0.9995219111442566
","x: 200.7392120361328
y: 288.61572265625
z: -0.25790107250213623
visibility: 0.9998937249183655
","x: 196.15264892578125
y: 289.12615966796875
z: -0.25674548745155334
visibility: 0.9998839497566223
","x: 212.5573272705078
y: 323.6500549316406
z: -0.11593691259622574
visibility: 0.9999192357063293
","x: 178.45559692382812
y: 313.923583984375
z: -0.12670549750328064
visibility: 0.9999452829360962
","x: 215.1360626220703
y: 375.3558654785156
z: -0.08541994541883469
visibility: 0.976471483707428
","x: 167.9635467529297
y: 360.16351318359375
z: -0.10489876568317413
visibility: 0.9317269921302795
","x: 211.8256072998047
y: 422.6706237792969
z: -0.15474146604537964
visibility: 0.9385237693786621
","x: 157.44662475585938
y: 400.4244689941406
z: -0.17875584959983826
visibility: 0.8637012243270874
","x: 211.11524963378906
y: 435.7137756347656
z: -0.1731099635362625
visibility: 0.8748673796653748
","x: 156.09774780273438
y: 412.0870361328125
z: -0.20636287331581116
visibility: 0.7867360711097717
","x: 209.474609375
y: 434.947021484375
z: -0.19727763533592224
visibility: 0.880974531173706
","x: 156.79710388183594
y: 411.9292907714844
z: -0.22860559821128845
visibility: 0.793222963809967
","x: 208.84239196777344
y: 430.1634521484375
z: -0.16573669016361237
visibility: 0.861362099647522
","x: 157.66786193847656
y: 408.7269287109375
z: -0.18999609351158142
visibility: 0.7754660248756409
","x: 194.74456787109375
y: 412.2501220703125
z: 0.000890870753210038
visibility: 0.9997951984405518
","x: 173.30096435546875
y: 405.1709289550781
z: -0.000962688704021275
visibility: 0.9999216794967651
","x: 196.6792755126953
y: 469.7284240722656
z: 0.02679290995001793
visibility: 0.9887199997901917
","x: 167.3757781982422
y: 459.11517333984375
z: -0.12677420675754547
visibility: 0.9970517754554749
","x: 203.5260009765625
y: 525.971435546875
z: 0.19746482372283936
visibility: 0.9907130002975464
","x: 169.25807189941406
y: 525.03173828125
z: 0.023328155279159546
visibility: 0.9957960247993469
","x: 200.9918212890625
y: 535.2015380859375
z: 0.2078452855348587
visibility: 0.9159791469573975
","x: 171.7494354248047
y: 533.1409912109375
z: 0.032106902450323105
visibility: 0.9314026236534119
","x: 210.61624145507812
y: 548.1317749023438
z: 0.10277624428272247
visibility: 0.9842320084571838
","x: 164.12570190429688
y: 547.3139038085938
z: -0.08454270660877228
visibility: 0.9923980236053467
",,,,,,,,,,,,,,,,,,,,,,,,,,,,,,,,,,,,,,,,,,
14,"x: 196.94667053222656
y: 281.99176025390625
z: -0.2900466322898865
visibility: 0.9999167323112488
","x: 199.26319885253906
y: 274.7298278808594
z: -0.27491334080696106
visibility: 0.9996378421783447
","x: 200.48146057128906
y: 274.635009765625
z: -0.2749646306037903
visibility: 0.9996705055236816
","x: 201.62246704101562
y: 274.77557373046875
z: -0.27501749992370605
visibility: 0.9996287226676941
","x: 195.76260375976562
y: 275.6383972167969
z: -0.2758791148662567
visibility: 0.9996357560157776
","x: 194.61044311523438
y: 275.6072998046875
z: -0.2759067416191101
visibility: 0.9996275901794434
","x: 193.54290771484375
y: 275.60784912109375
z: -0.27596360445022583
visibility: 0.9995865821838379
","x: 203.15176391601562
y: 278.3663330078125
z: -0.18366649746894836
visibility: 0.9992298483848572
","x: 192.10906982421875
y: 278.2073059082031
z: -0.18713781237602234
visibility: 0.9992193579673767
","x: 199.3444061279297
y: 288.52642822265625
z: -0.25487029552459717
visibility: 0.9998446702957153
","x: 194.45773315429688
y: 288.197265625
z: -0.25556710362434387
visibility: 0.9998361468315125
","x: 211.82684326171875
y: 323.20556640625
z: -0.11870254576206207
visibility: 0.9999076128005981
","x: 177.8843536376953
y: 314.29638671875
z: -0.1239805594086647
visibility: 0.9999344944953918
","x: 212.74488830566406
y: 374.6826477050781
z: -0.0876556858420372
visibility: 0.9735733270645142
","x: 167.70741271972656
y: 360.4002685546875
z: -0.09603940695524216
visibility: 0.9258391857147217
","x: 209.87937927246094
y: 422.130615234375
z: -0.1544310748577118
visibility: 0.9239856600761414
","x: 158.2362060546875
y: 400.9990234375
z: -0.15830838680267334
visibility: 0.8519881963729858
","x: 208.45669555664062
y: 435.4934997558594
z: -0.17278893291950226
visibility: 0.8553527593612671
","x: 157.09486389160156
y: 412.74169921875
z: -0.18398705124855042
visibility: 0.7735621929168701
","x: 206.86500549316406
y: 434.1915283203125
z: -0.19646719098091125
visibility: 0.8617244362831116
","x: 157.90037536621094
y: 412.32135009765625
z: -0.20746386051177979
visibility: 0.780663013458252
","x: 206.3421630859375
y: 429.483642578125
z: -0.16552406549453735
visibility: 0.840783953666687
","x: 158.7897186279297
y: 409.05401611328125
z: -0.16987913846969604
visibility: 0.7623733282089233
","x: 193.7801055908203
y: 412.2008972167969
z: 0.0005193295073695481
visibility: 0.999769389629364
","x: 172.05995178222656
y: 405.305419921875
z: -0.0005833384348079562
visibility: 0.9999136328697205
","x: 196.32522583007812
y: 469.021240234375
z: 0.010220288299024105
visibility: 0.9889532327651978
","x: 167.5718536376953
y: 459.24114990234375
z: -0.1003938540816307
visibility: 0.9969397783279419
","x: 203.51992797851562
y: 525.9771118164062
z: 0.19359423220157623
visibility: 0.9908813834190369
","x: 169.487548828125
y: 524.98486328125
z: 0.06839970499277115
visibility: 0.9957619309425354
","x: 201.3899688720703
y: 535.1915283203125
z: 0.20545995235443115
visibility: 0.9105586409568787
","x: 172.53382873535156
y: 533.0792236328125
z: 0.0790608674287796
visibility: 0.9308432936668396
","x: 210.01284790039062
y: 548.1368408203125
z: 0.09856514632701874
visibility: 0.984338641166687
","x: 163.6671905517578
y: 547.29345703125
z: -0.03329874947667122
visibility: 0.9923813939094543
",,,,,,,,,,,,,,,,,,,,,,,,,,,,,,,,,,,,,,,,,,
15,"x: 196.475341796875
y: 281.0131530761719
z: -0.30728068947792053
visibility: 0.9998762011528015
","x: 197.59783935546875
y: 274.6655578613281
z: -0.29570162296295166
visibility: 0.9994694590568542
","x: 198.828857421875
y: 274.5833435058594
z: -0.29575103521347046
visibility: 0.9995182156562805
","x: 200.00900268554688
y: 274.9061279296875
z: -0.29581934213638306
visibility: 0.9994838237762451
","x: 194.04141235351562
y: 274.2498474121094
z: -0.2925102114677429
visibility: 0.9994328618049622
","x: 192.86968994140625
y: 273.7487487792969
z: -0.29253101348876953
visibility: 0.9993948936462402
","x: 191.7939910888672
y: 273.2690734863281
z: -0.2925896942615509
visibility: 0.9993447065353394
","x: 201.8910369873047
y: 278.65740966796875
z: -0.21167834103107452
visibility: 0.9989805817604065
","x: 190.78497314453125
y: 275.3307189941406
z: -0.1957857608795166
visibility: 0.9986466765403748
","x: 197.69442749023438
y: 287.9666748046875
z: -0.2742375135421753
visibility: 0.9998031258583069
","x: 192.60838317871094
y: 286.16229248046875
z: -0.26987892389297485
visibility: 0.9997868537902832
","x: 208.64089965820312
y: 323.0518798828125
z: -0.15674635767936707
visibility: 0.999907374382019
","x: 176.5631561279297
y: 313.3609313964844
z: -0.11930724233388901
visibility: 0.9999247789382935
","x: 210.30612182617188
y: 374.74005126953125
z: -0.1421707421541214
visibility: 0.9728268384933472
","x: 167.59849548339844
y: 360.45550537109375
z: -0.08221270143985748
visibility: 0.909105658531189
","x: 206.63699340820312
y: 421.8136291503906
z: -0.21373383700847626
visibility: 0.9174649119377136
","x: 158.7582550048828
y: 399.58428955078125
z: -0.15965953469276428
visibility: 0.8405898213386536
","x: 205.84605407714844
y: 435.1714782714844
z: -0.23847393691539764
visibility: 0.8476870059967041
","x: 157.3975067138672
y: 412.0325012207031
z: -0.18586429953575134
visibility: 0.7648863196372986
","x: 203.71243286132812
y: 433.6954040527344
z: -0.260736346244812
visibility: 0.853817880153656
","x: 158.18751525878906
y: 411.7702941894531
z: -0.21153616905212402
visibility: 0.7725755572319031
","x: 202.90557861328125
y: 429.0116882324219
z: -0.22338195145130157
visibility: 0.8311154246330261
","x: 159.2389373779297
y: 408.0262451171875
z: -0.17221276462078094
visibility: 0.7535516619682312
","x: 193.29371643066406
y: 412.1468811035156
z: -0.007585898973047733
visibility: 0.9997668266296387
","x: 171.74122619628906
y: 405.38916015625
z: 0.007537458091974258
visibility: 0.999910295009613
","x: 196.0752410888672
y: 471.4930725097656
z: 0.01268122810870409
visibility: 0.9893966913223267
","x: 167.70535278320312
y: 459.77105712890625
z: -0.06426121294498444
visibility: 0.9968575835227966
","x: 203.53573608398438
y: 526.43603515625
z: 0.2155746966600418
visibility: 0.9912125468254089
","x: 169.7384796142578
y: 524.4251098632812
z: 0.1291082501411438
visibility: 0.995826244354248
","x: 202.20858764648438
y: 535.5994262695312
z: 0.2304985225200653
visibility: 0.9066077470779419
","x: 172.94210815429688
y: 532.6795654296875
z: 0.14222949743270874
visibility: 0.9325637817382812
","x: 209.00291442871094
y: 548.1348876953125
z: 0.11879785358905792
visibility: 0.9847486615180969
","x: 163.40188598632812
y: 547.2762451171875
z: 0.03498053550720215
visibility: 0.9925360083580017
",,,,,,,,,,,,,,,,,,,,,,,,,,,,,,,,,,,,,,,,,,
16,"x: 189.78924560546875
y: 279.7071533203125
z: -0.24433891475200653
visibility: 0.9996396899223328
","x: 192.88571166992188
y: 274.011474609375
z: -0.234943225979805
visibility: 0.9984436631202698
","x: 194.31069946289062
y: 274.19427490234375
z: -0.23501034080982208
visibility: 0.9985979199409485
","x: 195.794677734375
y: 274.7074279785156
z: -0.2350573092699051
visibility: 0.9984261989593506
","x: 189.5235137939453
y: 272.9259948730469
z: -0.22811567783355713
visibility: 0.9986076354980469
","x: 188.5721435546875
y: 272.34857177734375
z: -0.22811225056648254
visibility: 0.9983952641487122
","x: 187.6399383544922
y: 271.8399658203125
z: -0.22817054390907288
visibility: 0.9982946515083313
","x: 198.58676147460938
y: 278.51312255859375
z: -0.15992672741413116
visibility: 0.9966105222702026
","x: 187.52377319335938
y: 273.96380615234375
z: -0.1263493001461029
visibility: 0.9965627193450928
","x: 191.3330841064453
y: 286.599853515625
z: -0.21437177062034607
visibility: 0.9992136359214783
","x: 186.84942626953125
y: 284.80645751953125
z: -0.20494548976421356
visibility: 0.9993433952331543
","x: 204.74349975585938
y: 317.1748046875
z: -0.13452944159507751
visibility: 0.9998527765274048
","x: 174.00531005859375
y: 310.8296813964844
z: -0.04273093491792679
visibility: 0.9999077320098877
","x: 200.50657653808594
y: 356.6127014160156
z: -0.177215114235878
visibility: 0.9646492004394531
","x: 165.99317932128906
y: 358.5777587890625
z: 0.0021101986058056355
visibility: 0.8759372234344482
","x: 187.89358520507812
y: 348.5010986328125
z: -0.30561333894729614
visibility: 0.9046007394790649
","x: 159.78073120117188
y: 393.350830078125
z: -0.06968782842159271
visibility: 0.7998610734939575
","x: 184.95562744140625
y: 350.8062438964844
z: -0.3396168351173401
visibility: 0.8343697190284729
","x: 158.5077362060547
y: 407.02801513671875
z: -0.09113319963216782
visibility: 0.7262614965438843
","x: 185.22901916503906
y: 345.68475341796875
z: -0.34834617376327515
visibility: 0.8397608399391174
","x: 159.00238037109375
y: 406.6862487792969
z: -0.11259515583515167
visibility: 0.7342318296432495
","x: 185.79974365234375
y: 344.7972412109375
z: -0.31172680854797363
visibility: 0.8096526265144348
","x: 160.43743896484375
y: 401.8702697753906
z: -0.08057405054569244
visibility: 0.7144541144371033
","x: 192.7604217529297
y: 408.86114501953125
z: -0.012235277332365513
visibility: 0.9997090697288513
","x: 171.05502319335938
y: 404.3369140625
z: 0.012161849066615105
visibility: 0.9999024868011475
","x: 196.13316345214844
y: 469.1361083984375
z: 0.017415013164281845
visibility: 0.9891294836997986
","x: 167.7554168701172
y: 458.72503662109375
z: -0.08207021653652191
visibility: 0.996738612651825
","x: 203.53207397460938
y: 526.41650390625
z: 0.20089209079742432
visibility: 0.990938127040863
","x: 169.98291015625
y: 523.4134521484375
z: 0.06644703447818756
visibility: 0.9957010746002197
","x: 202.32522583007812
y: 535.5770263671875
z: 0.2133791446685791
visibility: 0.8960545659065247
","x: 173.16629028320312
y: 531.9415893554688
z: 0.07547225058078766
visibility: 0.9309247732162476
","x: 209.09817504882812
y: 548.0875854492188
z: 0.10465468466281891
visibility: 0.9841884970664978
","x: 163.39247131347656
y: 547.1575317382812
z: -0.03513762727379799
visibility: 0.9924442172050476
",,,,,,,,,,,,,,,,,,,,,,,,,,,,,,,,,,,,,,,,,,
17,"x: 175.7828369140625
y: 281.7366943359375
z: -0.22013302147388458
visibility: 0.9996665120124817
","x: 177.43536376953125
y: 274.71759033203125
z: -0.21735194325447083
visibility: 0.9985744953155518
","x: 178.9204864501953
y: 274.37847900390625
z: -0.21740004420280457
visibility: 0.9987170696258545
","x: 180.39170837402344
y: 274.6399230957031
z: -0.21741756796836853
visibility: 0.9985564351081848
","x: 173.91697692871094
y: 275.2724609375
z: -0.20279380679130554
visibility: 0.9987152218818665
","x: 172.9609375
y: 275.1892395019531
z: -0.20278187096118927
visibility: 0.9985111951828003
","x: 172.049072265625
y: 275.14947509765625
z: -0.20280452072620392
visibility: 0.9984074234962463
","x: 184.00303649902344
y: 275.79412841796875
z: -0.16352522373199463
visibility: 0.9969190359115601
","x: 174.0901336669922
y: 274.7435607910156
z: -0.0954723060131073
visibility: 0.9968703389167786
","x: 179.56675720214844
y: 286.8474426269531
z: -0.19839537143707275
visibility: 0.9992808103561401
","x: 174.97705078125
y: 287.4017333984375
z: -0.17854401469230652
visibility: 0.9993899464607239
","x: 201.38148498535156
y: 308.67669677734375
z: -0.1351490318775177
visibility: 0.9998648762702942
","x: 169.76048278808594
y: 311.0912780761719
z: -0.018780091777443886
visibility: 0.9999076724052429
","x: 199.45285034179688
y: 296.0855407714844
z: -0.2416936606168747
visibility: 0.9673159122467041
","x: 161.51809692382812
y: 356.15582275390625
z: 0.08175502717494965
visibility: 0.8314565420150757
","x: 182.75906372070312
y: 256.0641174316406
z: -0.3357427716255188
visibility: 0.9113897681236267
","x: 158.34947204589844
y: 394.4770812988281
z: 0.0969570130109787
visibility: 0.7520376443862915
","x: 177.15550231933594
y: 254.28317260742188
z: -0.37069249153137207
visibility: 0.8425498008728027
","x: 155.6749725341797
y: 408.4478759765625
z: 0.0934390276670456
visibility: 0.6786114573478699
","x: 176.39443969726562
y: 252.91934204101562
z: -0.3662038743495941
visibility: 0.846644401550293
","x: 156.04591369628906
y: 408.0186767578125
z: 0.06855584681034088
visibility: 0.6866076588630676
","x: 177.8643341064453
y: 254.87664794921875
z: -0.33769160509109497
visibility: 0.8143593668937683
","x: 158.64756774902344
y: 403.2836608886719
z: 0.08608993887901306
visibility: 0.6703046560287476
","x: 192.68284606933594
y: 408.51513671875
z: -0.015812385827302933
visibility: 0.9997321963310242
","x: 170.76268005371094
y: 404.98974609375
z: 0.01579405553638935
visibility: 0.9999077320098877
","x: 196.31683349609375
y: 469.1095275878906
z: 0.03569161891937256
visibility: 0.989698052406311
","x: 168.69143676757812
y: 467.46160888671875
z: 0.02585873007774353
visibility: 0.9967606663703918
","x: 203.5406494140625
y: 526.7161865234375
z: 0.22329315543174744
visibility: 0.9910231232643127
","x: 169.98001098632812
y: 523.3751831054688
z: 0.20162291824817657
visibility: 0.9957038164138794
","x: 202.1991729736328
y: 535.743408203125
z: 0.23771214485168457
visibility: 0.8979551196098328
","x: 173.14968872070312
y: 531.7167358398438
z: 0.21514153480529785
visibility: 0.9333650469779968
","x: 209.1082763671875
y: 548.3539428710938
z: 0.1357617825269699
visibility: 0.984416663646698
","x: 163.21127319335938
y: 547.1397705078125
z: 0.116061270236969
visibility: 0.9925271272659302
",,,,,,,,,,,,,,,,,,,,,,,,,,,,,,,,,,,,,,,,,,
18,"x: 163.8965301513672
y: 288.398193359375
z: -0.24558964371681213
visibility: 0.9996511936187744
","x: 164.56883239746094
y: 281.7001953125
z: -0.22331514954566956
visibility: 0.9985668063163757
","x: 165.75552368164062
y: 280.6759338378906
z: -0.22357909381389618
visibility: 0.9987138509750366
","x: 167.06007385253906
y: 279.7999267578125
z: -0.22345061600208282
visibility: 0.9985320568084717
","x: 162.26954650878906
y: 282.5106201171875
z: -0.2331736832857132
visibility: 0.9986404180526733
","x: 161.85049438476562
y: 282.1658630371094
z: -0.23318521678447723
visibility: 0.9984574317932129
","x: 161.50234985351562
y: 281.7635803222656
z: -0.2332153618335724
visibility: 0.9983171224594116
","x: 171.697998046875
y: 276.53741455078125
z: -0.2335020750761032
visibility: 0.997050940990448
","x: 164.14407348632812
y: 278.14715576171875
z: -0.1305493265390396
visibility: 0.9968635439872742
","x: 168.1747283935547
y: 291.34576416015625
z: -0.2160061150789261
visibility: 0.9992966651916504
","x: 165.15744018554688
y: 291.9069519042969
z: -0.2069002389907837
visibility: 0.9993316531181335
","x: 197.63156127929688
y: 304.500244140625
z: -0.15266376733779907
visibility: 0.9998680949211121
","x: 165.93692016601562
y: 310.22821044921875
z: -0.03926991671323776
visibility: 0.9999035596847534
","x: 202.147216796875
y: 320.3818054199219
z: -0.10715351998806
visibility: 0.9644182324409485
","x: 160.83139038085938
y: 355.7757568359375
z: -0.00020649605721700937
visibility: 0.8127434253692627
","x: 201.37852478027344
y: 361.18426513671875
z: -0.10600556433200836
visibility: 0.8855403065681458
","x: 159.6278839111328
y: 394.8379211425781
z: -0.04561346396803856
visibility: 0.7174665927886963
","x: 199.93919372558594
y: 376.8566589355469
z: -0.11655716598033905
visibility: 0.8045340180397034
","x: 157.93212890625
y: 409.2890930175781
z: -0.06464958935976028
visibility: 0.6409038305282593
","x: 197.8109893798828
y: 375.8570556640625
z: -0.13804122805595398
visibility: 0.8099570274353027
","x: 158.48252868652344
y: 408.8604736328125
z: -0.08903906494379044
visibility: 0.6491982936859131
","x: 196.3447265625
y: 369.81732177734375
z: -0.11355594545602798
visibility: 0.7775753736495972
","x: 159.75926208496094
y: 404.1789245605469
z: -0.057077474892139435
visibility: 0.6336650252342224
","x: 192.61318969726562
y: 407.34112548828125
z: -0.01313596498221159
visibility: 0.9997027516365051
","x: 170.95262145996094
y: 404.4972229003906
z: 0.013099117204546928
visibility: 0.9998728632926941
","x: 197.08364868164062
y: 467.6283264160156
z: 0.023579562082886696
visibility: 0.9893581867218018
","x: 169.89695739746094
y: 468.2266845703125
z: 0.05458812788128853
visibility: 0.9964510798454285
","x: 203.55247497558594
y: 526.66015625
z: 0.17872634530067444
visibility: 0.9905226826667786
","x: 169.61753845214844
y: 523.4549560546875
z: 0.23364710807800293
visibility: 0.9954008460044861
","x: 201.0410614013672
y: 536.1987915039062
z: 0.18910625576972961
visibility: 0.8999254703521729
","x: 172.27215576171875
y: 531.7114868164062
z: 0.24746675789356232
visibility: 0.9316849112510681
","x: 209.96800231933594
y: 548.5535278320312
z: 0.09014445543289185
visibility: 0.9839153289794922
","x: 163.4678192138672
y: 547.1656494140625
z: 0.1556815207004547
visibility: 0.9921382069587708
",,,,,,,,,,,,,,,,,,,,,,,,,,,,,,,,,,,,,,,,,,
19,"x: 157.8235321044922
y: 293.20098876953125
z: -0.18431521952152252
visibility: 0.999552845954895
","x: 157.8159942626953
y: 286.8412170410156
z: -0.19986668229103088
visibility: 0.9984561204910278
","x: 158.70274353027344
y: 285.8319091796875
z: -0.1999158263206482
visibility: 0.998627245426178
","x: 159.64816284179688
y: 284.7832946777344
z: -0.199981689453125
visibility: 0.998431384563446
","x: 156.36671447753906
y: 287.77178955078125
z: -0.17823532223701477
visibility: 0.9983431696891785
","x: 156.19967651367188
y: 287.5109558105469
z: -0.1782340258359909
visibility: 0.9981553554534912
","x: 156.0843963623047
y: 287.1923828125
z: -0.1782478392124176
visibility: 0.9978945851325989
","x: 164.71376037597656
y: 279.5208435058594
z: -0.21912714838981628
visibility: 0.997130811214447
","x: 160.045166015625
y: 282.20355224609375
z: -0.11230915784835815
visibility: 0.9966709017753601
","x: 161.95753479003906
y: 295.4034423828125
z: -0.18498793244361877
visibility: 0.9992516040802002
","x: 159.93634033203125
y: 295.93896484375
z: -0.15507055819034576
visibility: 0.9991027116775513
","x: 193.28353881835938
y: 300.46527099609375
z: -0.1679353564977646
visibility: 0.9998675584793091
","x: 165.73895263671875
y: 307.50909423828125
z: -0.046003006398677826
visibility: 0.9998723864555359
","x: 203.75808715820312
y: 329.81982421875
z: -0.11698402464389801
visibility: 0.9632803797721863
","x: 156.09149169921875
y: 338.76385498046875
z: 0.06504923105239868
visibility: 0.7646859884262085
","x: 203.78961181640625
y: 383.9149169921875
z: -0.09431669861078262
visibility: 0.8693268299102783
","x: 144.12417602539062
y: 353.2629089355469
z: 0.10635624080896378
visibility: 0.6655228734016418
","x: 203.22427368164062
y: 396.53057861328125
z: -0.1007547602057457
visibility: 0.7795186638832092
","x: 140.7802734375
y: 356.9250793457031
z: 0.11110658943653107
visibility: 0.5932005047798157
","x: 201.03323364257812
y: 395.2410583496094
z: -0.11999069154262543
visibility: 0.7862849831581116
","x: 139.95669555664062
y: 355.17803955078125
z: 0.08645135164260864
visibility: 0.6021184325218201
","x: 199.58079528808594
y: 391.9659729003906
z: -0.10002551972866058
visibility: 0.7531335949897766
","x: 141.59228515625
y: 354.2685546875
z: 0.09566472470760345
visibility: 0.5892950296401978
","x: 192.31124877929688
y: 406.926513671875
z: -0.019542591646313667
visibility: 0.9996569156646729
","x: 171.0895538330078
y: 404.0450744628906
z: 0.019591212272644043
visibility: 0.9998171329498291
","x: 197.53895568847656
y: 467.4796142578125
z: 0.025273282080888748
visibility: 0.9893810749053955
","x: 170.689697265625
y: 468.6877746582031
z: 0.09088592976331711
visibility: 0.9960576295852661
","x: 203.61080932617188
y: 526.0257568359375
z: 0.17857258021831512
visibility: 0.9903694987297058
","x: 169.54751586914062
y: 523.3660888671875
z: 0.26670321822166443
visibility: 0.9951626062393188
","x: 200.890380859375
y: 536.0213012695312
z: 0.18894626200199127
visibility: 0.9045346975326538
","x: 172.1321563720703
y: 531.5929565429688
z: 0.2797659635543823
visibility: 0.9321333169937134
","x: 210.41282653808594
y: 548.5489501953125
z: 0.10189787298440933
visibility: 0.9840079545974731
","x: 163.47393798828125
y: 547.0100708007812
z: 0.20227214694023132
visibility: 0.9917325973510742
",,,,,,,,,,,,,,,,,,,,,,,,,,,,,,,,,,,,,,,,,,
20,"x: 155.2884521484375
y: 297.08441162109375
z: -0.22062401473522186
visibility: 0.9987682104110718
","x: 155.84567260742188
y: 289.907470703125
z: -0.22140517830848694
visibility: 0.9965785145759583
","x: 156.97412109375
y: 288.64093017578125
z: -0.22161002457141876
visibility: 0.9969479441642761
","x: 158.08984375
y: 287.3400573730469
z: -0.22167567908763885
visibility: 0.9958709478378296
","x: 154.0915069580078
y: 291.2751159667969
z: -0.21302953362464905
visibility: 0.9964258074760437
","x: 153.90115356445312
y: 291.15362548828125
z: -0.21305327117443085
visibility: 0.9966156482696533
","x: 153.7355499267578
y: 290.92901611328125
z: -0.2130851000547409
visibility: 0.9960415959358215
","x: 162.82850646972656
y: 282.6330261230469
z: -0.24927417933940887
visibility: 0.9953609704971313
","x: 157.0255889892578
y: 286.7586669921875
z: -0.13943727314472198
visibility: 0.9951444864273071
","x: 159.92835998535156
y: 299.6361999511719
z: -0.20377251505851746
visibility: 0.9977617263793945
","x: 157.6475830078125
y: 300.66558837890625
z: -0.1886776238679886
visibility: 0.9971624612808228
","x: 188.71795654296875
y: 300.6593017578125
z: -0.18631964921951294
visibility: 0.9995697736740112
","x: 160.99740600585938
y: 307.73907470703125
z: -0.10837610810995102
visibility: 0.9998029470443726
","x: 203.3705291748047
y: 340.96929931640625
z: -0.1554599404335022
visibility: 0.942893922328949
","x: 147.34532165527344
y: 334.2802429199219
z: -0.1716642677783966
visibility: 0.7693547010421753
","x: 203.41021728515625
y: 383.4464111328125
z: -0.13916248083114624
visibility: 0.8120521306991577
","x: 152.631103515625
y: 329.0474853515625
z: -0.30337339639663696
visibility: 0.6480911374092102
","x: 203.31724548339844
y: 396.0124206542969
z: -0.1453554779291153
visibility: 0.7216740846633911
","x: 158.7522735595703
y: 329.1995849609375
z: -0.3252674341201782
visibility: 0.5674728155136108
","x: 202.06690979003906
y: 395.1803894042969
z: -0.16117076575756073
visibility: 0.7285156846046448
","x: 160.19259643554688
y: 323.5526123046875
z: -0.32176473736763
visibility: 0.5742520093917847
","x: 200.5266571044922
y: 390.9676513671875
z: -0.14370544254779816
visibility: 0.6970074772834778
","x: 158.7886962890625
y: 324.0145263671875
z: -0.30588871240615845
visibility: 0.5604035258293152
","x: 192.4034423828125
y: 403.8988952636719
z: -0.01710001938045025
visibility: 0.9992331862449646
","x: 171.18295288085938
y: 402.9356689453125
z: 0.01715020090341568
visibility: 0.9996954202651978
","x: 198.18524169921875
y: 467.6260681152344
z: 0.033970944583415985
visibility: 0.988532543182373
","x: 171.53099060058594
y: 468.1481628417969
z: 0.0625632256269455
visibility: 0.9955653548240662
","x: 203.60366821289062
y: 525.9267578125
z: 0.160873144865036
visibility: 0.9888024926185608
","x: 169.2868194580078
y: 523.3853759765625
z: 0.21072959899902344
visibility: 0.9943591356277466
","x: 200.88589477539062
y: 535.864013671875
z: 0.16767580807209015
visibility: 0.9012858271598816
","x: 171.58816528320312
y: 531.6119995117188
z: 0.22158046066761017
visibility: 0.9259187579154968
","x: 210.4211883544922
y: 548.4996337890625
z: 0.08052554726600647
visibility: 0.9813845157623291
","x: 163.5381622314453
y: 547.1434936523438
z: 0.14015115797519684
visibility: 0.9900761246681213
",,,,,,,,,,,,,,,,,,,,,,,,,,,,,,,,,,,,,,,,,,
21,"x: 153.89479064941406
y: 300.6509704589844
z: -0.26134803891181946
visibility: 0.9987384676933289
","x: 154.92527770996094
y: 293.22259521484375
z: -0.2721903324127197
visibility: 0.9965206980705261
","x: 156.11483764648438
y: 291.88983154296875
z: -0.2721751928329468
visibility: 0.9969071745872498
","x: 157.32992553710938
y: 290.4864196777344
z: -0.27222293615341187
visibility: 0.9957531690597534
","x: 152.50894165039062
y: 294.60400390625
z: -0.2562783360481262
visibility: 0.9963293075561523
","x: 151.9713592529297
y: 294.4589538574219
z: -0.25634437799453735
visibility: 0.9965811967849731
","x: 151.45785522460938
y: 294.2081298828125
z: -0.25636208057403564
visibility: 0.9959155917167664
","x: 161.14999389648438
y: 286.6968078613281
z: -0.2545008957386017
visibility: 0.9954569935798645
","x: 153.54754638671875
y: 291.19769287109375
z: -0.1755686104297638
visibility: 0.9950048327445984
","x: 157.90904235839844
y: 303.5059509277344
z: -0.24718663096427917
visibility: 0.9976460337638855
","x: 154.96066284179688
y: 305.00848388671875
z: -0.2255878746509552
visibility: 0.996745228767395
","x: 183.9730682373047
y: 300.2470703125
z: -0.17050950229167938
visibility: 0.9994993805885315
","x: 157.64588928222656
y: 312.69818115234375
z: -0.12179379165172577
visibility: 0.9997203946113586
","x: 202.9412078857422
y: 341.4187927246094
z: -0.1205412894487381
visibility: 0.9340091347694397
","x: 146.51651000976562
y: 340.18304443359375
z: -0.18050073087215424
visibility: 0.77229905128479
","x: 204.89300537109375
y: 379.7767639160156
z: -0.1026231050491333
visibility: 0.7706599235534668
","x: 153.32568359375
y: 319.182861328125
z: -0.3203943967819214
visibility: 0.6397372484207153
","x: 207.3661651611328
y: 389.0802001953125
z: -0.10032149404287338
visibility: 0.6735602617263794
","x: 158.416259765625
y: 313.8681945800781
z: -0.3444274961948395
visibility: 0.5492209196090698
","x: 205.5242462158203
y: 389.7203369140625
z: -0.1218588799238205
visibility: 0.6816800832748413
","x: 159.20156860351562
y: 308.6931457519531
z: -0.34274008870124817
visibility: 0.5533768534660339
","x: 203.1338653564453
y: 387.9211120605469
z: -0.10868348181247711
visibility: 0.6527009010314941
","x: 158.52288818359375
y: 310.5932312011719
z: -0.323757141828537
visibility: 0.5374003052711487
","x: 192.44662475585938
y: 402.0306091308594
z: -0.015535390004515648
visibility: 0.9991350769996643
","x: 171.93301391601562
y: 402.5674743652344
z: 0.015596693381667137
visibility: 0.9996396899223328
","x: 199.664794921875
y: 465.9602355957031
z: 0.022858422249555588
visibility: 0.98771733045578
","x: 173.243896484375
y: 468.0624084472656
z: 0.04872123524546623
visibility: 0.994978129863739
","x: 204.0227508544922
y: 525.4813842773438
z: 0.13387885689735413
visibility: 0.9877821207046509
","x: 169.33538818359375
y: 523.44677734375
z: 0.19875171780586243
visibility: 0.99370276927948
","x: 201.07809448242188
y: 535.84033203125
z: 0.13880324363708496
visibility: 0.9005263447761536
","x: 171.60369873046875
y: 531.6083374023438
z: 0.20886290073394775
visibility: 0.9215153455734253
","x: 210.76693725585938
y: 548.4150390625
z: 0.036689989268779755
visibility: 0.9799807667732239
","x: 164.03338623046875
y: 546.5701904296875
z: 0.11737297475337982
visibility: 0.9890683889389038
",,,,,,,,,,,,,,,,,,,,,,,,,,,,,,,,,,,,,,,,,,
22,"x: 152.2636260986328
y: 303.3631286621094
z: -0.26491931080818176
visibility: 0.9988284111022949
","x: 152.9447021484375
y: 294.9257507324219
z: -0.27120670676231384
visibility: 0.9967878460884094
","x: 153.8720245361328
y: 293.57989501953125
z: -0.2711833119392395
visibility: 0.9971423149108887
","x: 154.81448364257812
y: 292.088623046875
z: -0.2712083160877228
visibility: 0.9960857033729553
","x: 150.57070922851562
y: 297.0129699707031
z: -0.25610584020614624
visibility: 0.9965878129005432
","x: 149.88111877441406
y: 297.09356689453125
z: -0.25615888833999634
visibility: 0.9968211054801941
","x: 149.20748901367188
y: 297.0483703613281
z: -0.2561730742454529
visibility: 0.9961731433868408
","x: 158.06292724609375
y: 288.1615905761719
z: -0.23548397421836853
visibility: 0.9958417415618896
","x: 151.779296875
y: 293.9230041503906
z: -0.1677739918231964
visibility: 0.9952390789985657
","x: 156.24169921875
y: 305.5995788574219
z: -0.24649874866008759
visibility: 0.9978328943252563
","x: 153.136474609375
y: 308.40625
z: -0.2264985293149948
visibility: 0.9969191551208496
","x: 180.03656005859375
y: 302.1539306640625
z: -0.1682892143726349
visibility: 0.9995274543762207
","x: 155.47280883789062
y: 323.8160400390625
z: -0.11990447342395782
visibility: 0.9996199607849121
","x: 199.19314575195312
y: 342.441162109375
z: -0.10617312043905258
visibility: 0.9351580142974854
","x: 150.4435577392578
y: 346.2627868652344
z: -0.16373991966247559
visibility: 0.7634614706039429
","x: 208.42396545410156
y: 381.5284423828125
z: -0.09642446786165237
visibility: 0.7734279632568359
","x: 153.3579559326172
y: 323.88726806640625
z: -0.3438342213630676
visibility: 0.6389765739440918
","x: 212.07530212402344
y: 389.19549560546875
z: -0.0966435968875885
visibility: 0.6707886457443237
","x: 157.18197631835938
y: 316.8831481933594
z: -0.37300291657447815
visibility: 0.5456686019897461
","x: 210.31723022460938
y: 391.8025207519531
z: -0.1173592358827591
visibility: 0.6799854040145874
","x: 156.1911163330078
y: 312.8817443847656
z: -0.37497952580451965
visibility: 0.5472387671470642
","x: 207.82302856445312
y: 389.7803955078125
z: -0.10194151103496552
visibility: 0.6502813100814819
","x: 156.50604248046875
y: 314.9593200683594
z: -0.35040679574012756
visibility: 0.5283406376838684
","x: 193.52037048339844
y: 404.1775207519531
z: -0.014396419748663902
visibility: 0.9992018342018127
","x: 173.69122314453125
y: 409.4201354980469
z: 0.014423233456909657
visibility: 0.9996479153633118
","x: 200.5101318359375
y: 466.81036376953125
z: 0.025636624544858932
visibility: 0.9880968928337097
","x: 174.3260498046875
y: 467.7815246582031
z: 0.08617780357599258
visibility: 0.9947839379310608
","x: 204.13563537597656
y: 525.5643920898438
z: 0.1614624261856079
visibility: 0.9882245659828186
","x: 169.12838745117188
y: 523.545166015625
z: 0.2757624685764313
visibility: 0.9934067130088806
","x: 201.23854064941406
y: 535.8214721679688
z: 0.16975028812885284
visibility: 0.9046040773391724
","x: 171.1376495361328
y: 531.5918579101562
z: 0.29075518250465393
visibility: 0.9197957515716553
","x: 210.76254272460938
y: 548.1248779296875
z: 0.06871174275875092
visibility: 0.9807352423667908
","x: 164.0319061279297
y: 546.4989013671875
z: 0.2061651647090912
visibility: 0.988820493221283
",,,,,,,,,,,,,,,,,,,,,,,,,,,,,,,,,,,,,,,,,,
23,"x: 150.3851776123047
y: 306.4689025878906
z: -0.32608357071876526
visibility: 0.9989407062530518
","x: 152.08334350585938
y: 297.8931884765625
z: -0.32675182819366455
visibility: 0.9970993995666504
","x: 153.3797149658203
y: 296.62921142578125
z: -0.32672035694122314
visibility: 0.9974191784858704
","x: 154.70716857910156
y: 295.2904357910156
z: -0.32674628496170044
visibility: 0.9964670538902283
","x: 148.88255310058594
y: 299.5375671386719
z: -0.3141208291053772
visibility: 0.9969103336334229
","x: 147.94676208496094
y: 299.4508056640625
z: -0.31414228677749634
visibility: 0.9971166849136353
","x: 146.99661254882812
y: 299.2657165527344
z: -0.3141213357448578
visibility: 0.9965226650238037
","x: 157.91294860839844
y: 291.8984375
z: -0.2694055140018463
visibility: 0.9962455034255981
","x: 148.53968811035156
y: 296.4889221191406
z: -0.2125689685344696
visibility: 0.9956719279289246
","x: 154.17526245117188
y: 308.772705078125
z: -0.30042561888694763
visibility: 0.9980415105819702
","x: 149.93582153320312
y: 310.90625
z: -0.28381145000457764
visibility: 0.9971979856491089
","x: 176.4510040283203
y: 306.97283935546875
z: -0.1936592161655426
visibility: 0.9995729327201843
","x: 152.5638885498047
y: 325.1723937988281
z: -0.1129513531923294
visibility: 0.9995841979980469
","x: 195.09617614746094
y: 347.35333251953125
z: -0.14156918227672577
visibility: 0.9407456517219543
","x: 144.27468872070312
y: 338.6538391113281
z: 0.021052520722150803
visibility: 0.7664836049079895
","x: 210.9003448486328
y: 382.02557373046875
z: -0.16806751489639282
visibility: 0.7941024899482727
","x: 137.68624877929688
y: 316.5721435546875
z: 0.09275124967098236
visibility: 0.6524733901023865
","x: 216.01744079589844
y: 389.4375915527344
z: -0.1723436415195465
visibility: 0.6979186534881592
","x: 137.12271118164062
y: 311.9268493652344
z: 0.1014951840043068
visibility: 0.5536772608757019
","x: 215.20130920410156
y: 391.7517395019531
z: -0.20284147560596466
visibility: 0.7069634199142456
","x: 135.49307250976562
y: 310.91314697265625
z: 0.08232390880584717
visibility: 0.5561892986297607
","x: 212.86659240722656
y: 389.6802062988281
z: -0.1787908971309662
visibility: 0.6788878440856934
","x: 136.30845642089844
y: 312.83502197265625
z: 0.08621685206890106
visibility: 0.5394153594970703
","x: 193.7176513671875
y: 404.532470703125
z: -0.02001413144171238
visibility: 0.9992768168449402
","x: 174.4961700439453
y: 411.0700988769531
z: 0.020043812692165375
visibility: 0.9996702671051025
","x: 200.87745666503906
y: 467.298583984375
z: -0.0014827734557911754
visibility: 0.9888502955436707
","x: 176.06394958496094
y: 467.67388916015625
z: 0.13960452377796173
visibility: 0.9942926168441772
","x: 204.23367309570312
y: 525.73388671875
z: 0.13538850843906403
visibility: 0.9890167713165283
","x: 169.1258544921875
y: 523.5111083984375
z: 0.37352320551872253
visibility: 0.992913007736206
","x: 201.70420837402344
y: 536.4215698242188
z: 0.14437660574913025
visibility: 0.9111154675483704
","x: 171.15716552734375
y: 531.4545288085938
z: 0.392525851726532
visibility: 0.9193050861358643
","x: 210.75962829589844
y: 548.1239013671875
z: 0.0419892854988575
visibility: 0.9820683002471924
","x: 163.43260192871094
y: 546.521240234375
z: 0.31522616744041443
visibility: 0.9886278510093689
",,,,,,,,,,,,,,,,,,,,,,,,,,,,,,,,,,,,,,,,,,
24,"x: 146.97276306152344
y: 303.4432678222656
z: -0.3184010982513428
visibility: 0.9990439414978027
","x: 149.21803283691406
y: 294.7973937988281
z: -0.31682702898979187
visibility: 0.9973859190940857
","x: 150.59751892089844
y: 293.5544128417969
z: -0.31680750846862793
visibility: 0.9976738691329956
","x: 152.0448455810547
y: 292.3746032714844
z: -0.31681424379348755
visibility: 0.9968166947364807
","x: 146.20884704589844
y: 296.5938720703125
z: -0.30243155360221863
visibility: 0.9972114562988281
","x: 145.49037170410156
y: 296.6109619140625
z: -0.30243009328842163
visibility: 0.997395932674408
","x: 144.76707458496094
y: 296.5163269042969
z: -0.3023826479911804
visibility: 0.9968590140342712
","x: 156.29412841796875
y: 291.49298095703125
z: -0.2600887417793274
visibility: 0.996616542339325
","x: 147.0614471435547
y: 295.1146545410156
z: -0.19612868130207062
visibility: 0.9960896372795105
","x: 150.9472198486328
y: 306.42218017578125
z: -0.29463306069374084
visibility: 0.9982333779335022
","x: 146.6123504638672
y: 308.00421142578125
z: -0.27565431594848633
visibility: 0.9974640607833862
","x: 171.82786560058594
y: 311.0976867675781
z: -0.2245025336742401
visibility: 0.9996142983436584
","x: 153.04798889160156
y: 324.5003967285156
z: -0.07524583488702774
visibility: 0.9995344281196594
","x: 190.12896728515625
y: 347.6564025878906
z: -0.27434080839157104
visibility: 0.9456375241279602
","x: 143.43045043945312
y: 324.8120422363281
z: 0.1068517193198204
visibility: 0.7496032118797302
","x: 207.91827392578125
y: 383.37274169921875
z: -0.3863183557987213
visibility: 0.812960684299469
","x: 129.73153686523438
y: 303.1460266113281
z: 0.2245287001132965
visibility: 0.6719715595245361
","x: 212.73814392089844
y: 390.2954406738281
z: -0.41088834404945374
visibility: 0.723892331123352
","x: 126.15294647216797
y: 297.8146667480469
z: 0.24184191226959229
visibility: 0.5755484104156494
","x: 211.6289825439453
y: 392.163330078125
z: -0.4314996600151062
visibility: 0.7323941588401794
","x: 125.17451477050781
y: 298.02899169921875
z: 0.2210814505815506
visibility: 0.5788161158561707
","x: 209.85064697265625
y: 390.8518981933594
z: -0.3966144025325775
visibility: 0.7057169079780579
","x: 126.77384185791016
y: 300.6264343261719
z: 0.2181379795074463
visibility: 0.5643227696418762
","x: 193.7566680908203
y: 406.06121826171875
z: -0.04040663316845894
visibility: 0.999346911907196
","x: 174.6102294921875
y: 414.92779541015625
z: 0.04039626568555832
visibility: 0.9996968507766724
","x: 201.205322265625
y: 467.528076171875
z: -0.03145107626914978
visibility: 0.9897778630256653
","x: 175.78733825683594
y: 469.1900939941406
z: 0.17521332204341888
visibility: 0.9940527081489563
","x: 204.32022094726562
y: 525.8173828125
z: 0.11741999536752701
visibility: 0.9899147748947144
","x: 168.90354919433594
y: 523.353271484375
z: 0.4168955683708191
visibility: 0.9928275346755981
","x: 201.75341796875
y: 536.069580078125
z: 0.12753114104270935
visibility: 0.9171920418739319
","x: 170.9821319580078
y: 531.2921752929688
z: 0.4363042414188385
visibility: 0.9218987822532654
","x: 210.68089294433594
y: 548.0768432617188
z: 0.031734731048345566
visibility: 0.9835703372955322
","x: 163.4247283935547
y: 546.5289306640625
z: 0.37616056203842163
visibility: 0.9889973402023315
",,,,,,,,,,,,,,,,,,,,,,,,,,,,,,,,,,,,,,,,,,
25,"x: 143.43165588378906
y: 304.39459228515625
z: -0.32601046562194824
visibility: 0.9991277456283569
","x: 145.938720703125
y: 296.4978332519531
z: -0.33467015624046326
visibility: 0.9976362586021423
","x: 147.0978546142578
y: 295.93902587890625
z: -0.33464285731315613
visibility: 0.9978982210159302
","x: 148.2982940673828
y: 295.4569091796875
z: -0.3346731662750244
visibility: 0.9971254467964172
","x: 143.72523498535156
y: 296.5675964355469
z: -0.3137192130088806
visibility: 0.9974662065505981
","x: 143.34837341308594
y: 296.0950622558594
z: -0.31373220682144165
visibility: 0.9976349472999573
","x: 142.93946838378906
y: 295.59454345703125
z: -0.3137182891368866
visibility: 0.9971479177474976
","x: 153.26776123046875
y: 294.75445556640625
z: -0.31134650111198425
visibility: 0.9969457387924194
","x: 146.774169921875
y: 294.1509704589844
z: -0.2180238664150238
visibility: 0.9964590072631836
","x: 146.83348083496094
y: 308.7637023925781
z: -0.3135329484939575
visibility: 0.9984025359153748
","x: 143.6131591796875
y: 308.3254089355469
z: -0.2866220772266388
visibility: 0.9976980090141296
","x: 171.01516723632812
y: 320.03076171875
z: -0.289844810962677
visibility: 0.9996506571769714
","x: 153.99241638183594
y: 323.9000244140625
z: -0.0802512839436531
visibility: 0.9995161890983582
","x: 191.02064514160156
y: 360.5987243652344
z: -0.35603317618370056
visibility: 0.9494583606719971
","x: 146.4650421142578
y: 327.9696960449219
z: 0.1268738955259323
visibility: 0.6895654201507568
","x: 205.20367431640625
y: 393.9574890136719
z: -0.45060014724731445
visibility: 0.8278123736381531
","x: 131.1960906982422
y: 317.6174621582031
z: 0.27698326110839844
visibility: 0.6530873775482178
","x: 211.7260284423828
y: 398.910888671875
z: -0.4806135296821594
visibility: 0.7437211871147156
","x: 126.39971923828125
y: 316.2701416015625
z: 0.2991010546684265
visibility: 0.5682832598686218
","x: 211.0906219482422
y: 400.34600830078125
z: -0.4985896944999695
visibility: 0.7516453862190247
","x: 127.196044921875
y: 315.4672546386719
z: 0.2778140902519226
visibility: 0.5739555954933167
","x: 209.60833740234375
y: 399.1832275390625
z: -0.4590080678462982
visibility: 0.7244760990142822
","x: 131.24423217773438
y: 316.535888671875
z: 0.27246028184890747
visibility: 0.561260998249054
","x: 192.6928253173828
y: 410.1388854980469
z: -0.053566254675388336
visibility: 0.9994086027145386
","x: 174.23895263671875
y: 415.113037109375
z: 0.05353466793894768
visibility: 0.999719500541687
","x: 200.8481903076172
y: 469.3971252441406
z: -0.007827525958418846
visibility: 0.9906014204025269
","x: 174.73399353027344
y: 473.12481689453125
z: 0.21623805165290833
visibility: 0.9934767484664917
","x: 204.33673095703125
y: 525.5650634765625
z: 0.15471169352531433
visibility: 0.9905773401260376
","x: 168.87966918945312
y: 523.2158203125
z: 0.4687321186065674
visibility: 0.9922653436660767
","x: 202.23312377929688
y: 534.9429931640625
z: 0.17029985785484314
visibility: 0.9214547276496887
","x: 171.01156616210938
y: 531.2908325195312
z: 0.490053653717041
visibility: 0.9221895933151245
","x: 210.09983825683594
y: 548.0750732421875
z: 0.08763901889324188
visibility: 0.9847731590270996
","x: 163.2914276123047
y: 546.5020141601562
z: 0.4390767514705658
visibility: 0.98894864320755
",,,,,,,,,,,,,,,,,,,,,,,,,,,,,,,,,,,,,,,,,,
26,"x: 142.2325439453125
y: 304.26556396484375
z: -0.4169459342956543
visibility: 0.9992038011550903
","x: 145.2445831298828
y: 297.0034484863281
z: -0.42123302817344666
visibility: 0.9978631138801575
","x: 146.5361328125
y: 296.8495788574219
z: -0.4211947023868561
visibility: 0.9980995655059814
","x: 147.84536743164062
y: 296.7843933105469
z: -0.4212293028831482
visibility: 0.997402548789978
","x: 142.58839416503906
y: 296.1596374511719
z: -0.40078020095825195
visibility: 0.997692346572876
","x: 142.04161071777344
y: 295.4219970703125
z: -0.40083640813827515
visibility: 0.9978457093238831
","x: 141.4686737060547
y: 294.70013427734375
z: -0.400787353515625
visibility: 0.9974088072776794
","x: 152.62664794921875
y: 296.3455810546875
z: -0.38076311349868774
visibility: 0.9972371459007263
","x: 144.7049560546875
y: 293.1641540527344
z: -0.28926581144332886
visibility: 0.996776282787323
","x: 145.87330627441406
y: 309.26641845703125
z: -0.3986150324344635
visibility: 0.9985469579696655
","x: 142.12225341796875
y: 307.8642883300781
z: -0.37202590703964233
visibility: 0.9978806972503662
","x: 167.56455993652344
y: 326.46063232421875
z: -0.3499048054218292
visibility: 0.9996809363365173
","x: 151.22686767578125
y: 317.9718017578125
z: -0.1543288379907608
visibility: 0.9994516968727112
","x: 187.14114379882812
y: 363.2402038574219
z: -0.4463943839073181
visibility: 0.9528683423995972
","x: 138.1540985107422
y: 303.2818298339844
z: 0.049442097544670105
visibility: 0.6804202198982239
","x: 201.26620483398438
y: 399.3832092285156
z: -0.5741703510284424
visibility: 0.8393170833587646
","x: 119.00150299072266
y: 277.170166015625
z: 0.19373682141304016
visibility: 0.6766364574432373
","x: 207.9174041748047
y: 404.7695617675781
z: -0.6132230758666992
visibility: 0.7559193968772888
","x: 110.87080383300781
y: 271.82183837890625
z: 0.2110142707824707
visibility: 0.5958861112594604
","x: 206.20738220214844
y: 405.5064392089844
z: -0.6298312544822693
visibility: 0.7636781334877014
","x: 110.73001098632812
y: 272.69476318359375
z: 0.18784397840499878
visibility: 0.6012862324714661
","x: 203.4637908935547
y: 403.4021301269531
z: -0.5842087864875793
visibility: 0.734584629535675
","x: 113.66144561767578
y: 274.21246337890625
z: 0.18770256638526917
visibility: 0.5906639695167542
","x: 188.4928436279297
y: 411.548828125
z: -0.06172097846865654
visibility: 0.9994658827781677
","x: 172.04444885253906
y: 414.13494873046875
z: 0.061721764504909515
visibility: 0.9997439980506897
","x: 198.02928161621094
y: 469.8318176269531
z: -0.021110543981194496
visibility: 0.9913548231124878
","x: 172.80653381347656
y: 473.8524169921875
z: 0.23646259307861328
visibility: 0.992415726184845
","x: 204.43414306640625
y: 525.3521118164062
z: 0.14319154620170593
visibility: 0.9912445545196533
","x: 168.78334045410156
y: 522.4415893554688
z: 0.4931374490261078
visibility: 0.9916443824768066
","x: 202.9167938232422
y: 533.5260009765625
z: 0.1559450626373291
visibility: 0.9257431626319885
","x: 171.10940551757812
y: 530.97998046875
z: 0.5149511098861694
visibility: 0.9237937331199646
","x: 209.73651123046875
y: 548.0262451171875
z: 0.07091435045003891
visibility: 0.9857954382896423
","x: 162.66583251953125
y: 546.0811767578125
z: 0.46822625398635864
visibility: 0.9886300563812256
",,,,,,,,,,,,,,,,,,,,,,,,,,,,,,,,,,,,,,,,,,
27,"x: 139.73199462890625
y: 303.8393859863281
z: -0.345529705286026
visibility: 0.9991488456726074
","x: 143.11744689941406
y: 296.6617431640625
z: -0.3487154245376587
visibility: 0.9979658126831055
","x: 144.354736328125
y: 296.6309814453125
z: -0.3487010896205902
visibility: 0.9981851577758789
","x: 145.6122589111328
y: 296.66552734375
z: -0.34875157475471497
visibility: 0.9975534677505493
","x: 140.34376525878906
y: 295.5286865234375
z: -0.33167415857315063
visibility: 0.9976407289505005
","x: 139.6914520263672
y: 294.7419128417969
z: -0.3317180871963501
visibility: 0.9977892637252808
","x: 139.05697631835938
y: 294.0021057128906
z: -0.3317030072212219
visibility: 0.9974467754364014
","x: 150.39459228515625
y: 296.4783020019531
z: -0.3076680600643158
visibility: 0.9973738789558411
","x: 142.4902801513672
y: 292.66790771484375
z: -0.23233619332313538
visibility: 0.9967875480651855
","x: 143.4520721435547
y: 309.2830810546875
z: -0.3268667161464691
visibility: 0.9986152648925781
","x: 138.81350708007812
y: 307.5924377441406
z: -0.3042778968811035
visibility: 0.997880756855011
","x: 165.8710174560547
y: 322.7642517089844
z: -0.27941906452178955
visibility: 0.9996910095214844
","x: 142.75860595703125
y: 318.59234619140625
z: -0.1291576325893402
visibility: 0.9992576241493225
","x: 185.123779296875
y: 342.8206787109375
z: -0.4315252900123596
visibility: 0.955275297164917
","x: 128.65933227539062
y: 309.7716064453125
z: 0.03817669302225113
visibility: 0.7024151682853699
","x: 185.8092041015625
y: 341.294189453125
z: -0.6430413722991943
visibility: 0.8499432802200317
","x: 110.65681457519531
y: 278.84381103515625
z: 0.10640498250722885
visibility: 0.7062888145446777
","x: 188.06826782226562
y: 344.6920471191406
z: -0.6927810311317444
visibility: 0.769808828830719
","x: 104.2507095336914
y: 276.24383544921875
z: 0.11114555597305298
visibility: 0.6310907602310181
","x: 183.30548095703125
y: 340.5196533203125
z: -0.6993111968040466
visibility: 0.7772135734558105
","x: 104.63693237304688
y: 277.2081604003906
z: 0.0899336114525795
visibility: 0.6360161900520325
","x: 181.982421875
y: 340.60650634765625
z: -0.6521362066268921
visibility: 0.7473881840705872
","x: 106.50025177001953
y: 284.9425354003906
z: 0.09851943701505661
visibility: 0.6262466311454773
","x: 186.34732055664062
y: 411.2702941894531
z: -0.058098964393138885
visibility: 0.9995103478431702
","x: 167.42579650878906
y: 413.6571044921875
z: 0.05803561210632324
visibility: 0.999750018119812
","x: 196.79156494140625
y: 471.1402587890625
z: -0.025195032358169556
visibility: 0.9918692708015442
","x: 168.47518920898438
y: 473.14947509765625
z: 0.192937970161438
visibility: 0.9918453097343445
","x: 204.99957275390625
y: 524.8087158203125
z: 0.1501830369234085
visibility: 0.991721510887146
","x: 168.49435424804688
y: 522.098388671875
z: 0.41965752840042114
visibility: 0.9914856553077698
","x: 204.31027221679688
y: 531.4280395507812
z: 0.1608591079711914
visibility: 0.9275537729263306
","x: 171.26280212402344
y: 530.744384765625
z: 0.43900609016418457
visibility: 0.9267028570175171
","x: 209.7506561279297
y: 548.0831298828125
z: 0.07311012595891953
visibility: 0.986297070980072
","x: 161.6039581298828
y: 546.2395629882812
z: 0.3859180510044098
visibility: 0.9887589812278748
",,,,,,,,,,,,,,,,,,,,,,,,,,,,,,,,,,,,,,,,,,
28,"x: 138.7646942138672
y: 303.0603942871094
z: -0.4234899580478668
visibility: 0.9991768598556519
","x: 142.87916564941406
y: 295.70709228515625
z: -0.42361944913864136
visibility: 0.9980942010879517
","x: 144.39727783203125
y: 295.617919921875
z: -0.42356353998184204
visibility: 0.9982911348342896
","x: 145.98324584960938
y: 295.5951232910156
z: -0.4236203730106354
visibility: 0.9977399110794067
","x: 139.86135864257812
y: 295.2071228027344
z: -0.4086988866329193
visibility: 0.9977219700813293
","x: 139.25523376464844
y: 294.4267578125
z: -0.4087904095649719
visibility: 0.9978397488594055
","x: 138.6624298095703
y: 293.1392517089844
z: -0.40880775451660156
visibility: 0.9975564479827881
","x: 150.38583374023438
y: 295.77044677734375
z: -0.3730754256248474
visibility: 0.99754399061203
","x: 140.96681213378906
y: 292.621337890625
z: -0.30755913257598877
visibility: 0.9967507123947144
","x: 142.57960510253906
y: 308.7764892578125
z: -0.40137290954589844
visibility: 0.9986574649810791
","x: 137.64122009277344
y: 306.9317321777344
z: -0.38270846009254456
visibility: 0.9978924989700317
","x: 164.46253967285156
y: 323.8310241699219
z: -0.33947426080703735
visibility: 0.999704897403717
","x: 143.1478729248047
y: 311.7526550292969
z: -0.18315011262893677
visibility: 0.9991886019706726
","x: 183.5969696044922
y: 361.7232666015625
z: -0.3496074676513672
visibility: 0.9591174721717834
","x: 122.3065414428711
y: 288.17034912109375
z: -0.06449803709983826
visibility: 0.7234196066856384
","x: 184.54591369628906
y: 414.30316162109375
z: -0.47536858916282654
visibility: 0.8616189956665039
","x: 110.7931137084961
y: 268.8653259277344
z: 0.011948217637836933
visibility: 0.7300876975059509
","x: 188.57432556152344
y: 424.32635498046875
z: -0.45999234914779663
visibility: 0.7844187617301941
","x: 105.712890625
y: 265.9215393066406
z: 0.011659921146929264
visibility: 0.6574561595916748
","x: 185.14971923828125
y: 424.32373046875
z: -0.4676421582698822
visibility: 0.7910705208778381
","x: 106.45048522949219
y: 265.1939697265625
z: -0.0033734783064574003
visibility: 0.6617088317871094
","x: 183.33055114746094
y: 421.4085388183594
z: -0.4534274637699127
visibility: 0.7609117031097412
","x: 108.35758209228516
y: 267.4768371582031
z: 0.004465434234589338
visibility: 0.6540632843971252
","x: 180.15927124023438
y: 409.7483825683594
z: -0.050836462527513504
visibility: 0.9995419979095459
","x: 162.21527099609375
y: 413.0120849609375
z: 0.050717972218990326
visibility: 0.9997488856315613
","x: 190.87643432617188
y: 466.8189697265625
z: -0.018852928653359413
visibility: 0.9923215508460999
","x: 164.38723754882812
y: 468.4219055175781
z: 0.1713612824678421
visibility: 0.9905617237091064
","x: 202.52377319335938
y: 517.98193359375
z: 0.14005430042743683
visibility: 0.9919819235801697
","x: 167.88070678710938
y: 521.2852172851562
z: 0.37799376249313354
visibility: 0.9908584952354431
","x: 202.7977294921875
y: 525.6966552734375
z: 0.14880549907684326
visibility: 0.9286864995956421
","x: 171.28187561035156
y: 530.3472290039062
z: 0.39526140689849854
visibility: 0.9270927906036377
","x: 205.7286834716797
y: 544.7244873046875
z: 0.05924775078892708
visibility: 0.9866873025894165
","x: 161.4619140625
y: 546.2283935546875
z: 0.3405713737010956
visibility: 0.988474428653717
",,,,,,,,,,,,,,,,,,,,,,,,,,,,,,,,,,,,,,,,,,
29,"x: 139.10098266601562
y: 302.6178283691406
z: -0.5142174959182739
visibility: 0.9991451501846313
","x: 143.58517456054688
y: 295.9549560546875
z: -0.5163219571113586
visibility: 0.9981375932693481
","x: 145.3854522705078
y: 296.50921630859375
z: -0.5162631273269653
visibility: 0.9983116388320923
","x: 147.16966247558594
y: 297.1688232421875
z: -0.5163307189941406
visibility: 0.9978421330451965
","x: 139.84487915039062
y: 294.69757080078125
z: -0.5005149841308594
visibility: 0.9976825714111328
","x: 139.02435302734375
y: 294.1123046875
z: -0.5006523132324219
visibility: 0.9977770447731018
","x: 138.2200469970703
y: 292.8868713378906
z: -0.5007005929946899
visibility: 0.9976063370704651
","x: 151.07382202148438
y: 298.3249206542969
z: -0.4633789658546448
visibility: 0.9975473284721375
","x: 139.75674438476562
y: 292.46209716796875
z: -0.39785245060920715
visibility: 0.9965579509735107
","x: 142.16868591308594
y: 309.2269287109375
z: -0.49006956815719604
visibility: 0.9985397458076477
","x: 137.4799041748047
y: 306.5706481933594
z: -0.47147607803344727
visibility: 0.9977133274078369
","x: 160.5679473876953
y: 331.7841796875
z: -0.4279235005378723
visibility: 0.9996631741523743
","x: 141.64590454101562
y: 305.4267578125
z: -0.26294952630996704
visibility: 0.9991707801818848
","x: 169.90126037597656
y: 382.5405578613281
z: -0.4553907513618469
visibility: 0.9617450833320618
","x: 114.29344177246094
y: 276.7800598144531
z: -0.17934466898441315
visibility: 0.7413676381111145
","x: 173.5447540283203
y: 437.2151184082031
z: -0.4744376540184021
visibility: 0.8687978386878967
","x: 105.84750366210938
y: 269.12457275390625
z: -0.14688889682292938
visibility: 0.7493743896484375
","x: 179.52337646484375
y: 453.7613220214844
z: -0.5040215253829956
visibility: 0.7882682085037231
","x: 100.19027709960938
y: 267.1109924316406
z: -0.15196380019187927
visibility: 0.6772427558898926
","x: 174.8060760498047
y: 454.926513671875
z: -0.5165722966194153
visibility: 0.7942000031471252
","x: 103.27383422851562
y: 266.38348388671875
z: -0.1702965945005417
visibility: 0.6812252998352051
","x: 173.02108764648438
y: 449.0450439453125
z: -0.47916024923324585
visibility: 0.7618775963783264
","x: 104.32463073730469
y: 269.5845642089844
