uscmakers/ReverseChoreography/data/6_feed_the_fire_lucky_daye.csv
,NOSE,LEFT_EYE_INNER,LEFT_EYE,LEFT_EYE_OUTER,RIGHT_EYE_INNER,RIGHT_EYE,RIGHT_EYE_OUTER,LEFT_EAR,RIGHT_EAR,MOUTH_LEFT,MOUTH_RIGHT,LEFT_SHOULDER,RIGHT_SHOULDER,LEFT_ELBOW,RIGHT_ELBOW,LEFT_WRIST,RIGHT_WRIST,LEFT_PINKY,RIGHT_PINKY,LEFT_INDEX,RIGHT_INDEX,LEFT_THUMB,RIGHT_THUMB,LEFT_HIP,RIGHT_HIP,LEFT_KNEE,RIGHT_KNEE,LEFT_ANKLE,RIGHT_ANKLE,LEFT_HEEL,RIGHT_HEEL,LEFT_FOOT_INDEX,RIGHT_FOOT_INDEX,WRIST2,THUMB_CPC2,THUMB_MCP2,THUMB_IP2,THUMB_TIP2,INDEX_FINGER_MCP2,INDEX_FINGER_PIP2,INDEX_FINGER_DIP2,INDEX_FINGER_TIP2,MIDDLE_FINGER_MCP2,MIDDLE_FINGER_PIP2,MIDDLE_FINGER_DIP2,MIDDLE_FINGER_TIP2,RING_FINGER_PIP2,RING_FINGER_DIP2,RING_FINGER_TIP2,RING_FINGER_MCP2,PINKY_MCP2,PINKY_PIP2,PINKY_DIP2,PINKY_TIP2,WRIST,THUMB_CPC,THUMB_MCP,THUMB_IP,THUMB_TIP,INDEX_FINGER_MCP,INDEX_FINGER_PIP,INDEX_FINGER_DIP,INDEX_FINGER_TIP,MIDDLE_FINGER_MCP,MIDDLE_FINGER_PIP,MIDDLE_FINGER_DIP,MIDDLE_FINGER_TIP,RING_FINGER_PIP,RING_FINGER_DIP,RING_FINGER_TIP,RING_FINGER_MCP,PINKY_MCP,PINKY_PIP,PINKY_DIP,PINKY_TIP
0,"x: 171.2486572265625
y: 283.2278747558594
z: -0.3346739709377289
visibility: 0.9999892711639404
","x: 172.70611572265625
y: 276.6372985839844
z: -0.32660821080207825
visibility: 0.9999803304672241
","x: 174.0164794921875
y: 276.22882080078125
z: -0.32658296823501587
visibility: 0.9999727010726929
","x: 175.2849578857422
y: 275.8074645996094
z: -0.32661229372024536
visibility: 0.9999732971191406
","x: 169.3656005859375
y: 277.90338134765625
z: -0.31971508264541626
visibility: 0.9999858140945435
","x: 168.3600311279297
y: 278.46942138671875
z: -0.31975844502449036
visibility: 0.999981164932251
","x: 167.36187744140625
y: 279.0596923828125
z: -0.3197503983974457
visibility: 0.9999852180480957
","x: 178.2672882080078
y: 277.3310546875
z: -0.24818792939186096
visibility: 0.9999759197235107
","x: 166.64096069335938
y: 281.13232421875
z: -0.21421881020069122
visibility: 0.9999902248382568
","x: 175.01271057128906
y: 289.1855163574219
z: -0.30278918147087097
visibility: 0.9999854564666748
","x: 170.41693115234375
y: 290.498046875
z: -0.2930152118206024
visibility: 0.9999889135360718
","x: 194.12901306152344
y: 303.4478759765625
z: -0.20183300971984863
visibility: 0.9999581575393677
","x: 160.2572784423828
y: 314.6793212890625
z: -0.16256871819496155
visibility: 0.9999793767929077
","x: 216.57554626464844
y: 287.40093994140625
z: -0.3781771957874298
visibility: 0.9995366334915161
","x: 144.82554626464844
y: 340.8050842285156
z: -0.290639191865921
visibility: 0.9931509494781494
","x: 196.53753662109375
y: 277.40985107421875
z: -0.5056445598602295
visibility: 0.9948037266731262
","x: 155.38970947265625
y: 347.74310302734375
z: -0.462615966796875
visibility: 0.984377920627594
","x: 189.12466430664062
y: 276.27752685546875
z: -0.5444464683532715
visibility: 0.9728359580039978
","x: 157.77915954589844
y: 355.5487365722656
z: -0.5030856728553772
visibility: 0.9537323117256165
","x: 187.60580444335938
y: 277.38726806640625
z: -0.5245154500007629
visibility: 0.9678331017494202
","x: 160.47007751464844
y: 347.8017883300781
z: -0.4977729916572571
visibility: 0.9483064413070679
","x: 189.32980346679688
y: 278.4558410644531
z: -0.5017725825309753
visibility: 0.9523106217384338
","x: 160.1761016845703
y: 344.94866943359375
z: -0.4655352532863617
visibility: 0.9339995980262756
","x: 188.03164672851562
y: 399.4770812988281
z: -0.007460213266313076
visibility: 0.9999256134033203
","x: 166.19056701660156
y: 400.9215087890625
z: 0.007324597332626581
visibility: 0.9999319314956665
","x: 193.85824584960938
y: 461.9737548828125
z: -0.0289059579372406
visibility: 0.9933659434318542
","x: 163.31021118164062
y: 460.0841064453125
z: -0.03757297620177269
visibility: 0.9909153580665588
","x: 205.8304901123047
y: 524.729248046875
z: 0.05283752828836441
visibility: 0.9904981255531311
","x: 158.34698486328125
y: 522.10888671875
z: 0.07554803788661957
visibility: 0.9926079511642456
","x: 204.10679626464844
y: 534.4153442382812
z: 0.053923122584819794
visibility: 0.8933097124099731
","x: 160.9949493408203
y: 530.5443115234375
z: 0.08087887614965439
visibility: 0.919394314289093
","x: 213.912353515625
y: 546.3082275390625
z: -0.057168811559677124
visibility: 0.9826669096946716
","x: 152.20069885253906
y: 543.7755126953125
z: -0.023899031803011894
visibility: 0.9879515767097473
","x: 194.3678741455078
y: 277.5521240234375
z: 0.0
","x: 189.3604278564453
y: 281.4400329589844
z: 0.0016153670148923993
","x: 184.95423889160156
y: 283.13037109375
z: 0.0006609565461985767
","x: 181.80064392089844
y: 283.77337646484375
z: -0.0015004476299509406
","x: 179.67694091796875
y: 283.508544921875
z: -0.003253377741202712
","x: 181.72439575195312
y: 275.3367004394531
z: 0.001524037797935307
","x: 177.92262268066406
y: 274.61474609375
z: -0.0009355976362712681
","x: 176.23587036132812
y: 276.3672180175781
z: -0.0023741107434034348
","x: 175.22317504882812
y: 277.92071533203125
z: -0.0031308382749557495
","x: 182.7985076904297
y: 272.7248840332031
z: -0.0013687880709767342
","x: 180.1244354248047
y: 274.30474853515625
z: -0.004289945121854544
","x: 181.0339813232422
y: 278.6187744140625
z: -0.004733907990157604
","x: 182.67340087890625
y: 281.70538330078125
z: -0.004401801619678736
","x: 184.3433074951172
y: 270.6792907714844
z: -0.004466016311198473
","x: 182.48870849609375
y: 273.9244384765625
z: -0.006647392641752958
","x: 183.91171264648438
y: 278.36590576171875
z: -0.0054699936881661415
","x: 185.61219787597656
y: 281.2437744140625
z: -0.004198775626718998
","x: 186.3419952392578
y: 269.46649169921875
z: -0.007792338263243437
","x: 184.75291442871094
y: 272.2837219238281
z: -0.008525236509740353
","x: 185.70985412597656
y: 275.83306884765625
z: -0.0072134980000555515
","x: 187.0217742919922
y: 278.2633056640625
z: -0.0059775556437671185
",,,,,,,,,,,,,,,,,,,,,
1,"x: 171.2486572265625
y: 283.2278747558594
z: -0.3346739709377289
visibility: 0.9999892711639404
","x: 172.70611572265625
y: 276.6372985839844
z: -0.32660821080207825
visibility: 0.9999803304672241
","x: 174.0164794921875
y: 276.22882080078125
z: -0.32658296823501587
visibility: 0.9999727010726929
","x: 175.2849578857422
y: 275.8074645996094
z: -0.32661229372024536
visibility: 0.9999732971191406
","x: 169.3656005859375
y: 277.90338134765625
z: -0.31971508264541626
visibility: 0.9999858140945435
","x: 168.3600311279297
y: 278.46942138671875
z: -0.31975844502449036
visibility: 0.999981164932251
","x: 167.36187744140625
y: 279.0596923828125
z: -0.3197503983974457
visibility: 0.9999852180480957
","x: 178.2672882080078
y: 277.3310546875
z: -0.24818792939186096
visibility: 0.9999759197235107
","x: 166.64096069335938
y: 281.13232421875
z: -0.21421881020069122
visibility: 0.9999902248382568
","x: 175.01271057128906
y: 289.1855163574219
z: -0.30278918147087097
visibility: 0.9999854564666748
","x: 170.41693115234375
y: 290.498046875
z: -0.2930152118206024
visibility: 0.9999889135360718
","x: 194.12901306152344
y: 303.4478759765625
z: -0.20183300971984863
visibility: 0.9999581575393677
","x: 160.2572784423828
y: 314.6793212890625
z: -0.16256871819496155
visibility: 0.9999793767929077
","x: 216.57554626464844
y: 287.40093994140625
z: -0.3781771957874298
visibility: 0.9995366334915161
","x: 144.82554626464844
y: 340.8050842285156
z: -0.290639191865921
visibility: 0.9931509494781494
","x: 196.53753662109375
y: 277.40985107421875
z: -0.5056445598602295
visibility: 0.9948037266731262
","x: 155.38970947265625
y: 347.74310302734375
z: -0.462615966796875
visibility: 0.984377920627594
","x: 189.12466430664062
y: 276.27752685546875
z: -0.5444464683532715
visibility: 0.9728359580039978
","x: 157.77915954589844
y: 355.5487365722656
z: -0.5030856728553772
visibility: 0.9537323117256165
","x: 187.60580444335938
y: 277.38726806640625
z: -0.5245154500007629
visibility: 0.9678331017494202
","x: 160.47007751464844
y: 347.8017883300781
z: -0.4977729916572571
visibility: 0.9483064413070679
","x: 189.32980346679688
y: 278.4558410644531
z: -0.5017725825309753
visibility: 0.9523106217384338
","x: 160.1761016845703
y: 344.94866943359375
z: -0.4655352532863617
visibility: 0.9339995980262756
","x: 188.03164672851562
y: 399.4770812988281
z: -0.007460213266313076
visibility: 0.9999256134033203
","x: 166.19056701660156
y: 400.9215087890625
z: 0.007324597332626581
visibility: 0.9999319314956665
","x: 193.85824584960938
y: 461.9737548828125
z: -0.0289059579372406
visibility: 0.9933659434318542
","x: 163.31021118164062
y: 460.0841064453125
z: -0.03757297620177269
visibility: 0.9909153580665588
","x: 205.8304901123047
y: 524.729248046875
z: 0.05283752828836441
visibility: 0.9904981255531311
","x: 158.34698486328125
y: 522.10888671875
z: 0.07554803788661957
visibility: 0.9926079511642456
","x: 204.10679626464844
y: 534.4153442382812
z: 0.053923122584819794
visibility: 0.8933097124099731
","x: 160.9949493408203
y: 530.5443115234375
z: 0.08087887614965439
visibility: 0.919394314289093
","x: 213.912353515625
y: 546.3082275390625
z: -0.057168811559677124
visibility: 0.9826669096946716
","x: 152.20069885253906
y: 543.7755126953125
z: -0.023899031803011894
visibility: 0.9879515767097473
","x: 194.3678741455078
y: 277.5521240234375
z: 0.0
","x: 189.3604278564453
y: 281.4400329589844
z: 0.0016153670148923993
","x: 184.95423889160156
y: 283.13037109375
z: 0.0006609565461985767
","x: 181.80064392089844
y: 283.77337646484375
z: -0.0015004476299509406
","x: 179.67694091796875
y: 283.508544921875
z: -0.003253377741202712
","x: 181.72439575195312
y: 275.3367004394531
z: 0.001524037797935307
","x: 177.92262268066406
y: 274.61474609375
z: -0.0009355976362712681
","x: 176.23587036132812
y: 276.3672180175781
z: -0.0023741107434034348
","x: 175.22317504882812
y: 277.92071533203125
z: -0.0031308382749557495
","x: 182.7985076904297
y: 272.7248840332031
z: -0.0013687880709767342
","x: 180.1244354248047
y: 274.30474853515625
z: -0.004289945121854544
","x: 181.0339813232422
y: 278.6187744140625
z: -0.004733907990157604
","x: 182.67340087890625
y: 281.70538330078125
z: -0.004401801619678736
","x: 184.3433074951172
y: 270.6792907714844
z: -0.004466016311198473
","x: 182.48870849609375
y: 273.9244384765625
z: -0.006647392641752958
","x: 183.91171264648438
y: 278.36590576171875
z: -0.0054699936881661415
","x: 185.61219787597656
y: 281.2437744140625
z: -0.004198775626718998
","x: 186.3419952392578
y: 269.46649169921875
z: -0.007792338263243437
","x: 184.75291442871094
y: 272.2837219238281
z: -0.008525236509740353
","x: 185.70985412597656
y: 275.83306884765625
z: -0.0072134980000555515
","x: 187.0217742919922
y: 278.2633056640625
z: -0.0059775556437671185
",,,,,,,,,,,,,,,,,,,,,
2,"x: 171.2228240966797
y: 281.46832275390625
z: -0.3294605016708374
visibility: 0.9999874234199524
","x: 172.4081268310547
y: 274.4693908691406
z: -0.3220731317996979
visibility: 0.999977707862854
","x: 173.64085388183594
y: 273.86944580078125
z: -0.32205384969711304
visibility: 0.9999701976776123
","x: 174.8848419189453
y: 273.3218688964844
z: -0.3221074342727661
visibility: 0.9999715089797974
","x: 169.25631713867188
y: 276.11181640625
z: -0.31437259912490845
visibility: 0.9999823570251465
","x: 168.26808166503906
y: 276.71624755859375
z: -0.31440624594688416
visibility: 0.9999764561653137
","x: 167.2568359375
y: 277.3870544433594
z: -0.3143865764141083
visibility: 0.999980092048645
","x: 177.99234008789062
y: 275.34356689453125
z: -0.24824373424053192
visibility: 0.9999746084213257
","x: 166.3363037109375
y: 280.388671875
z: -0.21295061707496643
visibility: 0.9999854564666748
","x: 174.76820373535156
y: 287.0180358886719
z: -0.3002200722694397
visibility: 0.9999833703041077
","x: 170.3892822265625
y: 288.4206237792969
z: -0.2897108495235443
visibility: 0.9999836087226868
","x: 193.9287872314453
y: 303.39697265625
z: -0.21665406227111816
visibility: 0.9999570846557617
","x: 160.15138244628906
y: 314.6554260253906
z: -0.160335510969162
visibility: 0.9999679923057556
","x: 216.57472229003906
y: 287.490478515625
z: -0.4007197320461273
visibility: 0.9995421171188354
","x: 144.9067840576172
y: 339.30731201171875
z: -0.2849653363227844
visibility: 0.9893149733543396
","x: 195.92208862304688
y: 277.86395263671875
z: -0.5128589272499084
visibility: 0.9948588013648987
","x: 154.08702087402344
y: 342.6526184082031
z: -0.4515268802642822
visibility: 0.9756761193275452
","x: 188.66012573242188
y: 278.068115234375
z: -0.5481842756271362
visibility: 0.9731391668319702
","x: 155.8286590576172
y: 347.6652526855469
z: -0.48692017793655396
visibility: 0.9377116560935974
","x: 186.88787841796875
y: 279.3530578613281
z: -0.5247740745544434
visibility: 0.9682619571685791
","x: 158.64840698242188
y: 344.745361328125
z: -0.48164957761764526
visibility: 0.9314109683036804
","x: 188.54058837890625
y: 280.1140441894531
z: -0.5062366724014282
visibility: 0.9528997540473938
","x: 158.26153564453125
y: 343.8118896484375
z: -0.4551657736301422
visibility: 0.9168244004249573
","x: 188.07383728027344
y: 399.4763488769531
z: -0.011178398504853249
visibility: 0.9999265074729919
","x: 166.1911163330078
y: 400.9498291015625
z: 0.010983762331306934
visibility: 0.9999281764030457
","x: 194.00299072265625
y: 461.9722900390625
z: 0.009053179994225502
visibility: 0.9929567575454712
","x: 163.28074645996094
y: 460.0868225097656
z: 0.018957186490297318
visibility: 0.9901894927024841
","x: 205.8195037841797
y: 524.727294921875
z: 0.11624054610729218
visibility: 0.9904293417930603
","x: 158.34471130371094
y: 521.2696533203125
z: 0.1616956889629364
visibility: 0.9921935796737671
","x: 204.04757690429688
y: 534.404052734375
z: 0.12063906341791153
visibility: 0.8876693844795227
","x: 161.02291870117188
y: 529.732421875
z: 0.17076727747917175
visibility: 0.914695143699646
","x: 214.03598022460938
y: 546.0440673828125
z: 0.017381763085722923
visibility: 0.9822319149971008
","x: 152.2670440673828
y: 543.2819213867188
z: 0.07729418575763702
visibility: 0.9872322678565979
","x: 194.93896484375
y: 278.0129699707031
z: 0.0
","x: 189.8780975341797
y: 282.5157470703125
z: 0.0020956210792064667
","x: 185.85531616210938
y: 283.9409484863281
z: 0.0012168511748313904
","x: 182.9286651611328
y: 284.2806701660156
z: -0.0008998385164886713
","x: 180.91270446777344
y: 283.9425354003906
z: -0.0024961845483630896
","x: 181.9136505126953
y: 275.3490905761719
z: 0.002426432678475976
","x: 178.99609375
y: 275.7121887207031
z: 0.00032708115759305656
","x: 178.5760040283203
y: 279.5126953125
z: -0.0008479800308123231
","x: 178.86041259765625
y: 282.8185119628906
z: -0.0014440823579207063
","x: 182.67701721191406
y: 273.2384338378906
z: -0.0007004559738561511
","x: 180.1907196044922
y: 277.4291687011719
z: -0.002737857401371002
","x: 180.06924438476562
y: 281.9345397949219
z: -0.0034878221340477467
","x: 180.76925659179688
y: 285.008056640625
z: -0.0038672182708978653
","x: 184.01193237304688
y: 272.0155029296875
z: -0.004017525818198919
","x: 182.72952270507812
y: 278.6143493652344
z: -0.0054155816324055195
","x: 184.3722686767578
y: 282.975830078125
z: -0.004617936443537474
","x: 186.288818359375
y: 285.9227294921875
z: -0.0038913653697818518
","x: 185.7911834716797
y: 271.8153991699219
z: -0.007537540048360825
","x: 184.88619995117188
y: 277.666748046875
z: -0.007739501539617777
","x: 186.26364135742188
y: 281.5343017578125
z: -0.006520573049783707
","x: 187.87863159179688
y: 284.3456726074219
z: -0.005534227006137371
",,,,,,,,,,,,,,,,,,,,,
3,"x: 171.2228240966797
y: 281.46832275390625
z: -0.3294605016708374
visibility: 0.9999874234199524
","x: 172.4081268310547
y: 274.4693908691406
z: -0.3220731317996979
visibility: 0.999977707862854
","x: 173.64085388183594
y: 273.86944580078125
z: -0.32205384969711304
visibility: 0.9999701976776123
","x: 174.8848419189453
y: 273.3218688964844
z: -0.3221074342727661
visibility: 0.9999715089797974
","x: 169.25631713867188
y: 276.11181640625
z: -0.31437259912490845
visibility: 0.9999823570251465
","x: 168.26808166503906
y: 276.71624755859375
z: -0.31440624594688416
visibility: 0.9999764561653137
","x: 167.2568359375
y: 277.3870544433594
z: -0.3143865764141083
visibility: 0.999980092048645
","x: 177.99234008789062
y: 275.34356689453125
z: -0.24824373424053192
visibility: 0.9999746084213257
","x: 166.3363037109375
y: 280.388671875
z: -0.21295061707496643
visibility: 0.9999854564666748
","x: 174.76820373535156
y: 287.0180358886719
z: -0.3002200722694397
visibility: 0.9999833703041077
","x: 170.3892822265625
y: 288.4206237792969
z: -0.2897108495235443
visibility: 0.9999836087226868
","x: 193.9287872314453
y: 303.39697265625
z: -0.21665406227111816
visibility: 0.9999570846557617
","x: 160.15138244628906
y: 314.6554260253906
z: -0.160335510969162
visibility: 0.9999679923057556
","x: 216.57472229003906
y: 287.490478515625
z: -0.4007197320461273
visibility: 0.9995421171188354
","x: 144.9067840576172
y: 339.30731201171875
z: -0.2849653363227844
visibility: 0.9893149733543396
","x: 195.92208862304688
y: 277.86395263671875
z: -0.5128589272499084
visibility: 0.9948588013648987
","x: 154.08702087402344
y: 342.6526184082031
z: -0.4515268802642822
visibility: 0.9756761193275452
","x: 188.66012573242188
y: 278.068115234375
z: -0.5481842756271362
visibility: 0.9731391668319702
","x: 155.8286590576172
y: 347.6652526855469
z: -0.48692017793655396
visibility: 0.9377116560935974
","x: 186.88787841796875
y: 279.3530578613281
z: -0.5247740745544434
visibility: 0.9682619571685791
","x: 158.64840698242188
y: 344.745361328125
z: -0.48164957761764526
visibility: 0.9314109683036804
","x: 188.54058837890625
y: 280.1140441894531
z: -0.5062366724014282
visibility: 0.9528997540473938
","x: 158.26153564453125
y: 343.8118896484375
z: -0.4551657736301422
visibility: 0.9168244004249573
","x: 188.07383728027344
y: 399.4763488769531
z: -0.011178398504853249
visibility: 0.9999265074729919
","x: 166.1911163330078
y: 400.9498291015625
z: 0.010983762331306934
visibility: 0.9999281764030457
","x: 194.00299072265625
y: 461.9722900390625
z: 0.009053179994225502
visibility: 0.9929567575454712
","x: 163.28074645996094
y: 460.0868225097656
z: 0.018957186490297318
visibility: 0.9901894927024841
","x: 205.8195037841797
y: 524.727294921875
z: 0.11624054610729218
visibility: 0.9904293417930603
","x: 158.34471130371094
y: 521.2696533203125
z: 0.1616956889629364
visibility: 0.9921935796737671
","x: 204.04757690429688
y: 534.404052734375
z: 0.12063906341791153
visibility: 0.8876693844795227
","x: 161.02291870117188
y: 529.732421875
z: 0.17076727747917175
visibility: 0.914695143699646
","x: 214.03598022460938
y: 546.0440673828125
z: 0.017381763085722923
visibility: 0.9822319149971008
","x: 152.2670440673828
y: 543.2819213867188
z: 0.07729418575763702
visibility: 0.9872322678565979
","x: 194.93896484375
y: 278.0129699707031
z: 0.0
","x: 189.8780975341797
y: 282.5157470703125
z: 0.0020956210792064667
","x: 185.85531616210938
y: 283.9409484863281
z: 0.0012168511748313904
","x: 182.9286651611328
y: 284.2806701660156
z: -0.0008998385164886713
","x: 180.91270446777344
y: 283.9425354003906
z: -0.0024961845483630896
","x: 181.9136505126953
y: 275.3490905761719
z: 0.002426432678475976
","x: 178.99609375
y: 275.7121887207031
z: 0.00032708115759305656
","x: 178.5760040283203
y: 279.5126953125
z: -0.0008479800308123231
","x: 178.86041259765625
y: 282.8185119628906
z: -0.0014440823579207063
","x: 182.67701721191406
y: 273.2384338378906
z: -0.0007004559738561511
","x: 180.1907196044922
y: 277.4291687011719
z: -0.002737857401371002
","x: 180.06924438476562
y: 281.9345397949219
z: -0.0034878221340477467
","x: 180.76925659179688
y: 285.008056640625
z: -0.0038672182708978653
","x: 184.01193237304688
y: 272.0155029296875
z: -0.004017525818198919
","x: 182.72952270507812
y: 278.6143493652344
z: -0.0054155816324055195
","x: 184.3722686767578
y: 282.975830078125
z: -0.004617936443537474
","x: 186.288818359375
y: 285.9227294921875
z: -0.0038913653697818518
","x: 185.7911834716797
y: 271.8153991699219
z: -0.007537540048360825
","x: 184.88619995117188
y: 277.666748046875
z: -0.007739501539617777
","x: 186.26364135742188
y: 281.5343017578125
z: -0.006520573049783707
","x: 187.87863159179688
y: 284.3456726074219
z: -0.005534227006137371
",,,,,,,,,,,,,,,,,,,,,
4,"x: 171.43780517578125
y: 281.51177978515625
z: -0.34094399213790894
visibility: 0.9999871253967285
","x: 172.5169677734375
y: 274.5784606933594
z: -0.33534371852874756
visibility: 0.9999776482582092
","x: 173.71238708496094
y: 274.0014343261719
z: -0.3353129029273987
visibility: 0.999970555305481
","x: 174.932861328125
y: 273.46759033203125
z: -0.3353917896747589
visibility: 0.9999722242355347
","x: 169.46136474609375
y: 276.1802062988281
z: -0.3272554278373718
visibility: 0.9999816417694092
","x: 168.49417114257812
y: 276.7782897949219
z: -0.327284038066864
visibility: 0.9999751448631287
","x: 167.47389221191406
y: 277.4427490234375
z: -0.3272465765476227
visibility: 0.9999783039093018
","x: 177.9984130859375
y: 275.42572021484375
z: -0.2651709020137787
visibility: 0.9999755620956421
","x: 166.3380584716797
y: 280.4188232421875
z: -0.22754108905792236
visibility: 0.9999834299087524
","x: 174.8262176513672
y: 287.1357421875
z: -0.31199517846107483
visibility: 0.9999833703041077
","x: 170.53775024414062
y: 288.5269470214844
z: -0.30112898349761963
visibility: 0.9999815821647644
","x: 193.3952178955078
y: 303.35748291015625
z: -0.2378396987915039
visibility: 0.9999586939811707
","x: 159.86672973632812
y: 314.6578674316406
z: -0.16232088208198547
visibility: 0.9999592304229736
","x: 216.5728759765625
y: 287.48736572265625
z: -0.4279007911682129
visibility: 0.9995542764663696
","x: 144.7254180908203
y: 336.77752685546875
z: -0.28682205080986023
visibility: 0.985630452632904
","x: 195.92889404296875
y: 278.054931640625
z: -0.5407274961471558
visibility: 0.9949042201042175
","x: 147.42776489257812
y: 330.7807922363281
z: -0.4580771028995514
visibility: 0.9668715596199036
","x: 188.66339111328125
y: 278.8955383300781
z: -0.5745447278022766
visibility: 0.9732566475868225
","x: 148.10528564453125
y: 332.507080078125
z: -0.4904564321041107
visibility: 0.9216462969779968
","x: 186.84788513183594
y: 280.18988037109375
z: -0.5482118129730225
visibility: 0.9684809446334839
","x: 150.72821044921875
y: 331.169921875
z: -0.4857282042503357
visibility: 0.9145449995994568
","x: 188.44235229492188
y: 280.7774658203125
z: -0.5331040620803833
visibility: 0.952985942363739
","x: 150.7331085205078
y: 332.2157287597656
z: -0.46176767349243164
visibility: 0.8995095491409302
","x: 188.0701141357422
y: 399.47589111328125
z: -0.013544376008212566
visibility: 0.9999287128448486
","x: 166.21087646484375
y: 401.2386779785156
z: 0.01331823319196701
visibility: 0.9999260902404785
","x: 194.1064910888672
y: 461.51416015625
z: 0.012142239138484001
visibility: 0.9929078221321106
","x: 163.29531860351562
y: 460.859375
z: 0.0505787655711174
visibility: 0.9896402955055237
","x: 205.82110595703125
y: 524.423828125
z: 0.12154285609722137
visibility: 0.9907373189926147
","x: 158.34490966796875
y: 520.8994140625
z: 0.21028032898902893
visibility: 0.9919573664665222
","x: 204.02249145507812
y: 534.1367797851562
z: 0.12645915150642395
visibility: 0.8869147896766663
","x: 161.1038818359375
y: 529.1614990234375
z: 0.22108033299446106
visibility: 0.9125192761421204
","x: 214.13528442382812
y: 545.6566162109375
z: 0.022677863016724586
visibility: 0.9825692772865295
","x: 152.30760192871094
y: 542.9924926757812
z: 0.13071377575397491
visibility: 0.98675936460495
","x: 195.1480712890625
y: 278.30712890625
z: 0.0
","x: 190.41168212890625
y: 282.2111511230469
z: 0.002403599675744772
","x: 186.43359375
y: 283.70623779296875
z: 0.0018060766160488129
","x: 183.51661682128906
y: 283.9173583984375
z: -0.0001336878922302276
","x: 181.44888305664062
y: 284.2362976074219
z: -0.0016485425876453519
","x: 183.04437255859375
y: 277.3483581542969
z: 0.0030319103971123695
","x: 179.67088317871094
y: 278.0721130371094
z: 0.0008702973136678338
","x: 178.427001953125
y: 280.71710205078125
z: -0.00047883944353088737
","x: 177.82870483398438
y: 283.3094177246094
z: -0.0011696910951286554
","x: 183.61685180664062
y: 274.85784912109375
z: -0.00016686157323420048
","x: 181.5213165283203
y: 279.26611328125
z: -0.002223401330411434
","x: 181.58938598632812
y: 283.54461669921875
z: -0.0029948169831186533
","x: 182.21165466308594
y: 286.63037109375
z: -0.0032768952660262585
","x: 184.69688415527344
y: 272.7838134765625
z: -0.003583577461540699
","x: 183.79818725585938
y: 278.78076171875
z: -0.005019394215196371
","x: 185.7484588623047
y: 282.5723571777344
z: -0.0042518069967627525
","x: 187.69143676757812
y: 285.140625
z: -0.0034711863845586777
","x: 186.21630859375
y: 271.37652587890625
z: -0.007185075897723436
","x: 185.66461181640625
y: 276.7675476074219
z: -0.007291057612746954
","x: 187.2206573486328
y: 280.46466064453125
z: -0.006032965611666441
","x: 188.84713745117188
y: 283.02825927734375
z: -0.005002024583518505
",,,,,,,,,,,,,,,,,,,,,
5,"x: 171.43780517578125
y: 281.51177978515625
z: -0.34094399213790894
visibility: 0.9999871253967285
","x: 172.5169677734375
y: 274.5784606933594
z: -0.33534371852874756
visibility: 0.9999776482582092
","x: 173.71238708496094
y: 274.0014343261719
z: -0.3353129029273987
visibility: 0.999970555305481
","x: 174.932861328125
y: 273.46759033203125
z: -0.3353917896747589
visibility: 0.9999722242355347
","x: 169.46136474609375
y: 276.1802062988281
z: -0.3272554278373718
visibility: 0.9999816417694092
","x: 168.49417114257812
y: 276.7782897949219
z: -0.327284038066864
visibility: 0.9999751448631287
","x: 167.47389221191406
y: 277.4427490234375
z: -0.3272465765476227
visibility: 0.9999783039093018
","x: 177.9984130859375
y: 275.42572021484375
z: -0.2651709020137787
visibility: 0.9999755620956421
","x: 166.3380584716797
y: 280.4188232421875
z: -0.22754108905792236
visibility: 0.9999834299087524
","x: 174.8262176513672
y: 287.1357421875
z: -0.31199517846107483
visibility: 0.9999833703041077
","x: 170.53775024414062
y: 288.5269470214844
z: -0.30112898349761963
visibility: 0.9999815821647644
","x: 193.3952178955078
y: 303.35748291015625
z: -0.2378396987915039
visibility: 0.9999586939811707
","x: 159.86672973632812
y: 314.6578674316406
z: -0.16232088208198547
visibility: 0.9999592304229736
","x: 216.5728759765625
y: 287.48736572265625
z: -0.4279007911682129
visibility: 0.9995542764663696
","x: 144.7254180908203
y: 336.77752685546875
z: -0.28682205080986023
visibility: 0.985630452632904
","x: 195.92889404296875
y: 278.054931640625
z: -0.5407274961471558
visibility: 0.9949042201042175
","x: 147.42776489257812
y: 330.7807922363281
z: -0.4580771028995514
visibility: 0.9668715596199036
","x: 188.66339111328125
y: 278.8955383300781
z: -0.5745447278022766
visibility: 0.9732566475868225
","x: 148.10528564453125
y: 332.507080078125
z: -0.4904564321041107
visibility: 0.9216462969779968
","x: 186.84788513183594
y: 280.18988037109375
z: -0.5482118129730225
visibility: 0.9684809446334839
","x: 150.72821044921875
y: 331.169921875
z: -0.4857282042503357
visibility: 0.9145449995994568
","x: 188.44235229492188
y: 280.7774658203125
z: -0.5331040620803833
visibility: 0.952985942363739
","x: 150.7331085205078
y: 332.2157287597656
z: -0.46176767349243164
visibility: 0.8995095491409302
","x: 188.0701141357422
y: 399.47589111328125
z: -0.013544376008212566
visibility: 0.9999287128448486
","x: 166.21087646484375
y: 401.2386779785156
z: 0.01331823319196701
visibility: 0.9999260902404785
","x: 194.1064910888672
y: 461.51416015625
z: 0.012142239138484001
visibility: 0.9929078221321106
","x: 163.29531860351562
y: 460.859375
z: 0.0505787655711174
visibility: 0.9896402955055237
","x: 205.82110595703125
y: 524.423828125
z: 0.12154285609722137
visibility: 0.9907373189926147
","x: 158.34490966796875
y: 520.8994140625
z: 0.21028032898902893
visibility: 0.9919573664665222
","x: 204.02249145507812
y: 534.1367797851562
z: 0.12645915150642395
visibility: 0.8869147896766663
","x: 161.1038818359375
y: 529.1614990234375
z: 0.22108033299446106
visibility: 0.9125192761421204
","x: 214.13528442382812
y: 545.6566162109375
z: 0.022677863016724586
visibility: 0.9825692772865295
","x: 152.30760192871094
y: 542.9924926757812
z: 0.13071377575397491
visibility: 0.98675936460495
","x: 195.1480712890625
y: 278.30712890625
z: 0.0
","x: 190.41168212890625
y: 282.2111511230469
z: 0.002403599675744772
","x: 186.43359375
y: 283.70623779296875
z: 0.0018060766160488129
","x: 183.51661682128906
y: 283.9173583984375
z: -0.0001336878922302276
","x: 181.44888305664062
y: 284.2362976074219
z: -0.0016485425876453519
","x: 183.04437255859375
y: 277.3483581542969
z: 0.0030319103971123695
","x: 179.67088317871094
y: 278.0721130371094
z: 0.0008702973136678338
","x: 178.427001953125
y: 280.71710205078125
z: -0.00047883944353088737
","x: 177.82870483398438
y: 283.3094177246094
z: -0.0011696910951286554
","x: 183.61685180664062
y: 274.85784912109375
z: -0.00016686157323420048
","x: 181.5213165283203
y: 279.26611328125
z: -0.002223401330411434
","x: 181.58938598632812
y: 283.54461669921875
z: -0.0029948169831186533
","x: 182.21165466308594
y: 286.63037109375
z: -0.0032768952660262585
","x: 184.69688415527344
y: 272.7838134765625
z: -0.003583577461540699
","x: 183.79818725585938
y: 278.78076171875
z: -0.005019394215196371
","x: 185.7484588623047
y: 282.5723571777344
z: -0.0042518069967627525
","x: 187.69143676757812
y: 285.140625
z: -0.0034711863845586777
","x: 186.21630859375
y: 271.37652587890625
z: -0.007185075897723436
","x: 185.66461181640625
y: 276.7675476074219
z: -0.007291057612746954
","x: 187.2206573486328
y: 280.46466064453125
z: -0.006032965611666441
","x: 188.84713745117188
y: 283.02825927734375
z: -0.005002024583518505
",,,,,,,,,,,,,,,,,,,,,
6,"x: 171.7704315185547
y: 281.1207275390625
z: -0.31247973442077637
visibility: 0.9999807476997375
","x: 172.66650390625
y: 274.2139892578125
z: -0.30586928129196167
visibility: 0.9999678730964661
","x: 173.8291015625
y: 273.58392333984375
z: -0.3058564066886902
visibility: 0.9999606609344482
","x: 175.0279541015625
y: 272.9761657714844
z: -0.3059268891811371
visibility: 0.9999639391899109
","x: 169.68563842773438
y: 275.90264892578125
z: -0.29906806349754333
visibility: 0.9999701976776123
","x: 168.74961853027344
y: 276.5212707519531
z: -0.29908958077430725
visibility: 0.9999597072601318
","x: 167.77255249023438
y: 277.1927490234375
z: -0.299072802066803
visibility: 0.9999608993530273
","x: 178.06837463378906
y: 274.78558349609375
z: -0.23380613327026367
visibility: 0.9999697208404541
","x: 166.46200561523438
y: 280.2856750488281
z: -0.202073335647583
visibility: 0.9999703764915466
","x: 175.24246215820312
y: 286.7675476074219
z: -0.2826462686061859
visibility: 0.9999759197235107
","x: 171.0041961669922
y: 288.24176025390625
z: -0.27359849214553833
visibility: 0.9999676942825317
","x: 193.5369110107422
y: 302.36773681640625
z: -0.20439210534095764
visibility: 0.9999566078186035
","x: 160.10379028320312
y: 314.46270751953125
z: -0.144460991024971
visibility: 0.9999390244483948
","x: 216.62684631347656
y: 287.4609680175781
z: -0.3827618956565857
visibility: 0.9995385408401489
","x: 145.05799865722656
y: 335.4249572753906
z: -0.26788026094436646
visibility: 0.9798179268836975
","x: 196.35311889648438
y: 277.6173095703125
z: -0.4989587664604187
visibility: 0.9949204325675964
","x: 148.7643585205078
y: 334.61456298828125
z: -0.4346691966056824
visibility: 0.9549885988235474
","x: 189.7892303466797
y: 277.8820495605469
z: -0.5315316915512085
visibility: 0.9735114574432373
","x: 148.73974609375
y: 338.4688720703125
z: -0.4678111970424652
visibility: 0.9017770290374756
","x: 187.62501525878906
y: 279.43817138671875
z: -0.5081514120101929
visibility: 0.9688254594802856
","x: 151.93698120117188
y: 335.5594177246094
z: -0.46186715364456177
visibility: 0.8934893608093262
","x: 189.0303955078125
y: 280.2384338378906
z: -0.4921855330467224
visibility: 0.9534103274345398
","x: 151.49163818359375
y: 335.16253662109375
z: -0.43802738189697266
visibility: 0.8776269555091858
","x: 188.35055541992188
y: 399.37860107421875
z: -0.012677167542278767
visibility: 0.9999274611473083
","x: 166.38827514648438
y: 400.8966064453125
z: 0.012453408911824226
visibility: 0.9999209046363831
","x: 194.21249389648438
y: 461.5113830566406
z: 0.013380788266658783
visibility: 0.9925085306167603
","x: 163.29698181152344
y: 460.601806640625
z: 0.016776520758867264
visibility: 0.9891929030418396
","x: 205.8076629638672
y: 524.396484375
z: 0.11183512210845947
visibility: 0.9904921054840088
","x: 158.3944091796875
y: 520.5218505859375
z: 0.1507299244403839
visibility: 0.9917436838150024
","x: 203.99456787109375
y: 534.1337890625
z: 0.11555429548025131
visibility: 0.8835182189941406
","x: 161.2401885986328
y: 528.6971435546875
z: 0.15865442156791687
visibility: 0.9089276790618896
","x: 214.152099609375
y: 545.3194580078125
z: 0.014228214509785175
visibility: 0.9819322228431702
","x: 152.36630249023438
y: 542.9610595703125
z: 0.0638033002614975
visibility: 0.9863075613975525
","x: 195.897216796875
y: 276.9635314941406
z: 0.0
","x: 191.8372039794922
y: 280.7188720703125
z: 0.001918818219564855
","x: 187.89718627929688
y: 282.3467712402344
z: 0.0012885357718914747
","x: 185.14309692382812
y: 282.5893859863281
z: -0.0005812313174828887
","x: 183.31324768066406
y: 281.9814147949219
z: -0.002026759786531329
","x: 183.9657440185547
y: 274.97509765625
z: 0.0030521773733198643
","x: 180.79234313964844
y: 275.953857421875
z: 0.0006266428390517831
","x: 180.07595825195312
y: 279.82208251953125
z: -0.0008472161134704947
","x: 180.30697631835938
y: 283.4371337890625
z: -0.0015325191197916865
","x: 184.48875427246094
y: 272.2876281738281
z: 2.2530448404722847e-05
","x: 181.3433380126953
y: 274.837158203125
z: -0.0024154330603778362
","x: 181.048828125
y: 279.4586181640625
z: -0.0036238557659089565
","x: 181.84384155273438
y: 282.97308349609375
z: -0.004122674930840731
","x: 185.60104370117188
y: 269.95806884765625
z: -0.0033346381969749928
","x: 184.12832641601562
y: 275.37890625
z: -0.005054785870015621
","x: 186.03248596191406
y: 280.16131591796875
z: -0.004729305859655142
","x: 188.1424102783203
y: 283.2131652832031
z: -0.004092505667358637
","x: 187.2959442138672
y: 268.370849609375
z: -0.006924861576408148
","x: 186.66744995117188
y: 273.86126708984375
z: -0.00733113894239068
","x: 188.24667358398438
y: 277.9472351074219
z: -0.00651184655725956
","x: 190.04238891601562
y: 280.53424072265625
z: -0.005695592612028122
",,,,,,,,,,,,,,,,,,,,,
7,"x: 171.7704315185547
y: 281.1207275390625
z: -0.31247973442077637
visibility: 0.9999807476997375
","x: 172.66650390625
y: 274.2139892578125
z: -0.30586928129196167
visibility: 0.9999678730964661
","x: 173.8291015625
y: 273.58392333984375
z: -0.3058564066886902
visibility: 0.9999606609344482
","x: 175.0279541015625
y: 272.9761657714844
z: -0.3059268891811371
visibility: 0.9999639391899109
","x: 169.68563842773438
y: 275.90264892578125
z: -0.29906806349754333
visibility: 0.9999701976776123
","x: 168.74961853027344
y: 276.5212707519531
z: -0.29908958077430725
visibility: 0.9999597072601318
","x: 167.77255249023438
y: 277.1927490234375
z: -0.299072802066803
visibility: 0.9999608993530273
","x: 178.06837463378906
y: 274.78558349609375
z: -0.23380613327026367
visibility: 0.9999697208404541
","x: 166.46200561523438
y: 280.2856750488281
z: -0.202073335647583
visibility: 0.9999703764915466
","x: 175.24246215820312
y: 286.7675476074219
z: -0.2826462686061859
visibility: 0.9999759197235107
","x: 171.0041961669922
y: 288.24176025390625
z: -0.27359849214553833
visibility: 0.9999676942825317
","x: 193.5369110107422
y: 302.36773681640625
z: -0.20439210534095764
visibility: 0.9999566078186035
","x: 160.10379028320312
y: 314.46270751953125
z: -0.144460991024971
visibility: 0.9999390244483948
","x: 216.62684631347656
y: 287.4609680175781
z: -0.3827618956565857
visibility: 0.9995385408401489
","x: 145.05799865722656
y: 335.4249572753906
z: -0.26788026094436646
visibility: 0.9798179268836975
","x: 196.35311889648438
y: 277.6173095703125
z: -0.4989587664604187
visibility: 0.9949204325675964
","x: 148.7643585205078
y: 334.61456298828125
z: -0.4346691966056824
visibility: 0.9549885988235474
","x: 189.7892303466797
y: 277.8820495605469
z: -0.5315316915512085
visibility: 0.9735114574432373
","x: 148.73974609375
y: 338.4688720703125
z: -0.4678111970424652
visibility: 0.9017770290374756
","x: 187.62501525878906
y: 279.43817138671875
z: -0.5081514120101929
visibility: 0.9688254594802856
","x: 151.93698120117188
y: 335.5594177246094
z: -0.46186715364456177
visibility: 0.8934893608093262
","x: 189.0303955078125
y: 280.2384338378906
z: -0.4921855330467224
visibility: 0.9534103274345398
","x: 151.49163818359375
y: 335.16253662109375
z: -0.43802738189697266
visibility: 0.8776269555091858
","x: 188.35055541992188
y: 399.37860107421875
z: -0.012677167542278767
visibility: 0.9999274611473083
","x: 166.38827514648438
y: 400.8966064453125
z: 0.012453408911824226
visibility: 0.9999209046363831
","x: 194.21249389648438
y: 461.5113830566406
z: 0.013380788266658783
visibility: 0.9925085306167603
","x: 163.29698181152344
y: 460.601806640625
z: 0.016776520758867264
visibility: 0.9891929030418396
","x: 205.8076629638672
y: 524.396484375
z: 0.11183512210845947
visibility: 0.9904921054840088
","x: 158.3944091796875
y: 520.5218505859375
z: 0.1507299244403839
visibility: 0.9917436838150024
","x: 203.99456787109375
y: 534.1337890625
z: 0.11555429548025131
visibility: 0.8835182189941406
","x: 161.2401885986328
y: 528.6971435546875
z: 0.15865442156791687
visibility: 0.9089276790618896
","x: 214.152099609375
y: 545.3194580078125
z: 0.014228214509785175
visibility: 0.9819322228431702
","x: 152.36630249023438
y: 542.9610595703125
z: 0.0638033002614975
visibility: 0.9863075613975525
","x: 195.897216796875
y: 276.9635314941406
z: 0.0
","x: 191.8372039794922
y: 280.7188720703125
z: 0.001918818219564855
","x: 187.89718627929688
y: 282.3467712402344
z: 0.0012885357718914747
","x: 185.14309692382812
y: 282.5893859863281
z: -0.0005812313174828887
","x: 183.31324768066406
y: 281.9814147949219
z: -0.002026759786531329
","x: 183.9657440185547
y: 274.97509765625
z: 0.0030521773733198643
","x: 180.79234313964844
y: 275.953857421875
z: 0.0006266428390517831
","x: 180.07595825195312
y: 279.82208251953125
z: -0.0008472161134704947
","x: 180.30697631835938
y: 283.4371337890625
z: -0.0015325191197916865
","x: 184.48875427246094
y: 272.2876281738281
z: 2.2530448404722847e-05
","x: 181.3433380126953
y: 274.837158203125
z: -0.0024154330603778362
","x: 181.048828125
y: 279.4586181640625
z: -0.0036238557659089565
","x: 181.84384155273438
y: 282.97308349609375
z: -0.004122674930840731
","x: 185.60104370117188
y: 269.95806884765625
z: -0.0033346381969749928
","x: 184.12832641601562
y: 275.37890625
z: -0.005054785870015621
","x: 186.03248596191406
y: 280.16131591796875
z: -0.004729305859655142
","x: 188.1424102783203
y: 283.2131652832031
z: -0.004092505667358637
","x: 187.2959442138672
y: 268.370849609375
z: -0.006924861576408148
","x: 186.66744995117188
y: 273.86126708984375
z: -0.00733113894239068
","x: 188.24667358398438
y: 277.9472351074219
z: -0.00651184655725956
","x: 190.04238891601562
y: 280.53424072265625
z: -0.005695592612028122
",,,,,,,,,,,,,,,,,,,,,
8,"x: 171.99595642089844
y: 280.342041015625
z: -0.3051435053348541
visibility: 0.999977707862854
","x: 173.00112915039062
y: 273.60821533203125
z: -0.29614758491516113
visibility: 0.9999628663063049
","x: 174.18251037597656
y: 273.0447692871094
z: -0.29614412784576416
visibility: 0.9999550580978394
","x: 175.44325256347656
y: 272.4837646484375
z: -0.29619306325912476
visibility: 0.9999591708183289
","x: 170.10279846191406
y: 275.12164306640625
z: -0.2896516025066376
visibility: 0.9999655485153198
","x: 169.2460174560547
y: 275.6837158203125
z: -0.28967270255088806
visibility: 0.9999538064002991
","x: 168.3892822265625
y: 276.2787780761719
z: -0.2896592617034912
visibility: 0.9999544620513916
","x: 178.596923828125
y: 274.3970642089844
z: -0.22097761929035187
visibility: 0.9999647736549377
","x: 167.2220916748047
y: 279.42462158203125
z: -0.1902962177991867
visibility: 0.9999645948410034
","x: 175.45248413085938
y: 286.3305969238281
z: -0.27518224716186523
visibility: 0.9999693632125854
","x: 171.20301818847656
y: 287.64910888671875
z: -0.2664179801940918
visibility: 0.9999593496322632
","x: 193.5536651611328
y: 302.12353515625
z: -0.19920112192630768
visibility: 0.9999468922615051
","x: 160.1045379638672
y: 314.4583435058594
z: -0.13607776165008545
visibility: 0.9999220967292786
","x: 215.63304138183594
y: 284.6409912109375
z: -0.37978750467300415
visibility: 0.999483048915863
","x: 147.0083770751953
y: 335.6900329589844
z: -0.2623489499092102
visibility: 0.9745100140571594
","x: 197.51998901367188
y: 264.353515625
z: -0.4958634376525879
visibility: 0.9945411682128906
","x: 152.5765380859375
y: 336.4710998535156
z: -0.43373942375183105
visibility: 0.9460832476615906
","x: 190.9874267578125
y: 257.9913024902344
z: -0.5310819149017334
visibility: 0.9722293019294739
","x: 153.09934997558594
y: 340.33154296875
z: -0.46798476576805115
visibility: 0.8875927329063416
","x: 188.7888641357422
y: 258.000732421875
z: -0.5087069869041443
visibility: 0.9673466682434082
","x: 155.42446899414062
y: 337.330810546875
z: -0.4637088179588318
visibility: 0.8782995343208313
","x: 190.24966430664062
y: 261.5675048828125
z: -0.49047455191612244
visibility: 0.9517147541046143
","x: 155.0890350341797
y: 336.68096923828125
z: -0.4379205107688904
visibility: 0.8618645071983337
","x: 188.41064453125
y: 399.5648498535156
z: -0.01300688087940216
visibility: 0.9999262094497681
","x: 166.41014099121094
y: 401.6091613769531
z: 0.012813043780624866
visibility: 0.9999168515205383
","x: 194.55975341796875
y: 461.5132141113281
z: 0.016338322311639786
visibility: 0.9921783804893494
","x: 163.25009155273438
y: 460.9952087402344
z: 0.02289297617971897
visibility: 0.9888530373573303
","x: 205.80760192871094
y: 524.3302612304688
z: 0.12460224330425262
visibility: 0.9903175830841064
","x: 158.40396118164062
y: 520.5150146484375
z: 0.16597476601600647
visibility: 0.9916045665740967
","x: 203.9930877685547
y: 534.1320190429688
z: 0.1290578544139862
visibility: 0.8825197815895081
","x: 161.28054809570312
y: 528.7279663085938
z: 0.17493227124214172
visibility: 0.9076655507087708
","x: 214.19273376464844
y: 545.2239379882812
z: 0.02735663391649723
visibility: 0.9816751480102539
","x: 152.35372924804688
y: 542.738525390625
z: 0.08093182742595673
visibility: 0.986109733581543
","x: 194.6209259033203
y: 256.9491271972656
z: 0.0
","x: 189.7947235107422
y: 259.43341064453125
z: -0.0015046015614643693
","x: 185.57705688476562
y: 259.8408203125
z: -0.0046299537643790245
","x: 183.30946350097656
y: 259.0279846191406
z: -0.008284538052976131
","x: 182.34727478027344
y: 257.4781494140625
z: -0.01122014969587326
","x: 182.58590698242188
y: 246.63388061523438
z: -0.004704887047410011
","x: 180.622314453125
y: 250.7728271484375
z: -0.009831479750573635
","x: 182.70205688476562
y: 255.09278869628906
z: -0.011805186048150063
","x: 184.4439697265625
y: 256.69366455078125
z: -0.012590497732162476
","x: 185.1669158935547
y: 243.83334350585938
z: -0.007238824386149645
","x: 183.67713928222656
y: 250.20809936523438
z: -0.012451746501028538
","x: 185.0857391357422
y: 254.49212646484375
z: -0.01257926132529974
","x: 186.15733337402344
y: 256.1184387207031
z: -0.01229507103562355
","x: 188.41748046875
y: 242.60003662109375
z: -0.010218867100775242
","x: 187.09848022460938
y: 249.25509643554688
z: -0.014800536446273327
","x: 187.8984375
y: 253.91456604003906
z: -0.013057127594947815
","x: 188.56332397460938
y: 256.5668640136719
z: -0.011367891915142536
","x: 191.8740997314453
y: 242.7020263671875
z: -0.013531013391911983
","x: 190.4762725830078
y: 246.98715209960938
z: -0.016368497163057327
","x: 190.4290771484375
y: 251.1482391357422
z: -0.01512715220451355
","x: 190.63766479492188
y: 254.12060546875
z: -0.013760571368038654
",,,,,,,,,,,,,,,,,,,,,
9,"x: 171.99595642089844
y: 280.342041015625
z: -0.3051435053348541
visibility: 0.999977707862854
","x: 173.00112915039062
y: 273.60821533203125
z: -0.29614758491516113
visibility: 0.9999628663063049
","x: 174.18251037597656
y: 273.0447692871094
z: -0.29614412784576416
visibility: 0.9999550580978394
","x: 175.44325256347656
y: 272.4837646484375
z: -0.29619306325912476
visibility: 0.9999591708183289
","x: 170.10279846191406
y: 275.12164306640625
z: -0.2896516025066376
visibility: 0.9999655485153198
","x: 169.2460174560547
y: 275.6837158203125
z: -0.28967270255088806
visibility: 0.9999538064002991
","x: 168.3892822265625
y: 276.2787780761719
z: -0.2896592617034912
visibility: 0.9999544620513916
","x: 178.596923828125
y: 274.3970642089844
z: -0.22097761929035187
visibility: 0.9999647736549377
","x: 167.2220916748047
y: 279.42462158203125
z: -0.1902962177991867
visibility: 0.9999645948410034
","x: 175.45248413085938
y: 286.3305969238281
z: -0.27518224716186523
visibility: 0.9999693632125854
","x: 171.20301818847656
y: 287.64910888671875
z: -0.2664179801940918
visibility: 0.9999593496322632
","x: 193.5536651611328
y: 302.12353515625
z: -0.19920112192630768
visibility: 0.9999468922615051
","x: 160.1045379638672
y: 314.4583435058594
z: -0.13607776165008545
visibility: 0.9999220967292786
","x: 215.63304138183594
y: 284.6409912109375
z: -0.37978750467300415
visibility: 0.999483048915863
","x: 147.0083770751953
y: 335.6900329589844
z: -0.2623489499092102
visibility: 0.9745100140571594
","x: 197.51998901367188
y: 264.353515625
z: -0.4958634376525879
visibility: 0.9945411682128906
","x: 152.5765380859375
y: 336.4710998535156
z: -0.43373942375183105
visibility: 0.9460832476615906
","x: 190.9874267578125
y: 257.9913024902344
z: -0.5310819149017334
visibility: 0.9722293019294739
","x: 153.09934997558594
y: 340.33154296875
z: -0.46798476576805115
visibility: 0.8875927329063416
","x: 188.7888641357422
y: 258.000732421875
z: -0.5087069869041443
visibility: 0.9673466682434082
","x: 155.42446899414062
y: 337.330810546875
z: -0.4637088179588318
visibility: 0.8782995343208313
","x: 190.24966430664062
y: 261.5675048828125
z: -0.49047455191612244
visibility: 0.9517147541046143
","x: 155.0890350341797
y: 336.68096923828125
z: -0.4379205107688904
visibility: 0.8618645071983337
","x: 188.41064453125
y: 399.5648498535156
z: -0.01300688087940216
visibility: 0.9999262094497681
","x: 166.41014099121094
y: 401.6091613769531
z: 0.012813043780624866
visibility: 0.9999168515205383
","x: 194.55975341796875
y: 461.5132141113281
z: 0.016338322311639786
visibility: 0.9921783804893494
","x: 163.25009155273438
y: 460.9952087402344
z: 0.02289297617971897
visibility: 0.9888530373573303
","x: 205.80760192871094
y: 524.3302612304688
z: 0.12460224330425262
visibility: 0.9903175830841064
","x: 158.40396118164062
y: 520.5150146484375
z: 0.16597476601600647
visibility: 0.9916045665740967
","x: 203.9930877685547
y: 534.1320190429688
z: 0.1290578544139862
visibility: 0.8825197815895081
","x: 161.28054809570312
y: 528.7279663085938
z: 0.17493227124214172
visibility: 0.9076655507087708
","x: 214.19273376464844
y: 545.2239379882812
z: 0.02735663391649723
visibility: 0.9816751480102539
","x: 152.35372924804688
y: 542.738525390625
z: 0.08093182742595673
visibility: 0.986109733581543
","x: 194.6209259033203
y: 256.9491271972656
z: 0.0
","x: 189.7947235107422
y: 259.43341064453125
z: -0.0015046015614643693
","x: 185.57705688476562
y: 259.8408203125
z: -0.0046299537643790245
","x: 183.30946350097656
y: 259.0279846191406
z: -0.008284538052976131
","x: 182.34727478027344
y: 257.4781494140625
z: -0.01122014969587326
","x: 182.58590698242188
y: 246.63388061523438
z: -0.004704887047410011
","x: 180.622314453125
y: 250.7728271484375
z: -0.009831479750573635
","x: 182.70205688476562
y: 255.09278869628906
z: -0.011805186048150063
","x: 184.4439697265625
y: 256.69366455078125
z: -0.012590497732162476
","x: 185.1669158935547
y: 243.83334350585938
z: -0.007238824386149645
","x: 183.67713928222656
y: 250.20809936523438
z: -0.012451746501028538
","x: 185.0857391357422
y: 254.49212646484375
z: -0.01257926132529974
","x: 186.15733337402344
y: 256.1184387207031
z: -0.01229507103562355
","x: 188.41748046875
y: 242.60003662109375
z: -0.010218867100775242
","x: 187.09848022460938
y: 249.25509643554688
z: -0.014800536446273327
","x: 187.8984375
y: 253.91456604003906
z: -0.013057127594947815
","x: 188.56332397460938
y: 256.5668640136719
z: -0.011367891915142536
","x: 191.8740997314453
y: 242.7020263671875
z: -0.013531013391911983
","x: 190.4762725830078
y: 246.98715209960938
z: -0.016368497163057327
","x: 190.4290771484375
y: 251.1482391357422
z: -0.01512715220451355
","x: 190.63766479492188
y: 254.12060546875
z: -0.013760571368038654
",,,,,,,,,,,,,,,,,,,,,
10,"x: 172.51136779785156
y: 280.3491516113281
z: -0.28164947032928467
visibility: 0.9999778270721436
","x: 173.8810272216797
y: 273.39654541015625
z: -0.270687460899353
visibility: 0.999963104724884
","x: 175.2144317626953
y: 272.77166748046875
z: -0.27066460251808167
visibility: 0.9999547004699707
","x: 176.59292602539062
y: 272.208251953125
z: -0.27064892649650574
visibility: 0.9999575614929199
","x: 170.66725158691406
y: 275.083984375
z: -0.267960786819458
visibility: 0.9999668002128601
","x: 169.75167846679688
y: 275.6545715332031
z: -0.2679973542690277
visibility: 0.9999558925628662
","x: 168.84678649902344
y: 276.2432556152344
z: -0.2680267095565796
visibility: 0.9999563694000244
","x: 179.23995971679688
y: 274.2525329589844
z: -0.18304014205932617
visibility: 0.9999608993530273
","x: 167.4990997314453
y: 279.1231384277344
z: -0.17182829976081848
visibility: 0.9999662041664124
","x: 175.99542236328125
y: 286.3001708984375
z: -0.24691259860992432
visibility: 0.9999651312828064
","x: 171.46432495117188
y: 287.7270202636719
z: -0.2439226359128952
visibility: 0.9999598860740662
","x: 193.55978393554688
y: 302.41815185546875
z: -0.14253288507461548
visibility: 0.9999141097068787
","x: 160.14463806152344
y: 313.2998046875
z: -0.13284072279930115
visibility: 0.9999154210090637
","x: 210.1420440673828
y: 271.3985290527344
z: -0.2605631947517395
visibility: 0.9991161227226257
","x: 147.74400329589844
y: 336.0058288574219
z: -0.26781192421913147
visibility: 0.9740957021713257
","x: 200.1089630126953
y: 225.8177490234375
z: -0.3577846586704254
visibility: 0.9944208860397339
","x: 155.51048278808594
y: 334.0441589355469
z: -0.46102991700172424
visibility: 0.944934606552124
","x: 199.08998107910156
y: 213.84222412109375
z: -0.3913670480251312
visibility: 0.9727524518966675
","x: 157.13792419433594
y: 336.693359375
z: -0.4980863928794861
visibility: 0.8852857947349548
","x: 196.82037353515625
y: 212.81858825683594
z: -0.38530269265174866
visibility: 0.968065083026886
","x: 160.12782287597656
y: 332.7447814941406
z: -0.495353639125824
visibility: 0.8757629990577698
","x: 196.49777221679688
y: 216.8059539794922
z: -0.35976123809814453
visibility: 0.9532742500305176
","x: 159.7624053955078
y: 333.01123046875
z: -0.4650405943393707
visibility: 0.8586072325706482
","x: 188.3155059814453
y: 399.1866455078125
z: -0.00867629237473011
visibility: 0.9999269843101501
","x: 166.3208465576172
y: 400.2756042480469
z: 0.008544722571969032
visibility: 0.9999205470085144
","x: 194.64541625976562
y: 461.52362060546875
z: 0.0363641194999218
visibility: 0.9925124645233154
","x: 162.84017944335938
y: 460.1768493652344
z: 0.03075418993830681
visibility: 0.9894697070121765
","x: 205.81942749023438
y: 524.3562622070312
z: 0.15824617445468903
visibility: 0.9906839728355408
","x: 158.37620544433594
y: 520.413330078125
z: 0.18068739771842957
visibility: 0.9920513033866882
","x: 203.98997497558594
y: 534.236083984375
z: 0.16408805549144745
visibility: 0.8891700506210327
","x: 161.2845916748047
y: 528.632568359375
z: 0.19062134623527527
visibility: 0.9118888974189758
","x: 214.42654418945312
y: 545.2257690429688
z: 0.06641588360071182
visibility: 0.9825418591499329
","x: 152.3414306640625
y: 542.7332763671875
z: 0.09463007748126984
visibility: 0.9867734909057617
","x: 201.01991271972656
y: 221.4532470703125
z: 0.0
","x: 197.8223876953125
y: 219.729248046875
z: -0.0021757360082119703
","x: 195.20310974121094
y: 215.62152099609375
z: -0.004074777476489544
","x: 195.15438842773438
y: 211.357421875
z: -0.006391638889908791
","x: 196.42239379882812
y: 207.95315551757812
z: -0.008356420323252678
","x: 194.63047790527344
y: 206.2234344482422
z: -0.0014951780904084444
","x: 193.73291015625
y: 198.72007751464844
z: -0.004643184132874012
","x: 194.04827880859375
y: 194.7315673828125
z: -0.006185424048453569
","x: 194.6024169921875
y: 191.95919799804688
z: -0.0070102703757584095
","x: 197.15538024902344
y: 205.20567321777344
z: -0.0027845122385770082
","x: 196.0202178955078
y: 197.15292358398438
z: -0.0062444754876196384
","x: 195.94509887695312
y: 192.2482147216797
z: -0.007701266091316938
","x: 196.20916748046875
y: 188.65985107421875
z: -0.008274161256849766
","x: 199.78237915039062
y: 205.68128967285156
z: -0.004650456365197897
","x: 199.81349182128906
y: 203.17315673828125
z: -0.007981930859386921
","x: 199.53514099121094
y: 207.32241821289062
z: -0.00744363758713007
","x: 199.6231689453125
y: 210.45278930664062
z: -0.006072120275348425
","x: 202.6459197998047
y: 207.205322265625
z: -0.007068905979394913
","x: 202.68850708007812
y: 205.2535400390625
z: -0.009417925029993057
","x: 202.2772674560547
y: 207.9927215576172
z: -0.009138082154095173
","x: 202.19493103027344
y: 210.34036254882812
z: -0.008141370490193367
",,,,,,,,,,,,,,,,,,,,,
11,"x: 172.51136779785156
y: 280.3491516113281
z: -0.28164947032928467
visibility: 0.9999778270721436
","x: 173.8810272216797
y: 273.39654541015625
z: -0.270687460899353
visibility: 0.999963104724884
","x: 175.2144317626953
y: 272.77166748046875
z: -0.27066460251808167
visibility: 0.9999547004699707
","x: 176.59292602539062
y: 272.208251953125
z: -0.27064892649650574
visibility: 0.9999575614929199
","x: 170.66725158691406
y: 275.083984375
z: -0.267960786819458
visibility: 0.9999668002128601
","x: 169.75167846679688
y: 275.6545715332031
z: -0.2679973542690277
visibility: 0.9999558925628662
","x: 168.84678649902344
y: 276.2432556152344
z: -0.2680267095565796
visibility: 0.9999563694000244
","x: 179.23995971679688
y: 274.2525329589844
z: -0.18304014205932617
visibility: 0.9999608993530273
","x: 167.4990997314453
y: 279.1231384277344
z: -0.17182829976081848
visibility: 0.9999662041664124
","x: 175.99542236328125
y: 286.3001708984375
z: -0.24691259860992432
visibility: 0.9999651312828064
","x: 171.46432495117188
y: 287.7270202636719
z: -0.2439226359128952
visibility: 0.9999598860740662
","x: 193.55978393554688
y: 302.41815185546875
z: -0.14253288507461548
visibility: 0.9999141097068787
","x: 160.14463806152344
y: 313.2998046875
z: -0.13284072279930115
visibility: 0.9999154210090637
","x: 210.1420440673828
y: 271.3985290527344
z: -0.2605631947517395
visibility: 0.9991161227226257
","x: 147.74400329589844
y: 336.0058288574219
z: -0.26781192421913147
visibility: 0.9740957021713257
","x: 200.1089630126953
y: 225.8177490234375
z: -0.3577846586704254
visibility: 0.9944208860397339
","x: 155.51048278808594
y: 334.0441589355469
z: -0.46102991700172424
visibility: 0.944934606552124
","x: 199.08998107910156
y: 213.84222412109375
z: -0.3913670480251312
visibility: 0.9727524518966675
","x: 157.13792419433594
y: 336.693359375
z: -0.4980863928794861
visibility: 0.8852857947349548
","x: 196.82037353515625
y: 212.81858825683594
z: -0.38530269265174866
visibility: 0.968065083026886
","x: 160.12782287597656
y: 332.7447814941406
z: -0.495353639125824
visibility: 0.8757629990577698
","x: 196.49777221679688
y: 216.8059539794922
z: -0.35976123809814453
visibility: 0.9532742500305176
","x: 159.7624053955078
y: 333.01123046875
z: -0.4650405943393707
visibility: 0.8586072325706482
","x: 188.3155059814453
y: 399.1866455078125
z: -0.00867629237473011
visibility: 0.9999269843101501
","x: 166.3208465576172
y: 400.2756042480469
z: 0.008544722571969032
visibility: 0.9999205470085144
","x: 194.64541625976562
y: 461.52362060546875
z: 0.0363641194999218
visibility: 0.9925124645233154
","x: 162.84017944335938
y: 460.1768493652344
z: 0.03075418993830681
visibility: 0.9894697070121765
","x: 205.81942749023438
y: 524.3562622070312
z: 0.15824617445468903
visibility: 0.9906839728355408
","x: 158.37620544433594
y: 520.413330078125
z: 0.18068739771842957
visibility: 0.9920513033866882
","x: 203.98997497558594
y: 534.236083984375
z: 0.16408805549144745
visibility: 0.8891700506210327
","x: 161.2845916748047
y: 528.632568359375
z: 0.19062134623527527
visibility: 0.9118888974189758
","x: 214.42654418945312
y: 545.2257690429688
z: 0.06641588360071182
visibility: 0.9825418591499329
","x: 152.3414306640625
y: 542.7332763671875
z: 0.09463007748126984
visibility: 0.9867734909057617
","x: 201.01991271972656
y: 221.4532470703125
z: 0.0
","x: 197.8223876953125
y: 219.729248046875
z: -0.0021757360082119703
","x: 195.20310974121094
y: 215.62152099609375
z: -0.004074777476489544
","x: 195.15438842773438
y: 211.357421875
z: -0.006391638889908791
","x: 196.42239379882812
y: 207.95315551757812
z: -0.008356420323252678
","x: 194.63047790527344
y: 206.2234344482422
z: -0.0014951780904084444
","x: 193.73291015625
y: 198.72007751464844
z: -0.004643184132874012
","x: 194.04827880859375
y: 194.7315673828125
z: -0.006185424048453569
","x: 194.6024169921875
y: 191.95919799804688
z: -0.0070102703757584095
","x: 197.15538024902344
y: 205.20567321777344
z: -0.0027845122385770082
","x: 196.0202178955078
y: 197.15292358398438
z: -0.0062444754876196384
","x: 195.94509887695312
y: 192.2482147216797
z: -0.007701266091316938
","x: 196.20916748046875
y: 188.65985107421875
z: -0.008274161256849766
","x: 199.78237915039062
y: 205.68128967285156
z: -0.004650456365197897
","x: 199.81349182128906
y: 203.17315673828125
z: -0.007981930859386921
","x: 199.53514099121094
y: 207.32241821289062
z: -0.00744363758713007
","x: 199.6231689453125
y: 210.45278930664062
z: -0.006072120275348425
","x: 202.6459197998047
y: 207.205322265625
z: -0.007068905979394913
","x: 202.68850708007812
y: 205.2535400390625
z: -0.009417925029993057
","x: 202.2772674560547
y: 207.9927215576172
z: -0.009138082154095173
","x: 202.19493103027344
y: 210.34036254882812
z: -0.008141370490193367
",,,,,,,,,,,,,,,,,,,,,
12,"x: 175.4286346435547
y: 281.36700439453125
z: -0.3002367913722992
visibility: 0.9999608993530273
","x: 177.57833862304688
y: 274.8938903808594
z: -0.2898641526699066
visibility: 0.9999088048934937
","x: 178.9588165283203
y: 274.83953857421875
z: -0.28983625769615173
visibility: 0.9998731017112732
","x: 180.29788208007812
y: 274.89874267578125
z: -0.28985410928726196
visibility: 0.9998699426651001
","x: 173.60594177246094
y: 275.614013671875
z: -0.28629568219184875
visibility: 0.9999465942382812
","x: 172.3983154296875
y: 276.03485107421875
z: -0.28632837533950806
visibility: 0.9999353289604187
","x: 171.27711486816406
y: 276.52703857421875
z: -0.28630149364471436
visibility: 0.9999375939369202
","x: 182.40611267089844
y: 277.03021240234375
z: -0.19466087222099304
visibility: 0.9998331069946289
","x: 169.0341796875
y: 279.2672424316406
z: -0.20513741672039032
visibility: 0.9999545216560364
","x: 178.46347045898438
y: 287.67559814453125
z: -0.2626630663871765
visibility: 0.9998432397842407
","x: 173.49346923828125
y: 288.42596435546875
z: -0.26168936491012573
visibility: 0.9999242424964905
","x: 193.56814575195312
y: 301.48773193359375
z: -0.1307264268398285
visibility: 0.999799907207489
","x: 161.0547332763672
y: 311.7843933105469
z: -0.17400294542312622
visibility: 0.9998981356620789
","x: 203.65814208984375
y: 254.12319946289062
z: -0.16625380516052246
visibility: 0.998092532157898
","x: 149.6475067138672
y: 336.2051696777344
z: -0.34185442328453064
visibility: 0.9727919101715088
","x: 208.25889587402344
y: 208.61441040039062
z: -0.20706002414226532
visibility: 0.9940080642700195
","x: 158.5116729736328
y: 335.4544677734375
z: -0.5430673360824585
visibility: 0.9413564801216125
","x: 211.49830627441406
y: 199.8720703125
z: -0.23105137050151825
visibility: 0.9727992415428162
","x: 159.74887084960938
y: 339.2548828125
z: -0.5852557420730591
visibility: 0.879339873790741
","x: 210.36460876464844
y: 199.26222229003906
z: -0.2404317408800125
visibility: 0.9685618281364441
","x: 163.37051391601562
y: 334.8486022949219
z: -0.585023045539856
visibility: 0.8703941702842712
","x: 209.0804443359375
y: 202.1418914794922
z: -0.21543169021606445
visibility: 0.9548463821411133
","x: 163.18910217285156
y: 334.6104431152344
z: -0.5485779047012329
visibility: 0.8513067960739136
","x: 189.10411071777344
y: 398.61981201171875
z: 0.0036873717326670885
visibility: 0.9999108910560608
","x: 167.21295166015625
y: 399.12860107421875
z: -0.0037960349582135677
visibility: 0.9999163746833801
","x: 194.65855407714844
y: 461.51995849609375
z: 0.01931537315249443
visibility: 0.992933988571167
","x: 162.69781494140625
y: 458.63385009765625
z: -0.025913676247000694
visibility: 0.9900246858596802
","x: 205.8914337158203
y: 524.4598999023438
z: 0.13673007488250732
visibility: 0.9909934997558594
","x: 158.4177703857422
y: 519.7584228515625
z: 0.1235005110502243
visibility: 0.9925094842910767
","x: 204.0093231201172
y: 534.8392333984375
z: 0.1418565809726715
visibility: 0.8951975703239441
","x: 161.29855346679688
y: 528.1968383789062
z: 0.13237370550632477
visibility: 0.9168333411216736
","x: 214.42710876464844
y: 545.2537231445312
z: 0.03540130704641342
visibility: 0.9832284450531006
","x: 152.34881591796875
y: 542.6932983398438
z: 0.016586001962423325
visibility: 0.9874288439750671
",,,,,,,,,,,,,,,,,,,,,,,,,,,,,,,,,,,,,,,,,,
13,"x: 178.23550415039062
y: 278.7629089355469
z: -0.2921988368034363
visibility: 0.9998998641967773
","x: 180.70266723632812
y: 273.2676086425781
z: -0.278771311044693
visibility: 0.999710202217102
","x: 182.0266571044922
y: 273.4139099121094
z: -0.2787673771381378
visibility: 0.999636709690094
","x: 183.36483764648438
y: 273.62457275390625
z: -0.27879583835601807
visibility: 0.9996103644371033
","x: 177.0094757080078
y: 273.26953125
z: -0.27912551164627075
visibility: 0.9998359680175781
","x: 175.87820434570312
y: 273.3932800292969
z: -0.2791699469089508
visibility: 0.9998164176940918
","x: 174.80242919921875
y: 273.5128173828125
z: -0.27919691801071167
visibility: 0.9998255968093872
","x: 185.4344940185547
y: 276.30859375
z: -0.18173816800117493
visibility: 0.999360203742981
","x: 173.45053100585938
y: 275.57452392578125
z: -0.19015297293663025
visibility: 0.9998190402984619
","x: 181.26492309570312
y: 284.41571044921875
z: -0.25418514013290405
visibility: 0.9994169473648071
","x: 176.14064025878906
y: 284.6988220214844
z: -0.2560109496116638
visibility: 0.999744176864624
","x: 194.02734375
y: 299.8984375
z: -0.1388375461101532
visibility: 0.9996342658996582
","x: 163.06845092773438
y: 309.6196594238281
z: -0.12692537903785706
visibility: 0.9997466206550598
","x: 202.91844177246094
y: 245.89529418945312
z: -0.18722660839557648
visibility: 0.9973687529563904
","x: 148.9684600830078
y: 336.36981201171875
z: -0.21943116188049316
visibility: 0.9644812345504761
","x: 207.8784637451172
y: 199.386962890625
z: -0.24865445494651794
visibility: 0.9932988286018372
","x: 148.89105224609375
y: 336.1476135253906
z: -0.3966835141181946
visibility: 0.9272977113723755
","x: 211.33277893066406
y: 191.4087677001953
z: -0.28027793765068054
visibility: 0.9717374444007874
","x: 147.2092742919922
y: 339.55657958984375
z: -0.43329134583473206
visibility: 0.8604023456573486
","x: 210.6148223876953
y: 190.3909912109375
z: -0.28917792439460754
visibility: 0.9678391218185425
","x: 150.01596069335938
y: 335.1751403808594
z: -0.443647563457489
visibility: 0.8538566827774048
","x: 209.27578735351562
y: 192.7622833251953
z: -0.25756797194480896
visibility: 0.9553722739219666
","x: 150.88099670410156
y: 334.7825927734375
z: -0.40677013993263245
visibility: 0.8356308937072754
","x: 191.22366333007812
y: 399.20050048828125
z: 0.0012165061198174953
visibility: 0.9998770952224731
","x: 169.2165985107422
y: 399.1936950683594
z: -0.001352581661194563
visibility: 0.999902606010437
","x: 196.88796997070312
y: 462.2737121582031
z: 0.022099973633885384
visibility: 0.9931730628013611
","x: 162.9728240966797
y: 459.5946960449219
z: -0.028603747487068176
visibility: 0.9904682636260986
","x: 206.12591552734375
y: 524.4058837890625
z: 0.18982481956481934
visibility: 0.9909362196922302
","x: 158.48345947265625
y: 519.732666015625
z: 0.14016011357307434
visibility: 0.992784857749939
","x: 204.00486755371094
y: 534.8277587890625
z: 0.20027630031108856
visibility: 0.896822452545166
","x: 161.29739379882812
y: 527.9798583984375
z: 0.15194496512413025
visibility: 0.9199931621551514
","x: 214.33120727539062
y: 545.588623046875
z: 0.09200377762317657
visibility: 0.9832993149757385
","x: 152.2858428955078
y: 542.8026123046875
z: 0.036115068942308426
visibility: 0.987835705280304
","x: 207.96119689941406
y: 198.64553833007812
z: 0.0
","x: 207.7319793701172
y: 195.320556640625
z: -0.003864552825689316
","x: 209.2386474609375
y: 190.54283142089844
z: -0.005366558209061623
","x: 212.1156768798828
y: 188.52978515625
z: -0.006644194480031729
","x: 214.61985778808594
y: 187.1075439453125
z: -0.007715778890997171
","x: 210.12161254882812
y: 182.36776733398438
z: -0.002003862289711833
","x: 211.3791961669922
y: 175.1685333251953
z: -0.004131413530558348
","x: 212.2685546875
y: 170.4828643798828
z: -0.0060988604091107845
","x: 212.9502410888672
y: 166.74163818359375
z: -0.007415216416120529
","x: 211.6137237548828
y: 183.83226013183594
z: -0.001223112572915852
","x: 214.90188598632812
y: 181.08456420898438
z: -0.00420893169939518
","x: 216.9286346435547
y: 183.4625244140625
z: -0.0062378100119531155
","x: 217.7482452392578
y: 186.58416748046875
z: -0.006977539975196123
","x: 212.5254669189453
y: 185.7260284423828
z: -0.0009150167461484671
","x: 215.59033203125
y: 183.80841064453125
z: -0.003793603042140603
","x: 216.97119140625
y: 185.7098388671875
z: -0.005387036129832268
","x: 217.54335021972656
y: 188.33229064941406
z: -0.005758525803685188
","x: 213.171142578125
y: 188.21473693847656
z: -0.0010453748982399702
","x: 215.57534790039062
y: 186.60272216796875
z: -0.0031601956579834223
","x: 216.70840454101562
y: 187.70921325683594
z: -0.004375345539301634
","x: 217.0762481689453
y: 189.46746826171875
z: -0.004681684076786041
",,,,,,,,,,,,,,,,,,,,,
14,"x: 178.23550415039062
y: 278.7629089355469
z: -0.2921988368034363
visibility: 0.9998998641967773
","x: 180.70266723632812
y: 273.2676086425781
z: -0.278771311044693
visibility: 0.999710202217102
","x: 182.0266571044922
y: 273.4139099121094
z: -0.2787673771381378
visibility: 0.999636709690094
","x: 183.36483764648438
y: 273.62457275390625
z: -0.27879583835601807
visibility: 0.9996103644371033
","x: 177.0094757080078
y: 273.26953125
z: -0.27912551164627075
visibility: 0.9998359680175781
","x: 175.87820434570312
y: 273.3932800292969
z: -0.2791699469089508
visibility: 0.9998164176940918
","x: 174.80242919921875
y: 273.5128173828125
z: -0.27919691801071167
visibility: 0.9998255968093872
","x: 185.4344940185547
y: 276.30859375
z: -0.18173816800117493
visibility: 0.999360203742981
","x: 173.45053100585938
y: 275.57452392578125
z: -0.19015297293663025
visibility: 0.9998190402984619
","x: 181.26492309570312
y: 284.41571044921875
z: -0.25418514013290405
visibility: 0.9994169473648071
","x: 176.14064025878906
y: 284.6988220214844
z: -0.2560109496116638
visibility: 0.999744176864624
","x: 194.02734375
y: 299.8984375
z: -0.1388375461101532
visibility: 0.9996342658996582
","x: 163.06845092773438
y: 309.6196594238281
z: -0.12692537903785706
visibility: 0.9997466206550598
","x: 202.91844177246094
y: 245.89529418945312
z: -0.18722660839557648
visibility: 0.9973687529563904
","x: 148.9684600830078
y: 336.36981201171875
z: -0.21943116188049316
visibility: 0.9644812345504761
","x: 207.8784637451172
y: 199.386962890625
z: -0.24865445494651794
visibility: 0.9932988286018372
","x: 148.89105224609375
y: 336.1476135253906
z: -0.3966835141181946
visibility: 0.9272977113723755
","x: 211.33277893066406
y: 191.4087677001953
z: -0.28027793765068054
visibility: 0.9717374444007874
","x: 147.2092742919922
y: 339.55657958984375
z: -0.43329134583473206
visibility: 0.8604023456573486
","x: 210.6148223876953
y: 190.3909912109375
z: -0.28917792439460754
visibility: 0.9678391218185425
","x: 150.01596069335938
y: 335.1751403808594
z: -0.443647563457489
visibility: 0.8538566827774048
","x: 209.27578735351562
y: 192.7622833251953
z: -0.25756797194480896
visibility: 0.9553722739219666
","x: 150.88099670410156
y: 334.7825927734375
z: -0.40677013993263245
visibility: 0.8356308937072754
","x: 191.22366333007812
y: 399.20050048828125
z: 0.0012165061198174953
visibility: 0.9998770952224731
","x: 169.2165985107422
y: 399.1936950683594
z: -0.001352581661194563
visibility: 0.999902606010437
","x: 196.88796997070312
y: 462.2737121582031
z: 0.022099973633885384
visibility: 0.9931730628013611
","x: 162.9728240966797
y: 459.5946960449219
z: -0.028603747487068176
visibility: 0.9904682636260986
","x: 206.12591552734375
y: 524.4058837890625
z: 0.18982481956481934
visibility: 0.9909362196922302
","x: 158.48345947265625
y: 519.732666015625
z: 0.14016011357307434
visibility: 0.992784857749939
","x: 204.00486755371094
y: 534.8277587890625
z: 0.20027630031108856
visibility: 0.896822452545166
","x: 161.29739379882812
y: 527.9798583984375
z: 0.15194496512413025
visibility: 0.9199931621551514
","x: 214.33120727539062
y: 545.588623046875
z: 0.09200377762317657
visibility: 0.9832993149757385
","x: 152.2858428955078
y: 542.8026123046875
z: 0.036115068942308426
visibility: 0.987835705280304
","x: 207.96119689941406
y: 198.64553833007812
z: 0.0
","x: 207.7319793701172
y: 195.320556640625
z: -0.003864552825689316
","x: 209.2386474609375
y: 190.54283142089844
z: -0.005366558209061623
","x: 212.1156768798828
y: 188.52978515625
z: -0.006644194480031729
","x: 214.61985778808594
y: 187.1075439453125
z: -0.007715778890997171
","x: 210.12161254882812
y: 182.36776733398438
z: -0.002003862289711833
","x: 211.3791961669922
y: 175.1685333251953
z: -0.004131413530558348
","x: 212.2685546875
y: 170.4828643798828
z: -0.0060988604091107845
","x: 212.9502410888672
y: 166.74163818359375
z: -0.007415216416120529
","x: 211.6137237548828
y: 183.83226013183594
z: -0.001223112572915852
","x: 214.90188598632812
y: 181.08456420898438
z: -0.00420893169939518
","x: 216.9286346435547
y: 183.4625244140625
z: -0.0062378100119531155
","x: 217.7482452392578
y: 186.58416748046875
z: -0.006977539975196123
","x: 212.5254669189453
y: 185.7260284423828
z: -0.0009150167461484671
","x: 215.59033203125
y: 183.80841064453125
z: -0.003793603042140603
","x: 216.97119140625
y: 185.7098388671875
z: -0.005387036129832268
","x: 217.54335021972656
y: 188.33229064941406
z: -0.005758525803685188
","x: 213.171142578125
y: 188.21473693847656
z: -0.0010453748982399702
","x: 215.57534790039062
y: 186.60272216796875
z: -0.0031601956579834223
","x: 216.70840454101562
y: 187.70921325683594
z: -0.004375345539301634
","x: 217.0762481689453
y: 189.46746826171875
z: -0.004681684076786041
",,,,,,,,,,,,,,,,,,,,,
15,"x: 181.18930053710938
y: 276.5487060546875
z: -0.23990976810455322
visibility: 0.9998304843902588
","x: 183.95806884765625
y: 271.38006591796875
z: -0.22277283668518066
visibility: 0.9995238184928894
","x: 185.48117065429688
y: 271.6452941894531
z: -0.22276921570301056
visibility: 0.999392032623291
","x: 187.0189208984375
y: 271.94146728515625
z: -0.222782701253891
visibility: 0.9993866682052612
","x: 180.2026824951172
y: 270.7767333984375
z: -0.22239002585411072
visibility: 0.9997267723083496
","x: 179.02659606933594
y: 270.6469421386719
z: -0.22242486476898193
visibility: 0.999697208404541
","x: 177.88052368164062
y: 270.48565673828125
z: -0.2224648892879486
visibility: 0.9997183680534363
","x: 189.60430908203125
y: 275.3795166015625
z: -0.12355053424835205
visibility: 0.9988012909889221
","x: 177.27581787109375
y: 273.0267028808594
z: -0.12606441974639893
visibility: 0.9996393322944641
","x: 183.56314086914062
y: 282.86151123046875
z: -0.2031444013118744
visibility: 0.9988367557525635
","x: 178.9652099609375
y: 282.5643005371094
z: -0.20410342514514923
visibility: 0.9994657039642334
","x: 197.23118591308594
y: 298.8714294433594
z: -0.09569151699542999
visibility: 0.999395489692688
","x: 169.53688049316406
y: 309.9541931152344
z: -0.0789261907339096
visibility: 0.9995530247688293
","x: 204.49908447265625
y: 252.7797088623047
z: -0.14716140925884247
visibility: 0.9963900446891785
","x: 156.8720703125
y: 332.3510437011719
z: -0.19926747679710388
visibility: 0.9459950923919678
","x: 207.34523010253906
y: 209.23114013671875
z: -0.18581703305244446
visibility: 0.9927746057510376
","x: 152.4903564453125
y: 332.62261962890625
z: -0.3947002589702606
visibility: 0.8991838693618774
","x: 209.5304718017578
y: 194.69125366210938
z: -0.21380615234375
visibility: 0.9711589217185974
","x: 148.99488830566406
y: 334.8094177246094
z: -0.4327506422996521
visibility: 0.8280350565910339
","x: 208.63848876953125
y: 193.253662109375
z: -0.21928732097148895
visibility: 0.967552661895752
","x: 151.69790649414062
y: 332.42364501953125
z: -0.44032150506973267
visibility: 0.8234135508537292
","x: 207.47882080078125
y: 198.03952026367188
z: -0.1927030235528946
visibility: 0.9560810923576355
","x: 151.6354522705078
y: 332.3146057128906
z: -0.40442022681236267
visibility: 0.8071269989013672
","x: 196.48988342285156
y: 399.192138671875
z: 0.0006084178457967937
visibility: 0.9998511075973511
","x: 175.97775268554688
y: 398.77813720703125
z: -0.0007110079750418663
visibility: 0.9998955726623535
","x: 202.05056762695312
y: 460.5543518066406
z: 0.016959022730588913
visibility: 0.9929080605506897
","x: 166.96571350097656
y: 453.8636474609375
z: -0.10067182779312134
visibility: 0.9908498525619507
","x: 206.27227783203125
y: 524.240478515625
z: 0.155888631939888
visibility: 0.9901795983314514
","x: 159.0926055908203
y: 518.548828125
z: 0.04039173945784569
visibility: 0.9929153323173523
","x: 203.95545959472656
y: 534.6898803710938
z: 0.1631602644920349
visibility: 0.8941289186477661
","x: 161.79647827148438
y: 527.7106323242188
z: 0.04852617532014847
visibility: 0.920478880405426
","x: 214.33969116210938
y: 546.0590209960938
z: 0.05379123613238335
visibility: 0.9823417067527771
","x: 152.283203125
y: 542.796142578125
z: -0.06763705611228943
visibility: 0.9881580471992493
",,,,,,,,,,,,,,,,,,,,,,,,,,,,,,,,,,,,,,,,,,
16,"x: 182.7056884765625
y: 276.3152770996094
z: -0.2420002520084381
visibility: 0.9998016953468323
","x: 185.25843811035156
y: 270.7646484375
z: -0.22392292320728302
visibility: 0.9994357824325562
","x: 186.7490997314453
y: 270.9012451171875
z: -0.22392885386943817
visibility: 0.9992806315422058
","x: 188.3330535888672
y: 271.0728759765625
z: -0.22393599152565002
visibility: 0.9992741346359253
","x: 181.6855926513672
y: 270.38372802734375
z: -0.2239466905593872
visibility: 0.9996721148490906
","x: 180.55516052246094
y: 270.3195495605469
z: -0.2239658534526825
visibility: 0.9996424913406372
","x: 179.41896057128906
y: 270.2294006347656
z: -0.22399668395519257
visibility: 0.999664306640625
","x: 191.52914428710938
y: 274.2357177734375
z: -0.12041862308979034
visibility: 0.9984942674636841
","x: 179.3768768310547
y: 272.6797180175781
z: -0.1251670867204666
visibility: 0.9995543360710144
","x: 185.1365509033203
y: 282.35150146484375
z: -0.2039213627576828
visibility: 0.9986588954925537
","x: 180.84133911132812
y: 282.1976013183594
z: -0.2054678499698639
visibility: 0.999383270740509
","x: 200.21893310546875
y: 297.9839782714844
z: -0.09540118277072906
visibility: 0.9993156790733337
","x: 172.19532775878906
y: 310.1463623046875
z: -0.08294317871332169
visibility: 0.999513566493988
","x: 205.37974548339844
y: 254.51666259765625
z: -0.16831380128860474
visibility: 0.9956839084625244
","x: 162.36618041992188
y: 334.1241760253906
z: -0.21195146441459656
visibility: 0.9331180453300476
","x: 207.24403381347656
y: 211.04644775390625
z: -0.2360246181488037
visibility: 0.9926119446754456
","x: 159.91627502441406
y: 343.54150390625
z: -0.41049665212631226
visibility: 0.8738663792610168
","x: 208.99667358398438
y: 194.93765258789062
z: -0.2716495096683502
visibility: 0.9715270400047302
","x: 156.65475463867188
y: 347.9246826171875
z: -0.4510366916656494
visibility: 0.8003947138786316
","x: 208.34194946289062
y: 193.6140594482422
z: -0.2754855751991272
visibility: 0.9681652784347534
","x: 159.67405700683594
y: 346.3979797363281
z: -0.45877838134765625
visibility: 0.7974379658699036
","x: 207.2863311767578
y: 198.45399475097656
z: -0.2434559166431427
visibility: 0.9576129913330078
","x: 160.8156280517578
y: 345.4076843261719
z: -0.42081958055496216
visibility: 0.7817206382751465
","x: 199.6033935546875
y: 400.2496337890625
z: 0.0019260558765381575
visibility: 0.9998497366905212
","x: 179.00723266601562
y: 398.89044189453125
z: -0.001998365158215165
visibility: 0.9999000430107117
","x: 204.8146514892578
y: 460.0680236816406
z: 0.04257236048579216
visibility: 0.9925255179405212
","x: 170.08981323242188
y: 454.40008544921875
z: -0.11359214782714844
visibility: 0.9912785887718201
","x: 206.51161193847656
y: 524.2218627929688
z: 0.2214001715183258
visibility: 0.9891776442527771
","x: 159.177490234375
y: 518.1548461914062
z: 0.023588333278894424
visibility: 0.9930066466331482
","x: 203.84506225585938
y: 534.6717529296875
z: 0.23243775963783264
visibility: 0.8939995169639587
","x: 161.81565856933594
y: 527.688232421875
z: 0.031270597130060196
visibility: 0.9205408692359924
","x: 215.3308563232422
y: 546.5088500976562
z: 0.12435194104909897
visibility: 0.9811592698097229
","x: 152.2852783203125
y: 542.782958984375
z: -0.09275443851947784
visibility: 0.9884408712387085
","x: 203.9131317138672
y: 205.12905883789062
z: 0.0
","x: 205.81866455078125
y: 197.9314422607422
z: 1.308100763708353e-05
","x: 208.1795654296875
y: 191.8509063720703
z: -0.0010583138791844249
","x: 210.81427001953125
y: 188.61830139160156
z: -0.003056766465306282
","x: 213.00599670410156
y: 186.33999633789062
z: -0.004907846916466951
","x: 207.80892944335938
y: 184.39222717285156
z: 0.0005850754678249359
","x: 209.34710693359375
y: 176.97142028808594
z: -0.002032342366874218
","x: 210.6006622314453
y: 172.506591796875
z: -0.004283213056623936
","x: 211.54542541503906
y: 168.79647827148438
z: -0.005833372939378023
","x: 208.20159912109375
y: 186.46531677246094
z: -0.0015955185517668724
","x: 212.50775146484375
y: 182.63885498046875
z: -0.005494272336363792
","x: 215.00872802734375
y: 184.82322692871094
z: -0.007404815871268511
","x: 216.2333526611328
y: 187.1751708984375
z: -0.008014274761080742
","x: 208.60862731933594
y: 189.26364135742188
z: -0.003985320683568716
","x: 212.6840362548828
y: 185.5801544189453
z: -0.007689239457249641
","x: 214.9449920654297
y: 187.159912109375
z: -0.008375884965062141
","x: 216.08570861816406
y: 189.10040283203125
z: -0.008119461126625538
","x: 208.93870544433594
y: 192.56964111328125
z: -0.006611717399209738
","x: 212.2614288330078
y: 189.174560546875
z: -0.009096423164010048
","x: 214.3151397705078
y: 189.07632446289062
z: -0.009472169913351536
","x: 215.60382080078125
y: 189.66148376464844
z: -0.009242148138582706
",,,,,,,,,,,,,,,,,,,,,
17,"x: 182.7056884765625
y: 276.3152770996094
z: -0.2420002520084381
visibility: 0.9998016953468323
","x: 185.25843811035156
y: 270.7646484375
z: -0.22392292320728302
visibility: 0.9994357824325562
","x: 186.7490997314453
y: 270.9012451171875
z: -0.22392885386943817
visibility: 0.9992806315422058
","x: 188.3330535888672
y: 271.0728759765625
z: -0.22393599152565002
visibility: 0.9992741346359253
","x: 181.6855926513672
y: 270.38372802734375
z: -0.2239466905593872
visibility: 0.9996721148490906
","x: 180.55516052246094
y: 270.3195495605469
z: -0.2239658534526825
visibility: 0.9996424913406372
","x: 179.41896057128906
y: 270.2294006347656
z: -0.22399668395519257
visibility: 0.999664306640625
","x: 191.52914428710938
y: 274.2357177734375
z: -0.12041862308979034
visibility: 0.9984942674636841
","x: 179.3768768310547
y: 272.6797180175781
z: -0.1251670867204666
visibility: 0.9995543360710144
","x: 185.1365509033203
y: 282.35150146484375
z: -0.2039213627576828
visibility: 0.9986588954925537
","x: 180.84133911132812
y: 282.1976013183594
z: -0.2054678499698639
visibility: 0.999383270740509
","x: 200.21893310546875
y: 297.9839782714844
z: -0.09540118277072906
visibility: 0.9993156790733337
","x: 172.19532775878906
y: 310.1463623046875
z: -0.08294317871332169
visibility: 0.999513566493988
","x: 205.37974548339844
y: 254.51666259765625
z: -0.16831380128860474
visibility: 0.9956839084625244
","x: 162.36618041992188
y: 334.1241760253906
z: -0.21195146441459656
visibility: 0.9331180453300476
","x: 207.24403381347656
y: 211.04644775390625
z: -0.2360246181488037
visibility: 0.9926119446754456
","x: 159.91627502441406
y: 343.54150390625
z: -0.41049665212631226
visibility: 0.8738663792610168
","x: 208.99667358398438
y: 194.93765258789062
z: -0.2716495096683502
visibility: 0.9715270400047302
","x: 156.65475463867188
y: 347.9246826171875
z: -0.4510366916656494
visibility: 0.8003947138786316
","x: 208.34194946289062
y: 193.6140594482422
z: -0.2754855751991272
visibility: 0.9681652784347534
","x: 159.67405700683594
y: 346.3979797363281
z: -0.45877838134765625
visibility: 0.7974379658699036
","x: 207.2863311767578
y: 198.45399475097656
z: -0.2434559166431427
visibility: 0.9576129913330078
","x: 160.8156280517578
y: 345.4076843261719
z: -0.42081958055496216
visibility: 0.7817206382751465
","x: 199.6033935546875
y: 400.2496337890625
z: 0.0019260558765381575
visibility: 0.9998497366905212
","x: 179.00723266601562
y: 398.89044189453125
z: -0.001998365158215165
visibility: 0.9999000430107117
","x: 204.8146514892578
y: 460.0680236816406
z: 0.04257236048579216
visibility: 0.9925255179405212
","x: 170.08981323242188
y: 454.40008544921875
z: -0.11359214782714844
visibility: 0.9912785887718201
","x: 206.51161193847656
y: 524.2218627929688
z: 0.2214001715183258
visibility: 0.9891776442527771
","x: 159.177490234375
y: 518.1548461914062
z: 0.023588333278894424
visibility: 0.9930066466331482
","x: 203.84506225585938
y: 534.6717529296875
z: 0.23243775963783264
visibility: 0.8939995169639587
","x: 161.81565856933594
y: 527.688232421875
z: 0.031270597130060196
visibility: 0.9205408692359924
","x: 215.3308563232422
y: 546.5088500976562
z: 0.12435194104909897
visibility: 0.9811592698097229
","x: 152.2852783203125
y: 542.782958984375
z: -0.09275443851947784
visibility: 0.9884408712387085
","x: 203.9131317138672
y: 205.12905883789062
z: 0.0
","x: 205.81866455078125
y: 197.9314422607422
z: 1.308100763708353e-05
","x: 208.1795654296875
y: 191.8509063720703
z: -0.0010583138791844249
","x: 210.81427001953125
y: 188.61830139160156
z: -0.003056766465306282
","x: 213.00599670410156
y: 186.33999633789062
z: -0.004907846916466951
","x: 207.80892944335938
y: 184.39222717285156
z: 0.0005850754678249359
","x: 209.34710693359375
y: 176.97142028808594
z: -0.002032342366874218
","x: 210.6006622314453
y: 172.506591796875
z: -0.004283213056623936
","x: 211.54542541503906
y: 168.79647827148438
z: -0.005833372939378023
","x: 208.20159912109375
y: 186.46531677246094
z: -0.0015955185517668724
","x: 212.50775146484375
y: 182.63885498046875
z: -0.005494272336363792
","x: 215.00872802734375
y: 184.82322692871094
z: -0.007404815871268511
","x: 216.2333526611328
y: 187.1751708984375
z: -0.008014274761080742
","x: 208.60862731933594
y: 189.26364135742188
z: -0.003985320683568716
","x: 212.6840362548828
y: 185.5801544189453
z: -0.007689239457249641
","x: 214.9449920654297
y: 187.159912109375
z: -0.008375884965062141
","x: 216.08570861816406
y: 189.10040283203125
z: -0.008119461126625538
","x: 208.93870544433594
y: 192.56964111328125
z: -0.006611717399209738
","x: 212.2614288330078
y: 189.174560546875
z: -0.009096423164010048
","x: 214.3151397705078
y: 189.07632446289062
z: -0.009472169913351536
","x: 215.60382080078125
y: 189.66148376464844
z: -0.009242148138582706
",,,,,,,,,,,,,,,,,,,,,
18,"x: 184.23609924316406
y: 275.6365051269531
z: -0.26620134711265564
visibility: 0.9997795820236206
","x: 186.70132446289062
y: 270.183349609375
z: -0.2498302459716797
visibility: 0.9993849992752075
","x: 188.0361785888672
y: 270.36541748046875
z: -0.24982133507728577
visibility: 0.9991876482963562
","x: 189.41416931152344
y: 270.6072998046875
z: -0.24983426928520203
visibility: 0.9991856813430786
","x: 183.1649932861328
y: 269.8563537597656
z: -0.2503367066383362
visibility: 0.9996528625488281
","x: 181.9447784423828
y: 269.82183837890625
z: -0.2503678500652313
visibility: 0.9996223449707031
","x: 180.78091430664062
y: 269.7555847167969
z: -0.2503962814807892
visibility: 0.9996514916419983
","x: 191.79815673828125
y: 274.01861572265625
z: -0.1428791582584381
visibility: 0.9982277154922485
","x: 179.52633666992188
y: 272.2754821777344
z: -0.15282483398914337
visibility: 0.9995439052581787
","x: 186.4636993408203
y: 281.6475830078125
z: -0.22678621113300323
visibility: 0.9984810948371887
","x: 181.93711853027344
y: 281.65948486328125
z: -0.22892865538597107
visibility: 0.9993519186973572
","x: 200.65325927734375
y: 296.1568603515625
z: -0.10106750577688217
visibility: 0.9991887807846069
","x: 170.6309051513672
y: 309.823486328125
z: -0.09009838849306107
visibility: 0.9995136857032776
","x: 204.3580322265625
y: 248.85467529296875
z: -0.16261067986488342
visibility: 0.9947173595428467
","x: 158.02304077148438
y: 334.43560791015625
z: -0.2726123034954071
visibility: 0.932906448841095
","x: 206.1427001953125
y: 203.79690551757812
z: -0.22335927188396454
visibility: 0.9923705458641052
","x: 161.5421905517578
y: 342.2637939453125
z: -0.4776305556297302
visibility: 0.8709218502044678
","x: 207.8557586669922
y: 189.93508911132812
z: -0.25522878766059875
visibility: 0.9716567993164062
","x: 160.0631561279297
y: 346.0205383300781
z: -0.5217752456665039
visibility: 0.7941781878471375
","x: 206.85768127441406
y: 188.92092895507812
z: -0.25862377882003784
visibility: 0.9685018062591553
","x: 163.56039428710938
y: 343.83050537109375
z: -0.5242112278938293
visibility: 0.7919883728027344
","x: 205.87637329101562
y: 192.76895141601562
z: -0.23039834201335907
visibility: 0.9587433338165283
","x: 164.29196166992188
y: 343.42218017578125
z: -0.48495134711265564
visibility: 0.7753735780715942
","x: 199.10995483398438
y: 400.2436828613281
z: 0.010118403472006321
visibility: 0.9998467564582825
","x: 177.5279541015625
y: 398.4355163574219
z: -0.010169494897127151
visibility: 0.999903678894043
","x: 203.8802490234375
y: 458.9954833984375
z: 0.028843039646744728
visibility: 0.9916508197784424
","x: 170.03814697265625
y: 453.32781982421875
z: -0.15510471165180206
visibility: 0.9914170503616333
","x: 206.35745239257812
y: 523.3193359375
z: 0.20036904513835907
visibility: 0.9874134063720703
","x: 159.28610229492188
y: 517.4213256835938
z: -0.0186386127024889
visibility: 0.9929298758506775
","x: 203.50860595703125
y: 533.4746704101562
z: 0.2114635705947876
visibility: 0.8941625356674194
","x: 161.78701782226562
y: 526.7473754882812
z: -0.01038498617708683
visibility: 0.9205524325370789
","x: 215.29721069335938
y: 546.5550537109375
z: 0.10685303062200546
visibility: 0.9790573716163635
","x: 152.3735809326172
y: 542.6512451171875
z: -0.13619518280029297
visibility: 0.9884870052337646
","x: 203.697265625
y: 197.47186279296875
z: 0.0
","x: 204.2639923095703
y: 193.60226440429688
z: -0.0029516557697206736
","x: 205.64561462402344
y: 188.1810760498047
z: -0.0042545003816485405
","x: 208.123046875
y: 184.73141479492188
z: -0.005767815746366978
","x: 210.3942108154297
y: 181.92266845703125
z: -0.007023623213171959
","x: 205.49635314941406
y: 179.28973388671875
z: 9.290669549955055e-05
","x: 206.6910400390625
y: 172.14456176757812
z: -0.001983678201213479
","x: 207.71926879882812
y: 167.77056884765625
z: -0.004028431139886379
","x: 208.61099243164062
y: 164.1521453857422
z: -0.005443286150693893
","x: 206.91455078125
y: 180.71905517578125
z: 9.944602788891643e-05
","x: 210.2939453125
y: 178.01393127441406
z: -0.0030194681603461504
","x: 212.3326873779297
y: 181.1532440185547
z: -0.005119849927723408
","x: 213.19479370117188
y: 184.3987274169922
z: -0.0058226496912539005
","x: 207.994873046875
y: 182.88494873046875
z: -0.000440064788563177
","x: 211.1632080078125
y: 181.28395080566406
z: -0.00392920570448041
","x: 212.5201873779297
y: 184.40672302246094
z: -0.005493661854416132
","x: 212.9298095703125
y: 187.56924438476562
z: -0.005582664627581835
","x: 208.94793701171875
y: 185.66641235351562
z: -0.0013927078107371926
","x: 211.5101776123047
y: 184.00958251953125
z: -0.003952609375119209
","x: 212.57518005371094
y: 185.64501953125
z: -0.0050379429012537
","x: 212.9350128173828
y: 187.8505096435547
z: -0.005077850539237261
",,,,,,,,,,,,,,,,,,,,,
19,"x: 184.23609924316406
y: 275.6365051269531
z: -0.26620134711265564
visibility: 0.9997795820236206
","x: 186.70132446289062
y: 270.183349609375
z: -0.2498302459716797
visibility: 0.9993849992752075
","x: 188.0361785888672
y: 270.36541748046875
z: -0.24982133507728577
visibility: 0.9991876482963562
","x: 189.41416931152344
y: 270.6072998046875
z: -0.24983426928520203
visibility: 0.9991856813430786
","x: 183.1649932861328
y: 269.8563537597656
z: -0.2503367066383362
visibility: 0.9996528625488281
","x: 181.9447784423828
y: 269.82183837890625
z: -0.2503678500652313
visibility: 0.9996223449707031
","x: 180.78091430664062
y: 269.7555847167969
z: -0.2503962814807892
visibility: 0.9996514916419983
","x: 191.79815673828125
y: 274.01861572265625
z: -0.1428791582584381
visibility: 0.9982277154922485
","x: 179.52633666992188
y: 272.2754821777344
z: -0.15282483398914337
visibility: 0.9995439052581787
","x: 186.4636993408203
y: 281.6475830078125
z: -0.22678621113300323
visibility: 0.9984810948371887
","x: 181.93711853027344
y: 281.65948486328125
z: -0.22892865538597107
visibility: 0.9993519186973572
","x: 200.65325927734375
y: 296.1568603515625
z: -0.10106750577688217
visibility: 0.9991887807846069
","x: 170.6309051513672
y: 309.823486328125
z: -0.09009838849306107
visibility: 0.9995136857032776
","x: 204.3580322265625
y: 248.85467529296875
z: -0.16261067986488342
visibility: 0.9947173595428467
","x: 158.02304077148438
y: 334.43560791015625
z: -0.2726123034954071
visibility: 0.932906448841095
","x: 206.1427001953125
y: 203.79690551757812
z: -0.22335927188396454
visibility: 0.9923705458641052
","x: 161.5421905517578
y: 342.2637939453125
z: -0.4776305556297302
visibility: 0.8709218502044678
","x: 207.8557586669922
y: 189.93508911132812
z: -0.25522878766059875
visibility: 0.9716567993164062
","x: 160.0631561279297
y: 346.0205383300781
z: -0.5217752456665039
visibility: 0.7941781878471375
","x: 206.85768127441406
y: 188.92092895507812
z: -0.25862377882003784
visibility: 0.9685018062591553
","x: 163.56039428710938
y: 343.83050537109375
z: -0.5242112278938293
visibility: 0.7919883728027344
","x: 205.87637329101562
y: 192.76895141601562
z: -0.23039834201335907
visibility: 0.9587433338165283
","x: 164.29196166992188
y: 343.42218017578125
z: -0.48495134711265564
visibility: 0.7753735780715942
","x: 199.10995483398438
y: 400.2436828613281
z: 0.010118403472006321
visibility: 0.9998467564582825
","x: 177.5279541015625
y: 398.4355163574219
z: -0.010169494897127151
visibility: 0.999903678894043
","x: 203.8802490234375
y: 458.9954833984375
z: 0.028843039646744728
visibility: 0.9916508197784424
","x: 170.03814697265625
y: 453.32781982421875
z: -0.15510471165180206
visibility: 0.9914170503616333
","x: 206.35745239257812
y: 523.3193359375
z: 0.20036904513835907
visibility: 0.9874134063720703
","x: 159.28610229492188
y: 517.4213256835938
z: -0.0186386127024889
visibility: 0.9929298758506775
","x: 203.50860595703125
y: 533.4746704101562
z: 0.2114635705947876
visibility: 0.8941625356674194
","x: 161.78701782226562
y: 526.7473754882812
z: -0.01038498617708683
visibility: 0.9205524325370789
","x: 215.29721069335938
y: 546.5550537109375
z: 0.10685303062200546
visibility: 0.9790573716163635
","x: 152.3735809326172
y: 542.6512451171875
z: -0.13619518280029297
visibility: 0.9884870052337646
","x: 203.697265625
y: 197.47186279296875
z: 0.0
","x: 204.2639923095703
y: 193.60226440429688
z: -0.0029516557697206736
","x: 205.64561462402344
y: 188.1810760498047
z: -0.0042545003816485405
","x: 208.123046875
y: 184.73141479492188
z: -0.005767815746366978
","x: 210.3942108154297
y: 181.92266845703125
z: -0.007023623213171959
","x: 205.49635314941406
y: 179.28973388671875
z: 9.290669549955055e-05
","x: 206.6910400390625
y: 172.14456176757812
z: -0.001983678201213479
","x: 207.71926879882812
y: 167.77056884765625
z: -0.004028431139886379
","x: 208.61099243164062
y: 164.1521453857422
z: -0.005443286150693893
","x: 206.91455078125
y: 180.71905517578125
z: 9.944602788891643e-05
","x: 210.2939453125
y: 178.01393127441406
z: -0.0030194681603461504
","x: 212.3326873779297
y: 181.1532440185547
z: -0.005119849927723408
","x: 213.19479370117188
y: 184.3987274169922
z: -0.0058226496912539005
","x: 207.994873046875
y: 182.88494873046875
z: -0.000440064788563177
","x: 211.1632080078125
y: 181.28395080566406
z: -0.00392920570448041
","x: 212.5201873779297
y: 184.40672302246094
z: -0.005493661854416132
","x: 212.9298095703125
y: 187.56924438476562
z: -0.005582664627581835
","x: 208.94793701171875
y: 185.66641235351562
z: -0.0013927078107371926
","x: 211.5101776123047
y: 184.00958251953125
z: -0.003952609375119209
","x: 212.57518005371094
y: 185.64501953125
z: -0.0050379429012537
","x: 212.9350128173828
y: 187.8505096435547
z: -0.005077850539237261
",,,,,,,,,,,,,,,,,,,,,
20,"x: 182.3520050048828
y: 275.9949951171875
z: -0.23171666264533997
visibility: 0.9997480511665344
","x: 184.84994506835938
y: 270.41644287109375
z: -0.21279048919677734
visibility: 0.9992945194244385
","x: 186.23741149902344
y: 270.53009033203125
z: -0.21277621388435364
visibility: 0.999028742313385
","x: 187.60804748535156
y: 270.6662902832031
z: -0.21276983618736267
visibility: 0.9990093111991882
","x: 181.0691375732422
y: 270.1089782714844
z: -0.2155592143535614
visibility: 0.9996211528778076
","x: 179.87835693359375
y: 270.02337646484375
z: -0.21559247374534607
visibility: 0.9995938539505005
","x: 178.7834014892578
y: 269.912353515625
z: -0.21563617885112762
visibility: 0.9996349811553955
","x: 190.13070678710938
y: 274.8720397949219
z: -0.10821648687124252
visibility: 0.9978634119033813
","x: 177.66485595703125
y: 272.70965576171875
z: -0.12472398579120636
visibility: 0.9995296597480774
","x: 184.94532775878906
y: 281.69573974609375
z: -0.1925555020570755
visibility: 0.9982277750968933
","x: 180.5088348388672
y: 282.1494445800781
z: -0.19748738408088684
visibility: 0.9993085265159607
","x: 199.87033081054688
y: 301.2719421386719
z: -0.06872834265232086
visibility: 0.9988692998886108
","x: 169.2108917236328
y: 309.87347412109375
z: -0.10618318617343903
visibility: 0.9995235204696655
","x: 201.88427734375
y: 250.2420654296875
z: -0.12147332727909088
visibility: 0.9926799535751343
","x: 157.11734008789062
y: 338.1552429199219
z: -0.2795412838459015
visibility: 0.9371841549873352
","x: 204.03475952148438
y: 204.1078338623047
z: -0.16292355954647064
visibility: 0.9912316203117371
","x: 163.68402099609375
y: 343.53936767578125
z: -0.4679252505302429
visibility: 0.8803085088729858
","x: 206.0863800048828
y: 190.00755310058594
z: -0.18787957727909088
visibility: 0.9696561098098755
","x: 163.78659057617188
y: 346.3668518066406
z: -0.5105000734329224
visibility: 0.806425929069519
","x: 204.92942810058594
y: 189.28306579589844
z: -0.1878606379032135
visibility: 0.9664655327796936
","x: 166.40072631835938
y: 338.656494140625
z: -0.5074832439422607
visibility: 0.804185152053833
","x: 204.4247589111328
y: 193.76771545410156
z: -0.16840015351772308
visibility: 0.9577171802520752
","x: 166.75619506835938
y: 340.01422119140625
z: -0.4723127484321594
visibility: 0.7870315909385681
","x: 196.71913146972656
y: 405.0006103515625
z: 0.013400651514530182
visibility: 0.9998474717140198
","x: 174.568115234375
y: 404.144775390625
z: -0.013496162369847298
visibility: 0.9999053478240967
","x: 202.68777465820312
y: 458.6741638183594
z: -0.07456882297992706
visibility: 0.9908936619758606
","x: 168.91175842285156
y: 453.8110656738281
z: -0.17891904711723328
visibility: 0.9913802742958069
","x: 204.97714233398438
y: 519.3060913085938
z: 0.1088995710015297
visibility: 0.9851735830307007
","x: 159.35903930664062
y: 516.0759887695312
z: -0.01798515021800995
visibility: 0.9926458597183228
","x: 202.01893615722656
y: 528.9866333007812
z: 0.12221709638834
visibility: 0.8927607536315918
","x: 161.78488159179688
y: 525.4974975585938
z: -0.006462109740823507
visibility: 0.921440601348877
","x: 214.3616180419922
y: 545.6011962890625
z: 0.018277715891599655
visibility: 0.9771648049354553
","x: 152.37823486328125
y: 542.6502685546875
z: -0.12605467438697815
visibility: 0.9883669018745422
","x: 202.1490936279297
y: 197.47845458984375
z: 0.0
","x: 201.8568878173828
y: 193.23358154296875
z: -0.0020733471028506756
","x: 202.64767456054688
y: 188.0230712890625
z: -0.0040463171899318695
","x: 204.94471740722656
y: 184.7040557861328
z: -0.006419595330953598
","x: 207.0653839111328
y: 182.35708618164062
z: -0.008516759611666203
","x: 203.1167755126953
y: 179.18954467773438
z: -0.001774013857357204
","x: 203.397216796875
y: 172.07626342773438
z: -0.004362362436950207
","x: 203.91526794433594
y: 167.32412719726562
z: -0.006259721703827381
","x: 204.28123474121094
y: 163.5008544921875
z: -0.007460549008101225
","x: 205.18374633789062
y: 180.13241577148438
z: -0.002528571290895343
","x: 207.62059020996094
y: 177.99520874023438
z: -0.005107811652123928
","x: 208.08865356445312
y: 181.86627197265625
z: -0.005511503200978041
","x: 207.5059814453125
y: 185.20736694335938
z: -0.005140406079590321
","x: 206.91624450683594
y: 182.45016479492188
z: -0.0037265680730342865
","x: 209.31976318359375
y: 181.480224609375
z: -0.00636485917493701
","x: 209.19195556640625
y: 184.86233520507812
z: -0.005906786769628525
","x: 208.47964477539062
y: 187.67764282226562
z: -0.00496061984449625
","x: 208.47984313964844
y: 185.60116577148438
z: -0.005376153625547886
","x: 210.3866424560547
y: 184.25350952148438
z: -0.0072000292129814625
","x: 209.98135375976562
y: 186.59347534179688
z: -0.0067659285850822926
","x: 209.07516479492188
y: 189.0889892578125
z: -0.005837917793542147
",,,,,,,,,,,,,,,,,,,,,
21,"x: 182.3520050048828
y: 275.9949951171875
z: -0.23171666264533997
visibility: 0.9997480511665344
","x: 184.84994506835938
y: 270.41644287109375
z: -0.21279048919677734
visibility: 0.9992945194244385
","x: 186.23741149902344
y: 270.53009033203125
z: -0.21277621388435364
visibility: 0.999028742313385
","x: 187.60804748535156
y: 270.6662902832031
z: -0.21276983618736267
visibility: 0.9990093111991882
","x: 181.0691375732422
y: 270.1089782714844
z: -0.2155592143535614
visibility: 0.9996211528778076
","x: 179.87835693359375
y: 270.02337646484375
z: -0.21559247374534607
visibility: 0.9995938539505005
","x: 178.7834014892578
y: 269.912353515625
z: -0.21563617885112762
visibility: 0.9996349811553955
","x: 190.13070678710938
y: 274.8720397949219
z: -0.10821648687124252
visibility: 0.9978634119033813
","x: 177.66485595703125
y: 272.70965576171875
z: -0.12472398579120636
visibility: 0.9995296597480774
","x: 184.94532775878906
y: 281.69573974609375
z: -0.1925555020570755
visibility: 0.9982277750968933
","x: 180.5088348388672
y: 282.1494445800781
z: -0.19748738408088684
visibility: 0.9993085265159607
","x: 199.87033081054688
y: 301.2719421386719
z: -0.06872834265232086
visibility: 0.9988692998886108
","x: 169.2108917236328
y: 309.87347412109375
z: -0.10618318617343903
visibility: 0.9995235204696655
","x: 201.88427734375
y: 250.2420654296875
z: -0.12147332727909088
visibility: 0.9926799535751343
","x: 157.11734008789062
