uscmakers/ReverseChoreography/data/6_fool_around_yas.csv
,NOSE,LEFT_EYE_INNER,LEFT_EYE,LEFT_EYE_OUTER,RIGHT_EYE_INNER,RIGHT_EYE,RIGHT_EYE_OUTER,LEFT_EAR,RIGHT_EAR,MOUTH_LEFT,MOUTH_RIGHT,LEFT_SHOULDER,RIGHT_SHOULDER,LEFT_ELBOW,RIGHT_ELBOW,LEFT_WRIST,RIGHT_WRIST,LEFT_PINKY,RIGHT_PINKY,LEFT_INDEX,RIGHT_INDEX,LEFT_THUMB,RIGHT_THUMB,LEFT_HIP,RIGHT_HIP,LEFT_KNEE,RIGHT_KNEE,LEFT_ANKLE,RIGHT_ANKLE,LEFT_HEEL,RIGHT_HEEL,LEFT_FOOT_INDEX,RIGHT_FOOT_INDEX,WRIST,THUMB_CPC,THUMB_MCP,THUMB_IP,THUMB_TIP,INDEX_FINGER_MCP,INDEX_FINGER_PIP,INDEX_FINGER_DIP,INDEX_FINGER_TIP,MIDDLE_FINGER_MCP,MIDDLE_FINGER_PIP,MIDDLE_FINGER_DIP,MIDDLE_FINGER_TIP,RING_FINGER_PIP,RING_FINGER_DIP,RING_FINGER_TIP,RING_FINGER_MCP,PINKY_MCP,PINKY_PIP,PINKY_DIP,PINKY_TIP,WRIST2,THUMB_CPC2,THUMB_MCP2,THUMB_IP2,THUMB_TIP2,INDEX_FINGER_MCP2,INDEX_FINGER_PIP2,INDEX_FINGER_DIP2,INDEX_FINGER_TIP2,MIDDLE_FINGER_MCP2,MIDDLE_FINGER_PIP2,MIDDLE_FINGER_DIP2,MIDDLE_FINGER_TIP2,RING_FINGER_PIP2,RING_FINGER_DIP2,RING_FINGER_TIP2,RING_FINGER_MCP2,PINKY_MCP2,PINKY_PIP2,PINKY_DIP2,PINKY_TIP2
0,"x: 195.19017028808594
y: 284.25140380859375
z: -0.3582499623298645
visibility: 0.9999911785125732
","x: 197.0
y: 277.7107849121094
z: -0.3473416268825531
visibility: 0.9999736547470093
","x: 198.24969482421875
y: 277.5311584472656
z: -0.3473507761955261
visibility: 0.9999697208404541
","x: 199.24868774414062
y: 277.44989013671875
z: -0.3473924398422241
visibility: 0.9999656677246094
","x: 193.04354858398438
y: 278.3243408203125
z: -0.34757736325263977
visibility: 0.9999773502349854
","x: 191.7086944580078
y: 278.64239501953125
z: -0.3476511538028717
visibility: 0.9999767541885376
","x: 190.3675079345703
y: 279.0565185546875
z: -0.3476848006248474
visibility: 0.999976634979248
","x: 201.28546142578125
y: 280.0126953125
z: -0.2535252571105957
visibility: 0.9999006986618042
","x: 188.2818145751953
y: 282.54632568359375
z: -0.2558370530605316
visibility: 0.9999622106552124
","x: 198.17095947265625
y: 291.13702392578125
z: -0.32100987434387207
visibility: 0.9999816417694092
","x: 193.1641387939453
y: 292.3333435058594
z: -0.32186418771743774
visibility: 0.9999867677688599
","x: 214.99972534179688
y: 320.61639404296875
z: -0.1625012457370758
visibility: 0.9999490976333618
","x: 177.78280639648438
y: 319.67205810546875
z: -0.1820654720067978
visibility: 0.9999849796295166
","x: 219.19866943359375
y: 369.8134765625
z: -0.1114896908402443
visibility: 0.9476426839828491
","x: 173.5218505859375
y: 367.9468994140625
z: -0.1482440084218979
visibility: 0.9770042300224304
","x: 221.4027557373047
y: 410.1036376953125
z: -0.17225754261016846
visibility: 0.7430431842803955
","x: 171.07968139648438
y: 410.075927734375
z: -0.20676854252815247
visibility: 0.843228280544281
","x: 223.3045654296875
y: 421.5987854003906
z: -0.19114288687705994
visibility: 0.5893978476524353
","x: 170.2574005126953
y: 421.93377685546875
z: -0.2296159714460373
visibility: 0.7167685627937317
","x: 222.17628479003906
y: 422.4143981933594
z: -0.21585381031036377
visibility: 0.6107401251792908
","x: 172.14784240722656
y: 422.1146240234375
z: -0.253374308347702
visibility: 0.7252314686775208
","x: 221.0728759765625
y: 418.5850524902344
z: -0.18311582505702972
visibility: 0.5884239673614502
","x: 173.03842163085938
y: 418.0831298828125
z: -0.21719186007976532
visibility: 0.6941702961921692
","x: 204.30120849609375
y: 408.73309326171875
z: 0.007488124072551727
visibility: 0.9999181032180786
","x: 184.1860809326172
y: 408.1390686035156
z: -0.007595242001116276
visibility: 0.9999343156814575
","x: 211.1726531982422
y: 467.0091247558594
z: 0.06376030296087265
visibility: 0.9878153800964355
","x: 178.13433837890625
y: 466.25189208984375
z: 0.032189030200242996
visibility: 0.9955629110336304
","x: 219.2964630126953
y: 520.5347290039062
z: 0.23831231892108917
visibility: 0.9929535984992981
","x: 170.6569366455078
y: 519.326904296875
z: 0.21656174957752228
visibility: 0.9952012300491333
","x: 216.69659423828125
y: 529.7112426757812
z: 0.25039875507354736
visibility: 0.9376375675201416
","x: 171.0709228515625
y: 525.6856689453125
z: 0.22996754944324493
visibility: 0.9034374356269836
","x: 227.5477752685547
y: 540.3514404296875
z: 0.15203721821308136
visibility: 0.9883158802986145
","x: 169.96987915039062
y: 540.6077880859375
z: 0.1260683238506317
visibility: 0.9901880621910095
",,,,,,,,,,,,,,,,,,,,,,,,,,,,,,,,,,,,,,,,,,
1,"x: 193.31146240234375
y: 283.83270263671875
z: -0.3496079742908478
visibility: 0.9999898672103882
","x: 194.74098205566406
y: 277.3375244140625
z: -0.339291512966156
visibility: 0.9999676942825317
","x: 196.02206420898438
y: 277.0897521972656
z: -0.33928394317626953
visibility: 0.9999635815620422
","x: 197.1843719482422
y: 276.9560546875
z: -0.33931174874305725
visibility: 0.9999584555625916
","x: 191.27713012695312
y: 278.1947937011719
z: -0.3392333686351776
visibility: 0.9999732971191406
","x: 190.1167755126953
y: 278.54718017578125
z: -0.3393097519874573
visibility: 0.9999730587005615
","x: 188.94020080566406
y: 278.981201171875
z: -0.33935776352882385
visibility: 0.9999726414680481
","x: 199.49215698242188
y: 279.5987548828125
z: -0.2489173412322998
visibility: 0.9998773336410522
","x: 187.6830596923828
y: 282.31573486328125
z: -0.24954378604888916
visibility: 0.999954879283905
","x: 196.52984619140625
y: 290.19866943359375
z: -0.31377437710762024
visibility: 0.9999786615371704
","x: 191.88059997558594
y: 291.4117736816406
z: -0.3141041398048401
visibility: 0.9999845623970032
","x: 214.41944885253906
y: 320.1534729003906
z: -0.1579768806695938
visibility: 0.9999475479125977
","x: 176.957763671875
y: 319.56097412109375
z: -0.18246836960315704
visibility: 0.9999851584434509
","x: 218.2944793701172
y: 369.1616516113281
z: -0.10570882260799408
visibility: 0.9485841989517212
","x: 172.28451538085938
y: 367.81982421875
z: -0.15091244876384735
visibility: 0.9778205156326294
","x: 221.02853393554688
y: 410.092529296875
z: -0.1696314960718155
visibility: 0.7528984546661377
","x: 170.9287872314453
y: 410.35211181640625
z: -0.20670060813426971
visibility: 0.8510433435440063
","x: 222.86044311523438
y: 422.21875
z: -0.1892353892326355
visibility: 0.6024627685546875
","x: 169.9300994873047
y: 422.7801818847656
z: -0.22993847727775574
visibility: 0.7289174199104309
","x: 221.3826141357422
y: 422.76177978515625
z: -0.2147762030363083
visibility: 0.6231446266174316
","x: 172.07955932617188
y: 422.9513244628906
z: -0.253326416015625
visibility: 0.7364882826805115
","x: 220.13026428222656
y: 418.86456298828125
z: -0.18109682202339172
visibility: 0.6003631353378296
","x: 173.01792907714844
y: 418.47418212890625
z: -0.21694223582744598
visibility: 0.7053771615028381
","x: 204.10031127929688
y: 409.457275390625
z: 0.007934927940368652
visibility: 0.9999184012413025
","x: 183.96324157714844
y: 408.64312744140625
z: -0.008045460097491741
visibility: 0.9999362230300903
","x: 211.17160034179688
y: 467.6530456542969
z: 0.07093822211027145
visibility: 0.9881433248519897
","x: 177.86740112304688
y: 466.3110656738281
z: 0.051835209131240845
visibility: 0.9956318736076355
","x: 219.3239288330078
y: 520.62451171875
z: 0.24869287014007568
visibility: 0.9928654432296753
","x: 170.69679260253906
y: 518.4601440429688
z: 0.25320032238960266
visibility: 0.9951469898223877
","x: 216.72091674804688
y: 530.2968139648438
z: 0.26159441471099854
visibility: 0.9379374980926514
","x: 171.0757598876953
y: 525.2089233398438
z: 0.26858851313591003
visibility: 0.9030744433403015
","x: 227.5637969970703
y: 540.635986328125
z: 0.16479644179344177
visibility: 0.98827064037323
","x: 169.858154296875
y: 540.28662109375
z: 0.16796277463436127
visibility: 0.9900643229484558
",,,,,,,,,,,,,,,,,,,,,,,,,,,,,,,,,,,,,,,,,,
2,"x: 192.3558807373047
y: 283.7531433105469
z: -0.350045382976532
visibility: 0.9999889135360718
","x: 193.7398223876953
y: 277.22711181640625
z: -0.3406873345375061
visibility: 0.9999627470970154
","x: 195.03720092773438
y: 276.9351806640625
z: -0.3406546115875244
visibility: 0.9999585151672363
","x: 196.26144409179688
y: 276.7575378417969
z: -0.3406665623188019
visibility: 0.9999524354934692
","x: 190.4120635986328
y: 278.18426513671875
z: -0.3403990864753723
visibility: 0.9999701380729675
","x: 189.30763244628906
y: 278.54327392578125
z: -0.34048575162887573
visibility: 0.9999702572822571
","x: 188.19577026367188
y: 278.9795227050781
z: -0.3405556082725525
visibility: 0.9999696016311646
","x: 198.7035369873047
y: 279.362060546875
z: -0.25186192989349365
visibility: 0.9998561143875122
","x: 187.2904510498047
y: 282.245361328125
z: -0.25146493315696716
visibility: 0.9999487400054932
","x: 195.650390625
y: 289.8645324707031
z: -0.3149665892124176
visibility: 0.9999762177467346
","x: 191.1049346923828
y: 291.0860595703125
z: -0.31479257345199585
visibility: 0.9999828338623047
","x: 214.07986450195312
y: 319.9941711425781
z: -0.15830343961715698
visibility: 0.9999464750289917
","x: 176.69064331054688
y: 319.3932800292969
z: -0.18926909565925598
visibility: 0.9999853372573853
","x: 218.02630615234375
y: 368.9480895996094
z: -0.10601954162120819
visibility: 0.949886679649353
","x: 171.57237243652344
y: 367.4743957519531
z: -0.16096851229667664
visibility: 0.9789414405822754
","x: 220.87547302246094
y: 410.273193359375
z: -0.17340217530727386
visibility: 0.7644307613372803
","x: 170.82440185546875
y: 410.3479309082031
z: -0.21431390941143036
visibility: 0.8602181673049927
","x: 222.7260284423828
y: 422.8582763671875
z: -0.19438646733760834
visibility: 0.6180246472358704
","x: 169.86390686035156
y: 422.79156494140625
z: -0.23957781493663788
visibility: 0.7434000372886658
","x: 221.0764617919922
y: 423.1993408203125
z: -0.22021444141864777
visibility: 0.63804692029953
","x: 172.0707550048828
y: 422.9497985839844
z: -0.26145491003990173
visibility: 0.750109851360321
","x: 219.76437377929688
y: 419.3062744140625
z: -0.18519267439842224
visibility: 0.6146171689033508
","x: 173.0094451904297
y: 418.4730224609375
z: -0.2239990234375
visibility: 0.7193222641944885
","x: 204.03546142578125
y: 409.7993469238281
z: 0.00793500617146492
visibility: 0.9999202489852905
","x: 183.8775634765625
y: 408.95379638671875
z: -0.008045205846428871
visibility: 0.9999380707740784
","x: 211.1707763671875
y: 467.98516845703125
z: 0.06985072046518326
visibility: 0.9886000156402588
","x: 177.71104431152344
y: 466.203125
z: 0.077904611825943
visibility: 0.995627760887146
","x: 219.47494506835938
y: 520.97509765625
z: 0.24222151935100555
visibility: 0.9929226636886597
","x: 170.77993774414062
y: 517.60107421875
z: 0.29550057649612427
visibility: 0.9950376749038696
","x: 216.85125732421875
y: 531.080810546875
z: 0.2546219229698181
visibility: 0.9387709498405457
","x: 171.081298828125
y: 524.8720703125
z: 0.3126247525215149
visibility: 0.9023370146751404
","x: 227.58468627929688
y: 541.3199462890625
z: 0.1560813933610916
visibility: 0.9884634613990784
","x: 169.74832153320312
y: 539.9788818359375
z: 0.21468448638916016
visibility: 0.9898388385772705
",,,,,,,,,,,,,,,,,,,,,,,,,,,,,,,,,,,,,,,,,,
3,"x: 192.2462158203125
y: 282.4175720214844
z: -0.3600475788116455
visibility: 0.9999879598617554
","x: 193.63096618652344
y: 276.4134826660156
z: -0.3501679003238678
visibility: 0.9999579787254333
","x: 194.9265594482422
y: 276.155029296875
z: -0.3501404821872711
visibility: 0.9999533891677856
","x: 196.11241149902344
y: 276.00830078125
z: -0.3501635193824768
visibility: 0.9999467134475708
","x: 190.27444458007812
y: 277.5574035644531
z: -0.3505318760871887
visibility: 0.9999672770500183
","x: 189.1795654296875
y: 278.0289001464844
z: -0.35062333941459656
visibility: 0.999967634677887
","x: 188.05810546875
y: 278.5437316894531
z: -0.35069534182548523
visibility: 0.9999669194221497
","x: 198.53790283203125
y: 278.8857727050781
z: -0.2601923942565918
visibility: 0.9998335838317871
","x: 187.14686584472656
y: 281.91754150390625
z: -0.2621786892414093
visibility: 0.9999423623085022
","x: 195.56915283203125
y: 288.58087158203125
z: -0.3242959976196289
visibility: 0.999973475933075
","x: 190.9126739501953
y: 289.794677734375
z: -0.32493022084236145
visibility: 0.9999809265136719
","x: 214.07730102539062
y: 319.7391357421875
z: -0.16549929976463318
visibility: 0.9999439716339111
","x: 176.61537170410156
y: 319.33526611328125
z: -0.20337393879890442
visibility: 0.9999850392341614
","x: 218.06655883789062
y: 368.92535400390625
z: -0.1185593381524086
visibility: 0.9512644410133362
","x: 171.3651580810547
y: 367.1602783203125
z: -0.18253958225250244
visibility: 0.9799728393554688
","x: 220.8584747314453
y: 410.6553649902344
z: -0.18916451930999756
visibility: 0.7769558429718018
","x: 170.82162475585938
y: 410.41845703125
z: -0.23717570304870605
visibility: 0.8690774440765381
","x: 222.68649291992188
y: 423.42486572265625
z: -0.21205580234527588
visibility: 0.6354005932807922
","x: 169.878173828125
y: 422.83673095703125
z: -0.26437658071517944
visibility: 0.757760763168335
","x: 220.9959716796875
y: 423.5736389160156
z: -0.2376038134098053
visibility: 0.6547351479530334
","x: 172.10406494140625
y: 422.945556640625
z: -0.28561460971832275
visibility: 0.763650119304657
","x: 219.70382690429688
y: 419.7271728515625
z: -0.20110821723937988
visibility: 0.6309166550636292
","x: 173.0205078125
y: 418.468017578125
z: -0.246713325381279
visibility: 0.733193576335907
","x: 204.0149383544922
y: 409.9979248046875
z: 0.008033779449760914
visibility: 0.9999231100082397
","x: 183.8610076904297
y: 409.2673034667969
z: -0.008144031278789043
visibility: 0.9999403953552246
","x: 211.1817169189453
y: 468.0445556640625
z: 0.0692678764462471
visibility: 0.9890015125274658
","x: 177.70814514160156
y: 466.20538330078125
z: 0.09170415997505188
visibility: 0.9955542683601379
","x: 219.5136260986328
y: 520.9681396484375
z: 0.2421291619539261
visibility: 0.992951512336731
","x: 170.78123474121094
y: 517.294677734375
z: 0.32141658663749695
visibility: 0.9949192404747009
","x: 216.8792724609375
y: 531.0682373046875
z: 0.2543852925300598
visibility: 0.9399305582046509
","x: 171.07041931152344
y: 524.5599365234375
z: 0.34001389145851135
visibility: 0.9019070267677307
","x: 227.59300231933594
y: 541.4576416015625
z: 0.15587712824344635
visibility: 0.988629937171936
","x: 169.59246826171875
y: 539.614501953125
z: 0.24384093284606934
visibility: 0.9895379543304443
",,,,,,,,,,,,,,,,,,,,,,,,,,,,,,,,,,,,,,,,,,
4,"x: 192.19024658203125
y: 281.72149658203125
z: -0.3565526008605957
visibility: 0.9999857544898987
","x: 193.64698791503906
y: 275.62506103515625
z: -0.3461399972438812
visibility: 0.9999493360519409
","x: 194.98704528808594
y: 275.341796875
z: -0.3461204767227173
visibility: 0.9999434947967529
","x: 196.18161010742188
y: 275.1711730957031
z: -0.3461442291736603
visibility: 0.9999353289604187
","x: 190.1346893310547
y: 276.99053955078125
z: -0.34664034843444824
visibility: 0.9999620318412781
","x: 189.01797485351562
y: 277.5445251464844
z: -0.3467351198196411
visibility: 0.9999629259109497
","x: 187.88694763183594
y: 278.1311340332031
z: -0.3468131422996521
visibility: 0.999962568283081
","x: 198.64141845703125
y: 278.06158447265625
z: -0.25603628158569336
visibility: 0.999790370464325
","x: 187.0129852294922
y: 281.5992431640625
z: -0.25861018896102905
visibility: 0.9999339580535889
","x: 195.6382598876953
y: 287.787841796875
z: -0.32081103324890137
visibility: 0.9999679923057556
","x: 190.78953552246094
y: 289.0426025390625
z: -0.3216177821159363
visibility: 0.999977707862854
","x: 214.1426239013672
y: 319.35540771484375
z: -0.160414919257164
visibility: 0.9999350905418396
","x: 176.63999938964844
y: 319.2721252441406
z: -0.19808197021484375
visibility: 0.9999845623970032
","x: 218.09532165527344
y: 368.5816955566406
z: -0.11172251403331757
visibility: 0.9485811591148376
","x: 171.4598388671875
y: 367.16680908203125
z: -0.17545345425605774
visibility: 0.9804945588111877
","x: 220.65338134765625
y: 410.4871826171875
z: -0.18462631106376648
visibility: 0.7734819054603577
","x: 170.9654083251953
y: 411.2747497558594
z: -0.23045535385608673
visibility: 0.8737278580665588
","x: 222.4071502685547
y: 423.3520812988281
z: -0.20792746543884277
visibility: 0.6321455836296082
","x: 170.2480010986328
y: 423.62353515625
z: -0.2563745081424713
visibility: 0.764464259147644
","x: 220.7379150390625
y: 423.513427734375
z: -0.23182423412799835
visibility: 0.6514634490013123
","x: 172.56320190429688
y: 423.60589599609375
z: -0.27682775259017944
visibility: 0.7696077227592468
","x: 219.44741821289062
y: 419.5777587890625
z: -0.19658541679382324
visibility: 0.6275837421417236
","x: 173.35252380371094
y: 418.89697265625
z: -0.2395542412996292
visibility: 0.7387557029724121
","x: 204.0780487060547
y: 410.38232421875
z: 0.009219269268214703
visibility: 0.999921977519989
","x: 183.9457550048828
y: 409.5760498046875
z: -0.009341774508357048
visibility: 0.9999406337738037
","x: 211.22344970703125
y: 468.0987548828125
z: 0.07051990926265717
visibility: 0.9889163374900818
","x: 177.7115020751953
y: 466.2080383300781
z: 0.07117141038179398
visibility: 0.9954583644866943
","x: 219.5749969482422
y: 521.0338134765625
z: 0.24720163643360138
visibility: 0.9927487969398499
","x: 170.76988220214844
y: 517.3179931640625
z: 0.28192272782325745
visibility: 0.9947560429573059
","x: 216.89334106445312
y: 531.1895751953125
z: 0.2601838707923889
visibility: 0.9395592212677002
","x: 170.99758911132812
y: 524.5894165039062
z: 0.29858583211898804
visibility: 0.9001676440238953
","x: 227.71018981933594
y: 541.6484985351562
z: 0.16408054530620575
visibility: 0.988410472869873
","x: 169.56951904296875
y: 539.5543823242188
z: 0.19934755563735962
visibility: 0.98917555809021
",,,,,,,,,,,,,,,,,,,,,,,,,,,,,,,,,,,,,,,,,,
5,"x: 192.1720733642578
y: 281.30609130859375
z: -0.3419114649295807
visibility: 0.999983549118042
","x: 193.51870727539062
y: 275.1455078125
z: -0.3308700919151306
visibility: 0.9999419450759888
","x: 194.87864685058594
y: 274.78753662109375
z: -0.33086520433425903
visibility: 0.9999354481697083
","x: 196.08523559570312
y: 274.5556945800781
z: -0.33089011907577515
visibility: 0.9999257922172546
","x: 190.01548767089844
y: 276.76275634765625
z: -0.33162733912467957
visibility: 0.9999570846557617
","x: 188.91329956054688
y: 277.3797607421875
z: -0.33171790838241577
visibility: 0.999958872795105
","x: 187.7937469482422
y: 278.02178955078125
z: -0.33178573846817017
visibility: 0.9999586343765259
","x: 198.60067749023438
y: 277.32177734375
z: -0.24093052744865417
visibility: 0.9997560977935791
","x: 186.96775817871094
y: 281.54302978515625
z: -0.24476146697998047
visibility: 0.9999271631240845
","x: 195.71148681640625
y: 287.2274169921875
z: -0.30652010440826416
visibility: 0.9999631643295288
","x: 190.80335998535156
y: 288.6389465332031
z: -0.3077220320701599
visibility: 0.9999744892120361
","x: 214.25845336914062
y: 319.100830078125
z: -0.14660663902759552
visibility: 0.9999263882637024
","x: 176.75616455078125
y: 319.285888671875
z: -0.194687157869339
visibility: 0.9999842643737793
","x: 218.1173858642578
y: 368.5033874511719
z: -0.09500919282436371
visibility: 0.9448282718658447
","x: 171.75665283203125
y: 367.51202392578125
z: -0.1700238287448883
visibility: 0.9805288314819336
","x: 220.60496520996094
y: 409.70751953125
z: -0.1644742339849472
visibility: 0.766441285610199
","x: 171.0929718017578
y: 411.5155029296875
z: -0.22575321793556213
visibility: 0.8760523200035095
","x: 222.3505859375
y: 422.1271057128906
z: -0.18437978625297546
visibility: 0.6249085068702698
","x: 170.44589233398438
y: 423.95654296875
z: -0.25079184770584106
visibility: 0.7675750851631165
","x: 220.72291564941406
y: 422.58184814453125
z: -0.2088581621646881
visibility: 0.6445308327674866
","x: 172.69314575195312
y: 423.7961120605469
z: -0.2738596498966217
visibility: 0.7721794843673706
","x: 219.4769287109375
y: 418.82525634765625
z: -0.17612192034721375
visibility: 0.621251106262207
","x: 173.41819763183594
y: 418.96014404296875
z: -0.23570361733436584
visibility: 0.740852415561676
","x: 204.23171997070312
y: 410.5712585449219
z: 0.01310308463871479
visibility: 0.9999164938926697
","x: 184.24517822265625
y: 409.61468505859375
z: -0.013253150507807732
visibility: 0.9999399781227112
","x: 211.29302978515625
y: 468.22955322265625
z: 0.08277317136526108
visibility: 0.9882833361625671
","x: 177.7791290283203
y: 466.135009765625
z: 0.0349198617041111
visibility: 0.9954560995101929
","x: 219.59434509277344
y: 521.0314331054688
z: 0.27081459760665894
visibility: 0.9923635125160217
","x: 170.7501678466797
y: 517.5278930664062
z: 0.2232278287410736
visibility: 0.9947097301483154
","x: 216.91586303710938
y: 531.1727294921875
z: 0.28494691848754883
visibility: 0.9384342432022095
","x: 170.8831787109375
y: 524.774169921875
z: 0.23787128925323486
visibility: 0.8993035554885864
","x: 227.7105712890625
y: 541.6395263671875
z: 0.1937861442565918
visibility: 0.9878637790679932
","x: 169.58367919921875
y: 539.5741577148438
z: 0.13663284480571747
visibility: 0.9890431761741638
",,,,,,,,,,,,,,,,,,,,,,,,,,,,,,,,,,,,,,,,,,
6,"x: 192.21966552734375
y: 280.95819091796875
z: -0.3221312463283539
visibility: 0.9999819397926331
","x: 193.5207061767578
y: 274.79376220703125
z: -0.3121197819709778
visibility: 0.9999368786811829
","x: 194.87261962890625
y: 274.3934326171875
z: -0.3121141195297241
visibility: 0.9999303817749023
","x: 196.0658721923828
y: 274.1275329589844
z: -0.31213635206222534
visibility: 0.9999198317527771
","x: 190.02598571777344
y: 276.58953857421875
z: -0.3115465044975281
visibility: 0.9999524354934692
","x: 188.9319610595703
y: 277.25714111328125
z: -0.3116227984428406
visibility: 0.9999547004699707
","x: 187.81390380859375
y: 277.9374084472656
z: -0.3116694688796997
visibility: 0.999954104423523
","x: 198.5555419921875
y: 276.6919860839844
z: -0.22682563960552216
visibility: 0.9997437596321106
","x: 186.98606872558594
y: 281.47625732421875
z: -0.22464454174041748
visibility: 0.999918520450592
","x: 195.7855224609375
y: 286.7510070800781
z: -0.2884678542613983
visibility: 0.9999598860740662
","x: 190.85757446289062
y: 288.3536071777344
z: -0.28793561458587646
visibility: 0.9999706745147705
","x: 214.29656982421875
y: 318.56268310546875
z: -0.14143893122673035
visibility: 0.9999207258224487
","x: 176.9554443359375
y: 319.16827392578125
z: -0.16922196745872498
visibility: 0.9999827742576599
","x: 218.2337646484375
y: 367.8000183105469
z: -0.09006404876708984
visibility: 0.9433766603469849
","x: 172.29722595214844
y: 367.5133056640625
z: -0.14122255146503448
visibility: 0.978859543800354
","x: 220.6165313720703
y: 409.1241149902344
z: -0.1510372757911682
visibility: 0.7625604271888733
","x: 171.28268432617188
y: 410.9109191894531
z: -0.1913040280342102
visibility: 0.8704392313957214
","x: 222.3549041748047
y: 421.48992919921875
z: -0.16781988739967346
visibility: 0.6202167868614197
","x: 170.66188049316406
y: 423.0899353027344
z: -0.21347622573375702
visibility: 0.7595245242118835
","x: 220.7452392578125
y: 422.0628356933594
z: -0.192239448428154
visibility: 0.6402986645698547
","x: 172.70315551757812
y: 422.49517822265625
z: -0.2336415797472
visibility: 0.76419997215271
","x: 219.5092010498047
y: 418.40875244140625
z: -0.16203300654888153
visibility: 0.6175616383552551
","x: 173.43081665039062
y: 417.90936279296875
z: -0.20054474472999573
visibility: 0.733207106590271
","x: 204.47933959960938
y: 410.5395202636719
z: 0.012595139443874359
visibility: 0.9999063611030579
","x: 184.60853576660156
y: 409.60833740234375
z: -0.012757527641952038
visibility: 0.9999350309371948
","x: 211.3245391845703
y: 468.18035888671875
z: 0.07995423674583435
visibility: 0.9879727363586426
","x: 177.91659545898438
y: 466.03173828125
z: 0.0337069071829319
visibility: 0.9954612255096436
","x: 219.6160125732422
y: 520.8794555664062
z: 0.26781579852104187
visibility: 0.9920857548713684
","x: 170.74554443359375
y: 517.636474609375
z: 0.2166336327791214
visibility: 0.9946790337562561
","x: 216.92601013183594
y: 531.1192016601562
z: 0.2823772132396698
visibility: 0.9369125366210938
","x: 170.88853454589844
y: 524.7977294921875
z: 0.23063579201698303
visibility: 0.8989825248718262
","x: 227.66627502441406
y: 541.59521484375
z: 0.18150058388710022
visibility: 0.9873457551002502
","x: 169.45223999023438
y: 539.4942626953125
z: 0.1322164237499237
visibility: 0.9889242649078369
",,,,,,,,,,,,,,,,,,,,,,,,,,,,,,,,,,,,,,,,,,
7,"x: 192.16258239746094
y: 280.9775085449219
z: -0.32638004422187805
visibility: 0.9999815225601196
","x: 193.43650817871094
y: 274.74322509765625
z: -0.31504836678504944
visibility: 0.9999351501464844
","x: 194.82568359375
y: 274.31597900390625
z: -0.31503280997276306
visibility: 0.9999281764030457
","x: 196.0423583984375
y: 274.0274963378906
z: -0.31507331132888794
visibility: 0.9999168515205383
","x: 189.9282989501953
y: 276.5549011230469
z: -0.3136168122291565
visibility: 0.999951958656311
","x: 188.84043884277344
y: 277.21954345703125
z: -0.31377068161964417
visibility: 0.9999546408653259
","x: 187.73239135742188
y: 277.90203857421875
z: -0.31390729546546936
visibility: 0.9999542236328125
","x: 198.5836944580078
y: 276.5072326660156
z: -0.23366732895374298
visibility: 0.9997269511222839
","x: 186.94384765625
y: 281.4189453125
z: -0.22844931483268738
visibility: 0.9999185800552368
","x: 195.81719970703125
y: 286.8154296875
z: -0.2904569208621979
visibility: 0.9999583959579468
","x: 190.8516082763672
y: 288.3673400878906
z: -0.29428642988204956
visibility: 0.9999702572822571
","x: 214.39466857910156
y: 318.5309753417969
z: -0.14461632072925568
visibility: 0.9999184012413025
","x: 177.02996826171875
y: 319.2896728515625
z: -0.19030337035655975
visibility: 0.9999833106994629
","x: 218.49227905273438
y: 367.84442138671875
z: -0.09456860274076462
visibility: 0.9430682063102722
","x: 172.44406127929688
y: 369.4548034667969
z: -0.17606575787067413
visibility: 0.9800546169281006
","x: 220.79364013671875
y: 409.513916015625
z: -0.15735730528831482
visibility: 0.7695189118385315
","x: 171.3292236328125
y: 414.8235778808594
z: -0.2350774109363556
visibility: 0.8795725703239441
","x: 222.4812469482422
y: 421.95599365234375
z: -0.1800287365913391
visibility: 0.629299521446228
","x: 170.65966796875
y: 427.9298400878906
z: -0.263400137424469
visibility: 0.7746350765228271
","x: 221.0211181640625
y: 422.52935791015625
z: -0.20584328472614288
visibility: 0.649206817150116
","x: 172.7119903564453
y: 427.5057678222656
z: -0.2832793593406677
visibility: 0.7788132429122925
","x: 219.78237915039062
y: 418.7684326171875
z: -0.17044705152511597
visibility: 0.6269031167030334
","x: 173.4670867919922
y: 422.4072265625
z: -0.24417757987976074
visibility: 0.7486535310745239
","x: 204.7401123046875
y: 410.609375
z: 0.014932411722838879
visibility: 0.9999082684516907
","x: 184.79396057128906
y: 409.6754455566406
z: -0.015087192878127098
visibility: 0.9999375939369202
","x: 211.47991943359375
y: 468.8403015136719
z: 0.08688126504421234
visibility: 0.9876298308372498
","x: 177.9705352783203
y: 466.9114990234375
z: 0.03809702768921852
visibility: 0.9954105615615845
","x: 219.61643981933594
y: 520.8678588867188
z: 0.2852093279361725
visibility: 0.9916387796401978
","x: 170.74647521972656
y: 517.6707763671875
z: 0.2302737534046173
visibility: 0.9946081638336182
","x: 216.8997802734375
y: 531.1088256835938
z: 0.30067309737205505
visibility: 0.9366531372070312
","x: 170.8625030517578
y: 524.7986450195312
z: 0.2478596419095993
visibility: 0.8982593417167664
","x: 227.67068481445312
y: 541.593994140625
z: 0.21121001243591309
visibility: 0.9868837594985962
","x: 169.40560913085938
y: 539.4564208984375
z: 0.15024331212043762
visibility: 0.9887807369232178
",,,,,,,,,,,,,,,,,,,,,,,,,,,,,,,,,,,,,,,,,,
8,"x: 192.03274536132812
y: 281.0185852050781
z: -0.29953551292419434
visibility: 0.9999821186065674
","x: 193.34744262695312
y: 274.784912109375
z: -0.2896741032600403
visibility: 0.9999369978904724
","x: 194.73765563964844
y: 274.3731689453125
z: -0.2896786034107208
visibility: 0.999930739402771
","x: 195.958251953125
y: 274.092041015625
z: -0.2896890342235565
visibility: 0.9999194145202637
","x: 189.89515686035156
y: 276.5679016113281
z: -0.2883031666278839
visibility: 0.999951958656311
","x: 188.82244873046875
y: 277.2293395996094
z: -0.2883759140968323
visibility: 0.9999547600746155
","x: 187.719970703125
y: 277.9111022949219
z: -0.2884197533130646
visibility: 0.9999534487724304
","x: 198.57962036132812
y: 276.541015625
z: -0.2056732475757599
visibility: 0.9997410178184509
","x: 186.95333862304688
y: 281.3565673828125
z: -0.1995113641023636
visibility: 0.9999166131019592
","x: 195.67349243164062
y: 286.91827392578125
z: -0.2659149765968323
visibility: 0.9999600648880005
","x: 190.79551696777344
y: 288.4437255859375
z: -0.2646792232990265
visibility: 0.9999700784683228
","x: 214.39915466308594
y: 318.1525573730469
z: -0.1225600466132164
visibility: 0.9999234080314636
","x: 177.4327850341797
y: 318.7140808105469
z: -0.14582432806491852
visibility: 0.9999831914901733
","x: 218.76048278808594
y: 366.7347717285156
z: -0.07406271994113922
visibility: 0.9467405676841736
","x: 172.44931030273438
y: 368.0190734863281
z: -0.11652299016714096
visibility: 0.9799461364746094
","x: 221.19906616210938
y: 409.0741271972656
z: -0.13902398943901062
visibility: 0.7877532839775085
","x: 167.41783142089844
y: 406.0872802734375
z: -0.17824727296829224
visibility: 0.8871749639511108
","x: 223.03004455566406
y: 421.95001220703125
z: -0.15761205554008484
visibility: 0.6556939482688904
","x: 164.09188842773438
y: 417.19134521484375
z: -0.2030016928911209
visibility: 0.7881798148155212
","x: 221.8143768310547
y: 422.51043701171875
z: -0.18382570147514343
visibility: 0.6746227741241455
","x: 164.13153076171875
y: 417.1064758300781
z: -0.22919699549674988
visibility: 0.7924379110336304
","x: 220.5215606689453
y: 418.7566833496094
z: -0.15107475221157074
visibility: 0.6533652544021606
","x: 166.17933654785156
y: 414.1961364746094
z: -0.19083592295646667
visibility: 0.7640227675437927
","x: 204.76487731933594
y: 410.59228515625
z: 0.013755877502262592
visibility: 0.9999075531959534
","x: 184.87069702148438
y: 409.5528869628906
z: -0.01390095055103302
visibility: 0.9999356269836426
","x: 211.62982177734375
y: 468.45465087890625
z: 0.06693119555711746
visibility: 0.9878780841827393
","x: 178.0005340576172
y: 466.149169921875
z: 0.03627295419573784
visibility: 0.9954981803894043
","x: 219.620849609375
y: 520.7526245117188
z: 0.2410636842250824
visibility: 0.9915981292724609
","x: 170.8396759033203
y: 517.6807861328125
z: 0.2224109172821045
visibility: 0.9946996569633484
","x: 216.89974975585938
y: 530.9663696289062
z: 0.25368043780326843
visibility: 0.9370361566543579
","x: 170.9091796875
y: 524.9169311523438
z: 0.23714032769203186
visibility: 0.8997595310211182
","x: 227.66476440429688
y: 541.572021484375
z: 0.16582779586315155
visibility: 0.9869073629379272
","x: 169.40640258789062
y: 539.427490234375
z: 0.14086489379405975
visibility: 0.9889826774597168
",,,,,,,,,,,,,,,,,,,,,,,,,,,,,,,,,,,,,,,,,,
9,"x: 192.08355712890625
y: 281.0668029785156
z: -0.3086109757423401
visibility: 0.9999830722808838
","x: 193.41323852539062
y: 274.8102111816406
z: -0.29886937141418457
visibility: 0.999940037727356
","x: 194.8021697998047
y: 274.4159851074219
z: -0.2988654673099518
visibility: 0.9999343752861023
","x: 196.01318359375
y: 274.1405944824219
z: -0.2988739013671875
visibility: 0.9999232888221741
","x: 189.93313598632812
y: 276.4366455078125
z: -0.29795581102371216
visibility: 0.9999534487724304
","x: 188.85122680664062
y: 277.0387878417969
z: -0.29803332686424255
visibility: 0.9999563097953796
","x: 187.74501037597656
y: 277.64117431640625
z: -0.2980693280696869
visibility: 0.9999545216560364
","x: 198.60194396972656
y: 276.5712585449219
z: -0.2124069631099701
visibility: 0.9997590184211731
","x: 186.9591827392578
y: 281.07470703125
z: -0.2087797373533249
visibility: 0.9999185800552368
","x: 195.664306640625
y: 286.977294921875
z: -0.2742170989513397
visibility: 0.9999625086784363
","x: 190.82359313964844
y: 288.49798583984375
z: -0.2734043002128601
visibility: 0.9999711513519287
","x: 214.32090759277344
y: 317.986328125
z: -0.12727011740207672
visibility: 0.9999285340309143
","x: 177.39266967773438
y: 318.135009765625
z: -0.15147747099399567
visibility: 0.9999836683273315
","x: 218.8472442626953
y: 365.677490234375
z: -0.0789945051074028
visibility: 0.9504535794258118
","x: 172.03256225585938
y: 363.0764465332031
z: -0.13498203456401825
visibility: 0.9806370139122009
","x: 221.7273712158203
y: 408.4930114746094
z: -0.14356723427772522
visibility: 0.8055251836776733
","x: 163.16651916503906
y: 390.3733825683594
z: -0.2274477481842041
visibility: 0.8965181708335876
","x: 223.5703125
y: 421.87249755859375
z: -0.16179576516151428
visibility: 0.6821111440658569
","x: 157.61363220214844
y: 400.1473693847656
z: -0.2566208839416504
visibility: 0.8053923845291138
","x: 222.29608154296875
y: 422.03021240234375
z: -0.1880071759223938
visibility: 0.6998037099838257
","x: 157.86721801757812
y: 398.85296630859375
z: -0.28311583399772644
visibility: 0.8094961047172546
","x: 221.00994873046875
y: 418.0328674316406
z: -0.15538717806339264
visibility: 0.6797052621841431
","x: 160.21202087402344
y: 395.8834228515625
z: -0.24154894053936005
visibility: 0.783128559589386
","x: 204.77862548828125
y: 410.5477600097656
z: 0.012277057394385338
visibility: 0.9999101758003235
","x: 184.7822265625
y: 409.641357421875
z: -0.012439521960914135
visibility: 0.9999375939369202
","x: 211.7428436279297
y: 468.3563537597656
z: 0.06758357584476471
visibility: 0.9885843992233276
","x: 178.00157165527344
y: 466.1524658203125
z: 0.03188053518533707
visibility: 0.9957218170166016
","x: 219.6272735595703
y: 520.697021484375
z: 0.2418220043182373
visibility: 0.99185711145401
","x: 170.84486389160156
y: 517.7869262695312
z: 0.21685846149921417
visibility: 0.9949231147766113
","x: 216.9154815673828
y: 530.9578857421875
z: 0.25431370735168457
visibility: 0.9382473826408386
","x: 170.9022674560547
y: 525.111328125
z: 0.23113206028938293
visibility: 0.9024637341499329
","x: 227.6720428466797
y: 541.5684204101562
z: 0.16806824505329132
visibility: 0.9873105883598328
","x: 169.40121459960938
y: 539.4278564453125
z: 0.13243427872657776
visibility: 0.9894617199897766
",,,,,,,,,,,,,,,,,,,,,,,,,,,,,,,,,,,,,,,,,,
10,"x: 191.3504638671875
y: 281.03289794921875
z: -0.2899892032146454
visibility: 0.9999827146530151
","x: 192.79925537109375
y: 274.8260498046875
z: -0.27750492095947266
visibility: 0.9999397397041321
","x: 194.1269073486328
y: 274.447021484375
z: -0.27749019861221313
visibility: 0.9999343156814575
","x: 195.40634155273438
y: 274.17694091796875
z: -0.27750056982040405
visibility: 0.9999229907989502
","x: 189.24008178710938
y: 276.34515380859375
z: -0.27839869260787964
visibility: 0.9999516606330872
","x: 188.1309814453125
y: 276.92767333984375
z: -0.278469443321228
visibility: 0.9999549388885498
","x: 187.01678466796875
y: 277.5169677734375
z: -0.2784894108772278
visibility: 0.9999516606330872
","x: 197.73155212402344
y: 276.6076965332031
z: -0.18504035472869873
visibility: 0.9997726678848267
","x: 186.24014282226562
y: 280.74298095703125
z: -0.1915966421365738
visibility: 0.999912679195404
","x: 194.77943420410156
y: 286.93353271484375
z: -0.2544634938240051
visibility: 0.9999634623527527
","x: 189.83889770507812
y: 288.4237060546875
z: -0.2566300928592682
visibility: 0.9999704957008362
","x: 212.05825805664062
y: 317.9275207519531
z: -0.11138232052326202
visibility: 0.9999325275421143
","x: 175.2491912841797
y: 316.32952880859375
z: -0.14026811718940735
visibility: 0.9999773502349854
","x: 218.66717529296875
y: 364.6029052734375
z: -0.08065829426050186
visibility: 0.9541221261024475
","x: 164.92242431640625
y: 352.8482666015625
z: -0.2495846450328827
visibility: 0.9805075526237488
","x: 221.9163055419922
y: 407.3994445800781
z: -0.14006464183330536
visibility: 0.8229814171791077
","x: 155.34690856933594
y: 342.4751281738281
z: -0.47302699089050293
visibility: 0.904624879360199
","x: 223.62020874023438
y: 421.3305969238281
z: -0.1571117341518402
visibility: 0.7090716361999512
","x: 153.27330017089844
y: 342.2210998535156
z: -0.519525945186615
visibility: 0.8209579586982727
","x: 222.27261352539062
y: 420.638427734375
z: -0.18105058372020721
visibility: 0.7253116369247437
","x: 154.81919860839844
y: 334.8570556640625
z: -0.5297398567199707
visibility: 0.824708878993988
","x: 221.00787353515625
y: 416.4591064453125
z: -0.15053752064704895
visibility: 0.7062525749206543
","x: 155.66761779785156
y: 335.0120849609375
z: -0.48401397466659546
visibility: 0.7996789216995239
","x: 204.49314880371094
y: 410.5301513671875
z: 0.010929519310593605
visibility: 0.999915599822998
","x: 183.73175048828125
y: 409.7169494628906
z: -0.011076567694544792
visibility: 0.9999393224716187
","x: 211.7207794189453
y: 467.7249450683594
z: 0.04288865998387337
visibility: 0.9895402193069458
","x: 177.6136932373047
y: 465.0193786621094
z: 0.03258486092090607
visibility: 0.9958070516586304
","x: 219.62704467773438
y: 520.689453125
z: 0.2052977979183197
visibility: 0.9923539757728577
","x: 170.8607940673828
y: 517.7222900390625
z: 0.2312094271183014
visibility: 0.9950945973396301
","x: 216.9202423095703
y: 530.980712890625
z: 0.2159154713153839
visibility: 0.9401974081993103
","x: 170.91380310058594
y: 525.0970458984375
z: 0.2463085949420929
visibility: 0.9051203727722168
","x: 227.68295288085938
y: 541.5651245117188
z: 0.11346212774515152
visibility: 0.988082230091095
","x: 169.4051513671875
y: 539.3853149414062
z: 0.14464284479618073
visibility: 0.9898887872695923
",,,,,,,,,,,,,,,,,,,,,,,,,,,,,,,,,,,,,,,,,,
11,"x: 190.39768981933594
y: 279.9042053222656
z: -0.2941426932811737
visibility: 0.9999825954437256
","x: 191.94300842285156
y: 274.011474609375
z: -0.2812386751174927
visibility: 0.9999414086341858
","x: 193.2744903564453
y: 273.68597412109375
z: -0.28120335936546326
visibility: 0.9999365210533142
","x: 194.59567260742188
y: 273.479736328125
z: -0.28121381998062134
visibility: 0.9999254941940308
","x: 188.3191375732422
y: 275.5954284667969
z: -0.28116574883461
visibility: 0.9999513626098633
","x: 187.19061279296875
y: 276.27313232421875
z: -0.28122803568840027
visibility: 0.999954104423523
","x: 186.15106201171875
y: 276.9615478515625
z: -0.2812381982803345
visibility: 0.9999486804008484
","x: 197.08203125
y: 276.32708740234375
z: -0.18714801967144012
visibility: 0.9997889995574951
","x: 185.47384643554688
y: 280.4935302734375
z: -0.1893569976091385
visibility: 0.9999087452888489
","x: 193.87265014648438
y: 285.7725830078125
z: -0.2581161856651306
visibility: 0.9999637007713318
","x: 188.750244140625
y: 287.33892822265625
z: -0.2590557932853699
visibility: 0.9999684691429138
","x: 210.91331481933594
y: 317.6700134277344
z: -0.11550746858119965
visibility: 0.999935507774353
","x: 175.0851593017578
y: 313.474609375
z: -0.1496066451072693
visibility: 0.9999575614929199
","x: 218.15536499023438
y: 364.523193359375
z: -0.0957084596157074
visibility: 0.9572387337684631
","x: 156.3234100341797
y: 332.0732421875
z: -0.29548364877700806
visibility: 0.9814407825469971
","x: 222.04269409179688
y: 406.2980651855469
z: -0.14558468759059906
visibility: 0.8384193778038025
","x: 157.20179748535156
y: 315.0118713378906
z: -0.4790489077568054
visibility: 0.9085440039634705
","x: 223.9532928466797
y: 420.6565856933594
z: -0.16107085347175598
visibility: 0.7317773699760437
","x: 163.4039764404297
y: 310.2548828125
z: -0.5189798474311829
visibility: 0.8242992758750916
","x: 222.40049743652344
y: 419.5689697265625
z: -0.18183928728103638
visibility: 0.7467727661132812
","x: 167.1192169189453
y: 308.3089904785156
z: -0.5116594433784485
visibility: 0.8258388638496399
","x: 221.08424377441406
y: 415.46527099609375
z: -0.1549399197101593
visibility: 0.728115439414978
","x: 166.52719116210938
y: 311.4818115234375
z: -0.48153156042099
visibility: 0.7991273999214172
","x: 203.5630645751953
y: 409.1151428222656
z: 0.010921903885900974
visibility: 0.9999206066131592
","x: 182.1005859375
y: 408.5242004394531
z: -0.011055884882807732
visibility: 0.9999410510063171
","x: 211.81683349609375
y: 467.45098876953125
z: 0.03650554269552231
visibility: 0.9901267290115356
","x: 176.8657989501953
y: 464.7174072265625
z: 0.05665105581283569
visibility: 0.9958399534225464
","x: 219.78309631347656
y: 520.938232421875
z: 0.18429726362228394
visibility: 0.9926441311836243
","x: 170.85708618164062
y: 517.981201171875
z: 0.2586483657360077
visibility: 0.9950857758522034
","x: 216.9310760498047
y: 531.760009765625
z: 0.19379650056362152
visibility: 0.9425973296165466
","x: 171.01123046875
y: 525.098876953125
z: 0.27453553676605225
visibility: 0.9051515460014343
","x: 228.9620361328125
y: 541.5234985351562
z: 0.09303390979766846
visibility: 0.9885385036468506
","x: 169.1570281982422
y: 539.3828125
z: 0.17796623706817627
visibility: 0.989895224571228
",,,,,,,,,,,,,,,,,,,,,,,,,,,,,,,,,,,,,,,,,,
12,"x: 190.58450317382812
y: 279.9506530761719
z: -0.26506945490837097
visibility: 0.9999704360961914
","x: 192.1221923828125
y: 274.0656433105469
z: -0.2519088387489319
visibility: 0.9999075531959534
","x: 193.45802307128906
y: 273.74322509765625
z: -0.2518625855445862
visibility: 0.9998905658721924
","x: 194.71852111816406
y: 273.53424072265625
z: -0.25185757875442505
visibility: 0.9998732209205627
","x: 188.4337615966797
y: 275.528076171875
z: -0.2522663474082947
visibility: 0.9999240636825562
","x: 187.28427124023438
y: 276.10693359375
z: -0.25233080983161926
visibility: 0.9999293684959412
","x: 186.21542358398438
y: 276.70867919921875
z: -0.25237447023391724
visibility: 0.9999240040779114
","x: 197.04937744140625
y: 276.37445068359375
z: -0.15977665781974792
visibility: 0.99969083070755
","x: 185.5809326171875
y: 279.9338073730469
z: -0.1627732515335083
visibility: 0.9998608231544495
","x: 193.7237548828125
y: 285.8343811035156
z: -0.22969269752502441
visibility: 0.9999366402626038
","x: 188.93917846679688
y: 287.2120361328125
z: -0.23093685507774353
visibility: 0.9999455809593201
","x: 210.7146453857422
y: 315.6380310058594
z: -0.08058785647153854
visibility: 0.9999080300331116
","x: 175.15310668945312
y: 310.33251953125
z: -0.13985922932624817
visibility: 0.9999487996101379
","x: 217.20712280273438
y: 359.46954345703125
z: -0.046526264399290085
visibility: 0.9550651907920837
","x: 161.42056274414062
y: 334.1361999511719
z: -0.28001564741134644
visibility: 0.9829379320144653
","x: 221.89874267578125
y: 402.6717529296875
z: -0.06936876475811005
visibility: 0.8424534797668457
","x: 169.56301879882812
y: 300.872314453125
z: -0.44397100806236267
visibility: 0.9170518517494202
","x: 223.63668823242188
y: 415.6500244140625
z: -0.07700078934431076
visibility: 0.7341413497924805
","x: 175.13131713867188
y: 291.1307067871094
z: -0.4847719073295593
visibility: 0.8398048877716064
","x: 222.26300048828125
y: 414.4793701171875
z: -0.09529423713684082
visibility: 0.7479496598243713
","x: 176.41258239746094
y: 289.74444580078125
z: -0.4760362207889557
visibility: 0.8408405184745789
","x: 220.9504852294922
y: 410.64080810546875
z: -0.07699064910411835
visibility: 0.7288169264793396
","x: 175.9028778076172
y: 293.45343017578125
z: -0.4451988637447357
visibility: 0.81528240442276
","x: 203.34072875976562
y: 407.04595947265625
z: 0.013328155502676964
visibility: 0.9999246001243591
","x: 181.38784790039062
y: 406.6976318359375
z: -0.013476359657943249
visibility: 0.9999428391456604
","x: 212.17144775390625
y: 462.845703125
z: 0.01914929784834385
visibility: 0.9907061457633972
","x: 176.15167236328125
y: 464.1570739746094
z: 0.0547657385468483
visibility: 0.9959654211997986
","x: 219.86094665527344
y: 520.9984741210938
z: 0.1639275699853897
visibility: 0.9929731488227844
","x: 170.84344482421875
y: 517.724365234375
z: 0.25357913970947266
visibility: 0.9952180981636047
","x: 216.90945434570312
y: 532.478515625
z: 0.17348356544971466
visibility: 0.9445986151695251
","x: 171.0011749267578
y: 524.272705078125
z: 0.2706354558467865
visibility: 0.9059513807296753
","x: 230.03759765625
y: 541.3084716796875
z: 0.07376305013895035
visibility: 0.9890559315681458
","x: 169.18055725097656
y: 539.3582763671875
z: 0.17129990458488464
visibility: 0.990210771560669
",,,,,,,,,,,,,,,,,,,,,,,,,,,,,,,,,,,,,,,,,,
13,"x: 191.85052490234375
y: 281.17364501953125
z: -0.24971291422843933
visibility: 0.9999706149101257
","x: 192.74330139160156
y: 274.9338073730469
z: -0.23394541442394257
visibility: 0.999910295009613
","x: 193.85316467285156
y: 274.6893310546875
z: -0.23388883471488953
visibility: 0.9998927712440491
","x: 194.9757843017578
y: 274.5205383300781
z: -0.23387984931468964
visibility: 0.9998762607574463
","x: 189.4376220703125
y: 276.17901611328125
z: -0.23645928502082825
visibility: 0.9999250173568726
","x: 188.21617126464844
y: 276.79351806640625
z: -0.23652251064777374
visibility: 0.9999298453330994
","x: 186.96328735351562
y: 277.4549255371094
z: -0.2365730106830597
visibility: 0.9999233484268188
","x: 197.35934448242188
y: 277.55987548828125
z: -0.1338418424129486
visibility: 0.9997071027755737
","x: 185.60247802734375
y: 281.696533203125
z: -0.14644958078861237
visibility: 0.9998629093170166
","x: 194.7920379638672
y: 287.89678955078125
z: -0.2114989459514618
visibility: 0.9999370574951172
","x: 190.64088439941406
y: 289.3226318359375
z: -0.21553432941436768
visibility: 0.9999424815177917
","x: 210.81202697753906
y: 316.3385314941406
z: -0.04687775671482086
visibility: 0.9999094009399414
","x: 178.97421264648438
y: 311.1688537597656
z: -0.14410170912742615
visibility: 0.9999435544013977
","x: 218.63426208496094
y: 360.0598449707031
z: -0.009853871539235115
visibility: 0.9561259746551514
","x: 164.20872497558594
y: 309.38726806640625
z: -0.32461559772491455
visibility: 0.9843565225601196
","x: 225.41917419433594
y: 402.6742248535156
z: -0.02695302665233612
visibility: 0.8541106581687927
","x: 179.0852813720703
y: 283.3288269042969
z: -0.49406298995018005
visibility: 0.9242798686027527
","x: 226.06008911132812
y: 415.53106689453125
z: -0.03304276615381241
visibility: 0.7507395148277283
","x: 183.30337524414062
y: 274.4771728515625
z: -0.5385023951530457
visibility: 0.8521409630775452
","x: 224.7623291015625
y: 413.5705871582031
z: -0.05316011235117912
visibility: 0.7636104226112366
","x: 183.95455932617188
y: 275.14178466796875
z: -0.5259765386581421
visibility: 0.8523125648498535
","x: 224.15875244140625
y: 409.5256042480469
z: -0.03524915128946304
visibility: 0.7444636821746826
","x: 183.11814880371094
y: 278.911865234375
z: -0.4951009750366211
visibility: 0.826936662197113
","x: 204.9962158203125
y: 407.174560546875
z: 0.024739211425185204
visibility: 0.9999302625656128
","x: 183.00579833984375
y: 406.85418701171875
z: -0.024884728714823723
visibility: 0.9999465346336365
","x: 215.3090057373047
y: 460.6240234375
z: 0.014574910514056683
visibility: 0.9912540912628174
","x: 176.5950164794922
y: 463.21044921875
z: 0.02037312649190426
visibility: 0.9961311221122742
","x: 219.8726806640625
y: 520.9987182617188
z: 0.16039685904979706
visibility: 0.9933071136474609
","x: 170.7131805419922
y: 517.6452026367188
z: 0.1960577666759491
visibility: 0.9953973293304443
","x: 216.73858642578125
y: 532.7725830078125
z: 0.17040030658245087
visibility: 0.9476535320281982
","x: 170.54893493652344
y: 524.172607421875
z: 0.20923618972301483
visibility: 0.9072638750076294
","x: 230.91769409179688
y: 541.206787109375
z: 0.07408582419157028
visibility: 0.9895908236503601
","x: 169.2514190673828
y: 539.4080200195312
z: 0.11099463701248169
visibility: 0.9905787110328674
",,,,,,,,,,,,,,,,,,,,,,,,,,,,,,,,,,,,,,,,,,
14,"x: 192.3284454345703
y: 286.7992858886719
z: -0.24376043677330017
visibility: 0.9999698400497437
","x: 192.75709533691406
y: 279.5224609375
z: -0.22995564341545105
visibility: 0.9999111890792847
","x: 193.9202880859375
y: 278.82781982421875
z: -0.2299003154039383
visibility: 0.9998922348022461
","x: 195.04844665527344
y: 278.13580322265625
z: -0.22990112006664276
visibility: 0.9998757243156433
","x: 189.6298065185547
y: 281.4023132324219
z: -0.2287808656692505
visibility: 0.9999240040779114
","x: 188.4440460205078
y: 282.0872802734375
z: -0.22884419560432434
visibility: 0.9999274611473083
","x: 187.1902313232422
y: 282.7618103027344
z: -0.22888298332691193
visibility: 0.9999204277992249
","x: 197.37255859375
y: 280.3114929199219
z: -0.13710546493530273
visibility: 0.9997195601463318
","x: 185.62777709960938
y: 286.6683654785156
z: -0.13116787374019623
visibility: 0.9998584389686584
","x: 195.22506713867188
y: 292.336181640625
z: -0.2076035439968109
visibility: 0.9999329447746277
","x: 191.4616241455078
y: 294.7828369140625
z: -0.20632822811603546
visibility: 0.9999321103096008
","x: 211.81137084960938
y: 317.4852294921875
z: -0.05853687971830368
visibility: 0.9998985528945923
","x: 181.63951110839844
y: 312.37298583984375
z: -0.12049732357263565
visibility: 0.9999322295188904
","x: 218.759033203125
y: 362.71490478515625
z: -0.020728353410959244
visibility: 0.9471966624259949
","x: 165.31668090820312
y: 309.5671691894531
z: -0.2855277359485626
visibility: 0.9857345223426819
","x: 224.9612274169922
y: 403.0139465332031
z: -0.018740827217698097
visibility: 0.8427563309669495
","x: 180.80787658691406
y: 277.294677734375
z: -0.4211362898349762
visibility: 0.9301984906196594
","x: 225.74642944335938
y: 416.1177062988281
z: -0.019195979461073875
visibility: 0.7322031259536743
","x: 185.22743225097656
y: 270.1098937988281
z: -0.4552130103111267
visibility: 0.8600720763206482
","x: 224.4139862060547
y: 414.5665283203125
z: -0.03409234434366226
visibility: 0.7449908256530762
","x: 186.6258087158203
y: 269.8616638183594
z: -0.44187131524086
visibility: 0.8587141633033752
","x: 223.63792419433594
y: 410.5600280761719
z: -0.024161173030734062
visibility: 0.7241358757019043
","x: 185.3883056640625
y: 273.54266357421875
z: -0.42008987069129944
visibility: 0.8319813013076782
","x: 208.45252990722656
y: 408.0093994140625
z: 0.021042387932538986
visibility: 0.9999362230300903
","x: 186.2587432861328
y: 407.7245788574219
z: -0.021154353395104408
visibility: 0.9999493956565857
","x: 220.19871520996094
y: 459.6426696777344
z: -0.12455976009368896
visibility: 0.9917604327201843
","x: 178.02407836914062
y: 463.26947021484375
z: 0.04063279554247856
visibility: 0.9959266185760498
","x: 220.24095153808594
y: 520.7884521484375
z: -0.011890508234500885
visibility: 0.9935730695724487
","x: 170.75950622558594
y: 516.9441528320312
z: 0.2299109250307083
visibility: 0.9949046969413757
","x: 216.73965454101562
y: 532.5081176757812
z: -0.003930642269551754
visibility: 0.9506595134735107
","x: 170.55316162109375
y: 522.8428955078125
z: 0.24565532803535461
visibility: 0.9012743830680847
","x: 231.40818786621094
y: 541.1832885742188
z: -0.10603760182857513
visibility: 0.9901337623596191
","x: 169.34097290039062
y: 539.4134521484375
z: 0.16420522332191467
visibility: 0.9898183941841125
",,,,,,,,,,,,,,,,,,,,,,,,,,,,,,,,,,,,,,,,,,
15,"x: 193.1041717529297
y: 289.916259765625
z: -0.2314370572566986
visibility: 0.9999692440032959
","x: 193.2573699951172
y: 282.85028076171875
z: -0.21634098887443542
visibility: 0.9999126195907593
","x: 194.32168579101562
y: 282.15411376953125
z: -0.21629419922828674
visibility: 0.9998937845230103
","x: 195.4134521484375
y: 281.38372802734375
z: -0.2162843942642212
visibility: 0.9998775720596313
","x: 190.37879943847656
y: 284.52398681640625
z: -0.2155565768480301
visibility: 0.9999226331710815
","x: 189.26568603515625
y: 285.1759033203125
z: -0.21562083065509796
visibility: 0.9999257922172546
","x: 188.0478057861328
y: 285.8433837890625
z: -0.21566100418567657
visibility: 0.9999171495437622
","x: 197.86056518554688
y: 283.29449462890625
z: -0.12240715324878693
visibility: 0.9997334480285645
","x: 186.21841430664062
y: 289.986328125
z: -0.11879056692123413
visibility: 0.9998558759689331
","x: 196.10317993164062
y: 295.3792724609375
z: -0.19584688544273376
visibility: 0.9999316334724426
","x: 192.3760986328125
y: 298.146240234375
z: -0.19515225291252136
visibility: 0.9999247789382935
","x: 213.3758544921875
y: 318.4951171875
z: -0.04497784376144409
visibility: 0.999896228313446
","x: 183.1033477783203
y: 317.28448486328125
z: -0.11274168640375137
visibility: 0.9999188184738159
","x: 219.472412109375
y: 363.76385498046875
z: -0.013954917900264263
visibility: 0.9481688737869263
","x: 168.28933715820312
y: 307.97979736328125
z: -0.27684393525123596
visibility: 0.9868746995925903
","x: 224.6339111328125
y: 404.5657653808594
z: -0.023999856784939766
visibility: 0.8503034114837646
","x: 181.3865203857422
y: 278.72955322265625
z: -0.4261992573738098
visibility: 0.9358103275299072
","x: 225.66485595703125
y: 416.90960693359375
z: -0.028083179146051407
visibility: 0.7402764558792114
","x: 185.25350952148438
y: 271.0398254394531
z: -0.4652824401855469
visibility: 0.8686832785606384
","x: 224.20774841308594
y: 417.17913818359375
z: -0.046586692333221436
visibility: 0.7525967955589294
","x: 186.99755859375
y: 270.6518249511719
z: -0.452908456325531
visibility: 0.8663668036460876
","x: 223.33181762695312
y: 412.9360656738281
z: -0.031246259808540344
visibility: 0.7311100959777832
","x: 186.24656677246094
y: 274.1296691894531
z: -0.42701926827430725
visibility: 0.839695394039154
","x: 209.85560607910156
y: 408.76123046875
z: 0.021209586411714554
visibility: 0.9999402165412903
","x: 187.83657836914062
y: 408.36834716796875
z: -0.02132328227162361
visibility: 0.9999510645866394
","x: 221.38563537597656
y: 460.0888366699219
z: -0.04687760770320892
visibility: 0.9922500848770142
","x: 179.3135528564453
y: 463.3372497558594
z: 0.005734522361308336
visibility: 0.996098518371582
","x: 220.77163696289062
y: 520.8032836914062
z: 0.08937467634677887
visibility: 0.9938646554946899
","x: 170.69598388671875
y: 516.960693359375
z: 0.1691751927137375
visibility: 0.995064377784729
","x: 216.82110595703125
y: 532.508056640625
z: 0.0983109325170517
visibility: 0.9531324505805969
","x: 170.50881958007812
y: 522.9224243164062
z: 0.18099579215049744
visibility: 0.9016751050949097
","x: 231.66563415527344
y: 541.170654296875
z: -0.0005777699989266694
visibility: 0.9905446171760559
","x: 169.2218475341797
y: 539.4493408203125
z: 0.08585795015096664
visibility: 0.990124523639679
",,,,,,,,,,,,,,,,,,,,,,,,,,,,,,,,,,,,,,,,,,
16,"x: 194.54464721679688
y: 292.8845520019531
z: -0.22747154533863068
visibility: 0.9999648332595825
","x: 196.0609130859375
y: 285.7339782714844
z: -0.21577481925487518
visibility: 0.9999051690101624
","x: 197.25848388671875
y: 284.8180847167969
z: -0.2157551497220993
visibility: 0.9998858571052551
","x: 198.41000366210938
y: 283.92767333984375
z: -0.2157495766878128
visibility: 0.9998683333396912
","x: 192.82737731933594
y: 287.7703857421875
z: -0.21006104350090027
visibility: 0.9999105334281921
","x: 191.75912475585938
y: 288.3089599609375
z: -0.21011602878570557
visibility: 0.9999138116836548
","x: 190.607666015625
y: 288.83428955078125
z: -0.21014228463172913
visibility: 0.9998999834060669
","x: 201.0211639404297
y: 285.8954162597656
z: -0.13416627049446106
visibility: 0.999726414680481
","x: 189.4322509765625
y: 291.698974609375
z: -0.10963320732116699
visibility: 0.9998050332069397
","x: 197.75033569335938
y: 298.07781982421875
z: -0.19706808030605316
visibility: 0.999922513961792
","x: 193.81607055664062
y: 300.48626708984375
z: -0.19011430442333221
visibility: 0.9998984336853027
","x: 216.55819702148438
y: 318.0344543457031
z: -0.06555444747209549
visibility: 0.99989253282547
","x: 186.06585693359375
y: 321.0770263671875
z: -0.07889766991138458
visibility: 0.9998855590820312
","x: 222.75482177734375
y: 358.74285888671875
z: -0.03423205390572548
visibility: 0.9510908722877502
","x: 175.8507537841797
y: 315.7562561035156
z: -0.21327006816864014
visibility: 0.9864083528518677
","x: 229.62368774414062
y: 403.2268981933594
z: -0.053316086530685425
visibility: 0.8625637888908386
","x: 177.8556365966797
y: 299.10284423828125
z: -0.40587106347084045
visibility: 0.940914511680603
","x: 229.88917541503906
y: 415.112060546875
z: -0.05965126305818558
visibility: 0.7594648599624634
","x: 177.3722381591797
y: 290.3658447265625
z: -0.4457998275756836
visibility: 0.878689169883728
","x: 228.365478515625
y: 415.20953369140625
z: -0.07938716560602188
visibility: 0.7707576751708984
","x: 179.11358642578125
y: 288.61932373046875
z: -0.44456392526626587
visibility: 0.8763076066970825
","x: 227.6270294189453
y: 411.44964599609375
z: -0.060512445867061615
visibility: 0.7497302293777466
","x: 181.33792114257812
y: 291.898681640625
z: -0.41175007820129395
visibility: 0.8508939146995544
","x: 211.34341430664062
y: 410.33746337890625
z: 0.014607603661715984
visibility: 0.9999422430992126
","x: 190.1961669921875
y: 408.8651123046875
z: -0.014706054702401161
visibility: 0.9999523162841797
","x: 220.91871643066406
y: 461.1370849609375
z: 0.014754305593669415
visibility: 0.992519736289978
","x: 180.80259704589844
y: 463.65679931640625
z: 0.003366753924638033
visibility: 0.9963117241859436
","x: 220.75250244140625
y: 520.8487548828125
z: 0.18270966410636902
visibility: 0.9940375685691833
","x: 171.6827850341797
y: 516.8079223632812
z: 0.1582476794719696
visibility: 0.995323121547699
","x: 216.7998504638672
y: 532.65185546875
z: 0.1943386048078537
visibility: 0.9550978541374207
","x: 172.44549560546875
y: 522.9591674804688
z: 0.1696144938468933
visibility: 0.9057455062866211
","x: 231.5643310546875
y: 541.1678466796875
z: 0.10576818138360977
visibility: 0.9907074570655823
","x: 169.0410614013672
y: 539.470947265625
z: 0.07597990334033966
visibility: 0.9905946254730225
",,,,,,,,,,,,,,,,,,,,,,,,,,,,,,,,,,,,,,,,,,
17,"x: 196.75621032714844
y: 291.9025573730469
z: -0.21024183928966522
visibility: 0.999716579914093
","x: 198.41700744628906
y: 284.73736572265625
z: -0.21131333708763123
visibility: 0.9993896484375
","x: 199.87640380859375
y: 283.8052673339844
z: -0.21133697032928467
visibility: 0.9993529915809631
","x: 201.24908447265625
y: 282.93426513671875
z: -0.21135485172271729
visibility: 0.999193549156189
","x: 194.9778289794922
y: 286.89141845703125
z: -0.19841274619102478
visibility: 0.9993715286254883
","x: 194.02346801757812
y: 287.48297119140625
z: -0.19846901297569275
visibility: 0.9993507266044617
","x: 193.06671142578125
y: 288.0813293457031
z: -0.19851309061050415
visibility: 0.9993592500686646
","x: 204.9393768310547
y: 284.8287048339844
z: -0.15626570582389832
visibility: 0.9989832043647766
","x: 193.2126922607422
y: 290.5088195800781
z: -0.11034025251865387
visibility: 0.9984479546546936
","x: 200.72280883789062
y: 296.6343994140625
z: -0.19250771403312683
visibility: 0.9994714856147766
","x: 196.36256408691406
y: 298.9348449707031
z: -0.17501376569271088
visibility: 0.9991817474365234
","x: 221.76455688476562
y: 314.7234802246094
z: -0.1288863718509674
visibility: 0.9994566440582275
","x: 189.48233032226562
y: 321.7913513183594
z: -0.04546857997775078
visibility: 0.9998173713684082
","x: 222.09002685546875
y: 359.84747314453125
z: -0.16639529168605804
visibility: 0.9385165572166443
","x: 178.9898681640625
y: 350.717529296875
z: -0.09075544774532318
visibility: 0.9766653180122375
","x: 208.77072143554688
y: 387.54095458984375
z: -0.24612018465995789
visibility: 0.8424752354621887
","x: 167.19190979003906
y: 316.24029541015625
z: -0.2700303792953491
visibility: 0.9434720873832703
","x: 206.428955078125
y: 396.1966247558594
z: -0.2694830596446991
visibility: 0.7370926737785339
","x: 162.14468383789062
y: 303.802734375
z: -0.30168575048446655
visibility: 0.8853769898414612
","x: 204.3495635986328
y: 391.8864440917969
z: -0.27944090962409973
visibility: 0.7467889189720154
","x: 163.1680145263672
y: 304.2206115722656
z: -0.31141236424446106
visibility: 0.8832165002822876
","x: 204.6587677001953
y: 387.86248779296875
z: -0.250680148601532
visibility: 0.7222167253494263
","x: 165.2874298095703
y: 306.5355224609375
z: -0.2798718810081482
visibility: 0.8588395714759827
","x: 211.4295654296875
y: 410.0909423828125
z: -0.009880101308226585
visibility: 0.9997977614402771
","x: 190.4215545654297
y: 408.3273010253906
z: 0.009783853776752949
visibility: 0.9999148845672607
","x: 219.70083618164062
y: 461.4474792480469
z: 0.007594852242618799
visibility: 0.9921213388442993
","x: 181.27545166015625
y: 463.6880187988281
z: 0.0041669439524412155
visibility: 0.9963979721069336
","x: 220.73463439941406
y: 520.8409423828125
z: 0.1737229824066162
visibility: 0.9936313033103943
","x: 175.91905212402344
y: 517.3760986328125
z: 0.14331147074699402
visibility: 0.9954347014427185
","x: 216.89923095703125
y: 532.6937255859375
z: 0.18356259167194366
visibility: 0.953241229057312
","x: 179.21755981445312
y: 526.1598510742188
z: 0.15265028178691864
visibility: 0.9109241962432861
","x: 231.54208374023438
y: 541.1713256835938
z: 0.09037042409181595
visibility: 0.9897127151489258
","x: 168.6029052734375
y: 539.548828125
z: 0.06713829934597015
visibility: 0.9906759262084961
",,,,,,,,,,,,,,,,,,,,,,,,,,,,,,,,,,,,,,,,,,
18,"x: 201.0199737548828
y: 289.30645751953125
z: -0.2552611231803894
visibility: 0.999572217464447
","x: 202.14569091796875
y: 281.9658203125
z: -0.25973111391067505
visibility: 0.9990265965461731
","x: 203.5150146484375
y: 280.9906005859375
z: -0.25980478525161743
visibility: 0.9990412592887878
","x: 204.83731079101562
y: 280.2186279296875
z: -0.2598760426044464
visibility: 0.9988276362419128
","x: 198.6833953857422
y: 285.31561279296875
z: -0.2463972121477127
visibility: 0.9990063905715942
","x: 197.69454956054688
y: 286.5109558105469
z: -0.24646851420402527
visibility: 0.9989898800849915
","x: 196.77438354492188
y: 287.65997314453125
z: -0.24651947617530823
visibility: 0.9989593625068665
","x: 208.08413696289062
y: 282.70977783203125
z: -0.21176841855049133
visibility: 0.9986345767974854
","x: 196.8197021484375
y: 290.3253173828125
z: -0.160752072930336
visibility: 0.9977899789810181
","x: 205.0709991455078
y: 294.1971435546875
z: -0.23925617337226868
visibility: 0.9991308450698853
","x: 200.6228485107422
y: 297.0220642089844
z: -0.21945980191230774
visibility: 0.9985072612762451
","x: 225.48927307128906
y: 311.2362060546875
z: -0.1512545496225357
visibility: 0.999439537525177
","x: 191.41004943847656
y: 323.1739501953125
z: -0.08731018006801605
visibility: 0.9997460842132568
","x: 236.9452667236328
y: 351.5868835449219
z: -0.13375940918922424
visibility: 0.9395291805267334
","x: 180.21456909179688
y: 359.2617492675781
z: -0.06708851456642151
visibility: 0.9633002877235413
","x: 222.72998046875
y: 384.28759765625
z: -0.17971813678741455
visibility: 0.8384976983070374
","x: 160.87484741210938
y: 351.7828369140625
z: -0.1649748980998993
visibility: 0.9410274624824524
","x: 218.0145263671875
y: 395.4965515136719
z: -0.19333861768245697
visibility: 0.7292720079421997
","x: 154.48995971679688
y: 348.7921447753906
z: -0.18466606736183167
visibility: 0.8838110566139221
","x: 213.7086639404297
y: 392.6483459472656
z: -0.20872314274311066
visibility: 0.7388944029808044
","x: 154.07752990722656
y: 344.204833984375
z: -0.2099166363477707
visibility: 0.8834792971611023
","x: 215.23895263671875
y: 387.7583312988281
z: -0.18569517135620117
visibility: 0.7136380076408386
","x: 156.43064880371094
y: 344.68359375
z: -0.17904898524284363
visibility: 0.8605445027351379
","x: 212.0159149169922
y: 406.6580505371094
z: -0.0162532739341259
visibility: 0.9997002482414246
","x: 191.17254638671875
y: 403.6063232421875
z: 0.01620129682123661
visibility: 0.9998874664306641
","x: 216.8996124267578
y: 462.83575439453125
z: 0.010784072801470757
visibility: 0.9911401867866516
","x: 182.4762420654297
y: 461.8541259765625
z: -0.021540451794862747
visibility: 0.9960198998451233
","x: 220.8917999267578
y: 521.771484375
z: 0.1363218128681183
visibility: 0.9933702945709229
","x: 178.06781005859375
y: 518.1671752929688
z: 0.08213766664266586
visibility: 0.9954387545585632
","x: 217.17015075683594
y: 533.7290649414062
z: 0.14224126935005188
visibility: 0.9502434134483337
","x: 181.36984252929688
y: 529.8224487304688
z: 0.08782728761434555
visibility: 0.91522216796875
","x: 231.38880920410156
y: 541.609130859375
z: 0.05451539158821106
visibility: 0.9890026450157166
","x: 168.18495178222656
y: 539.5573120117188
z: -0.0005716447485610843
visibility: 0.9907345175743103
",,,,,,,,,,,,,,,,,,,,,,,,,,,,,,,,,,,,,,,,,,
19,"x: 197.87060546875
y: 278.259765625
z: -0.16174693405628204
visibility: 0.9984890222549438
","x: 200.81459045410156
y: 272.2904052734375
z: -0.17384107410907745
visibility: 0.9970609545707703
","x: 202.28631591796875
y: 272.37420654296875
z: -0.1739191710948944
visibility: 0.9972715973854065
","x: 203.38893127441406
y: 272.585205078125
z: -0.17399479448795319
visibility: 0.9969714283943176
","x: 197.1420135498047
y: 272.58062744140625
z: -0.15091463923454285
visibility: 0.9967540502548218
","x: 196.65606689453125
y: 272.8576354980469
z: -0.15089938044548035
visibility: 0.9964258074760437
","x: 196.432373046875
y: 273.1444091796875
z: -0.15094228088855743
visibility: 0.9959169626235962
","x: 206.5338592529297
y: 278.05596923828125
z: -0.2097567617893219
visibility: 0.9971159100532532
","x: 200.8357696533203
y: 278.1452331542969
z: -0.07629953324794769
visibility: 0.9941262602806091
","x: 200.2338409423828
y: 286.4865417480469
z: -0.16189439594745636
visibility: 0.9980350732803345
","x: 200.49929809570312
y: 286.22271728515625
z: -0.13091640174388885
visibility: 0.9963345527648926
","x: 224.8890380859375
y: 309.57269287109375
z: -0.17930686473846436
visibility: 0.9994221329689026
","x: 192.5860137939453
y: 318.8926086425781
z: -0.005821936763823032
visibility: 0.9996730089187622
","x: 230.61805725097656
y: 336.71600341796875
z: -0.2610611319541931
visibility: 0.9394506216049194
","x: 183.4558563232422
y: 354.1958312988281
z: 0.041109852492809296
visibility: 0.8815698027610779
","x: 212.9344024658203
y: 353.95281982421875
z: -0.33314332365989685
visibility: 0.8290483355522156
","x: 177.09434509277344
y: 382.9483337402344
z: -0.0223199762403965
visibility: 0.8630171418190002
","x: 208.26589965820312
y: 359.9241943359375
z: -0.3642100989818573
visibility: 0.7187613248825073
","x: 175.06185913085938
y: 393.50115966796875
z: -0.03354969993233681
visibility: 0.8106574416160583
","x: 206.53126525878906
y: 353.3963317871094
z: -0.36076411604881287
visibility: 0.7251048684120178
","x: 174.8087921142578
y: 391.2984619140625
z: -0.05976172536611557
visibility: 0.8108693957328796
","x: 208.0001220703125
y: 351.6494140625
z: -0.33257046341896057
visibility: 0.6929646134376526
","x: 176.1250762939453
y: 387.18707275390625
z: -0.035894013941287994
visibility: 0.7904914021492004
","x: 211.35952758789062
y: 406.88330078125
z: -0.04323384538292885
visibility: 0.9996636509895325
","x: 190.5624542236328
y: 404.25030517578125
z: 0.043259911239147186
visibility: 0.9998707175254822
","x: 214.3288116455078
y: 463.16668701171875
z: 0.024626735597848892
visibility: 0.9905152320861816
","x: 184.3313446044922
y: 461.792724609375
z: 0.08646897971630096
visibility: 0.9952874183654785
","x: 220.58811950683594
y: 521.69384765625
z: 0.16013889014720917
visibility: 0.9926736354827881
","x: 178.16285705566406
y: 518.1824340820312
z: 0.21635809540748596
visibility: 0.9953088760375977
","x: 217.001953125
y: 533.1560668945312
z: 0.16749754548072815
visibility: 0.946140706539154
","x: 181.0574188232422
y: 530.6262817382812
z: 0.2238394021987915
visibility: 0.9199822545051575
","x: 230.99359130859375
y: 542.150146484375
z: 0.08716895431280136
visibility: 0.9877709746360779
","x: 167.60556030273438
y: 539.447509765625
z: 0.15459181368350983
visibility: 0.9906905293464661
",,,,,,,,,,,,,,,,,,,,,,,,,,,,,,,,,,,,,,,,,,
20,"x: 192.15423583984375
y: 272.329345703125
z: -0.087419793009758
visibility: 0.9984886050224304
","x: 196.52130126953125
y: 267.9110107421875
z: -0.09752411395311356
visibility: 0.997067391872406
","x: 197.4001922607422
y: 268.3336181640625
z: -0.09762240946292877
visibility: 0.997298538684845
","x: 198.29383850097656
y: 268.8194885253906
z: -0.09768446534872055
visibility: 0.9970632791519165
","x: 195.7000732421875
y: 267.6141357421875
z: -0.07283160835504532
visibility: 0.9967024922370911
","x: 196.5869903564453
y: 267.84002685546875
z: -0.07278537005186081
visibility: 0.9963266253471375
","x: 195.26321411132812
y: 268.060791015625
z: -0.07278241217136383
visibility: 0.9957227110862732
","x: 204.33590698242188
y: 275.4851989746094
z: -0.1173836961388588
visibility: 0.9972354173660278
","x: 198.7638702392578
y: 274.25848388671875
z: -0.0015280195511877537
visibility: 0.9933651089668274
","x: 192.5615692138672
y: 280.7049865722656
z: -0.09233378618955612
visibility: 0.9980990290641785
","x: 192.4908447265625
y: 280.1757507324219
z: -0.0596749410033226
visibility: 0.9962886571884155
","x: 213.44886779785156
y: 304.12371826171875
z: -0.16406099498271942
visibility: 0.999477207660675
","x: 190.54287719726562
y: 314.6036682128906
z: 0.07385866343975067
visibility: 0.9996145963668823
","x: 228.34181213378906
y: 329.05047607421875
z: -0.2709117531776428
visibility: 0.945154070854187
","x: 185.72068786621094
y: 352.4156494140625
z: 0.10576599836349487
visibility: 0.7996355891227722
","x: 206.6806182861328
y: 359.84259033203125
z: -0.3429294228553772
visibility: 0.8455482721328735
","x: 178.18528747558594
y: 384.4229431152344
z: 0.02825101837515831
visibility: 0.8046167492866516
","x: 204.434814453125
y: 370.91107177734375
z: -0.3768763840198517
visibility: 0.7454304099082947
","x: 177.36033630371094
y: 396.86993408203125
z: 0.017939692363142967
visibility: 0.7615453600883484
","x: 199.41098022460938
y: 366.21942138671875
z: -0.3734237551689148
visibility: 0.7509805560112
","x: 177.337646484375
y: 393.02923583984375
z: -0.006867174990475178
visibility: 0.7625346779823303
","x: 199.7112579345703
y: 363.0967712402344
z: -0.34114062786102295
visibility: 0.7205643057823181
","x: 178.5297088623047
y: 390.5014343261719
z: 0.0144294248893857
visibility: 0.7422539591789246
","x: 209.37535095214844
y: 406.5933837890625
z: -0.05644028261303902
visibility: 0.9996746778488159
","x: 189.43185424804688
y: 404.62591552734375
z: 0.056451357901096344
visibility: 0.999865710735321
","x: 212.58628845214844
y: 463.21124267578125
z: -0.010671192780137062
visibility: 0.990533709526062
","x: 184.68209838867188
y: 461.904296875
z: 0.06676463037729263
visibility: 0.9942086935043335
","x: 220.4682159423828
y: 521.8591918945312
z: 0.1024218425154686
visibility: 0.9923062324523926
","x: 178.21218872070312
y: 519.2900390625
z: 0.16706514358520508
visibility: 0.9950300455093384
","x: 217.1796112060547
y: 533.1253662109375
z: 0.10855691134929657
visibility: 0.9460579752922058
","x: 181.12744140625
y: 532.2156982421875
z: 0.17012375593185425
visibility: 0.9244286417961121
","x: 230.38970947265625
y: 542.4525756835938
z: 0.03185184672474861
visibility: 0.9874289631843567
","x: 166.9431915283203
y: 539.45458984375
z: 0.11700312048196793
visibility: 0.9906551837921143
",,,,,,,,,,,,,,,,,,,,,,,,,,,,,,,,,,,,,,,,,,
21,"x: 191.2328643798828
y: 274.99127197265625
z: -0.15268589556217194
visibility: 0.9981034994125366
","x: 195.5251922607422
y: 269.5011291503906
z: -0.16134585440158844
visibility: 0.9962910413742065
","x: 196.56459045410156
y: 269.6985778808594
z: -0.1613992154598236
visibility: 0.9964402914047241
","x: 197.69772338867188
y: 269.95928955078125
z: -0.16143038868904114
visibility: 0.996090829372406
","x: 194.83871459960938
y: 269.5305480957031
z: -0.14083728194236755
visibility: 0.9959332346916199
","x: 196.19764709472656
y: 269.7635498046875
z: -0.14085914194583893
visibility: 0.9953141212463379
","x: 194.774169921875
y: 269.98883056640625
z: -0.1409100592136383
visibility: 0.9946960806846619
","x: 203.94802856445312
y: 275.6702880859375
z: -0.14682245254516602
visibility: 0.9959924817085266
","x: 197.7230987548828
y: 275.47161865234375
z: -0.06579794734716415
visibility: 0.9914344549179077
","x: 192.41848754882812
y: 282.5010986328125
z: -0.14930564165115356
visibility: 0.9973582625389099
","x: 191.13638305664062
y: 282.4965515136719
z: -0.12207947671413422
visibility: 0.995265007019043
","x: 214.6571502685547
y: 306.29888916015625
z: -0.17761625349521637
visibility: 0.9993487000465393
","x: 189.6200408935547
y: 314.32244873046875
z: 0.004089333117008209
visibility: 0.9995905756950378
","x: 208.38876342773438
y: 337.5542907714844
z: -0.25014251470565796
visibility: 0.9467583298683167
","x: 183.26463317871094
y: 351.05914306640625
z: 0.03752969205379486
visibility: 0.7473365068435669
","x: 183.74012756347656
y: 334.63525390625
z: -0.29938289523124695
visibility: 0.8489673137664795
","x: 172.462158203125
y: 371.2711181640625
z: -0.04226172715425491
visibility: 0.7641536593437195
","x: 176.85487365722656
y: 337.04364013671875
z: -0.32874175906181335
visibility: 0.7513196468353271
","x: 169.59547424316406
y: 378.6419982910156
z: -0.05722235515713692
visibility: 0.7223992347717285
","x: 177.06028747558594
y: 329.93548583984375
z: -0.3230418264865875
visibility: 0.7551769614219666
","x: 169.96224975585938
y: 374.7284240722656
z: -0.0806170254945755
visibility: 0.7246106266975403
","x: 179.48870849609375
y: 329.5883483886719
z: -0.2969486117362976
visibility: 0.7180536985397339
","x: 171.7417449951172
y: 372.246826171875
z: -0.05529261380434036
visibility: 0.7058020234107971
","x: 209.26341247558594
y: 406.61688232421875
z: -0.04520975798368454
visibility: 0.9995938539505005
","x: 189.0907440185547
y: 404.8926086425781
z: 0.045162100344896317
visibility: 0.9998584389686584
","x: 211.21533203125
y: 463.43994140625
z: 0.01248965598642826
visibility: 0.9897143840789795
","x: 185.85574340820312
y: 461.9821472167969
z: 0.05231742188334465
visibility: 0.9927734732627869
","x: 220.61566162109375
y: 521.8433227539062
z: 0.15684030950069427
visibility: 0.9912282824516296
","x: 178.4221954345703
y: 519.2774047851562
z: 0.1658479869365692
visibility: 0.9947249889373779
","x: 218.20053100585938
y: 532.90673828125
z: 0.16701242327690125
visibility: 0.9397285580635071
","x: 181.285400390625
y: 532.2229614257812
z: 0.17251259088516235
visibility: 0.9266634583473206
","x: 230.2501220703125
y: 542.5023193359375
z: 0.09334936738014221
visibility: 0.9860671758651733
","x: 166.82907104492188
y: 539.433349609375
z: 0.10014218091964722
visibility: 0.9903826713562012
",,,,,,,,,,,,,,,,,,,,,,,,,,,,,,,,,,,,,,,,,,
22,"x: 192.08953857421875
y: 276.27850341796875
z: -0.14139653742313385
visibility: 0.9981544017791748
","x: 197.36666870117188
y: 269.95135498046875
z: -0.147701233625412
visibility: 0.9965047836303711
","x: 198.35728454589844
y: 270.3191223144531
z: -0.1477629393339157
visibility: 0.9966546297073364
","x: 199.40841674804688
y: 271.477783203125
z: -0.14781776070594788
visibility: 0.9963641166687012
","x: 196.29310607910156
y: 270.86773681640625
z: -0.12673917412757874
visibility: 0.9960992932319641
","x: 196.7272186279297
y: 271.1422424316406
z: -0.12673859298229218
visibility: 0.9955021142959595
","x: 196.26686096191406
y: 271.3989562988281
z: -0.12675130367279053
visibility: 0.9949538111686707
","x: 204.31613159179688
y: 281.74029541015625
z: -0.1455259621143341
visibility: 0.9962863326072693
","x: 199.5360565185547
y: 278.60467529296875
z: -0.049022428691387177
visibility: 0.9917837381362915
","x: 193.2476348876953
y: 283.2543029785156
z: -0.13943442702293396
visibility: 0.9975395202636719
","x: 191.39132690429688
y: 283.9209289550781
z: -0.11149008572101593
visibility: 0.9955152273178101
","x: 214.9164581298828
y: 317.3990478515625
z: -0.17491260170936584
visibility: 0.99940425157547
","x: 188.94764709472656
y: 322.01055908203125
z: 0.03719579800963402
visibility: 0.9994809627532959
","x: 212.20054626464844
y: 340.29229736328125
z: -0.26464560627937317
visibility: 0.9513311386108398
","x: 181.4735107421875
y: 354.5252685546875
z: 0.10148511826992035
visibility: 0.685831606388092
","x: 191.99000549316406
y: 347.3984069824219
z: -0.341964453458786
visibility: 0.8613916039466858
","x: 161.06234741210938
y: 357.9609375
z: 0.05641449615359306
visibility: 0.7138293385505676
","x: 184.57119750976562
y: 347.5603942871094
z: -0.37583810091018677
visibility: 0.7711690664291382
","x: 154.609130859375
y: 355.63653564453125
z: 0.04577920585870743
visibility: 0.6759696006774902
","x: 183.81402587890625
y: 341.6177062988281
z: -0.3690308928489685
visibility: 0.7742044925689697
","x: 154.69337463378906
y: 351.6532897949219
z: 0.025367343798279762
visibility: 0.6797515153884888
","x: 186.0218505859375
y: 341.11761474609375
z: -0.3397633135318756
visibility: 0.7360183596611023
","x: 157.10775756835938
y: 353.8738708496094
z: 0.044262588024139404
visibility: 0.6633589267730713
","x: 209.01919555664062
y: 408.37322998046875
z: -0.05861405283212662
visibility: 0.9995971322059631
","x: 188.7595672607422
y: 408.9549255371094
z: 0.05864407867193222
visibility: 0.9998513460159302
","x: 211.66978454589844
y: 465.5911865234375
z: 0.02399536408483982
visibility: 0.9905115365982056
","x: 181.23439025878906
y: 462.00732421875
z: 0.06691356003284454
visibility: 0.9925666451454163
","x: 223.99082946777344
y: 521.8305053710938
z: 0.20465266704559326
visibility: 0.9918769001960754
","x: 178.37039184570312
y: 519.389404296875
z: 0.2111186683177948
visibility: 0.9949158430099487
","x: 226.89756774902344
y: 531.7540283203125
z: 0.2189212143421173
visibility: 0.9374486207962036
","x: 182.2729949951172
y: 533.1470336914062
z: 0.22092099487781525
visibility: 0.9313979148864746
","x: 226.2666778564453
y: 542.5313720703125
z: 0.1332203596830368
visibility: 0.9870293736457825
","x: 166.84033203125
y: 539.37548828125
z: 0.1482609659433365
visibility: 0.9909020662307739
",,,,,,,,,,,,,,,,,,,,,,,,,,,,,,,,,,,,,,,,,,
23,"x: 192.72488403320312
y: 286.22003173828125
z: -0.13976392149925232
visibility: 0.9982581734657288
","x: 197.89210510253906
y: 281.8106689453125
z: -0.149913027882576
visibility: 0.9966939091682434
","x: 198.768798828125
y: 282.45306396484375
z: -0.14994074404239655
visibility: 0.9968482851982117
","x: 199.7533416748047
y: 283.3025207519531
z: -0.14994992315769196
visibility: 0.9965775609016418
","x: 197.1387939453125
y: 280.9905700683594
z: -0.1267746537923813
visibility: 0.9962865114212036
","x: 197.47836303710938
y: 280.9178771972656
z: -0.12680751085281372
visibility: 0.9957462549209595
","x: 197.57350158691406
y: 280.7967224121094
z: -0.1268586665391922
visibility: 0.9952632188796997
","x: 205.1154327392578
y: 291.4530334472656
z: -0.15018698573112488
visibility: 0.9964646100997925
","x: 201.6858367919922
y: 287.4503173828125
z: -0.0567503459751606
visibility: 0.9923772215843201
","x: 193.41908264160156
y: 294.4896240234375
z: -0.14259520173072815
visibility: 0.9976892471313477
","x: 192.7080535888672
y: 292.71929931640625
z: -0.11245765537023544
visibility: 0.9958399534225464
","x: 215.41424560546875
y: 334.54315185546875
z: -0.19336816668510437
visibility: 0.9994455575942993
","x: 191.02130126953125
y: 325.4832763671875
z: 0.022816553711891174
visibility: 0.9995187520980835
","x: 214.33255004882812
y: 368.58892822265625
z: -0.30453985929489136
visibility: 0.9552854299545288
","x: 181.13653564453125
y: 353.6963195800781
z: 0.11874020099639893
visibility: 0.6620134115219116
","x: 190.09133911132812
y: 355.1547546386719
z: -0.39548707008361816
visibility: 0.8737967014312744
","x: 157.0478057861328
y: 347.6817626953125
z: 0.13210022449493408
visibility: 0.7049975991249084
","x: 183.3060302734375
y: 352.7875061035156
z: -0.42940130829811096
visibility: 0.791278064250946
","x: 151.9254913330078
y: 341.08984375
z: 0.12869085371494293
visibility: 0.6644236445426941
","x: 183.87049865722656
y: 347.3245544433594
z: -0.420278400182724
visibility: 0.793786883354187
","x: 152.2659912109375
y: 338.36199951171875
z: 0.10750929266214371
visibility: 0.672208845615387
","x: 185.53688049316406
y: 347.4978332519531
z: -0.39312082529067993
visibility: 0.7564225792884827
","x: 153.27621459960938
y: 343.0894775390625
z: 0.12085667997598648
visibility: 0.6582140326499939
","x: 208.6419677734375
y: 419.3835754394531
z: -0.05629175156354904
visibility: 0.9996023178100586
","x: 188.59002685546875
y: 415.93341064453125
z: 0.056296031922101974
visibility: 0.9998646378517151
","x: 212.03196716308594
y: 474.5324401855469
z: 0.06684081256389618
visibility: 0.9911823272705078
","x: 176.8894805908203
y: 460.8802795410156
z: -0.0844021886587143
visibility: 0.9931498169898987
","x: 225.4362030029297
y: 522.5343017578125
z: 0.3017454743385315
visibility: 0.9924325942993164
","x: 178.20303344726562
y: 519.5349731445312
z: 0.027348320931196213
visibility: 0.9952779412269592
","x: 228.50741577148438
y: 530.7971801757812
z: 0.3224683701992035
visibility: 0.9346669316291809
","x: 182.4764862060547
y: 533.1358642578125
z: 0.03368844836950302
visibility: 0.9368408918380737
","x: 225.4265594482422
y: 542.4825439453125
z: 0.24657320976257324
visibility: 0.9876500964164734
","x: 166.60443115234375
y: 539.5526733398438
z: -0.05000896006822586
visibility: 0.9915863275527954
",,,,,,,,,,,,,,,,,,,,,,,,,,,,,,,,,,,,,,,,,,
24,"x: 192.76808166503906
y: 294.33782958984375
z: -0.15838634967803955
visibility: 0.9983398914337158
","x: 197.80462646484375
y: 290.1047058105469
z: -0.17773903906345367
visibility: 0.9968564510345459
","x: 198.69046020507812
y: 290.7305603027344
z: -0.17769421637058258
visibility: 0.997014045715332
","x: 199.6861572265625
y: 291.4747314453125
z: -0.17768950760364532
visibility: 0.9967591762542725
","x: 196.9567413330078
y: 288.7080993652344
z: -0.14269717037677765
visibility: 0.9964871406555176
","x: 197.2096710205078
y: 288.3487243652344
z: -0.14261212944984436
visibility: 0.9959962964057922
","x: 197.40176391601562
y: 287.9576416015625
z: -0.14260974526405334
visibility: 0.99559086561203
","x: 205.07952880859375
y: 298.306396484375
z: -0.20375292003154755
visibility: 0.9966608285903931
","x: 201.88577270507812
y: 293.9925537109375
z: -0.06857515871524811
visibility: 0.9929015636444092
","x: 193.82159423828125
y: 302.9727783203125
z: -0.16976794600486755
visibility: 0.9977392554283142
","x: 192.95033264160156
y: 300.2962341308594
z: -0.12754350900650024
visibility: 0.9960925579071045
","x: 212.35267639160156
y: 336.058349609375
z: -0.22899165749549866
visibility: 0.9994257092475891
","x: 195.15994262695312
y: 326.0650634765625
z: 0.0038826013915240765
visibility: 0.9995500445365906
","x: 197.1747589111328
y: 372.86322021484375
z: -0.2713889479637146
visibility: 0.955791711807251
","x: 183.60498046875
y: 352.3340148925781
z: 0.027613868936896324
visibility: 0.6062722206115723
","x: 184.5769500732422
y: 354.93243408203125
z: -0.26094692945480347
visibility: 0.8747438788414001
","x: 172.57177734375
y: 349.0066833496094
z: 0.06318964064121246
visibility: 0.64815753698349
","x: 180.76296997070312
y: 350.7994079589844
z: -0.2807406187057495
visibility: 0.7940426468849182
","x: 168.95851135253906
y: 342.7435302734375
z: 0.06481822580099106
visibility: 0.6123878955841064
","x: 183.210205078125
y: 346.45684814453125
z: -0.27586454153060913
visibility: 0.7953444719314575
","x: 171.50613403320312
y: 341.85626220703125
z: 0.006247785408049822
visibility: 0.6202075481414795
","x: 183.92807006835938
y: 347.9486083984375
z: -0.2563643455505371
visibility: 0.74947589635849
","x: 172.62754821777344
y: 345.3229064941406
z: 0.0749991312623024
visibility: 0.6075490117073059
","x: 208.6168975830078
y: 419.3460388183594
z: -0.06272072345018387
visibility: 0.9995653629302979
","x: 189.39990234375
y: 414.4699401855469
z: 0.0627080425620079
visibility: 0.9998765587806702
","x: 210.91090393066406
y: 475.4259948730469
z: 0.05149485915899277
visibility: 0.9917490482330322
","x: 174.0208740234375
y: 459.986328125
z: -0.08309527486562729
visibility: 0.9936532378196716
","x: 225.08392333984375
y: 522.5429077148438
z: 0.2599366009235382
visibility: 0.9928442239761353
","x: 178.09556579589844
y: 520.215087890625
z: 0.004950555972754955
visibility: 0.9955828189849854
","x: 228.6873321533203
y: 530.751953125
z: 0.27730005979537964
visibility: 0.9266243577003479
","x: 182.48306274414062
y: 533.4998168945312
z: 0.00885714776813984
visibility: 0.941526472568512
","x: 222.42892456054688
y: 541.6875
z: 0.19762155413627625
visibility: 0.9882258772850037
","x: 166.4362030029297
y: 539.5875244140625
z: -0.07433809340000153
visibility: 0.9922022819519043
",,,,,,,,,,,,,,,,,,,,,,,,,,,,,,,,,,,,,,,,,,
25,"x: 193.89096069335938
y: 298.64434814453125
z: -0.14958049356937408
visibility: 0.9984609484672546
","x: 198.4711456298828
y: 294.28729248046875
z: -0.1576560139656067
visibility: 0.997037410736084
","x: 199.44818115234375
y: 294.86712646484375
z: -0.1576634794473648
visibility: 0.9971923828125
","x: 200.60614013671875
y: 295.51177978515625
z: -0.15768302977085114
visibility: 0.9969643354415894
","x: 197.3243865966797
y: 292.7352294921875
z: -0.1353532075881958
visibility: 0.9967034459114075
","x: 197.38926696777344
y: 292.2457275390625
z: -0.1353810578584671
visibility: 0.9962590932846069
","x: 197.4407501220703
y: 291.6851501464844
z: -0.13543036580085754
visibility: 0.9959170818328857
","x: 206.36863708496094
y: 301.59918212890625
z: -0.15575239062309265
visibility: 0.9968574643135071
","x: 201.55247497558594
y: 296.78118896484375
z: -0.055587124079465866
visibility: 0.9934189319610596
","x: 195.11944580078125
y: 307.09716796875
z: -0.14641621708869934
visibility: 0.9978880286216736
","x: 193.7142333984375
y: 304.6554260253906
z: -0.1179429441690445
visibility: 0.9963934421539307
","x: 214.2216796875
y: 336.7100524902344
z: -0.18508046865463257
visibility: 0.9994523525238037
","x: 193.34156799316406
y: 328.4208679199219
z: 0.020219719037413597
visibility: 0.9995800852775574
","x: 206.0943145751953
y: 379.61419677734375
z: -0.24416156113147736
visibility: 0.9581440091133118
","x: 184.557861328125
y: 357.3589782714844
z: 0.008744562044739723
visibility: 0.5658829212188721
","x: 188.8609619140625
y: 358.1615905761719
z: -0.2820727825164795
visibility: 0.8823612928390503
","x: 178.51461791992188
y: 358.0390930175781
z: -0.14954432845115662
visibility: 0.6121255159378052
","x: 184.6035919189453
y: 355.407958984375
z: -0.30696213245391846
visibility: 0.8060654997825623
","x: 176.0823211669922
y: 356.8314208984375
z: -0.1764385849237442
visibility: 0.578083336353302
","x: 185.44419860839844
y: 351.4749450683594
z: -0.2986394166946411
visibility: 0.8063603639602661
","x: 177.97360229492188
y: 354.2923278808594
z: -0.18462447822093964
visibility: 0.5851666331291199
","x: 187.32562255859375
y: 352.02496337890625
z: -0.27810996770858765
visibility: 0.7560697197914124
","x: 179.18653869628906
y: 355.2919006347656
z: -0.15692757070064545
visibility: 0.571322500705719
","x: 208.35044860839844
y: 419.7986145019531
z: -0.05146406963467598
visibility: 0.9995421767234802
","x: 189.20045471191406
y: 414.41522216796875
z: 0.05143895745277405
visibility: 0.9998854398727417
","x: 210.3772735595703
y: 479.14080810546875
z: -0.023135680705308914
visibility: 0.992448627948761
","x: 170.37831115722656
y: 460.16845703125
z: -0.16243739426136017
visibility: 0.9942201972007751
","x: 225.3606719970703
y: 522.5298461914062
z: 0.18233031034469604
visibility: 0.9933597445487976
","x: 178.0249481201172
y: 520.712158203125
z: -0.040543388575315475
visibility: 0.9959507584571838
","x: 228.73521423339844
y: 529.710693359375
z: 0.19871856272220612
visibility: 0.9210482239723206
","x: 182.55535888671875
y: 533.323486328125
z: -0.033542975783348083
visibility: 0.9463531970977783
","x: 223.1121826171875
y: 541.020751953125
z: 0.10583774745464325
visibility: 0.9889315962791443
","x: 166.36463928222656
y: 539.877685546875
z: -0.12470120191574097
visibility: 0.9928619861602783
",,,,,,,,,,,,,,,,,,,,,,,,,,,,,,,,,,,,,,,,,,
26,"x: 194.39247131347656
y: 302.96331787109375
z: -0.1463589370250702
visibility: 0.9985697269439697
","x: 198.45162963867188
y: 297.9598693847656
z: -0.15370182693004608
visibility: 0.9972116351127625
","x: 199.5010528564453
y: 298.4032287597656
z: -0.15374432504177094
visibility: 0.9973564147949219
","x: 200.74363708496094
y: 298.91656494140625
z: -0.15377764403820038
visibility: 0.997161328792572
","x: 197.06698608398438
y: 296.5721435546875
z: -0.13268819451332092
visibility: 0.9968892931938171
","x: 197.0276641845703
y: 296.06097412109375
z: -0.13271483778953552
visibility: 0.9964580535888672
","x: 196.99444580078125
y: 295.5211486816406
z: -0.13276109099388123
visibility: 0.9961805939674377
","x: 206.49681091308594
y: 303.2322998046875
z: -0.14328530430793762
visibility: 0.9970796704292297
","x: 200.87237548828125
y: 298.6806945800781
z: -0.04666538164019585
visibility: 0.9938703775405884
","x: 196.10902404785156
y: 310.7640380859375
z: -0.13938704133033752
visibility: 0.998055636882782
","x: 194.4183807373047
y: 309.0323181152344
z: -0.11194230616092682
visibility: 0.9966999888420105
","x: 215.4957733154297
y: 335.6893615722656
z: -0.16549091041088104
visibility: 0.9994977116584778
","x: 193.26046752929688
y: 327.8674011230469
z: 0.033723343163728714
visibility: 0.9996142983436584
","x: 209.2028045654297
y: 374.2471923828125
z: -0.2697915732860565
visibility: 0.9611495137214661
","x: 183.15638732910156
y: 355.7140808105469
z: 0.004144995007663965
visibility: 0.5435912013053894
","x: 190.04164123535156
y: 366.62921142578125
z: -0.36129266023635864
visibility: 0.8918982744216919
","x: 175.64199829101562
y: 356.580078125
z: -0.16044291853904724
visibility: 0.605626106262207
","x: 185.114501953125
y: 364.3344421386719
z: -0.3955262303352356
visibility: 0.8216406106948853
","x: 174.1307373046875
y: 356.1631774902344
z: -0.1911669671535492
visibility: 0.5736107230186462
","x: 184.46617126464844
y: 356.8571472167969
z: -0.392375648021698
visibility: 0.8217059373855591
","x: 174.406982421875
y: 353.4645080566406
z: -0.20257332921028137
visibility: 0.5816076397895813
","x: 185.83616638183594
y: 355.6933898925781
z: -0.36065924167633057
visibility: 0.7711904048919678
","x: 175.54347229003906
y: 354.9467468261719
z: -0.17168669402599335
visibility: 0.565750777721405
","x: 206.87225341796875
y: 421.0348815917969
z: -0.04900393635034561
visibility: 0.9995565414428711
","x: 188.60220336914062
y: 414.6504211425781
z: 0.04900854825973511
visibility: 0.9998955726623535
","x: 210.41294860839844
y: 479.3034362792969
z: -0.007396046072244644
visibility: 0.9930678606033325
","x: 168.0048828125
y: 460.2237243652344
z: -0.1668899655342102
visibility: 0.9947582483291626
","x: 225.50628662109375
y: 522.8521728515625
z: 0.19535315036773682
visibility: 0.993806004524231
","x: 177.90243530273438
y: 521.4844970703125
z: -0.05947370082139969
visibility: 0.9962837100028992
","x: 228.58822631835938
y: 529.6473388671875
z: 0.21302413940429688
visibility: 0.9150438904762268
","x: 182.7189178466797
y: 533.5657958984375
z: -0.05369807034730911
visibility: 0.9506920576095581
","x: 222.6599578857422
y: 540.866943359375
z: 0.10854406654834747
visibility: 0.9895107746124268
","x: 166.0912628173828
y: 540.1159057617188
z: -0.14872238039970398
visibility: 0.9934424161911011
",,,,,,,,,,,,,,,,,,,,,,,,,,,,,,,,,,,,,,,,,,
27,"x: 194.33619689941406
y: 302.544677734375
z: -0.1568196713924408
visibility: 0.998711109161377
","x: 198.11328125
y: 297.16644287109375
z: -0.1610182225704193
visibility: 0.9974856972694397
","x: 199.310791015625
y: 297.4126892089844
z: -0.16105690598487854
visibility: 0.997617244720459
","x: 200.64666748046875
y: 297.66265869140625
z: -0.16108465194702148
visibility: 0.9974415898323059
","x: 195.9132843017578
y: 296.1829528808594
z: -0.14295591413974762
visibility: 0.9971920251846313
","x: 195.4180145263672
y: 295.78570556640625
z: -0.142976313829422
visibility: 0.9968026280403137
","x: 194.91378784179688
y: 295.34527587890625
z: -0.14300337433815002
visibility: 0.9965526461601257
","x: 206.45428466796875
y: 301.52764892578125
z: -0.13764126598834991
visibility: 0.9973688125610352
","x: 198.5317840576172
y: 298.05718994140625
z: -0.0579940490424633
visibility: 0.9944718480110168
","x: 196.13064575195312
y: 309.6606140136719
z: -0.14669868350028992
visibility: 0.9982483983039856
","x: 194.2207489013672
y: 308.55474853515625
z: -0.12327726185321808
visibility: 0.9970265626907349
","x: 216.91717529296875
y: 338.83251953125
z: -0.13845644891262054
visibility: 0.9995471239089966
","x: 189.0267791748047
y: 331.2019348144531
z: 0.026788944378495216
visibility: 0.999648928642273
","x: 214.93435668945312
y: 382.794677734375
z: -0.21376976370811462
visibility: 0.9645838141441345
","x: 176.6594696044922
y: 354.79132080078125
z: 0.06885910034179688
visibility: 0.5435383319854736
","x: 199.88522338867188
y: 405.7098388671875
z: -0.31300655007362366
visibility: 0.9018203020095825
","x: 161.34085083007812
y: 355.9985046386719
z: -0.014610235579311848
visibility: 0.6256787776947021
","x: 195.6337432861328
y: 415.77691650390625
z: -0.3421333432197571
visibility: 0.8372300863265991
","x: 156.30445861816406
y: 352.60107421875
z: -0.031827814877033234
visibility: 0.5921425223350525
","x: 192.30995178222656
y: 407.3167419433594
z: -0.3392661511898041
visibility: 0.8371873497962952
","x: 156.87477111816406
y: 348.593994140625
z: -0.047272808849811554
visibility: 0.6007792949676514
","x: 193.31253051757812
y: 402.9171447753906
z: -0.3116122782230377
visibility: 0.7893771529197693
","x: 159.22671508789062
y: 352.48577880859375
z: -0.02495564892888069
visibility: 0.5826018452644348
","x: 205.1634979248047
y: 422.8933410644531
z: -0.040557604283094406
visibility: 0.9995877742767334
","x: 185.15933227539062
y: 417.433349609375
z: 0.04058557748794556
visibility: 0.9999053478240967
","x: 211.55270385742188
y: 478.80389404296875
z: 0.0008051934419199824
visibility: 0.9936001300811768
","x: 167.36782836914062
y: 462.5675048828125
z: -0.20225317776203156
visibility: 0.9952585697174072
","x: 225.22659301757812
y: 522.75439453125
z: 0.22049859166145325
visibility: 0.994210958480835
","x: 177.58607482910156
y: 521.6146240234375
z: -0.07042548805475235
visibility: 0.996607780456543
","x: 227.46290588378906
y: 528.7772216796875
z: 0.23768484592437744
visibility: 0.9140992760658264
","x: 182.35890197753906
y: 533.3765258789062
z: -0.06268950551748276
visibility: 0.9548009037971497
","x: 223.3502655029297
y: 540.9237060546875
z: 0.1389264017343521
visibility: 0.9900105595588684
","x: 165.927490234375
y: 540.395263671875
z: -0.16232338547706604
visibility: 0.9940000772476196
",,,,,,,,,,,,,,,,,,,,,,,,,,,,,,,,,,,,,,,,,,
28,"x: 194.84141540527344
y: 302.3360595703125
z: -0.2988339960575104
visibility: 0.998839795589447
","x: 197.82546997070312
y: 295.9388122558594
z: -0.28656935691833496
visibility: 0.9977359771728516
","x: 199.1158447265625
y: 295.62823486328125
z: -0.2866066098213196
visibility: 0.9978545904159546
","x: 200.42367553710938
y: 295.4110107421875
z: -0.28661924600601196
visibility: 0.9976963996887207
","x: 194.4745330810547
y: 296.72344970703125
z: -0.2838151752948761
visibility: 0.9974712133407593
","x: 193.28402709960938
y: 296.8345031738281
z: -0.28386667370796204
visibility: 0.9971206188201904
","x: 192.11073303222656
y: 296.9736328125
z: -0.28387650847435
visibility: 0.9968953132629395
","x: 203.9864959716797
y: 298.77496337890625
z: -0.19994202256202698
visibility: 0.9976307153701782
","x: 191.416748046875
y: 298.99444580078125
z: -0.18463853001594543
visibility: 0.9950215220451355
","x: 197.5867462158203
y: 308.0304260253906
z: -0.26556915044784546
visibility: 0.9984230995178223
","x: 194.3467254638672
y: 308.82061767578125
z: -0.261077344417572
visibility: 0.9973230957984924
","x: 216.11587524414062
y: 337.47796630859375
z: -0.14136117696762085
visibility: 0.9995921850204468
","x: 182.81466674804688
y: 334.3908386230469
z: -0.10564758628606796
visibility: 0.9996805191040039
","x: 221.214599609375
y: 376.66314697265625
z: -0.13864734768867493
visibility: 0.9677351713180542
","x: 165.9434051513672
y: 372.91156005859375
z: -0.08075647801160812
visibility: 0.5882171988487244
","x: 227.5526123046875
y: 408.8641052246094
z: -0.22568635642528534
visibility: 0.9110897183418274
","x: 144.82957458496094
y: 390.8968505859375
z: -0.15197452902793884
visibility: 0.6623489260673523
","x: 229.80184936523438
y: 419.9062805175781
z: -0.24631471931934357
visibility: 0.851908266544342
","x: 136.96389770507812
y: 394.73583984375
z: -0.17411693930625916
visibility: 0.6307956576347351
","x: 228.4017791748047
y: 419.93609619140625
z: -0.2710321545600891
visibility: 0.8520455360412598
","x: 136.70497131347656
y: 391.837158203125
z: -0.20438320934772491
visibility: 0.6388241052627563
","x: 227.2662353515625
y: 416.079833984375
z: -0.23727235198020935
visibility: 0.8086345195770264
","x: 139.25624084472656
y: 391.16461181640625
z: -0.1678081601858139
visibility: 0.6222939491271973
","x: 205.04879760742188
y: 422.59954833984375
z: -0.012981126084923744
visibility: 0.9996173977851868
","x: 184.0210418701172
y: 416.54925537109375
z: 0.012934127822518349
visibility: 0.999904215335846
","x: 216.33416748046875
y: 473.63482666015625
z: -0.08562865108251572
visibility: 0.9940062761306763
","x: 168.78347778320312
y: 466.73199462890625
z: -0.1302861124277115
visibility: 0.9955896139144897
","x: 225.7261962890625
y: 522.5703735351562
z: 0.0942792072892189
visibility: 0.9944972395896912
","x: 176.57693481445312
y: 521.6019287109375
z: 0.011547372676432133
visibility: 0.9967585206031799
","x: 226.93748474121094
y: 528.854736328125
z: 0.1064179390668869
visibility: 0.9154878258705139
","x: 180.9575653076172
y: 532.163818359375
z: 0.03657867759466171
visibility: 0.9556872844696045
","x: 226.0362548828125
y: 541.5167846679688
z: 0.0018937846180051565
visibility: 0.9903289079666138
","x: 166.60458374023438
y: 540.4083251953125
z: -0.10646732896566391
visibility: 0.9941939115524292
",,,,,,,,,,,,,,,,,,,,,,,,,,,,,,,,,,,,,,,,,,
29,"x: 195.14273071289062
y: 289.1788330078125
z: -0.25752589106559753
visibility: 0.9989522099494934
","x: 195.11480712890625
y: 286.43780517578125
z: -0.2484351396560669
visibility: 0.9979482889175415
","x: 195.68359375
y: 286.2000732421875
z: -0.24843335151672363
visibility: 0.998058557510376
","x: 196.22714233398438
y: 286.0157470703125
z: -0.2484467327594757
visibility: 0.9979156255722046
","x: 192.8077392578125
y: 288.892333984375
z: -0.25707682967185974
visibility: 0.9977113008499146
","x: 191.6851043701172
y: 290.5411376953125
z: -0.25713127851486206
visibility: 0.9973979592323303
","x: 190.48382568359375
y: 292.66607666015625
z: -0.2571614384651184
visibility: 0.9971911311149597
","x: 196.94827270507812
y: 290.6363525390625
z: -0.18317535519599915
visibility: 0.9978559017181396
","x: 189.05099487304688
y: 297.7771301269531
z: -0.22073154151439667
visibility: 0.995495080947876
","x: 198.28968811035156
y: 295.39105224609375
z: -0.23056504130363464
visibility: 0.9985770583152771
","x: 195.2044677734375
y: 297.509033203125
z: -0.24159815907478333
visibility: 0.9975845813751221
","x: 213.34799194335938
y: 333.9955139160156
z: -0.11125503480434418
visibility: 0.9996318817138672
","x: 183.47125244140625
y: 332.5505065917969
z: -0.1899336725473404
visibility: 0.9997073411941528
","x: 222.50624084472656
y: 374.0092468261719
z: -0.06828924268484116
visibility: 0.9683291912078857
","x: 167.87062072753906
y: 373.51849365234375
z: -0.1784510463476181
visibility: 0.6279867887496948
","x: 234.2253875732422
y: 405.9433288574219
z: -0.12095911800861359
visibility: 0.9175757765769958
","x: 150.56117248535156
y: 405.9669494628906
z: -0.22649934887886047
visibility: 0.6941772699356079
","x: 236.91146850585938
y: 417.86578369140625
z: -0.13315144181251526
visibility: 0.8602047562599182
","x: 143.83267211914062
y: 414.87384033203125
z: -0.2520303726196289
visibility: 0.6632595658302307
","x: 236.068603515625
y: 418.97967529296875
z: -0.1638510674238205
visibility: 0.8615098595619202
","x: 144.09164428710938
y: 415.0606994628906
z: -0.27749887108802795
visibility: 0.6708922982215881
","x: 234.93832397460938
y: 414.89141845703125
z: -0.13540107011795044
visibility: 0.8219466209411621
","x: 146.81956481933594
y: 412.7236633300781
