uscmakers/ReverseChoreography/data/6_get_up_ciara.csv
,NOSE,LEFT_EYE_INNER,LEFT_EYE,LEFT_EYE_OUTER,RIGHT_EYE_INNER,RIGHT_EYE,RIGHT_EYE_OUTER,LEFT_EAR,RIGHT_EAR,MOUTH_LEFT,MOUTH_RIGHT,LEFT_SHOULDER,RIGHT_SHOULDER,LEFT_ELBOW,RIGHT_ELBOW,LEFT_WRIST,RIGHT_WRIST,LEFT_PINKY,RIGHT_PINKY,LEFT_INDEX,RIGHT_INDEX,LEFT_THUMB,RIGHT_THUMB,LEFT_HIP,RIGHT_HIP,LEFT_KNEE,RIGHT_KNEE,LEFT_ANKLE,RIGHT_ANKLE,LEFT_HEEL,RIGHT_HEEL,LEFT_FOOT_INDEX,RIGHT_FOOT_INDEX,WRIST,THUMB_CPC,THUMB_MCP,THUMB_IP,THUMB_TIP,INDEX_FINGER_MCP,INDEX_FINGER_PIP,INDEX_FINGER_DIP,INDEX_FINGER_TIP,MIDDLE_FINGER_MCP,MIDDLE_FINGER_PIP,MIDDLE_FINGER_DIP,MIDDLE_FINGER_TIP,RING_FINGER_PIP,RING_FINGER_DIP,RING_FINGER_TIP,RING_FINGER_MCP,PINKY_MCP,PINKY_PIP,PINKY_DIP,PINKY_TIP,WRIST2,THUMB_CPC2,THUMB_MCP2,THUMB_IP2,THUMB_TIP2,INDEX_FINGER_MCP2,INDEX_FINGER_PIP2,INDEX_FINGER_DIP2,INDEX_FINGER_TIP2,MIDDLE_FINGER_MCP2,MIDDLE_FINGER_PIP2,MIDDLE_FINGER_DIP2,MIDDLE_FINGER_TIP2,RING_FINGER_PIP2,RING_FINGER_DIP2,RING_FINGER_TIP2,RING_FINGER_MCP2,PINKY_MCP2,PINKY_PIP2,PINKY_DIP2,PINKY_TIP2
0,"x: 196.6875762939453
y: 277.5216979980469
z: -0.24467818439006805
visibility: 0.9988818764686584
","x: 198.5725860595703
y: 271.61309814453125
z: -0.24423560500144958
visibility: 0.9993482232093811
","x: 200.15658569335938
y: 271.36956787109375
z: -0.2442895472049713
visibility: 0.9990296363830566
","x: 201.6389923095703
y: 271.3345031738281
z: -0.24437984824180603
visibility: 0.9992958307266235
","x: 194.6785125732422
y: 272.42535400390625
z: -0.23282396793365479
visibility: 0.9990511536598206
","x: 193.5664825439453
y: 272.86798095703125
z: -0.2328711450099945
visibility: 0.9982075691223145
","x: 192.68714904785156
y: 273.1448669433594
z: -0.23290064930915833
visibility: 0.998701810836792
","x: 203.87123107910156
y: 274.65277099609375
z: -0.20194582641124725
visibility: 0.9993879795074463
","x: 192.53436279296875
y: 275.4883117675781
z: -0.14545844495296478
visibility: 0.9992640614509583
","x: 199.31964111328125
y: 284.6566467285156
z: -0.22599342465400696
visibility: 0.9996728897094727
","x: 194.889404296875
y: 284.42529296875
z: -0.21010568737983704
visibility: 0.999607503414154
","x: 212.5159149169922
y: 320.63555908203125
z: -0.1458769291639328
visibility: 0.9999493360519409
","x: 187.15988159179688
y: 300.84979248046875
z: -0.06875859946012497
visibility: 0.9997187256813049
","x: 216.76220703125
y: 356.3018798828125
z: -0.2373064011335373
visibility: 0.640487551689148
","x: 171.5293426513672
y: 322.00689697265625
z: -0.02917245589196682
visibility: 0.2011283040046692
","x: 217.06100463867188
y: 354.4648742675781
z: -0.34486448764801025
visibility: 0.2353091686964035
","x: 161.50537109375
y: 335.4063720703125
z: -0.0389629490673542
visibility: 0.09365632385015488
","x: 217.65463256835938
y: 354.7317199707031
z: -0.37108150124549866
visibility: 0.228257417678833
","x: 157.92459106445312
y: 339.7398376464844
z: -0.03929896280169487
visibility: 0.1015038937330246
","x: 217.5959014892578
y: 349.7301940917969
z: -0.3704476058483124
visibility: 0.2213214784860611
","x: 159.14578247070312
y: 338.926513671875
z: -0.05568048357963562
visibility: 0.10087587684392929
","x: 216.78231811523438
y: 349.92510986328125
z: -0.3467411994934082
visibility: 0.1599629819393158
","x: 160.82870483398438
y: 337.9525451660156
z: -0.044685740023851395
visibility: 0.12123339623212814
","x: 185.01268005371094
y: 371.054931640625
z: -0.028496425598859787
visibility: 0.9994716048240662
","x: 171.4149627685547
y: 352.38482666015625
z: 0.028520744293928146
visibility: 0.999370276927948
","x: 187.32131958007812
y: 429.9967041015625
z: -0.14428727328777313
visibility: 0.9061075448989868
","x: 148.03494262695312
y: 338.534423828125
z: -0.1085040420293808
visibility: 0.8823661208152771
","x: 190.75286865234375
y: 497.8485107421875
z: -0.11909198760986328
visibility: 0.9357094168663025
","x: 124.47055053710938
y: 365.80889892578125
z: -0.06864288449287415
visibility: 0.9338911175727844
","x: 190.2053680419922
y: 506.2025451660156
z: -0.11968246847391129
visibility: 0.7758195400238037
","x: 121.5953369140625
y: 375.1153259277344
z: -0.06610596179962158
visibility: 0.856716513633728
","x: 191.0968780517578
y: 521.0767211914062
z: -0.21230104565620422
visibility: 0.870759129524231
","x: 111.67325592041016
y: 362.6553039550781
z: -0.1418483704328537
visibility: 0.8582265377044678
",,,,,,,,,,,,,,,,,,,,,,,,,,,,,,,,,,,,,,,,,,
1,"x: 197.9607391357422
y: 276.8271484375
z: -0.12682461738586426
visibility: 0.9989839196205139
","x: 199.93203735351562
y: 270.9326477050781
z: -0.11564002186059952
visibility: 0.9994044899940491
","x: 201.422119140625
y: 270.6005859375
z: -0.11571000516414642
visibility: 0.9991174340248108
","x: 202.7676544189453
y: 270.30206298828125
z: -0.1158430203795433
visibility: 0.9993601441383362
","x: 195.4325408935547
y: 271.86553955078125
z: -0.10983870923519135
visibility: 0.999123215675354
","x: 194.08297729492188
y: 272.3208923339844
z: -0.10985992848873138
visibility: 0.9983399510383606
","x: 192.97802734375
y: 272.7265319824219
z: -0.10983135551214218
visibility: 0.9987992644309998
","x: 204.45152282714844
y: 272.4329528808594
z: -0.0478818379342556
visibility: 0.9994440674781799
","x: 192.46852111816406
y: 275.5006103515625
z: -0.016463322564959526
visibility: 0.999290943145752
","x: 200.846435546875
y: 282.7502746582031
z: -0.10080361366271973
visibility: 0.9996986985206604
","x: 195.67410278320312
y: 283.47674560546875
z: -0.09194787591695786
visibility: 0.999627411365509
","x: 212.68898010253906
y: 314.3714599609375
z: -0.013080647215247154
visibility: 0.999954104423523
","x: 184.47216796875
y: 306.7184143066406
z: 0.03894563764333725
visibility: 0.9997172355651855
","x: 216.6826934814453
y: 351.44921875
z: -0.06946738809347153
visibility: 0.6603847742080688
","x: 168.92433166503906
y: 337.4130554199219
z: 0.012273465283215046
visibility: 0.21249794960021973
","x: 227.59617614746094
y: 374.7791748046875
z: -0.17128697037696838
visibility: 0.29822322726249695
","x: 156.25045776367188
y: 341.7735290527344
z: -0.08924775570631027
visibility: 0.1434873342514038
","x: 232.41050720214844
y: 383.67681884765625
z: -0.1906747668981552
visibility: 0.2893529236316681
","x: 150.92892456054688
y: 343.18133544921875
z: -0.10528476536273956
visibility: 0.15080200135707855
","x: 233.2240447998047
y: 383.7292785644531
z: -0.20763468742370605
visibility: 0.28554078936576843
","x: 151.7365264892578
y: 340.1124572753906
z: -0.12114416062831879
visibility: 0.1523202508687973
","x: 229.5861053466797
y: 380.3451843261719
z: -0.18051442503929138
visibility: 0.22705870866775513
","x: 153.98744201660156
y: 339.4547119140625
z: -0.09898954629898071
visibility: 0.17554745078086853
","x: 186.939208984375
y: 373.26275634765625
z: -0.026521235704421997
visibility: 0.9995108842849731
","x: 171.61492919921875
y: 361.77862548828125
z: 0.02650962397456169
visibility: 0.999415934085846
","x: 190.4755401611328
y: 432.2154541015625
z: -0.14581769704818726
visibility: 0.9075961709022522
","x: 166.23548889160156
y: 399.7884521484375
z: -0.12035880982875824
visibility: 0.8690118193626404
","x: 202.1418914794922
y: 500.0661926269531
z: -0.0765906348824501
visibility: 0.932919442653656
","x: 165.60076904296875
y: 471.4338684082031
z: -0.029572462663054466
visibility: 0.9301536679267883
","x: 205.18832397460938
y: 508.181640625
z: -0.07118123024702072
visibility: 0.7608140707015991
","x: 168.1513214111328
y: 481.31573486328125
z: -0.02118607982993126
visibility: 0.8469927906990051
","x: 199.8046112060547
y: 522.9967651367188
z: -0.15912610292434692
visibility: 0.8710267543792725
","x: 159.25607299804688
y: 494.0452575683594
z: -0.09972778707742691
visibility: 0.8586097359657288
",,,,,,,,,,,,,,,,,,,,,,,,,,,,,,,,,,,,,,,,,,
2,"x: 198.30810546875
y: 278.29534912109375
z: -0.0805014818906784
visibility: 0.9989799857139587
","x: 200.4122314453125
y: 271.96978759765625
z: -0.06896250694990158
visibility: 0.9994059801101685
","x: 201.89120483398438
y: 271.59942626953125
z: -0.06902622431516647
visibility: 0.999150812625885
","x: 203.205322265625
y: 271.1978454589844
z: -0.06917984783649445
visibility: 0.9993782043457031
","x: 195.72833251953125
y: 272.86785888671875
z: -0.06845863163471222
visibility: 0.999065101146698
","x: 194.24281311035156
y: 273.1469421386719
z: -0.06848505884408951
visibility: 0.9982532858848572
","x: 193.01905822753906
y: 273.4880676269531
z: -0.06847505271434784
visibility: 0.9987402558326721
","x: 204.77711486816406
y: 273.0579528808594
z: 0.0031726330053061247
visibility: 0.9994658827781677
","x: 191.95143127441406
y: 276.8960876464844
z: 0.010032109916210175
visibility: 0.9992460608482361
","x: 201.20877075195312
y: 283.9691467285156
z: -0.05091683939099312
visibility: 0.9996582865715027
","x: 195.80763244628906
y: 284.7048645019531
z: -0.049346573650836945
visibility: 0.9995624423027039
","x: 212.96231079101562
y: 315.3402404785156
z: 0.04868435114622116
visibility: 0.9999582767486572
","x: 180.5276641845703
y: 310.1784362792969
z: 0.04654145613312721
visibility: 0.9997146725654602
","x: 223.79620361328125
y: 352.09454345703125
z: -0.058734722435474396
visibility: 0.6807546019554138
","x: 160.37742614746094
y: 336.7763671875
z: 0.03239750117063522
visibility: 0.21288630366325378
","x: 242.1368408203125
y: 353.5258483886719
z: -0.2020481377840042
visibility: 0.360862672328949
","x: 148.65476989746094
y: 342.0841979980469
z: -0.052989520132541656
visibility: 0.16660287976264954
","x: 246.66455078125
y: 348.429443359375
z: -0.22805985808372498
visibility: 0.3473730683326721
","x: 143.92654418945312
y: 341.15924072265625
z: -0.08650006353855133
visibility: 0.17172253131866455
","x: 246.1573486328125
y: 345.8920593261719
z: -0.22415867447853088
visibility: 0.34282922744750977
","x: 144.41273498535156
y: 337.3250732421875
z: -0.08690152317285538
visibility: 0.1734284907579422
","x: 244.04656982421875
y: 347.62274169921875
z: -0.20495088398456573
visibility: 0.28491970896720886
","x: 147.602294921875
y: 337.00634765625
z: -0.06219201162457466
visibility: 0.20028933882713318
","x: 192.45945739746094
y: 375.0674743652344
z: 0.006854402832686901
visibility: 0.9995344281196594
","x: 171.95974731445312
y: 368.2547607421875
z: -0.006939095910638571
visibility: 0.999455451965332
","x: 200.97740173339844
y: 438.78924560546875
z: -0.07596486061811447
visibility: 0.8961538672447205
","x: 177.17169189453125
y: 437.855712890625
z: -0.11732610315084457
visibility: 0.8359913229942322
","x: 216.06036376953125
y: 505.5875244140625
z: 0.034227076917886734
visibility: 0.8960991501808167
","x: 176.19921875
y: 518.5325317382812
z: 0.015723561868071556
visibility: 0.9201035499572754
","x: 210.59161376953125
y: 511.1242370605469
z: 0.042054153978824615
visibility: 0.7086468935012817
","x: 178.24090576171875
y: 523.91748046875
z: 0.02669331431388855
visibility: 0.8214912414550781
","x: 219.59481811523438
y: 526.9708862304688
z: -0.04902725666761398
visibility: 0.8507962822914124
","x: 173.76083374023438
y: 535.34814453125
z: -0.07249908149242401
visibility: 0.8578920960426331
",,,,,,,,,,,,,,,,,,,,,,,,,,,,,,,,,,,,,,,,,,
3,"x: 197.87850952148438
y: 282.7274475097656
z: -0.39782512187957764
visibility: 0.9990813136100769
","x: 199.633056640625
y: 275.45697021484375
z: -0.3894084393978119
visibility: 0.9994640350341797
","x: 201.0465087890625
y: 274.6634521484375
z: -0.38944992423057556
visibility: 0.9992345571517944
","x: 202.38833618164062
y: 273.9142761230469
z: -0.389554500579834
visibility: 0.9994390606880188
","x: 195.230224609375
y: 277.754150390625
z: -0.3853243887424469
visibility: 0.9991564750671387
","x: 193.86460876464844
y: 278.42864990234375
z: -0.3853977918624878
visibility: 0.9984249472618103
","x: 192.67391967773438
y: 279.1089172363281
z: -0.38538452982902527
visibility: 0.9988632798194885
","x: 204.54876708984375
y: 275.6940612792969
z: -0.31002116203308105
visibility: 0.9995179176330566
","x: 191.62673950195312
y: 282.185302734375
z: -0.28482314944267273
visibility: 0.9993192553520203
","x: 201.09292602539062
y: 289.14404296875
z: -0.36609384417533875
visibility: 0.9996917843818665
","x: 195.705322265625
y: 290.1882019042969
z: -0.3588111698627472
visibility: 0.9996045231819153
","x: 215.27828979492188
y: 318.7459716796875
z: -0.20171770453453064
visibility: 0.9999622106552124
","x: 180.43467712402344
y: 321.1634826660156
z: -0.19134795665740967
visibility: 0.9997397065162659
","x: 227.1942596435547
y: 354.78961181640625
z: -0.1821874976158142
visibility: 0.7102652788162231
","x: 162.95326232910156
y: 352.54833984375
z: -0.08910408616065979
visibility: 0.2823271155357361
","x: 240.34188842773438
y: 365.63702392578125
z: -0.2642209231853485
visibility: 0.4220625162124634
","x: 148.67169189453125
y: 338.5979919433594
z: -0.05105472356081009
visibility: 0.24878880381584167
","x: 244.17446899414062
y: 372.1096496582031
z: -0.28098973631858826
visibility: 0.4065612852573395
","x: 143.8831329345703
y: 334.67767333984375
z: -0.06935615837574005
visibility: 0.25241315364837646
","x: 243.0773162841797
y: 368.8240966796875
z: -0.2940882742404938
visibility: 0.403319388628006
","x: 146.03573608398438
y: 327.24774169921875
z: -0.07650668919086456
visibility: 0.25416165590286255
","x: 241.05389404296875
y: 365.9048767089844
z: -0.2708452343940735
visibility: 0.3498159348964691
","x: 148.0198974609375
y: 328.3200378417969
z: -0.05968020483851433
visibility: 0.2782054543495178
","x: 195.38223266601562
y: 392.2742919921875
z: -0.006153009831905365
visibility: 0.9995646476745605
","x: 175.8102264404297
y: 390.32403564453125
z: 0.006056729704141617
visibility: 0.9994928240776062
","x: 202.93601989746094
y: 448.4782409667969
z: -0.07724709063768387
visibility: 0.9058935046195984
","x: 175.10516357421875
y: 463.0765380859375
z: 0.027590807527303696
visibility: 0.8447069525718689
","x: 223.76498413085938
y: 511.320556640625
z: 0.01738208904862404
visibility: 0.9057709574699402
","x: 176.85565185546875
y: 520.5740966796875
z: 0.20450904965400696
visibility: 0.9244399070739746
","x: 226.67599487304688
y: 521.0926513671875
z: 0.02297963760793209
visibility: 0.730659008026123
","x: 179.95687866210938
y: 528.97314453125
z: 0.21924109756946564
visibility: 0.8266729116439819
","x: 223.19329833984375
y: 533.265869140625
z: -0.07112262398004532
visibility: 0.8644527792930603
","x: 170.75836181640625
y: 540.2612915039062
z: 0.14427874982357025
visibility: 0.8673381805419922
",,,,,,,,,,,,,,,,,,,,,,,,,,,,,,,,,,,,,,,,,,
4,"x: 194.64541625976562
y: 292.26416015625
z: -0.2513393461704254
visibility: 0.9991304278373718
","x: 196.774169921875
y: 285.2638854980469
z: -0.2705976366996765
visibility: 0.9994556307792664
","x: 198.0992431640625
y: 284.47393798828125
z: -0.2706987261772156
visibility: 0.9992545247077942
","x: 199.54608154296875
y: 283.5346374511719
z: -0.27065509557724
visibility: 0.9994363784790039
","x: 194.0016632080078
y: 286.538818359375
z: -0.2400517463684082
visibility: 0.9991239905357361
","x: 193.28919982910156
y: 286.6356506347656
z: -0.24007205665111542
visibility: 0.9984337091445923
","x: 192.51010131835938
y: 286.71136474609375
z: -0.2401503622531891
visibility: 0.9988396763801575
","x: 204.46331787109375
y: 283.88897705078125
z: -0.22017979621887207
visibility: 0.9995256066322327
","x: 193.80722045898438
y: 287.70074462890625
z: -0.14286896586418152
visibility: 0.9992572665214539
","x: 198.81321716308594
y: 298.5579528808594
z: -0.24920746684074402
visibility: 0.999711811542511
","x: 194.8487091064453
y: 298.9195556640625
z: -0.2106020450592041
visibility: 0.9996163845062256
","x: 221.0291290283203
y: 324.94744873046875
z: -0.15523609519004822
visibility: 0.999965250492096
","x: 184.36428833007812
y: 325.5565185546875
z: -0.1098133772611618
visibility: 0.9997642636299133
","x: 225.12664794921875
y: 367.2939758300781
z: -0.24432387948036194
visibility: 0.7338691353797913
","x: 170.78172302246094
y: 361.2392883300781
z: -0.09099261462688446
visibility: 0.32008564472198486
","x: 213.30441284179688
y: 374.65924072265625
z: -0.3992714583873749
visibility: 0.4699442684650421
","x: 149.8401641845703
y: 346.8747253417969
z: -0.25766250491142273
visibility: 0.3126206398010254
","x: 210.22677612304688
y: 378.24853515625
z: -0.4387328028678894
visibility: 0.45121389627456665
","x: 147.42080688476562
y: 343.4405822753906
z: -0.2937217652797699
visibility: 0.31475529074668884
","x: 208.1268310546875
y: 372.25628662109375
z: -0.4359896779060364
visibility: 0.4475369155406952
","x: 149.1019287109375
y: 334.0599060058594
z: -0.3133102059364319
visibility: 0.31742623448371887
","x: 208.7412872314453
y: 370.6915588378906
z: -0.40092000365257263
visibility: 0.38967180252075195
","x: 151.0281524658203
y: 335.7968444824219
z: -0.27230340242385864
visibility: 0.3363078534603119
","x: 203.86624145507812
y: 408.0794982910156
z: -0.009130705147981644
visibility: 0.9994701743125916
","x: 182.0539093017578
y: 402.03662109375
z: 0.009109662845730782
visibility: 0.9995304346084595
","x: 214.68136596679688
y: 468.8626708984375
z: 0.04204871878027916
visibility: 0.9130079746246338
","x: 174.8192901611328
y: 459.03631591796875
z: -0.06323572248220444
visibility: 0.8594468235969543
","x: 224.5587158203125
y: 516.7035522460938
z: 0.25436729192733765
visibility: 0.9114044308662415
","x: 169.9811248779297
y: 514.8630981445312
z: 0.056913722306489944
visibility: 0.9308313131332397
","x: 226.74522399902344
y: 521.26025390625
z: 0.27196043729782104
visibility: 0.7301244139671326
","x: 168.7095947265625
y: 521.4334716796875
z: 0.06774172186851501
visibility: 0.8338440656661987
","x: 222.4441680908203
y: 539.0601196289062
z: 0.18697118759155273
visibility: 0.8723344802856445
","x: 170.77496337890625
y: 540.6510009765625
z: -0.022356340661644936
visibility: 0.8788732290267944
",,,,,,,,,,,,,,,,,,,,,,,,,,,,,,,,,,,,,,,,,,
5,"x: 195.91961669921875
y: 293.678466796875
z: -0.35708630084991455
visibility: 0.9992170929908752
","x: 198.10885620117188
y: 286.2371826171875
z: -0.3512519299983978
visibility: 0.9995095729827881
","x: 199.4883270263672
y: 285.4337158203125
z: -0.3512575030326843
visibility: 0.9993285536766052
","x: 200.9291534423828
y: 284.5794982910156
z: -0.35129863023757935
visibility: 0.9994922280311584
","x: 194.92373657226562
y: 288.307861328125
z: -0.3438751697540283
visibility: 0.9992108345031738
","x: 194.0585174560547
y: 288.8256530761719
z: -0.3439503610134125
visibility: 0.9985894560813904
","x: 193.18728637695312
y: 289.3074951171875
z: -0.3439972996711731
visibility: 0.9989548325538635
","x: 205.38462829589844
y: 285.72320556640625
z: -0.26949945092201233
visibility: 0.9995725154876709
","x: 194.37586975097656
y: 291.28515625
z: -0.23741838335990906
visibility: 0.9993307590484619
","x: 200.316162109375
y: 299.59320068359375
z: -0.3244309723377228
visibility: 0.999740481376648
","x: 195.9661102294922
y: 300.85150146484375
z: -0.3151015639305115
visibility: 0.9996545910835266
","x: 220.54078674316406
y: 328.0265808105469
z: -0.19773928821086884
visibility: 0.9999684691429138
","x: 184.4110565185547
y: 326.1466064453125
z: -0.1667526513338089
visibility: 0.9997876286506653
","x: 223.9080810546875
y: 372.37921142578125
z: -0.3431258797645569
visibility: 0.7579990029335022
","x: 170.20535278320312
y: 351.220458984375
z: -0.25450724363327026
visibility: 0.37960103154182434
","x: 211.92137145996094
y: 369.62750244140625
z: -0.5465486645698547
visibility: 0.5182210206985474
","x: 159.72491455078125
y: 357.09637451171875
z: -0.4445202946662903
visibility: 0.3652085065841675
","x: 210.6676025390625
y: 352.4500732421875
z: -0.588942289352417
visibility: 0.49758800864219666
","x: 158.93780517578125
y: 359.24072265625
z: -0.48435014486312866
visibility: 0.3605218827724457
","x: 210.11273193359375
y: 345.7228088378906
z: -0.5781263113021851
visibility: 0.4935320317745209
","x: 161.86473083496094
y: 355.6385498046875
z: -0.4876951277256012
visibility: 0.3623128831386566
","x: 209.99774169921875
y: 348.6262512207031
z: -0.545791745185852
visibility: 0.43413248658180237
","x: 162.05416870117188
y: 354.544921875
z: -0.4517093300819397
visibility: 0.3737229108810425
","x: 206.30117797851562
y: 407.1025390625
z: 0.0043213386088609695
visibility: 0.999508261680603
","x: 185.7813262939453
y: 402.0574951171875
z: -0.004445233382284641
visibility: 0.9995747804641724
","x: 215.04345703125
y: 470.7703857421875
z: 0.039906084537506104
visibility: 0.9204344749450684
","x: 181.22837829589844
y: 465.7025451660156
z: -0.13537292182445526
visibility: 0.8728690147399902
","x: 224.8316650390625
y: 517.9932861328125
z: 0.2839069962501526
visibility: 0.9189016222953796
","x: 166.44520568847656
y: 516.9917602539062
z: 0.02744809351861477
visibility: 0.937170684337616
","x: 227.27359008789062
y: 522.6600952148438
z: 0.30387309193611145
visibility: 0.73908931016922
","x: 163.63714599609375
y: 521.4288940429688
z: 0.03816083446145058
visibility: 0.8374873399734497
","x: 222.59368896484375
y: 540.6755981445312
z: 0.20218034088611603
visibility: 0.8829987645149231
","x: 169.25869750976562
y: 543.0650024414062
z: -0.07811211794614792
visibility: 0.8900824785232544
",,,,,,,,,,,,,,,,,,,,,,,,,,,,,,,,,,,,,,,,,,
6,"x: 195.99673461914062
y: 291.1023254394531
z: -0.3568800687789917
visibility: 0.9992952942848206
","x: 198.25250244140625
y: 284.4250183105469
z: -0.34544533491134644
visibility: 0.9995583891868591
","x: 199.59054565429688
y: 284.03448486328125
z: -0.3454288840293884
visibility: 0.999395489692688
","x: 200.9923095703125
y: 283.6679382324219
z: -0.34547874331474304
visibility: 0.9995428323745728
","x: 194.93032836914062
y: 285.6480712890625
z: -0.34183111786842346
visibility: 0.9992894530296326
","x: 194.04281616210938
y: 286.0559387207031
z: -0.34188681840896606
visibility: 0.9987301826477051
","x: 193.0494384765625
y: 286.454833984375
z: -0.341884583234787
visibility: 0.9990590214729309
","x: 205.1367645263672
y: 285.7467041015625
z: -0.25625815987586975
visibility: 0.9996150732040405
","x: 193.38165283203125
y: 288.9261779785156
z: -0.2377716600894928
visibility: 0.9993970990180969
","x: 200.26092529296875
y: 297.290771484375
z: -0.32236483693122864
visibility: 0.9997663497924805
","x: 195.89666748046875
y: 298.340087890625
z: -0.3173924386501312
visibility: 0.999688982963562
","x: 219.498291015625
y: 326.902099609375
z: -0.1985149085521698
visibility: 0.9999711513519287
","x: 180.97215270996094
y: 323.70184326171875
z: -0.169355571269989
visibility: 0.9998071789741516
","x: 224.5720672607422
y: 365.01507568359375
z: -0.3387208878993988
visibility: 0.7815523147583008
","x: 168.16844177246094
y: 350.7596130371094
z: -0.2747669816017151
visibility: 0.4397520422935486
","x: 221.62521362304688
y: 334.16656494140625
z: -0.5209547877311707
visibility: 0.564721941947937
","x: 159.61801147460938
y: 354.95892333984375
z: -0.4623869061470032
visibility: 0.42504239082336426
","x: 217.84927368164062
y: 318.21197509765625
z: -0.5605188608169556
visibility: 0.5430946946144104
","x: 157.52926635742188
y: 344.9637451171875
z: -0.5012778043746948
visibility: 0.41670942306518555
","x: 216.17721557617188
y: 316.9263000488281
z: -0.5510090589523315
visibility: 0.5389505624771118
","x: 159.81443786621094
y: 339.9737243652344
z: -0.503296971321106
visibility: 0.4180753231048584
","x: 220.55918884277344
y: 322.49566650390625
z: -0.5218261480331421
visibility: 0.48292601108551025
","x: 160.67086791992188
y: 343.80670166015625
z: -0.4696870744228363
visibility: 0.42631322145462036
","x: 205.66322326660156
y: 403.887939453125
z: 3.1111798307392746e-05
visibility: 0.9995461702346802
","x: 184.61322021484375
y: 403.4931945800781
z: -0.00020273793779779226
visibility: 0.9996072053909302
","x: 216.48184204101562
y: 465.490966796875
z: -0.0317298099398613
visibility: 0.9281461238861084
","x: 177.85089111328125
y: 469.12042236328125
z: -0.05625603348016739
visibility: 0.8846964240074158
","x: 224.78375244140625
y: 515.869140625
z: 0.18478651344776154
visibility: 0.9265994429588318
","x: 164.87911987304688
y: 519.9619140625
z: 0.12516629695892334
visibility: 0.9427554607391357
","x: 225.86021423339844
y: 521.335205078125
z: 0.20279832184314728
visibility: 0.7537098526954651
","x: 161.77059936523438
y: 525.9486694335938
z: 0.13808390498161316
visibility: 0.8352853059768677
","x: 222.49351501464844
y: 541.9171752929688
z: 0.09313410520553589
visibility: 0.8940057754516602
","x: 169.4422607421875
y: 542.738525390625
z: 0.018168488517403603
visibility: 0.8999113440513611
",,,,,,,,,,,,,,,,,,,,,,,,,,,,,,,,,,,,,,,,,,
7,"x: 197.8374786376953
y: 278.217041015625
z: -0.2504199743270874
visibility: 0.9993650913238525
","x: 199.76939392089844
y: 272.77294921875
z: -0.2367742955684662
visibility: 0.9995992183685303
","x: 201.0157470703125
y: 272.724365234375
z: -0.2368224859237671
visibility: 0.9994532465934753
","x: 202.3851776123047
y: 272.782958984375
z: -0.2368594855070114
visibility: 0.9995855093002319
","x: 196.40953063964844
y: 273.42181396484375
z: -0.23515407741069794
visibility: 0.9993564486503601
","x: 195.25843811035156
y: 273.7852783203125
z: -0.23517069220542908
visibility: 0.9988529682159424
","x: 194.0035400390625
y: 274.24871826171875
z: -0.2351493537425995
visibility: 0.9991472363471985
","x: 205.714111328125
y: 276.6224365234375
z: -0.15953095257282257
visibility: 0.9996501207351685
","x: 193.47640991210938
y: 278.94696044921875
z: -0.1486929953098297
visibility: 0.9994478225708008
","x: 201.2193145751953
y: 285.1381530761719
z: -0.2216475009918213
visibility: 0.9997885227203369
","x: 196.71343994140625
y: 285.7440185546875
z: -0.2193211019039154
visibility: 0.9997175335884094
","x: 218.6969757080078
y: 316.8158264160156
z: -0.1076505035161972
visibility: 0.9999734163284302
","x: 181.7425079345703
y: 322.8460693359375
z: -0.10927432775497437
visibility: 0.9998223781585693
","x: 229.64755249023438
y: 360.1951904296875
z: -0.09380953013896942
visibility: 0.8028942942619324
","x: 169.9838104248047
y: 348.457763671875
z: -0.12606939673423767
visibility: 0.49299153685569763
","x: 243.12051391601562
y: 382.9461364746094
z: -0.18405351042747498
visibility: 0.6073505282402039
","x: 152.9000701904297
y: 353.9961242675781
z: -0.3753611743450165
visibility: 0.4797946512699127
","x: 247.34544372558594
y: 387.3443908691406
z: -0.2051609754562378
visibility: 0.5862368941307068
","x: 147.03262329101562
y: 356.5289306640625
z: -0.33188799023628235
visibility: 0.4693141579627991
","x: 247.5033721923828
y: 385.9388427734375
z: -0.2338455468416214
visibility: 0.5830156803131104
","x: 146.4368133544922
y: 352.486572265625
z: -0.2933780550956726
visibility: 0.47128474712371826
","x: 246.25559997558594
y: 385.0341491699219
z: -0.19873566925525665
visibility: 0.5324402451515198
","x: 148.77996826171875
y: 351.36175537109375
z: -0.32041507959365845
visibility: 0.4783930778503418
","x: 206.069091796875
y: 403.32696533203125
z: -0.00014376072795130312
visibility: 0.9995695352554321
","x: 184.6011199951172
y: 399.8934326171875
z: 6.338195089483634e-05
visibility: 0.9996240735054016
","x: 214.79983520507812
y: 466.4554138183594
z: -0.009643632918596268
visibility: 0.9351084232330322
","x: 175.80606079101562
y: 462.5862121582031
z: -0.007716064341366291
visibility: 0.8959921598434448
","x: 222.7704620361328
y: 521.7565307617188
z: 0.13620544970035553
visibility: 0.9337015151977539
","x: 168.86228942871094
y: 519.853515625
z: 0.14909487962722778
visibility: 0.9481747150421143
","x: 222.00592041015625
y: 530.082275390625
z: 0.14505088329315186
visibility: 0.7728647589683533
","x: 169.5273895263672
y: 526.1022338867188
z: 0.1591295450925827
visibility: 0.8432856202125549
","x: 227.2319793701172
y: 543.4169311523438
z: 0.03955398499965668
visibility: 0.9040692448616028
","x: 166.25794982910156
y: 541.7879028320312
z: 0.05667640641331673
visibility: 0.9092685580253601
",,,,,,,,,,,,,,,,,,,,,,,,,,,,,,,,,,,,,,,,,,
8,"x: 198.91419982910156
y: 275.33319091796875
z: -0.25290238857269287
visibility: 0.9994279146194458
","x: 201.04161071777344
y: 270.11346435546875
z: -0.24742355942726135
visibility: 0.9996368885040283
","x: 202.4481201171875
y: 270.3313293457031
z: -0.2474646270275116
visibility: 0.9995055198669434
","x: 203.7110137939453
y: 270.6015319824219
z: -0.24752184748649597
visibility: 0.9996241927146912
","x: 197.37930297851562
y: 270.1802673339844
z: -0.2370891571044922
visibility: 0.9994182586669922
","x: 196.11492919921875
y: 270.35955810546875
z: -0.23707100749015808
visibility: 0.9989652037620544
","x: 194.7913818359375
y: 270.6304931640625
z: -0.23701700568199158
visibility: 0.9992294311523438
","x: 206.22821044921875
y: 274.5093688964844
z: -0.16748125851154327
visibility: 0.9996809363365173
","x: 193.5948486328125
y: 275.0496826171875
z: -0.16417786478996277
visibility: 0.9994977116584778
","x: 201.91676330566406
y: 283.1496276855469
z: -0.22925129532814026
visibility: 0.9998085498809814
","x: 196.85931396484375
y: 282.8579406738281
z: -0.2262144833803177
visibility: 0.9997442960739136
","x: 218.49462890625
y: 315.968505859375
z: -0.10278786718845367
visibility: 0.9999744296073914
","x: 181.85093688964844
y: 321.4934997558594
z: -0.11823789030313492
visibility: 0.9998366832733154
","x: 227.4552459716797
y: 359.5959167480469
z: -0.06812802702188492
visibility: 0.8203074336051941
","x: 171.46971130371094
y: 353.192626953125
z: -0.12477855384349823
visibility: 0.5388481020927429
","x: 238.1422119140625
y: 394.1342468261719
z: -0.13838110864162445
visibility: 0.6422621011734009
","x: 153.40109252929688
y: 370.7925720214844
z: -0.24488654732704163
visibility: 0.5245375633239746
","x: 242.4259796142578
y: 403.8670349121094
z: -0.15557268261909485
visibility: 0.6184422373771667
","x: 148.50144958496094
y: 377.17333984375
z: -0.2598227858543396
visibility: 0.5103853940963745
","x: 242.4404754638672
y: 403.939208984375
z: -0.18383198976516724
visibility: 0.6169013381004333
","x: 148.2577667236328
y: 373.6378479003906
z: -0.27922287583351135
visibility: 0.5135418176651001
","x: 240.63134765625
y: 400.82403564453125
z: -0.15229295194149017
visibility: 0.5712018609046936
","x: 150.173095703125
y: 371.34710693359375
z: -0.24848537147045135
visibility: 0.5193831324577332
","x: 206.84559631347656
y: 406.11767578125
z: 0.005853691138327122
visibility: 0.9996016025543213
","x: 185.19363403320312
y: 403.98248291015625
z: -0.005960208363831043
visibility: 0.9996520280838013
","x: 214.7391815185547
y: 467.17041015625
z: 0.0436154343187809
visibility: 0.9413059949874878
","x: 176.12110900878906
y: 466.390380859375
z: 0.02224661037325859
visibility: 0.9061288237571716
","x: 222.66690063476562
y: 520.9722900390625
z: 0.22183911502361298
visibility: 0.9399904608726501
","x: 168.5284423828125
y: 519.9192504882812
z: 0.19441774487495422
visibility: 0.9530922174453735
","x: 220.90248107910156
y: 529.6673583984375
z: 0.2345176637172699
visibility: 0.7897999882698059
","x: 169.249755859375
y: 525.7747802734375
z: 0.20679950714111328
visibility: 0.8508103489875793
","x: 227.57272338867188
y: 543.4364624023438
z: 0.1411595642566681
visibility: 0.9130229353904724
","x: 165.31597900390625
y: 541.9857177734375
z: 0.10808485746383667
visibility: 0.9177832007408142
",,,,,,,,,,,,,,,,,,,,,,,,,,,,,,,,,,,,,,,,,,
9,"x: 199.16343688964844
y: 275.3582763671875
z: -0.2320212870836258
visibility: 0.9994844794273376
","x: 201.31500244140625
y: 269.85723876953125
z: -0.21733787655830383
visibility: 0.9996711611747742
","x: 202.61241149902344
y: 270.07537841796875
z: -0.2173622101545334
visibility: 0.9995527267456055
","x: 203.8213653564453
y: 270.3890075683594
z: -0.21737949550151825
visibility: 0.9996588230133057
","x: 197.48504638671875
y: 269.67938232421875
z: -0.2173471450805664
visibility: 0.9994741082191467
","x: 196.26014709472656
y: 269.79071044921875
z: -0.21737363934516907
visibility: 0.9990665316581726
","x: 195.00425720214844
y: 269.9606018066406
z: -0.2173738032579422
visibility: 0.9993036985397339
","x: 206.10995483398438
y: 273.9769592285156
z: -0.12400723993778229
visibility: 0.9997090101242065
","x: 193.5780029296875
y: 273.48272705078125
z: -0.13067401945590973
visibility: 0.9995434284210205
","x: 201.88575744628906
y: 282.66485595703125
z: -0.19784192740917206
visibility: 0.9998265504837036
","x: 196.7926483154297
y: 282.5534973144531
z: -0.1998419314622879
visibility: 0.9997686743736267
","x: 216.4156036376953
y: 314.46685791015625
z: -0.06149408966302872
visibility: 0.9999746084213257
","x: 180.9148712158203
y: 315.2866516113281
z: -0.08804774284362793
visibility: 0.9998476505279541
","x: 222.41905212402344
y: 358.8023376464844
z: -0.043603815138339996
visibility: 0.8357720375061035
","x: 171.25070190429688
y: 350.514892578125
z: -0.17783604562282562
visibility: 0.5804780721664429
","x: 234.552978515625
y: 397.2060852050781
z: -0.13173681497573853
visibility: 0.6760130524635315
","x: 157.9062957763672
y: 365.0425720214844
z: -0.39643391966819763
visibility: 0.5694324374198914
","x: 236.14212036132812
y: 406.51239013671875
z: -0.15315155684947968
visibility: 0.6526934504508972
","x: 156.96237182617188
y: 368.3319396972656
z: -0.44144949316978455
visibility: 0.5555009245872498
","x: 236.08872985839844
y: 405.36553955078125
z: -0.17927367985248566
visibility: 0.6517738103866577
","x: 159.74473571777344
y: 356.0675354003906
z: -0.45478424429893494
visibility: 0.5586557388305664
","x: 234.5979766845703
y: 402.4923400878906
z: -0.1446545422077179
visibility: 0.6099578738212585
","x: 159.75091552734375
y: 353.6504821777344
z: -0.4081924557685852
visibility: 0.5630133748054504
","x: 205.9038848876953
y: 405.9847412109375
z: 0.004703529179096222
visibility: 0.999636709690094
","x: 184.97708129882812
y: 405.11456298828125
z: -0.004795000422745943
visibility: 0.999682605266571
","x: 214.70269775390625
y: 465.63958740234375
z: 0.024335768073797226
visibility: 0.9470044374465942
","x: 176.31431579589844
y: 465.0528259277344
z: -0.002092051785439253
visibility: 0.9152178764343262
","x: 222.51535034179688
y: 521.3574829101562
z: 0.1987546980381012
visibility: 0.9457128643989563
","x: 168.27317810058594
y: 519.1607666015625
z: 0.16415263712406158
visibility: 0.9575453400611877
","x: 221.09024047851562
y: 530.58837890625
z: 0.2104751169681549
visibility: 0.8052906394004822
","x: 169.63218688964844
y: 526.050537109375
z: 0.17560307681560516
visibility: 0.8600656390190125
","x: 227.77870178222656
y: 543.1165161132812
z: 0.11033817380666733
visibility: 0.9212502837181091
","x: 164.1237030029297
y: 539.2979736328125
z: 0.07238355278968811
visibility: 0.9255378246307373
",,,,,,,,,,,,,,,,,,,,,,,,,,,,,,,,,,,,,,,,,,
10,"x: 200.06637573242188
y: 275.75640869140625
z: -0.23541629314422607
visibility: 0.9995352029800415
","x: 201.70997619628906
y: 270.8525695800781
z: -0.2175382673740387
visibility: 0.9997019171714783
","x: 202.83773803710938
y: 271.3134765625
z: -0.2175407111644745
visibility: 0.9995947480201721
","x: 203.8935546875
y: 271.7715148925781
z: -0.21756413578987122
visibility: 0.999689519405365
","x: 198.2940673828125
y: 269.8370056152344
z: -0.2233043909072876
visibility: 0.9995249509811401
","x: 197.09339904785156
y: 270.0521240234375
z: -0.22333328425884247
visibility: 0.9991580843925476
","x: 195.86932373046875
y: 270.4010009765625
z: -0.2233515977859497
visibility: 0.9993714690208435
","x: 205.78872680664062
y: 275.51751708984375
z: -0.10841391235589981
visibility: 0.9997310638427734
","x: 193.69056701660156
y: 273.7848205566406
z: -0.13821415603160858
visibility: 0.9995871782302856
","x: 202.2633819580078
y: 282.72967529296875
z: -0.194484680891037
visibility: 0.9998407363891602
","x: 197.56619262695312
y: 283.20916748046875
z: -0.2031455785036087
visibility: 0.9997901320457458
","x: 212.0144805908203
y: 315.3503723144531
z: -0.013167371042072773
visibility: 0.999968409538269
","x: 181.25613403320312
y: 312.53131103515625
z: -0.11662562936544418
visibility: 0.9998588562011719
","x: 213.45779418945312
y: 358.986572265625
z: 0.03491619974374771
visibility: 0.8247137069702148
","x: 170.79583740234375
y: 344.5783996582031
z: -0.23073074221611023
visibility: 0.6212562322616577
","x: 226.6862030029297
y: 390.12689208984375
z: -0.03432818874716759
visibility: 0.69106525182724
","x: 182.84234619140625
y: 361.534912109375
z: -0.3983124792575836
visibility: 0.610227644443512
","x: 232.1393585205078
y: 398.8240051269531
z: -0.04900575429201126
visibility: 0.664271891117096
","x: 185.96572875976562
y: 368.70263671875
z: -0.4401969909667969
visibility: 0.5953474044799805
","x: 234.6649627685547
y: 397.5912780761719
z: -0.07816548645496368
visibility: 0.6652871370315552
","x: 189.07850646972656
y: 364.60711669921875
z: -0.44002586603164673
visibility: 0.5979931354522705
","x: 231.28799438476562
y: 394.7398376464844
z: -0.04850657656788826
visibility: 0.6250885725021362
","x: 188.97386169433594
y: 360.4798889160156
z: -0.40189847350120544
visibility: 0.5995909571647644
","x: 204.68295288085938
y: 404.55816650390625
z: 0.026513028889894485
visibility: 0.9996672868728638
","x: 183.9877166748047
y: 404.0048828125
z: -0.026564273983240128
visibility: 0.999708890914917
","x: 216.99925231933594
y: 463.0416259765625
z: 0.009976707398891449
visibility: 0.9520775675773621
","x: 175.88780212402344
y: 461.2364501953125
z: -0.0197356678545475
visibility: 0.9235585331916809
","x: 225.65525817871094
y: 520.3826293945312
z: 0.14846137166023254
visibility: 0.9509113430976868
","x: 167.7767791748047
y: 517.5992431640625
z: 0.13850532472133636
visibility: 0.9616780877113342
","x: 223.63865661621094
y: 530.3792724609375
z: 0.1592632383108139
visibility: 0.8213063478469849
","x: 168.74844360351562
y: 523.754150390625
z: 0.14932963252067566
visibility: 0.8695196509361267
","x: 232.61590576171875
y: 541.8274536132812
z: 0.06703978031873703
visibility: 0.9286764860153198
","x: 165.62928771972656
y: 540.2850952148438
z: 0.04303426295518875
visibility: 0.9327267408370972
",,,,,,,,,,,,,,,,,,,,,,,,,,,,,,,,,,,,,,,,,,
11,"x: 203.05264282226562
y: 284.7588195800781
z: -0.3155286908149719
visibility: 0.9995808005332947
","x: 204.41708374023438
y: 280.1234130859375
z: -0.296506404876709
visibility: 0.9997293949127197
","x: 205.54400634765625
y: 280.3074951171875
z: -0.2964906096458435
visibility: 0.9996323585510254
","x: 206.6776885986328
y: 280.5224914550781
z: -0.29651501774787903
visibility: 0.9997169375419617
","x: 201.2382049560547
y: 280.033203125
z: -0.30282655358314514
visibility: 0.9995703101158142
","x: 200.15582275390625
y: 280.22991943359375
z: -0.3028821349143982
visibility: 0.9992401599884033
","x: 199.0287322998047
y: 280.4503173828125
z: -0.3029346168041229
visibility: 0.9994320869445801
","x: 208.21917724609375
y: 284.23223876953125
z: -0.17861317098140717
visibility: 0.9997431635856628
","x: 197.1977996826172
y: 283.8692626953125
z: -0.20961396396160126
visibility: 0.9996252059936523
","x: 205.0763397216797
y: 291.0116271972656
z: -0.27134209871292114
visibility: 0.9998504519462585
","x: 201.05422973632812
y: 291.59014892578125
z: -0.2795245051383972
visibility: 0.9998070597648621
","x: 212.22857666015625
y: 325.2458190917969
z: -0.06166580319404602
visibility: 0.9999480843544006
","x: 189.03805541992188
y: 317.8795166015625
z: -0.19012451171875
visibility: 0.9998682737350464
","x: 212.9145050048828
y: 367.5111083984375
z: -0.03189209848642349
visibility: 0.8015655279159546
","x: 188.8062744140625
y: 362.43048095703125
z: -0.22057755291461945
visibility: 0.6582000255584717
","x: 217.6637420654297
y: 397.29632568359375
z: -0.12156299501657486
visibility: 0.698354184627533
","x: 201.9082489013672
y: 398.320556640625
z: -0.3116171956062317
visibility: 0.6480420827865601
","x: 221.15208435058594
y: 407.5442810058594
z: -0.142212375998497
visibility: 0.6679073572158813
","x: 202.2632598876953
y: 412.8940124511719
z: -0.341586172580719
visibility: 0.6331406831741333
","x: 221.4960479736328
y: 406.0914306640625
z: -0.1705625206232071
visibility: 0.6698734760284424
","x: 205.50045776367188
y: 412.1109313964844
z: -0.3538428843021393
visibility: 0.6353650689125061
","x: 222.0191650390625
y: 407.14410400390625
z: -0.1359470635652542
visibility: 0.6294906735420227
","x: 206.03594970703125
y: 407.03570556640625
z: -0.3263551890850067
visibility: 0.63503098487854
","x: 205.0745849609375
y: 407.2897644042969
z: 0.02733008563518524
visibility: 0.9996932148933411
","x: 184.574951171875
y: 404.1251220703125
z: -0.02739846147596836
visibility: 0.9997320175170898
","x: 220.33897399902344
y: 464.2782287597656
z: -0.020288720726966858
visibility: 0.9565708041191101
","x: 175.8056640625
y: 463.5255432128906
z: -0.029173454269766808
visibility: 0.9310178160667419
","x: 232.391845703125
y: 522.0198974609375
z: 0.09959381073713303
visibility: 0.9555146098136902
","x: 168.3854217529297
y: 516.3133544921875
z: 0.12517444789409637
visibility: 0.9652639627456665
","x: 230.59124755859375
y: 530.6115112304688
z: 0.10619324445724487
visibility: 0.8348785042762756
","x: 169.46380615234375
y: 522.398681640625
z: 0.13741162419319153
visibility: 0.8734484910964966
","x: 239.9254150390625
y: 543.5338745117188
z: 0.007260993123054504
visibility: 0.9350109100341797
","x: 165.20350646972656
y: 539.3428955078125
z: 0.037250373512506485
visibility: 0.9388322234153748
","x: 205.47605895996094
y: 401.28253173828125
z: 0.0
","x: 209.54257202148438
y: 404.7342529296875
z: -0.0027673987206071615
","x: 212.27354431152344
y: 410.45977783203125
z: -0.005481114611029625
","x: 213.7981719970703
y: 415.4744873046875
z: -0.008244135417044163
","x: 215.1552276611328
y: 419.27947998046875
z: -0.011051519773900509
","x: 208.7102508544922
y: 419.48175048828125
z: -0.005040864460170269
","x: 207.7216339111328
y: 428.98626708984375
z: -0.008508976548910141
","x: 206.5985870361328
y: 434.329345703125
z: -0.010709414258599281
","x: 205.4235382080078
y: 438.3074951171875
z: -0.012183851562440395
","x: 205.81304931640625
y: 419.0058898925781
z: -0.006235872860997915
","x: 204.2250518798828
y: 428.4958190917969
z: -0.00963472668081522
","x: 202.67701721191406
y: 434.2161560058594
z: -0.011558842845261097
","x: 201.28286743164062
y: 438.51177978515625
z: -0.01297740824520588
","x: 203.38038635253906
y: 417.245849609375
z: -0.007680864073336124
","x: 201.6273193359375
y: 425.6540222167969
z: -0.01124634686857462
","x: 200.10943603515625
y: 431.0595397949219
z: -0.013001414947211742
","x: 198.84202575683594
y: 434.9938659667969
z: -0.014137228019535542
","x: 201.267822265625
y: 414.2677001953125
z: -0.009400198236107826
","x: 199.20849609375
y: 419.86083984375
z: -0.012380666099488735
","x: 197.67385864257812
y: 423.21875
z: -0.013643253594636917
","x: 196.3960723876953
y: 425.64715576171875
z: -0.014449378475546837
",,,,,,,,,,,,,,,,,,,,,
12,"x: 203.05264282226562
y: 284.7588195800781
z: -0.3155286908149719
visibility: 0.9995808005332947
","x: 204.41708374023438
y: 280.1234130859375
z: -0.296506404876709
visibility: 0.9997293949127197
","x: 205.54400634765625
y: 280.3074951171875
z: -0.2964906096458435
visibility: 0.9996323585510254
","x: 206.6776885986328
y: 280.5224914550781
z: -0.29651501774787903
visibility: 0.9997169375419617
","x: 201.2382049560547
y: 280.033203125
z: -0.30282655358314514
visibility: 0.9995703101158142
","x: 200.15582275390625
y: 280.22991943359375
z: -0.3028821349143982
visibility: 0.9992401599884033
","x: 199.0287322998047
y: 280.4503173828125
z: -0.3029346168041229
visibility: 0.9994320869445801
","x: 208.21917724609375
y: 284.23223876953125
z: -0.17861317098140717
visibility: 0.9997431635856628
","x: 197.1977996826172
y: 283.8692626953125
z: -0.20961396396160126
visibility: 0.9996252059936523
","x: 205.0763397216797
y: 291.0116271972656
z: -0.27134209871292114
visibility: 0.9998504519462585
","x: 201.05422973632812
y: 291.59014892578125
z: -0.2795245051383972
visibility: 0.9998070597648621
","x: 212.22857666015625
y: 325.2458190917969
z: -0.06166580319404602
visibility: 0.9999480843544006
","x: 189.03805541992188
y: 317.8795166015625
z: -0.19012451171875
visibility: 0.9998682737350464
","x: 212.9145050048828
y: 367.5111083984375
z: -0.03189209848642349
visibility: 0.8015655279159546
","x: 188.8062744140625
y: 362.43048095703125
z: -0.22057755291461945
visibility: 0.6582000255584717
","x: 217.6637420654297
y: 397.29632568359375
z: -0.12156299501657486
visibility: 0.698354184627533
","x: 201.9082489013672
y: 398.320556640625
z: -0.3116171956062317
visibility: 0.6480420827865601
","x: 221.15208435058594
y: 407.5442810058594
z: -0.142212375998497
visibility: 0.6679073572158813
","x: 202.2632598876953
y: 412.8940124511719
z: -0.341586172580719
visibility: 0.6331406831741333
","x: 221.4960479736328
y: 406.0914306640625
z: -0.1705625206232071
visibility: 0.6698734760284424
","x: 205.50045776367188
y: 412.1109313964844
z: -0.3538428843021393
visibility: 0.6353650689125061
","x: 222.0191650390625
y: 407.14410400390625
z: -0.1359470635652542
visibility: 0.6294906735420227
","x: 206.03594970703125
y: 407.03570556640625
z: -0.3263551890850067
visibility: 0.63503098487854
","x: 205.0745849609375
y: 407.2897644042969
z: 0.02733008563518524
visibility: 0.9996932148933411
","x: 184.574951171875
y: 404.1251220703125
z: -0.02739846147596836
visibility: 0.9997320175170898
","x: 220.33897399902344
y: 464.2782287597656
z: -0.020288720726966858
visibility: 0.9565708041191101
","x: 175.8056640625
y: 463.5255432128906
z: -0.029173454269766808
visibility: 0.9310178160667419
","x: 232.391845703125
y: 522.0198974609375
z: 0.09959381073713303
visibility: 0.9555146098136902
","x: 168.3854217529297
y: 516.3133544921875
z: 0.12517444789409637
visibility: 0.9652639627456665
","x: 230.59124755859375
y: 530.6115112304688
z: 0.10619324445724487
visibility: 0.8348785042762756
","x: 169.46380615234375
y: 522.398681640625
z: 0.13741162419319153
visibility: 0.8734484910964966
","x: 239.9254150390625
y: 543.5338745117188
z: 0.007260993123054504
visibility: 0.9350109100341797
","x: 165.20350646972656
y: 539.3428955078125
z: 0.037250373512506485
visibility: 0.9388322234153748
","x: 205.47605895996094
y: 401.28253173828125
z: 0.0
","x: 209.54257202148438
y: 404.7342529296875
z: -0.0027673987206071615
","x: 212.27354431152344
y: 410.45977783203125
z: -0.005481114611029625
","x: 213.7981719970703
y: 415.4744873046875
z: -0.008244135417044163
","x: 215.1552276611328
y: 419.27947998046875
z: -0.011051519773900509
","x: 208.7102508544922
y: 419.48175048828125
z: -0.005040864460170269
","x: 207.7216339111328
y: 428.98626708984375
z: -0.008508976548910141
","x: 206.5985870361328
y: 434.329345703125
z: -0.010709414258599281
","x: 205.4235382080078
y: 438.3074951171875
z: -0.012183851562440395
","x: 205.81304931640625
y: 419.0058898925781
z: -0.006235872860997915
","x: 204.2250518798828
y: 428.4958190917969
z: -0.00963472668081522
","x: 202.67701721191406
y: 434.2161560058594
z: -0.011558842845261097
","x: 201.28286743164062
y: 438.51177978515625
z: -0.01297740824520588
","x: 203.38038635253906
y: 417.245849609375
z: -0.007680864073336124
","x: 201.6273193359375
y: 425.6540222167969
z: -0.01124634686857462
","x: 200.10943603515625
y: 431.0595397949219
z: -0.013001414947211742
","x: 198.84202575683594
y: 434.9938659667969
z: -0.014137228019535542
","x: 201.267822265625
y: 414.2677001953125
z: -0.009400198236107826
","x: 199.20849609375
y: 419.86083984375
z: -0.012380666099488735
","x: 197.67385864257812
y: 423.21875
z: -0.013643253594636917
","x: 196.3960723876953
y: 425.64715576171875
z: -0.014449378475546837
",,,,,,,,,,,,,,,,,,,,,
13,"x: 207.9467010498047
y: 286.6869201660156
z: -0.24118748307228088
visibility: 0.999622106552124
","x: 208.67568969726562
y: 281.085693359375
z: -0.22016067802906036
visibility: 0.9997551441192627
","x: 209.63124084472656
y: 281.0899963378906
z: -0.2201859951019287
visibility: 0.9996675252914429
","x: 210.52162170410156
y: 281.1276550292969
z: -0.22022096812725067
visibility: 0.9997434020042419
","x: 205.4468536376953
y: 281.56451416015625
z: -0.23048821091651917
visibility: 0.9996119141578674
","x: 204.17701721191406
y: 281.9903564453125
z: -0.2305065095424652
visibility: 0.9993146657943726
","x: 202.8614501953125
y: 282.4667053222656
z: -0.23053660988807678
visibility: 0.9994871616363525
","x: 211.08750915527344
y: 284.75262451171875
z: -0.11104991286993027
visibility: 0.999764084815979
","x: 200.2436065673828
y: 286.6012878417969
z: -0.15568722784519196
visibility: 0.9996601939201355
","x: 209.824951171875
y: 292.9706115722656
z: -0.19940254092216492
visibility: 0.9998622536659241
","x: 205.54400634765625
y: 294.00103759765625
z: -0.21268108487129211
visibility: 0.9998233318328857
","x: 218.58078002929688
y: 327.0964050292969
z: -0.02396431192755699
visibility: 0.9999459981918335
","x: 192.52273559570312
y: 321.6278381347656
z: -0.14423196017742157
visibility: 0.9998713135719299
","x: 219.3238525390625
y: 368.64569091796875
z: -0.02805037796497345
visibility: 0.7949067950248718
","x: 195.0179901123047
y: 364.10235595703125
z: -0.20207592844963074
visibility: 0.6898133754730225
","x: 231.61746215820312
y: 390.36083984375
z: -0.15528179705142975
visibility: 0.7224963903427124
","x: 207.72019958496094
y: 399.15087890625
z: -0.301580548286438
visibility: 0.6801379323005676
","x: 234.2283935546875
y: 402.4200439453125
z: -0.18330714106559753
visibility: 0.6930311918258667
","x: 208.93429565429688
y: 410.59454345703125
z: -0.33493971824645996
visibility: 0.6640803813934326
","x: 234.33975219726562
y: 403.1697998046875
z: -0.2064651995897293
visibility: 0.6957224011421204
","x: 212.37014770507812
y: 407.47271728515625
z: -0.34351807832717896
visibility: 0.6658793091773987
","x: 233.04689025878906
y: 404.8208312988281
z: -0.1688346564769745
visibility: 0.6569114923477173
","x: 212.55470275878906
y: 404.14739990234375
z: -0.3080075681209564
visibility: 0.6623055338859558
","x: 216.20556640625
y: 410.6670837402344
z: 0.024142403155565262
visibility: 0.9997190237045288
","x: 195.77627563476562
y: 409.95361328125
z: -0.024144412949681282
visibility: 0.9997525811195374
","x: 229.248779296875
y: 464.11297607421875
z: -0.06947143375873566
visibility: 0.9607309699058533
","x: 180.5027618408203
y: 464.72821044921875
z: -0.040096499025821686
visibility: 0.9377391934394836
","x: 234.69017028808594
y: 522.9448852539062
z: 0.0575210377573967
visibility: 0.9596775770187378
","x: 169.80752563476562
y: 517.90771484375
z: 0.11469753086566925
visibility: 0.9685383439064026
","x: 231.92462158203125
y: 532.03076171875
z: 0.06474681198596954
visibility: 0.8484622240066528
","x: 170.17835998535156
y: 524.20849609375
z: 0.1258811205625534
visibility: 0.8784619569778442
","x: 241.4632110595703
y: 544.730712890625
z: -0.031834352761507034
visibility: 0.9409055113792419
","x: 165.6046905517578
y: 540.897705078125
z: 0.02617642655968666
visibility: 0.944424033164978
",,,,,,,,,,,,,,,,,,,,,,,,,,,,,,,,,,,,,,,,,,
14,"x: 210.246826171875
y: 288.6795959472656
z: -0.1782301366329193
visibility: 0.9996593594551086
","x: 212.17250061035156
y: 282.2806396484375
z: -0.16238322854042053
visibility: 0.999778687953949
","x: 213.41590881347656
y: 282.21551513671875
z: -0.16239529848098755
visibility: 0.9996996521949768
","x: 214.51295471191406
y: 282.1779479980469
z: -0.16240784525871277
visibility: 0.9997677206993103
","x: 208.1049041748047
y: 282.70819091796875
z: -0.1644318550825119
visibility: 0.9996498823165894
","x: 206.73297119140625
y: 283.0181579589844
z: -0.16442206501960754
visibility: 0.9993821978569031
","x: 205.296142578125
y: 283.4500427246094
z: -0.16438239812850952
visibility: 0.9995372295379639
","x: 216.06503295898438
y: 285.23663330078125
z: -0.06736351549625397
visibility: 0.9997860789299011
","x: 202.69424438476562
y: 287.31585693359375
z: -0.0749969631433487
visibility: 0.9996931552886963
","x: 212.67318725585938
y: 294.70843505859375
z: -0.14258916676044464
visibility: 0.999875545501709
","x: 207.64718627929688
y: 295.6496276855469
z: -0.1448487788438797
visibility: 0.9998405575752258
","x: 225.72056579589844
y: 320.37481689453125
z: -0.02569166198372841
visibility: 0.9999487996101379
","x: 192.76553344726562
y: 321.26422119140625
z: -0.047089748084545135
visibility: 0.9998811483383179
","x: 236.3788299560547
y: 343.1863098144531
z: -0.15884627401828766
visibility: 0.8085911870002747
","x: 187.0493621826172
y: 361.56121826171875
z: -0.17832908034324646
visibility: 0.7194033861160278
","x: 234.71548461914062
y: 339.80291748046875
z: -0.3917972147464752
visibility: 0.7414973378181458
","x: 195.93788146972656
y: 382.982666015625
z: -0.329274445772171
visibility: 0.7059311866760254
","x: 234.3562774658203
y: 339.9804382324219
z: -0.44281378388404846
visibility: 0.7135463356971741
","x: 196.52572631835938
y: 389.3344421386719
z: -0.36892715096473694
visibility: 0.6874117851257324
","x: 232.74166870117188
y: 336.408447265625
z: -0.44665950536727905
visibility: 0.7163385152816772
","x: 199.81381225585938
y: 386.1407775878906
z: -0.37328869104385376
visibility: 0.6888881325721741
","x: 231.41134643554688
y: 336.7694091796875
z: -0.40007561445236206
visibility: 0.6765562891960144
","x: 200.29898071289062
y: 383.5888977050781
z: -0.3349933922290802
visibility: 0.6812642216682434
","x: 225.3848876953125
y: 409.7812194824219
z: 0.020378686487674713
visibility: 0.9997461438179016
","x: 203.4225311279297
y: 406.75848388671875
z: -0.020131690427660942
visibility: 0.9997739791870117
","x: 233.1559295654297
y: 460.3506774902344
z: -0.18337616324424744
visibility: 0.9645838737487793
","x: 201.1596221923828
y: 465.03411865234375
z: -0.00807485543191433
visibility: 0.9436447024345398
","x: 236.20846557617188
y: 522.57373046875
z: -0.1053471714258194
visibility: 0.9635416865348816
","x: 190.7336883544922
y: 518.2542114257812
z: 0.14504581689834595
visibility: 0.9711611866950989
","x: 233.5304718017578
y: 531.9948120117188
z: -0.103615902364254
visibility: 0.8615075945854187
","x: 191.79928588867188
y: 523.9580688476562
z: 0.15330097079277039
visibility: 0.8809715509414673
","x: 241.535400390625
y: 544.107177734375
z: -0.22726646065711975
visibility: 0.9464744329452515
","x: 183.11375427246094
y: 540.2424926757812
z: 0.05049626901745796
visibility: 0.9486129283905029
",,,,,,,,,,,,,,,,,,,,,,,,,,,,,,,,,,,,,,,,,,
15,"x: 209.8963623046875
y: 288.2501525878906
z: -0.18523767590522766
visibility: 0.9995338320732117
","x: 211.81179809570312
y: 281.67730712890625
z: -0.18126614391803741
visibility: 0.9994606971740723
","x: 213.1886444091797
y: 281.5809020996094
z: -0.18115147948265076
visibility: 0.9994138479232788
","x: 214.4974822998047
y: 281.5360412597656
z: -0.18098120391368866
visibility: 0.9994438886642456
","x: 208.21746826171875
y: 282.0400390625
z: -0.1933763176202774
visibility: 0.9992480874061584
","x: 207.0751953125
y: 282.2598571777344
z: -0.1932278573513031
visibility: 0.9990538954734802
","x: 205.82666015625
y: 282.5939636230469
z: -0.19307014346122742
visibility: 0.9991723895072937
","x: 217.02137756347656
y: 284.5019226074219
z: -0.12306605279445648
visibility: 0.9993602633476257
","x: 204.19247436523438
y: 286.3815002441406
z: -0.11823433637619019
visibility: 0.9988616704940796
","x: 212.43484497070312
y: 294.31964111328125
z: -0.16531437635421753
visibility: 0.999710202217102
","x: 208.2819366455078
y: 294.8947448730469
z: -0.17421750724315643
visibility: 0.9996410608291626
","x: 227.78500366210938
y: 319.4369812011719
z: -0.11159010976552963
visibility: 0.9998870491981506
","x: 195.52359008789062
y: 320.68377685546875
z: -0.07374574989080429
visibility: 0.9997344017028809
","x: 232.46282958984375
y: 356.2728271484375
z: -0.1797783225774765
visibility: 0.8229132890701294
","x: 186.65396118164062
y: 346.5910339355469
z: -0.1850181668996811
visibility: 0.7356881499290466
","x: 212.37965393066406
y: 374.4532775878906
z: -0.27890872955322266
visibility: 0.7495134472846985
","x: 194.50318908691406
y: 325.83294677734375
z: -0.3652581572532654
visibility: 0.702609121799469
","x: 207.0333251953125
y: 385.20562744140625
z: -0.31274694204330444
visibility: 0.7103920578956604
","x: 196.51087951660156
y: 322.92462158203125
z: -0.40473848581314087
visibility: 0.6726096868515015
","x: 205.04330444335938
y: 375.7891540527344
z: -0.38426223397254944
visibility: 0.7120039463043213
","x: 198.2640380859375
y: 319.875
z: -0.3998052477836609
visibility: 0.6718252301216125
","x: 205.94451904296875
y: 366.5336608886719
z: -0.29498523473739624
visibility: 0.665855884552002
","x: 198.09613037109375
y: 321.89715576171875
z: -0.36847978830337524
visibility: 0.6587467193603516
","x: 223.36793518066406
y: 407.93048095703125
z: 0.0007244247244670987
visibility: 0.9997451901435852
","x: 201.66529846191406
y: 404.85845947265625
z: -0.0007468434050679207
visibility: 0.9997768402099609
","x: 234.46864318847656
y: 464.1467590332031
z: -0.0871899351477623
visibility: 0.9677518606185913
","x: 192.395751953125
y: 461.38726806640625
z: -0.09163409471511841
visibility: 0.9490585327148438
","x: 236.02252197265625
y: 521.8462524414062
z: 0.11170437186956406
visibility: 0.9668077826499939
","x: 182.86773681640625
y: 515.9168090820312
z: 0.07188882678747177
visibility: 0.9737790822982788
","x: 233.69204711914062
y: 531.1981811523438
z: 0.12279503047466278
visibility: 0.8614054918289185
","x: 183.90890502929688
y: 522.337890625
z: 0.08289758861064911
visibility: 0.8841423988342285
","x: 240.65794372558594
y: 543.7476806640625
z: 0.005351596511900425
visibility: 0.9506641626358032
","x: 178.39207458496094
y: 538.7816772460938
z: -0.025299733504652977
visibility: 0.9531728029251099
",,,,,,,,,,,,,,,,,,,,,,,,,,,,,,,,,,,,,,,,,,
16,"x: 208.21743774414062
y: 287.78338623046875
z: -0.18618538975715637
visibility: 0.9991763830184937
","x: 210.1211700439453
y: 281.38592529296875
z: -0.17451614141464233
visibility: 0.9988658428192139
","x: 211.36221313476562
y: 281.35028076171875
z: -0.1745448112487793
visibility: 0.9988024830818176
","x: 212.63941955566406
y: 281.3684387207031
z: -0.17456582188606262
visibility: 0.9987887144088745
","x: 206.581787109375
y: 281.63079833984375
z: -0.17105145752429962
visibility: 0.9985287189483643
","x: 205.34983825683594
y: 281.8017272949219
z: -0.17106759548187256
visibility: 0.9983417391777039
","x: 204.07569885253906
y: 282.0876770019531
z: -0.17108891904354095
visibility: 0.9984193444252014
","x: 215.4059295654297
y: 284.27545166015625
z: -0.09210516512393951
visibility: 0.998555600643158
","x: 202.6227569580078
y: 285.79498291015625
z: -0.07136256247758865
visibility: 0.9973006248474121
","x: 210.71006774902344
y: 293.95556640625
z: -0.1542392075061798
visibility: 0.9993211627006531
","x: 206.3793182373047
y: 294.32244873046875
z: -0.14946210384368896
visibility: 0.9991891980171204
","x: 226.1531524658203
y: 318.0772705078125
z: -0.07327938079833984
visibility: 0.9998079538345337
","x: 194.28562927246094
y: 320.18231201171875
z: -0.022987423464655876
visibility: 0.9995747804641724
","x: 229.40989685058594
y: 356.3412780761719
z: -0.15968574583530426
visibility: 0.8345007300376892
","x: 187.13442993164062
y: 344.8223876953125
z: -0.13195689022541046
visibility: 0.7412330508232117
","x: 204.72720336914062
y: 368.5905456542969
z: -0.2633853852748871
visibility: 0.7591984272003174
","x: 197.30007934570312
y: 329.87579345703125
z: -0.34630778431892395
visibility: 0.6928556561470032
","x: 198.5198211669922
y: 376.5350036621094
z: -0.29366612434387207
visibility: 0.7138227820396423
","x: 200.04904174804688
y: 328.7003173828125
z: -0.36578184366226196
visibility: 0.6557160019874573
","x: 196.50462341308594
y: 365.60467529296875
z: -0.32897764444351196
visibility: 0.714581310749054
","x: 201.31655883789062
y: 325.0185852050781
z: -0.3629703223705292
visibility: 0.6533486843109131
","x: 198.01571655273438
y: 362.7048034667969
z: -0.26847371459007263
visibility: 0.6625615954399109
","x: 200.71202087402344
y: 326.51202392578125
z: -0.34967029094696045
visibility: 0.6342424154281616
","x: 220.03512573242188
y: 407.53253173828125
z: -0.004161744844168425
visibility: 0.9997392296791077
","x: 198.0365447998047
y: 405.7733459472656
z: 0.004152038134634495
visibility: 0.9997656941413879
","x: 230.48110961914062
y: 465.79705810546875
z: -0.06974664330482483
visibility: 0.9705266356468201
","x: 187.21107482910156
y: 463.1827087402344
z: -0.08545681089162827
visibility: 0.9539598226547241
","x: 235.08718872070312
y: 522.0863037109375
z: 0.11042841523885727
visibility: 0.9696624875068665
","x: 177.5708465576172
y: 522.6160278320312
z: 0.051430393010377884
visibility: 0.9761735796928406
","x: 232.81756591796875
y: 530.70947265625
z: 0.12072634696960449
visibility: 0.8622424006462097
","x: 178.23277282714844
y: 529.4675903320312
z: 0.06027635931968689
visibility: 0.8867201805114746
","x: 240.73046875
y: 544.6134643554688
z: 0.014005735516548157
visibility: 0.9542529582977295
","x: 174.05516052246094
y: 541.2120361328125
z: -0.04348961263895035
visibility: 0.9572903513908386
",,,,,,,,,,,,,,,,,,,,,,,,,,,,,,,,,,,,,,,,,,
17,"x: 207.87399291992188
y: 284.8701171875
z: -0.21440021693706512
visibility: 0.9992556571960449
","x: 209.4420623779297
y: 278.22119140625
z: -0.20194682478904724
visibility: 0.99897301197052
","x: 210.58731079101562
y: 278.1741943359375
z: -0.2019713819026947
visibility: 0.9989168047904968
","x: 211.94151306152344
y: 278.2654113769531
z: -0.20200371742248535
visibility: 0.998903214931488
","x: 206.31370544433594
y: 278.7864990234375
z: -0.20016081631183624
visibility: 0.9986637830734253
","x: 204.7796173095703
y: 279.07464599609375
z: -0.2001912146806717
visibility: 0.9984942674636841
","x: 203.35931396484375
y: 279.41259765625
z: -0.20020535588264465
visibility: 0.9985611438751221
","x: 215.22166442871094
y: 281.1353454589844
z: -0.11591926962137222
visibility: 0.998691201210022
","x: 201.64401245117188
y: 282.9116516113281
z: -0.10567452013492584
visibility: 0.997545063495636
","x: 209.96607971191406
y: 290.7080078125
z: -0.18120279908180237
visibility: 0.9993835091590881
","x: 205.6180877685547
y: 292.19586181640625
z: -0.17863628268241882
visibility: 0.9992623925209045
","x: 224.35147094726562
y: 315.2695007324219
z: -0.07277893275022507
visibility: 0.9998226761817932
","x: 190.35943603515625
y: 317.5171203613281
z: -0.04595974087715149
visibility: 0.999602735042572
","x: 228.556396484375
y: 355.71527099609375
z: -0.14768441021442413
visibility: 0.847064197063446
","x: 175.33677673339844
y: 343.3829040527344
z: -0.11697307974100113
visibility: 0.7667924165725708
","x: 230.4601593017578
y: 354.66741943359375
z: -0.3312244713306427
visibility: 0.7819405198097229
","x: 158.81466674804688
y: 322.79840087890625
z: -0.3095996081829071
visibility: 0.7233689427375793
","x: 234.08966064453125
y: 355.52691650390625
z: -0.36815279722213745
visibility: 0.7400553226470947
","x: 152.17588806152344
y: 318.69635009765625
z: -0.3395950198173523
visibility: 0.6895343065261841
","x: 232.60610961914062
y: 349.933349609375
z: -0.3851255178451538
visibility: 0.7410052418708801
","x: 153.0920867919922
y: 310.7183532714844
z: -0.3468098044395447
visibility: 0.6874319911003113
","x: 230.9356689453125
y: 349.6039123535156
z: -0.34233105182647705
visibility: 0.6933450102806091
","x: 156.0714111328125
y: 312.5533447265625
z: -0.32087191939353943
visibility: 0.6700125932693481
","x: 219.8863983154297
y: 406.9508056640625
z: -0.002015952719375491
visibility: 0.9997521638870239
","x: 195.34686279296875
y: 404.88153076171875
z: 0.0019934677984565496
visibility: 0.9997674822807312
","x: 229.597900390625
y: 465.0601501464844
z: -0.11210358142852783
visibility: 0.9731264114379883
","x: 185.83851623535156
y: 461.45849609375
z: -0.10376401990652084
visibility: 0.958405613899231
","x: 228.04354858398438
y: 519.7177734375
z: 0.03112737275660038
visibility: 0.9723409414291382
","x: 175.417724609375
y: 522.406494140625
z: 0.028737816959619522
visibility: 0.9782747030258179
","x: 224.6387939453125
y: 529.5573120117188
z: 0.039914797991514206
visibility: 0.8724747896194458
","x: 175.94775390625
y: 529.712158203125
z: 0.03724195063114166
visibility: 0.8911891579627991
","x: 236.92286682128906
y: 543.713623046875
z: -0.06069453805685043
visibility: 0.9581258893013
","x: 173.2263641357422
y: 541.7080078125
z: -0.06706376373767853
visibility: 0.9609952569007874
",,,,,,,,,,,,,,,,,,,,,,,,,,,,,,,,,,,,,,,,,,
18,"x: 207.1447296142578
y: 290.14910888671875
z: -0.3065193295478821
visibility: 0.9993191361427307
","x: 208.74951171875
y: 281.87860107421875
z: -0.2948743402957916
visibility: 0.9990506768226624
","x: 209.89984130859375
y: 281.15618896484375
z: -0.2949349582195282
visibility: 0.99900221824646
","x: 211.2403106689453
y: 280.58709716796875
z: -0.29500383138656616
visibility: 0.998985230922699
","x: 206.05284118652344
y: 283.4604187011719
z: -0.2939431071281433
visibility: 0.9987542629241943
","x: 203.99276733398438
y: 283.80902099609375
z: -0.2939956486225128
visibility: 0.9985982179641724
","x: 202.41317749023438
y: 284.18658447265625
z: -0.29399022459983826
visibility: 0.9986447691917419
","x: 214.400634765625
y: 281.7928466796875
z: -0.19537997245788574
visibility: 0.9987930059432983
","x: 200.0984344482422
y: 285.8306579589844
z: -0.19050602614879608
visibility: 0.9977249503135681
","x: 209.3045196533203
y: 295.7958679199219
z: -0.2668101489543915
visibility: 0.9994351863861084
","x: 205.25184631347656
y: 298.6156005859375
z: -0.26536643505096436
visibility: 0.9993196129798889
","x: 224.0037078857422
y: 314.5003967285156
z: -0.12894660234451294
visibility: 0.9998376369476318
","x: 187.47462463378906
y: 317.41436767578125
z: -0.1131778359413147
visibility: 0.9996167421340942
","x: 234.21726989746094
y: 347.9468078613281
z: -0.22656850516796112
visibility: 0.8605125546455383
","x: 168.06964111328125
y: 341.58453369140625
z: -0.21652615070343018
visibility: 0.7894735932350159
","x: 240.33770751953125
y: 360.4867248535156
z: -0.4204327166080475
visibility: 0.8019294142723083
","x: 151.06138610839844
y: 328.7654113769531
z: -0.42032915353775024
visibility: 0.7497669458389282
","x: 242.4986114501953
y: 362.6373291015625
z: -0.46136340498924255
visibility: 0.7627368569374084
","x: 148.03704833984375
y: 325.4414367675781
z: -0.46014922857284546
visibility: 0.71783047914505
","x: 239.57672119140625
y: 351.053466796875
z: -0.47658950090408325
visibility: 0.7639266848564148
","x: 149.6940460205078
y: 322.04962158203125
z: -0.4718363881111145
visibility: 0.7160144448280334
","x: 238.2351837158203
y: 354.0596008300781
z: -0.43120306730270386
visibility: 0.7201511263847351
","x: 150.84304809570312
y: 323.5793762207031
z: -0.43129587173461914
visibility: 0.6994178295135498
","x: 217.4971160888672
y: 408.2873840332031
z: 0.0011058116797357798
visibility: 0.9997617602348328
","x: 194.93820190429688
y: 405.35992431640625
z: -0.001062785740941763
visibility: 0.9997621774673462
","x: 220.2613067626953
y: 467.54937744140625
z: -0.08436261117458344
visibility: 0.9741367101669312
","x: 184.4840850830078
y: 461.7669982910156
z: -0.10566441714763641
visibility: 0.9620567560195923
","x: 210.84503173828125
y: 520.7088623046875
z: 0.10609579086303711
visibility: 0.9728434085845947
","x: 174.44219970703125
y: 521.14013671875
z: 0.04244203120470047
visibility: 0.9796672463417053
","x: 206.6997833251953
y: 530.5322875976562
z: 0.12020327895879745
visibility: 0.8763444423675537
","x: 174.9053955078125
y: 527.6890258789062
z: 0.05222085118293762
visibility: 0.8914362192153931
","x: 222.5625
y: 543.4776000976562
z: 0.028935635462403297
visibility: 0.9594416618347168
","x: 173.8582305908203
y: 542.0494995117188
z: -0.05404970794916153
visibility: 0.9637608528137207
",,,,,,,,,,,,,,,,,,,,,,,,,,,,,,,,,,,,,,,,,,
19,"x: 209.78419494628906
y: 278.43267822265625
z: -0.19354096055030823
visibility: 0.9993834495544434
","x: 211.45606994628906
y: 273.21343994140625
z: -0.17412903904914856
visibility: 0.9991374611854553
","x: 212.4224395751953
y: 273.54400634765625
z: -0.174148291349411
visibility: 0.9990912675857544
","x: 213.47671508789062
y: 273.9043273925781
z: -0.17411725223064423
visibility: 0.9990735054016113
","x: 208.70420837402344
y: 272.29022216796875
z: -0.18482235074043274
visibility: 0.9988722205162048
","x: 207.284423828125
y: 272.0706481933594
z: -0.1848449409008026
visibility: 0.9987325668334961
","x: 205.90420532226562
y: 271.853759765625
z: -0.1849154531955719
visibility: 0.9987744688987732
","x: 214.60643005371094
y: 277.5499572753906
z: -0.0611410066485405
visibility: 0.9988394379615784
","x: 202.8583526611328
y: 275.00616455078125
z: -0.11336185783147812
visibility: 0.997946560382843
","x: 210.80662536621094
y: 285.27166748046875
z: -0.15019312500953674
visibility: 0.9994801878929138
","x: 207.07188415527344
y: 284.55792236328125
z: -0.16524550318717957
visibility: 0.9993844032287598
","x: 223.88653564453125
y: 315.00738525390625
z: 0.036988694220781326
visibility: 0.9998414516448975
","x: 189.0399932861328
y: 310.04388427734375
z: -0.10329059511423111
visibility: 0.999653697013855
","x: 233.31005859375
y: 349.45703125
z: 0.05473840981721878
visibility: 0.844021201133728
","x: 173.029296875
y: 342.1697998046875
z: -0.19127559661865234
visibility: 0.810259222984314
","x: 238.1689910888672
y: 361.771240234375
z: -0.08410809934139252
visibility: 0.8145413994789124
","x: 192.3200225830078
y: 333.95977783203125
z: -0.3584102690219879
visibility: 0.7744193077087402
","x: 243.42959594726562
y: 366.2161560058594
z: -0.11070289462804794
visibility: 0.7778555154800415
","x: 197.68772888183594
y: 341.53912353515625
z: -0.3938482701778412
visibility: 0.7451529502868652
","x: 243.55276489257812
y: 355.87200927734375
z: -0.13669545948505402
visibility: 0.7799686193466187
","x: 199.53948974609375
y: 330.644287109375
z: -0.40609756112098694
visibility: 0.7434602379798889
","x: 241.02487182617188
y: 356.96435546875
z: -0.0988127738237381
visibility: 0.7387279272079468
","x: 198.0775146484375
y: 325.15496826171875
z: -0.3735549747943878
visibility: 0.7276918888092041
","x: 216.82208251953125
y: 407.7912902832031
z: 0.044878341257572174
visibility: 0.9997669458389282
","x: 197.24964904785156
y: 405.32080078125
z: -0.044919613748788834
visibility: 0.9997764229774475
","x: 215.1102752685547
y: 466.70831298828125
z: 0.08900482952594757
visibility: 0.9709683060646057
","x: 193.65147399902344
y: 461.136962890625
z: -0.09107815474271774
visibility: 0.9653186798095703
","x: 209.65011596679688
y: 524.630859375
z: 0.2374454289674759
visibility: 0.9735991954803467
","x: 177.96908569335938
y: 519.3330078125
z: 0.015600403770804405
visibility: 0.9811065196990967
","x: 205.44273376464844
y: 535.3472290039062
z: 0.24693167209625244
visibility: 0.8835142850875854
","x: 174.61642456054688
y: 527.66943359375
z: 0.020826134830713272
visibility: 0.8936784267425537
","x: 221.12567138671875
y: 543.6585083007812
z: 0.16875632107257843
visibility: 0.9617369771003723
","x: 187.8836669921875
y: 543.300537109375
z: -0.08708398789167404
visibility: 0.9666153788566589
",,,,,,,,,,,,,,,,,,,,,,,,,,,,,,,,,,,,,,,,,,
20,"x: 219.79217529296875
y: 280.1673583984375
z: -0.07514410465955734
visibility: 0.9989977478981018
","x: 220.1689910888672
y: 273.5582275390625
z: -0.06322133541107178
visibility: 0.9981194138526917
","x: 220.00404357910156
y: 273.6471862792969
z: -0.06323088705539703
visibility: 0.9979263544082642
","x: 219.7864532470703
y: 274.2842712402344
z: -0.06319938600063324
visibility: 0.9979718923568726
","x: 219.5437774658203
y: 273.3322448730469
z: -0.08982878923416138
visibility: 0.9982596039772034
","x: 218.88087463378906
y: 273.64532470703125
z: -0.08986111730337143
visibility: 0.9982307553291321
","x: 218.10443115234375
y: 273.6207275390625
z: -0.08997423946857452
visibility: 0.9982864260673523
","x: 216.09947204589844
y: 276.1022644042969
z: 0.00752071151509881
visibility: 0.993696928024292
","x: 212.50271606445312
y: 273.504638671875
z: -0.11303335428237915
visibility: 0.9975908994674683
","x: 217.3794708251953
y: 285.9417419433594
z: -0.045635201036930084
visibility: 0.9985138177871704
","x: 216.45895385742188
y: 286.27105712890625
z: -0.08138453215360641
visibility: 0.999061107635498
","x: 217.2520294189453
y: 310.1790771484375
z: 0.09506846964359283
visibility: 0.9996973872184753
","x: 193.00814819335938
y: 299.0316467285156
z: -0.15154697000980377
visibility: 0.9996843338012695
","x: 222.52125549316406
y: 348.4532165527344
z: 0.12309247255325317
visibility: 0.7679564356803894
","x: 181.1894989013672
y: 340.0387878417969
z: -0.2290632426738739
visibility: 0.8285630941390991
","x: 230.75331115722656
y: 372.7803955078125
z: 0.03346586972475052
visibility: 0.7549422979354858
","x: 205.3461151123047
y: 359.6260986328125
z: -0.3112024962902069
visibility: 0.7956027984619141
","x: 231.73336791992188
y: 388.1373596191406
z: 0.023228636011481285
visibility: 0.7252286076545715
","x: 209.03536987304688
y: 370.7721252441406
z: -0.3442310690879822
visibility: 0.768294632434845
","x: 238.91754150390625
y: 379.43988037109375
z: 0.0012630929704755545
visibility: 0.7291826009750366
","x: 212.0360870361328
y: 365.31744384765625
z: -0.33541208505630493
visibility: 0.7665984630584717
","x: 235.36468505859375
y: 374.207763671875
z: 0.02122039720416069
visibility: 0.6911599040031433
","x: 211.48147583007812
y: 360.76092529296875
z: -0.3072710931301117
visibility: 0.7496507167816162
","x: 215.4512481689453
y: 403.3856506347656
z: 0.07992925494909286
visibility: 0.999591588973999
","x: 197.5175018310547
y: 401.79815673828125
z: -0.07994052767753601
visibility: 0.9996462464332581
","x: 212.6226043701172
y: 463.880859375
z: 0.11033078283071518
visibility: 0.9383327960968018
","x: 202.26687622070312
y: 461.1206359863281
z: -0.06750647723674774
visibility: 0.9661115407943726
","x: 208.26710510253906
y: 525.044677734375
z: 0.20301227271556854
visibility: 0.9631296396255493
","x: 193.25840759277344
y: 524.8408203125
z: 0.037509333342313766
visibility: 0.9813421964645386
","x: 204.0015869140625
y: 535.253662109375
z: 0.20789900422096252
visibility: 0.8839628100395203
","x: 187.08056640625
y: 534.8310546875
z: 0.04362669959664345
visibility: 0.896597146987915
","x: 222.19358825683594
y: 542.907470703125
z: 0.15002518892288208
visibility: 0.959240198135376
","x: 204.2213134765625
y: 544.5678100585938
z: -0.062448836863040924
visibility: 0.9681954383850098
",,,,,,,,,,,,,,,,,,,,,,,,,,,,,,,,,,,,,,,,,,
21,"x: 222.82913208007812
y: 285.6240234375
z: -0.11055877059698105
visibility: 0.998319149017334
","x: 223.64842224121094
y: 279.798095703125
z: -0.09700661897659302
visibility: 0.9963912963867188
","x: 223.74691772460938
y: 279.515625
z: -0.09704507887363434
visibility: 0.9962517023086548
","x: 223.7664794921875
y: 279.32623291015625
z: -0.0970558449625969
visibility: 0.9962296485900879
","x: 222.3371124267578
y: 278.4893493652344
z: -0.1198408454656601
visibility: 0.9964000582695007
","x: 221.5177459716797
y: 277.49359130859375
z: -0.11986315250396729
visibility: 0.9966723322868347
","x: 220.6040496826172
y: 276.2097473144531
z: -0.11995583772659302
visibility: 0.9964441657066345
","x: 220.07220458984375
y: 276.802734375
z: -0.015643691644072533
visibility: 0.9872687458992004
","x: 215.4449462890625
y: 275.1367492675781
z: -0.11920253932476044
visibility: 0.9958025217056274
","x: 221.06991577148438
y: 289.1897888183594
z: -0.07694397866725922
visibility: 0.9969469308853149
","x: 219.44378662109375
y: 288.1457824707031
z: -0.10743516683578491
visibility: 0.9978974461555481
","x: 217.7732391357422
y: 311.22113037109375
z: 0.08027713000774384
visibility: 0.9995896220207214
","x: 197.8752899169922
y: 296.1258850097656
z: -0.15466609597206116
visibility: 0.9997014403343201
","x: 221.28868103027344
y: 353.801513671875
z: 0.11770220845937729
visibility: 0.6990960240364075
","x: 193.0408935546875
y: 343.66033935546875
z: -0.20274929702281952
visibility: 0.8433011174201965
","x: 225.44017028808594
y: 390.72747802734375
z: 0.04934713616967201
visibility: 0.6925481557846069
","x: 208.68736267089844
y: 378.3705139160156
z: -0.2365032434463501
visibility: 0.8087038397789001
","x: 226.3581085205078
y: 402.3722839355469
z: 0.041617680341005325
visibility: 0.666321873664856
","x: 212.55418395996094
y: 391.4715576171875
z: -0.2657596468925476
visibility: 0.7803690433502197
","x: 228.46397399902344
y: 400.7984619140625
z: 0.016980286687612534
visibility: 0.671290397644043
","x: 215.06777954101562
y: 387.7235412597656
z: -0.26521939039230347
visibility: 0.7786158323287964
","x: 226.86131286621094
y: 396.071044921875
z: 0.0366302989423275
visibility: 0.636897087097168
","x: 213.02777099609375
y: 384.64971923828125
z: -0.23564931750297546
visibility: 0.7558426260948181
","x: 213.74407958984375
y: 402.2893981933594
z: 0.07281994819641113
visibility: 0.9994905591011047
","x: 196.25665283203125
y: 400.9309387207031
z: -0.07275643199682236
visibility: 0.9995099902153015
","x: 212.374267578125
y: 463.78106689453125
z: 0.07329021394252777
visibility: 0.9076340794563293
","x: 202.09266662597656
y: 462.2200927734375
z: -0.06615110486745834
visibility: 0.9644728899002075
","x: 208.0760498046875
y: 525.8002319335938
z: 0.17645129561424255
visibility: 0.9491075873374939
","x: 194.6021270751953
y: 525.2630615234375
z: 0.04136399179697037
visibility: 0.9790955185890198
","x: 204.07022094726562
y: 535.6929931640625
z: 0.18222804367542267
visibility: 0.8798395395278931
","x: 189.6934051513672
y: 535.78564453125
z: 0.049658503383398056
visibility: 0.8902696371078491
","x: 222.46871948242188
y: 542.96875
z: 0.11841251701116562
visibility: 0.9530814290046692
","x: 205.93899536132812
y: 548.5874633789062
z: -0.02342728152871132
visibility: 0.967426061630249
",,,,,,,,,,,,,,,,,,,,,,,,,,,,,,,,,,,,,,,,,,
22,"x: 230.04579162597656
y: 301.23583984375
z: -0.13818512856960297
visibility: 0.9957137107849121
","x: 229.95762634277344
y: 295.3922119140625
z: -0.12912732362747192
visibility: 0.9905332922935486
","x: 229.58750915527344
y: 294.8062438964844
z: -0.12916365265846252
visibility: 0.9922840595245361
","x: 229.10006713867188
y: 294.1053466796875
z: -0.12915094196796417
visibility: 0.9913974404335022
","x: 229.56100463867188
y: 295.3935546875
z: -0.1565207540988922
visibility: 0.9905993342399597
","x: 229.0172119140625
y: 295.0062255859375
z: -0.15656778216362
visibility: 0.9923273324966431
","x: 228.39537048339844
y: 294.56219482421875
z: -0.15665674209594727
visibility: 0.9904706478118896
","x: 222.9442596435547
y: 290.65191650390625
z: -0.06339097768068314
visibility: 0.9769964814186096
","x: 222.43922424316406
y: 292.9969482421875
z: -0.21335427463054657
visibility: 0.9913089275360107
","x: 226.8277130126953
y: 304.3330993652344
z: -0.11226366460323334
visibility: 0.9895273447036743
","x: 226.2595672607422
y: 303.8240966796875
z: -0.14444449543952942
visibility: 0.9932686686515808
","x: 213.3470458984375
y: 311.99273681640625
z: 0.01616648957133293
visibility: 0.999472975730896
","x: 200.80703735351562
y: 315.12548828125
z: -0.24654659628868103
visibility: 0.9997172355651855
","x: 200.59600830078125
y: 362.5522155761719
z: 0.04706565663218498
visibility: 0.6328256130218506
","x: 197.21080017089844
y: 378.1214599609375
z: -0.2527976632118225
visibility: 0.8566604256629944
","x: 202.65406799316406
y: 403.0125427246094
z: 0.0035047284327447414
visibility: 0.6282162666320801
","x: 208.4435577392578
y: 410.384765625
z: -0.23498666286468506
visibility: 0.8226756453514099
","x: 200.77456665039062
y: 416.59136962890625
z: -0.0012845287565141916
visibility: 0.6050125956535339
","x: 211.15951538085938
y: 420.7295227050781
z: -0.2596391439437866
visibility: 0.7943016886711121
","x: 202.57351684570312
y: 415.6700134277344
z: -0.016258511692285538
visibility: 0.6100619435310364
","x: 211.817138671875
y: 418.32281494140625
z: -0.25835466384887695
visibility: 0.792991578578949
","x: 202.17648315429688
y: 410.39599609375
z: -0.005375861655920744
visibility: 0.5791109800338745
","x: 210.70907592773438
y: 414.9737243652344
z: -0.2329142987728119
visibility: 0.7657052874565125
","x: 207.5590057373047
y: 408.3114013671875
z: 0.07676802575588226
visibility: 0.9994947910308838
","x: 195.4352569580078
y: 411.4559631347656
z: -0.07680224627256393
visibility: 0.9995064735412598
","x: 210.17120361328125
y: 464.0788269042969
z: 0.1713123619556427
visibility: 0.8700746297836304
","x: 201.40789794921875
y: 469.2564697265625
z: 0.052964866161346436
visibility: 0.9619438052177429
","x: 207.18421936035156
y: 525.343017578125
z: 0.31035080552101135
visibility: 0.9330429434776306
","x: 195.7197265625
y: 524.5960083007812
z: 0.2396271675825119
visibility: 0.9761093258857727
","x: 202.74456787109375
y: 535.2362670898438
z: 0.3210980296134949
visibility: 0.8657251596450806
","x: 190.30850219726562
y: 535.5908813476562
z: 0.2546106278896332
visibility: 0.883762001991272
","x: 221.7570037841797
y: 542.9078979492188
z: 0.2741824686527252
visibility: 0.9491051435470581
","x: 209.39419555664062
y: 545.7764892578125
z: 0.19232381880283356
visibility: 0.9668106436729431
",,,,,,,,,,,,,,,,,,,,,,,,,,,,,,,,,,,,,,,,,,
23,"x: 227.2991485595703
y: 308.5509948730469
z: -0.1495136171579361
visibility: 0.9957484006881714
","x: 227.5670928955078
y: 301.9190673828125
z: -0.14124885201454163
visibility: 0.9908389449119568
","x: 227.35214233398438
y: 301.462646484375
z: -0.14126767218112946
visibility: 0.9924678802490234
","x: 227.0614471435547
y: 300.947998046875
z: -0.14125224947929382
visibility: 0.9917506575584412
","x: 227.15541076660156
y: 301.96124267578125
z: -0.1688234508037567
visibility: 0.9909045696258545
","x: 226.71047973632812
y: 301.62396240234375
z: -0.1688654124736786
visibility: 0.9925443530082703
","x: 226.23143005371094
y: 301.2876281738281
z: -0.16893717646598816
visibility: 0.9908477067947388
","x: 221.6156768798828
y: 297.9689636230469
z: -0.07555324584245682
visibility: 0.9779760837554932
","x: 220.7111358642578
y: 299.56494140625
z: -0.23620948195457458
visibility: 0.9915391802787781
","x: 224.74139404296875
y: 313.1454772949219
z: -0.12517113983631134
visibility: 0.9897720217704773
","x: 224.1453857421875
y: 312.9793395996094
z: -0.15336473286151886
visibility: 0.993405282497406
","x: 207.5206298828125
y: 316.11297607421875
z: 0.002703748643398285
visibility: 0.9993568062782288
","x: 204.90478515625
y: 321.75299072265625
z: -0.2768377661705017
visibility: 0.9997302293777466
","x: 200.86062622070312
y: 375.2960205078125
z: 0.04343155771493912
visibility: 0.5750133991241455
","x: 203.0091552734375
y: 381.4735107421875
z: -0.2996298670768738
visibility: 0.86917644739151
","x: 207.45616149902344
y: 421.6181945800781
z: 0.01891724206507206
visibility: 0.577565610408783
","x: 205.7530517578125
y: 430.943359375
z: -0.25830650329589844
visibility: 0.8379223346710205
","x: 210.06199645996094
y: 432.8160095214844
z: 0.023574084043502808
visibility: 0.5576472878456116
","x: 207.2261505126953
y: 442.8464050292969
z: -0.2806343734264374
visibility: 0.8106914162635803
","x: 210.08148193359375
y: 434.1753845214844
z: 0.0002998131385538727
visibility: 0.5629686713218689
","x: 208.04965209960938
y: 443.8880920410156
z: -0.2969227433204651
visibility: 0.8095105290412903
","x: 208.49871826171875
y: 429.227783203125
z: 0.0073463828302919865
visibility: 0.5352014303207397
","x: 207.46298217773438
y: 439.1329345703125
z: -0.25152942538261414
visibility: 0.7811802625656128
","x: 201.17327880859375
y: 409.091796875
z: 0.07707372307777405
visibility: 0.9994668960571289
","x: 194.86813354492188
y: 412.5593566894531
z: -0.07714711874723434
visibility: 0.9994527101516724
","x: 208.477294921875
y: 463.285400390625
z: 0.11135824024677277
visibility: 0.8290857076644897
","x: 200.4609375
y: 473.0313415527344
z: -0.004499500151723623
visibility: 0.953731894493103
","x: 199.7022705078125
y: 524.6459350585938
z: 0.21455004811286926
visibility: 0.9000533819198608
","x: 195.60183715820312
y: 526.2853393554688
z: 0.09464089572429657
visibility: 0.9596530199050903
","x: 193.51950073242188
y: 534.7655639648438
z: 0.22174958884716034
visibility: 0.8354527354240417
","x: 190.0641326904297
y: 538.1146850585938
z: 0.10219746828079224
visibility: 0.8613650798797607
","x: 213.73736572265625
y: 541.8056640625
z: 0.16834715008735657
visibility: 0.9295767545700073
","x: 211.05075073242188
y: 544.5195922851562
z: 0.1592724323272705
visibility: 0.9557684063911438
",,,,,,,,,,,,,,,,,,,,,,,,,,,,,,,,,,,,,,,,,,
24,"x: 225.3038330078125
y: 306.6351318359375
z: -0.13941487669944763
visibility: 0.992406964302063
","x: 225.82191467285156
y: 299.7315673828125
z: -0.12978550791740417
visibility: 0.9852331876754761
","x: 225.86639404296875
y: 299.5931396484375
z: -0.12980876863002777
visibility: 0.9875010251998901
","x: 225.8348846435547
y: 299.40521240234375
z: -0.1298016607761383
visibility: 0.9872058629989624
","x: 224.6887664794922
y: 299.41943359375
z: -0.16087137162685394
visibility: 0.9869922399520874
","x: 223.91317749023438
y: 299.1347961425781
z: -0.1609138548374176
visibility: 0.9893608093261719
","x: 223.0192108154297
y: 298.8283996582031
z: -0.16101409494876862
visibility: 0.9876987338066101
","x: 220.68023681640625
y: 298.0729064941406
z: -0.0721292719244957
visibility: 0.9677449464797974
","x: 217.13983154296875
y: 298.4578857421875
z: -0.2124100923538208
visibility: 0.9877852201461792
","x: 223.53799438476562
y: 312.6059875488281
z: -0.11398124694824219
visibility: 0.9833605289459229
","x: 221.90701293945312
y: 312.0886535644531
z: -0.1531027853488922
visibility: 0.9897453784942627
","x: 209.09210205078125
y: 322.6849670410156
z: 0.020851366221904755
visibility: 0.9986809492111206
","x: 203.3646240234375
y: 324.25830078125
z: -0.25655147433280945
visibility: 0.9997231960296631
","x: 201.6321563720703
y: 375.4922180175781
z: 0.06384162604808807
visibility: 0.5207585692405701
","x: 201.3921661376953
y: 377.253173828125
z: -0.28470009565353394
visibility: 0.8794652819633484
","x: 201.6720428466797
y: 415.7127380371094
z: 0.03147010877728462
visibility: 0.5237869024276733
","x: 209.6819305419922
y: 419.4079284667969
z: -0.2734822928905487
visibility: 0.8461214900016785
","x: 201.34039306640625
y: 428.3385009765625
z: 0.03464139252901077
visibility: 0.5068972706794739
","x: 210.7703399658203
y: 432.1072998046875
z: -0.30093395709991455
visibility: 0.818480372428894
","x: 203.93496704101562
y: 423.5357666015625
z: 0.01528940349817276
visibility: 0.5118947625160217
","x: 212.43539428710938
y: 432.08251953125
z: -0.29887819290161133
visibility: 0.81707763671875
","x: 201.26976013183594
y: 419.3909912109375
z: 0.02146042138338089
visibility: 0.48707789182662964
","x: 211.571044921875
y: 427.5252990722656
z: -0.2701846957206726
visibility: 0.7830877900123596
","x: 198.76844787597656
y: 411.7236022949219
z: 0.08112512528896332
visibility: 0.9990114569664001
","x: 192.12974548339844
y: 412.4508972167969
z: -0.08116764575242996
visibility: 0.9991344213485718
","x: 201.56939697265625
y: 465.39453125
z: 0.13764627277851105
visibility: 0.7710235714912415
","x: 198.78807067871094
y: 473.583984375
z: -0.020675484091043472
visibility: 0.9453945755958557
","x: 195.25204467773438
y: 523.64599609375
z: 0.2396019995212555
visibility: 0.8550865054130554
","x: 194.33358764648438
y: 529.5112915039062
z: 0.08451633155345917
visibility: 0.9535370469093323
","x: 190.310302734375
y: 533.579833984375
z: 0.24650335311889648
visibility: 0.8017383813858032
","x: 189.36973571777344
y: 541.2886962890625
z: 0.09022314101457596
visibility: 0.8576191663742065
","x: 209.14927673339844
y: 537.7191772460938
z: 0.20182828605175018
visibility: 0.9023593664169312
","x: 209.94064331054688
y: 543.7227172851562
z: 0.15195752680301666
visibility: 0.950630247592926
",,,,,,,,,,,,,,,,,,,,,,,,,,,,,,,,,,,,,,,,,,
25,"x: 222.9319610595703
y: 312.2259826660156
z: -0.03222913295030594
visibility: 0.9931166172027588
","x: 223.65707397460938
y: 306.24127197265625
z: -0.01613319292664528
visibility: 0.9866651296615601
","x: 223.86749267578125
y: 306.3795166015625
z: -0.01618475466966629
visibility: 0.9887023568153381
","x: 223.9872283935547
y: 306.5398864746094
z: -0.016238749027252197
visibility: 0.988452136516571
","x: 222.17486572265625
y: 305.5801086425781
z: -0.04117383807897568
visibility: 0.988239049911499
","x: 221.42025756835938
y: 305.2218933105469
z: -0.04119492694735527
visibility: 0.9903687834739685
","x: 220.70970153808594
y: 304.8570556640625
z: -0.04124874994158745
visibility: 0.9888799786567688
","x: 219.9939422607422
y: 307.514892578125
z: 0.05744371935725212
visibility: 0.9708325266838074
","x: 215.73638916015625
y: 305.3130798339844
z: -0.05534221604466438
visibility: 0.9889484643936157
","x: 221.7670440673828
y: 318.9715270996094
z: -0.0028121464420109987
visibility: 0.9848756194114685
","x: 219.73297119140625
y: 318.08392333984375
z: -0.035853806883096695
visibility: 0.9906541109085083
","x: 210.73631286621094
y: 336.8758850097656
z: 0.131350576877594
visibility: 0.9987640380859375
","x: 198.62185668945312
y: 332.0592956542969
z: -0.09986253827810287
visibility: 0.9997309446334839
","x: 210.46188354492188
y: 386.6416015625
z: 0.10975845903158188
visibility: 0.48170748353004456
","x: 196.9904327392578
y: 376.59100341796875
z: -0.1351224035024643
visibility: 0.8716116547584534
","x: 216.8519287109375
y: 390.12762451171875
z: 0.01743023842573166
visibility: 0.49641653895378113
","x: 215.10752868652344
y: 388.6513671875
z: -0.10446113348007202
visibility: 0.8281648755073547
","x: 217.82693481445312
y: 384.1046142578125
z: 0.010478146374225616
visibility: 0.48235660791397095
","x: 218.1973114013672
y: 385.0755615234375
z: -0.11149756610393524
visibility: 0.798298716545105
","x: 217.22422790527344
y: 377.98236083984375
z: 0.011390548199415207
visibility: 0.48727768659591675
","x: 217.83778381347656
y: 381.5704345703125
z: -0.1091994047164917
visibility: 0.7962966561317444
","x: 215.21359252929688
y: 380.9662170410156
z: 0.014334241859614849
visibility: 0.46318525075912476
","x: 215.47518920898438
y: 381.01690673828125
z: -0.10014291852712631
visibility: 0.7542431950569153
","x: 199.07249450683594
y: 413.45318603515625
z: 0.07484583556652069
visibility: 0.9990679621696472
","x: 183.63031005859375
y: 411.8093566894531
z: -0.07489676773548126
visibility: 0.9991778135299683
","x: 203.59323120117188
y: 465.208984375
z: 0.030714208260178566
visibility: 0.7758175730705261
","x: 198.73817443847656
y: 461.6061706542969
z: -0.2213396281003952
visibility: 0.9492601752281189
","x: 196.48941040039062
y: 524.245849609375
z: 0.05333395674824715
visibility: 0.8627543449401855
","x: 172.46249389648438
y: 525.787841796875
z: -0.24207952618598938
visibility: 0.9566925168037415
","x: 192.39944458007812
y: 535.734130859375
z: 0.05141459032893181
visibility: 0.8090090155601501
","x: 162.85194396972656
y: 536.4252319335938
z: -0.2464350461959839
visibility: 0.8626630902290344
","x: 211.67857360839844
y: 539.1419067382812
z: -0.0019077546894550323
visibility: 0.9066154360771179
","x: 184.9901123046875
y: 543.6083984375
z: -0.3229040503501892
visibility: 0.9543280005455017
",,,,,,,,,,,,,,,,,,,,,,,,,,,,,,,,,,,,,,,,,,
26,"x: 220.72354125976562
y: 318.376953125
z: -0.11125197261571884
visibility: 0.9934336543083191
","x: 220.68777465820312
y: 311.3443298339844
z: -0.09843333065509796
visibility: 0.9875104427337646
","x: 220.67697143554688
y: 311.16607666015625
z: -0.09846684336662292
visibility: 0.9893719553947449
","x: 220.67330932617188
y: 311.0018615722656
z: -0.09848973155021667
visibility: 0.9891968369483948
","x: 219.79461669921875
y: 311.06988525390625
z: -0.11747604608535767
visibility: 0.9889890551567078
","x: 219.0197296142578
y: 310.7602233886719
z: -0.11749601364135742
visibility: 0.9909720420837402
","x: 218.14791870117188
y: 310.47686767578125
z: -0.1175575703382492
visibility: 0.9896321892738342
","x: 215.9259033203125
y: 310.71392822265625
z: -0.026565784588456154
visibility: 0.9730486273765564
","x: 211.17442321777344
y: 310.4361572265625
z: -0.15610483288764954
visibility: 0.9896524548530579
","x: 218.5613250732422
y: 324.66326904296875
z: -0.08145605027675629
visibility: 0.9849108457565308
","x: 216.7837371826172
y: 324.1348571777344
z: -0.10294018685817719
visibility: 0.9906567931175232
","x: 202.76959228515625
y: 335.874755859375
z: 0.06621493399143219
visibility: 0.998748779296875
","x: 192.83108520507812
y: 339.7891540527344
z: -0.1979372501373291
visibility: 0.9997005462646484
","x: 195.44606018066406
y: 379.5344543457031
z: 0.18297700583934784
visibility: 0.43728193640708923
","x: 195.50926208496094
y: 382.34307861328125
z: -0.2252545803785324
visibility: 0.8820075392723083
","x: 200.4339599609375
y: 395.1394348144531
z: 0.21305342018604279
visibility: 0.4514034688472748
","x: 214.90443420410156
y: 366.31097412109375
z: -0.2159709483385086
visibility: 0.8390215039253235
","x: 201.6372528076172
y: 399.2550048828125
z: 0.22384266555309296
visibility: 0.44036874175071716
","x: 219.5360870361328
y: 361.0023498535156
z: -0.23844952881336212
visibility: 0.809665858745575
","x: 202.37677001953125
y: 393.65838623046875
z: 0.20475724339485168
visibility: 0.44510412216186523
","x: 219.3585968017578
y: 358.0627746582031
z: -0.2367597073316574
visibility: 0.8077124357223511
","x: 201.713134765625
y: 391.9385986328125
z: 0.20538488030433655
visibility: 0.42391568422317505
","x: 217.27967834472656
y: 358.7738037109375
z: -0.21405117213726044
visibility: 0.7608325481414795
","x: 193.64666748046875
y: 421.0274963378906
z: 0.08046340942382812
visibility: 0.9990800619125366
","x: 177.24154663085938
y: 420.5617980957031
z: -0.0804746076464653
visibility: 0.9991334080696106
","x: 205.20936584472656
y: 466.756103515625
z: 0.03435130417346954
visibility: 0.7650657296180725
","x: 193.38235473632812
y: 468.14111328125
z: -0.14678694307804108
visibility: 0.951101541519165
","x: 197.330322265625
y: 524.9146728515625
z: 0.12001849710941315
visibility: 0.8616899847984314
","x: 168.1966094970703
y: 526.3779296875
z: -0.06715725362300873
visibility: 0.9585190415382385
","x: 193.4300994873047
y: 536.5010986328125
z: 0.12492288649082184
visibility: 0.8088794946670532
","x: 159.8624267578125
y: 536.7523803710938
z: -0.06195121258497238
visibility: 0.8664532899856567
","x: 212.1168975830078
y: 539.6465454101562
z: 0.07214473187923431
visibility: 0.9067635536193848
","x: 182.06712341308594
y: 546.4937744140625
z: -0.12775078415870667
visibility: 0.956427276134491
",,,,,,,,,,,,,,,,,,,,,,,,,,,,,,,,,,,,,,,,,,
27,"x: 217.99258422851562
y: 318.6805114746094
z: -0.15314987301826477
visibility: 0.9940668344497681
","x: 218.78091430664062
y: 311.8191833496094
z: -0.13421496748924255
visibility: 0.9887341856956482
","x: 219.12899780273438
y: 311.67547607421875
z: -0.1342635452747345
visibility: 0.9904050230979919
","x: 219.42979431152344
y: 311.5069580078125
z: -0.13430441915988922
visibility: 0.9902427792549133
","x: 216.62673950195312
y: 311.310791015625
z: -0.15776792168617249
visibility: 0.990068793296814
","x: 215.30369567871094
y: 310.85015869140625
z: -0.15781527757644653
visibility: 0.9918543100357056
","x: 213.708251953125
y: 310.3642883300781
z: -0.15785744786262512
visibility: 0.9906485676765442
","x: 215.36155700683594
y: 311.39520263671875
z: -0.04311712458729744
visibility: 0.975678026676178
","x: 207.4947509765625
y: 310.5061950683594
z: -0.15410557389259338
visibility: 0.9906739592552185
","x: 216.83335876464844
y: 324.4615173339844
z: -0.1109737753868103
visibility: 0.986300528049469
","x: 213.8431854248047
y: 324.0854187011719
z: -0.13979685306549072
visibility: 0.9915287494659424
","x: 205.8726806640625
y: 333.0940246582031
z: 0.07018744200468063
visibility: 0.9988287687301636
","x: 193.0894317626953
y: 335.0768737792969
z: -0.1805209368467331
visibility: 0.9997132420539856
","x: 201.9668426513672
y: 376.9808654785156
z: 0.13798123598098755
visibility: 0.4062024652957916
","x: 194.9868621826172
y: 378.116455078125
z: -0.17567171156406403
visibility: 0.8923947811126709
","x: 204.61448669433594
y: 371.74853515625
z: 0.09395473450422287
visibility: 0.4317123591899872
","x: 211.37538146972656
y: 366.1712341308594
z: -0.12737062573432922
visibility: 0.8514693379402161
","x: 205.76072692871094
y: 367.0595703125
z: 0.09120509028434753
visibility: 0.42154085636138916
","x: 216.06353759765625
y: 361.8003845214844
z: -0.1389712393283844
visibility: 0.8216137290000916
","x: 203.6098175048828
y: 361.6736145019531
z: 0.08009040355682373
visibility: 0.426325261592865
","x: 215.5264434814453
y: 356.2837219238281
z: -0.1430010050535202
visibility: 0.819470226764679
","x: 203.26919555664062
y: 363.0998229980469
z: 0.08720505982637405
visibility: 0.4067537784576416
","x: 213.89439392089844
y: 358.416259765625
z: -0.12522682547569275
visibility: 0.77239990234375
","x: 192.155029296875
y: 417.96343994140625
z: 0.07777436822652817
visibility: 0.9991413950920105
","x: 175.12310791015625
y: 416.8499755859375
z: -0.07774929702281952
visibility: 0.9991642236709595
","x: 204.61956787109375
y: 466.6707763671875
z: 0.03410710394382477
visibility: 0.7770242094993591
","x: 186.51876831054688
y: 472.8556823730469
z: -0.11171405017375946
visibility: 0.9550719261169434
","x: 196.26205444335938
y: 526.6878662109375
z: 0.1083429604768753
visibility: 0.870643138885498
","x: 167.57627868652344
y: 525.8484497070312
z: -0.01705947518348694
visibility: 0.9611396193504333
","x: 191.68458557128906
y: 539.0068969726562
z: 0.11147936433553696
visibility: 0.8198732137680054
","x: 160.2888641357422
y: 535.992919921875
z: -0.010874183848500252
visibility: 0.873004674911499
","x: 211.65725708007812
y: 540.7221069335938
z: 0.05832032486796379
visibility: 0.9125434756278992
","x: 178.54986572265625
y: 545.8032836914062
z: -0.07866905629634857
visibility: 0.9592428207397461
",,,,,,,,,,,,,,,,,,,,,,,,,,,,,,,,,,,,,,,,,,
28,"x: 217.68460083007812
y: 318.0038146972656
z: -0.032962072640657425
visibility: 0.9946057796478271
","x: 218.30455017089844
y: 310.92333984375
z: -0.018237005919218063
visibility: 0.9897845983505249
","x: 218.52621459960938
y: 310.7980651855469
z: -0.018278826028108597
visibility: 0.99129718542099
","x: 218.7215118408203
y: 310.5544738769531
z: -0.018301013857126236
visibility: 0.9911551475524902
","x: 216.60911560058594
y: 310.2533874511719
z: -0.042822521179914474
visibility: 0.9910033345222473
","x: 215.3778533935547
y: 309.7298889160156
z: -0.04287419840693474
visibility: 0.992622435092926
","x: 213.73411560058594
y: 309.1310729980469
z: -0.042968831956386566
visibility: 0.9915381073951721
","x: 215.10752868652344
y: 309.9560546875
z: 0.04899309203028679
visibility: 0.9780012369155884
","x: 207.94825744628906
y: 308.74066162109375
z: -0.06168011575937271
visibility: 0.9915586709976196
","x: 216.39064025878906
y: 323.429931640625
z: -0.005464940331876278
visibility: 0.9874261617660522
","x: 213.9347381591797
y: 323.00921630859375
z: -0.03784940019249916
visibility: 0.9922279119491577
","x: 204.68760681152344
y: 333.61572265625
z: 0.11824019253253937
visibility: 0.998848557472229
","x: 192.27658081054688
y: 331.81231689453125
z: -0.10845613479614258
visibility: 0.9997332692146301
","x: 196.28245544433594
y: 374.8190002441406
z: 0.1898370087146759
visibility: 0.3732529282569885
","x: 183.41966247558594
y: 371.49481201171875
z: -0.1880861222743988
visibility: 0.9020984768867493
","x: 198.73049926757812
y: 382.707275390625
z: 0.2032434195280075
visibility: 0.3959316909313202
","x: 208.75291442871094
y: 353.15411376953125
z: -0.2734019160270691
visibility: 0.8648803234100342
","x: 199.6209716796875
y: 391.3841552734375
z: 0.21157634258270264
visibility: 0.38733652234077454
","x: 212.7718963623047
y: 347.2161865234375
z: -0.29813438653945923
visibility: 0.8369711637496948
","x: 199.64297485351562
y: 387.1280517578125
z: 0.19949743151664734
visibility: 0.3919711410999298
","x: 213.95233154296875
y: 342.2805480957031
z: -0.28677088022232056
visibility: 0.8348075747489929
","x: 199.1859893798828
y: 383.0831604003906
z: 0.19818398356437683
visibility: 0.3743770718574524
","x: 213.14651489257812
y: 343.44464111328125
z: -0.2687698006629944
visibility: 0.7897058129310608
","x: 190.49737548828125
y: 416.50250244140625
z: 0.07340438663959503
visibility: 0.9991809129714966
","x: 175.55776977539062
y: 415.4949645996094
z: -0.0734037235379219
visibility: 0.9992060661315918
","x: 198.77806091308594
y: 464.4964904785156
z: 0.016917625442147255
visibility: 0.7820440530776978
