uscmakers/ReverseChoreography/data/6_good_4_u_olivia_rodrigo.csv
,NOSE,LEFT_EYE_INNER,LEFT_EYE,LEFT_EYE_OUTER,RIGHT_EYE_INNER,RIGHT_EYE,RIGHT_EYE_OUTER,LEFT_EAR,RIGHT_EAR,MOUTH_LEFT,MOUTH_RIGHT,LEFT_SHOULDER,RIGHT_SHOULDER,LEFT_ELBOW,RIGHT_ELBOW,LEFT_WRIST,RIGHT_WRIST,LEFT_PINKY,RIGHT_PINKY,LEFT_INDEX,RIGHT_INDEX,LEFT_THUMB,RIGHT_THUMB,LEFT_HIP,RIGHT_HIP,LEFT_KNEE,RIGHT_KNEE,LEFT_ANKLE,RIGHT_ANKLE,LEFT_HEEL,RIGHT_HEEL,LEFT_FOOT_INDEX,RIGHT_FOOT_INDEX,WRIST2,THUMB_CPC2,THUMB_MCP2,THUMB_IP2,THUMB_TIP2,INDEX_FINGER_MCP2,INDEX_FINGER_PIP2,INDEX_FINGER_DIP2,INDEX_FINGER_TIP2,MIDDLE_FINGER_MCP2,MIDDLE_FINGER_PIP2,MIDDLE_FINGER_DIP2,MIDDLE_FINGER_TIP2,RING_FINGER_PIP2,RING_FINGER_DIP2,RING_FINGER_TIP2,RING_FINGER_MCP2,PINKY_MCP2,PINKY_PIP2,PINKY_DIP2,PINKY_TIP2,WRIST,THUMB_CPC,THUMB_MCP,THUMB_IP,THUMB_TIP,INDEX_FINGER_MCP,INDEX_FINGER_PIP,INDEX_FINGER_DIP,INDEX_FINGER_TIP,MIDDLE_FINGER_MCP,MIDDLE_FINGER_PIP,MIDDLE_FINGER_DIP,MIDDLE_FINGER_TIP,RING_FINGER_PIP,RING_FINGER_DIP,RING_FINGER_TIP,RING_FINGER_MCP,PINKY_MCP,PINKY_PIP,PINKY_DIP,PINKY_TIP
0,"x: 182.7425537109375
y: 279.0438232421875
z: -0.32359522581100464
visibility: 0.9999591112136841
","x: 185.12652587890625
y: 272.8980712890625
z: -0.3120273947715759
visibility: 0.9998379945755005
","x: 186.301025390625
y: 273.1268615722656
z: -0.31201621890068054
visibility: 0.9998326301574707
","x: 187.4910888671875
y: 273.461181640625
z: -0.312024861574173
visibility: 0.99981290102005
","x: 181.73092651367188
y: 272.26611328125
z: -0.3125201463699341
visibility: 0.9998476505279541
","x: 180.55520629882812
y: 272.0669860839844
z: -0.3125665485858917
visibility: 0.9998416900634766
","x: 179.3446044921875
y: 271.93408203125
z: -0.31260862946510315
visibility: 0.9998231530189514
","x: 189.5419464111328
y: 276.67822265625
z: -0.22138622403144836
visibility: 0.9995180368423462
","x: 178.05625915527344
y: 274.4797058105469
z: -0.22348704934120178
visibility: 0.9996127486228943
","x: 185.00535583496094
y: 285.5098876953125
z: -0.2879638075828552
visibility: 0.9999284744262695
","x: 180.6899871826172
y: 285.48101806640625
z: -0.28866806626319885
visibility: 0.9999322891235352
","x: 202.14199829101562
y: 319.5970764160156
z: -0.14495955407619476
visibility: 0.9999526739120483
","x: 165.0814666748047
y: 315.0765380859375
z: -0.15574808418750763
visibility: 0.9999384880065918
","x: 205.68479919433594
y: 367.62994384765625
z: -0.10057713836431503
visibility: 0.9701518416404724
","x: 157.89151000976562
y: 365.9355163574219
z: -0.12488658726215363
visibility: 0.9631319642066956
","x: 207.0851593017578
y: 409.9698181152344
z: -0.1726396381855011
visibility: 0.9264729022979736
","x: 156.9361572265625
y: 407.65386962890625
z: -0.1856381893157959
visibility: 0.8929134011268616
","x: 207.6019744873047
y: 421.6117858886719
z: -0.19457347691059113
visibility: 0.8624836206436157
","x: 156.17930603027344
y: 420.2486572265625
z: -0.21079201996326447
visibility: 0.8166118860244751
","x: 205.48741149902344
y: 420.64044189453125
z: -0.22035038471221924
visibility: 0.8717714548110962
","x: 157.39532470703125
y: 420.4407958984375
z: -0.23603887856006622
visibility: 0.821597158908844
","x: 204.54571533203125
y: 417.0394287109375
z: -0.18415836989879608
visibility: 0.8484010100364685
","x: 158.2864990234375
y: 416.73291015625
z: -0.19729088246822357
visibility: 0.8001517653465271
","x: 191.20864868164062
y: 410.828125
z: 0.002835269318893552
visibility: 0.9999351501464844
","x: 170.23562622070312
y: 410.78558349609375
z: -0.0029183870647102594
visibility: 0.999915361404419
","x: 194.6279296875
y: 463.60528564453125
z: 0.044985413551330566
visibility: 0.9942839741706848
","x: 170.02052307128906
y: 470.391357421875
z: 0.09983639419078827
visibility: 0.9911017417907715
","x: 198.09658813476562
y: 522.134521484375
z: 0.21437916159629822
visibility: 0.9941574335098267
","x: 166.44482421875
y: 518.5865478515625
z: 0.3380127549171448
visibility: 0.9912003874778748
","x: 195.81680297851562
y: 531.5052490234375
z: 0.2263612300157547
visibility: 0.9320771098136902
","x: 167.8890838623047
y: 524.9056396484375
z: 0.3570069372653961
visibility: 0.8935526609420776
","x: 204.8440704345703
y: 545.58544921875
z: 0.12168152630329132
visibility: 0.9917733073234558
","x: 162.25433349609375
y: 544.5072021484375
z: 0.26142823696136475
visibility: 0.986065149307251
",,,,,,,,,,,,,,,,,,,,,,,,,,,,,,,,,,,,,,,,,,
1,"x: 183.08782958984375
y: 278.1526794433594
z: -0.3193206489086151
visibility: 0.9999599456787109
","x: 185.59967041015625
y: 272.33404541015625
z: -0.3073877692222595
visibility: 0.9998425841331482
","x: 186.84091186523438
y: 272.6986389160156
z: -0.3073899447917938
visibility: 0.9998373985290527
","x: 188.004638671875
y: 273.1286315917969
z: -0.3073967695236206
visibility: 0.9998176693916321
","x: 181.8371124267578
y: 271.32666015625
z: -0.3078540861606598
visibility: 0.9998510479927063
","x: 180.59120178222656
y: 271.0867004394531
z: -0.30789846181869507
visibility: 0.9998457431793213
","x: 179.3622283935547
y: 270.9591369628906
z: -0.3079327344894409
visibility: 0.9998276829719543
","x: 190.00582885742188
y: 276.57025146484375
z: -0.21673674881458282
visibility: 0.9995308518409729
","x: 178.0357666015625
y: 274.0311584472656
z: -0.2199743539094925
visibility: 0.9996261596679688
","x: 185.47007751464844
y: 285.0736389160156
z: -0.28403452038764954
visibility: 0.999929666519165
","x: 180.72439575195312
y: 284.864013671875
z: -0.2850359082221985
visibility: 0.9999340176582336
","x: 202.380615234375
y: 319.4986877441406
z: -0.14283081889152527
visibility: 0.9999527335166931
","x: 165.1755828857422
y: 314.2998046875
z: -0.15183326601982117
visibility: 0.9999408721923828
","x: 206.14059448242188
y: 368.2837219238281
z: -0.10004131495952606
visibility: 0.9706862568855286
","x: 158.7528076171875
y: 365.8193359375
z: -0.11883026361465454
visibility: 0.9635903239250183
","x: 207.09823608398438
y: 410.06842041015625
z: -0.17396163940429688
visibility: 0.9282105565071106
","x: 156.79847717285156
y: 407.61956787109375
z: -0.18225380778312683
visibility: 0.8946061134338379
","x: 207.63775634765625
y: 422.74298095703125
z: -0.19660082459449768
visibility: 0.8647961020469666
","x: 155.24954223632812
y: 420.2608947753906
z: -0.2074812948703766
visibility: 0.819071888923645
","x: 205.48995971679688
y: 421.6689758300781
z: -0.22216634452342987
visibility: 0.8737714886665344
","x: 156.98831176757812
y: 420.4356689453125
z: -0.23298557102680206
visibility: 0.8241251111030579
","x: 204.5322723388672
y: 417.6502685546875
z: -0.18549591302871704
visibility: 0.8507736325263977
","x: 158.1119842529297
y: 416.5774230957031
z: -0.1941063106060028
visibility: 0.8030310869216919
","x: 191.64927673339844
y: 410.7848815917969
z: 0.0042158388532698154
visibility: 0.9999315142631531
","x: 170.33349609375
y: 410.5484313964844
z: -0.004319879692047834
visibility: 0.9999165534973145
","x: 194.9591827392578
y: 464.77825927734375
z: 0.08147595822811127
visibility: 0.9938427209854126
","x: 169.90151977539062
y: 470.5810852050781
z: 0.04343327134847641
visibility: 0.9913204908370972
","x: 198.31985473632812
y: 522.1583251953125
z: 0.26554426550865173
visibility: 0.9937201142311096
","x: 166.4169158935547
y: 520.220703125
z: 0.23152270913124084
visibility: 0.9912797212600708
","x: 195.99472045898438
y: 531.4971313476562
z: 0.2789090871810913
visibility: 0.9302873015403748
","x: 167.8846893310547
y: 527.7142944335938
z: 0.24532902240753174
visibility: 0.89316326379776
","x: 204.9469757080078
y: 545.5819091796875
z: 0.18246975541114807
visibility: 0.9911720752716064
","x: 162.5319366455078
y: 544.8211059570312
z: 0.1427581012248993
visibility: 0.9861812591552734
",,,,,,,,,,,,,,,,,,,,,,,,,,,,,,,,,,,,,,,,,,
2,"x: 183.70155334472656
y: 277.5667724609375
z: -0.3154740631580353
visibility: 0.9999608397483826
","x: 186.3623809814453
y: 271.8758544921875
z: -0.30353599786758423
visibility: 0.9998472929000854
","x: 187.5752716064453
y: 272.3195495605469
z: -0.3035362660884857
visibility: 0.9998419284820557
","x: 188.7195281982422
y: 272.8155822753906
z: -0.3035374581813812
visibility: 0.9998217821121216
","x: 182.22903442382812
y: 270.61053466796875
z: -0.30464664101600647
visibility: 0.9998551607131958
","x: 180.82122802734375
y: 270.3055725097656
z: -0.3046894967556
visibility: 0.9998504519462585
","x: 179.52508544921875
y: 270.1277770996094
z: -0.3047195076942444
visibility: 0.9998329877853394
","x: 190.59385681152344
y: 276.40423583984375
z: -0.21220716834068298
visibility: 0.9995424747467041
","x: 178.0383758544922
y: 273.3970947265625
z: -0.21885856986045837
visibility: 0.9996418356895447
","x: 186.0304412841797
y: 284.64208984375
z: -0.2798749804496765
visibility: 0.9999308586120605
","x: 180.960205078125
y: 284.1714782714844
z: -0.2819189131259918
visibility: 0.9999359250068665
","x: 202.52268981933594
y: 319.03851318359375
z: -0.1365732103586197
visibility: 0.9999523758888245
","x: 165.39463806152344
y: 313.344482421875
z: -0.15183834731578827
visibility: 0.9999433159828186
","x: 206.35513305664062
y: 368.29937744140625
z: -0.08828053623437881
visibility: 0.9706050157546997
","x: 159.31683349609375
y: 365.4989318847656
z: -0.11959274858236313
visibility: 0.9636667966842651
","x: 207.12075805664062
y: 410.0593566894531
z: -0.15843252837657928
visibility: 0.9288580417633057
","x: 156.69390869140625
y: 407.4188232421875
z: -0.18211008608341217
visibility: 0.8944888114929199
","x: 207.64610290527344
y: 422.971435546875
z: -0.17887112498283386
visibility: 0.8653815984725952
","x: 154.7687530517578
y: 420.1623229980469
z: -0.20687448978424072
visibility: 0.8189522624015808
","x: 205.515625
y: 421.76190185546875
z: -0.20437105000019073
visibility: 0.8741108179092407
","x: 156.71710205078125
y: 420.25701904296875
z: -0.2321523129940033
visibility: 0.8241679072380066
","x: 204.5409698486328
y: 417.68017578125
z: -0.16973459720611572
visibility: 0.8514720797538757
","x: 157.94482421875
y: 416.176025390625
z: -0.19385658204555511
visibility: 0.8033692240715027
","x: 191.94131469726562
y: 410.565673828125
z: 0.006726065184921026
visibility: 0.9999271631240845
","x: 170.4304962158203
y: 410.1648254394531
z: -0.0068509383127093315
visibility: 0.9999178051948547
","x: 195.11105346679688
y: 465.209716796875
z: 0.0907093733549118
visibility: 0.9933756589889526
","x: 169.8079071044922
y: 470.64752197265625
z: 0.02754875458776951
visibility: 0.991568386554718
","x: 198.50692749023438
y: 522.1541137695312
z: 0.27397388219833374
visibility: 0.993307888507843
","x: 166.3484344482422
y: 521.1217041015625
z: 0.20633342862129211
visibility: 0.9914219379425049
","x: 196.12875366210938
y: 531.3513793945312
z: 0.2872437834739685
visibility: 0.929116427898407
","x: 167.88011169433594
y: 529.03466796875
z: 0.21932490170001984
visibility: 0.8935977816581726
","x: 205.10208129882812
y: 545.5635986328125
z: 0.19303831458091736
visibility: 0.9905839562416077
","x: 162.61947631835938
y: 545.2146606445312
z: 0.11639194190502167
visibility: 0.9863914251327515
",,,,,,,,,,,,,,,,,,,,,,,,,,,,,,,,,,,,,,,,,,
3,"x: 184.5404510498047
y: 276.7163391113281
z: -0.3202146291732788
visibility: 0.9999622702598572
","x: 187.10482788085938
y: 271.1372985839844
z: -0.30668213963508606
visibility: 0.9998538494110107
","x: 188.30020141601562
y: 271.6143798828125
z: -0.30668359994888306
visibility: 0.9998486042022705
","x: 189.46177673339844
y: 272.1552734375
z: -0.3066917061805725
visibility: 0.9998288750648499
","x: 182.96090698242188
y: 269.8941650390625
z: -0.30948716402053833
visibility: 0.9998611211776733
","x: 181.44871520996094
y: 269.6217956542969
z: -0.30953851342201233
visibility: 0.9998573064804077
","x: 180.0789337158203
y: 269.46405029296875
z: -0.3095642626285553
visibility: 0.9998405575752258
","x: 191.28005981445312
y: 276.00091552734375
z: -0.2134271115064621
visibility: 0.9995622634887695
","x: 178.21768188476562
y: 273.01190185546875
z: -0.22538883984088898
visibility: 0.9996614456176758
","x: 186.79714965820312
y: 283.98626708984375
z: -0.28342899680137634
visibility: 0.9999331831932068
","x: 181.69949340820312
y: 283.4654541015625
z: -0.2877007722854614
visibility: 0.9999382495880127
","x: 203.0083770751953
y: 319.0835876464844
z: -0.1362268030643463
visibility: 0.9999516010284424
","x: 165.6363525390625
y: 312.65570068359375
z: -0.16236335039138794
visibility: 0.9999449253082275
","x: 206.98941040039062
y: 368.34130859375
z: -0.08251604437828064
visibility: 0.9705678820610046
","x: 159.5667724609375
y: 364.2140197753906
z: -0.13508915901184082
visibility: 0.9642122983932495
","x: 207.757568359375
y: 409.93267822265625
z: -0.14967766404151917
visibility: 0.9281898140907288
","x: 156.6949005126953
y: 406.83331298828125
z: -0.19830235838890076
visibility: 0.8935332298278809
","x: 208.0896759033203
y: 422.94512939453125
z: -0.16898170113563538
visibility: 0.8632593154907227
","x: 154.75149536132812
y: 419.6724853515625
z: -0.22405655682086945
visibility: 0.8166990876197815
","x: 206.30368041992188
y: 421.7530517578125
z: -0.19552017748355865
visibility: 0.8720059394836426
","x: 156.69606018066406
y: 419.7236328125
z: -0.2492992877960205
visibility: 0.821940004825592
","x: 205.4387664794922
y: 417.6651611328125
z: -0.1615385264158249
visibility: 0.8496370911598206
","x: 157.9306182861328
y: 415.48712158203125
z: -0.21022085845470428
visibility: 0.8011212348937988
","x: 192.15350341796875
y: 409.87652587890625
z: 0.008803578093647957
visibility: 0.9999229311943054
","x: 170.45460510253906
y: 409.1056823730469
z: -0.008923972956836224
visibility: 0.9999167919158936
","x: 195.30258178710938
y: 465.2212219238281
z: 0.07982846349477768
visibility: 0.9931403398513794
","x: 169.79795837402344
y: 470.6515808105469
z: 0.03189144656062126
visibility: 0.9918193817138672
","x: 198.6054229736328
y: 522.263916015625
z: 0.2631683945655823
visibility: 0.9930084347724915
","x: 166.3053741455078
y: 521.2723388671875
z: 0.22386403381824493
visibility: 0.9916049242019653
","x: 196.18359375
y: 531.3884887695312
z: 0.2762616276741028
visibility: 0.9281448721885681
","x: 167.87840270996094
y: 529.3230590820312
z: 0.23784342408180237
visibility: 0.8939687013626099
","x: 205.13442993164062
y: 545.6105346679688
z: 0.17832911014556885
visibility: 0.9901286959648132
","x: 162.626220703125
y: 545.326416015625
z: 0.13249976933002472
visibility: 0.9866341352462769
",,,,,,,,,,,,,,,,,,,,,,,,,,,,,,,,,,,,,,,,,,
4,"x: 185.09767150878906
y: 275.16680908203125
z: -0.26356327533721924
visibility: 0.9999645352363586
","x: 187.56910705566406
y: 269.751708984375
z: -0.2509229779243469
visibility: 0.9998630881309509
","x: 188.76187133789062
y: 270.10809326171875
z: -0.25096890330314636
visibility: 0.9998587369918823
","x: 189.9825897216797
y: 270.59063720703125
z: -0.25098806619644165
visibility: 0.9998406171798706
","x: 183.53501892089844
y: 268.85125732421875
z: -0.250717431306839
visibility: 0.9998671412467957
","x: 182.0712127685547
y: 268.6680908203125
z: -0.2507225573062897
visibility: 0.999862551689148
","x: 180.74496459960938
y: 268.5838928222656
z: -0.2507254183292389
visibility: 0.9998441338539124
","x: 191.90342712402344
y: 274.33282470703125
z: -0.1638576090335846
visibility: 0.9995954036712646
","x: 178.9822540283203
y: 272.02288818359375
z: -0.16355149447917938
visibility: 0.9996692538261414
","x: 187.4069061279297
y: 282.33197021484375
z: -0.2303597629070282
visibility: 0.9999377727508545
","x: 182.44921875
y: 281.8580017089844
z: -0.2303185760974884
visibility: 0.9999409317970276
","x: 203.38864135742188
y: 315.5095520019531
z: -0.10995582491159439
visibility: 0.9999556541442871
","x: 167.22987365722656
y: 310.9462585449219
z: -0.09795565903186798
visibility: 0.9999416470527649
","x: 209.3587188720703
y: 359.64581298828125
z: -0.0950726568698883
visibility: 0.972773015499115
","x: 160.41868591308594
y: 362.7026062011719
z: -0.0768270418047905
visibility: 0.9607834815979004
","x: 215.63717651367188
y: 391.7523498535156
z: -0.21543271839618683
visibility: 0.9346965551376343
","x: 156.44851684570312
y: 401.30364990234375
z: -0.16217656433582306
visibility: 0.8944318294525146
","x: 217.86663818359375
y: 403.424072265625
z: -0.24581174552440643
visibility: 0.8753717541694641
","x: 154.30615234375
y: 415.19482421875
z: -0.1893020123243332
visibility: 0.8201632499694824
","x: 215.50172424316406
y: 402.46875
z: -0.2730659544467926
visibility: 0.8834275603294373
","x: 155.74832153320312
y: 415.0740051269531
z: -0.21695467829704285
visibility: 0.8259758353233337
","x: 214.32545471191406
y: 398.89971923828125
z: -0.22863435745239258
visibility: 0.8628525733947754
","x: 157.2714385986328
y: 410.32366943359375
z: -0.17618751525878906
visibility: 0.8062686324119568
","x: 193.08364868164062
y: 409.768310546875
z: 0.005284030921757221
visibility: 0.999923586845398
","x: 171.41839599609375
y: 408.8095397949219
z: -0.005360352341085672
visibility: 0.9999152421951294
","x: 195.37030029296875
y: 468.6941223144531
z: 0.07786572724580765
visibility: 0.9932626485824585
","x: 170.01138305664062
y: 470.987548828125
z: 0.04215022176504135
visibility: 0.9922066330909729
","x: 198.7730712890625
y: 522.5078735351562
z: 0.254359632730484
visibility: 0.9929910898208618
","x: 166.22198486328125
y: 522.1141967773438
z: 0.22912096977233887
visibility: 0.9919310212135315
","x: 196.32211303710938
y: 531.388671875
z: 0.26798051595687866
visibility: 0.928452730178833
","x: 167.84397888183594
y: 530.0390014648438
z: 0.24258892238140106
visibility: 0.8958330750465393
","x: 205.21868896484375
y: 545.658447265625
z: 0.1734202802181244
visibility: 0.990002453327179
","x: 162.6454315185547
y: 545.4950561523438
z: 0.14585568010807037
visibility: 0.9870752096176147
",,,,,,,,,,,,,,,,,,,,,,,,,,,,,,,,,,,,,,,,,,
5,"x: 185.99862670898438
y: 274.72113037109375
z: -0.27609312534332275
visibility: 0.9999597668647766
","x: 188.416748046875
y: 269.11578369140625
z: -0.26496022939682007
visibility: 0.9998397827148438
","x: 189.6820831298828
y: 269.427490234375
z: -0.26499441266059875
visibility: 0.9998390078544617
","x: 190.91357421875
y: 269.8205261230469
z: -0.2650218904018402
visibility: 0.9998173117637634
","x: 184.50030517578125
y: 268.4618225097656
z: -0.2621590197086334
visibility: 0.9998462796211243
","x: 183.09799194335938
y: 268.3626708984375
z: -0.2621837258338928
visibility: 0.9998422861099243
","x: 181.81973266601562
y: 268.3605651855469
z: -0.26218992471694946
visibility: 0.9998211860656738
","x: 193.26962280273438
y: 273.61309814453125
z: -0.18136869370937347
visibility: 0.9995719790458679
","x: 180.29074096679688
y: 271.939453125
z: -0.16645757853984833
visibility: 0.9996439218521118
","x: 188.52259826660156
y: 281.800048828125
z: -0.24418839812278748
visibility: 0.9999361038208008
","x: 183.7220001220703
y: 281.50579833984375
z: -0.23993945121765137
visibility: 0.9999376535415649
","x: 205.41531372070312
y: 312.5979919433594
z: -0.11654168367385864
visibility: 0.999957263469696
","x: 169.1300506591797
y: 311.1354675292969
z: -0.09900864213705063
visibility: 0.9999428987503052
","x: 222.7987518310547
y: 344.722412109375
z: -0.21081426739692688
visibility: 0.9749797582626343
","x: 160.28956604003906
y: 362.3961181640625
z: -0.09075084328651428
visibility: 0.9629814028739929
","x: 217.36692810058594
y: 352.420654296875
z: -0.3841862082481384
visibility: 0.9391953349113464
","x: 152.61460876464844
y: 400.1946716308594
z: -0.17902785539627075
visibility: 0.9022939205169678
","x: 215.4920654296875
y: 363.3523864746094
z: -0.4250175952911377
visibility: 0.8822582960128784
","x: 149.50665283203125
y: 413.1025695800781
z: -0.2083737552165985
visibility: 0.8322265148162842
","x: 212.73654174804688
y: 359.0829772949219
z: -0.4312453866004944
visibility: 0.889743447303772
","x: 150.43057250976562
y: 412.0367736816406
z: -0.2312215119600296
visibility: 0.8377090692520142
","x: 212.0675811767578
y: 355.46221923828125
z: -0.39021068811416626
visibility: 0.8695304989814758
","x: 152.06723022460938
y: 407.921630859375
z: -0.1912638247013092
visibility: 0.8189195990562439
","x: 194.31582641601562
y: 408.808349609375
z: -0.0007331686792895198
visibility: 0.9999212026596069
","x: 172.8325958251953
y: 407.5106506347656
z: 0.0006498084403574467
visibility: 0.9999120831489563
","x: 195.4521942138672
y: 468.8325500488281
z: 0.04576592892408371
visibility: 0.9926610589027405
","x: 169.9720916748047
y: 467.7364807128906
z: 0.040583398193120956
visibility: 0.9921343326568604
","x: 198.87359619140625
y: 522.5426025390625
z: 0.23350870609283447
visibility: 0.99213045835495
","x: 166.12179565429688
y: 521.9819946289062
z: 0.23742301762104034
visibility: 0.9918474555015564
","x: 196.52748107910156
y: 531.3617553710938
z: 0.2478867769241333
visibility: 0.9224011898040771
","x: 167.84359741210938
y: 529.77783203125
z: 0.251891165971756
visibility: 0.8935684561729431
","x: 205.3187713623047
y: 545.6885986328125
z: 0.15160033106803894
visibility: 0.9888148307800293
","x: 162.59658813476562
y: 545.5180053710938
z: 0.15349605679512024
visibility: 0.9869917631149292
",,,,,,,,,,,,,,,,,,,,,,,,,,,,,,,,,,,,,,,,,,
6,"x: 186.81793212890625
y: 273.350341796875
z: -0.2794526219367981
visibility: 0.9999539256095886
","x: 189.1191864013672
y: 267.87982177734375
z: -0.26767590641975403
visibility: 0.9997822046279907
","x: 190.4606170654297
y: 268.08795166015625
z: -0.26770445704460144
visibility: 0.9997956156730652
","x: 191.77902221679688
y: 268.3714904785156
z: -0.26771506667137146
visibility: 0.9997535347938538
","x: 185.14903259277344
y: 267.6637878417969
z: -0.26523715257644653
visibility: 0.9997929930686951
","x: 183.77017211914062
y: 267.74969482421875
z: -0.26526644825935364
visibility: 0.9998015761375427
","x: 182.50753784179688
y: 267.9073486328125
z: -0.2652744650840759
visibility: 0.9997767210006714
","x: 194.5136260986328
y: 272.5013122558594
z: -0.18335208296775818
visibility: 0.9994786977767944
","x: 181.28842163085938
y: 271.7332763671875
z: -0.1688954383134842
visibility: 0.9996048212051392
","x: 189.60604858398438
y: 280.28704833984375
z: -0.24713435769081116
visibility: 0.9999258518218994
","x: 184.86886596679688
y: 280.60845947265625
z: -0.24294178187847137
visibility: 0.999927818775177
","x: 206.32449340820312
y: 307.498046875
z: -0.12139948457479477
visibility: 0.9999580979347229
","x: 170.4926300048828
y: 311.06707763671875
z: -0.10278546810150146
visibility: 0.9999432563781738
","x: 224.74024963378906
y: 322.6133728027344
z: -0.22804372012615204
visibility: 0.976397693157196
","x: 160.2295379638672
y: 362.34912109375
z: -0.10249384492635727
visibility: 0.9657452702522278
","x: 219.6525421142578
y: 328.70587158203125
z: -0.40976208448410034
visibility: 0.9419597387313843
","x: 149.7506561279297
y: 398.25994873046875
z: -0.21162036061286926
visibility: 0.9108056426048279
","x: 217.93698120117188
y: 335.6658935546875
z: -0.4509445130825043
visibility: 0.8863485455513
","x: 145.2993621826172
y: 410.4549560546875
z: -0.23987391591072083
visibility: 0.8458945155143738
","x: 213.98333740234375
y: 333.1091613769531
z: -0.4583781659603119
visibility: 0.8936823010444641
","x: 145.91786193847656
y: 409.6334228515625
z: -0.2617747187614441
visibility: 0.8509817719459534
","x: 213.76480102539062
y: 330.9690856933594
z: -0.41727009415626526
visibility: 0.873884379863739
","x: 147.83998107910156
y: 406.1465148925781
z: -0.2229090929031372
visibility: 0.8333068490028381
","x: 194.9535675048828
y: 406.07159423828125
z: -0.0020505478605628014
visibility: 0.9999232888221741
","x: 172.9789581298828
y: 404.0306091308594
z: 0.001926256576552987
visibility: 0.9999101758003235
","x: 195.88259887695312
y: 464.0523681640625
z: -0.07012943178415298
visibility: 0.9917295575141907
","x: 168.49044799804688
y: 458.7626647949219
z: -0.06909088790416718
visibility: 0.9918994903564453
","x: 198.88661193847656
y: 522.4300537109375
z: 0.11317969858646393
visibility: 0.9914891123771667
","x: 165.56834411621094
y: 520.0450439453125
z: 0.1285470873117447
visibility: 0.9916349053382874
","x: 196.58555603027344
y: 531.498046875
z: 0.12586863338947296
visibility: 0.9152155518531799
","x: 167.4261932373047
y: 527.1959228515625
z: 0.14294829964637756
visibility: 0.8904098272323608
","x: 205.34771728515625
y: 545.6963500976562
z: 0.014730404131114483
visibility: 0.987958550453186
","x: 162.56979370117188
y: 545.510498046875
z: 0.036677319556474686
visibility: 0.9870181679725647
",,,,,,,,,,,,,,,,,,,,,,,,,,,,,,,,,,,,,,,,,,
7,"x: 187.2870635986328
y: 273.57122802734375
z: -0.28669273853302
visibility: 0.9999579787254333
","x: 189.7310028076172
y: 268.0770568847656
z: -0.27626267075538635
visibility: 0.9998006224632263
","x: 191.10458374023438
y: 268.2955627441406
z: -0.2762817442417145
visibility: 0.9998129606246948
","x: 192.38369750976562
y: 268.58056640625
z: -0.27629411220550537
visibility: 0.9997731447219849
","x: 185.63107299804688
y: 267.79241943359375
z: -0.27494415640830994
visibility: 0.9998117089271545
","x: 184.19659423828125
y: 267.84014892578125
z: -0.2749772071838379
visibility: 0.9998196363449097
","x: 182.82852172851562
y: 267.95623779296875
z: -0.2749932110309601
visibility: 0.999796986579895
","x: 194.8897247314453
y: 272.52606201171875
z: -0.18441452085971832
visibility: 0.9995198845863342
","x: 181.38009643554688
y: 271.7328796386719
z: -0.18034987151622772
visibility: 0.9996427297592163
","x: 190.1568603515625
y: 280.5721740722656
z: -0.2546705901622772
visibility: 0.9999281167984009
","x: 185.18426513671875
y: 280.8143310546875
z: -0.2523155212402344
visibility: 0.9999331831932068
","x: 204.9439697265625
y: 307.64178466796875
z: -0.12622621655464172
visibility: 0.999943196773529
","x: 171.292724609375
y: 310.07000732421875
z: -0.10156126320362091
visibility: 0.9999449849128723
","x: 222.97206115722656
y: 297.2503356933594
z: -0.2540472447872162
visibility: 0.9781789183616638
","x: 160.38282775878906
y: 358.88934326171875
z: -0.07788975536823273
visibility: 0.9666578769683838
","x: 217.14381408691406
y: 258.83001708984375
z: -0.4290927052497864
visibility: 0.946921169757843
","x: 144.73207092285156
y: 394.3505554199219
z: -0.14202038943767548
visibility: 0.9156898856163025
","x: 217.3340606689453
y: 247.372802734375
z: -0.46940818428993225
visibility: 0.8948314785957336
","x: 138.3495330810547
y: 402.01043701171875
z: -0.15653492510318756
visibility: 0.8518059849739075
","x: 215.8433074951172
y: 245.1064453125
z: -0.4703997075557709
visibility: 0.9013548493385315
","x: 137.9295196533203
y: 401.4106750488281
z: -0.18493327498435974
visibility: 0.8571860194206238
","x: 215.1951141357422
y: 248.50765991210938
z: -0.4363633096218109
visibility: 0.8828420042991638
","x: 140.2771759033203
y: 400.12066650390625
z: -0.15499724447727203
visibility: 0.8403385281562805
","x: 195.3812713623047
y: 400.7551574707031
z: -0.005686812102794647
visibility: 0.9999226927757263
","x: 173.28074645996094
y: 399.0061950683594
z: 0.0055603645741939545
visibility: 0.9999155402183533
","x: 196.6156768798828
y: 460.52191162109375
z: -0.0107133062556386
visibility: 0.9918907284736633
","x: 164.99327087402344
y: 456.78167724609375
z: -0.06672581285238266
visibility: 0.9924481511116028
","x: 198.89279174804688
y: 522.252197265625
z: 0.15551240742206573
visibility: 0.991701066493988
","x: 158.4581298828125
y: 519.3863525390625
z: 0.08069337904453278
visibility: 0.992222011089325
","x: 196.67340087890625
y: 531.442626953125
z: 0.16588512063026428
visibility: 0.9174873232841492
","x: 161.83639526367188
y: 527.196044921875
z: 0.08856049180030823
visibility: 0.8969215154647827
","x: 205.30540466308594
y: 545.3568725585938
z: 0.0586681067943573
visibility: 0.9884026050567627
","x: 149.64743041992188
y: 543.39453125
z: -0.025345683097839355
visibility: 0.9879140257835388
",,,,,,,,,,,,,,,,,,,,,,,,,,,,,,,,,,,,,,,,,,
8,"x: 187.44618225097656
y: 276.4529113769531
z: -0.24177396297454834
visibility: 0.9999589323997498
","x: 189.67337036132812
y: 271.0782470703125
z: -0.22862431406974792
visibility: 0.999805212020874
","x: 190.9969024658203
y: 271.40692138671875
z: -0.22865605354309082
visibility: 0.9998175501823425
","x: 192.27383422851562
y: 271.76959228515625
z: -0.22861674427986145
visibility: 0.999774158000946
","x: 185.7930908203125
y: 270.2489318847656
z: -0.22670535743236542
visibility: 0.9998199939727783
","x: 184.44583129882812
y: 270.0332336425781
z: -0.22671537101268768
visibility: 0.9998272061347961
","x: 183.17990112304688
y: 269.83001708984375
z: -0.2267417013645172
visibility: 0.9998045563697815
","x: 194.46978759765625
y: 275.4056701660156
z: -0.14217540621757507
visibility: 0.9995105862617493
","x: 181.1734161376953
y: 273.35101318359375
z: -0.1335894912481308
visibility: 0.9996656775474548
","x: 189.9498291015625
y: 283.2878723144531
z: -0.20937220752239227
visibility: 0.9999122023582458
","x: 185.0898895263672
y: 282.2218017578125
z: -0.20689551532268524
visibility: 0.9999306201934814
","x: 201.3625946044922
y: 309.0535583496094
z: -0.12159166485071182
visibility: 0.9999195337295532
","x: 170.67372131347656
y: 312.1255798339844
z: -0.058142513036727905
visibility: 0.9999423027038574
","x: 207.96241760253906
y: 302.6452331542969
z: -0.2617174983024597
visibility: 0.9790506958961487
","x: 158.0712127685547
y: 359.4186096191406
z: -0.038747578859329224
visibility: 0.9642675518989563
","x: 204.4014129638672
y: 258.547119140625
z: -0.44011393189430237
visibility: 0.9513720273971558
","x: 141.41049194335938
y: 393.08587646484375
z: -0.11436250060796738
visibility: 0.9188315868377686
","x: 206.37062072753906
y: 247.8769073486328
z: -0.4823341965675354
visibility: 0.9033877849578857
","x: 135.16146850585938
y: 399.1717224121094
z: -0.13131581246852875
visibility: 0.8569519519805908
","x: 206.3290557861328
y: 245.4842529296875
z: -0.48348182439804077
visibility: 0.9091958999633789
","x: 134.83609008789062
y: 398.2130432128906
z: -0.15950199961662292
visibility: 0.8626525402069092
","x: 205.03329467773438
y: 249.63427734375
z: -0.44706496596336365
visibility: 0.8918226361274719
","x: 137.06149291992188
y: 397.1981506347656
z: -0.12793190777301788
visibility: 0.846573531627655
","x: 194.45950317382812
y: 402.2003173828125
z: -0.010079199448227882
visibility: 0.9999224543571472
","x: 171.8511962890625
y: 400.635986328125
z: 0.009954569861292839
visibility: 0.9999199509620667
","x: 195.6183624267578
y: 461.8447265625
z: -0.0016780818114057183
visibility: 0.9920020699501038
","x: 162.3447723388672
y: 457.2663879394531
z: -0.05543215200304985
visibility: 0.9929472804069519
","x: 198.8905792236328
y: 522.6553955078125
z: 0.17957428097724915
visibility: 0.9918219447135925
","x: 153.99899291992188
y: 519.4888916015625
z: 0.0787324607372284
visibility: 0.9927082061767578
","x: 196.86801147460938
y: 532.2886352539062
z: 0.19029802083969116
visibility: 0.9161024689674377
","x: 156.58082580566406
y: 529.1881713867188
z: 0.08610387146472931
visibility: 0.9014736413955688
","x: 205.23605346679688
y: 545.331787109375
z: 0.08887513726949692
visibility: 0.9885678291320801
","x: 146.19415283203125
y: 542.8800048828125
z: -0.019334174692630768
visibility: 0.9886345863342285
",,,,,,,,,,,,,,,,,,,,,,,,,,,,,,,,,,,,,,,,,,
9,"x: 184.78948974609375
y: 275.28076171875
z: -0.2203066051006317
visibility: 0.9998930096626282
","x: 187.51625061035156
y: 270.49627685546875
z: -0.20960290729999542
visibility: 0.9995747804641724
","x: 188.6650390625
y: 270.8997802734375
z: -0.20964781939983368
visibility: 0.9995877742767334
","x: 189.80014038085938
y: 271.3593444824219
z: -0.2096366137266159
visibility: 0.9995160102844238
","x: 184.46990966796875
y: 269.5563049316406
z: -0.20396718382835388
visibility: 0.9996160864830017
","x: 183.49172973632812
y: 269.3643798828125
z: -0.20396685600280762
visibility: 0.9996004700660706
","x: 182.52130126953125
y: 269.24755859375
z: -0.20401868224143982
visibility: 0.999594509601593
","x: 191.60943603515625
y: 275.3725891113281
z: -0.13586288690567017
visibility: 0.9987501502037048
","x: 180.97512817382812
y: 272.8833312988281
z: -0.10886742919683456
visibility: 0.9990891218185425
","x: 186.31539916992188
y: 282.1226806640625
z: -0.19207987189292908
visibility: 0.9997174143791199
","x: 182.21360778808594
y: 280.68408203125
z: -0.1846262365579605
visibility: 0.9998013973236084
","x: 196.28604125976562
y: 307.2948913574219
z: -0.12303920835256577
visibility: 0.9998658299446106
","x: 168.8110809326172
y: 308.5086364746094
z: -0.019162677228450775
visibility: 0.999929666519165
","x: 193.64300537109375
y: 305.13116455078125
z: -0.25321730971336365
visibility: 0.9786970019340515
","x: 157.36085510253906
y: 354.22381591796875
z: 0.02846367284655571
visibility: 0.953129768371582
","x: 177.28060913085938
y: 306.67816162109375
z: -0.4161356985569
visibility: 0.9540538787841797
","x: 143.43408203125
y: 388.32568359375
z: -0.042248792946338654
visibility: 0.9191023707389832
","x: 172.5348358154297
y: 303.408935546875
z: -0.4565200209617615
visibility: 0.909273087978363
","x: 137.76707458496094
y: 394.2876892089844
z: -0.06029006093740463
visibility: 0.8594202995300293
","x: 173.13412475585938
y: 298.73822021484375
z: -0.45320552587509155
visibility: 0.9142303466796875
","x: 137.55145263671875
y: 393.6805725097656
z: -0.08964897692203522
visibility: 0.8653821349143982
","x: 173.81614685058594
y: 302.0895690917969
z: -0.4186524748802185
visibility: 0.8956063389778137
","x: 139.76513671875
y: 392.6474304199219
z: -0.056452859193086624
visibility: 0.8494426608085632
","x: 189.77793884277344
y: 402.0888977050781
z: -0.02889018878340721
visibility: 0.9999091625213623
","x: 168.36172485351562
y: 401.4522705078125
z: 0.028711825609207153
visibility: 0.9999218583106995
","x: 193.69305419921875
y: 462.158935546875
z: 0.019818875938653946
visibility: 0.9922907948493958
","x: 159.03384399414062
y: 458.4058837890625
z: -0.02696334943175316
visibility: 0.9933028817176819
","x: 201.10809326171875
y: 521.3023681640625
z: 0.18652459979057312
visibility: 0.9921399354934692
","x: 152.34359741210938
y: 520.0104370117188
z: 0.10085946321487427
visibility: 0.9931318759918213
","x: 202.3545684814453
y: 528.4143676757812
z: 0.19699858129024506
visibility: 0.9046600461006165
","x: 155.2514190673828
y: 531.2559204101562
z: 0.10787316411733627
visibility: 0.9057968258857727
","x: 204.3592529296875
y: 545.34912109375
z: 0.09398014843463898
visibility: 0.9888099431991577
","x: 145.322998046875
y: 542.661865234375
z: 0.009947611950337887
visibility: 0.9892879724502563
",,,,,,,,,,,,,,,,,,,,,,,,,,,,,,,,,,,,,,,,,,
10,"x: 182.39305114746094
y: 277.74212646484375
z: -0.20737740397453308
visibility: 0.9998239874839783
","x: 185.3932647705078
y: 274.31005859375
z: -0.19502516090869904
visibility: 0.9994633197784424
","x: 186.5717010498047
y: 275.068359375
z: -0.1950066089630127
visibility: 0.999474287033081
","x: 187.75131225585938
y: 275.8691101074219
z: -0.1950024515390396
visibility: 0.9994040131568909
","x: 182.67303466796875
y: 272.82177734375
z: -0.1914318948984146
visibility: 0.9994695782661438
","x: 181.96182250976562
y: 272.58355712890625
z: -0.19145603477954865
visibility: 0.9994180202484131
","x: 181.25759887695312
y: 272.3342590332031
z: -0.19149163365364075
visibility: 0.9994477033615112
","x: 189.08546447753906
y: 280.8197021484375
z: -0.11492109298706055
visibility: 0.9986674785614014
","x: 179.51434326171875
y: 276.6207275390625
z: -0.0958152562379837
visibility: 0.9987314939498901
","x: 183.21957397460938
y: 285.13787841796875
z: -0.17652851343154907
visibility: 0.99954754114151
","x: 179.35488891601562
y: 283.4798583984375
z: -0.1717703491449356
visibility: 0.9996320009231567
","x: 193.44676208496094
y: 314.7326354980469
z: -0.11913559585809708
visibility: 0.9997483491897583
","x: 164.5638885498047
y: 305.79010009765625
z: -0.02516639605164528
visibility: 0.999786376953125
","x: 190.0480499267578
y: 335.48809814453125
z: -0.2553146779537201
visibility: 0.9778082966804504
","x: 149.96499633789062
y: 301.6083068847656
z: -0.13868121802806854
visibility: 0.9456669092178345
","x: 172.02407836914062
y: 312.25909423828125
z: -0.3666827082633972
visibility: 0.9418476223945618
","x: 148.14134216308594
y: 272.4366455078125
z: -0.29473626613616943
visibility: 0.9052602052688599
","x: 167.24281311035156
y: 304.07269287109375
z: -0.39951246976852417
visibility: 0.8894755840301514
","x: 148.29440307617188
y: 261.8843994140625
z: -0.3293745517730713
visibility: 0.8335935473442078
","x: 168.28280639648438
y: 300.14300537109375
z: -0.41737669706344604
visibility: 0.8915659785270691
","x: 149.30393981933594
y: 264.60333251953125
z: -0.32145196199417114
visibility: 0.8361344933509827
","x: 169.51437377929688
y: 303.7098083496094
z: -0.3675694763660431
visibility: 0.8653188347816467
","x: 149.9539794921875
y: 269.7486267089844
z: -0.299149751663208
visibility: 0.8209389448165894
","x: 185.9630126953125
y: 402.1494140625
z: -0.03737146034836769
visibility: 0.9998698830604553
","x: 165.24937438964844
y: 402.0528869628906
z: 0.037179164588451385
visibility: 0.9999008178710938
","x: 193.73977661132812
y: 463.27392578125
z: -0.06346337497234344
visibility: 0.9929932951927185
","x: 156.39414978027344
y: 457.0001525878906
z: 0.002972278743982315
visibility: 0.9936490058898926
","x: 215.34957885742188
y: 522.16650390625
z: 0.004987657535821199
visibility: 0.9928765296936035
","x: 152.2663116455078
y: 521.0643920898438
z: 0.14575828611850739
visibility: 0.9936654567718506
","x: 222.0653076171875
y: 530.8170776367188
z: 0.0060625565238296986
visibility: 0.9072187542915344
","x: 155.45693969726562
y: 532.2412109375
z: 0.15561963617801666
visibility: 0.9131450653076172
","x: 207.6751708984375
y: 546.6614990234375
z: -0.11839524656534195
visibility: 0.9898062348365784
","x: 144.76409912109375
y: 542.7216186523438
z: 0.05584017559885979
visibility: 0.9900705814361572
",,,,,,,,,,,,,,,,,,,,,,,,,,,,,,,,,,,,,,,,,,
11,"x: 179.91416931152344
y: 287.0599060058594
z: -0.05709781497716904
visibility: 0.9998306632041931
","x: 183.43309020996094
y: 285.6844482421875
z: -0.04123270884156227
visibility: 0.9995049238204956
","x: 184.82225036621094
y: 287.05029296875
z: -0.04118097573518753
visibility: 0.9995126724243164
","x: 186.1549530029297
y: 288.501708984375
z: -0.04120304435491562
visibility: 0.9994521141052246
","x: 180.1642303466797
y: 283.586669921875
z: -0.040110476315021515
visibility: 0.9995099306106567
","x: 179.29981994628906
y: 283.5373229980469
z: -0.04017288237810135
visibility: 0.9994615316390991
","x: 178.4048614501953
y: 283.5114440917969
z: -0.04017876833677292
visibility: 0.9994936585426331
","x: 187.09466552734375
y: 294.5441589355469
z: 0.03955092281103134
visibility: 0.9987860321998596
","x: 176.10037231445312
y: 288.6069641113281
z: 0.04543709754943848
visibility: 0.9988327622413635
","x: 180.9058837890625
y: 295.7131652832031
z: -0.0271342433989048
visibility: 0.9995344281196594
","x: 175.64512634277344
y: 293.0709228515625
z: -0.02626209892332554
visibility: 0.99961918592453
","x: 190.71548461914062
y: 323.2064208984375
z: 0.0332709401845932
visibility: 0.9997214078903198
","x: 163.62489318847656
y: 315.2530212402344
z: 0.10181424766778946
visibility: 0.9997113347053528
","x: 185.46572875976562
y: 345.1884460449219
z: -0.015111592598259449
visibility: 0.9633095860481262
","x: 151.4187469482422
y: 318.62799072265625
z: 0.015438489615917206
visibility: 0.9147299528121948
","x: 173.35862731933594
y: 318.1048889160156
z: -0.004343766253441572
visibility: 0.8938195109367371
","x: 159.6242218017578
y: 304.37060546875
z: -0.0733216404914856
visibility: 0.8646920323371887
","x: 170.55162048339844
y: 318.4215087890625
z: -0.014966549351811409
visibility: 0.837997317314148
","x: 160.8741912841797
y: 298.2686462402344
z: -0.09484544396400452
visibility: 0.7860643863677979
","x: 171.28054809570312
y: 314.8533935546875
z: -0.005697333719581366
visibility: 0.8381416201591492
","x: 161.59031677246094
y: 300.6291809082031
z: -0.084724560379982
visibility: 0.7872623205184937
","x: 171.95130920410156
y: 315.649169921875
z: -0.0003228107816539705
visibility: 0.8093209862709045
","x: 161.66319274902344
y: 303.8525085449219
z: -0.07456827163696289
visibility: 0.7736478447914124
","x: 187.16226196289062
y: 402.852783203125
z: -0.039002954959869385
visibility: 0.9998752474784851
","x: 166.3535614013672
y: 405.59814453125
z: 0.03893974795937538
visibility: 0.9998998045921326
","x: 193.9250946044922
y: 469.0982360839844
z: -0.095878466963768
visibility: 0.9936248064041138
","x: 157.04762268066406
y: 457.88671875
z: 0.061689041554927826
visibility: 0.9927433729171753
","x: 216.86563110351562
y: 524.6712646484375
z: -0.056945741176605225
visibility: 0.9935251474380493
","x: 152.10128784179688
y: 521.140869140625
z: 0.18300750851631165
visibility: 0.9938332438468933
","x: 224.33819580078125
y: 535.0126953125
z: -0.05622411519289017
visibility: 0.9118921160697937
","x: 155.19712829589844
y: 532.0977172851562
z: 0.19057269394397736
visibility: 0.9162285327911377
","x: 207.75729370117188
y: 546.9442138671875
z: -0.1663820445537567
visibility: 0.9906995892524719
","x: 144.17446899414062
y: 542.7119750976562
z: 0.10887839645147324
visibility: 0.9901667833328247
",,,,,,,,,,,,,,,,,,,,,,,,,,,,,,,,,,,,,,,,,,
12,"x: 174.98550415039062
y: 298.5245361328125
z: -0.14651943743228912
visibility: 0.9997993111610413
","x: 178.42286682128906
y: 296.594970703125
z: -0.15823312103748322
visibility: 0.9994929432868958
","x: 179.74755859375
y: 297.5899353027344
z: -0.1577342450618744
visibility: 0.9995009899139404
","x: 181.0326385498047
y: 298.6382751464844
z: -0.15765658020973206
visibility: 0.9994430541992188
","x: 175.2860565185547
y: 294.98260498046875
z: -0.14704540371894836
visibility: 0.9994759559631348
","x: 174.34144592285156
y: 295.27728271484375
z: -0.14729735255241394
visibility: 0.9994207620620728
","x: 173.3061981201172
y: 295.6038818359375
z: -0.1473289132118225
visibility: 0.9994555711746216
","x: 182.77728271484375
y: 302.4523010253906
z: -0.09684886038303375
visibility: 0.9988222718238831
","x: 171.941162109375
y: 299.6771545410156
z: -0.05018259957432747
visibility: 0.998781144618988
","x: 176.3573760986328
y: 305.3982849121094
z: -0.1196913942694664
visibility: 0.9994676113128662
","x: 172.13345336914062
y: 304.334228515625
z: -0.09706373512744904
visibility: 0.9995437264442444
","x: 189.4776153564453
y: 330.6654052734375
z: -0.10695202648639679
visibility: 0.9996764659881592
","x: 163.298095703125
y: 323.078125
z: 0.06641002744436264
visibility: 0.999629557132721
","x: 186.49085998535156
y: 350.96697998046875
z: -0.24896247684955597
visibility: 0.9602667689323425
","x: 149.89633178710938
y: 324.6790771484375
z: -0.16943785548210144
visibility: 0.9164761304855347
","x: 178.78472900390625
y: 317.361083984375
z: -0.34409669041633606
visibility: 0.8894972205162048
","x: 163.7685546875
y: 310.7083740234375
z: -0.3200218677520752
visibility: 0.8651467561721802
","x: 178.42996215820312
y: 311.9064025878906
z: -0.3724922835826874
visibility: 0.8317388892173767
","x: 167.22288513183594
y: 306.080078125
z: -0.3471700847148895
visibility: 0.7796001434326172
","x: 179.16993713378906
y: 311.1382141113281
z: -0.3541298508644104
visibility: 0.8305086493492126
","x: 169.09780883789062
y: 307.6427917480469
z: -0.3336038291454315
visibility: 0.7784882187843323
","x: 179.06768798828125
y: 314.80096435546875
z: -0.33949196338653564
visibility: 0.7972010374069214
","x: 168.14500427246094
y: 310.6007080078125
z: -0.3195681571960449
visibility: 0.763580858707428
","x: 187.59259033203125
y: 406.7283630371094
z: -0.04445096477866173
visibility: 0.9998562932014465
","x: 168.4081268310547
y: 412.13360595703125
z: 0.04433676227927208
visibility: 0.9998627305030823
","x: 193.9934539794922
y: 476.73095703125
z: -0.09693805873394012
visibility: 0.9941656589508057
","x: 158.75514221191406
y: 459.52880859375
z: 0.11027258634567261
visibility: 0.9916914701461792
","x: 218.1603546142578
y: 528.2926025390625
z: -0.04673352092504501
visibility: 0.9941160678863525
","x: 152.1498565673828
y: 521.6900634765625
z: 0.26048827171325684
visibility: 0.9937795400619507
","x: 225.37844848632812
y: 536.97900390625
z: -0.04684283211827278
visibility: 0.9140385389328003
","x: 155.2291717529297
y: 532.6090087890625
z: 0.2708600163459778
visibility: 0.9182844161987305
","x: 208.4088134765625
y: 547.345703125
z: -0.16600395739078522
visibility: 0.9914841055870056
","x: 144.35928344726562
y: 542.37109375
z: 0.18999725580215454
visibility: 0.9901368021965027
",,,,,,,,,,,,,,,,,,,,,,,,,,,,,,,,,,,,,,,,,,
13,"x: 168.08004760742188
y: 315.7403869628906
z: -0.1243356317281723
visibility: 0.9995588660240173
","x: 169.96060180664062
y: 309.68121337890625
z: -0.1306265890598297
visibility: 0.9992331266403198
","x: 171.33258056640625
y: 309.0819396972656
z: -0.13057854771614075
visibility: 0.9991946816444397
","x: 172.49769592285156
y: 309.0432434082031
z: -0.13056519627571106
visibility: 0.9992157220840454
","x: 166.85726928710938
y: 310.4278869628906
z: -0.11472165584564209
visibility: 0.99913090467453
","x: 166.1327667236328
y: 310.82147216796875
z: -0.1147904172539711
visibility: 0.9988863468170166
","x: 165.30186462402344
y: 311.3354187011719
z: -0.1148599237203598
visibility: 0.9991490840911865
","x: 175.8590850830078
y: 310.85980224609375
z: -0.11050732433795929
visibility: 0.9985367655754089
","x: 166.9039764404297
y: 313.9203796386719
z: -0.03911927714943886
visibility: 0.9979681968688965
","x: 169.61956787109375
y: 321.6665344238281
z: -0.1144334077835083
visibility: 0.998903751373291
","x: 166.48548889160156
y: 321.29266357421875
z: -0.09320087730884552
visibility: 0.9986069202423096
","x: 187.24562072753906
y: 332.2651672363281
z: -0.11203724145889282
visibility: 0.9996444582939148
","x: 163.76580810546875
y: 336.3757629394531
z: 0.031628940254449844
visibility: 0.9995160698890686
","x: 171.7526092529297
y: 325.2870178222656
z: -0.14324510097503662
visibility: 0.9602317214012146
","x: 151.1361541748047
y: 331.9936828613281
z: -0.008425602689385414
visibility: 0.8942899703979492
","x: 160.27822875976562
y: 320.78802490234375
z: -0.052933014929294586
visibility: 0.8727846741676331
","x: 161.59735107421875
y: 329.0314025878906
z: -0.11145496368408203
visibility: 0.8478475213050842
","x: 157.74215698242188
y: 318.0954895019531
z: -0.05865650251507759
visibility: 0.8070107698440552
","x: 164.3797149658203
y: 326.1387939453125
z: -0.1312069147825241
visibility: 0.7605935335159302
","x: 158.53956604003906
y: 313.8065185546875
z: -0.05515375733375549
visibility: 0.8048714995384216
","x: 162.34280395507812
y: 326.3266296386719
z: -0.12531684339046478
visibility: 0.7599098086357117
","x: 159.68373107910156
y: 317.5904235839844
z: -0.049202851951122284
visibility: 0.7687138915061951
","x: 162.41835021972656
y: 328.2144470214844
z: -0.11396217346191406
visibility: 0.7455052137374878
","x: 187.98236083984375
y: 415.97845458984375
z: -0.05394129827618599
visibility: 0.9998564720153809
","x: 170.0976104736328
y: 421.38800048828125
z: 0.05375298857688904
visibility: 0.9998599290847778
","x: 190.67666625976562
y: 480.64984130859375
z: -0.07697348296642303
visibility: 0.9945602416992188
","x: 159.59939575195312
y: 462.2972106933594
z: 0.10924012959003448
visibility: 0.9896087646484375
","x: 218.68655395507812
y: 528.85009765625
z: -0.03011191263794899
visibility: 0.9946004748344421
","x: 151.82029724121094
y: 521.9168701171875
z: 0.23581981658935547
visibility: 0.9934179186820984
","x: 225.6737823486328
y: 536.69189453125
z: -0.02833550050854683
visibility: 0.9187313318252563
","x: 154.96017456054688
y: 533.0244140625
z: 0.24607320129871368
visibility: 0.9201298952102661
","x: 208.21604919433594
y: 547.61376953125
z: -0.11881979554891586
visibility: 0.9921691417694092
","x: 144.83792114257812
y: 542.45703125
z: 0.18597173690795898
visibility: 0.9900689125061035
",,,,,,,,,,,,,,,,,,,,,,,,,,,,,,,,,,,,,,,,,,
14,"x: 157.9792938232422
y: 347.43487548828125
z: -0.32001107931137085
visibility: 0.9990068674087524
","x: 159.00955200195312
y: 340.7083740234375
z: -0.3368719220161438
visibility: 0.9988963007926941
","x: 159.99305725097656
y: 340.1416320800781
z: -0.3368116021156311
visibility: 0.9988071322441101
","x: 160.967041015625
y: 339.6418762207031
z: -0.33689817786216736
visibility: 0.9989291429519653
","x: 157.39794921875
y: 340.9306335449219
z: -0.3170526623725891
visibility: 0.9986081123352051
","x: 157.17405700683594
y: 340.556884765625
z: -0.317118763923645
visibility: 0.9980196356773376
","x: 156.92401123046875
y: 340.19818115234375
z: -0.31720107793807983
visibility: 0.9985763430595398
","x: 166.2896270751953
y: 335.7685546875
z: -0.3419020473957062
visibility: 0.998410701751709
","x: 160.52719116210938
y: 336.702392578125
z: -0.2506072223186493
visibility: 0.9975767135620117
","x: 161.84527587890625
y: 349.57269287109375
z: -0.3153790235519409
visibility: 0.998292088508606
","x: 159.96697998046875
y: 350.03399658203125
z: -0.28906211256980896
visibility: 0.9969612956047058
","x: 182.879150390625
y: 345.5762023925781
z: -0.296855628490448
visibility: 0.999650239944458
","x: 162.69183349609375
y: 345.2687072753906
z: -0.16699723899364471
visibility: 0.9994761347770691
","x: 175.89352416992188
y: 316.71490478515625
z: -0.28438979387283325
visibility: 0.96213299036026
","x: 149.3751983642578
y: 336.02337646484375
z: -0.0771985575556755
visibility: 0.8492664694786072
","x: 159.72608947753906
y: 306.078857421875
z: -0.16734853386878967
visibility: 0.849859356880188
","x: 154.78245544433594
y: 334.69189453125
z: -0.07169762253761292
visibility: 0.7993329763412476
","x: 154.82290649414062
y: 303.82830810546875
z: -0.17298844456672668
visibility: 0.7732129693031311
","x: 157.08856201171875
y: 333.52960205078125
z: -0.07782179862260818
visibility: 0.7121402621269226
","x: 154.94259643554688
y: 305.0011901855469
z: -0.1672528088092804
visibility: 0.7705329656600952
","x: 158.6147918701172
y: 333.67425537109375
z: -0.08370916545391083
visibility: 0.7121643424034119
","x: 156.79835510253906
y: 306.6665954589844
z: -0.1628420054912567
visibility: 0.7308819890022278
","x: 157.9561767578125
y: 334.614990234375
z: -0.07484203577041626
visibility: 0.6994847655296326
","x: 187.5254669189453
y: 425.8707275390625
z: -0.05260379984974861
visibility: 0.9998660683631897
","x: 171.48077392578125
y: 422.566650390625
z: 0.0525311604142189
visibility: 0.9998579621315002
","x: 186.02841186523438
y: 482.02630615234375
z: 0.01162678562104702
visibility: 0.994638204574585
","x: 159.5789031982422
y: 468.0042724609375
z: 0.22280438244342804
visibility: 0.9686436653137207
","x: 215.48924255371094
y: 528.2469482421875
z: 0.0984601080417633
visibility: 0.9948905110359192
","x: 152.6529998779297
y: 520.2111206054688
z: 0.40939265489578247
visibility: 0.9882060885429382
","x: 222.9293975830078
y: 536.4972534179688
z: 0.10597570240497589
visibility: 0.923478901386261
","x: 155.73275756835938
y: 531.6771240234375
z: 0.4268797039985657
visibility: 0.9123754501342773
","x: 208.03909301757812
y: 548.009765625
z: 0.03848417475819588
visibility: 0.9924001097679138
","x: 145.75308227539062
y: 541.2742919921875
z: 0.3918972909450531
visibility: 0.9847530722618103
",,,,,,,,,,,,,,,,,,,,,,,,,,,,,,,,,,,,,,,,,,
15,"x: 150.32347106933594
y: 356.0092468261719
z: -0.2087986022233963
visibility: 0.9988523721694946
","x: 150.44235229492188
y: 350.2981872558594
z: -0.24298986792564392
visibility: 0.9987790584564209
","x: 150.95785522460938
y: 350.2165222167969
z: -0.24292556941509247
visibility: 0.998677670955658
","x: 151.47093200683594
y: 350.1593017578125
z: -0.2429504692554474
visibility: 0.9987759590148926
","x: 149.8358917236328
y: 349.5975341796875
z: -0.2084558755159378
visibility: 0.998317301273346
","x: 149.93951416015625
y: 349.013671875
z: -0.20851214230060577
visibility: 0.9976828694343567
","x: 150.00303649902344
y: 348.2120056152344
z: -0.20857279002666473
visibility: 0.99828040599823
","x: 156.7047882080078
y: 347.9061584472656
z: -0.26998838782310486
visibility: 0.9982039928436279
","x: 154.39474487304688
y: 344.9430847167969
z: -0.18223154544830322
visibility: 0.9970542192459106
","x: 153.62911987304688
y: 360.2259826660156
z: -0.24914440512657166
visibility: 0.997980535030365
","x: 152.62994384765625
y: 359.3985595703125
z: -0.1916828751564026
visibility: 0.9966016411781311
","x: 176.20199584960938
y: 369.96051025390625
z: -0.26561447978019714
visibility: 0.9996727108955383
","x: 168.43080139160156
y: 348.0984191894531
z: -0.1611364781856537
visibility: 0.9995018839836121
","x: 168.1320037841797
y: 410.7632751464844
z: -0.24593493342399597
visibility: 0.9593695998191833
","x: 166.1839141845703
y: 366.1956481933594
z: 0.0803096815943718
visibility: 0.7697070837020874
","x: 151.84005737304688
y: 383.5380554199219
z: -0.12117546796798706
visibility: 0.8508191108703613
","x: 157.990234375
y: 365.01123046875
z: 0.1928064376115799
visibility: 0.7271065711975098
","x: 147.4256134033203
y: 377.8970642089844
z: -0.12165912240743637
visibility: 0.7771859169006348
","x: 156.86358642578125
y: 363.84320068359375
z: 0.20931553840637207
visibility: 0.6509730815887451
","x: 148.8090362548828
y: 370.0588684082031
z: -0.11453479528427124
visibility: 0.7744486331939697
","x: 157.55140686035156
y: 363.2705078125
z: 0.19526776671409607
visibility: 0.6512366533279419
","x: 151.40377807617188
y: 371.2916259765625
z: -0.11405505985021591
visibility: 0.7283365726470947
","x: 157.6069793701172
y: 364.099853515625
z: 0.1889864057302475
visibility: 0.6408396363258362
","x: 187.9182891845703
y: 441.94635009765625
z: -0.06865842640399933
visibility: 0.9998683929443359
","x: 178.54408264160156
y: 434.01898193359375
z: 0.0685596838593483
visibility: 0.9998593926429749
","x: 186.71673583984375
y: 484.3997497558594
z: 0.07111936062574387
visibility: 0.9937474131584167
","x: 157.39617919921875
y: 471.7442321777344
z: 0.146691232919693
visibility: 0.961606502532959
","x: 216.41159057617188
y: 528.029052734375
z: 0.2375953644514084
visibility: 0.9949884414672852
","x: 152.71176147460938
y: 520.3878173828125
z: 0.3063104450702667
visibility: 0.9861519932746887
","x: 225.26333618164062
y: 536.14208984375
z: 0.25498291850090027
visibility: 0.9244009852409363
","x: 155.61541748046875
y: 531.600830078125
z: 0.32043975591659546
visibility: 0.9090882539749146
","x: 207.97943115234375
y: 548.55078125
z: 0.2095462530851364
visibility: 0.9925417900085449
","x: 144.6156463623047
y: 541.3281860351562
z: 0.27891045808792114
visibility: 0.9821356534957886
",,,,,,,,,,,,,,,,,,,,,,,,,,,,,,,,,,,,,,,,,,
16,"x: 151.20118713378906
y: 347.89013671875
z: -0.2160213738679886
visibility: 0.9989638328552246
","x: 150.75460815429688
y: 341.78369140625
z: -0.24788276851177216
visibility: 0.9988988041877747
","x: 151.33079528808594
y: 341.3403015136719
z: -0.2478368580341339
visibility: 0.9988077878952026
","x: 151.96221923828125
y: 340.83056640625
z: -0.2478896677494049
visibility: 0.9988959431648254
","x: 149.89479064941406
y: 341.399658203125
z: -0.21237492561340332
visibility: 0.9984806776046753
","x: 149.8651885986328
y: 340.79534912109375
z: -0.21244566142559052
visibility: 0.997907817363739
","x: 149.84291076660156
y: 340.13812255859375
z: -0.21256539225578308
visibility: 0.9984443783760071
","x: 157.11936950683594
y: 335.987060546875
z: -0.2733093798160553
visibility: 0.9983823895454407
","x: 154.22166442871094
y: 335.6016845703125
z: -0.1703370362520218
visibility: 0.9973403215408325
","x: 154.72300720214844
y: 351.4931945800781
z: -0.2373698204755783
visibility: 0.9981811046600342
","x: 153.65249633789062
y: 351.05084228515625
z: -0.19466105103492737
visibility: 0.9969348311424255
","x: 178.49411010742188
y: 353.71026611328125
z: -0.27836960554122925
visibility: 0.999704122543335
","x: 168.17857360839844
y: 346.7672424316406
z: -0.07634453475475311
visibility: 0.9995414018630981
","x: 172.39138793945312
y: 395.7809143066406
z: -0.3279406726360321
visibility: 0.9621700644493103
","x: 164.2640838623047
y: 375.12567138671875
z: -0.09449118375778198
visibility: 0.7321562767028809
","x: 154.1451416015625
y: 384.6382141113281
z: -0.2942209839820862
visibility: 0.8593383431434631
","x: 157.1704559326172
y: 377.7726745605469
z: -0.2385021448135376
visibility: 0.691231906414032
","x: 149.41180419921875
y: 383.1546325683594
z: -0.315755695104599
visibility: 0.788340151309967
","x: 155.91122436523438
y: 378.3128662109375
z: -0.25054818391799927
visibility: 0.6214765906333923
","x: 149.54672241210938
y: 375.22900390625
z: -0.30258312821388245
visibility: 0.7859957814216614
","x: 155.1446075439453
y: 371.5108947753906
z: -0.25138476490974426
visibility: 0.6215075850486755
","x: 151.5064697265625
y: 375.34405517578125
z: -0.2857511341571808
visibility: 0.7353403568267822
","x: 155.37564086914062
y: 371.5958251953125
z: -0.24306344985961914
visibility: 0.6097449064254761
","x: 190.1112060546875
y: 430.5722351074219
z: -0.07627371698617935
visibility: 0.9998700022697449
","x: 181.8027801513672
y: 429.441162109375
z: 0.07629312574863434
visibility: 0.99985671043396
","x: 165.4244384765625
y: 462.9642028808594
z: -0.2105982005596161
visibility: 0.9940561056137085
","x: 192.21163940429688
y: 484.4458312988281
z: 0.1776118278503418
visibility: 0.9572044014930725
","x: 154.07521057128906
y: 524.4591674804688
z: -0.15149816870689392
visibility: 0.995435893535614
","x: 216.5197296142578
y: 527.9537353515625
z: 0.3294520378112793
visibility: 0.9861927628517151
","x: 157.5633087158203
y: 534.065185546875
z: -0.14696767926216125
visibility: 0.9317327737808228
","x: 224.6583251953125
y: 536.1173706054688
z: 0.3422171473503113
visibility: 0.9160025119781494
","x: 146.34283447265625
y: 545.75146484375
z: -0.22489714622497559
visibility: 0.9931539297103882
","x: 206.93170166015625
y: 546.2778930664062
z: 0.2929246723651886
visibility: 0.9813523292541504
",,,,,,,,,,,,,,,,,,,,,,,,,,,,,,,,,,,,,,,,,,
17,"x: 158.13177490234375
y: 337.87945556640625
z: -0.24617275595664978
visibility: 0.9990369081497192
","x: 159.2859344482422
y: 322.9638366699219
z: -0.2638157904148102
visibility: 0.9989782571792603
","x: 160.220703125
y: 321.16717529296875
z: -0.26378145813941956
visibility: 0.9988976120948792
","x: 161.19459533691406
y: 319.51055908203125
z: -0.2638110816478729
visibility: 0.9989740252494812
","x: 157.60702514648438
y: 324.93304443359375
z: -0.2365604192018509
visibility: 0.9985710382461548
","x: 157.3283233642578
y: 324.50994873046875
z: -0.23664462566375732
visibility: 0.9980528354644775
","x: 157.00645446777344
y: 324.1087341308594
z: -0.23667535185813904
visibility: 0.9985402226448059
","x: 165.79293823242188
y: 318.0334777832031
z: -0.2715728282928467
visibility: 0.9985220432281494
","x: 159.7681884765625
y: 320.80584716796875
z: -0.16245794296264648
visibility: 0.9974462985992432
","x: 161.3214874267578
y: 347.19805908203125
z: -0.24841508269309998
visibility: 0.9983396530151367
","x: 159.12557983398438
y: 347.29046630859375
z: -0.21336452662944794
visibility: 0.9971652626991272
","x: 183.6575927734375
y: 339.453369140625
z: -0.28328919410705566
visibility: 0.9997279644012451
","x: 167.48748779296875
y: 345.9903564453125
z: -0.07427682727575302
visibility: 0.9995563626289368
","x: 176.29710388183594
y: 378.1876220703125
z: -0.35538437962532043
visibility: 0.9651962518692017
","x: 149.1680450439453
y: 364.510009765625
z: -0.1750326305627823
visibility: 0.7290154695510864
","x: 154.92266845703125
y: 367.6350402832031
z: -0.3528141975402832
visibility: 0.8704691529273987
","x: 144.64938354492188
y: 337.2269287109375
z: -0.38378000259399414
visibility: 0.6883585453033447
","x: 148.68997192382812
y: 368.3744812011719
z: -0.38095372915267944
visibility: 0.8040961623191833
","x: 142.8268280029297
y: 331.84344482421875
z: -0.41759738326072693
visibility: 0.618426501750946
","x: 149.4906768798828
y: 360.9537353515625
z: -0.3775787055492401
visibility: 0.8019638061523438
","x: 145.07887268066406
y: 329.1638488769531
z: -0.4171885550022125
visibility: 0.6158148646354675
","x: 152.27484130859375
y: 361.08349609375
z: -0.34998419880867004
visibility: 0.7512040734291077
","x: 146.44534301757812
y: 331.6661071777344
z: -0.39082661271095276
visibility: 0.6045629978179932
","x: 194.29811096191406
y: 418.0200500488281
z: -0.06910420954227448
visibility: 0.9998653531074524
","x: 179.1595458984375
y: 418.79962158203125
z: 0.0690239667892456
visibility: 0.9998519420623779
","x: 191.37730407714844
y: 474.4871826171875
z: -0.08849672973155975
visibility: 0.9943844676017761
","x: 169.86891174316406
y: 470.625
z: 0.11884850263595581
visibility: 0.9556145668029785
","x: 212.46949768066406
y: 525.3827514648438
z: 0.01291387714445591
visibility: 0.9957306981086731
","x: 160.53555297851562
y: 526.3036499023438
z: 0.258221298456192
visibility: 0.985366940498352
","x: 218.98928833007812
y: 534.2596435546875
z: 0.019672201946377754
visibility: 0.9341378211975098
","x: 164.18527221679688
y: 535.8400268554688
z: 0.2695108950138092
visibility: 0.9159420728683472
","x: 197.24267578125
y: 545.922119140625
z: -0.06704677641391754
visibility: 0.9934567809104919
","x: 152.35484313964844
y: 544.625732421875
z: 0.21966126561164856
visibility: 0.9808307886123657
",,,,,,,,,,,,,,,,,,,,,,,,,,,,,,,,,,,,,,,,,,
18,"x: 170.5439453125
y: 296.7156677246094
z: -0.15720926225185394
visibility: 0.9989343285560608
","x: 173.5220184326172
y: 289.82110595703125
z: -0.16283759474754333
visibility: 0.9988418817520142
","x: 174.6768341064453
y: 289.51220703125
z: -0.16284319758415222
visibility: 0.9987104535102844
","x: 175.92276000976562
y: 289.326171875
z: -0.16284102201461792
visibility: 0.9987598061561584
","x: 171.63864135742188
y: 290.32489013671875
z: -0.14438548684120178
visibility: 0.998500406742096
","x: 171.40310668945312
y: 290.2130432128906
z: -0.14445069432258606
visibility: 0.9980204701423645
","x: 171.14471435546875
y: 290.1546630859375
z: -0.14453306794166565
visibility: 0.9985242486000061
","x: 181.0868682861328
y: 291.9996337890625
z: -0.1464785784482956
visibility: 0.9980636835098267
","x: 174.2582550048828
y: 291.13519287109375
z: -0.06204468011856079
visibility: 0.9970251321792603
","x: 173.10665893554688
y: 303.7594299316406
z: -0.14836585521697998
visibility: 0.9979943633079529
","x: 170.54379272460938
y: 303.2351989746094
z: -0.12420912086963654
visibility: 0.996913492679596
","x: 193.7621612548828
y: 318.91815185546875
z: -0.16262082755565643
visibility: 0.9994705319404602
","x: 169.5096893310547
y: 327.9793701171875
z: 0.015178871341049671
visibility: 0.9994606971740723
","x: 179.90255737304688
y: 360.0831604003906
z: -0.278324693441391
visibility: 0.9635406732559204
","x: 153.74058532714844
y: 359.11065673828125
z: -0.09380839765071869
visibility: 0.7457302808761597
","x: 161.5791015625
y: 325.1824951171875
z: -0.29089534282684326
visibility: 0.8740813732147217
","x: 146.98330688476562
y: 325.2241516113281
z: -0.2602338492870331
visibility: 0.7138015031814575
","x: 157.154052734375
y: 318.76397705078125
z: -0.31443578004837036
visibility: 0.8106485605239868
","x: 144.5997314453125
y: 314.49755859375
z: -0.28774964809417725
visibility: 0.6452953219413757
","x: 157.08953857421875
y: 311.9610595703125
z: -0.30738022923469543
visibility: 0.807915210723877
","x: 145.167724609375
y: 308.8644104003906
z: -0.2844139039516449
visibility: 0.642208456993103
","x: 159.433349609375
y: 315.0595703125
z: -0.287776380777359
visibility: 0.7534590363502502
","x: 146.81533813476562
y: 311.6365966796875
z: -0.26452916860580444
visibility: 0.6299445033073425
","x: 195.53457641601562
y: 406.4803771972656
z: -0.0629313588142395
visibility: 0.9998623132705688
","x: 177.95181274414062
y: 407.23150634765625
z: 0.06282158195972443
visibility: 0.9998241066932678
","x: 198.43609619140625
y: 470.6695861816406
z: -0.09801581501960754
visibility: 0.9946029782295227
","x: 166.3889923095703
y: 462.0456237792969
z: 0.1476128250360489
visibility: 0.9529206156730652
","x: 218.07606506347656
y: 525.6821899414062
z: -0.04584846273064613
visibility: 0.9960161447525024
","x: 152.876220703125
y: 524.5006103515625
z: 0.2848064601421356
visibility: 0.9832013845443726
","x: 223.9344482421875
y: 535.0361328125
z: -0.0448053702712059
visibility: 0.9340927004814148
","x: 155.4824981689453
y: 534.22607421875
z: 0.29586201906204224
visibility: 0.9113635420799255
","x: 206.3089141845703
y: 546.255615234375
z: -0.13929972052574158
visibility: 0.9937623739242554
","x: 147.71241760253906
y: 542.7552490234375
z: 0.24287566542625427
visibility: 0.9785749912261963
",,,,,,,,,,,,,,,,,,,,,,,,,,,,,,,,,,,,,,,,,,
19,"x: 177.9066162109375
y: 290.2486267089844
z: -0.11391586065292358
visibility: 0.9990314841270447
","x: 179.7607879638672
y: 285.56500244140625
z: -0.10797729343175888
visibility: 0.9989431500434875
","x: 180.9834747314453
y: 285.82537841796875
z: -0.10800669342279434
visibility: 0.9988212585449219
","x: 182.26475524902344
y: 286.24554443359375
z: -0.10799761861562729
visibility: 0.9988648891448975
","x: 176.89723205566406
y: 285.5997009277344
z: -0.09623314440250397
visibility: 0.9986395835876465
","x: 176.029052734375
y: 285.86346435546875
z: -0.0962887704372406
visibility: 0.9982072710990906
","x: 175.14691162109375
y: 286.2637939453125
z: -0.0963406190276146
visibility: 0.9986640214920044
","x: 185.05955505371094
y: 290.4436950683594
z: -0.05555659532546997
visibility: 0.9982231259346008
","x: 174.9131317138672
y: 290.38720703125
z: -0.001977663952857256
visibility: 0.9972912073135376
","x: 180.1650390625
y: 297.3599853515625
z: -0.09366130828857422
visibility: 0.9981722831726074
","x: 176.38543701171875
y: 297.34124755859375
z: -0.07859255373477936
visibility: 0.9972049593925476
","x: 195.93484497070312
y: 316.0317687988281
z: -0.07782251387834549
visibility: 0.9995021224021912
","x: 168.8748321533203
y: 326.94683837890625
z: 0.08525301516056061
visibility: 0.9994975924491882
","x: 190.88723754882812
y: 358.20928955078125
z: -0.19244931638240814
visibility: 0.9658981561660767
","x: 157.33860778808594
y: 363.85845947265625
z: -0.002180631970986724
visibility: 0.7657780647277832
","x: 176.03582763671875
y: 324.369140625
z: -0.28318604826927185
visibility: 0.8847017884254456
","x: 147.9051513671875
y: 334.25982666015625
z: -0.21085572242736816
visibility: 0.7409006357192993
","x: 170.46534729003906
y: 315.42620849609375
z: -0.311029851436615
visibility: 0.8261703252792358
","x: 145.19435119628906
y: 328.42681884765625
z: -0.23779864609241486
visibility: 0.6775397062301636
","x: 172.5845947265625
y: 310.2263488769531
z: -0.30429938435554504
visibility: 0.8234333395957947
","x: 145.52468872070312
y: 324.4254150390625
z: -0.23816952109336853
visibility: 0.6745641827583313
","x: 173.43397521972656
y: 315.6416015625
z: -0.2812860906124115
visibility: 0.7710590958595276
","x: 147.29173278808594
y: 326.3786315917969
z: -0.2162846326828003
visibility: 0.6625054478645325
","x: 196.27230834960938
y: 404.47564697265625
z: -0.062411338090896606
visibility: 0.9998671412467957
","x: 178.81703186035156
y: 407.09765625
z: 0.062319181859493256
visibility: 0.9998264908790588
","x: 197.28744506835938
y: 470.53759765625
z: -0.10026969015598297
visibility: 0.9949092268943787
","x: 166.1532440185547
y: 460.7474060058594
z: 0.08177259564399719
visibility: 0.9523371458053589
","x: 218.01243591308594
y: 525.600341796875
z: -0.06858563423156738
visibility: 0.9962481260299683
","x: 152.98837280273438
y: 524.2994995117188
z: 0.1691184639930725
visibility: 0.9828420281410217
","x: 224.6034393310547
y: 535.22998046875
z: -0.06945087015628815
visibility: 0.9343831539154053
","x: 154.1319580078125
y: 533.7207641601562
z: 0.1742367297410965
visibility: 0.9122700095176697
","x: 207.7887725830078
y: 546.3106079101562
z: -0.16332465410232544
visibility: 0.9940652251243591
","x: 146.90847778320312
y: 542.3218383789062
z: 0.1046113520860672
visibility: 0.9783439636230469
",,,,,,,,,,,,,,,,,,,,,,,,,,,,,,,,,,,,,,,,,,
20,"x: 176.28262329101562
y: 304.28045654296875
z: -0.1587453931570053
visibility: 0.9990807771682739
","x: 178.29544067382812
y: 296.37371826171875
z: -0.1689566820859909
visibility: 0.9989664554595947
","x: 179.45587158203125
y: 296.6678771972656
z: -0.16894666850566864
visibility: 0.9988489151000977
","x: 180.67628479003906
y: 296.9595031738281
z: -0.1689658761024475
visibility: 0.9988723397254944
","x: 175.51687622070312
y: 296.4019470214844
z: -0.15246723592281342
visibility: 0.9986924529075623
","x: 174.65182495117188
y: 296.69805908203125
z: -0.15248778462409973
visibility: 0.9983056783676147
","x: 173.76341247558594
y: 297.05303955078125
z: -0.15251882374286652
visibility: 0.9987255930900574
","x: 183.53829956054688
y: 302.6345520019531
z: -0.12939247488975525
visibility: 0.9981938600540161
","x: 173.465087890625
y: 303.2249755859375
z: -0.07054620236158371
visibility: 0.9972422122955322
","x: 178.54229736328125
y: 312.2405700683594
z: -0.15369993448257446
visibility: 0.9982484579086304
","x: 175.06851196289062
y: 312.72601318359375
z: -0.13276347517967224
visibility: 0.99736088514328
","x: 195.40594482421875
y: 330.22247314453125
z: -0.12892265617847443
visibility: 0.9994940757751465
","x: 168.53048706054688
y: 339.9400634765625
z: 0.013167759403586388
visibility: 0.9995201826095581
","x: 191.7779541015625
y: 379.3655700683594
z: -0.2052873820066452
visibility: 0.9666715860366821
","x: 161.36959838867188
y: 381.5695495605469
z: -0.07842133939266205
visibility: 0.778296947479248
","x: 174.64930725097656
y: 352.516357421875
z: -0.3158571124076843
visibility: 0.8923659324645996
","x: 155.1182403564453
y: 353.65179443359375
z: -0.2815742790699005
visibility: 0.7583681344985962
","x: 169.41012573242188
y: 340.0422668457031
z: -0.3409576416015625
visibility: 0.8365567922592163
","x: 152.96792602539062
y: 337.4179382324219
z: -0.3101269602775574
visibility: 0.6936144828796387
","x: 170.9607696533203
y: 334.5252990722656
z: -0.33155378699302673
visibility: 0.833493173122406
","x: 153.71487426757812
y: 333.68023681640625
z: -0.30641260743141174
visibility: 0.6889339089393616
","x: 171.84237670898438
y: 337.3637390136719
z: -0.3121113181114197
visibility: 0.7798150181770325
","x: 154.91885375976562
y: 338.547119140625
z: -0.284767210483551
visibility: 0.6741127371788025
","x: 196.49966430664062
y: 409.6451110839844
z: -0.05519387871026993
visibility: 0.9998537302017212
","x: 178.2142333984375
y: 412.468505859375
z: 0.05513141304254532
visibility: 0.9998193979263306
","x: 195.8517608642578
y: 470.6328125
z: -0.11882196366786957
visibility: 0.9949113130569458
","x: 166.13031005859375
y: 459.49871826171875
z: -0.0017090423498302698
visibility: 0.9531077742576599
","x: 217.41519165039062
y: 525.896728515625
z: -0.06599723547697067
visibility: 0.9962571859359741
","x: 152.8414764404297
y: 523.8965454101562
z: 0.09008008986711502
visibility: 0.9828335642814636
","x: 224.93663024902344
y: 535.3468627929688
z: -0.06544341146945953
visibility: 0.9303481578826904
","x: 153.58328247070312
y: 532.68115234375
z: 0.09528224170207977
visibility: 0.9133012890815735
","x: 208.05142211914062
y: 546.5679321289062
z: -0.16418932378292084
visibility: 0.9937210083007812
","x: 147.30979919433594
y: 541.7742919921875
z: 0.008221049793064594
visibility: 0.978278398513794
",,,,,,,,,,,,,,,,,,,,,,,,,,,,,,,,,,,,,,,,,,
21,"x: 174.51722717285156
y: 315.39141845703125
z: -0.19951583445072174
visibility: 0.9991452693939209
","x: 176.63397216796875
y: 305.9263916015625
z: -0.1991073042154312
visibility: 0.9990159273147583
","x: 177.81922912597656
y: 305.7556457519531
z: -0.19912637770175934
visibility: 0.9989154934883118
","x: 179.02662658691406
y: 305.64642333984375
z: -0.19916948676109314
visibility: 0.9989290237426758
","x: 173.88919067382812
y: 306.54718017578125
z: -0.18655499815940857
visibility: 0.9987605810165405
","x: 173.1125946044922
y: 306.7821350097656
z: -0.18662691116333008
visibility: 0.9984186887741089
","x: 172.31011962890625
y: 307.0535583496094
z: -0.18669022619724274
visibility: 0.9988003969192505
","x: 181.99977111816406
y: 310.22198486328125
z: -0.1489073634147644
visibility: 0.9982556104660034
","x: 172.58091735839844
y: 311.251953125
z: -0.07849746197462082
visibility: 0.9973596334457397
","x: 176.87388610839844
y: 323.2397766113281
z: -0.17605750262737274
visibility: 0.9983518719673157
","x: 173.5874481201172
y: 323.1012268066406
z: -0.16108180582523346
visibility: 0.9975523352622986
","x: 194.8151397705078
y: 336.9289855957031
z: -0.14130909740924835
visibility: 0.9995154738426208
","x: 166.2721405029297
y: 343.0726623535156
z: -0.0021509998477995396
visibility: 0.9995580315589905
","x: 190.86524963378906
y: 388.6886291503906
z: -0.2406962662935257
visibility: 0.9655796885490417
","x: 162.85800170898438
y: 386.59503173828125
z: -0.08350925892591476
visibility: 0.776309609413147
","x: 174.57296752929688
y: 358.8555908203125
z: -0.3525940775871277
visibility: 0.8977952599525452
","x: 157.95938110351562
y: 360.6459045410156
z: -0.28580862283706665
visibility: 0.7650552988052368
","x: 171.2218780517578
y: 347.8895263671875
z: -0.37972724437713623
visibility: 0.8442845344543457
","x: 156.47605895996094
y: 348.7445068359375
z: -0.3140895962715149
visibility: 0.698441207408905
","x: 172.98439025878906
y: 341.74017333984375
z: -0.37244099378585815
visibility: 0.841123640537262
","x: 156.31488037109375
y: 345.5838317871094
z: -0.31356334686279297
visibility: 0.6919459104537964
","x: 172.9871368408203
y: 344.7891845703125
z: -0.3503446877002716
visibility: 0.7842270135879517
","x: 157.67803955078125
y: 350.0322265625
z: -0.2903873324394226
visibility: 0.6723284125328064
","x: 195.83831787109375
y: 412.5081787109375
z: -0.04633186012506485
visibility: 0.999851644039154
","x: 177.33441162109375
y: 413.90667724609375
z: 0.046280600130558014
visibility: 0.9998315572738647
","x: 194.91293334960938
y: 475.5592346191406
z: -0.09751356393098831
visibility: 0.9949193000793457
","x: 166.09768676757812
y: 458.1306457519531
z: -0.10337507724761963
visibility: 0.9565092921257019
","x: 216.97933959960938
y: 526.2833862304688
z: -0.023672739043831825
visibility: 0.9962977766990662
","x: 152.7618408203125
y: 523.7760009765625
z: -0.026126619428396225
visibility: 0.983862042427063
","x: 224.83937072753906
y: 535.389892578125
z: -0.02072763815522194
visibility: 0.9285117387771606
","x: 153.19725036621094
y: 532.3255615234375
z: -0.022659212350845337
visibility: 0.9168094992637634
","x: 208.32797241210938
y: 546.6103515625
z: -0.1185683161020279
visibility: 0.9934959411621094
","x: 147.856689453125
y: 541.6176147460938
z: -0.11985310167074203
visibility: 0.9794595837593079
",,,,,,,,,,,,,,,,,,,,,,,,,,,,,,,,,,,,,,,,,,
22,"x: 171.92495727539062
y: 357.0794982910156
z: -0.4500333368778229
visibility: 0.9992195963859558
","x: 173.3955078125
y: 351.6177062988281
z: -0.45394015312194824
visibility: 0.9990960359573364
","x: 174.60659790039062
y: 351.2791748046875
z: -0.4538993239402771
visibility: 0.9990109205245972
","x: 175.97607421875
y: 347.90484619140625
z: -0.45397233963012695
visibility: 0.9990202784538269
","x: 169.8153076171875
y: 348.7893981933594
z: -0.4435728192329407
visibility: 0.99884033203125
","x: 168.7902374267578
y: 348.7931823730469
z: -0.4436744153499603
visibility: 0.9985367655754089
","x: 167.7760772705078
y: 348.8058776855469
z: -0.4436965882778168
visibility: 0.9988647699356079
","x: 179.75135803222656
y: 346.1612243652344
z: -0.3930324912071228
visibility: 0.9984101057052612
","x: 168.1086883544922
y: 346.3924560546875
z: -0.345255970954895
visibility: 0.9975423812866211
","x: 175.05189514160156
y: 359.2622375488281
z: -0.42056912183761597
visibility: 0.9985053539276123
","x: 172.16363525390625
y: 359.0728454589844
z: -0.4073498845100403
visibility: 0.9977666139602661
","x: 194.22825622558594
y: 362.2832946777344
z: -0.32890671491622925
visibility: 0.9995623826980591
","x: 163.408935546875
y: 357.8404235839844
z: -0.23609228432178497
visibility: 0.9995977282524109
","x: 192.869873046875
y: 409.4418640136719
z: -0.47853559255599976
visibility: 0.9677472114562988
","x: 162.29708862304688
y: 388.81005859375
z: -0.31031861901283264
visibility: 0.764202356338501
","x: 174.1200408935547
y: 386.9943542480469
z: -0.6220783591270447
visibility: 0.9056129455566406
","x: 161.02947998046875
y: 367.9114990234375
z: -0.456455796957016
visibility: 0.7416645884513855
","x: 168.1303253173828
y: 381.9139099121094
z: -0.657048225402832
visibility: 0.8547461032867432
","x: 160.16920471191406
y: 361.2025146484375
z: -0.48127132654190063
visibility: 0.6733242273330688
","x: 169.2102508544922
y: 376.5820007324219
z: -0.6420935988426208
visibility: 0.8516865372657776
","x: 159.19393920898438
y: 360.48345947265625
z: -0.4790601134300232
visibility: 0.6636463403701782
","x: 170.448486328125
y: 377.3773193359375
z: -0.6178775429725647
visibility: 0.792181134223938
","x: 160.38462829589844
y: 362.9875183105469
z: -0.45907172560691833
visibility: 0.6367905735969543
","x: 195.41812133789062
y: 425.4647216796875
z: -0.027310531586408615
visibility: 0.9998636245727539
","x: 175.0696258544922
y: 422.3447265625
z: 0.027301166206598282
visibility: 0.9998465180397034
","x: 195.5202178955078
y: 483.7788391113281
z: -0.08814003318548203
visibility: 0.9949407577514648
","x: 166.00498962402344
y: 462.1571350097656
z: -0.16276034712791443
visibility: 0.960133969783783
","x: 216.4366455078125
y: 526.4404296875
z: 0.08010369539260864
visibility: 0.9961491823196411
","x: 153.48106384277344
y: 522.4630126953125
z: 0.013151523657143116
visibility: 0.9841855764389038
","x: 223.83901977539062
y: 535.4536743164062
z: 0.09075459092855453
visibility: 0.9222615957260132
","x: 153.99615478515625
y: 529.592041015625
z: 0.02660844661295414
visibility: 0.9098341464996338
","x: 208.87908935546875
y: 546.8256225585938
z: -0.017295923084020615
visibility: 0.9931764006614685
","x: 148.43299865722656
y: 541.2462768554688
z: -0.07277166843414307
visibility: 0.9801955223083496
",,,,,,,,,,,,,,,,,,,,,,,,,,,,,,,,,,,,,,,,,,
23,"x: 169.34646606445312
y: 379.65185546875
z: -0.4223669171333313
visibility: 0.999268651008606
","x: 168.9225311279297
y: 372.7395935058594
z: -0.4335750937461853
visibility: 0.9991247057914734
","x: 169.93658447265625
y: 371.14068603515625
z: -0.4335155487060547
visibility: 0.9990602731704712
","x: 170.92604064941406
y: 369.29827880859375
z: -0.4335670471191406
visibility: 0.9990437626838684
","x: 165.77720642089844
y: 374.90106201171875
z: -0.424016535282135
visibility: 0.9988512396812439
","x: 164.74658203125
y: 374.85760498046875
z: -0.4241209626197815
visibility: 0.9985997676849365
","x: 163.7417755126953
y: 374.6968994140625
z: -0.42416173219680786
visibility: 0.9988808035850525
","x: 173.22926330566406
y: 362.9063415527344
z: -0.39736324548721313
visibility: 0.9984790086746216
","x: 163.3193817138672
y: 370.22222900390625
z: -0.351360946893692
visibility: 0.9976463913917542
","x: 172.9132080078125
y: 379.27630615234375
z: -0.3999314308166504
visibility: 0.9986236691474915
","x: 169.94076538085938
y: 385.2942199707031
z: -0.3872404992580414
visibility: 0.997948169708252
","x: 194.01800537109375
y: 372.3983154296875
z: -0.32098615169525146
visibility: 0.9996036291122437
","x: 159.32586669921875
y: 377.9165344238281
z: -0.2514243721961975
visibility: 0.999636709690094
","x: 196.74050903320312
y: 419.6703796386719
z: -0.4193342328071594
visibility: 0.9668530225753784
","x: 155.5656280517578
y: 415.5108642578125
z: -0.31652945280075073
visibility: 0.7725844979286194
","x: 174.23971557617188
y: 410.3385925292969
z: -0.5262771844863892
visibility: 0.9013792276382446
","x: 161.5995330810547
y: 415.65435791015625
z: -0.46812957525253296
visibility: 0.7262072563171387
","x: 168.05728149414062
y: 405.5959777832031
z: -0.5561004877090454
visibility: 0.8447853922843933
","x: 161.79042053222656
y: 411.6622619628906
z: -0.49524059891700745
visibility: 0.6500653624534607
","x: 169.7018280029297
y: 396.3274841308594
z: -0.5422419309616089
visibility: 0.8427994847297668
","x: 161.42752075195312
y: 407.8700256347656
z: -0.49610671401023865
visibility: 0.6403045654296875
","x: 170.6947021484375
y: 398.2168884277344
z: -0.521694540977478
visibility: 0.772232174873352
","x: 161.8178253173828
y: 408.953125
z: -0.47097405791282654
visibility: 0.6083370447158813
","x: 195.3317413330078
y: 429.8280334472656
z: -0.026310253888368607
visibility: 0.9998699426651001
","x: 174.10433959960938
y: 431.1085510253906
z: 0.026318397372961044
visibility: 0.9998582005500793
","x: 195.7847900390625
y: 487.35986328125
z: -0.006427293177694082
visibility: 0.9943345785140991
","x: 167.48150634765625
y: 468.8309326171875
z: -0.06632527709007263
visibility: 0.9603574275970459
","x: 216.39956665039062
y: 526.655517578125
z: 0.16325607895851135
visibility: 0.9949803948402405
","x: 153.1071014404297
y: 523.8404541015625
z: 0.07165239751338959
visibility: 0.9826970100402832
","x: 223.49391174316406
y: 535.4418334960938
z: 0.17564088106155396
visibility: 0.8934304118156433
","x: 152.6464385986328
y: 531.6409912109375
z: 0.08207495510578156
visibility: 0.8947263360023499
","x: 208.92532348632812
y: 546.859619140625
z: 0.08328070491552353
visibility: 0.9914262890815735
","x: 148.57510375976562
y: 541.7456665039062
z: -0.007576204836368561
visibility: 0.9794707298278809
",,,,,,,,,,,,,,,,,,,,,,,,,,,,,,,,,,,,,,,,,,
24,"x: 166.6876678466797
y: 382.7939453125
z: -0.4138365685939789
visibility: 0.9992466568946838
","x: 166.5111083984375
y: 376.7779235839844
z: -0.42530497908592224
visibility: 0.9990537166595459
","x: 167.5480499267578
y: 375.044921875
z: -0.425285279750824
visibility: 0.9990177154541016
","x: 168.7099151611328
y: 373.0684814453125
z: -0.4253484308719635
visibility: 0.998925507068634
","x: 163.47108459472656
y: 378.4378356933594
z: -0.4148074686527252
visibility: 0.9986832737922668
","x: 162.50140380859375
y: 378.1408386230469
z: -0.41490522027015686
visibility: 0.998518168926239
","x: 161.54832458496094
y: 377.7459716796875
z: -0.41495823860168457
visibility: 0.9987354874610901
","x: 172.5470428466797
y: 367.0201416015625
z: -0.39521342515945435
visibility: 0.998388409614563
","x: 160.32803344726562
y: 371.8385009765625
z: -0.3448998034000397
visibility: 0.9973938465118408
","x: 170.67063903808594
y: 383.30615234375
z: -0.39426448941230774
visibility: 0.9986844658851624
","x: 166.78778076171875
y: 384.6925048828125
z: -0.38019895553588867
visibility: 0.998014509677887
","x: 193.85379028320312
y: 371.4059753417969
z: -0.32406800985336304
visibility: 0.9996411204338074
","x: 157.02752685546875
y: 379.4509582519531
z: -0.24665427207946777
visibility: 0.9996702075004578
","x: 198.01052856445312
y: 421.82293701171875
z: -0.3983467221260071
visibility: 0.9665564298629761
","x: 160.94940185546875
y: 430.88946533203125
z: -0.29358214139938354
visibility: 0.7746949195861816
","x: 168.85787963867188
y: 420.3419494628906
z: -0.4864228367805481
visibility: 0.9030689597129822
","x: 153.9484100341797
y: 417.0711975097656
z: -0.44034695625305176
visibility: 0.7314124703407288
","x: 154.3171844482422
y: 416.2539978027344
z: -0.5169941782951355
visibility: 0.8443165421485901
","x: 148.48304748535156
y: 415.8580017089844
z: -0.4672061800956726
visibility: 0.6538158059120178
","x: 160.26177978515625
y: 408.17803955078125
z: -0.5039699077606201
visibility: 0.8435114026069641
","x: 147.93692016601562
y: 411.8081359863281
z: -0.47408127784729004
visibility: 0.6460397243499756
","x: 162.60264587402344
y: 407.78521728515625
z: -0.48176154494285583
visibility: 0.7644161581993103
","x: 150.0687713623047
y: 412.24957275390625
z: -0.4460516571998596
visibility: 0.6086119413375854
","x: 195.28106689453125
y: 431.69183349609375
z: -0.02521321177482605
visibility: 0.9998679161071777
","x: 172.6858673095703
y: 433.84942626953125
z: 0.025218436494469643
visibility: 0.9998583197593689
","x: 196.50169372558594
y: 487.7041931152344
z: 0.034500930458307266
visibility: 0.9933744668960571
","x: 167.72518920898438
y: 475.1210021972656
z: -0.04147261753678322
visibility: 0.9583921432495117
","x: 216.49124145507812
y: 526.7879028320312
z: 0.2236088216304779
visibility: 0.9934512376785278
","x: 152.72909545898438
y: 524.9765625
z: 0.1440022885799408
visibility: 0.9770280122756958
","x: 223.2934112548828
y: 535.4312744140625
z: 0.23832695186138153
visibility: 0.8523922562599182
","x: 152.12367248535156
y: 532.0894775390625
z: 0.1583847552537918
visibility: 0.8614919185638428
","x: 209.40792846679688
y: 546.88671875
z: 0.15320715308189392
visibility: 0.9890727400779724
","x: 148.77786254882812
y: 542.42626953125
z: 0.08229346573352814
visibility: 0.9759525060653687
",,,,,,,,,,,,,,,,,,,,,,,,,,,,,,,,,,,,,,,,,,
25,"x: 167.34022521972656
y: 372.66473388671875
z: -0.4623679518699646
visibility: 0.9992595314979553
","x: 167.84925842285156
y: 367.13067626953125
z: -0.47601181268692017
visibility: 0.9990791082382202
","x: 168.8999481201172
y: 365.5782470703125
z: -0.47594738006591797
visibility: 0.9990295171737671
","x: 169.98341369628906
y: 363.9953918457031
z: -0.47600454092025757
visibility: 0.9989227652549744
","x: 164.81097412109375
y: 368.6242370605469
z: -0.46784645318984985
visibility: 0.9987125396728516
","x: 163.81524658203125
y: 368.1640930175781
z: -0.4679737091064453
visibility: 0.9985767006874084
","x: 162.83384704589844
y: 367.7459411621094
z: -0.4680260121822357
visibility: 0.9987876415252686
","x: 173.72921752929688
y: 356.5472717285156
z: -0.4347924590110779
visibility: 0.9984702467918396
","x: 161.43121337890625
y: 362.3896484375
z: -0.3945465683937073
visibility: 0.9976025819778442
","x: 170.9864044189453
y: 371.0887451171875
z: -0.43648800253868103
visibility: 0.998802900314331
","x: 167.35333251953125
y: 373.0044250488281
z: -0.42539626359939575
visibility: 0.9981905817985535
","x: 192.43618774414062
y: 368.9332275390625
z: -0.33156394958496094
visibility: 0.9996761083602905
","x: 155.8547821044922
y: 365.6288146972656
z: -0.28101667761802673
visibility: 0.9997026920318604
","x: 203.1419219970703
y: 412.330810546875
z: -0.40591320395469666
visibility: 0.9683191180229187
","x: 149.59744262695312
y: 404.9893493652344
z: -0.30486375093460083
visibility: 0.7951958775520325
","x: 181.5791473388672
y: 398.102294921875
z: -0.5126990675926208
visibility: 0.8977105617523193
","x: 150.25563049316406
y: 402.85748291015625
z: -0.4167371392250061
visibility: 0.7491064071655273
","x: 174.1155242919922
y: 396.97503662109375
z: -0.542335569858551
visibility: 0.8295618295669556
","x: 147.92645263671875
y: 402.093505859375
z: -0.43986597657203674
visibility: 0.665753960609436
","x: 173.09666442871094
y: 389.28204345703125
z: -0.5300692319869995
visibility: 0.828561544418335
","x: 148.38597106933594
y: 397.35614013671875
z: -0.4462698996067047
visibility: 0.6582342982292175
","x: 175.4154510498047
y: 389.041748046875
z: -0.5084249973297119
visibility: 0.7397246956825256
","x: 149.536376953125
y: 397.0687561035156
z: -0.4202462136745453
visibility: 0.6180368065834045
","x: 195.24436950683594
y: 420.17926025390625
z: -0.024745438247919083
visibility: 0.9998617768287659
","x: 172.62921142578125
y: 432.273681640625
z: 0.02478191815316677
visibility: 0.9998320937156677
","x: 199.0118865966797
y: 478.83465576171875
z: 0.005208841525018215
visibility: 0.9930370450019836
","x: 167.53854370117188
y: 478.5448913574219
z: 0.021530143916606903
visibility: 0.9588175415992737
","x: 217.47811889648438
y: 526.7489013671875
z: 0.14910975098609924
visibility: 0.993180513381958
","x: 151.41580200195312
y: 525.4054565429688
z: 0.2165006697177887
visibility: 0.9722452163696289
","x: 223.42384338378906
y: 535.4359130859375
z: 0.15781715512275696
visibility: 0.8114509582519531
","x: 151.4354248046875
y: 532.1378173828125
z: 0.2329820692539215
visibility: 0.8452641367912292
","x: 209.93426513671875
y: 547.1275634765625
z: 0.05965632200241089
visibility: 0.9870015382766724
","x: 148.5364227294922
y: 543.2439575195312
z: 0.15556453168392181
visibility: 0.9716808795928955
",,,,,,,,,,,,,,,,,,,,,,,,,,,,,,,,,,,,,,,,,,
26,"x: 170.0203399658203
y: 358.88739013671875
z: -0.5470576882362366
visibility: 0.9993322491645813
","x: 170.5863800048828
y: 345.4772644042969
z: -0.5500629544258118
visibility: 0.9991674423217773
","x: 171.7901611328125
y: 343.3703918457031
z: -0.5499869585037231
visibility: 0.9991235136985779
","x: 173.0228271484375
y: 341.07183837890625
z: -0.5500301122665405
visibility: 0.9990232586860657
","x: 166.9182891845703
y: 351.2618713378906
z: -0.5453399419784546
visibility: 0.9988378286361694
","x: 165.7742156982422
y: 350.9973449707031
z: -0.5454813241958618
visibility: 0.9987168908119202
","x: 164.25328063964844
y: 348.91290283203125
z: -0.5455441474914551
visibility: 0.9989057183265686
","x: 177.455078125
y: 330.8589172363281
z: -0.4672526717185974
visibility: 0.9986188411712646
","x: 162.7278594970703
y: 343.5296936035156
z: -0.4451673924922943
visibility: 0.9978408813476562
","x: 173.00601196289062
y: 353.4792785644531
z: -0.5075051188468933
visibility: 0.9989216327667236
","x: 169.4296417236328
y: 363.0035705566406
z: -0.5016804337501526
visibility: 0.9983707666397095
","x: 194.45037841796875
y: 337.4927978515625
z: -0.35701292753219604
visibility: 0.9997071623802185
","x: 156.71206665039062
y: 356.71697998046875
z: -0.322842538356781
visibility: 0.9997319579124451
","x: 208.28329467773438
y: 377.3065490722656
z: -0.4816388487815857
visibility: 0.9706995487213135
","x: 146.71282958984375
y: 401.58087158203125
z: -0.44112521409988403
visibility: 0.8143747448921204
","x: 186.80569458007812
y: 380.8956298828125
z: -0.6509585976600647
visibility: 0.9049789905548096
","x: 150.4861297607422
y: 391.29400634765625
z: -0.6396414041519165
visibility: 0.7687785029411316
","x: 180.0263671875
y: 379.4136962890625
z: -0.6902836561203003
visibility: 0.8401073813438416
","x: 150.47496032714844
y: 396.87908935546875
z: -0.6823351383209229
visibility: 0.6860103011131287
","x: 178.06607055664062
y: 372.821533203125
z: -0.6799960732460022
visibility: 0.8388036489486694
","x: 153.05044555664062
y: 369.76727294921875
z: -0.6710052490234375
visibility: 0.6761577725410461
","x: 179.8573455810547
y: 372.5323486328125
z: -0.6488925814628601
visibility: 0.7478809952735901
","x: 154.4884033203125
y: 375.92333984375
z: -0.6388996243476868
visibility: 0.6284233927726746
","x: 194.36798095703125
y: 402.08428955078125
z: -0.009751408360898495
visibility: 0.999840259552002
","x: 171.9155731201172
y: 409.6588439941406
z: 0.009665558114647865
visibility: 0.99982750415802
","x: 204.24008178710938
y: 464.0115966796875
z: -0.08321957290172577
visibility: 0.991894006729126
","x: 162.59695434570312
y: 462.04827880859375
z: -0.1723497360944748
visibility: 0.961007297039032
","x: 218.84190368652344
y: 526.052490234375
z: 0.05550510436296463
visibility: 0.9918124079704285
","x: 150.85389709472656
y: 525.2344360351562
z: -0.025449976325035095
visibility: 0.9737737774848938
","x: 222.63636779785156
y: 534.5205078125
z: 0.06089772656559944
visibility: 0.7981953620910645
","x: 151.689697265625
y: 531.744140625
z: -0.017438899725675583
visibility: 0.8327690362930298
","x: 217.66452026367188
y: 547.13525390625
z: -0.07420554012060165
visibility: 0.9852875471115112
","x: 148.34100341796875
y: 544.0167846679688
z: -0.1422647088766098
visibility: 0.9722123146057129
",,,,,,,,,,,,,,,,,,,,,,,,,,,,,,,,,,,,,,,,,,
27,"x: 174.18299865722656
y: 314.870849609375
z: -0.49447497725486755
visibility: 0.9993970990180969
","x: 175.3383331298828
y: 306.087158203125
z: -0.48706603050231934
visibility: 0.9992471933364868
","x: 176.69224548339844
y: 305.24951171875
z: -0.4870571494102478
visibility: 0.9992066621780396
","x: 177.84951782226562
y: 304.5345764160156
z: -0.4871252477169037
visibility: 0.9991130232810974
","x: 171.25502014160156
y: 308.64404296875
z: -0.483023077249527
visibility: 0.998950183391571
","x: 169.59556579589844
y: 309.633544921875
z: -0.4831308424472809
visibility: 0.9988417625427246
","x: 168.11338806152344
y: 310.3617248535156
z: -0.4831726551055908
visibility: 0.999010443687439
","x: 180.42214965820312
y: 304.6524353027344
z: -0.3911295235157013
visibility: 0.9987513422966003
","x: 165.00680541992188
y: 313.82135009765625
z: -0.37184885144233704
visibility: 0.998053789138794
","x: 178.104736328125
y: 320.31182861328125
z: -0.45448675751686096
visibility: 0.999028742313385
","x: 172.65814208984375
y: 324.353759765625
z: -0.4496617913246155
visibility: 0.9985329508781433
","x: 198.68846130371094
y: 326.6778869628906
z: -0.3069320619106293
visibility: 0.9997345209121704
","x: 156.8751678466797
y: 349.8350524902344
z: -0.25823086500167847
visibility: 0.9997559785842896
","x: 212.4512481689453
y: 357.699462890625
z: -0.4440816044807434
visibility: 0.9733776450157166
","x: 149.07347106933594
y: 387.5735778808594
z: -0.3642355799674988
visibility: 0.8320924639701843
","x: 190.38668823242188
y: 345.8168029785156
z: -0.6214058995246887
visibility: 0.9137910604476929
","x: 136.8076171875
y: 386.15130615234375
z: -0.5752614140510559
visibility: 0.7901085019111633
","x: 182.58468627929688
y: 342.40948486328125
z: -0.6618162393569946
visibility: 0.8543316721916199
","x: 131.51832580566406
y: 386.7968444824219
z: -0.6148777008056641
visibility: 0.7133803367614746
","x: 180.3365020751953
y: 335.39068603515625
z: -0.6472947597503662
visibility: 0.8527436852455139
","x: 132.32891845703125
y: 375.7638244628906
z: -0.6174548268318176
visibility: 0.7037376761436462
","x: 181.70758056640625
y: 338.3702392578125
z: -0.6176749467849731
visibility: 0.7678990960121155
","x: 135.49951171875
y: 376.8287658691406
z: -0.5810874700546265
visibility: 0.6579731106758118
","x: 195.89561462402344
y: 399.2388916015625
z: -0.00916123203933239
visibility: 0.999832272529602
","x: 172.1023406982422
y: 407.3246765136719
z: 0.0090407719835639
visibility: 0.9997665286064148
","x: 208.09474182128906
y: 462.6868896484375
z: -0.10125378519296646
visibility: 0.989529550075531
","x: 162.08045959472656
y: 463.24652099609375
z: -0.0809154063463211
visibility: 0.9605693817138672
","x: 219.08306884765625
y: 525.0152587890625
z: 0.07106505334377289
visibility: 0.9904282093048096
","x: 150.73757934570312
y: 525.1222534179688
z: 0.03898265212774277
visibility: 0.9743668437004089
","x: 219.6959686279297
y: 534.3402099609375
z: 0.08437112718820572
visibility: 0.7918169498443604
","x: 151.67315673828125
y: 531.1031494140625
z: -0.01340421847999096
visibility: 0.8358275294303894
","x: 222.973388671875
y: 546.5875854492188
z: -0.0372064933180809
visibility: 0.9816306829452515
","x: 147.79847717285156
y: 544.04833984375
z: 0.00179486651904881
visibility: 0.9712209701538086
",,,,,,,,,,,,,,,,,,,,,,,,,,,,,,,,,,,,,,,,,,
28,"x: 178.8072052001953
y: 301.70587158203125
z: -0.4512770175933838
visibility: 0.9994566440582275
","x: 179.8732452392578
y: 294.14361572265625
z: -0.4436962604522705
visibility: 0.9993208646774292
","x: 181.158203125
y: 293.3531494140625
z: -0.44371452927589417
visibility: 0.9992841482162476
","x: 182.57015991210938
y: 292.59246826171875
z: -0.44378742575645447
visibility: 0.9991987347602844
","x: 175.63279724121094
y: 295.8013000488281
z: -0.4372686445713043
visibility: 0.999052882194519
","x: 174.17666625976562
y: 296.25439453125
z: -0.4373365342617035
visibility: 0.9989549517631531
","x: 172.55055236816406
y: 296.6530456542969
z: -0.43737858533859253
visibility: 0.99910569190979
","x: 184.75172424316406
y: 292.520263671875
z: -0.3543531894683838
visibility: 0.9988731145858765
","x: 169.94033813476562
y: 298.5382080078125
z: -0.3194756507873535
visibility: 0.9982458353042603
","x: 182.31179809570312
y: 307.6749267578125
z: -0.41093283891677856
visibility: 0.9991251230239868
","x: 177.51795959472656
y: 309.02850341796875
z: -0.40280166268348694
visibility: 0.9986789226531982
","x: 199.80734252929688
y: 317.1920471191406
z: -0.2815467417240143
visibility: 0.9997600317001343
","x: 163.56829833984375
y: 332.95916748046875
z: -0.242835134267807
visibility: 0.9997769594192505
","x: 210.0791015625
y: 352.285888671875
z: -0.4053068161010742
visibility: 0.9756745100021362
","x: 150.6100311279297
y: 368.07696533203125
z: -0.21026745438575745
visibility: 0.8418594002723694
","x: 189.4003143310547
y: 334.4057922363281
z: -0.5840985774993896
visibility: 0.9219292998313904
","x: 140.37997436523438
y: 376.64617919921875
z: -0.34884947538375854
visibility: 0.8020690679550171
","x: 183.5263214111328
y: 330.6565856933594
z: -0.626356303691864
visibility: 0.867863118648529
","x: 136.1533203125
y: 382.6919250488281
z: -0.37319937348365784
visibility: 0.7285791039466858
","x: 179.10145568847656
y: 326.8840026855469
z: -0.6158199906349182
visibility: 0.8663458228111267
","x: 136.1529541015625
y: 375.26568603515625
z: -0.39423850178718567
visibility: 0.7196604013442993
","x: 180.1940460205078
y: 328.4591369628906
z: -0.5823265910148621
visibility: 0.7883890271186829
","x: 138.1973876953125
y: 375.558349609375
z: -0.3599744439125061
visibility: 0.674156665802002
","x: 196.6398468017578
y: 403.9859313964844
z: -0.018052659928798676
visibility: 0.9998451471328735
","x: 173.37698364257812
y: 406.5595703125
z: 0.01797470450401306
visibility: 0.999783456325531
","x: 205.72979736328125
y: 466.37811279296875
z: -0.03641008585691452
visibility: 0.9887710213661194
","x: 162.4947509765625
y: 463.8595275878906
z: -0.05731465294957161
visibility: 0.9629623889923096
","x: 218.77029418945312
y: 524.846435546875
z: 0.1768452227115631
visibility: 0.9904067516326904
","x: 150.73727416992188
y: 524.915283203125
z: 0.09320291876792908
visibility: 0.9762512445449829
","x: 218.93626403808594
y: 534.1658325195312
z: 0.19230160117149353
visibility: 0.7999402284622192
","x: 151.7344207763672
y: 531.8983154296875
z: 0.08861036598682404
visibility: 0.8455532193183899
","x: 223.2529754638672
y: 546.6102294921875
z: 0.09056893736124039
visibility: 0.981427788734436
","x: 147.8417510986328
y: 543.9318237304688
z: 0.015563358552753925
visibility: 0.9729371666908264
",,,,,,,,,,,,,,,,,,,,,,,,,,,,,,,,,,,,,,,,,,
29,"x: 186.06927490234375
y: 291.29498291015625
z: -0.18279877305030823
visibility: 0.9995051622390747
","x: 186.9931640625
y: 284.8079833984375
z: -0.16688399016857147
visibility: 0.9993799924850464
","x: 188.09909057617188
y: 284.4383850097656
z: -0.16692544519901276
visibility: 0.999346137046814
","x: 189.11996459960938
y: 284.06243896484375
z: -0.16694635152816772
visibility: 0.999267578125
","x: 183.20460510253906
y: 285.78436279296875
z: -0.16717664897441864
visibility: 0.9991340637207031
","x: 181.667724609375
y: 286.1868591308594
z: -0.1671876609325409
visibility: 0.9990441203117371
","x: 179.99899291992188
y: 286.6845703125
z: -0.1672150045633316
visibility: 0.9991791844367981
","x: 190.16281127929688
y: 287.03131103515625
z: -0.07665149122476578
visibility: 0.9989700317382812
","x: 176.92758178710938
y: 291.72467041015625
z: -0.07709494978189468
visibility: 0.9984034299850464
","x: 188.56680297851562
y: 297.7610168457031
z: -0.14870277047157288
visibility: 0.9992018342018127
","x: 183.8794403076172
y: 298.384033203125
z: -0.14938606321811676
visibility: 0.9988014698028564
","x: 198.570556640625
y: 322.083740234375
z: -0.0511515811085701
visibility: 0.9997736215591431
","x: 167.1040496826172
y: 327.7502746582031
z: -0.018475806340575218
visibility: 0.9997232556343079
","x: 206.1144561767578
y: 348.62420654296875
z: -0.18435409665107727
visibility: 0.9752579927444458
","x: 158.3657989501953
y: 365.683349609375
z: -0.12530411779880524
visibility: 0.8441080451011658
","x: 207.7192840576172
y: 304.6820373535156
z: -0.348654568195343
visibility: 0.9283668398857117
","x: 161.04296875
y: 343.18414306640625
z: -0.30279740691185
visibility: 0.8167638182640076
","x: 209.86972045898438
y: 293.48248291015625
z: -0.38264718651771545
visibility: 0.8785303831100464
","x: 161.40078735351562
y: 338.7726135253906
z: -0.33402055501937866
visibility: 0.7464816570281982
","x: 208.555419921875
y: 290.6070861816406
z: -0.37663355469703674
visibility: 0.8770489692687988
","x: 161.3694610595703
y: 333.20172119140625
z: -0.33226367831230164
visibility: 0.7377988696098328
","x: 207.46803283691406
y: 294.2635498046875
z: -0.35093721747398376
visibility: 0.8054561614990234
","x: 162.28025817871094
y: 335.89794921875
z: -0.30645760893821716
visibility: 0.693993330001831
","x: 196.45103454589844
y: 406.8648986816406
