uscmakers/ReverseChoreography/data/6_humble_kendrick_lamar.csv
,NOSE,LEFT_EYE_INNER,LEFT_EYE,LEFT_EYE_OUTER,RIGHT_EYE_INNER,RIGHT_EYE,RIGHT_EYE_OUTER,LEFT_EAR,RIGHT_EAR,MOUTH_LEFT,MOUTH_RIGHT,LEFT_SHOULDER,RIGHT_SHOULDER,LEFT_ELBOW,RIGHT_ELBOW,LEFT_WRIST,RIGHT_WRIST,LEFT_PINKY,RIGHT_PINKY,LEFT_INDEX,RIGHT_INDEX,LEFT_THUMB,RIGHT_THUMB,LEFT_HIP,RIGHT_HIP,LEFT_KNEE,RIGHT_KNEE,LEFT_ANKLE,RIGHT_ANKLE,LEFT_HEEL,RIGHT_HEEL,LEFT_FOOT_INDEX,RIGHT_FOOT_INDEX,WRIST,THUMB_CPC,THUMB_MCP,THUMB_IP,THUMB_TIP,INDEX_FINGER_MCP,INDEX_FINGER_PIP,INDEX_FINGER_DIP,INDEX_FINGER_TIP,MIDDLE_FINGER_MCP,MIDDLE_FINGER_PIP,MIDDLE_FINGER_DIP,MIDDLE_FINGER_TIP,RING_FINGER_PIP,RING_FINGER_DIP,RING_FINGER_TIP,RING_FINGER_MCP,PINKY_MCP,PINKY_PIP,PINKY_DIP,PINKY_TIP,WRIST2,THUMB_CPC2,THUMB_MCP2,THUMB_IP2,THUMB_TIP2,INDEX_FINGER_MCP2,INDEX_FINGER_PIP2,INDEX_FINGER_DIP2,INDEX_FINGER_TIP2,MIDDLE_FINGER_MCP2,MIDDLE_FINGER_PIP2,MIDDLE_FINGER_DIP2,MIDDLE_FINGER_TIP2,RING_FINGER_PIP2,RING_FINGER_DIP2,RING_FINGER_TIP2,RING_FINGER_MCP2,PINKY_MCP2,PINKY_PIP2,PINKY_DIP2,PINKY_TIP2
0,"x: 182.5099334716797
y: 282.06011962890625
z: -0.2565171718597412
visibility: 0.998490571975708
","x: 185.4400634765625
y: 275.92694091796875
z: -0.24583563208580017
visibility: 0.9977484345436096
","x: 186.89492797851562
y: 276.32318115234375
z: -0.24584098160266876
visibility: 0.9975341558456421
","x: 188.35032653808594
y: 276.71881103515625
z: -0.24586407840251923
visibility: 0.9976118803024292
","x: 182.00814819335938
y: 274.4698486328125
z: -0.24102039635181427
visibility: 0.9973721504211426
","x: 181.0435791015625
y: 273.89422607421875
z: -0.24104814231395721
visibility: 0.9968546032905579
","x: 180.14691162109375
y: 273.4271545410156
z: -0.24108751118183136
visibility: 0.9970550537109375
","x: 191.3533172607422
y: 280.5721435546875
z: -0.16090525686740875
visibility: 0.9955424666404724
","x: 179.8387451171875
y: 275.5111999511719
z: -0.14237098395824432
visibility: 0.9959557056427002
","x: 184.74557495117188
y: 289.12005615234375
z: -0.2236456573009491
visibility: 0.9989622831344604
","x: 180.53536987304688
y: 288.0167236328125
z: -0.21867111325263977
visibility: 0.9992629885673523
","x: 200.89627075195312
y: 316.93017578125
z: -0.13604149222373962
visibility: 0.9994878768920898
","x: 165.96665954589844
y: 311.4496154785156
z: -0.06164714694023132
visibility: 0.9996097683906555
","x: 201.21194458007812
y: 358.9047546386719
z: -0.24729177355766296
visibility: 0.9639894366264343
","x: 144.8472442626953
y: 332.7255859375
z: -0.13029062747955322
visibility: 0.9146047234535217
","x: 187.39137268066406
y: 344.58819580078125
z: -0.4078442454338074
visibility: 0.9609295129776001
","x: 150.5442352294922
y: 341.4169006347656
z: -0.3017576038837433
visibility: 0.7473059296607971
","x: 180.68885803222656
y: 338.17681884765625
z: -0.44812124967575073
visibility: 0.9332131147384644
","x: 152.3282470703125
y: 348.24603271484375
z: -0.3364700376987457
visibility: 0.6113160252571106
","x: 179.02789306640625
y: 336.81756591796875
z: -0.4446030557155609
visibility: 0.9317702054977417
","x: 154.73541259765625
y: 344.9104309082031
z: -0.3369114398956299
visibility: 0.603205680847168
","x: 180.32386779785156
y: 337.96942138671875
z: -0.40922489762306213
visibility: 0.8845123648643494
","x: 154.53414916992188
y: 341.296630859375
z: -0.3068641424179077
visibility: 0.581341028213501
","x: 192.55421447753906
y: 406.3743896484375
z: -0.0077743143774569035
visibility: 0.9998332262039185
","x: 170.70681762695312
y: 407.472900390625
z: 0.0076551055535674095
visibility: 0.9997804760932922
","x: 201.06288146972656
y: 470.13104248046875
z: 0.023565303534269333
visibility: 0.9926453828811646
","x: 164.17225646972656
y: 467.6607666015625
z: 0.03929419443011284
visibility: 0.9928125739097595
","x: 209.88784790039062
y: 523.31982421875
z: 0.21023638546466827
visibility: 0.992316722869873
","x: 159.68931579589844
y: 518.1140747070312
z: 0.25249868631362915
visibility: 0.9906965494155884
","x: 208.82232666015625
y: 530.4276123046875
z: 0.22402051091194153
visibility: 0.8422235250473022
","x: 161.7969512939453
y: 524.713134765625
z: 0.2698111832141876
visibility: 0.8551031351089478
","x: 214.0198211669922
y: 545.9299926757812
z: 0.11702543497085571
visibility: 0.9857382774353027
","x: 156.5090789794922
y: 543.5753173828125
z: 0.17278991639614105
visibility: 0.9855255484580994
",,,,,,,,,,,,,,,,,,,,,,,,,,,,,,,,,,,,,,,,,,
1,"x: 189.26519775390625
y: 274.59210205078125
z: -0.22309117019176483
visibility: 0.9986386895179749
","x: 191.246826171875
y: 269.5238952636719
z: -0.20785680413246155
visibility: 0.9979662895202637
","x: 192.54127502441406
y: 269.8631896972656
z: -0.2078828066587448
visibility: 0.9977728128433228
","x: 193.91049194335938
y: 270.1767883300781
z: -0.20787611603736877
visibility: 0.9978418350219727
","x: 187.56556701660156
y: 268.90533447265625
z: -0.20714326202869415
visibility: 0.9976270794868469
","x: 186.38436889648438
y: 268.85919189453125
z: -0.20715972781181335
visibility: 0.9971612095832825
","x: 185.17306518554688
y: 268.85150146484375
z: -0.20716719329357147
visibility: 0.9973416328430176
","x: 196.09718322753906
y: 274.14654541015625
z: -0.11711380630731583
visibility: 0.9959718585014343
","x: 184.15968322753906
y: 272.9441223144531
z: -0.11303768306970596
visibility: 0.9963468909263611
","x: 191.88626098632812
y: 282.2241516113281
z: -0.18943877518177032
visibility: 0.9990636110305786
","x: 187.11474609375
y: 281.68524169921875
z: -0.18830308318138123
visibility: 0.9993346929550171
","x: 209.51815795898438
y: 312.4954833984375
z: -0.07017756998538971
visibility: 0.9995362162590027
","x: 171.63412475585938
y: 311.6324768066406
z: -0.06199529767036438
visibility: 0.9996433258056641
","x: 218.18829345703125
y: 352.696044921875
z: -0.11186925321817398
visibility: 0.9658266305923462
","x: 161.9605255126953
y: 351.0426330566406
z: -0.1190384030342102
visibility: 0.9219426512718201
","x: 215.97808837890625
y: 372.92681884765625
z: -0.26891273260116577
visibility: 0.9626291394233704
","x: 171.17372131347656
y: 376.7749328613281
z: -0.2765888273715973
visibility: 0.7703391909599304
","x: 215.94113159179688
y: 384.534423828125
z: -0.3106852173805237
visibility: 0.9359000325202942
","x: 173.40875244140625
y: 387.1523742675781
z: -0.31860339641571045
visibility: 0.6459077596664429
","x: 213.25685119628906
y: 380.0453186035156
z: -0.32927289605140686
visibility: 0.9348194599151611
","x: 176.54872131347656
y: 382.5021667480469
z: -0.32858559489250183
visibility: 0.6386200189590454
","x: 212.36175537109375
y: 375.6876220703125
z: -0.28010040521621704
visibility: 0.8910834789276123
","x: 176.60035705566406
y: 378.89453125
z: -0.28426459431648254
visibility: 0.6176280379295349
","x: 202.16517639160156
y: 406.71392822265625
z: -0.00170632335357368
visibility: 0.9998360276222229
","x: 181.4267120361328
y: 407.1389465332031
z: 0.0016829691594466567
visibility: 0.9997873306274414
","x: 208.11279296875
y: 466.98565673828125
z: 0.004376299679279327
visibility: 0.9930219054222107
","x: 177.83998107910156
y: 467.6186828613281
z: 0.013369075953960419
visibility: 0.9930685758590698
","x: 210.20510864257812
y: 522.372802734375
z: 0.1929108202457428
visibility: 0.9924086332321167
","x: 174.34283447265625
y: 521.3076171875
z: 0.1977287381887436
visibility: 0.9909673929214478
","x: 208.69137573242188
y: 530.116943359375
z: 0.20615670084953308
visibility: 0.8472086787223816
","x: 175.21536254882812
y: 527.8553466796875
z: 0.21068403124809265
visibility: 0.8564171195030212
","x: 214.3105010986328
y: 545.687744140625
z: 0.10256244242191315
visibility: 0.9860976338386536
","x: 173.60797119140625
y: 544.7437133789062
z: 0.10616938024759293
visibility: 0.9859023094177246
",,,,,,,,,,,,,,,,,,,,,,,,,,,,,,,,,,,,,,,,,,
2,"x: 192.09323120117188
y: 273.9584655761719
z: -0.2293785810470581
visibility: 0.9987285733222961
","x: 194.00814819335938
y: 268.112060546875
z: -0.22094981372356415
visibility: 0.9980897903442383
","x: 195.23867797851562
y: 268.34375
z: -0.22092148661613464
visibility: 0.9979192614555359
","x: 196.49905395507812
y: 268.6330261230469
z: -0.22090227901935577
visibility: 0.9979779124259949
","x: 190.45037841796875
y: 267.8231201171875
z: -0.21448855102062225
visibility: 0.9977378249168396
","x: 189.23231506347656
y: 267.88079833984375
z: -0.2144794464111328
visibility: 0.9973102807998657
","x: 187.99966430664062
y: 267.9823913574219
z: -0.21460330486297607
visibility: 0.9974386096000671
","x: 198.29856872558594
y: 272.3804626464844
z: -0.13411089777946472
visibility: 0.9962618947029114
","x: 186.67059326171875
y: 271.92333984375
z: -0.11817078292369843
visibility: 0.9963626861572266
","x: 194.36920166015625
y: 280.75311279296875
z: -0.19974598288536072
visibility: 0.9991143941879272
","x: 190.0125274658203
y: 280.5829162597656
z: -0.19031378626823425
visibility: 0.9993302226066589
","x: 210.7183837890625
y: 311.9395751953125
z: -0.08939027786254883
visibility: 0.9995684027671814
","x: 173.45156860351562
y: 310.40814208984375
z: -0.07407455891370773
visibility: 0.9995737075805664
","x: 221.02371215820312
y: 353.18829345703125
z: -0.1514885425567627
visibility: 0.9666947722434998
","x: 161.40065002441406
y: 346.6147155761719
z: -0.1764671802520752
visibility: 0.9244458079338074
","x: 223.16546630859375
y: 367.72772216796875
z: -0.3007812201976776
visibility: 0.9624603390693665
","x: 162.9040985107422
y: 323.92498779296875
z: -0.3873286247253418
visibility: 0.7850947380065918
","x: 221.6925811767578
y: 371.9244079589844
z: -0.3371358811855316
visibility: 0.9337998032569885
","x: 169.20150756835938
y: 318.34979248046875
z: -0.4315760135650635
visibility: 0.6672457456588745
","x: 220.73629760742188
y: 365.4642028808594
z: -0.35060277581214905
visibility: 0.933334231376648
","x: 171.93177795410156
y: 313.49066162109375
z: -0.43590086698532104
visibility: 0.6606795191764832
","x: 220.22402954101562
y: 363.9438171386719
z: -0.30954745411872864
visibility: 0.8918465971946716
","x: 171.8348388671875
y: 316.3494567871094
z: -0.3959990441799164
visibility: 0.6395230889320374
","x: 201.6900177001953
y: 406.689453125
z: 0.0036084644962102175
visibility: 0.9998220205307007
","x: 180.71353149414062
y: 404.7232666015625
z: -0.0036039059050381184
visibility: 0.999775767326355
","x: 206.82095336914062
y: 467.23931884765625
z: 0.023905785754323006
visibility: 0.9922844767570496
","x: 179.85047912597656
y: 466.23822021484375
z: -0.020712701603770256
visibility: 0.9930441975593567
","x: 206.62127685546875
y: 523.5791015625
z: 0.19524060189723969
visibility: 0.9914945960044861
","x: 175.9608917236328
y: 521.2224731445312
z: 0.1422618329524994
visibility: 0.9907312393188477
","x: 203.86875915527344
y: 532.2406616210938
z: 0.20675194263458252
visibility: 0.8504847884178162
","x: 176.538330078125
y: 528.6014404296875
z: 0.15346850454807281
visibility: 0.8542044162750244
","x: 212.50698852539062
y: 545.4619750976562
z: 0.10522864758968353
visibility: 0.9850395321846008
","x: 175.9307098388672
y: 544.7179565429688
z: 0.046831559389829636
visibility: 0.985793948173523
",,,,,,,,,,,,,,,,,,,,,,,,,,,,,,,,,,,,,,,,,,
3,"x: 193.00534057617188
y: 272.187744140625
z: -0.25551217794418335
visibility: 0.998727023601532
","x: 194.88011169433594
y: 266.65679931640625
z: -0.24230973422527313
visibility: 0.9979499578475952
","x: 196.05044555664062
y: 266.8459167480469
z: -0.24234744906425476
visibility: 0.9977854490280151
","x: 197.30355834960938
y: 267.1097717285156
z: -0.24238678812980652
visibility: 0.997795581817627
","x: 191.44834899902344
y: 266.4679870605469
z: -0.24210822582244873
visibility: 0.9976146221160889
","x: 190.25091552734375
y: 266.5350036621094
z: -0.2421642243862152
visibility: 0.9972721934318542
","x: 188.96163940429688
y: 266.6567687988281
z: -0.2422010451555252
visibility: 0.9973861575126648
","x: 199.09552001953125
y: 271.05303955078125
z: -0.1498354822397232
visibility: 0.9959486722946167
","x: 186.85797119140625
y: 270.4092712402344
z: -0.15230682492256165
visibility: 0.9961576461791992
","x: 195.15966796875
y: 278.9233093261719
z: -0.2217225581407547
visibility: 0.999035656452179
","x: 190.98284912109375
y: 278.8052062988281
z: -0.2213394194841385
visibility: 0.9992547035217285
","x: 211.2529296875
y: 310.6510009765625
z: -0.09757313132286072
visibility: 0.9995463490486145
","x: 173.33279418945312
y: 310.3410949707031
z: -0.09902520477771759
visibility: 0.9995637536048889
","x: 219.56939697265625
y: 351.13525390625
z: -0.14175328612327576
visibility: 0.9619576334953308
","x: 156.9999237060547
y: 343.60247802734375
z: -0.18919388949871063
visibility: 0.9309507012367249
","x: 228.17257690429688
y: 370.60552978515625
z: -0.2925311326980591
visibility: 0.9542840123176575
","x: 155.3615264892578
y: 322.1614990234375
z: -0.3847927451133728
visibility: 0.804742157459259
","x: 230.0225067138672
y: 376.0823059082031
z: -0.32495132088661194
visibility: 0.9207106828689575
","x: 150.67408752441406
y: 311.435791015625
z: -0.42696595191955566
visibility: 0.6961669325828552
","x: 229.3586883544922
y: 372.561279296875
z: -0.34276580810546875
visibility: 0.9220064878463745
","x: 154.56539916992188
y: 307.1014404296875
z: -0.432426393032074
visibility: 0.6903821229934692
","x: 227.70993041992188
y: 370.50677490234375
z: -0.3042083978652954
visibility: 0.8830603957176208
","x: 153.771484375
y: 308.48895263671875
z: -0.3933919668197632
visibility: 0.6702499389648438
","x: 201.9832305908203
y: 404.71978759765625
z: 0.00708876084536314
visibility: 0.99978107213974
","x: 181.08946228027344
y: 403.1181335449219
z: -0.007147111929953098
visibility: 0.9997472167015076
","x: 206.1490936279297
y: 467.3731994628906
z: 0.03486603870987892
visibility: 0.9908217787742615
","x: 181.89178466796875
y: 464.767578125
z: -0.01356323342770338
visibility: 0.992693305015564
","x: 205.13934326171875
y: 523.6211547851562
z: 0.22495391964912415
visibility: 0.9899454116821289
","x: 181.61036682128906
y: 520.6953125
z: 0.1671692132949829
visibility: 0.9900725483894348
","x: 202.81967163085938
y: 532.177001953125
z: 0.2388918399810791
visibility: 0.850376307964325
","x: 181.97984313964844
y: 526.761962890625
z: 0.18120822310447693
visibility: 0.8510708212852478
","x: 211.2202606201172
y: 545.358642578125
z: 0.14396993815898895
visibility: 0.983868420124054
","x: 183.69802856445312
y: 544.0357666015625
z: 0.07689227163791656
visibility: 0.9855201244354248
",,,,,,,,,,,,,,,,,,,,,,,,,,,,,,,,,,,,,,,,,,
4,"x: 191.8890838623047
y: 271.6778564453125
z: -0.24990899860858917
visibility: 0.9988491535186768
","x: 194.07473754882812
y: 266.5977783203125
z: -0.23409084975719452
visibility: 0.9981420040130615
","x: 195.23052978515625
y: 266.9859619140625
z: -0.23410610854625702
visibility: 0.9979923367500305
","x: 196.41851806640625
y: 267.39825439453125
z: -0.23411329090595245
visibility: 0.9980000257492065
","x: 190.3341827392578
y: 265.7974853515625
z: -0.23465979099273682
visibility: 0.9978336691856384
","x: 188.9501190185547
y: 265.7281188964844
z: -0.23468904197216034
visibility: 0.9975245594978333
","x: 187.59954833984375
y: 265.7677307128906
z: -0.23466508090496063
visibility: 0.9976231455802917
","x: 198.283447265625
y: 271.4472351074219
z: -0.1403665840625763
visibility: 0.9963303208351135
","x: 185.8096160888672
y: 269.6331481933594
z: -0.14798375964164734
visibility: 0.9964808225631714
","x: 194.16445922851562
y: 279.34100341796875
z: -0.21578696370124817
visibility: 0.9991258382797241
","x: 189.3051300048828
y: 278.89996337890625
z: -0.2173566371202469
visibility: 0.9993209838867188
","x: 209.46766662597656
y: 311.1151428222656
z: -0.09039870649576187
visibility: 0.9995882511138916
","x: 172.35948181152344
y: 310.4625549316406
z: -0.08642292022705078
visibility: 0.9995725750923157
","x: 217.67474365234375
y: 351.4002990722656
z: -0.10608308017253876
visibility: 0.9645715355873108
","x: 155.93661499023438
y: 345.756591796875
z: -0.18865635991096497
visibility: 0.9366758465766907
","x: 228.04119873046875
y: 385.2534484863281
z: -0.22220897674560547
visibility: 0.9580928683280945
","x: 155.37423706054688
y: 319.7024230957031
z: -0.39840126037597656
visibility: 0.8234029412269592
","x: 231.2418670654297
y: 395.03424072265625
z: -0.2491241991519928
visibility: 0.9266760349273682
","x: 151.81509399414062
y: 308.081298828125
z: -0.4428481161594391
visibility: 0.7244728207588196
","x: 230.2200164794922
y: 392.8509826660156
z: -0.2698560953140259
visibility: 0.9279680848121643
","x: 155.0820770263672
y: 303.2644348144531
z: -0.4431660771369934
visibility: 0.7192203998565674
","x: 228.6295166015625
y: 389.7278137207031
z: -0.2330414354801178
visibility: 0.8925232291221619
","x: 154.15292358398438
y: 306.9139404296875
z: -0.40521878004074097
visibility: 0.7004389762878418
","x: 201.6225128173828
y: 406.2616271972656
z: 0.005538376048207283
visibility: 0.9997965097427368
","x: 180.7150421142578
y: 405.97509765625
z: -0.005629170686006546
visibility: 0.9997608065605164
","x: 206.05014038085938
y: 467.80535888671875
z: 0.03786846995353699
visibility: 0.9911405444145203
","x: 181.6824188232422
y: 465.6331787109375
z: 0.030689526349306107
visibility: 0.9926171898841858
","x: 205.0481719970703
y: 522.3226318359375
z: 0.27225539088249207
visibility: 0.9897462129592896
","x: 184.01632690429688
y: 520.36669921875
z: 0.2654685378074646
visibility: 0.9899378418922424
","x: 202.66355895996094
y: 529.181884765625
z: 0.2913466691970825
visibility: 0.855167806148529
","x: 185.8797607421875
y: 525.5452880859375
z: 0.2855497896671295
visibility: 0.8527811169624329
","x: 210.76866149902344
y: 545.3702392578125
z: 0.19890019297599792
visibility: 0.9841219186782837
","x: 183.87026977539062
y: 544.1467895507812
z: 0.19132012128829956
visibility: 0.9858025312423706
",,,,,,,,,,,,,,,,,,,,,,,,,,,,,,,,,,,,,,,,,,
5,"x: 191.42919921875
y: 272.2916259765625
z: -0.2441762238740921
visibility: 0.9989604949951172
","x: 193.4322052001953
y: 266.96826171875
z: -0.22801366448402405
visibility: 0.9983164668083191
","x: 194.56809997558594
y: 267.322265625
z: -0.2280198037624359
visibility: 0.9981816411018372
","x: 195.72198486328125
y: 267.72344970703125
z: -0.22801825404167175
visibility: 0.9981867074966431
","x: 189.8728485107422
y: 266.3092346191406
z: -0.22855885326862335
visibility: 0.9980340003967285
","x: 188.5629119873047
y: 266.2586669921875
z: -0.2285793125629425
visibility: 0.9977560639381409
","x: 187.26559448242188
y: 266.2959899902344
z: -0.22856266796588898
visibility: 0.997840404510498
","x: 197.6543731689453
y: 272.0016784667969
z: -0.1341180056333542
visibility: 0.9966797828674316
","x: 185.35848999023438
y: 270.00567626953125
z: -0.14057649672031403
visibility: 0.9967721104621887
","x: 193.6914825439453
y: 279.9737548828125
z: -0.20964553952217102
visibility: 0.99920654296875
","x: 188.99069213867188
y: 279.6453552246094
z: -0.211375430226326
visibility: 0.9993786811828613
","x: 208.63873291015625
y: 311.5686340332031
z: -0.07282605022192001
visibility: 0.9996246695518494
","x: 172.6149139404297
y: 312.0178527832031
z: -0.08170624077320099
visibility: 0.9995678663253784
","x: 215.36685180664062
y: 352.4245910644531
z: -0.04680821672081947
visibility: 0.9667229056358337
","x: 163.66041564941406
y: 356.6614990234375
z: -0.17773546278476715
visibility: 0.940687358379364
","x: 225.17323303222656
y: 391.4844970703125
z: -0.12667697668075562
visibility: 0.9614073634147644
","x: 162.49021911621094
y: 324.8714599609375
z: -0.39074215292930603
visibility: 0.8401206731796265
","x: 229.17564392089844
y: 400.1930236816406
z: -0.14469802379608154
visibility: 0.9318834543228149
","x: 159.82115173339844
y: 317.7569885253906
z: -0.4332880973815918
visibility: 0.7501489520072937
","x: 228.34376525878906
y: 398.39642333984375
z: -0.17072506248950958
visibility: 0.9331912398338318
","x: 160.22996520996094
y: 313.35821533203125
z: -0.4371984601020813
visibility: 0.7454184889793396
","x: 226.52725219726562
y: 395.6396789550781
z: -0.13816526532173157
visibility: 0.9008097648620605
","x: 161.59837341308594
y: 316.5406494140625
z: -0.3984766900539398
visibility: 0.7277079820632935
","x: 201.32077026367188
y: 405.5391845703125
z: 0.0055350977927446365
visibility: 0.9998040795326233
","x: 180.2709503173828
y: 405.34478759765625
z: -0.005629742983728647
visibility: 0.9997619986534119
","x: 206.47616577148438
y: 466.922119140625
z: -0.011389842256903648
visibility: 0.9916661381721497
","x: 181.0376739501953
y: 465.7092590332031
z: 0.011863385327160358
visibility: 0.9927462339401245
","x: 204.44970703125
y: 520.149658203125
z: 0.18738293647766113
visibility: 0.989952564239502
","x: 183.91624450683594
y: 521.412109375
z: 0.20088417828083038
visibility: 0.9902533292770386
","x: 201.42483520507812
y: 526.4536743164062
z: 0.2015465945005417
visibility: 0.8612929582595825
","x: 186.00985717773438
y: 527.3314819335938
z: 0.21473507583141327
visibility: 0.8574882745742798
","x: 208.84103393554688
y: 545.3075561523438
z: 0.10312016308307648
visibility: 0.9847313761711121
","x: 182.7213134765625
y: 544.2215576171875
z: 0.11496029794216156
visibility: 0.9863989949226379
","x: 166.19671630859375
y: 328.21331787109375
z: 0.0
","x: 167.72116088867188
y: 323.0313720703125
z: -0.0013446121010929346
","x: 168.3640594482422
y: 317.2939758300781
z: -0.0033810304012149572
","x: 169.319091796875
y: 312.86932373046875
z: -0.006110543850809336
","x: 170.41744995117188
y: 308.87872314453125
z: -0.008949412032961845
","x: 162.34732055664062
y: 309.3314208984375
z: -0.00177514657843858
","x: 160.63201904296875
y: 301.6405029296875
z: -0.004834311082959175
","x: 159.49642944335938
y: 297.4312744140625
z: -0.0070379916578531265
","x: 158.55398559570312
y: 293.8794860839844
z: -0.008500128984451294
","x: 160.72579956054688
y: 311.33349609375
z: -0.0038224097806960344
","x: 158.6342010498047
y: 303.7679748535156
z: -0.006385184824466705
","x: 157.46054077148438
y: 299.38128662109375
z: -0.007936924695968628
","x: 156.32699584960938
y: 295.8289794921875
z: -0.009166985750198364
","x: 159.5214385986328
y: 314.9078674316406
z: -0.006360643543303013
","x: 157.2437744140625
y: 308.6864929199219
z: -0.009315150789916515
","x: 155.98373413085938
y: 304.3977966308594
z: -0.010993212461471558
","x: 155.0299530029297
y: 300.87786865234375
z: -0.012150026857852936
","x: 158.72633361816406
y: 319.4530944824219
z: -0.009202712215483189
","x: 155.96083068847656
y: 316.58673095703125
z: -0.01179943885654211
","x: 154.43458557128906
y: 314.1522216796875
z: -0.0130219841375947
","x: 153.4284210205078
y: 311.89251708984375
z: -0.01388746127486229
",,,,,,,,,,,,,,,,,,,,,
6,"x: 191.42919921875
y: 272.2916259765625
z: -0.2441762238740921
visibility: 0.9989604949951172
","x: 193.4322052001953
y: 266.96826171875
z: -0.22801366448402405
visibility: 0.9983164668083191
","x: 194.56809997558594
y: 267.322265625
z: -0.2280198037624359
visibility: 0.9981816411018372
","x: 195.72198486328125
y: 267.72344970703125
z: -0.22801825404167175
visibility: 0.9981867074966431
","x: 189.8728485107422
y: 266.3092346191406
z: -0.22855885326862335
visibility: 0.9980340003967285
","x: 188.5629119873047
y: 266.2586669921875
z: -0.2285793125629425
visibility: 0.9977560639381409
","x: 187.26559448242188
y: 266.2959899902344
z: -0.22856266796588898
visibility: 0.997840404510498
","x: 197.6543731689453
y: 272.0016784667969
z: -0.1341180056333542
visibility: 0.9966797828674316
","x: 185.35848999023438
y: 270.00567626953125
z: -0.14057649672031403
visibility: 0.9967721104621887
","x: 193.6914825439453
y: 279.9737548828125
z: -0.20964553952217102
visibility: 0.99920654296875
","x: 188.99069213867188
y: 279.6453552246094
z: -0.211375430226326
visibility: 0.9993786811828613
","x: 208.63873291015625
y: 311.5686340332031
z: -0.07282605022192001
visibility: 0.9996246695518494
","x: 172.6149139404297
y: 312.0178527832031
z: -0.08170624077320099
visibility: 0.9995678663253784
","x: 215.36685180664062
y: 352.4245910644531
z: -0.04680821672081947
visibility: 0.9667229056358337
","x: 163.66041564941406
y: 356.6614990234375
z: -0.17773546278476715
visibility: 0.940687358379364
","x: 225.17323303222656
y: 391.4844970703125
z: -0.12667697668075562
visibility: 0.9614073634147644
","x: 162.49021911621094
y: 324.8714599609375
z: -0.39074215292930603
visibility: 0.8401206731796265
","x: 229.17564392089844
y: 400.1930236816406
z: -0.14469802379608154
visibility: 0.9318834543228149
","x: 159.82115173339844
y: 317.7569885253906
z: -0.4332880973815918
visibility: 0.7501489520072937
","x: 228.34376525878906
y: 398.39642333984375
z: -0.17072506248950958
visibility: 0.9331912398338318
","x: 160.22996520996094
y: 313.35821533203125
z: -0.4371984601020813
visibility: 0.7454184889793396
","x: 226.52725219726562
y: 395.6396789550781
z: -0.13816526532173157
visibility: 0.9008097648620605
","x: 161.59837341308594
y: 316.5406494140625
z: -0.3984766900539398
visibility: 0.7277079820632935
","x: 201.32077026367188
y: 405.5391845703125
z: 0.0055350977927446365
visibility: 0.9998040795326233
","x: 180.2709503173828
y: 405.34478759765625
z: -0.005629742983728647
visibility: 0.9997619986534119
","x: 206.47616577148438
y: 466.922119140625
z: -0.011389842256903648
visibility: 0.9916661381721497
","x: 181.0376739501953
y: 465.7092590332031
z: 0.011863385327160358
visibility: 0.9927462339401245
","x: 204.44970703125
y: 520.149658203125
z: 0.18738293647766113
visibility: 0.989952564239502
","x: 183.91624450683594
y: 521.412109375
z: 0.20088417828083038
visibility: 0.9902533292770386
","x: 201.42483520507812
y: 526.4536743164062
z: 0.2015465945005417
visibility: 0.8612929582595825
","x: 186.00985717773438
y: 527.3314819335938
z: 0.21473507583141327
visibility: 0.8574882745742798
","x: 208.84103393554688
y: 545.3075561523438
z: 0.10312016308307648
visibility: 0.9847313761711121
","x: 182.7213134765625
y: 544.2215576171875
z: 0.11496029794216156
visibility: 0.9863989949226379
","x: 166.19671630859375
y: 328.21331787109375
z: 0.0
","x: 167.72116088867188
y: 323.0313720703125
z: -0.0013446121010929346
","x: 168.3640594482422
y: 317.2939758300781
z: -0.0033810304012149572
","x: 169.319091796875
y: 312.86932373046875
z: -0.006110543850809336
","x: 170.41744995117188
y: 308.87872314453125
z: -0.008949412032961845
","x: 162.34732055664062
y: 309.3314208984375
z: -0.00177514657843858
","x: 160.63201904296875
y: 301.6405029296875
z: -0.004834311082959175
","x: 159.49642944335938
y: 297.4312744140625
z: -0.0070379916578531265
","x: 158.55398559570312
y: 293.8794860839844
z: -0.008500128984451294
","x: 160.72579956054688
y: 311.33349609375
z: -0.0038224097806960344
","x: 158.6342010498047
y: 303.7679748535156
z: -0.006385184824466705
","x: 157.46054077148438
y: 299.38128662109375
z: -0.007936924695968628
","x: 156.32699584960938
y: 295.8289794921875
z: -0.009166985750198364
","x: 159.5214385986328
y: 314.9078674316406
z: -0.006360643543303013
","x: 157.2437744140625
y: 308.6864929199219
z: -0.009315150789916515
","x: 155.98373413085938
y: 304.3977966308594
z: -0.010993212461471558
","x: 155.0299530029297
y: 300.87786865234375
z: -0.012150026857852936
","x: 158.72633361816406
y: 319.4530944824219
z: -0.009202712215483189
","x: 155.96083068847656
y: 316.58673095703125
z: -0.01179943885654211
","x: 154.43458557128906
y: 314.1522216796875
z: -0.0130219841375947
","x: 153.4284210205078
y: 311.89251708984375
z: -0.01388746127486229
",,,,,,,,,,,,,,,,,,,,,
7,"x: 191.27976989746094
y: 272.4291687011719
z: -0.24412694573402405
visibility: 0.9990589022636414
","x: 193.34385681152344
y: 266.8033142089844
z: -0.228399395942688
visibility: 0.9984645843505859
","x: 194.52281188964844
y: 267.157470703125
z: -0.22841234505176544
visibility: 0.9983410835266113
","x: 195.69613647460938
y: 267.556884765625
z: -0.22842712700366974
visibility: 0.9983441233634949
","x: 189.69158935546875
y: 266.17523193359375
z: -0.2295716255903244
visibility: 0.9982073307037354
","x: 188.3546142578125
y: 266.1416015625
z: -0.2295946329832077
visibility: 0.997959315776825
","x: 187.0213623046875
y: 266.20404052734375
z: -0.22958560287952423
visibility: 0.9980319142341614
","x: 197.5994110107422
y: 271.835693359375
z: -0.13010041415691376
visibility: 0.9969621300697327
","x: 185.02743530273438
y: 270.0909118652344
z: -0.14307306706905365
visibility: 0.9970430731773376
","x: 193.61729431152344
y: 280.16259765625
z: -0.20719249546527863
visibility: 0.9992781281471252
","x: 188.69798278808594
y: 279.9451904296875
z: -0.2111702412366867
visibility: 0.99942946434021
","x: 208.50502014160156
y: 312.46588134765625
z: -0.05535227060317993
visibility: 0.999652087688446
","x: 172.69776916503906
y: 311.674072265625
z: -0.09910501539707184
visibility: 0.9995917081832886
","x: 214.39605712890625
y: 356.7057800292969
z: -0.011212402954697609
visibility: 0.9571166038513184
","x: 169.49476623535156
y: 353.78607177734375
z: -0.1696857362985611
visibility: 0.9342831969261169
","x: 220.830322265625
y: 398.9900207519531
z: -0.08047213405370712
visibility: 0.9498404860496521
","x: 165.74807739257812
y: 373.9649658203125
z: -0.36324355006217957
visibility: 0.8447408080101013
","x: 223.73036193847656
y: 410.44635009765625
z: -0.09661512076854706
visibility: 0.9171291589736938
","x: 163.39491271972656
y: 383.5899658203125
z: -0.4098527431488037
visibility: 0.7620695233345032
","x: 222.8887481689453
y: 410.16705322265625
z: -0.12521785497665405
visibility: 0.9202410578727722
","x: 163.73081970214844
y: 381.5911865234375
z: -0.4112698435783386
visibility: 0.7585024237632751
","x: 221.43605041503906
y: 406.5554504394531
z: -0.09330020844936371
visibility: 0.8882905840873718
","x: 165.5238037109375
y: 378.28472900390625
z: -0.39458805322647095
visibility: 0.7394790649414062
","x: 201.3591766357422
y: 406.5284423828125
z: 0.006871014833450317
visibility: 0.9998165369033813
","x: 180.65902709960938
y: 405.5294189453125
z: -0.006950105540454388
visibility: 0.999772310256958
","x: 203.4021759033203
y: 467.5118713378906
z: -0.018096018582582474
visibility: 0.9914915561676025
","x: 180.0056915283203
y: 466.26837158203125
z: 0.012046814896166325
visibility: 0.9918519854545593
","x: 201.04739379882812
y: 526.0655517578125
z: 0.16573810577392578
visibility: 0.989604115486145
","x: 184.27252197265625
y: 520.8134765625
z: 0.24966426193714142
visibility: 0.989503026008606
","x: 198.81777954101562
y: 533.173828125
z: 0.17869073152542114
visibility: 0.8612421751022339
","x: 186.30601501464844
y: 526.6345825195312
z: 0.2680475413799286
visibility: 0.8539047837257385
","x: 202.66110229492188
y: 550.1288452148438
z: 0.07221896201372147
visibility: 0.9848736524581909
","x: 183.26104736328125
y: 544.1755981445312
z: 0.17382904887199402
visibility: 0.9859737753868103
",,,,,,,,,,,,,,,,,,,,,,,,,,,,,,,,,,,,,,,,,,
8,"x: 191.8710479736328
y: 272.8530578613281
z: -0.25303736329078674
visibility: 0.9991474151611328
","x: 193.74046325683594
y: 267.16961669921875
z: -0.23691025376319885
visibility: 0.9986011385917664
","x: 194.8411865234375
y: 267.5196533203125
z: -0.23693124949932098
visibility: 0.998488187789917
","x: 195.98452758789062
y: 267.920654296875
z: -0.23696407675743103
visibility: 0.9984903931617737
","x: 190.19158935546875
y: 266.49481201171875
z: -0.2424548864364624
visibility: 0.9983659386634827
","x: 188.79005432128906
y: 266.4252624511719
z: -0.2424704134464264
visibility: 0.9981427192687988
","x: 187.38209533691406
y: 266.4522705078125
z: -0.2424960434436798
visibility: 0.9982035160064697
","x: 197.74501037597656
y: 272.1881408691406
z: -0.13355466723442078
visibility: 0.9972254037857056
","x: 184.85696411132812
y: 270.2599792480469
z: -0.16176876425743103
visibility: 0.9972928762435913
","x: 194.0394287109375
y: 280.5102233886719
z: -0.21311640739440918
visibility: 0.9993429780006409
","x: 189.16357421875
y: 280.1651916503906
z: -0.22192442417144775
visibility: 0.9994767308235168
","x: 208.2496337890625
y: 312.51312255859375
z: -0.06768882274627686
visibility: 0.9996795654296875
","x: 172.8377227783203
y: 311.5159912109375
z: -0.11792159080505371
visibility: 0.9996097683906555
","x: 214.34832763671875
y: 357.6935119628906
z: -0.024918101727962494
visibility: 0.9536078572273254
","x: 171.9657440185547
y: 353.6270751953125
z: -0.17448502779006958
visibility: 0.9293914437294006
","x: 219.27536010742188
y: 400.86859130859375
z: -0.08813708275556564
visibility: 0.9477818012237549
","x: 174.18307495117188
y: 382.85968017578125
z: -0.3355438709259033
visibility: 0.8474093079566956
","x: 222.24171447753906
y: 413.3774108886719
z: -0.10610894858837128
visibility: 0.914208710193634
","x: 171.10098266601562
y: 394.22467041015625
z: -0.37569400668144226
visibility: 0.7707549929618835
","x: 221.14727783203125
y: 413.38458251953125
z: -0.13495700061321259
visibility: 0.9179829359054565
","x: 172.22274780273438
y: 393.583251953125
z: -0.3947433531284332
visibility: 0.767937958240509
","x: 219.55714416503906
y: 409.5921630859375
z: -0.10093758255243301
visibility: 0.8876558542251587
","x: 174.56637573242188
y: 389.1888732910156
z: -0.35263174772262573
visibility: 0.7474309206008911
","x: 201.1172332763672
y: 407.15020751953125
z: 0.007346427533775568
visibility: 0.9998250603675842
","x: 180.8584442138672
y: 405.69091796875
z: -0.007409486919641495
visibility: 0.9997775554656982
","x: 200.65731811523438
y: 469.48956298828125
z: 0.02206682600080967
visibility: 0.99083012342453
","x: 180.06248474121094
y: 466.181640625
z: 0.03728625550866127
visibility: 0.990425705909729
","x: 200.77757263183594
y: 527.823486328125
z: 0.19234377145767212
visibility: 0.9884421825408936
","x: 184.74522399902344
y: 520.7864990234375
z: 0.26105359196662903
visibility: 0.98844975233078
","x: 198.47850036621094
y: 534.819580078125
z: 0.20229604840278625
visibility: 0.8622426986694336
","x: 186.2989501953125
y: 526.5885620117188
z: 0.2784479260444641
visibility: 0.8515231013298035
","x: 202.6543426513672
y: 551.0784301757812
z: 0.11006136983633041
visibility: 0.9840264320373535
","x: 183.359375
y: 543.8544311523438
z: 0.18505236506462097
visibility: 0.985085129737854
",,,,,,,,,,,,,,,,,,,,,,,,,,,,,,,,,,,,,,,,,,
9,"x: 191.7407989501953
y: 273.7021484375
z: -0.2463824301958084
visibility: 0.9992260336875916
","x: 193.5734100341797
y: 267.6239013671875
z: -0.23233839869499207
visibility: 0.9987168908119202
","x: 194.6947021484375
y: 267.8332214355469
z: -0.23233993351459503
visibility: 0.9986110329627991
","x: 195.84823608398438
y: 268.16754150390625
z: -0.23235520720481873
visibility: 0.9986114501953125
","x: 190.04588317871094
y: 267.5052185058594
z: -0.23919077217578888
visibility: 0.998503565788269
","x: 188.68023681640625
y: 267.6105041503906
z: -0.23918381333351135
visibility: 0.998301088809967
","x: 187.33824157714844
y: 267.7396240234375
z: -0.23922722041606903
visibility: 0.99835205078125
","x: 197.79647827148438
y: 272.5226745605469
z: -0.13433241844177246
visibility: 0.9974304437637329
","x: 185.11795043945312
y: 271.4193420410156
z: -0.15663863718509674
visibility: 0.9975141882896423
","x: 194.06814575195312
y: 281.1927490234375
z: -0.20790250599384308
visibility: 0.999399721622467
","x: 189.31790161132812
y: 281.1290283203125
z: -0.21688440442085266
visibility: 0.9995198845863342
","x: 208.13922119140625
y: 315.57196044921875
z: -0.05381932854652405
visibility: 0.9997051954269409
","x: 174.01263427734375
y: 309.36065673828125
z: -0.11269549280405045
visibility: 0.9996432065963745
","x: 213.81961059570312
y: 360.9297180175781
z: 0.009662254713475704
visibility: 0.945533275604248
","x: 168.53590393066406
y: 352.5915832519531
z: -0.13294236361980438
visibility: 0.9325023889541626
","x: 220.54400634765625
y: 400.7802734375
z: -0.05453664809465408
visibility: 0.9420899152755737
","x: 172.3837127685547
y: 384.0435791015625
z: -0.23445716500282288
visibility: 0.8539705276489258
","x: 223.4557647705078
y: 412.6637268066406
z: -0.07048650085926056
visibility: 0.9064940810203552
","x: 170.87060546875
y: 396.34100341796875
z: -0.2667176127433777
visibility: 0.7801773548126221
","x: 223.06614685058594
y: 412.50506591796875
z: -0.10186271369457245
visibility: 0.911105215549469
","x: 172.32144165039062
y: 396.64599609375
z: -0.28505438566207886
visibility: 0.7776623368263245
","x: 221.72886657714844
y: 408.4991455078125
z: -0.06872277706861496
visibility: 0.882019579410553
","x: 173.8558807373047
y: 391.6775817871094
z: -0.24486622214317322
visibility: 0.7567099332809448
","x: 200.98460388183594
y: 409.19744873046875
z: 0.01339761447161436
visibility: 0.9998371601104736
","x: 181.1537628173828
y: 406.8452453613281
z: -0.013450980186462402
visibility: 0.9997916221618652
","x: 200.99334716796875
y: 472.5438232421875
z: 0.055034834891557693
visibility: 0.990689754486084
","x: 180.62831115722656
y: 468.4490661621094
z: 0.07297225296497345
visibility: 0.9904688000679016
","x: 200.7707061767578
y: 528.2689819335938
z: 0.22736278176307678
visibility: 0.9882107973098755
","x: 184.9376983642578
y: 520.58544921875
z: 0.29613691568374634
visibility: 0.9884615540504456
","x: 198.2789306640625
y: 535.2095947265625
z: 0.23910734057426453
visibility: 0.8661933541297913
","x: 186.42445373535156
y: 526.2285766601562
z: 0.3136250972747803
visibility: 0.8543300628662109
","x: 203.14004516601562
y: 551.7975463867188
z: 0.1438412368297577
visibility: 0.9842207431793213
","x: 183.2433624267578
y: 543.8291015625
z: 0.22355058789253235
visibility: 0.9853543639183044
",,,,,,,,,,,,,,,,,,,,,,,,,,,,,,,,,,,,,,,,,,
10,"x: 192.06729125976562
y: 279.1668701171875
z: -0.2525017261505127
visibility: 0.9992998242378235
","x: 193.53732299804688
y: 273.2177429199219
z: -0.23731355369091034
visibility: 0.9988318681716919
","x: 194.60853576660156
y: 273.2086486816406
z: -0.23730523884296417
visibility: 0.9987361431121826
","x: 195.72262573242188
y: 273.2873229980469
z: -0.2373504340648651
visibility: 0.9987348318099976
","x: 190.30184936523438
y: 273.4892578125
z: -0.24200065433979034
visibility: 0.9986341595649719
","x: 189.06895446777344
y: 273.6134948730469
z: -0.2420145571231842
visibility: 0.9984527230262756
","x: 187.87696838378906
y: 273.7012939453125
z: -0.24204769730567932
visibility: 0.9984962344169617
","x: 197.63507080078125
y: 277.5906982421875
z: -0.13553909957408905
visibility: 0.9976653456687927
","x: 185.5031280517578
y: 277.39935302734375
z: -0.15659251809120178
visibility: 0.9977384805679321
","x: 194.2421417236328
y: 285.9572448730469
z: -0.2136351764202118
visibility: 0.999455988407135
","x: 189.8535919189453
y: 286.4345397949219
z: -0.2205968201160431
visibility: 0.9995643496513367
","x: 207.80726623535156
y: 323.1402282714844
z: -0.06149512529373169
visibility: 0.9997327327728271
","x: 174.3588409423828
y: 309.2305603027344
z: -0.11109012365341187
visibility: 0.9996747374534607
","x: 213.99444580078125
y: 364.6655578613281
z: -0.020607586950063705
visibility: 0.9467887878417969
","x: 161.6873321533203
y: 338.53985595703125
z: -0.14691893756389618
visibility: 0.9385396242141724
","x: 226.61669921875
y: 393.5672607421875
z: -0.11124293506145477
visibility: 0.9453330039978027
","x: 168.60110473632812
y: 373.4192199707031
z: -0.28726980090141296
visibility: 0.8663403391838074
","x: 230.35775756835938
y: 402.6773681640625
z: -0.13431289792060852
visibility: 0.9112411737442017
","x: 167.62799072265625
y: 386.7893981933594
z: -0.3235875070095062
visibility: 0.7972519993782043
","x: 230.29782104492188
y: 401.371337890625
z: -0.1657009869813919
visibility: 0.9159429669380188
","x: 170.1277313232422
y: 387.09844970703125
z: -0.33584827184677124
visibility: 0.7949911952018738
","x: 228.8140411376953
y: 398.127685546875
z: -0.12648102641105652
visibility: 0.8888399600982666
","x: 171.32608032226562
y: 381.4250183105469
z: -0.2961443066596985
visibility: 0.7748631834983826
","x: 200.86380004882812
y: 409.0701904296875
z: 0.013124185614287853
visibility: 0.9998487830162048
","x: 180.76513671875
y: 406.53125
z: -0.013121293857693672
visibility: 0.9998044967651367
","x: 206.16680908203125
y: 470.6605529785156
z: -0.1221524029970169
visibility: 0.9911080002784729
","x: 179.57150268554688
y: 468.6343078613281
z: -0.09925905615091324
visibility: 0.9908886551856995
","x: 201.4173583984375
y: 523.878662109375
z: 0.10059897601604462
visibility: 0.9878787994384766
","x: 183.4976348876953
y: 519.728515625
z: 0.13038726150989532
visibility: 0.9883531928062439
","x: 198.5460968017578
y: 528.80078125
z: 0.11759598553180695
visibility: 0.8674783706665039
","x: 185.95425415039062
y: 525.1575317382812
z: 0.14852553606033325
visibility: 0.8537868857383728
","x: 203.47117614746094
y: 551.33837890625
z: 0.01786348596215248
visibility: 0.9838593006134033
","x: 183.12210083007812
y: 543.4068603515625
z: 0.051370441913604736
visibility: 0.9853544235229492
",,,,,,,,,,,,,,,,,,,,,,,,,,,,,,,,,,,,,,,,,,
11,"x: 192.3760528564453
y: 286.96221923828125
z: -0.25100380182266235
visibility: 0.9993653297424316
","x: 194.0028533935547
y: 281.83721923828125
z: -0.23507121205329895
visibility: 0.9989373683929443
","x: 195.06307983398438
y: 282.0247497558594
z: -0.23507313430309296
visibility: 0.99885094165802
","x: 196.14398193359375
y: 282.25537109375
z: -0.23515073955059052
visibility: 0.9988487362861633
","x: 190.9120635986328
y: 281.55364990234375
z: -0.24071097373962402
visibility: 0.9987504482269287
","x: 189.75636291503906
y: 281.4977722167969
z: -0.2407158613204956
visibility: 0.9985854625701904
","x: 188.59947204589844
y: 281.4444885253906
z: -0.24072492122650146
visibility: 0.9986183047294617
","x: 197.6409149169922
y: 286.1898193359375
z: -0.13016074895858765
visibility: 0.9978875517845154
","x: 185.89590454101562
y: 284.14520263671875
z: -0.1542777270078659
visibility: 0.9979364275932312
","x: 194.34844970703125
y: 294.2886657714844
z: -0.21020980179309845
visibility: 0.9995061159133911
","x: 190.031982421875
y: 294.104248046875
z: -0.21778647601604462
visibility: 0.9996029138565063
","x: 206.50128173828125
y: 328.9034729003906
z: -0.05488555505871773
visibility: 0.9997565746307373
","x: 174.0333709716797
y: 310.39178466796875
z: -0.10500016063451767
visibility: 0.9996955394744873
","x: 213.8072967529297
y: 368.47186279296875
z: -0.040409453213214874
visibility: 0.9461966156959534
","x: 157.5755615234375
y: 332.36859130859375
z: -0.2052585631608963
visibility: 0.9435265064239502
","x: 230.36570739746094
y: 387.1409606933594
z: -0.14925803244113922
visibility: 0.9484488368034363
","x: 163.6139678955078
y: 362.87298583984375
z: -0.40279459953308105
visibility: 0.8768075108528137
","x: 234.16592407226562
y: 394.3704528808594
z: -0.17458292841911316
visibility: 0.9161624908447266
","x: 166.31298828125
y: 384.1151428222656
z: -0.44454947113990784
visibility: 0.8118475079536438
","x: 234.1656036376953
y: 390.7315368652344
z: -0.20163151621818542
visibility: 0.9209559559822083
","x: 168.40463256835938
y: 378.85394287109375
z: -0.45030975341796875
visibility: 0.809904932975769
","x: 232.67433166503906
y: 387.99505615234375
z: -0.16318175196647644
visibility: 0.8958047032356262
","x: 170.66348266601562
y: 377.23870849609375
z: -0.4106687009334564
visibility: 0.7902730703353882
","x: 199.27528381347656
y: 409.488037109375
z: 0.014515946619212627
visibility: 0.9998574256896973
","x: 179.4022979736328
y: 406.83251953125
z: -0.014468451961874962
visibility: 0.9998098015785217
","x: 207.1732177734375
y: 468.5075378417969
z: -0.15475890040397644
visibility: 0.9916412234306335
","x: 177.56137084960938
y: 471.3587951660156
z: -0.11370287090539932
visibility: 0.991336464881897
","x: 200.6517333984375
y: 519.6156616210938
z: 0.07401294261217117
visibility: 0.9877427220344543
","x: 182.7610626220703
y: 519.634521484375
z: 0.11936931312084198
visibility: 0.9883124828338623
","x: 197.42660522460938
y: 523.9880981445312
z: 0.09212198108434677
visibility: 0.8734175562858582
","x: 185.3560333251953
y: 524.660888671875
z: 0.13771182298660278
visibility: 0.8552751541137695
","x: 202.3514862060547
y: 548.9503784179688
z: -0.007777322083711624
visibility: 0.983726978302002
","x: 183.10194396972656
y: 543.435791015625
z: 0.03642278164625168
visibility: 0.9851886034011841
",,,,,,,,,,,,,,,,,,,,,,,,,,,,,,,,,,,,,,,,,,
12,"x: 193.4954833984375
y: 293.40509033203125
z: -0.25740522146224976
visibility: 0.999426543712616
","x: 195.2790985107422
y: 287.7422180175781
z: -0.23971214890480042
visibility: 0.9990389943122864
","x: 196.33351135253906
y: 287.8138427734375
z: -0.23970536887645721
visibility: 0.9989603161811829
","x: 197.39675903320312
y: 287.88922119140625
z: -0.2397719919681549
visibility: 0.9989582300186157
","x: 192.13168334960938
y: 287.5301818847656
z: -0.24623756110668182
visibility: 0.9988688826560974
","x: 190.87518310546875
y: 287.4511413574219
z: -0.2462487518787384
visibility: 0.9987190961837769
","x: 189.52748107910156
y: 287.3249206542969
z: -0.24624864757061005
visibility: 0.9987466335296631
","x: 198.24478149414062
y: 291.2127990722656
z: -0.1321180909872055
visibility: 0.9980892539024353
","x: 186.2394256591797
y: 288.8940734863281
z: -0.1620880663394928
visibility: 0.9981298446655273
","x: 195.3668212890625
y: 299.6627502441406
z: -0.215186208486557
visibility: 0.9995523691177368
","x: 190.71946716308594
y: 299.7933349609375
z: -0.2250792682170868
visibility: 0.9996393918991089
","x: 206.49562072753906
y: 331.8009033203125
z: -0.05242212489247322
visibility: 0.9997785091400146
","x: 173.92027282714844
y: 314.39447021484375
z: -0.12158294767141342
visibility: 0.9997110962867737
","x: 216.07077026367188
y: 373.7132263183594
z: -0.07232803851366043
visibility: 0.9502792358398438
","x: 153.4590606689453
y: 333.1235046386719
z: -0.25917941331863403
visibility: 0.9489710927009583
","x: 235.5494842529297
y: 360.1805114746094
z: -0.22723332047462463
visibility: 0.9533716440200806
","x: 156.94601440429688
y: 319.0645751953125
z: -0.45975613594055176
visibility: 0.888777494430542
","x: 241.7231903076172
y: 355.3614807128906
z: -0.25622931122779846
visibility: 0.9238480925559998
","x: 156.28546142578125
y: 321.3620300292969
z: -0.5009893178939819
visibility: 0.8294355869293213
","x: 240.51393127441406
y: 348.44354248046875
z: -0.26957467198371887
visibility: 0.9282500743865967
","x: 158.84913635253906
y: 319.0882568359375
z: -0.49706369638442993
visibility: 0.8276458382606506
","x: 238.10316467285156
y: 349.4981384277344
z: -0.23745091259479523
visibility: 0.9053652286529541
","x: 160.4169921875
y: 319.12518310546875
z: -0.46388062834739685
visibility: 0.8094357848167419
","x: 199.6001434326172
y: 411.90655517578125
z: 0.02129487320780754
visibility: 0.9998683929443359
","x: 179.4089813232422
y: 410.6383056640625
z: -0.021274041384458542
visibility: 0.9998186826705933
","x: 206.05247497558594
y: 471.85443115234375
z: -0.06872492283582687
visibility: 0.9915832877159119
","x: 181.73814392089844
y: 476.1017150878906
z: 0.012947509996592999
visibility: 0.99077969789505
","x: 196.78335571289062
y: 520.383544921875
z: 0.12810935080051422
visibility: 0.9865784049034119
","x: 182.8982391357422
y: 519.61865234375
z: 0.2687341570854187
visibility: 0.9852370619773865
","x: 193.78079223632812
y: 524.7301635742188
z: 0.14390793442726135
visibility: 0.8786894679069519
","x: 184.44943237304688
y: 524.5777587890625
z: 0.29094693064689636
visibility: 0.8433272838592529
","x: 201.08921813964844
y: 548.7127075195312
z: 0.05004017800092697
visibility: 0.9835842847824097
","x: 183.64967346191406
y: 543.4544677734375
z: 0.2093135118484497
visibility: 0.9825306534767151
",,,,,,,,,,,,,,,,,,,,,,,,,,,,,,,,,,,,,,,,,,
13,"x: 193.66778564453125
y: 289.5045166015625
z: -0.28795570135116577
visibility: 0.99947589635849
","x: 195.61492919921875
y: 283.7659912109375
z: -0.27428942918777466
visibility: 0.9991171360015869
","x: 196.7872314453125
y: 283.9209289550781
z: -0.27431780099868774
visibility: 0.9990457892417908
","x: 198.0157470703125
y: 284.1053161621094
z: -0.2743755578994751
visibility: 0.9990397691726685
","x: 192.26939392089844
y: 283.397705078125
z: -0.27597886323928833
visibility: 0.998953640460968
","x: 191.0111846923828
y: 283.29425048828125
z: -0.2760300040245056
visibility: 0.9988180994987488
","x: 189.64517211914062
y: 283.1908874511719
z: -0.2760455310344696
visibility: 0.9988365173339844
","x: 199.97093200683594
y: 287.7100830078125
z: -0.17225149273872375
visibility: 0.998236358165741
","x: 186.48800659179688
y: 285.49871826171875
z: -0.1820630580186844
visibility: 0.9982655644416809
","x: 195.88328552246094
y: 296.1234436035156
z: -0.24824969470500946
visibility: 0.9995860457420349
","x: 191.37681579589844
y: 296.09893798828125
z: -0.2511596083641052
visibility: 0.9996628165245056
","x: 207.55657958984375
y: 328.931640625
z: -0.08274270594120026
visibility: 0.9997947812080383
","x: 173.9315643310547
y: 314.3100280761719
z: -0.12326184660196304
visibility: 0.999724805355072
","x: 216.4496612548828
y: 371.1788635253906
z: -0.12547817826271057
visibility: 0.951859712600708
","x: 156.4232177734375
y: 348.5926513671875
z: -0.21851864457130432
visibility: 0.9537681937217712
","x: 237.37921142578125
y: 359.6097412109375
z: -0.3082837462425232
visibility: 0.9574524760246277
","x: 148.1990203857422
y: 322.88250732421875
z: -0.4211554527282715
visibility: 0.8997628092765808
","x: 243.32640075683594
y: 356.576904296875
z: -0.3426242470741272
visibility: 0.930265486240387
","x: 144.30064392089844
y: 316.6322937011719
z: -0.4619656503200531
visibility: 0.8461151123046875
","x: 242.4180450439453
y: 350.138671875
z: -0.36186835169792175
visibility: 0.9344345927238464
","x: 145.797607421875
y: 310.38232421875
z: -0.46913066506385803
visibility: 0.844527542591095
","x: 239.957275390625
y: 351.0462646484375
z: -0.32139965891838074
visibility: 0.913533627986908
","x: 147.86306762695312
y: 312.4219970703125
z: -0.42964082956314087
visibility: 0.8279882073402405
","x: 199.85809326171875
y: 411.5340881347656
z: 0.020135385915637016
visibility: 0.9998655319213867
","x: 179.4872589111328
y: 409.0097351074219
z: -0.020158713683485985
visibility: 0.9998016953468323
","x: 202.7493896484375
y: 472.4311828613281
z: -0.008419988676905632
visibility: 0.9899929165840149
","x: 181.14013671875
y: 474.33856201171875
z: 0.007212977856397629
visibility: 0.9904223084449768
","x: 195.92184448242188
y: 521.703125
z: 0.20515687763690948
visibility: 0.9845375418663025
","x: 182.40447998046875
y: 516.9170532226562
z: 0.2573752999305725
visibility: 0.9824772477149963
","x: 192.95550537109375
y: 526.904541015625
z: 0.22280628979206085
visibility: 0.8794153332710266
","x: 184.0925750732422
y: 522.0105590820312
z: 0.27980080246925354
visibility: 0.833457887172699
","x: 200.1980438232422
y: 548.3795776367188
z: 0.14059039950370789
visibility: 0.982325553894043
","x: 183.480712890625
y: 543.0966796875
z: 0.1989293396472931
visibility: 0.9802225828170776
",,,,,,,,,,,,,,,,,,,,,,,,,,,,,,,,,,,,,,,,,,
14,"x: 192.27359008789062
y: 289.18896484375
z: -0.34435516595840454
visibility: 0.999527633190155
","x: 194.74447631835938
y: 281.67327880859375
z: -0.3308331370353699
visibility: 0.9992024898529053
","x: 196.21929931640625
y: 281.20794677734375
z: -0.33090925216674805
visibility: 0.9991387724876404
","x: 197.6335906982422
y: 280.80615234375
z: -0.33097681403160095
visibility: 0.9991323947906494
","x: 190.6374053955078
y: 282.4573974609375
z: -0.3266702890396118
visibility: 0.9990541934967041
","x: 189.45111083984375
y: 282.4892578125
z: -0.32674336433410645
visibility: 0.9989324808120728
","x: 188.3223876953125
y: 282.4792175292969
z: -0.32677143812179565
visibility: 0.9989475607872009
","x: 199.57672119140625
y: 281.6618957519531
z: -0.23134878277778625
visibility: 0.9984033107757568
","x: 186.35787963867188
y: 283.4988098144531
z: -0.2150784283876419
visibility: 0.9984329342842102
","x: 195.44235229492188
y: 294.2659606933594
z: -0.3060501217842102
visibility: 0.9996259212493896
","x: 190.6529541015625
y: 295.50897216796875
z: -0.3013187646865845
visibility: 0.9996952414512634
","x: 210.6023712158203
y: 321.5896301269531
z: -0.14640726149082184
visibility: 0.9998142123222351
","x: 175.1590576171875
y: 314.1640625
z: -0.13987304270267487
visibility: 0.9997512102127075
","x: 217.92385864257812
y: 366.6597900390625
z: -0.17334064841270447
visibility: 0.9548036456108093
","x: 159.96034240722656
y: 355.5707092285156
z: -0.20085790753364563
visibility: 0.9561240673065186
","x: 233.5438232421875
y: 385.0506896972656
z: -0.31027668714523315
visibility: 0.9603562951087952
","x: 143.94126892089844
y: 371.3559265136719
z: -0.3655425012111664
visibility: 0.9079729318618774
","x: 238.43304443359375
y: 388.54864501953125
z: -0.34031298756599426
visibility: 0.9347462058067322
","x: 138.66934204101562
y: 371.35308837890625
z: -0.4019826352596283
visibility: 0.858172595500946
","x: 238.20506286621094
y: 385.10247802734375
z: -0.3666151165962219
visibility: 0.9389230012893677
","x: 137.93408203125
y: 368.2568664550781
z: -0.4530133306980133
visibility: 0.857148289680481
","x: 236.16702270507812
y: 384.55853271484375
z: -0.3240341246128082
visibility: 0.9196078181266785
","x: 139.924072265625
y: 368.9797668457031
z: -0.38602370023727417
visibility: 0.8416967391967773
","x: 199.8414306640625
y: 409.1653137207031
z: 0.018148664385080338
visibility: 0.9998729825019836
","x: 179.35594177246094
y: 402.98095703125
z: -0.018173564225435257
visibility: 0.9998199343681335
","x: 200.04322814941406
y: 471.750244140625
z: 0.03240300342440605
visibility: 0.9866529107093811
","x: 177.5024871826172
y: 461.25592041015625
z: -0.24900546669960022
visibility: 0.9911772012710571
","x: 195.68115234375
y: 523.015380859375
z: 0.26443496346473694
visibility: 0.9843509793281555
","x: 178.44012451171875
y: 517.0263061523438
z: -0.08836390823125839
visibility: 0.9838038086891174
","x: 192.79830932617188
y: 529.9273071289062
z: 0.2816134989261627
visibility: 0.8814504146575928
","x: 179.46006774902344
y: 522.1380004882812
z: -0.07716062664985657
visibility: 0.8437227010726929
","x: 200.75045776367188
y: 547.8545532226562
z: 0.18515856564044952
visibility: 0.9818093776702881
","x: 182.7059783935547
y: 543.892822265625
z: -0.19929268956184387
visibility: 0.9816721677780151
",,,,,,,,,,,,,,,,,,,,,,,,,,,,,,,,,,,,,,,,,,
15,"x: 188.30751037597656
y: 287.34613037109375
z: -0.330526202917099
visibility: 0.9995721578598022
","x: 190.09243774414062
y: 279.0697021484375
z: -0.3230428099632263
visibility: 0.9992734789848328
","x: 191.68316650390625
y: 278.2776794433594
z: -0.3230913281440735
visibility: 0.9992176294326782
","x: 193.29620361328125
y: 277.61383056640625
z: -0.3231295645236969
visibility: 0.999210000038147
","x: 186.5382537841797
y: 281.1669616699219
z: -0.3155084252357483
visibility: 0.9991356730461121
","x: 185.6651153564453
y: 281.7183837890625
z: -0.3155646324157715
visibility: 0.9990269541740417
","x: 184.85879516601562
y: 282.2354736328125
z: -0.3155958354473114
visibility: 0.9990370869636536
","x: 197.66123962402344
y: 278.5495910644531
z: -0.24465584754943848
visibility: 0.9985425472259521
","x: 185.32275390625
y: 282.5838317871094
z: -0.21143725514411926
visibility: 0.9985636472702026
","x: 192.7263641357422
y: 291.7722473144531
z: -0.29885584115982056
visibility: 0.9996609091758728
","x: 187.26361083984375
y: 294.2120666503906
z: -0.28951311111450195
visibility: 0.9997228980064392
","x: 211.45095825195312
y: 318.12579345703125
z: -0.1631816327571869
visibility: 0.9998319745063782
","x: 175.0889434814453
y: 315.71356201171875
z: -0.13797490298748016
visibility: 0.9997751116752625
","x: 218.0167694091797
y: 365.11212158203125
z: -0.17071321606636047
visibility: 0.9576865434646606
","x: 163.17974853515625
y: 358.86419677734375
z: -0.14592289924621582
visibility: 0.9552488327026367
","x: 225.08482360839844
y: 400.1907958984375
z: -0.27447861433029175
visibility: 0.9619272947311401
","x: 149.64962768554688
y: 394.3504333496094
z: -0.2729981541633606
visibility: 0.9106267690658569
","x: 230.26535034179688
y: 408.284912109375
z: -0.3015424907207489
visibility: 0.9369351267814636
","x: 145.6011505126953
y: 399.617431640625
z: -0.30454021692276
visibility: 0.8622234463691711
","x: 230.3460693359375
y: 407.4011535644531
z: -0.3249977231025696
visibility: 0.9411215782165527
","x: 146.03648376464844
y: 399.1351318359375
z: -0.3307996392250061
visibility: 0.8620448708534241
","x: 227.3073272705078
y: 404.8276062011719
z: -0.28516799211502075
visibility: 0.9225578904151917
","x: 148.05889892578125
y: 398.6481018066406
z: -0.2871879041194916
visibility: 0.8463367819786072
","x: 199.8717803955078
y: 409.2642517089844
z: 0.017278745770454407
visibility: 0.9998798966407776
","x: 179.46827697753906
y: 403.5149841308594
z: -0.017326530069112778
visibility: 0.9998359084129333
","x: 198.4071044921875
y: 472.5433654785156
z: 0.08445730805397034
visibility: 0.9817720055580139
","x: 176.80552673339844
y: 460.40179443359375
z: -0.15756770968437195
visibility: 0.9916192293167114
","x: 196.0697021484375
y: 523.03662109375
z: 0.3428627550601959
visibility: 0.9824347496032715
","x: 175.21519470214844
y: 520.7996826171875
z: -0.016438400372862816
visibility: 0.9848542213439941
","x: 193.5784912109375
y: 529.8193359375
z: 0.3637053668498993
visibility: 0.877511203289032
","x: 173.93252563476562
y: 525.960205078125
z: -0.006896554492413998
visibility: 0.8492559194564819
","x: 200.8527069091797
y: 547.47509765625
z: 0.2762030363082886
visibility: 0.9801634550094604
","x: 181.59288024902344
y: 549.3816528320312
z: -0.12537603080272675
visibility: 0.9828816652297974
",,,,,,,,,,,,,,,,,,,,,,,,,,,,,,,,,,,,,,,,,,
16,"x: 184.74713134765625
y: 287.09259033203125
z: -0.30634793639183044
visibility: 0.9996098279953003
","x: 186.60597229003906
y: 278.23974609375
z: -0.3019246757030487
visibility: 0.9993292093276978
","x: 188.16590881347656
y: 277.1434326171875
z: -0.30194181203842163
visibility: 0.9992802143096924
","x: 189.78492736816406
y: 276.2152099609375
z: -0.30197209119796753
visibility: 0.9992703199386597
","x: 183.56468200683594
y: 280.8312683105469
z: -0.29366183280944824
visibility: 0.9992008209228516
","x: 182.79718017578125
y: 281.0778503417969
z: -0.2937172055244446
visibility: 0.9991055727005005
","x: 182.06695556640625
y: 281.35784912109375
z: -0.2937486171722412
visibility: 0.999112069606781
","x: 195.1461181640625
y: 276.35858154296875
z: -0.2337304651737213
visibility: 0.9986594319343567
","x: 184.01333618164062
y: 281.8484802246094
z: -0.19403758645057678
visibility: 0.9986708164215088
","x: 188.7516326904297
y: 290.74652099609375
z: -0.2760601341724396
visibility: 0.999690055847168
","x: 184.31040954589844
y: 293.5040588378906
z: -0.2665615379810333
visibility: 0.9997438788414001
","x: 210.926513671875
y: 311.9114990234375
z: -0.14831843972206116
visibility: 0.999846339225769
","x: 174.8990936279297
y: 315.5426330566406
z: -0.13716429471969604
visibility: 0.9997953772544861
","x: 217.53492736816406
y: 359.1639709472656
z: -0.1156172975897789
visibility: 0.9601103663444519
","x: 166.0089111328125
y: 360.9263916015625
z: -0.08845258504152298
visibility: 0.9534295201301575
","x: 220.25527954101562
y: 395.5636901855469
z: -0.14710471034049988
visibility: 0.959662675857544
","x: 155.36427307128906
y: 395.6460266113281
z: -0.19540122151374817
visibility: 0.9085706472396851
","x: 224.0557098388672
y: 406.282470703125
z: -0.16355852782726288
visibility: 0.930506706237793
","x: 151.7730255126953
y: 405.0307922363281
z: -0.22286126017570496
visibility: 0.8594549298286438
","x: 222.611572265625
y: 405.29534912109375
z: -0.18689584732055664
visibility: 0.9348378777503967
","x: 150.08511352539062
y: 404.6242980957031
z: -0.24790266156196594
visibility: 0.8598188161849976
","x: 219.7235565185547
y: 400.6155700683594
z: -0.1558491736650467
visibility: 0.9161477088928223
","x: 153.2014923095703
y: 402.28521728515625
z: -0.20857791602611542
visibility: 0.8431715965270996
","x: 199.51046752929688
y: 409.48175048828125
z: 0.0075966976583004
visibility: 0.9998714923858643
","x: 179.14117431640625
y: 404.141357421875
z: -0.007698717061430216
visibility: 0.9998391270637512
","x: 197.77162170410156
y: 472.51873779296875
z: 0.05907353013753891
visibility: 0.9786310791969299
","x: 175.3692626953125
y: 461.9525146484375
z: -0.05566420406103134
visibility: 0.9917652606964111
","x: 195.7837677001953
y: 522.6763916015625
z: 0.28150004148483276
visibility: 0.9806240797042847
","x: 176.05691528320312
y: 522.2007446289062
z: 0.08483607321977615
visibility: 0.9851386547088623
","x: 193.20765686035156
y: 529.2804565429688
z: 0.29927903413772583
visibility: 0.8766365647315979
","x: 175.71942138671875
y: 526.9236450195312
z: 0.10635115206241608
visibility: 0.853874146938324
","x: 199.86373901367188
y: 546.7931518554688
z: 0.2095826417207718
visibility: 0.9788914918899536
","x: 181.41348266601562
y: 551.1920776367188
z: 0.005118093453347683
visibility: 0.9832174181938171
",,,,,,,,,,,,,,,,,,,,,,,,,,,,,,,,,,,,,,,,,,
17,"x: 184.2603759765625
y: 286.1800842285156
z: -0.349791944026947
visibility: 0.9996468424797058
","x: 186.17007446289062
y: 278.012939453125
z: -0.3409951329231262
visibility: 0.9993888735771179
","x: 187.8216094970703
y: 277.1069030761719
z: -0.3410034775733948
visibility: 0.9993457794189453
","x: 189.5048065185547
y: 276.2657470703125
z: -0.3410626947879791
visibility: 0.999333381652832
","x: 182.73989868164062
y: 279.9019775390625
z: -0.3314155042171478
visibility: 0.9992724657058716
","x: 181.7731170654297
y: 280.0775146484375
z: -0.33150625228881836
visibility: 0.9991888403892517
","x: 180.81930541992188
y: 280.2822570800781
z: -0.33153805136680603
visibility: 0.9991933107376099
","x: 194.558837890625
y: 276.662841796875
z: -0.24833691120147705
visibility: 0.9987857341766357
","x: 182.1836700439453
y: 281.3821716308594
z: -0.20318737626075745
visibility: 0.9987992644309998
","x: 187.97604370117188
y: 290.66546630859375
z: -0.312806099653244
visibility: 0.9997205138206482
","x: 183.45518493652344
y: 292.6678771972656
z: -0.29985132813453674
visibility: 0.999768853187561
","x: 212.38853454589844
y: 312.55743408203125
z: -0.16350051760673523
visibility: 0.9998570680618286
","x: 174.09640502929688
y: 315.72308349609375
z: -0.13279911875724792
visibility: 0.9998147487640381
","x: 224.28565979003906
y: 356.10675048828125
z: -0.28401318192481995
visibility: 0.9617774486541748
","x: 164.54896545410156
y: 357.0706787109375
z: -0.2121535986661911
visibility: 0.9563807249069214
","x: 218.28819274902344
y: 369.6214599609375
z: -0.49428462982177734
visibility: 0.9505661725997925
","x: 154.82601928710938
y: 382.270263671875
z: -0.42694148421287537
visibility: 0.9126396179199219
","x: 216.131591796875
y: 377.3936462402344
z: -0.541104257106781
visibility: 0.9185587763786316
","x: 152.01220703125
y: 392.518798828125
z: -0.4720640778541565
visibility: 0.8651188015937805
","x: 211.86416625976562
y: 368.399658203125
z: -0.5406495928764343
visibility: 0.9229313135147095
","x: 151.5711212158203
y: 390.55255126953125
z: -0.4833458364009857
visibility: 0.865234911441803
","x: 211.8480224609375
y: 366.2900085449219
z: -0.4978884756565094
visibility: 0.895684540271759
","x: 154.0142822265625
y: 387.78875732421875
z: -0.4366367757320404
visibility: 0.8467981815338135
","x: 199.58340454101562
y: 408.0159912109375
z: 0.0025015431456267834
visibility: 0.9998549222946167
","x: 178.0434112548828
y: 402.7023620605469
z: -0.0024655628949403763
visibility: 0.9998317360877991
","x: 198.55422973632812
y: 461.988037109375
z: -0.29480430483818054
visibility: 0.9779496192932129
","x: 167.5785369873047
y: 447.4686279296875
z: -0.328294575214386
visibility: 0.9917111396789551
","x: 196.0956268310547
y: 523.1476440429688
z: -0.09017293900251389
visibility: 0.9795535206794739
","x: 168.21072387695312
y: 520.3151245117188
z: -0.12304063141345978
visibility: 0.9858159422874451
","x: 193.39083862304688
y: 530.69873046875
z: -0.07759065926074982
visibility: 0.8757621049880981
","x: 169.3477020263672
y: 526.5242919921875
z: -0.10989148914813995
visibility: 0.8606605529785156
","x: 200.41152954101562
y: 546.289306640625
z: -0.21619677543640137
visibility: 0.9773057103157043
","x: 172.61349487304688
y: 549.271484375
z: -0.2533230185508728
visibility: 0.9835374355316162
",,,,,,,,,,,,,,,,,,,,,,,,,,,,,,,,,,,,,,,,,,
18,"x: 182.76002502441406
y: 285.8399658203125
z: -0.24357537925243378
visibility: 0.9996801614761353
","x: 184.32254028320312
y: 278.12109375
z: -0.23660758137702942
visibility: 0.9994444847106934
","x: 185.76092529296875
y: 277.27423095703125
z: -0.23662853240966797
visibility: 0.9994069337844849
","x: 187.3723602294922
y: 276.45477294921875
z: -0.23663592338562012
visibility: 0.9993940591812134
","x: 181.22203063964844
y: 279.9073486328125
z: -0.227533221244812
visibility: 0.9993358254432678
","x: 180.38255310058594
y: 280.19598388671875
z: -0.2275708168745041
visibility: 0.9992612600326538
","x: 179.53053283691406
y: 280.4757080078125
z: -0.22758400440216064
visibility: 0.9992623925209045
","x: 192.24449157714844
y: 276.8072204589844
z: -0.16752871870994568
visibility: 0.9988988637924194
","x: 180.8651123046875
y: 281.7004699707031
z: -0.12449859082698822
visibility: 0.9989019632339478
","x: 186.34754943847656
y: 290.53411865234375
z: -0.21659402549266815
visibility: 0.9997456073760986
","x: 182.43711853027344
y: 292.2549133300781
z: -0.20418867468833923
visibility: 0.9997864961624146
","x: 210.41812133789062
y: 313.5268859863281
z: -0.09823478758335114
visibility: 0.9998683333396912
","x: 173.28533935546875
y: 317.08477783203125
z: -0.05966045707464218
visibility: 0.9998258352279663
","x: 223.88267517089844
y: 356.20343017578125
z: -0.19012954831123352
visibility: 0.9642452597618103
","x: 164.20651245117188
y: 362.2325134277344
z: -0.12521378695964813
visibility: 0.9596445560455322
","x: 225.37127685546875
y: 341.199462890625
z: -0.3691980838775635
visibility: 0.954834520816803
","x: 147.21763610839844
y: 347.2149658203125
z: -0.3096580505371094
visibility: 0.9209554195404053
","x: 226.619873046875
y: 337.3089904785156
z: -0.4034903645515442
visibility: 0.925026535987854
","x: 142.68568420410156
y: 343.72235107421875
z: -0.340860515832901
visibility: 0.8773852586746216
","x: 224.7822265625
y: 332.782470703125
z: -0.4123794436454773
visibility: 0.9291288256645203
","x: 143.86814880371094
y: 337.99810791015625
z: -0.34934210777282715
visibility: 0.8775122165679932
","x: 223.78627014160156
y: 333.93994140625
z: -0.3768637776374817
visibility: 0.9039541482925415
","x: 146.063720703125
y: 338.6559753417969
z: -0.31827491521835327
visibility: 0.8605124950408936
","x: 198.424560546875
y: 407.3509216308594
z: -0.0009362024138681591
visibility: 0.9998575448989868
","x: 176.45765686035156
y: 401.2847900390625
z: 0.0009139311732724309
visibility: 0.999832808971405
","x: 198.72886657714844
y: 463.4764099121094
z: -0.14622364938259125
visibility: 0.9797368049621582
","x: 162.22128295898438
y: 452.8794860839844
z: -0.08627016097307205
visibility: 0.9923259019851685
","x: 196.47445678710938
y: 523.9635620117188
z: 0.08318162709474564
visibility: 0.9812018871307373
","x: 146.59584045410156
y: 518.0969848632812
z: 0.0342792272567749
visibility: 0.9869639277458191
","x: 193.77658081054688
y: 533.1824340820312
z: 0.09479834884405136
visibility: 0.8836289048194885
","x: 146.40982055664062
y: 524.145751953125
z: 0.047519221901893616
visibility: 0.8676424026489258
","x: 200.7288818359375
y: 546.298583984375
z: -0.010267285630106926
visibility: 0.9788134694099426
","x: 142.2694091796875
y: 544.198974609375
z: -0.06544424593448639
visibility: 0.9846965670585632
",,,,,,,,,,,,,,,,,,,,,,,,,,,,,,,,,,,,,,,,,,
19,"x: 180.60853576660156
y: 284.3489990234375
z: -0.26830679178237915
visibility: 0.9997120499610901
","x: 182.43768310546875
y: 277.1759338378906
z: -0.2593957185745239
visibility: 0.9994997382164001
","x: 183.70916748046875
y: 276.580322265625
z: -0.2594155967235565
visibility: 0.9994659423828125
","x: 184.9691619873047
y: 275.9974365234375
z: -0.2594476342201233
visibility: 0.9994542598724365
","x: 178.91720581054688
y: 278.27691650390625
z: -0.25310564041137695
visibility: 0.9994018077850342
","x: 177.70632934570312
y: 278.3614807128906
z: -0.2531569302082062
visibility: 0.9993346929550171
","x: 176.49501037597656
y: 278.4802551269531
z: -0.25318676233291626
visibility: 0.999335527420044
","x: 188.23948669433594
y: 276.9931335449219
z: -0.17196780443191528
visibility: 0.9990082383155823
","x: 176.30947875976562
y: 280.2218933105469
z: -0.1510540395975113
visibility: 0.9990109205245972
","x: 183.59378051757812
y: 289.6377258300781
z: -0.23621170222759247
visibility: 0.9997707009315491
","x: 179.50296020507812
y: 290.89117431640625
z: -0.22901496291160583
visibility: 0.9998074769973755
","x: 201.24110412597656
y: 314.09381103515625
z: -0.0869668573141098
visibility: 0.9998807907104492
","x: 167.693359375
y: 313.1512451171875
z: -0.08449722826480865
visibility: 0.9998417496681213
","x: 204.81898498535156
y: 356.9007873535156
z: -0.09275390207767487
visibility: 0.9652712941169739
","x: 159.3806915283203
y: 362.0710754394531
z: -0.1357412487268448
visibility: 0.9608086347579956
","x: 220.0135498046875
y: 370.4382629394531
z: -0.2336125671863556
visibility: 0.9582309126853943
","x: 146.6685333251953
y: 376.451904296875
z: -0.30938923358917236
visibility: 0.9261538982391357
","x: 224.34097290039062
y: 371.7961120605469
z: -0.26324740052223206
visibility: 0.9305121898651123
","x: 142.5361785888672
y: 383.86431884765625
z: -0.34446579217910767
visibility: 0.8847624063491821
","x: 223.9434051513672
y: 369.7332458496094
z: -0.2962324321269989
visibility: 0.9345847368240356
","x: 142.8582305908203
y: 382.9397277832031
z: -0.3647591471672058
visibility: 0.8853018879890442
","x: 222.6542205810547
y: 369.3609313964844
z: -0.25039899349212646
visibility: 0.9114211201667786
","x: 144.9358367919922
y: 380.9992980957031
z: -0.3225111961364746
visibility: 0.8691555857658386
","x: 192.80064392089844
y: 406.457763671875
z: -0.0004986131680198014
visibility: 0.9998668432235718
","x: 170.50030517578125
y: 401.655029296875
z: 0.0004995357012376189
visibility: 0.9998441934585571
","x: 198.07833862304688
y: 466.6797180175781
z: -0.03351595252752304
visibility: 0.9816184639930725
","x: 152.3013458251953
y: 458.756591796875
z: -0.06743420660495758
visibility: 0.9930430054664612
","x: 196.65394592285156
y: 526.9367065429688
z: 0.11697659641504288
visibility: 0.9829411506652832
","x: 136.92120361328125
y: 520.5203857421875
z: 0.05987364798784256
visibility: 0.9881963729858398
","x: 193.96788024902344
y: 536.461181640625
z: 0.13445249199867249
visibility: 0.8929343223571777
","x: 137.29635620117188
y: 527.4187622070312
z: 0.07013823091983795
visibility: 0.8770284652709961
","x: 200.78375244140625
y: 546.47900390625
z: 0.030636748299002647
visibility: 0.9806134700775146
","x: 134.3437957763672
y: 544.2241821289062
z: -0.041110534220933914
visibility: 0.9860376119613647
",,,,,,,,,,,,,,,,,,,,,,,,,,,,,,,,,,,,,,,,,,
20,"x: 173.65585327148438
y: 284.13702392578125
z: -0.3201732039451599
visibility: 0.9997382760047913
","x: 176.10592651367188
y: 277.0710144042969
z: -0.3072817921638489
visibility: 0.9995388388633728
","x: 177.4466094970703
y: 276.57366943359375
z: -0.30726900696754456
visibility: 0.999508798122406
","x: 178.7145233154297
y: 276.02850341796875
z: -0.30728524923324585
visibility: 0.9994955062866211
","x: 172.36105346679688
y: 277.9088134765625
z: -0.3053310811519623
visibility: 0.9994505643844604
","x: 171.0201873779297
y: 278.0050354003906
z: -0.30540043115615845
visibility: 0.9993919134140015
","x: 169.6472930908203
y: 278.208740234375
z: -0.30545830726623535
visibility: 0.9993920922279358
","x: 181.46807861328125
y: 278.29217529296875
z: -0.2139730006456375
visibility: 0.9990763068199158
","x: 168.63992309570312
y: 280.192138671875
z: -0.20680806040763855
visibility: 0.9990943670272827
","x: 176.2104034423828
y: 289.6160888671875
z: -0.2847825586795807
visibility: 0.9997896552085876
","x: 171.46348571777344
y: 290.797119140625
z: -0.28273895382881165
visibility: 0.9998241662979126
","x: 192.88800048828125
y: 319.7650451660156
z: -0.1283181756734848
visibility: 0.9998869895935059
","x: 155.7654571533203
y: 313.2547607421875
z: -0.13734161853790283
visibility: 0.9998564124107361
","x: 195.65643310546875
y: 362.048095703125
z: -0.10673035681247711
visibility: 0.9632185101509094
","x: 149.16310119628906
y: 365.2093505859375
z: -0.11925357580184937
visibility: 0.9640169143676758
","x: 205.73963928222656
y: 406.6601867675781
z: -0.2183312624692917
visibility: 0.9461326599121094
","x: 148.4202117919922
y: 410.978515625
z: -0.19599869847297668
visibility: 0.9309977889060974
","x: 208.73825073242188
y: 415.2757263183594
z: -0.24723179638385773
visibility: 0.9128906726837158
","x: 145.0262908935547
y: 425.31121826171875
z: -0.22212174534797668
visibility: 0.8905166983604431
","x: 208.42510986328125
y: 414.55792236328125
z: -0.27459436655044556
visibility: 0.9179558157920837
","x: 144.55902099609375
y: 422.35064697265625
z: -0.2458205670118332
visibility: 0.8911205530166626
","x: 206.40597534179688
y: 412.0542907714844
z: -0.23194345831871033
visibility: 0.8937762379646301
","x: 146.1710205078125
y: 417.326416015625
z: -0.20644977688789368
visibility: 0.8749122619628906
","x: 184.06155395507812
y: 408.0890197753906
z: -0.00020105610019527376
visibility: 0.9998759627342224
","x: 160.47698974609375
y: 407.8470458984375
z: 0.00014376951730810106
visibility: 0.9998541474342346
","x: 196.07290649414062
y: 463.4111328125
z: -0.14064478874206543
visibility: 0.9832677841186523
","x: 145.4207763671875
y: 464.4839172363281
z: -0.066614530980587
visibility: 0.9935547709465027
","x: 196.74205017089844
y: 524.430908203125
z: 0.04593953490257263
visibility: 0.9843499064445496
","x: 136.5012664794922
y: 520.45849609375
z: 0.12398620694875717
visibility: 0.9890522360801697
","x: 194.11404418945312
y: 535.2906494140625
z: 0.0591040775179863
visibility: 0.8997787833213806
","x: 137.2953643798828
y: 526.8047485351562
z: 0.13716915249824524
visibility: 0.8808057904243469
","x: 200.9832305908203
y: 546.256103515625
z: -0.05622689053416252
visibility: 0.9819510579109192
","x: 134.27304077148438
y: 544.2767333984375
z: 0.02440834231674671
visibility: 0.9866712093353271
",,,,,,,,,,,,,,,,,,,,,,,,,,,,,,,,,,,,,,,,,,
21,"x: 172.1258544921875
y: 286.8740234375
z: -0.23740439116954803
visibility: 0.999764084815979
","x: 174.2460479736328
y: 280.43890380859375
z: -0.22154343128204346
visibility: 0.999583899974823
","x: 175.68356323242188
y: 280.56396484375
z: -0.22155039012432098
visibility: 0.9995567202568054
","x: 176.97679138183594
y: 280.7632751464844
z: -0.22158114612102509
visibility: 0.9995444416999817
","x: 170.36947631835938
y: 280.15252685546875
z: -0.2247197926044464
visibility: 0.9995040893554688
","x: 169.07839965820312
y: 280.0183410644531
z: -0.22473077476024628
visibility: 0.9994512796401978
","x: 167.74221801757812
y: 279.9796447753906
z: -0.22476103901863098
visibility: 0.9994510412216187
","x: 178.6477508544922
y: 284.3417053222656
z: -0.11758216470479965
visibility: 0.99916672706604
","x: 165.6320037841797
y: 282.4309997558594
z: -0.13467249274253845
visibility: 0.9991832971572876
","x: 174.2329864501953
y: 293.64141845703125
z: -0.19709938764572144
visibility: 0.9998102188110352
","x: 169.780029296875
y: 293.5992736816406
z: -0.20223906636238098
visibility: 0.9998413920402527
","x: 188.48634338378906
y: 326.91900634765625
z: -0.03308149054646492
visibility: 0.9998975992202759
","x: 152.2554168701172
y: 311.8573913574219
z: -0.09991440922021866
visibility: 0.9998698830604553
","x: 191.2688751220703
y: 369.67236328125
z: -0.0006251019658520818
visibility: 0.9601649641990662
","x: 143.78968811035156
y: 355.677978515625
z: -0.17299288511276245
visibility: 0.9665377140045166
","x: 209.8295135498047
y: 397.22589111328125
z: -0.11763975769281387
visibility: 0.9501011967658997
","x: 153.63194274902344
y: 404.8764343261719
z: -0.3471326231956482
visibility: 0.9368273019790649
","x: 214.72178649902344
y: 405.7447814941406
z: -0.1435544788837433
visibility: 0.9196173548698425
","x: 156.56407165527344
y: 404.27099609375
z: -0.38981515169143677
visibility: 0.8994521498680115
","x: 214.19357299804688
y: 400.1504211425781
z: -0.17531800270080566
visibility: 0.9244418740272522
","x: 159.39797973632812
y: 404.6336669921875
z: -0.39369675517082214
visibility: 0.899983286857605
","x: 212.45704650878906
y: 403.6734313964844
z: -0.13371098041534424
visibility: 0.9021087884902954
","x: 158.64163208007812
y: 405.37640380859375
z: -0.35214728116989136
visibility: 0.8844068646430969
","x: 179.35777282714844
y: 411.98077392578125
z: 0.010930005460977554
visibility: 0.9998855590820312
","x: 157.02520751953125
y: 411.97607421875
z: -0.010908706113696098
visibility: 0.9998649954795837
","x: 194.65664672851562
y: 464.2159423828125
z: -0.09600185602903366
visibility: 0.9848251342773438
","x: 142.75799560546875
y: 465.72442626953125
z: -0.0780799463391304
visibility: 0.9941003918647766
","x: 193.84971618652344
y: 521.0556640625
z: 0.11080370098352432
visibility: 0.9856224656105042
","x: 134.5615997314453
y: 521.8530883789062
z: 0.1178150400519371
visibility: 0.9899595975875854
","x: 190.41612243652344
y: 529.655517578125
z: 0.13244296610355377
visibility: 0.9054398536682129
","x: 135.28330993652344
y: 527.281494140625
z: 0.13256613910198212
visibility: 0.8866524696350098
","x: 198.83319091796875
y: 544.8241577148438
z: 0.03976365178823471
visibility: 0.9831098318099976
","x: 135.20883178710938
y: 544.2171020507812
z: 0.02628893032670021
visibility: 0.9875850081443787
",,,,,,,,,,,,,,,,,,,,,,,,,,,,,,,,,,,,,,,,,,
22,"x: 175.03323364257812
y: 277.2382507324219
z: -0.23828235268592834
visibility: 0.9997863173484802
","x: 177.0155792236328
y: 271.40655517578125
z: -0.23850183188915253
visibility: 0.9996201992034912
","x: 178.2913055419922
y: 271.4908447265625
z: -0.2384110391139984
visibility: 0.9995956420898438
","x: 179.5059356689453
y: 271.6365966796875
z: -0.23840267956256866
visibility: 0.9995836615562439
","x: 173.45114135742188
y: 271.05364990234375
z: -0.23224906623363495
visibility: 0.9995478391647339
","x: 172.28195190429688
y: 270.9665832519531
z: -0.23219239711761475
visibility: 0.9995001554489136
","x: 171.0490264892578
y: 270.9442443847656
z: -0.23231367766857147
visibility: 0.9994990229606628
","x: 181.67796325683594
y: 274.90008544921875
z: -0.15011152625083923
visibility: 0.9992393255233765
","x: 169.41204833984375
y: 273.90118408203125
z: -0.13982483744621277
visibility: 0.9992558360099792
","x: 177.4919891357422
y: 283.9358825683594
z: -0.20552539825439453
visibility: 0.999824583530426
","x: 173.23500061035156
y: 284.3084411621094
z: -0.21241919696331024
visibility: 0.9998525977134705
","x: 193.42526245117188
y: 315.0054626464844
z: -0.04806328937411308
visibility: 0.9999039173126221
","x: 157.40086364746094
y: 308.3913879394531
z: -0.09568674862384796
visibility: 0.9998753666877747
","x: 199.3072509765625
y: 355.07769775390625
z: -0.07055875658988953
visibility: 0.9624162912368774
","x: 146.89157104492188
y: 349.2366027832031
z: -0.14154250919818878
visibility: 0.9646519422531128
","x: 212.77206420898438
y: 391.0784606933594
z: -0.17790096998214722
visibility: 0.9522750973701477
","x: 138.64414978027344
y: 373.3264465332031
z: -0.312740296125412
visibility: 0.9363662600517273
","x: 216.31471252441406
y: 397.1328125
z: -0.20118176937103271
visibility: 0.9212820529937744
","x: 134.51113891601562
y: 375.52020263671875
z: -0.34905269742012024
visibility: 0.8979002237319946
","x: 215.83233642578125
y: 394.4786376953125
z: -0.2280648648738861
visibility: 0.926497757434845
","x: 135.37588500976562
y: 375.1658935546875
z: -0.372008353471756
visibility: 0.899513304233551
","x: 214.322021484375
y: 393.7939453125
z: -0.19133061170578003
visibility: 0.9054373502731323
","x: 137.84324645996094
y: 375.9927062988281
z: -0.32755595445632935
visibility: 0.8845576047897339
","x: 183.4546661376953
y: 405.5626220703125
z: 0.005220474675297737
visibility: 0.9998764991760254
","x: 161.36203002929688
y: 401.3610534667969
z: -0.005221146624535322
visibility: 0.9998698234558105
","x: 190.72222900390625
y: 464.5537109375
z: -0.03293593227863312
visibility: 0.985555112361908
","x: 150.35626220703125
y: 459.74005126953125
z: -0.14276577532291412
visibility: 0.994530975818634
","x: 189.11106872558594
y: 521.2364501953125
z: 0.12757213413715363
visibility: 0.9863740801811218
","x: 145.30130004882812
y: 517.9883422851562
z: 0.017003299668431282
visibility: 0.990745484828949
","x: 185.80860900878906
y: 529.94873046875
z: 0.13641245663166046
visibility: 0.9081281423568726
","x: 135.9012451171875
y: 525.2626953125
z: 0.026735324412584305
visibility: 0.8937315940856934
","x: 196.82818603515625
y: 544.8240966796875
z: 0.03998942673206329
visibility: 0.9836073517799377
","x: 144.7190399169922
y: 540.1370849609375
z: -0.08467158675193787
visibility: 0.9884389638900757
",,,,,,,,,,,,,,,,,,,,,,,,,,,,,,,,,,,,,,,,,,
23,"x: 176.76495361328125
y: 276.11151123046875
z: -0.2631113529205322
visibility: 0.9998074769973755
","x: 178.7880859375
y: 270.98577880859375
z: -0.24562659859657288
visibility: 0.999657154083252
","x: 180.08580017089844
y: 271.2210693359375
z: -0.2455655038356781
visibility: 0.9996353387832642
","x: 181.35494995117188
y: 271.52508544921875
z: -0.24557265639305115
visibility: 0.9996241331100464
","x: 175.2418212890625
y: 270.42822265625
z: -0.240439772605896
visibility: 0.9995917677879333
","x: 174.07940673828125
y: 270.27386474609375
z: -0.24035081267356873
visibility: 0.9995489716529846
","x: 172.8750762939453
y: 270.1294250488281
z: -0.24022790789604187
visibility: 0.999547004699707
","x: 183.84793090820312
y: 275.42041015625
z: -0.1600358635187149
visibility: 0.9993146657943726
","x: 171.40306091308594
y: 273.73822021484375
z: -0.14615043997764587
visibility: 0.9993285536766052
","x: 179.29396057128906
y: 283.73590087890625
z: -0.22377648949623108
visibility: 0.9998419284820557
","x: 174.98184204101562
y: 283.6584777832031
z: -0.23393316566944122
visibility: 0.9998670220375061
","x: 195.8485565185547
y: 315.5453796386719
z: -0.10068340599536896
visibility: 0.9999129772186279
","x: 158.7904052734375
y: 310.36273193359375
z: -0.09672310203313828
visibility: 0.9998832941055298
","x: 208.4091339111328
y: 350.7945251464844
z: -0.2129737138748169
visibility: 0.9660505652427673
","x: 147.9391632080078
y: 355.80438232421875
z: -0.1685839146375656
visibility: 0.9653259515762329
","x: 222.47555541992188
y: 340.04437255859375
z: -0.40945014357566833
visibility: 0.9568445682525635
","x: 137.12583923339844
y: 376.66845703125
z: -0.3580743670463562
visibility: 0.93948894739151
","x: 226.24072265625
y: 334.3891906738281
z: -0.45137977600097656
visibility: 0.928494930267334
","x: 131.71080017089844
y: 378.02008056640625
z: -0.3934100866317749
visibility: 0.9023356437683105
","x: 224.21786499023438
y: 329.93682861328125
z: -0.4575599730014801
visibility: 0.9332457780838013
","x: 131.324951171875
y: 377.81903076171875
z: -0.411872923374176
visibility: 0.9043030738830566
","x: 222.55709838867188
y: 331.7183837890625
z: -0.4174867570400238
visibility: 0.9140028357505798
","x: 133.60047912597656
y: 378.5055236816406
z: -0.371407151222229
visibility: 0.8897417783737183
","x: 186.66647338867188
y: 404.9061279296875
z: -0.0021795821376144886
visibility: 0.9998819828033447
","x: 163.61248779296875
y: 403.9093017578125
z: 0.0021560187451541424
visibility: 0.9998724460601807
","x: 197.05990600585938
y: 462.1307373046875
z: -0.161373108625412
visibility: 0.9868541955947876
","x: 164.18533325195312
y: 465.8232421875
z: -0.1033160462975502
visibility: 0.9945458769798279
","x: 194.67941284179688
y: 515.2799072265625
z: 0.05260329693555832
visibility: 0.9873835444450378
","x: 169.65748596191406
y: 522.1070556640625
z: 0.11014001071453094
visibility: 0.9912455677986145
","x: 192.72694396972656
y: 523.4059448242188
z: 0.06751122325658798
visibility: 0.9120479226112366
","x: 172.3545379638672
y: 530.874755859375
z: 0.12309543043375015
visibility: 0.8997778296470642
","x: 197.72520446777344
y: 542.8311767578125
z: -0.05005800724029541
visibility: 0.9847606420516968
","x: 161.1615753173828
y: 541.72265625
z: 0.009748398326337337
visibility: 0.9889227151870728
",,,,,,,,,,,,,,,,,,,,,,,,,,,,,,,,,,,,,,,,,,
24,"x: 177.52638244628906
y: 277.13092041015625
z: -0.25851765275001526
visibility: 0.9998263716697693
","x: 179.6338653564453
y: 271.71282958984375
z: -0.24304869771003723
visibility: 0.9996893405914307
","x: 180.94178771972656
y: 271.8893737792969
z: -0.24306988716125488
visibility: 0.9996702671051025
","x: 182.22703552246094
y: 272.13360595703125
z: -0.24309930205345154
visibility: 0.9996594190597534
","x: 176.10427856445312
y: 271.3155822753906
z: -0.24118837714195251
visibility: 0.9996299743652344
","x: 174.94775390625
y: 271.2054138183594
z: -0.24120935797691345
visibility: 0.9995914697647095
","x: 173.75482177734375
y: 271.107421875
z: -0.24119456112384796
visibility: 0.999587893486023
","x: 184.81903076171875
y: 275.8725891113281
z: -0.15177294611930847
visibility: 0.9993811845779419
","x: 172.3128204345703
y: 274.41180419921875
z: -0.1449572741985321
visibility: 0.9993927478790283
","x: 180.17311096191406
y: 284.4490966796875
z: -0.2236088067293167
visibility: 0.9998570680618286
","x: 175.7879180908203
y: 284.3966064453125
z: -0.2240924835205078
visibility: 0.9998794794082642
","x: 196.792724609375
y: 317.12310791015625
z: -0.10112802684307098
visibility: 0.9999209642410278
","x: 159.62353515625
y: 314.8857421875
z: -0.08396872133016586
visibility: 0.9998918175697327
","x: 210.7803955078125
y: 351.41668701171875
z: -0.1871616542339325
visibility: 0.969265341758728
","x: 148.69786071777344
y: 356.1785583496094
z: -0.16471412777900696
visibility: 0.9641778469085693
","x: 228.3841552734375
y: 339.7850341796875
z: -0.35100722312927246
visibility: 0.9610690474510193
","x: 140.0459747314453
y: 376.8429870605469
z: -0.3442181944847107
visibility: 0.9422563910484314
","x: 234.23312377929688
y: 334.5153503417969
z: -0.3874325454235077
visibility: 0.9353417158126831
","x: 134.68309020996094
y: 378.58331298828125
z: -0.37935394048690796
visibility: 0.9060098528862
","x: 232.91404724121094
y: 329.2019958496094
z: -0.3992244601249695
visibility: 0.9396583437919617
","x: 134.8668975830078
y: 378.9344482421875
z: -0.39689064025878906
visibility: 0.9083628058433533
","x: 230.75657653808594
y: 330.7022705078125
z: -0.360827773809433
visibility: 0.9222108125686646
","x: 137.06643676757812
y: 379.3109130859375
z: -0.3572121262550354
visibility: 0.894968569278717
","x: 192.35069274902344
y: 405.25189208984375
z: -0.004021224565804005
visibility: 0.9998748898506165
","x: 170.25486755371094
y: 405.93756103515625
z: 0.004051298834383488
visibility: 0.9998770356178284
","x: 204.62828063964844
y: 462.8838806152344
z: -0.12750637531280518
visibility: 0.9879422783851624
","x: 166.44862365722656
y: 466.7735595703125
z: -0.14221632480621338
visibility: 0.9949217438697815
","x: 208.80679321289062
y: 514.9912109375
z: 0.08061397820711136
visibility: 0.9882848262786865
","x: 172.1259765625
y: 523.1524047851562
z: 0.030044540762901306
visibility: 0.9918935298919678
","x: 207.21466064453125
y: 522.7337036132812
z: 0.09157846868038177
visibility: 0.9149860739707947
","x: 176.30929565429688
y: 532.763916015625
z: 0.0399387963116169
visibility: 0.9067859649658203
","x: 213.5224609375
y: 539.5586547851562
z: -0.017019694671034813
visibility: 0.9856604337692261
","x: 164.3844757080078
y: 541.9495849609375
z: -0.06623654067516327
visibility: 0.9896106719970703
",,,,,,,,,,,,,,,,,,,,,,,,,,,,,,,,,,,,,,,,,,
25,"x: 177.2993927001953
y: 277.4483947753906
z: -0.14107438921928406
visibility: 0.9998382925987244
","x: 179.56686401367188
y: 271.95928955078125
z: -0.1501682996749878
visibility: 0.9997053146362305
","x: 180.70098876953125
y: 272.2159118652344
z: -0.15020208060741425
visibility: 0.9996907114982605
","x: 181.90713500976562
y: 272.5016174316406
z: -0.15023161470890045
visibility: 0.9996808171272278
","x: 176.207763671875
y: 271.50958251953125
z: -0.1279897689819336
visibility: 0.999646782875061
","x: 176.38426208496094
y: 271.4758605957031
z: -0.12798625230789185
visibility: 0.9996124505996704
","x: 176.80563354492188
y: 271.4923400878906
z: -0.12799111008644104
visibility: 0.9996064901351929
","x: 185.43902587890625
y: 276.16156005859375
z: -0.15084649622440338
visibility: 0.9994333982467651
","x: 182.80523681640625
y: 274.7558898925781
z: -0.050096433609724045
visibility: 0.999416172504425
","x: 180.4498291015625
y: 285.15423583984375
z: -0.13978815078735352
visibility: 0.9998654723167419
","x: 176.55459594726562
y: 285.191650390625
z: -0.11011850833892822
visibility: 0.9998764395713806
","x: 203.96337890625
y: 316.78271484375
z: -0.1422232836484909
visibility: 0.9999271035194397
","x: 174.24322509765625
y: 319.4559020996094
z: 0.017018260434269905
visibility: 0.9998906850814819
","x: 218.32473754882812
y: 355.617431640625
z: -0.16447296738624573
visibility: 0.9715587496757507
","x: 167.23574829101562
y: 362.51837158203125
z: 0.03623586148023605
visibility: 0.9010714292526245
","x: 226.86419677734375
y: 393.8021545410156
z: -0.18502096831798553
visibility: 0.9607663154602051
","x: 160.64334106445312
y: 392.9493408203125
z: -0.07506003230810165
visibility: 0.906775176525116
","x: 230.6959228515625
y: 402.3926086425781
z: -0.20256683230400085
visibility: 0.9327900409698486
","x: 153.73611450195312
y: 400.860595703125
z: -0.09602116793394089
visibility: 0.8685277104377747
","x: 229.19032287597656
y: 403.5253601074219
z: -0.21838459372520447
visibility: 0.9369792938232422
","x: 156.33010864257812
y: 400.0580139160156
z: -0.11987084150314331
visibility: 0.8729223608970642
","x: 227.30239868164062
y: 401.5447998046875
z: -0.19060060381889343
visibility: 0.9191473126411438
","x: 156.28195190429688
y: 395.875244140625
z: -0.0900908038020134
visibility: 0.8588608503341675
","x: 197.0996856689453
y: 408.39227294921875
z: -0.04163067787885666
visibility: 0.9998751878738403
","x: 176.12147521972656
y: 408.9742431640625
z: 0.041604865342378616
visibility: 0.9998831748962402
","x: 211.1285400390625
y: 466.4584045410156
z: -0.0170001108199358
visibility: 0.989019513130188
","x: 167.82192993164062
y: 466.6906433105469
z: 0.03509074077010155
visibility: 0.9953082799911499
","x: 225.95748901367188
y: 516.0750732421875
z: 0.1670246422290802
visibility: 0.9893133640289307
","x: 172.58042907714844
y: 523.078857421875
z: 0.21074223518371582
visibility: 0.9925774335861206
","x: 228.72596740722656
y: 522.2190551757812
z: 0.17954279482364655
visibility: 0.9160171151161194
","x: 176.56985473632812
y: 532.0781860351562
z: 0.22388997673988342
visibility: 0.9145355224609375
","x: 223.59608459472656
y: 541.76953125
z: 0.08461349457502365
visibility: 0.986742377281189
","x: 164.60704040527344
y: 542.13330078125
z: 0.15668363869190216
visibility: 0.9904370307922363
",,,,,,,,,,,,,,,,,,,,,,,,,,,,,,,,,,,,,,,,,,
26,"x: 178.22607421875
y: 288.80621337890625
z: -0.12073799222707748
visibility: 0.9998367428779602
","x: 180.59963989257812
y: 282.5836486816406
z: -0.13311001658439636
visibility: 0.9996733665466309
","x: 181.35845947265625
y: 282.2748718261719
z: -0.1330975741147995
visibility: 0.9996583461761475
","x: 182.23291015625
y: 281.8873291015625
z: -0.13310477137565613
visibility: 0.9996470212936401
","x: 180.02749633789062
y: 282.4730529785156
z: -0.10712800174951553
visibility: 0.9996371269226074
","x: 180.83840942382812
y: 282.1610412597656
z: -0.10716666281223297
visibility: 0.9996131062507629
","x: 181.7336883544922
y: 281.75970458984375
z: -0.10722354799509048
visibility: 0.9996194243431091
","x: 189.65249633789062
y: 283.0542297363281
z: -0.1522085815668106
visibility: 0.9993922710418701
","x: 188.96194458007812
y: 282.45782470703125
z: -0.0334206260740757
visibility: 0.9994416236877441
","x: 181.73309326171875
y: 295.956298828125
z: -0.12549930810928345
visibility: 0.9998435974121094
","x: 180.85508728027344
y: 295.99658203125
z: -0.09117459505796432
visibility: 0.9998595714569092
","x: 210.2310333251953
y: 325.627685546875
z: -0.16274160146713257
visibility: 0.9999061822891235
","x: 185.23785400390625
y: 322.25970458984375
z: 0.029293198138475418
visibility: 0.9998986721038818
","x: 208.82846069335938
y: 379.4213562011719
z: -0.19256684184074402
visibility: 0.9667654633522034
","x: 179.59837341308594
y: 366.97625732421875
z: 0.05926452949643135
visibility: 0.8373793959617615
","x: 187.0583038330078
y: 388.14105224609375
z: -0.18431533873081207
visibility: 0.940334677696228
","x: 172.81820678710938
y: 405.744384765625
z: -0.006131990347057581
visibility: 0.8339077234268188
","x: 181.67127990722656
y: 391.1199951171875
z: -0.20362845063209534
visibility: 0.9030123353004456
","x: 169.8436279296875
y: 415.4766845703125
z: -0.02114228531718254
visibility: 0.7950341701507568
","x: 182.1666259765625
y: 388.53082275390625
z: -0.19649791717529297
visibility: 0.9039165377616882
","x: 170.68699645996094
y: 414.6380920410156
z: -0.03975486010313034
visibility: 0.7989317774772644
","x: 184.10440063476562
y: 387.2116394042969
z: -0.1805609166622162
visibility: 0.8723080158233643
","x: 172.14218139648438
y: 410.89501953125
z: -0.01733972132205963
visibility: 0.7860913872718811
","x: 204.63107299804688
y: 416.5436096191406
z: -0.048566412180662155
visibility: 0.999835729598999
","x: 183.7510223388672
y: 412.4822998046875
z: 0.048530202358961105
visibility: 0.9998928904533386
","x: 214.46932983398438
y: 472.92333984375
z: -0.021591318771243095
visibility: 0.9900085926055908
","x: 166.45370483398438
y: 460.4499816894531
z: -0.13850198686122894
visibility: 0.9957424402236938
","x: 229.59625244140625
y: 516.6135864257812
z: 0.20539383590221405
visibility: 0.9902260899543762
","x: 172.3948516845703
y: 519.8619995117188
z: 0.01048060692846775
visibility: 0.9932622313499451
","x: 233.19439697265625
y: 523.03564453125
z: 0.2235877960920334
visibility: 0.9144148230552673
","x: 178.12277221679688
y: 530.3912963867188
z: 0.02169857732951641
visibility: 0.9223368763923645
","x: 224.13623046875
y: 541.79931640625
z: 0.13354334235191345
visibility: 0.9875884652137756
","x: 163.07162475585938
y: 540.6702270507812
z: -0.053669679909944534
visibility: 0.9912912845611572
",,,,,,,,,,,,,,,,,,,,,,,,,,,,,,,,,,,,,,,,,,
27,"x: 181.2650909423828
y: 298.6926574707031
z: -0.07960252463817596
visibility: 0.9998450875282288
","x: 182.7462158203125
y: 292.74114990234375
z: -0.0910528227686882
visibility: 0.999686598777771
","x: 183.2843780517578
y: 292.4058837890625
z: -0.09105353057384491
visibility: 0.999671459197998
","x: 183.9139404296875
y: 292.0000915527344
z: -0.09101347625255585
visibility: 0.999663233757019
","x: 182.67239379882812
y: 293.29571533203125
z: -0.0658935159444809
visibility: 0.9996514916419983
","x: 183.1881103515625
y: 293.38995361328125
z: -0.06594796478748322
visibility: 0.9996276497840881
","x: 183.720458984375
y: 293.38275146484375
z: -0.06601694971323013
visibility: 0.9996397495269775
","x: 191.9221954345703
y: 292.6827087402344
z: -0.11136478185653687
visibility: 0.999414324760437
","x: 189.7839813232422
y: 293.4772033691406
z: 0.004144612699747086
visibility: 0.9994758367538452
","x: 184.38710021972656
y: 304.34808349609375
z: -0.08474507927894592
visibility: 0.9998412132263184
","x: 183.81869506835938
y: 305.2157897949219
z: -0.05187636613845825
visibility: 0.9998542070388794
","x: 210.55191040039062
y: 327.5821533203125
z: -0.14937111735343933
visibility: 0.9999029040336609
","x: 186.70152282714844
y: 329.0133056640625
z: 0.06747136265039444
visibility: 0.9999035000801086
","x: 198.65359497070312
y: 373.8207702636719
z: -0.2540840208530426
visibility: 0.967919111251831
","x: 171.9629669189453
y: 356.0836181640625
z: 0.0965539962053299
visibility: 0.7959935069084167
","x: 173.43795776367188
y: 354.3217468261719
z: -0.3145596981048584
visibility: 0.9441996812820435
","x: 160.47216796875
y: 352.9202575683594
z: 0.026510167866945267
visibility: 0.8030630946159363
","x: 167.38270568847656
y: 352.23455810546875
z: -0.34378936886787415
visibility: 0.9092393517494202
","x: 153.3312530517578
y: 349.7577209472656
z: 0.01208865363150835
visibility: 0.7594545483589172
","x: 168.47415161132812
y: 344.63372802734375
z: -0.33255642652511597
visibility: 0.9096736311912537
","x: 151.92251586914062
y: 356.5787353515625
z: -0.006179341580718756
visibility: 0.7653313875198364
","x: 170.670654296875
y: 345.8065490722656
z: -0.3106236457824707
visibility: 0.8763910531997681
","x: 154.75425720214844
y: 357.45166015625
z: 0.014221836812794209
visibility: 0.7538272738456726
","x: 208.38780212402344
y: 419.5974426269531
z: -0.05198841542005539
visibility: 0.999823272228241
","x: 190.0871124267578
y: 416.8702697753906
z: 0.051974136382341385
visibility: 0.9999021887779236
","x: 215.64170837402344
y: 479.924072265625
z: -0.023862317204475403
visibility: 0.9909026026725769
","x: 165.78012084960938
y: 452.3295593261719
z: -0.18015387654304504
visibility: 0.9961218237876892
","x: 230.75869750976562
y: 519.2969970703125
z: 0.17632094025611877
visibility: 0.9910992980003357
","x: 170.16073608398438
y: 516.4544067382812
z: -0.05945732071995735
visibility: 0.9938499927520752
","x: 235.7878875732422
y: 524.943603515625
z: 0.1921674758195877
visibility: 0.9164313673973083
","x: 175.6190643310547
y: 526.6596069335938
z: -0.05121174454689026
visibility: 0.9290657639503479
","x: 225.369140625
y: 541.9324340820312
z: 0.10120083391666412
visibility: 0.9884979128837585
","x: 162.2824249267578
y: 539.1849365234375
z: -0.13310597836971283
visibility: 0.9919885396957397
",,,,,,,,,,,,,,,,,,,,,,,,,,,,,,,,,,,,,,,,,,
28,"x: 182.47531127929688
y: 294.1601867675781
z: -0.1285233348608017
visibility: 0.9998522996902466
","x: 184.44410705566406
y: 288.1455078125
z: -0.13169552385807037
visibility: 0.9996976852416992
","x: 185.50355529785156
y: 288.0520324707031
z: -0.13172349333763123
visibility: 0.9996870160102844
","x: 186.792724609375
y: 287.9244079589844
z: -0.1317293345928192
visibility: 0.9996788501739502
","x: 182.92852783203125
y: 288.34600830078125
z: -0.1129828467965126
visibility: 0.9996550679206848
","x: 182.8897247314453
y: 288.4808044433594
z: -0.11297868192195892
visibility: 0.9996309876441956
","x: 182.89630126953125
y: 288.58660888671875
z: -0.11304086446762085
visibility: 0.9996424317359924
","x: 192.94015502929688
y: 289.24005126953125
z: -0.11502965539693832
visibility: 0.9994516968727112
","x: 187.43899536132812
y: 289.4640197753906
z: -0.027854233980178833
visibility: 0.9994966983795166
","x: 186.1529998779297
y: 300.36505126953125
z: -0.1198558583855629
visibility: 0.9998421669006348
","x: 183.79664611816406
y: 300.81854248046875
z: -0.09536023437976837
visibility: 0.999849259853363
","x: 210.74085998535156
y: 326.1769104003906
z: -0.14416994154453278
visibility: 0.9999019503593445
","x: 181.17288208007812
y: 325.7763366699219
z: 0.03304806724190712
visibility: 0.9998970031738281
","x: 201.85214233398438
y: 361.446044921875
z: -0.24523770809173584
visibility: 0.96787029504776
","x: 176.63294982910156
y: 356.7138366699219
z: 0.02416076324880123
visibility: 0.7327447533607483
","x: 188.16697692871094
y: 321.00457763671875
z: -0.33786219358444214
visibility: 0.9438255429267883
","x: 178.000244140625
y: 378.8224792480469
z: -0.09293539822101593
visibility: 0.7408006191253662
","x: 184.54403686523438
y: 311.4655456542969
z: -0.3679407238960266
visibility: 0.9086939096450806
","x: 177.13343811035156
y: 388.44677734375
z: -0.11512496322393417
visibility: 0.7001594305038452
","x: 186.69712829589844
y: 305.02947998046875
z: -0.35653552412986755
visibility: 0.9080679416656494
","x: 177.77383422851562
y: 385.89520263671875
z: -0.1287601888179779
visibility: 0.705299973487854
","x: 187.57635498046875
y: 308.6037902832031
z: -0.33511632680892944
visibility: 0.8700642585754395
","x: 178.487060546875
y: 382.0358581542969
z: -0.1032487004995346
visibility: 0.6938178539276123
","x: 204.4781951904297
y: 415.73992919921875
z: -0.04183550551533699
visibility: 0.9998329281806946
","x: 183.86557006835938
y: 416.58831787109375
z: 0.04174360632896423
visibility: 0.9999081492424011
","x: 213.32461547851562
y: 479.4833984375
z: -0.05973757430911064
visibility: 0.9916369318962097
