uscmakers/ReverseChoreography/data/6_knife_talk_drake.csv
,NOSE,LEFT_EYE_INNER,LEFT_EYE,LEFT_EYE_OUTER,RIGHT_EYE_INNER,RIGHT_EYE,RIGHT_EYE_OUTER,LEFT_EAR,RIGHT_EAR,MOUTH_LEFT,MOUTH_RIGHT,LEFT_SHOULDER,RIGHT_SHOULDER,LEFT_ELBOW,RIGHT_ELBOW,LEFT_WRIST,RIGHT_WRIST,LEFT_PINKY,RIGHT_PINKY,LEFT_INDEX,RIGHT_INDEX,LEFT_THUMB,RIGHT_THUMB,LEFT_HIP,RIGHT_HIP,LEFT_KNEE,RIGHT_KNEE,LEFT_ANKLE,RIGHT_ANKLE,LEFT_HEEL,RIGHT_HEEL,LEFT_FOOT_INDEX,RIGHT_FOOT_INDEX,WRIST,THUMB_CPC,THUMB_MCP,THUMB_IP,THUMB_TIP,INDEX_FINGER_MCP,INDEX_FINGER_PIP,INDEX_FINGER_DIP,INDEX_FINGER_TIP,MIDDLE_FINGER_MCP,MIDDLE_FINGER_PIP,MIDDLE_FINGER_DIP,MIDDLE_FINGER_TIP,RING_FINGER_PIP,RING_FINGER_DIP,RING_FINGER_TIP,RING_FINGER_MCP,PINKY_MCP,PINKY_PIP,PINKY_DIP,PINKY_TIP,WRIST2,THUMB_CPC2,THUMB_MCP2,THUMB_IP2,THUMB_TIP2,INDEX_FINGER_MCP2,INDEX_FINGER_PIP2,INDEX_FINGER_DIP2,INDEX_FINGER_TIP2,MIDDLE_FINGER_MCP2,MIDDLE_FINGER_PIP2,MIDDLE_FINGER_DIP2,MIDDLE_FINGER_TIP2,RING_FINGER_PIP2,RING_FINGER_DIP2,RING_FINGER_TIP2,RING_FINGER_MCP2,PINKY_MCP2,PINKY_PIP2,PINKY_DIP2,PINKY_TIP2
0,"x: 199.38121032714844
y: 276.8507080078125
z: -0.28831106424331665
visibility: 0.9997243285179138
","x: 201.7473907470703
y: 270.81378173828125
z: -0.28078848123550415
visibility: 0.9991102814674377
","x: 203.18678283691406
y: 270.7458801269531
z: -0.2808140218257904
visibility: 0.9991776347160339
","x: 204.77940368652344
y: 270.7480163574219
z: -0.2808476388454437
visibility: 0.9991551637649536
","x: 198.52748107910156
y: 271.5008544921875
z: -0.2737460434436798
visibility: 0.9990069270133972
","x: 197.656494140625
y: 271.89837646484375
z: -0.27378135919570923
visibility: 0.9989795088768005
","x: 196.7067413330078
y: 272.3363037109375
z: -0.2738392651081085
visibility: 0.9989783763885498
","x: 208.92445373535156
y: 275.52606201171875
z: -0.20954176783561707
visibility: 0.9982708692550659
","x: 197.19195556640625
y: 276.8069152832031
z: -0.17763185501098633
visibility: 0.9974591135978699
","x: 202.02288818359375
y: 283.71820068359375
z: -0.26021867990493774
visibility: 0.9996631145477295
","x: 198.0890350341797
y: 284.1150817871094
z: -0.2510921061038971
visibility: 0.999592125415802
","x: 222.18507385253906
y: 316.13311767578125
z: -0.147406667470932
visibility: 0.9997480511665344
","x: 189.4480438232422
y: 318.4878234863281
z: -0.10459791123867035
visibility: 0.9998699426651001
","x: 224.85182189941406
y: 366.185302734375
z: -0.11075077950954437
visibility: 0.933219850063324
","x: 181.2658233642578
y: 362.1300048828125
z: -0.053435228765010834
visibility: 0.9085874557495117
","x: 224.3975067138672
y: 409.58203125
z: -0.1618114858865738
visibility: 0.7665541172027588
","x: 174.7799835205078
y: 398.8235168457031
z: -0.11592485755681992
visibility: 0.7969403862953186
","x: 224.39158630371094
y: 421.1069030761719
z: -0.18180501461029053
visibility: 0.6467834711074829
","x: 172.351318359375
y: 410.4028625488281
z: -0.13805648684501648
visibility: 0.6904853582382202
","x: 222.28060913085938
y: 420.6241149902344
z: -0.2040167599916458
visibility: 0.6561403274536133
","x: 173.0247802734375
y: 411.5872497558594
z: -0.1628820151090622
visibility: 0.6996962428092957
","x: 221.63575744628906
y: 416.91058349609375
z: -0.1712156981229782
visibility: 0.6138477921485901
","x: 174.40847778320312
y: 407.8952331542969
z: -0.12827423214912415
visibility: 0.6808373332023621
","x: 211.62684631347656
y: 408.4051513671875
z: -0.005805240012705326
visibility: 0.9992443323135376
","x: 192.86585998535156
y: 405.874267578125
z: 0.005765554960817099
visibility: 0.9996645450592041
","x: 208.9378662109375
y: 465.5386657714844
z: 0.06299015879631042
visibility: 0.953410267829895
","x: 196.2217254638672
y: 465.3048095703125
z: 0.024913880974054337
visibility: 0.9763903617858887
","x: 204.66244506835938
y: 512.5166015625
z: 0.28653284907341003
visibility: 0.9387937188148499
","x: 196.770263671875
y: 521.95751953125
z: 0.2138635218143463
visibility: 0.9737606048583984
","x: 203.38711547851562
y: 518.3980712890625
z: 0.3045288026332855
visibility: 0.7755390405654907
","x: 197.7736358642578
y: 529.347900390625
z: 0.22809509932994843
visibility: 0.8070312738418579
","x: 207.14324951171875
y: 535.1207885742188
z: 0.2128019630908966
visibility: 0.9408840537071228
","x: 194.0655059814453
y: 543.7056884765625
z: 0.12353149801492691
visibility: 0.9694851636886597
",,,,,,,,,,,,,,,,,,,,,,,,,,,,,,,,,,,,,,,,,,
1,"x: 196.5508270263672
y: 277.55255126953125
z: -0.2724831700325012
visibility: 0.9997472167015076
","x: 198.5760498046875
y: 271.8818054199219
z: -0.2621639668941498
visibility: 0.9991843700408936
","x: 199.91119384765625
y: 271.7256774902344
z: -0.262179434299469
visibility: 0.9992454051971436
","x: 201.31634521484375
y: 271.6388854980469
z: -0.2622101306915283
visibility: 0.9992246031761169
","x: 195.10679626464844
y: 272.59149169921875
z: -0.2584359049797058
visibility: 0.9990878701210022
","x: 194.00357055664062
y: 272.870361328125
z: -0.25846827030181885
visibility: 0.9990614056587219
","x: 192.85232543945312
y: 273.1632080078125
z: -0.2584758996963501
visibility: 0.999055027961731
","x: 204.43768310546875
y: 275.6543273925781
z: -0.17902535200119019
visibility: 0.9984248280525208
","x: 192.47032165527344
y: 276.8197937011719
z: -0.16372045874595642
visibility: 0.9976534843444824
","x: 199.283935546875
y: 283.94061279296875
z: -0.24043729901313782
visibility: 0.999690055847168
","x: 195.05340576171875
y: 284.55792236328125
z: -0.23617346584796906
visibility: 0.9996210336685181
","x: 215.23643493652344
y: 316.0852966308594
z: -0.11791463941335678
visibility: 0.9997669458389282
","x: 182.0388946533203
y: 314.47393798828125
z: -0.09492119401693344
visibility: 0.9998694658279419
","x: 221.97216796875
y: 364.2120666503906
z: -0.09337788820266724
visibility: 0.9385566115379333
","x: 174.2497100830078
y: 346.4921875
z: -0.12942829728126526
visibility: 0.8970188498497009
","x: 224.445556640625
y: 406.97491455078125
z: -0.14855381846427917
visibility: 0.784713089466095
","x: 165.62355041503906
y: 365.8526611328125
z: -0.3050597906112671
visibility: 0.7932204604148865
","x: 225.05685424804688
y: 419.3834228515625
z: -0.16664180159568787
visibility: 0.6708822250366211
","x: 163.8425750732422
y: 373.4913635253906
z: -0.3394237458705902
visibility: 0.6930841207504272
","x: 222.42132568359375
y: 418.90972900390625
z: -0.19093607366085052
visibility: 0.6802796721458435
","x: 165.30657958984375
y: 371.3902282714844
z: -0.3623926639556885
visibility: 0.7035257816314697
","x: 221.63706970214844
y: 415.25030517578125
z: -0.15885503590106964
visibility: 0.6405702233314514
","x: 165.88494873046875
y: 367.6753234863281
z: -0.3198677599430084
visibility: 0.6852521896362305
","x: 204.72511291503906
y: 408.00433349609375
z: -0.005541877821087837
visibility: 0.9993042945861816
","x: 184.43783569335938
y: 404.4579772949219
z: 0.00549386627972126
visibility: 0.9996905326843262
","x: 204.6915740966797
y: 464.8547668457031
z: 0.052571117877960205
visibility: 0.9573237299919128
","x: 180.56033325195312
y: 461.50213623046875
z: -0.0045966398902237415
visibility: 0.9782859086990356
","x: 204.72354125976562
y: 514.9815673828125
z: 0.22053813934326172
visibility: 0.9441761374473572
","x: 174.5360107421875
y: 518.0408935546875
z: 0.13243725895881653
visibility: 0.9759925007820129
","x: 203.29014587402344
y: 523.040283203125
z: 0.23084227740764618
visibility: 0.7884202003479004
","x: 177.08865356445312
y: 527.5462036132812
z: 0.1395881026983261
visibility: 0.8202018737792969
","x: 207.22747802734375
y: 536.6953125
z: 0.13273069262504578
visibility: 0.9456599950790405
","x: 166.62269592285156
y: 538.9256591796875
z: 0.03618648648262024
visibility: 0.9719247817993164
",,,,,,,,,,,,,,,,,,,,,,,,,,,,,,,,,,,,,,,,,,
2,"x: 192.60975646972656
y: 280.4971008300781
z: -0.25140535831451416
visibility: 0.9997687935829163
","x: 194.55291748046875
y: 274.41082763671875
z: -0.24420161545276642
visibility: 0.9992567896842957
","x: 195.92568969726562
y: 274.0578918457031
z: -0.244228333234787
visibility: 0.9993114471435547
","x: 197.3167724609375
y: 273.79888916015625
z: -0.2442600429058075
visibility: 0.9992920160293579
","x: 191.06747436523438
y: 275.3350830078125
z: -0.23690231144428253
visibility: 0.9991683959960938
","x: 189.98118591308594
y: 275.526611328125
z: -0.23692536354064941
visibility: 0.9991418123245239
","x: 188.94366455078125
y: 275.7021789550781
z: -0.2369314730167389
visibility: 0.9991341233253479
","x: 201.12936401367188
y: 276.7158203125
z: -0.17033778131008148
visibility: 0.9985732436180115
","x: 188.9832763671875
y: 278.0377502441406
z: -0.13750509917736053
visibility: 0.9978613257408142
","x: 195.78292846679688
y: 285.794677734375
z: -0.22173401713371277
visibility: 0.9997182488441467
","x: 191.4762725830078
y: 286.385009765625
z: -0.2125142514705658
visibility: 0.9996546506881714
","x: 213.37203979492188
y: 316.10211181640625
z: -0.12228792905807495
visibility: 0.9997878074645996
","x: 178.67990112304688
y: 313.06402587890625
z: -0.059478722512722015
visibility: 0.9998772740364075
","x: 220.58062744140625
y: 364.326171875
z: -0.11794628202915192
visibility: 0.9439622759819031
","x: 166.37057495117188
y: 341.05328369140625
z: -0.09142841398715973
visibility: 0.8954647183418274
","x: 213.7808074951172
y: 396.40057373046875
z: -0.19426441192626953
visibility: 0.8031375408172607
","x: 165.8094940185547
y: 368.19171142578125
z: -0.2479589432477951
visibility: 0.8010843992233276
","x: 211.77227783203125
y: 410.2042236328125
z: -0.22283656895160675
visibility: 0.6971307992935181
","x: 165.7570037841797
y: 378.88690185546875
z: -0.28138357400894165
visibility: 0.7067578434944153
","x: 208.46470642089844
y: 404.6080017089844
z: -0.2384525090456009
visibility: 0.7056924700737
","x: 167.3678741455078
y: 375.69952392578125
z: -0.2999323606491089
visibility: 0.7166496515274048
","x: 208.18484497070312
y: 399.41241455078125
z: -0.2006780207157135
visibility: 0.667696475982666
","x: 168.15757751464844
y: 371.87030029296875
z: -0.26005178689956665
visibility: 0.6987631320953369
","x: 199.94728088378906
y: 408.3581848144531
z: -0.017155271023511887
visibility: 0.9993585348129272
","x: 180.09739685058594
y: 404.8276062011719
z: 0.01711857318878174
visibility: 0.9997125864028931
","x: 201.1494598388672
y: 465.69287109375
z: 0.05122753977775574
visibility: 0.9609532952308655
","x: 177.14170837402344
y: 461.7293701171875
z: 0.058177538216114044
visibility: 0.9798816442489624
","x: 204.8467254638672
y: 516.2866821289062
z: 0.21427078545093536
visibility: 0.9490246772766113
","x: 172.28028869628906
y: 517.9436645507812
z: 0.19038276374340057
visibility: 0.9778773784637451
","x: 203.24310302734375
y: 525.8497314453125
z: 0.22495806217193604
visibility: 0.8004412651062012
","x: 174.90939331054688
y: 527.3976440429688
z: 0.19309206306934357
visibility: 0.8332760334014893
","x: 207.99224853515625
y: 537.8594360351562
z: 0.13367092609405518
visibility: 0.9499547481536865
","x: 164.9770050048828
y: 537.2689208984375
z: 0.12174071371555328
visibility: 0.9738837480545044
",,,,,,,,,,,,,,,,,,,,,,,,,,,,,,,,,,,,,,,,,,
3,"x: 191.6941375732422
y: 281.7422180175781
z: -0.22392722964286804
visibility: 0.9997836947441101
","x: 193.3533935546875
y: 275.1640930175781
z: -0.21612195670604706
visibility: 0.9993096590042114
","x: 194.6484832763672
y: 274.69512939453125
z: -0.2161523997783661
visibility: 0.9993570446968079
","x: 196.00384521484375
y: 274.34136962890625
z: -0.21617209911346436
visibility: 0.9993364214897156
","x: 190.0339813232422
y: 276.347900390625
z: -0.208792045712471
visibility: 0.9992305040359497
","x: 188.99021911621094
y: 276.60052490234375
z: -0.20881342887878418
visibility: 0.999202311038971
","x: 187.99984741210938
y: 276.815673828125
z: -0.20883846282958984
visibility: 0.9991958141326904
","x: 199.8540496826172
y: 276.9320373535156
z: -0.1427028477191925
visibility: 0.9986881017684937
","x: 188.07315063476562
y: 278.8814697265625
z: -0.10762132704257965
visibility: 0.9980400800704956
","x: 194.78240966796875
y: 286.9766845703125
z: -0.19441938400268555
visibility: 0.9997408986091614
","x: 190.75186157226562
y: 287.6446533203125
z: -0.18459992110729218
visibility: 0.999682605266571
","x: 213.70693969726562
y: 316.0684814453125
z: -0.0973842591047287
visibility: 0.9998049139976501
","x: 178.55636596679688
y: 313.5931396484375
z: -0.03780905157327652
visibility: 0.9998859167098999
","x: 216.52601623535156
y: 363.5595703125
z: -0.13832849264144897
visibility: 0.9482543468475342
","x: 166.1772003173828
y: 346.3473205566406
z: -0.08543898165225983
visibility: 0.8981615900993347
","x: 202.19874572753906
y: 371.897216796875
z: -0.2699702978134155
visibility: 0.8200620412826538
","x: 167.79806518554688
y: 372.45477294921875
z: -0.23101480305194855
visibility: 0.8112856149673462
","x: 197.53756713867188
y: 376.22088623046875
z: -0.3064836859703064
visibility: 0.7221150994300842
","x: 166.07611083984375
y: 382.4836730957031
z: -0.2685606777667999
visibility: 0.7211633920669556
","x: 196.1223907470703
y: 368.35198974609375
z: -0.31477588415145874
visibility: 0.729732871055603
","x: 169.0615692138672
y: 377.89312744140625
z: -0.2808201014995575
visibility: 0.7297946810722351
","x: 197.08895874023438
y: 366.7564392089844
z: -0.27490049600601196
visibility: 0.6923090219497681
","x: 168.86129760742188
y: 374.10528564453125
z: -0.24027486145496368
visibility: 0.7109789252281189
","x: 201.2055206298828
y: 408.3587646484375
z: -0.016146810725331306
visibility: 0.9993972182273865
","x: 180.26101684570312
y: 404.8164367675781
z: 0.016103189438581467
visibility: 0.9997311234474182
","x: 201.6887664794922
y: 465.8283996582031
z: 0.02475297451019287
visibility: 0.9645329117774963
","x: 174.79299926757812
y: 462.1038818359375
z: 0.02504940703511238
visibility: 0.9816749691963196
","x: 205.1343536376953
y: 516.5650024414062
z: 0.20312495529651642
visibility: 0.9535663723945618
","x: 171.91734313964844
y: 517.0633544921875
z: 0.1766798049211502
visibility: 0.9798372983932495
","x: 203.3501434326172
y: 525.4058227539062
z: 0.21540172398090363
visibility: 0.8103190064430237
","x: 175.37046813964844
y: 526.8719482421875
z: 0.18648479878902435
visibility: 0.8463764786720276
","x: 207.96974182128906
y: 537.7861938476562
z: 0.11583448946475983
visibility: 0.9539532661437988
","x: 164.42724609375
y: 537.405517578125
z: 0.0947803407907486
visibility: 0.9760285019874573
",,,,,,,,,,,,,,,,,,,,,,,,,,,,,,,,,,,,,,,,,,
4,"x: 190.5048828125
y: 281.7320861816406
z: -0.18670879304409027
visibility: 0.9997836351394653
","x: 192.3761444091797
y: 275.44903564453125
z: -0.1739254742860794
visibility: 0.9993126392364502
","x: 193.65953063964844
y: 275.11590576171875
z: -0.17398160696029663
visibility: 0.9993529915809631
","x: 195.1020050048828
y: 274.9132080078125
z: -0.17402228713035583
visibility: 0.9993395805358887
","x: 189.22845458984375
y: 276.3204345703125
z: -0.167863667011261
visibility: 0.99923175573349
","x: 188.22557067871094
y: 276.54595947265625
z: -0.1678660660982132
visibility: 0.9991841912269592
","x: 187.25405883789062
y: 276.7474365234375
z: -0.16788682341575623
visibility: 0.9991758465766907
","x: 198.9441375732422
y: 277.91912841796875
z: -0.09627095609903336
visibility: 0.9987305402755737
","x: 187.34410095214844
y: 279.05438232421875
z: -0.06836491078138351
visibility: 0.9980751276016235
","x: 193.32272338867188
y: 287.4193420410156
z: -0.1577497273683548
visibility: 0.9997524619102478
","x: 189.3613739013672
y: 287.7347412109375
z: -0.15000322461128235
visibility: 0.9996941685676575
","x: 210.66893005371094
y: 315.9769592285156
z: -0.07624517381191254
visibility: 0.9998195171356201
","x: 176.37213134765625
y: 313.94073486328125
z: -0.007934591732919216
visibility: 0.9998838305473328
","x: 212.02334594726562
y: 363.3927001953125
z: -0.15181079506874084
visibility: 0.952866792678833
","x: 167.3358154296875
y: 348.508544921875
z: -0.04971468076109886
visibility: 0.8877164125442505
","x: 193.03724670410156
y: 353.9104919433594
z: -0.27922338247299194
visibility: 0.8370958566665649
","x: 168.65826416015625
y: 369.716552734375
z: -0.20552150905132294
visibility: 0.796705424785614
","x: 186.89479064941406
y: 351.437255859375
z: -0.3149316608905792
visibility: 0.7476655840873718
","x: 166.54710388183594
y: 379.1224365234375
z: -0.24094660580158234
visibility: 0.7082734704017639
","x: 186.9977264404297
y: 343.63201904296875
z: -0.3133085370063782
visibility: 0.7544728517532349
","x: 170.10426330566406
y: 376.13031005859375
z: -0.25291183590888977
visibility: 0.7159352898597717
","x: 188.7549285888672
y: 344.017578125
z: -0.27991047501564026
visibility: 0.7187436819076538
","x: 169.28768920898438
y: 370.59124755859375
z: -0.21511653065681458
visibility: 0.6959801912307739
","x: 200.40371704101562
y: 408.11474609375
z: -0.014820595271885395
visibility: 0.9994290471076965
","x: 179.72933959960938
y: 404.7960205078125
z: 0.014804366044700146
visibility: 0.9997442960739136
","x: 201.7527313232422
y: 465.65557861328125
z: -0.029369380325078964
visibility: 0.9673376679420471
","x: 172.88272094726562
y: 458.8099670410156
z: -0.1206645518541336
visibility: 0.983088493347168
","x: 205.09552001953125
y: 516.3941650390625
z: 0.16549266874790192
visibility: 0.9569798111915588
","x: 168.55392456054688
y: 515.5985107421875
z: 0.04492984339594841
visibility: 0.9813390374183655
","x: 203.13677978515625
y: 525.1526489257812
z: 0.17922937870025635
visibility: 0.8108552694320679
","x: 171.46377563476562
y: 523.69384765625
z: 0.05569915845990181
visibility: 0.8531266450881958
","x: 208.0767059326172
y: 537.9786376953125
z: 0.07326024025678635
visibility: 0.9561490416526794
","x: 164.2000274658203
y: 537.8092651367188
z: -0.054711878299713135
visibility: 0.9775314927101135
",,,,,,,,,,,,,,,,,,,,,,,,,,,,,,,,,,,,,,,,,,
5,"x: 185.33847045898438
y: 281.7469482421875
z: -0.20469939708709717
visibility: 0.9997552633285522
","x: 187.74879455566406
y: 275.67791748046875
z: -0.19554467499256134
visibility: 0.9992683529853821
","x: 189.00778198242188
y: 275.5750732421875
z: -0.19559551775455475
visibility: 0.9993070363998413
","x: 190.3296356201172
y: 275.6037292480469
z: -0.1956307590007782
visibility: 0.9992964863777161
","x: 184.45523071289062
y: 276.12701416015625
z: -0.1877671629190445
visibility: 0.9991604685783386
","x: 183.4048614501953
y: 276.30328369140625
z: -0.187771275639534
visibility: 0.9990824460983276
","x: 182.3789520263672
y: 276.5204772949219
z: -0.1877918392419815
visibility: 0.9990431666374207
","x: 194.21534729003906
y: 278.6990966796875
z: -0.12212438881397247
visibility: 0.9987417459487915
","x: 182.93727111816406
y: 278.77496337890625
z: -0.08646843582391739
visibility: 0.9978723526000977
","x: 188.24517822265625
y: 287.64373779296875
z: -0.17626434564590454
visibility: 0.9997510313987732
","x: 184.0394744873047
y: 287.6575927734375
z: -0.1663442701101303
visibility: 0.9996768236160278
","x: 205.631591796875
y: 316.0005798339844
z: -0.09502805769443512
visibility: 0.9998304843902588
","x: 173.63848876953125
y: 313.7492980957031
z: -0.02054930105805397
visibility: 0.9998699426651001
","x: 208.953857421875
y: 361.6358947753906
z: -0.1778806746006012
visibility: 0.9567319750785828
","x: 164.6311798095703
y: 345.6390075683594
z: -0.06651318073272705
visibility: 0.8729191422462463
","x: 188.95285034179688
y: 355.6082458496094
z: -0.3106921315193176
visibility: 0.8518167734146118
","x: 167.85768127441406
y: 361.37005615234375
z: -0.25326645374298096
visibility: 0.7860169410705566
","x: 182.00697326660156
y: 354.5672912597656
z: -0.34764450788497925
visibility: 0.7694719433784485
","x: 167.2207489013672
y: 368.6910705566406
z: -0.29208481311798096
visibility: 0.701322615146637
","x: 181.49624633789062
y: 347.2519226074219
z: -0.3466666340827942
visibility: 0.775540828704834
","x: 170.102783203125
y: 364.9427795410156
z: -0.3001440167427063
visibility: 0.7079368233680725
","x: 183.1710205078125
y: 346.86175537109375
z: -0.3114975094795227
visibility: 0.7407917976379395
","x: 169.9816131591797
y: 362.074951171875
z: -0.2620713412761688
visibility: 0.6864834427833557
","x: 198.57435607910156
y: 408.59759521484375
z: -0.013773782178759575
visibility: 0.9994624853134155
","x: 178.12709045410156
y: 406.56243896484375
z: 0.01374928466975689
visibility: 0.9997484683990479
","x: 200.838134765625
y: 465.7232971191406
z: 0.003319165902212262
visibility: 0.9698458313941956
","x: 173.4498291015625
y: 459.6260070800781
z: -0.015113765373826027
visibility: 0.984145998954773
","x: 205.25079345703125
y: 516.2354736328125
z: 0.2108292281627655
visibility: 0.959945023059845
","x: 168.44522094726562
y: 513.93212890625
z: 0.1474190652370453
visibility: 0.9823893308639526
","x: 203.2621307373047
y: 524.7319946289062
z: 0.22527678310871124
visibility: 0.8113471269607544
","x: 170.7652130126953
y: 519.9796752929688
z: 0.1597098410129547
visibility: 0.8560446500778198
","x: 208.06201171875
y: 537.8916625976562
z: 0.12564873695373535
visibility: 0.9583637118339539
","x: 164.0465087890625
y: 537.5858154296875
z: 0.06652412563562393
visibility: 0.9784195423126221
",,,,,,,,,,,,,,,,,,,,,,,,,,,,,,,,,,,,,,,,,,
6,"x: 182.06471252441406
y: 281.3661804199219
z: -0.24920788407325745
visibility: 0.9997551441192627
","x: 184.12460327148438
y: 275.3499450683594
z: -0.23895227909088135
visibility: 0.9992795586585999
","x: 185.22647094726562
y: 275.2801208496094
z: -0.2389533966779709
visibility: 0.9993097186088562
","x: 186.4313507080078
y: 275.2906188964844
z: -0.23895609378814697
visibility: 0.9992967844009399
","x: 181.18511962890625
y: 275.5374755859375
z: -0.23509088158607483
visibility: 0.9991858005523682
","x: 180.28692626953125
y: 275.5863342285156
z: -0.2351219207048416
visibility: 0.9991102814674377
","x: 179.3336181640625
y: 275.6582946777344
z: -0.2351406067609787
visibility: 0.9990683794021606
","x: 190.1790313720703
y: 277.8897705078125
z: -0.15200334787368774
visibility: 0.9987472891807556
","x: 180.19796752929688
y: 277.4555358886719
z: -0.13711577653884888
visibility: 0.9979174137115479
","x: 184.82559204101562
y: 287.24041748046875
z: -0.21582123637199402
visibility: 0.9997507333755493
","x: 181.02789306640625
y: 287.3605041503906
z: -0.21136252582073212
visibility: 0.9996789693832397
","x: 202.29844665527344
y: 313.58880615234375
z: -0.10605873167514801
visibility: 0.9998335242271423
","x: 171.1973876953125
y: 312.9794616699219
z: -0.0714341476559639
visibility: 0.9998610615730286
","x: 208.8214111328125
y: 358.3246154785156
z: -0.15945151448249817
visibility: 0.9599714279174805
","x: 164.46945190429688
y: 346.8872375488281
z: -0.11018513143062592
visibility: 0.8731966614723206
","x: 191.15634155273438
y: 366.3511962890625
z: -0.26965975761413574
visibility: 0.8636988401412964
","x: 170.58114624023438
y: 367.6976013183594
z: -0.25534600019454956
visibility: 0.7896114587783813
","x: 187.01670837402344
y: 373.8616943359375
z: -0.3039385974407196
visibility: 0.7857946157455444
","x: 173.48043823242188
y: 377.4342041015625
z: -0.2915351986885071
visibility: 0.7068324089050293
","x: 184.14114379882812
y: 368.1676025390625
z: -0.3105427324771881
visibility: 0.7911534905433655
","x: 177.42822265625
y: 374.41571044921875
z: -0.30083000659942627
visibility: 0.7119240164756775
","x: 185.0291748046875
y: 365.018310546875
z: -0.2732335925102234
visibility: 0.7563084363937378
","x: 176.8815155029297
y: 370.6245422363281
z: -0.2623767554759979
visibility: 0.6874582767486572
","x: 197.24789428710938
y: 407.2398376464844
z: -0.013210487551987171
visibility: 0.9994886517524719
","x: 176.99362182617188
y: 405.3372497558594
z: 0.013190251775085926
visibility: 0.9997557997703552
","x: 200.5397186279297
y: 462.3627014160156
z: 0.03790438920259476
visibility: 0.9720868468284607
","x: 172.64987182617188
y: 458.2635803222656
z: 0.04410191625356674
visibility: 0.9850876927375793
","x: 205.23550415039062
y: 516.0543212890625
z: 0.20724253356456757
visibility: 0.9628118872642517
","x: 168.26573181152344
y: 511.75787353515625
z: 0.20459118485450745
visibility: 0.9835091233253479
","x: 203.2382354736328
y: 524.4893798828125
z: 0.21797363460063934
visibility: 0.8188137412071228
","x: 170.49986267089844
y: 517.4104614257812
z: 0.2159198522567749
visibility: 0.8623343706130981
","x: 208.29537963867188
y: 537.6416625976562
z: 0.1195385679602623
visibility: 0.960742712020874
","x: 164.1609649658203
y: 535.5657958984375
z: 0.1226176843047142
visibility: 0.9794368147850037
",,,,,,,,,,,,,,,,,,,,,,,,,,,,,,,,,,,,,,,,,,
7,"x: 183.78790283203125
y: 281.0315246582031
z: -0.2607359290122986
visibility: 0.9997755289077759
","x: 185.6653594970703
y: 274.8273010253906
z: -0.25192227959632874
visibility: 0.999343752861023
","x: 187.044189453125
y: 274.70074462890625
z: -0.25192636251449585
visibility: 0.999371349811554
","x: 188.41932678222656
y: 274.6494140625
z: -0.2519204020500183
visibility: 0.9993588328361511
","x: 182.4361572265625
y: 275.19671630859375
z: -0.24548563361167908
visibility: 0.9992541670799255
","x: 181.55287170410156
y: 275.314208984375
z: -0.2455342561006546
visibility: 0.9991847276687622
","x: 180.68307495117188
y: 275.4530944824219
z: -0.24555230140686035
visibility: 0.9991408586502075
","x: 192.1019287109375
y: 276.6863708496094
z: -0.16874036192893982
visibility: 0.9988632202148438
","x: 181.4712371826172
y: 277.2275085449219
z: -0.14193060994148254
visibility: 0.9980711936950684
","x: 187.2296600341797
y: 286.49578857421875
z: -0.22873488068580627
visibility: 0.9997729659080505
","x: 182.63638305664062
y: 286.853759765625
z: -0.2208641767501831
visibility: 0.9997029900550842
","x: 206.23562622070312
y: 312.52679443359375
z: -0.10984132438898087
visibility: 0.9998486042022705
","x: 173.146240234375
y: 312.80694580078125
z: -0.07805868983268738
visibility: 0.9998556971549988
","x: 209.0380859375
y: 359.0740661621094
z: -0.15257811546325684
visibility: 0.9635501503944397
","x: 165.9557342529297
y: 349.4324035644531
z: -0.1574423611164093
visibility: 0.8766272664070129
","x: 198.4393310546875
y: 370.64288330078125
z: -0.26786115765571594
visibility: 0.8768647313117981
","x: 164.3153076171875
y: 347.104736328125
z: -0.37489181756973267
visibility: 0.8060879707336426
","x: 195.09864807128906
y: 379.0689697265625
z: -0.2996966242790222
visibility: 0.8058514595031738
","x: 163.0498504638672
y: 344.7937316894531
z: -0.4191259741783142
visibility: 0.7295287847518921
","x: 192.85317993164062
y: 373.166015625
z: -0.3101482093334198
visibility: 0.8106464147567749
","x: 163.51223754882812
y: 338.90374755859375
z: -0.4278160631656647
visibility: 0.7338423728942871
","x: 193.43678283691406
y: 369.764404296875
z: -0.27234476804733276
visibility: 0.7782782912254333
","x: 165.60284423828125
y: 340.8314208984375
z: -0.3845052123069763
visibility: 0.7093682885169983
","x: 197.68052673339844
y: 404.9354553222656
z: -0.004814985208213329
visibility: 0.9995344281196594
","x: 176.9425811767578
y: 403.412353515625
z: 0.004738756455481052
visibility: 0.9997736811637878
","x: 200.87420654296875
y: 462.04522705078125
z: 0.028329456225037575
visibility: 0.9743701815605164
","x: 173.66709899902344
y: 458.4077453613281
z: 0.03644959256052971
visibility: 0.986193060874939
","x: 205.35791015625
y: 516.4635009765625
z: 0.20252831280231476
visibility: 0.9657869338989258
","x: 167.12405395507812
y: 512.5537719726562
z: 0.22249074280261993
visibility: 0.984660804271698
","x: 203.10630798339844
y: 526.3646850585938
z: 0.21448838710784912
visibility: 0.8311929106712341
","x: 168.17010498046875
y: 518.5881958007812
z: 0.23650677502155304
visibility: 0.8672757744789124
","x: 211.87088012695312
y: 537.5960083007812
z: 0.1140761524438858
visibility: 0.9635106325149536
","x: 164.4224395751953
y: 535.6962890625
z: 0.13771392405033112
visibility: 0.9806389808654785
",,,,,,,,,,,,,,,,,,,,,,,,,,,,,,,,,,,,,,,,,,
8,"x: 186.5377655029297
y: 279.1100769042969
z: -0.2720969319343567
visibility: 0.9997935891151428
","x: 187.75372314453125
y: 272.82342529296875
z: -0.2606399953365326
visibility: 0.9994019269943237
","x: 188.9766387939453
y: 272.7918395996094
z: -0.26065903902053833
visibility: 0.9994269013404846
","x: 189.8994903564453
y: 272.8280334472656
z: -0.2606712281703949
visibility: 0.9994150400161743
","x: 182.72239685058594
y: 273.0679016113281
z: -0.2570299506187439
visibility: 0.9993172287940979
","x: 182.40948486328125
y: 273.3194580078125
z: -0.25707635283470154
visibility: 0.9992526173591614
","x: 181.97021484375
y: 273.64703369140625
z: -0.257077693939209
visibility: 0.9992076754570007
","x: 193.94012451171875
y: 275.055419921875
z: -0.16964656114578247
visibility: 0.9989672899246216
","x: 183.44497680664062
y: 276.67095947265625
z: -0.1548183411359787
visibility: 0.9982221126556396
","x: 189.86627197265625
y: 285.0142822265625
z: -0.2370234727859497
visibility: 0.9997918605804443
","x: 184.3297882080078
y: 285.8607177734375
z: -0.23307394981384277
visibility: 0.9997239708900452
","x: 206.8933563232422
y: 311.96343994140625
z: -0.10834532976150513
visibility: 0.9998615384101868
","x: 174.86170959472656
y: 312.14044189453125
z: -0.08682231605052948
visibility: 0.9998372197151184
","x: 217.74876403808594
y: 358.58819580078125
z: -0.14904943108558655
visibility: 0.9667114019393921
","x: 165.93630981445312
y: 349.5850830078125
z: -0.17411848902702332
visibility: 0.8776594996452332
","x: 205.26455688476562
y: 368.3280944824219
z: -0.2624444365501404
visibility: 0.888424813747406
","x: 164.6922607421875
y: 339.80712890625
z: -0.38782399892807007
visibility: 0.812300980091095
","x: 201.72589111328125
y: 377.8959655761719
z: -0.2933456003665924
visibility: 0.8229499459266663
","x: 164.05393981933594
y: 337.943359375
z: -0.4304625988006592
visibility: 0.7378383874893188
","x: 197.63331604003906
y: 372.3199462890625
z: -0.30490225553512573
visibility: 0.8272369503974915
","x: 165.23912048339844
y: 333.62030029296875
z: -0.4380294382572174
visibility: 0.7411106824874878
","x: 198.8509063720703
y: 368.8105773925781
z: -0.2676037549972534
visibility: 0.796639084815979
","x: 166.7555694580078
y: 334.6029357910156
z: -0.39686790108680725
visibility: 0.7149577140808105
","x: 198.9268798828125
y: 403.60540771484375
z: 0.001607206417247653
visibility: 0.9995708465576172
","x: 178.2538604736328
y: 401.7558288574219
z: -0.0016566083068028092
visibility: 0.9997865557670593
","x: 201.2519073486328
y: 460.9907531738281
z: 0.04504150152206421
visibility: 0.9762317538261414
","x: 174.03981018066406
y: 458.8856201171875
z: 0.014471282251179218
visibility: 0.9871776700019836
","x: 205.4652557373047
y: 516.9337158203125
z: 0.20837390422821045
visibility: 0.9684135913848877
","x: 167.37001037597656
y: 512.7500610351562
z: 0.1707036942243576
visibility: 0.9857483506202698
","x: 203.04579162597656
y: 527.5640869140625
z: 0.21888203918933868
visibility: 0.8423532247543335
","x: 168.760498046875
y: 518.33984375
z: 0.18056586384773254
visibility: 0.8721280694007874
","x: 213.39793395996094
y: 537.56787109375
z: 0.11959713697433472
visibility: 0.9658632874488831
","x: 164.16810607910156
y: 535.4509887695312
z: 0.0748797208070755
visibility: 0.9817383885383606
",,,,,,,,,,,,,,,,,,,,,,,,,,,,,,,,,,,,,,,,,,
9,"x: 191.01719665527344
y: 277.2655944824219
z: -0.24975088238716125
visibility: 0.999810516834259
","x: 192.5676727294922
y: 271.4674072265625
z: -0.23562881350517273
visibility: 0.9994553327560425
","x: 193.80274963378906
y: 271.5246276855469
z: -0.23563233017921448
visibility: 0.9994773268699646
","x: 194.75277709960938
y: 271.6065368652344
z: -0.23561732470989227
visibility: 0.9994656443595886
","x: 188.27210998535156
y: 271.46795654296875
z: -0.23594646155834198
visibility: 0.9993769526481628
","x: 187.24380493164062
y: 271.649658203125
z: -0.23599398136138916
visibility: 0.9993178844451904
","x: 186.22808837890625
y: 271.9309387207031
z: -0.23600108921527863
visibility: 0.999274492263794
","x: 196.55419921875
y: 273.9703674316406
z: -0.13735193014144897
visibility: 0.9990597367286682
","x: 185.27133178710938
y: 275.1489562988281
z: -0.13793553411960602
visibility: 0.9983780384063721
","x: 193.63314819335938
y: 283.5948486328125
z: -0.21144887804985046
visibility: 0.9998089075088501
","x: 188.8302459716797
y: 284.1498107910156
z: -0.212365061044693
visibility: 0.9997445940971375
","x: 206.98265075683594
y: 311.546142578125
z: -0.06475163996219635
visibility: 0.9998713135719299
","x: 174.9638214111328
y: 307.7109375
z: -0.08205706626176834
visibility: 0.9998328685760498
","x: 219.4139404296875
y: 356.9525451660156
z: -0.09663601219654083
visibility: 0.9691709280014038
","x: 166.71466064453125
y: 344.02935791015625
z: -0.17865651845932007
visibility: 0.8848000168800354
","x: 210.6694793701172
y: 366.9881896972656
z: -0.22429148852825165
visibility: 0.8983826637268066
","x: 171.38973999023438
y: 332.7261962890625
z: -0.38327983021736145
visibility: 0.8262116312980652
","x: 206.8384246826172
y: 375.71417236328125
z: -0.25203779339790344
visibility: 0.8371532559394836
","x: 171.73825073242188
y: 329.9761657714844
z: -0.4241923391819
visibility: 0.7556724548339844
","x: 203.4125213623047
y: 370.8305358886719
z: -0.26312994956970215
visibility: 0.8409876227378845
","x: 172.648193359375
y: 328.5546875
z: -0.42753052711486816
visibility: 0.7580949664115906
","x: 204.26632690429688
y: 367.6754150390625
z: -0.2297573834657669
visibility: 0.8115903735160828
","x: 175.05540466308594
y: 328.6874084472656
z: -0.38946303725242615
visibility: 0.7314326167106628
","x: 199.496337890625
y: 402.3442077636719
z: 0.009418647736310959
visibility: 0.9996020793914795
","x: 179.03408813476562
y: 399.3861083984375
z: -0.009473096579313278
visibility: 0.9997957348823547
","x: 201.42138671875
y: 460.2781677246094
z: 0.03699340671300888
visibility: 0.9778472185134888
","x: 174.49581909179688
y: 459.1957092285156
z: 0.01448448933660984
visibility: 0.9879907369613647
","x: 205.55270385742188
y: 517.7106323242188
z: 0.17215248942375183
visibility: 0.9707708358764648
","x: 167.82723999023438
y: 511.96527099609375
z: 0.17395983636379242
visibility: 0.9866485595703125
","x: 203.0047149658203
y: 528.7238159179688
z: 0.17946888506412506
visibility: 0.8531046509742737
","x: 169.03269958496094
y: 517.0723266601562
z: 0.18424107134342194
visibility: 0.8760716915130615
","x: 213.8243408203125
y: 537.5860595703125
z: 0.07886867225170135
visibility: 0.9680201411247253
","x: 164.13827514648438
y: 535.3729858398438
z: 0.0811726376414299
visibility: 0.9826352000236511
",,,,,,,,,,,,,,,,,,,,,,,,,,,,,,,,,,,,,,,,,,
10,"x: 192.96641540527344
y: 276.85040283203125
z: -0.2339138239622116
visibility: 0.9998205900192261
","x: 194.92213439941406
y: 271.2399597167969
z: -0.22112226486206055
visibility: 0.9994909167289734
","x: 196.11663818359375
y: 271.35980224609375
z: -0.22113732993602753
visibility: 0.9995043277740479
","x: 197.14137268066406
y: 271.5046081542969
z: -0.2211408168077469
visibility: 0.999488890171051
","x: 190.90951538085938
y: 270.9534912109375
z: -0.22118094563484192
visibility: 0.9994233846664429
","x: 189.55990600585938
y: 270.9566650390625
z: -0.22122187912464142
visibility: 0.9993684887886047
","x: 188.2162628173828
y: 271.05096435546875
z: -0.22125785052776337
visibility: 0.9993312358856201
","x: 198.6156005859375
y: 274.06427001953125
z: -0.12891723215579987
visibility: 0.9990959167480469
","x: 186.40013122558594
y: 274.18798828125
z: -0.1291697770357132
visibility: 0.998525083065033
","x: 195.3530731201172
y: 283.34661865234375
z: -0.19799190759658813
visibility: 0.9998210072517395
","x: 190.64527893066406
y: 283.6095886230469
z: -0.19844943284988403
visibility: 0.9997663497924805
","x: 208.16514587402344
y: 312.9405822753906
z: -0.05992346256971359
visibility: 0.9998684525489807
","x: 175.53884887695312
y: 307.6482849121094
z: -0.07950888574123383
visibility: 0.9998478293418884
","x: 218.55990600585938
y: 357.5657653808594
z: -0.10912249237298965
visibility: 0.9678831100463867
","x: 162.0452423095703
y: 340.6265869140625
z: -0.14184123277664185
visibility: 0.8953161835670471
","x: 210.53570556640625
y: 361.706787109375
z: -0.28080859780311584
visibility: 0.9031497836112976
","x: 169.822509765625
y: 346.2561340332031
z: -0.3181748688220978
visibility: 0.8418684601783752
","x: 208.47821044921875
y: 366.96295166015625
z: -0.3195769786834717
visibility: 0.8444439172744751
","x: 171.52737426757812
y: 330.6573791503906
z: -0.35379236936569214
visibility: 0.7765650153160095
","x: 206.7146759033203
y: 360.1951904296875
z: -0.330521821975708
visibility: 0.8481113910675049
","x: 172.6545867919922
y: 333.42510986328125
z: -0.3671923577785492
visibility: 0.7786475419998169
","x: 206.87489318847656
y: 357.3778991699219
z: -0.2889135181903839
visibility: 0.8181196451187134
","x: 174.35479736328125
y: 339.8424987792969
z: -0.331437349319458
visibility: 0.7532776594161987
","x: 199.12879943847656
y: 402.8395080566406
z: 0.010584838688373566
visibility: 0.9996249079704285
","x: 178.5881805419922
y: 399.9229431152344
z: -0.010650157928466797
visibility: 0.9998075366020203
","x: 201.48719787597656
y: 460.565673828125
z: 0.03468111902475357
visibility: 0.97922682762146
","x: 174.7016143798828
y: 459.540771484375
z: 0.010485304519534111
visibility: 0.988837480545044
","x: 205.64984130859375
y: 518.3740844726562
z: 0.1853032112121582
visibility: 0.9727317690849304
","x: 167.97532653808594
y: 512.2373657226562
z: 0.17565831542015076
visibility: 0.9875349998474121
","x: 203.0390625
y: 529.041259765625
z: 0.19510938227176666
visibility: 0.8602311015129089
","x: 169.4835968017578
y: 517.650390625
z: 0.18774351477622986
visibility: 0.8808252215385437
","x: 213.26182556152344
y: 537.64599609375
z: 0.09892620891332626
visibility: 0.9697533249855042
","x: 164.3177490234375
y: 536.0218505859375
z: 0.08466950058937073
visibility: 0.9835516810417175
",,,,,,,,,,,,,,,,,,,,,,,,,,,,,,,,,,,,,,,,,,
11,"x: 190.76271057128906
y: 275.78790283203125
z: -0.20431926846504211
visibility: 0.999828577041626
","x: 192.3914031982422
y: 269.9449462890625
z: -0.193247988820076
visibility: 0.9995144009590149
","x: 193.59429931640625
y: 269.9862976074219
z: -0.19327709078788757
visibility: 0.9995209574699402
","x: 194.7789764404297
y: 270.1254577636719
z: -0.19329248368740082
visibility: 0.9995005130767822
","x: 188.4364471435547
y: 270.1417236328125
z: -0.19062483310699463
visibility: 0.9994562864303589
","x: 187.21136474609375
y: 270.332763671875
z: -0.19065052270889282
visibility: 0.9994035363197327
","x: 186.0915985107422
y: 270.6004638671875
z: -0.19068482518196106
visibility: 0.9993702173233032
","x: 196.2989959716797
y: 273.1146240234375
z: -0.11348593235015869
visibility: 0.9991073608398438
","x: 184.7852020263672
y: 274.006591796875
z: -0.10255391895771027
visibility: 0.9986401796340942
","x: 193.5771942138672
y: 282.4129943847656
z: -0.17389899492263794
visibility: 0.9998303055763245
","x: 188.3854522705078
y: 282.8299560546875
z: -0.17085468769073486
visibility: 0.9997838139533997
","x: 207.25967407226562
y: 312.6785888671875
z: -0.06387577950954437
visibility: 0.9998732805252075
","x: 173.31268310546875
y: 308.1521301269531
z: -0.05538246035575867
visibility: 0.9998608231544495
","x: 215.0100860595703
y: 355.5719299316406
z: -0.1358414739370346
visibility: 0.9695552587509155
","x: 159.42669677734375
y: 341.30316162109375
z: -0.10925538837909698
visibility: 0.9044092297554016
","x: 210.07333374023438
y: 351.2331848144531
z: -0.3240407109260559
visibility: 0.9117621779441833
","x: 163.88259887695312
y: 351.16400146484375
z: -0.2640048861503601
visibility: 0.8559544086456299
","x: 207.68540954589844
y: 354.90216064453125
z: -0.36535170674324036
visibility: 0.8579100370407104
","x: 164.70648193359375
y: 359.1766662597656
z: -0.3008155822753906
visibility: 0.7954220771789551
","x: 205.69793701171875
y: 347.7347412109375
z: -0.37109437584877014
visibility: 0.8612717986106873
","x: 168.37762451171875
y: 356.3229675292969
z: -0.3086875081062317
visibility: 0.7972728610038757
","x: 206.15670776367188
y: 346.12164306640625
z: -0.33015429973602295
visibility: 0.8331090807914734
","x: 169.28872680664062
y: 354.2408447265625
z: -0.2710726857185364
visibility: 0.7734222412109375
","x: 198.53201293945312
y: 402.9665832519531
z: 0.007126183714717627
visibility: 0.9996503591537476
","x: 177.68643188476562
y: 401.8332214355469
z: -0.007195511367172003
visibility: 0.9998202323913574
","x: 200.75784301757812
y: 460.77801513671875
z: 0.036981914192438126
visibility: 0.9803191423416138
","x: 174.65342712402344
y: 460.3197021484375
z: 0.012694977223873138
visibility: 0.9893920421600342
","x: 205.64813232421875
y: 518.628662109375
z: 0.1949605643749237
visibility: 0.9740814566612244
","x: 168.0197296142578
y: 512.5208129882812
z: 0.18480488657951355
visibility: 0.9880582690238953
","x: 203.03343200683594
y: 529.177490234375
z: 0.2059132605791092
visibility: 0.8640628457069397
","x: 169.67425537109375
y: 518.06591796875
z: 0.19789031147956848
visibility: 0.8826727867126465
","x: 213.01414489746094
y: 537.6497802734375
z: 0.10557552427053452
visibility: 0.9707661271095276
","x: 164.14605712890625
y: 536.0768432617188
z: 0.10638312995433807
visibility: 0.9839133024215698
","x: 162.5901641845703
y: 355.94842529296875
z: 0.0
","x: 165.0257110595703
y: 357.82275390625
z: -0.0008511256892234087
","x: 166.97918701171875
y: 361.57904052734375
z: -0.002263088710606098
","x: 167.45535278320312
y: 365.7447814941406
z: -0.003850402310490608
","x: 167.32115173339844
y: 368.9311218261719
z: -0.00548854423686862
","x: 167.67259216308594
y: 365.81951904296875
z: -0.004534042906016111
","x: 170.36891174316406
y: 370.4527282714844
z: -0.007308304309844971
","x: 171.64585876464844
y: 373.828857421875
z: -0.008618932217359543
","x: 172.58343505859375
y: 376.4227294921875
z: -0.009370772168040276
","x: 166.15182495117188
y: 368.5130615234375
z: -0.005894677247852087
","x: 167.57254028320312
y: 376.7832946777344
z: -0.008419547230005264
","x: 167.8057403564453
y: 382.3805236816406
z: -0.009307723492383957
","x: 167.9686279296875
y: 386.5660400390625
z: -0.010097778402268887
","x: 164.3879852294922
y: 369.62640380859375
z: -0.007287237793207169
","x: 165.3816680908203
y: 377.2896728515625
z: -0.009955422952771187
","x: 165.8526611328125
y: 382.7447509765625
z: -0.011248642578721046
","x: 166.26466369628906
y: 386.85308837890625
z: -0.012206623330712318
","x: 162.4287109375
y: 369.55767822265625
z: -0.008724590763449669
","x: 162.280517578125
y: 374.4208984375
z: -0.010807647369801998
","x: 161.93490600585938
y: 377.68463134765625
z: -0.011683117598295212
","x: 161.58583068847656
y: 380.09576416015625
z: -0.012344089336693287
","x: 210.58340454101562
y: 345.32763671875
z: 0.0
","x: 208.1425323486328
y: 346.0104064941406
z: -0.0009231496951542795
","x: 205.40234375
y: 348.087890625
z: -0.0019738224800676107
","x: 203.4578094482422
y: 350.5433654785156
z: -0.0030456932727247477
","x: 201.99032592773438
y: 352.27740478515625
z: -0.004227454774081707
","x: 204.953369140625
y: 348.5484313964844
z: -0.003983677364885807
","x: 202.30015563964844
y: 351.08544921875
z: -0.006218430586159229
","x: 200.86155700683594
y: 352.8505859375
z: -0.00712085934355855
","x: 199.96348571777344
y: 354.4888916015625
z: -0.00768368411809206
","x: 206.2858123779297
y: 350.0341491699219
z: -0.00488327769562602
","x: 204.7061767578125
y: 353.4373779296875
z: -0.007111454848200083
","x: 204.1304168701172
y: 355.9149475097656
z: -0.007333328481763601
","x: 204.04600524902344
y: 358.0646057128906
z: -0.007524715270847082
","x: 208.0635986328125
y: 350.9931945800781
z: -0.005792106036096811
","x: 207.6991424560547
y: 354.9270935058594
z: -0.008206862024962902
","x: 207.67591857910156
y: 357.4791259765625
z: -0.00821539293974638
","x: 207.75445556640625
y: 359.9295654296875
z: -0.008111325092613697
","x: 210.09962463378906
y: 351.7457580566406
z: -0.00680945161730051
","x: 210.6320037841797
y: 355.3931884765625
z: -0.009209806099534035
","x: 211.17184448242188
y: 357.8226013183594
z: -0.009558776393532753
","x: 211.5819091796875
y: 360.3150634765625
z: -0.009497100487351418
"
12,"x: 190.76271057128906
y: 275.78790283203125
z: -0.20431926846504211
visibility: 0.999828577041626
","x: 192.3914031982422
y: 269.9449462890625
z: -0.193247988820076
visibility: 0.9995144009590149
","x: 193.59429931640625
y: 269.9862976074219
z: -0.19327709078788757
visibility: 0.9995209574699402
","x: 194.7789764404297
y: 270.1254577636719
z: -0.19329248368740082
visibility: 0.9995005130767822
","x: 188.4364471435547
y: 270.1417236328125
z: -0.19062483310699463
visibility: 0.9994562864303589
","x: 187.21136474609375
y: 270.332763671875
z: -0.19065052270889282
visibility: 0.9994035363197327
","x: 186.0915985107422
y: 270.6004638671875
z: -0.19068482518196106
visibility: 0.9993702173233032
","x: 196.2989959716797
y: 273.1146240234375
z: -0.11348593235015869
visibility: 0.9991073608398438
","x: 184.7852020263672
y: 274.006591796875
z: -0.10255391895771027
visibility: 0.9986401796340942
","x: 193.5771942138672
y: 282.4129943847656
z: -0.17389899492263794
visibility: 0.9998303055763245
","x: 188.3854522705078
y: 282.8299560546875
z: -0.17085468769073486
visibility: 0.9997838139533997
","x: 207.25967407226562
y: 312.6785888671875
z: -0.06387577950954437
visibility: 0.9998732805252075
","x: 173.31268310546875
y: 308.1521301269531
z: -0.05538246035575867
visibility: 0.9998608231544495
","x: 215.0100860595703
y: 355.5719299316406
z: -0.1358414739370346
visibility: 0.9695552587509155
","x: 159.42669677734375
y: 341.30316162109375
z: -0.10925538837909698
visibility: 0.9044092297554016
","x: 210.07333374023438
y: 351.2331848144531
z: -0.3240407109260559
visibility: 0.9117621779441833
","x: 163.88259887695312
y: 351.16400146484375
z: -0.2640048861503601
visibility: 0.8559544086456299
","x: 207.68540954589844
y: 354.90216064453125
z: -0.36535170674324036
visibility: 0.8579100370407104
","x: 164.70648193359375
y: 359.1766662597656
z: -0.3008155822753906
visibility: 0.7954220771789551
","x: 205.69793701171875
y: 347.7347412109375
z: -0.37109437584877014
visibility: 0.8612717986106873
","x: 168.37762451171875
y: 356.3229675292969
z: -0.3086875081062317
visibility: 0.7972728610038757
","x: 206.15670776367188
y: 346.12164306640625
z: -0.33015429973602295
visibility: 0.8331090807914734
","x: 169.28872680664062
y: 354.2408447265625
z: -0.2710726857185364
visibility: 0.7734222412109375
","x: 198.53201293945312
y: 402.9665832519531
z: 0.007126183714717627
visibility: 0.9996503591537476
","x: 177.68643188476562
y: 401.8332214355469
z: -0.007195511367172003
visibility: 0.9998202323913574
","x: 200.75784301757812
y: 460.77801513671875
z: 0.036981914192438126
visibility: 0.9803191423416138
","x: 174.65342712402344
y: 460.3197021484375
z: 0.012694977223873138
visibility: 0.9893920421600342
","x: 205.64813232421875
y: 518.628662109375
z: 0.1949605643749237
visibility: 0.9740814566612244
","x: 168.0197296142578
y: 512.5208129882812
z: 0.18480488657951355
visibility: 0.9880582690238953
","x: 203.03343200683594
y: 529.177490234375
z: 0.2059132605791092
visibility: 0.8640628457069397
","x: 169.67425537109375
y: 518.06591796875
z: 0.19789031147956848
visibility: 0.8826727867126465
","x: 213.01414489746094
y: 537.6497802734375
z: 0.10557552427053452
visibility: 0.9707661271095276
","x: 164.14605712890625
y: 536.0768432617188
z: 0.10638312995433807
visibility: 0.9839133024215698
","x: 162.5901641845703
y: 355.94842529296875
z: 0.0
","x: 165.0257110595703
y: 357.82275390625
z: -0.0008511256892234087
","x: 166.97918701171875
y: 361.57904052734375
z: -0.002263088710606098
","x: 167.45535278320312
y: 365.7447814941406
z: -0.003850402310490608
","x: 167.32115173339844
y: 368.9311218261719
z: -0.00548854423686862
","x: 167.67259216308594
y: 365.81951904296875
z: -0.004534042906016111
","x: 170.36891174316406
y: 370.4527282714844
z: -0.007308304309844971
","x: 171.64585876464844
y: 373.828857421875
z: -0.008618932217359543
","x: 172.58343505859375
y: 376.4227294921875
z: -0.009370772168040276
","x: 166.15182495117188
y: 368.5130615234375
z: -0.005894677247852087
","x: 167.57254028320312
y: 376.7832946777344
z: -0.008419547230005264
","x: 167.8057403564453
y: 382.3805236816406
z: -0.009307723492383957
","x: 167.9686279296875
y: 386.5660400390625
z: -0.010097778402268887
","x: 164.3879852294922
y: 369.62640380859375
z: -0.007287237793207169
","x: 165.3816680908203
y: 377.2896728515625
z: -0.009955422952771187
","x: 165.8526611328125
y: 382.7447509765625
z: -0.011248642578721046
","x: 166.26466369628906
y: 386.85308837890625
z: -0.012206623330712318
","x: 162.4287109375
y: 369.55767822265625
z: -0.008724590763449669
","x: 162.280517578125
y: 374.4208984375
z: -0.010807647369801998
","x: 161.93490600585938
y: 377.68463134765625
z: -0.011683117598295212
","x: 161.58583068847656
y: 380.09576416015625
z: -0.012344089336693287
","x: 210.58340454101562
y: 345.32763671875
z: 0.0
","x: 208.1425323486328
y: 346.0104064941406
z: -0.0009231496951542795
","x: 205.40234375
y: 348.087890625
z: -0.0019738224800676107
","x: 203.4578094482422
y: 350.5433654785156
z: -0.0030456932727247477
","x: 201.99032592773438
y: 352.27740478515625
z: -0.004227454774081707
","x: 204.953369140625
y: 348.5484313964844
z: -0.003983677364885807
","x: 202.30015563964844
y: 351.08544921875
z: -0.006218430586159229
","x: 200.86155700683594
y: 352.8505859375
z: -0.00712085934355855
","x: 199.96348571777344
y: 354.4888916015625
z: -0.00768368411809206
","x: 206.2858123779297
y: 350.0341491699219
z: -0.00488327769562602
","x: 204.7061767578125
y: 353.4373779296875
z: -0.007111454848200083
","x: 204.1304168701172
y: 355.9149475097656
z: -0.007333328481763601
","x: 204.04600524902344
y: 358.0646057128906
z: -0.007524715270847082
","x: 208.0635986328125
y: 350.9931945800781
z: -0.005792106036096811
","x: 207.6991424560547
y: 354.9270935058594
z: -0.008206862024962902
","x: 207.67591857910156
y: 357.4791259765625
z: -0.00821539293974638
","x: 207.75445556640625
y: 359.9295654296875
z: -0.008111325092613697
","x: 210.09962463378906
y: 351.7457580566406
z: -0.00680945161730051
","x: 210.6320037841797
y: 355.3931884765625
z: -0.009209806099534035
","x: 211.17184448242188
y: 357.8226013183594
z: -0.009558776393532753
","x: 211.5819091796875
y: 360.3150634765625
z: -0.009497100487351418
"
13,"x: 190.76271057128906
y: 275.78790283203125
z: -0.20431926846504211
visibility: 0.999828577041626
","x: 192.3914031982422
y: 269.9449462890625
z: -0.193247988820076
visibility: 0.9995144009590149
","x: 193.59429931640625
y: 269.9862976074219
z: -0.19327709078788757
visibility: 0.9995209574699402
","x: 194.7789764404297
y: 270.1254577636719
z: -0.19329248368740082
visibility: 0.9995005130767822
","x: 188.4364471435547
y: 270.1417236328125
z: -0.19062483310699463
visibility: 0.9994562864303589
","x: 187.21136474609375
y: 270.332763671875
z: -0.19065052270889282
visibility: 0.9994035363197327
","x: 186.0915985107422
y: 270.6004638671875
z: -0.19068482518196106
visibility: 0.9993702173233032
","x: 196.2989959716797
y: 273.1146240234375
z: -0.11348593235015869
visibility: 0.9991073608398438
","x: 184.7852020263672
y: 274.006591796875
z: -0.10255391895771027
visibility: 0.9986401796340942
","x: 193.5771942138672
y: 282.4129943847656
z: -0.17389899492263794
visibility: 0.9998303055763245
","x: 188.3854522705078
y: 282.8299560546875
z: -0.17085468769073486
visibility: 0.9997838139533997
","x: 207.25967407226562
y: 312.6785888671875
z: -0.06387577950954437
visibility: 0.9998732805252075
","x: 173.31268310546875
y: 308.1521301269531
z: -0.05538246035575867
visibility: 0.9998608231544495
","x: 215.0100860595703
y: 355.5719299316406
z: -0.1358414739370346
visibility: 0.9695552587509155
","x: 159.42669677734375
y: 341.30316162109375
z: -0.10925538837909698
visibility: 0.9044092297554016
","x: 210.07333374023438
y: 351.2331848144531
z: -0.3240407109260559
visibility: 0.9117621779441833
","x: 163.88259887695312
y: 351.16400146484375
z: -0.2640048861503601
visibility: 0.8559544086456299
","x: 207.68540954589844
y: 354.90216064453125
z: -0.36535170674324036
visibility: 0.8579100370407104
","x: 164.70648193359375
y: 359.1766662597656
z: -0.3008155822753906
visibility: 0.7954220771789551
","x: 205.69793701171875
y: 347.7347412109375
z: -0.37109437584877014
visibility: 0.8612717986106873
","x: 168.37762451171875
y: 356.3229675292969
z: -0.3086875081062317
visibility: 0.7972728610038757
","x: 206.15670776367188
y: 346.12164306640625
z: -0.33015429973602295
visibility: 0.8331090807914734
","x: 169.28872680664062
y: 354.2408447265625
z: -0.2710726857185364
visibility: 0.7734222412109375
","x: 198.53201293945312
y: 402.9665832519531
z: 0.007126183714717627
visibility: 0.9996503591537476
","x: 177.68643188476562
y: 401.8332214355469
z: -0.007195511367172003
visibility: 0.9998202323913574
","x: 200.75784301757812
y: 460.77801513671875
z: 0.036981914192438126
visibility: 0.9803191423416138
","x: 174.65342712402344
y: 460.3197021484375
z: 0.012694977223873138
visibility: 0.9893920421600342
","x: 205.64813232421875
y: 518.628662109375
z: 0.1949605643749237
visibility: 0.9740814566612244
","x: 168.0197296142578
y: 512.5208129882812
z: 0.18480488657951355
visibility: 0.9880582690238953
","x: 203.03343200683594
y: 529.177490234375
z: 0.2059132605791092
visibility: 0.8640628457069397
","x: 169.67425537109375
y: 518.06591796875
z: 0.19789031147956848
visibility: 0.8826727867126465
","x: 213.01414489746094
y: 537.6497802734375
z: 0.10557552427053452
visibility: 0.9707661271095276
","x: 164.14605712890625
y: 536.0768432617188
z: 0.10638312995433807
visibility: 0.9839133024215698
","x: 162.5901641845703
y: 355.94842529296875
z: 0.0
","x: 165.0257110595703
y: 357.82275390625
z: -0.0008511256892234087
","x: 166.97918701171875
y: 361.57904052734375
z: -0.002263088710606098
","x: 167.45535278320312
y: 365.7447814941406
z: -0.003850402310490608
","x: 167.32115173339844
y: 368.9311218261719
z: -0.00548854423686862
","x: 167.67259216308594
y: 365.81951904296875
z: -0.004534042906016111
","x: 170.36891174316406
y: 370.4527282714844
z: -0.007308304309844971
","x: 171.64585876464844
y: 373.828857421875
z: -0.008618932217359543
","x: 172.58343505859375
y: 376.4227294921875
z: -0.009370772168040276
","x: 166.15182495117188
y: 368.5130615234375
z: -0.005894677247852087
","x: 167.57254028320312
y: 376.7832946777344
z: -0.008419547230005264
","x: 167.8057403564453
y: 382.3805236816406
z: -0.009307723492383957
","x: 167.9686279296875
y: 386.5660400390625
z: -0.010097778402268887
","x: 164.3879852294922
y: 369.62640380859375
z: -0.007287237793207169
","x: 165.3816680908203
y: 377.2896728515625
z: -0.009955422952771187
","x: 165.8526611328125
y: 382.7447509765625
z: -0.011248642578721046
","x: 166.26466369628906
y: 386.85308837890625
z: -0.012206623330712318
","x: 162.4287109375
y: 369.55767822265625
z: -0.008724590763449669
","x: 162.280517578125
y: 374.4208984375
z: -0.010807647369801998
","x: 161.93490600585938
y: 377.68463134765625
z: -0.011683117598295212
","x: 161.58583068847656
y: 380.09576416015625
z: -0.012344089336693287
","x: 210.58340454101562
y: 345.32763671875
z: 0.0
","x: 208.1425323486328
y: 346.0104064941406
z: -0.0009231496951542795
","x: 205.40234375
y: 348.087890625
z: -0.0019738224800676107
","x: 203.4578094482422
y: 350.5433654785156
z: -0.0030456932727247477
","x: 201.99032592773438
y: 352.27740478515625
z: -0.004227454774081707
","x: 204.953369140625
y: 348.5484313964844
z: -0.003983677364885807
","x: 202.30015563964844
y: 351.08544921875
z: -0.006218430586159229
","x: 200.86155700683594
y: 352.8505859375
z: -0.00712085934355855
","x: 199.96348571777344
y: 354.4888916015625
z: -0.00768368411809206
","x: 206.2858123779297
y: 350.0341491699219
z: -0.00488327769562602
","x: 204.7061767578125
y: 353.4373779296875
z: -0.007111454848200083
","x: 204.1304168701172
y: 355.9149475097656
z: -0.007333328481763601
","x: 204.04600524902344
y: 358.0646057128906
z: -0.007524715270847082
","x: 208.0635986328125
y: 350.9931945800781
z: -0.005792106036096811
","x: 207.6991424560547
y: 354.9270935058594
z: -0.008206862024962902
","x: 207.67591857910156
y: 357.4791259765625
z: -0.00821539293974638
","x: 207.75445556640625
y: 359.9295654296875
z: -0.008111325092613697
","x: 210.09962463378906
y: 351.7457580566406
z: -0.00680945161730051
","x: 210.6320037841797
y: 355.3931884765625
z: -0.009209806099534035
","x: 211.17184448242188
y: 357.8226013183594
z: -0.009558776393532753
","x: 211.5819091796875
y: 360.3150634765625
z: -0.009497100487351418
"
14,"x: 186.72561645507812
y: 274.8385314941406
z: -0.17680761218070984
visibility: 0.9998408555984497
","x: 188.35015869140625
y: 268.9773864746094
z: -0.16653576493263245
visibility: 0.999549388885498
","x: 189.6653594970703
y: 268.81243896484375
z: -0.1665729582309723
visibility: 0.999553918838501
","x: 191.00814819335938
y: 268.7463684082031
z: -0.1665721833705902
visibility: 0.9995336532592773
","x: 184.88172912597656
y: 269.7997741699219
z: -0.16184279322624207
visibility: 0.9994959831237793
","x: 183.8847198486328
y: 270.1608581542969
z: -0.1618514060974121
visibility: 0.9994447231292725
","x: 182.9535675048828
y: 270.5581359863281
z: -0.161866694688797
visibility: 0.9994126558303833
","x: 193.56939697265625
y: 271.46649169921875
z: -0.09244322776794434
visibility: 0.9991668462753296
","x: 182.60768127441406
y: 273.9989013671875
z: -0.07164807617664337
visibility: 0.9987407922744751
","x: 190.0897979736328
y: 281.116943359375
z: -0.14894230663776398
visibility: 0.9998421669006348
","x: 185.09454345703125
y: 282.1326904296875
z: -0.14299477636814117
visibility: 0.9997996091842651
","x: 206.2037353515625
y: 311.0918884277344
z: -0.05381584167480469
visibility: 0.9998819828033447
","x: 173.05662536621094
y: 308.6459045410156
z: -0.023967817425727844
visibility: 0.9998701214790344
","x: 213.2063751220703
y: 350.73956298828125
z: -0.12287608534097672
visibility: 0.9715091586112976
","x: 159.37319946289062
y: 338.954833984375
z: -0.07745147496461868
visibility: 0.9106701612472534
","x: 209.72337341308594
y: 349.2257385253906
z: -0.2907261848449707
visibility: 0.919810950756073
","x: 161.78956604003906
y: 352.71240234375
z: -0.2413744181394577
visibility: 0.8666731119155884
","x: 208.92514038085938
y: 357.34478759765625
z: -0.32881033420562744
visibility: 0.8705062866210938
","x: 162.4413604736328
y: 362.8564758300781
z: -0.27748316526412964
visibility: 0.8093938231468201
","x: 205.59719848632812
y: 353.064453125
z: -0.33849889039993286
visibility: 0.8736149668693542
","x: 165.0624237060547
y: 359.09259033203125
z: -0.28780633211135864
visibility: 0.8110926747322083
","x: 205.56544494628906
y: 350.06793212890625
z: -0.29747116565704346
visibility: 0.8473436236381531
","x: 165.16262817382812
y: 355.0205993652344
z: -0.24984927475452423
visibility: 0.7884058952331543
","x: 197.6774139404297
y: 403.0517578125
z: 0.0035816163290292025
visibility: 0.9996679425239563
","x: 177.02272033691406
y: 401.84918212890625
z: -0.0036429583560675383
visibility: 0.9998282194137573
","x: 200.23345947265625
y: 460.06451416015625
z: 0.03674487769603729
visibility: 0.9813380241394043
","x: 173.88914489746094
y: 459.0554504394531
z: 0.012401489540934563
visibility: 0.9899531602859497
","x: 205.6201629638672
y: 518.4977416992188
z: 0.17505115270614624
visibility: 0.9754961729049683
","x: 168.17721557617188
y: 512.6433715820312
z: 0.1610642969608307
visibility: 0.9886094927787781
","x: 203.0
y: 528.9171752929688
z: 0.1836218684911728
visibility: 0.869006872177124
","x: 170.04286193847656
y: 518.32373046875
z: 0.17068980634212494
visibility: 0.8864525556564331
","x: 212.9443359375
y: 537.6370849609375
z: 0.09184937179088593
visibility: 0.9719938635826111
","x: 164.09852600097656
y: 535.9503784179688
z: 0.07959777116775513
visibility: 0.9844223260879517
",,,,,,,,,,,,,,,,,,,,,,"x: 208.3319549560547
y: 345.7435302734375
z: 0.0
","x: 205.62127685546875
y: 350.1546630859375
z: -0.00010563284013187513
","x: 204.0389404296875
y: 356.44647216796875
z: -0.0015053078532218933
","x: 203.4199981689453
y: 361.66986083984375
z: -0.0030556886922568083
","x: 202.91770935058594
y: 365.7550354003906
z: -0.0045817093923687935
","x: 205.44375610351562
y: 356.8851318359375
z: -0.005206052679568529
","x: 205.20001220703125
y: 363.5119323730469
z: -0.00790458358824253
","x: 205.41807556152344
y: 366.79412841796875
z: -0.008270972408354282
","x: 205.61170959472656
y: 368.6070556640625
z: -0.008165428414940834
","x: 207.68260192871094
y: 356.2414855957031
z: -0.006591483950614929
","x: 208.44329833984375
y: 363.8447570800781
z: -0.009341979399323463
","x: 208.88145446777344
y: 367.3506164550781
z: -0.008861762471497059
","x: 209.11312866210938
y: 369.08087158203125
z: -0.008307517506182194
","x: 210.10133361816406
y: 355.4505920410156
z: -0.0077522811479866505
","x: 211.6627655029297
y: 362.8714294433594
z: -0.010316634550690651
","x: 212.3302459716797
y: 366.0029602050781
z: -0.009272344410419464
","x: 212.49163818359375
y: 367.6075439453125
z: -0.008311026729643345
","x: 212.38449096679688
y: 354.3902587890625
z: -0.008883816190063953
","x: 214.1896514892578
y: 360.3304748535156
z: -0.010927966795861721
","x: 214.82916259765625
y: 363.1962585449219
z: -0.010473877191543579
","x: 214.9662628173828
y: 364.9180603027344
z: -0.0098074646666646
"
15,"x: 186.72561645507812
y: 274.8385314941406
z: -0.17680761218070984
visibility: 0.9998408555984497
","x: 188.35015869140625
y: 268.9773864746094
z: -0.16653576493263245
visibility: 0.999549388885498
","x: 189.6653594970703
y: 268.81243896484375
z: -0.1665729582309723
visibility: 0.999553918838501
","x: 191.00814819335938
y: 268.7463684082031
z: -0.1665721833705902
visibility: 0.9995336532592773
","x: 184.88172912597656
y: 269.7997741699219
z: -0.16184279322624207
visibility: 0.9994959831237793
","x: 183.8847198486328
y: 270.1608581542969
z: -0.1618514060974121
visibility: 0.9994447231292725
","x: 182.9535675048828
y: 270.5581359863281
z: -0.161866694688797
visibility: 0.9994126558303833
","x: 193.56939697265625
y: 271.46649169921875
z: -0.09244322776794434
visibility: 0.9991668462753296
","x: 182.60768127441406
y: 273.9989013671875
z: -0.07164807617664337
visibility: 0.9987407922744751
","x: 190.0897979736328
y: 281.116943359375
z: -0.14894230663776398
visibility: 0.9998421669006348
","x: 185.09454345703125
y: 282.1326904296875
z: -0.14299477636814117
visibility: 0.9997996091842651
","x: 206.2037353515625
y: 311.0918884277344
z: -0.05381584167480469
visibility: 0.9998819828033447
","x: 173.05662536621094
y: 308.6459045410156
z: -0.023967817425727844
visibility: 0.9998701214790344
","x: 213.2063751220703
y: 350.73956298828125
z: -0.12287608534097672
visibility: 0.9715091586112976
","x: 159.37319946289062
y: 338.954833984375
z: -0.07745147496461868
visibility: 0.9106701612472534
","x: 209.72337341308594
y: 349.2257385253906
z: -0.2907261848449707
visibility: 0.919810950756073
","x: 161.78956604003906
y: 352.71240234375
z: -0.2413744181394577
visibility: 0.8666731119155884
","x: 208.92514038085938
y: 357.34478759765625
z: -0.32881033420562744
visibility: 0.8705062866210938
","x: 162.4413604736328
y: 362.8564758300781
z: -0.27748316526412964
visibility: 0.8093938231468201
","x: 205.59719848632812
y: 353.064453125
z: -0.33849889039993286
visibility: 0.8736149668693542
","x: 165.0624237060547
y: 359.09259033203125
z: -0.28780633211135864
visibility: 0.8110926747322083
","x: 205.56544494628906
y: 350.06793212890625
z: -0.29747116565704346
visibility: 0.8473436236381531
","x: 165.16262817382812
y: 355.0205993652344
z: -0.24984927475452423
visibility: 0.7884058952331543
","x: 197.6774139404297
y: 403.0517578125
z: 0.0035816163290292025
visibility: 0.9996679425239563
","x: 177.02272033691406
y: 401.84918212890625
z: -0.0036429583560675383
visibility: 0.9998282194137573
","x: 200.23345947265625
y: 460.06451416015625
z: 0.03674487769603729
visibility: 0.9813380241394043
","x: 173.88914489746094
y: 459.0554504394531
z: 0.012401489540934563
visibility: 0.9899531602859497
","x: 205.6201629638672
y: 518.4977416992188
z: 0.17505115270614624
visibility: 0.9754961729049683
","x: 168.17721557617188
y: 512.6433715820312
z: 0.1610642969608307
visibility: 0.9886094927787781
","x: 203.0
y: 528.9171752929688
z: 0.1836218684911728
visibility: 0.869006872177124
","x: 170.04286193847656
y: 518.32373046875
z: 0.17068980634212494
visibility: 0.8864525556564331
","x: 212.9443359375
y: 537.6370849609375
z: 0.09184937179088593
visibility: 0.9719938635826111
","x: 164.09852600097656
y: 535.9503784179688
z: 0.07959777116775513
visibility: 0.9844223260879517
",,,,,,,,,,,,,,,,,,,,,,"x: 208.3319549560547
y: 345.7435302734375
z: 0.0
","x: 205.62127685546875
y: 350.1546630859375
z: -0.00010563284013187513
","x: 204.0389404296875
y: 356.44647216796875
z: -0.0015053078532218933
","x: 203.4199981689453
y: 361.66986083984375
z: -0.0030556886922568083
","x: 202.91770935058594
y: 365.7550354003906
z: -0.0045817093923687935
","x: 205.44375610351562
y: 356.8851318359375
z: -0.005206052679568529
","x: 205.20001220703125
y: 363.5119323730469
z: -0.00790458358824253
","x: 205.41807556152344
y: 366.79412841796875
z: -0.008270972408354282
","x: 205.61170959472656
y: 368.6070556640625
z: -0.008165428414940834
","x: 207.68260192871094
y: 356.2414855957031
z: -0.006591483950614929
","x: 208.44329833984375
y: 363.8447570800781
z: -0.009341979399323463
","x: 208.88145446777344
y: 367.3506164550781
z: -0.008861762471497059
","x: 209.11312866210938
y: 369.08087158203125
z: -0.008307517506182194
","x: 210.10133361816406
y: 355.4505920410156
z: -0.0077522811479866505
","x: 211.6627655029297
y: 362.8714294433594
z: -0.010316634550690651
","x: 212.3302459716797
y: 366.0029602050781
z: -0.009272344410419464
","x: 212.49163818359375
y: 367.6075439453125
z: -0.008311026729643345
","x: 212.38449096679688
y: 354.3902587890625
z: -0.008883816190063953
","x: 214.1896514892578
y: 360.3304748535156
z: -0.010927966795861721
","x: 214.82916259765625
y: 363.1962585449219
z: -0.010473877191543579
","x: 214.9662628173828
y: 364.9180603027344
z: -0.0098074646666646
"
16,"x: 185.55247497558594
y: 275.0387268066406
z: -0.172142893075943
visibility: 0.9998441934585571
","x: 186.9962158203125
y: 269.020751953125
z: -0.15988671779632568
visibility: 0.9995672106742859
","x: 188.31861877441406
y: 268.9226379394531
z: -0.15990908443927765
visibility: 0.9995676875114441
","x: 189.65115356445312
y: 268.9288635253906
z: -0.15991714596748352
visibility: 0.9995460510253906
","x: 183.57997131347656
y: 270.0704650878906
z: -0.15638664364814758
visibility: 0.9995162487030029
","x: 182.62677001953125
y: 270.5390625
z: -0.15640023350715637
visibility: 0.999464750289917
","x: 181.67459106445312
y: 271.07977294921875
z: -0.1564076989889145
visibility: 0.9994333982467651
","x: 192.3858642578125
y: 271.7630310058594
z: -0.07984834164381027
visibility: 0.9992104768753052
","x: 181.2374267578125
y: 274.7454833984375
z: -0.06378550827503204
visibility: 0.9988152980804443
","x: 189.1331024169922
y: 281.3487548828125
z: -0.14203743636608124
visibility: 0.9998494386672974
","x: 184.1621856689453
y: 282.2754821777344
z: -0.13750424981117249
visibility: 0.999809741973877
","x: 205.92300415039062
y: 311.11480712890625
z: -0.03858647495508194
visibility: 0.9998891949653625
","x: 171.83956909179688
y: 308.895751953125
z: -0.02450454607605934
visibility: 0.9998757243156433
","x: 213.27064514160156
y: 351.7796325683594
z: -0.10622153431177139
visibility: 0.9730728268623352
","x: 155.6324920654297
y: 335.7426452636719
z: -0.08127585798501968
visibility: 0.9184842109680176
","x: 209.28997802734375
y: 352.0362854003906
z: -0.26453882455825806
visibility: 0.9263163208961487
","x: 163.26585388183594
y: 343.33685302734375
z: -0.2537934184074402
visibility: 0.8778394460678101
","x: 208.41476440429688
y: 357.62274169921875
z: -0.30348360538482666
visibility: 0.8800221085548401
","x: 163.5729522705078
y: 352.6327819824219
z: -0.28979000449180603
visibility: 0.8235155344009399
","x: 205.229736328125
y: 353.3151550292969
z: -0.30702149868011475
visibility: 0.882849931716919
","x: 165.9415740966797
y: 350.9768981933594
z: -0.3026415705680847
visibility: 0.8247740864753723
","x: 205.26097106933594
y: 351.3898010253906
z: -0.26947492361068726
visibility: 0.8574815392494202
","x: 166.2047119140625
y: 347.88983154296875
z: -0.25778114795684814
visibility: 0.8027034997940063
","x: 197.69796752929688
y: 402.57696533203125
z: 0.002949165180325508
visibility: 0.9996888041496277
","x: 176.2057342529297
y: 401.5294189453125
z: -0.0030184469651430845
visibility: 0.9998323917388916
","x: 200.27833557128906
y: 458.1518859863281
z: -0.0535285584628582
visibility: 0.9826479554176331
","x: 172.61131286621094
y: 459.1712646484375
z: -0.008439045399427414
visibility: 0.9904131293296814
","x: 205.6584930419922
y: 518.4590454101562
z: 0.09288719296455383
visibility: 0.976944625377655
","x: 168.12448120117188
y: 512.7892456054688
z: 0.14476564526557922
visibility: 0.9890280365943909
","x: 202.9905242919922
y: 528.7329711914062
z: 0.10242565721273422
visibility: 0.8748666644096375
","x: 170.05905151367188
y: 518.55224609375
z: 0.15494182705879211
visibility: 0.8889468908309937
","x: 212.74942016601562
y: 537.5816650390625
z: 0.005120272748172283
visibility: 0.973280668258667
","x: 163.6398468017578
y: 535.9815063476562
z: 0.060250092297792435
visibility: 0.9846832752227783
","x: 167.2120819091797
y: 343.23870849609375
z: 0.0
","x: 164.1919708251953
y: 345.5290222167969
z: -0.0002952032955363393
","x: 161.545166015625
y: 349.658447265625
z: -0.0013551730662584305
","x: 159.9549102783203
y: 353.72515869140625
z: -0.0024547886569052935
","x: 159.21142578125
y: 356.858642578125
z: -0.0036046013701707125
","x: 163.10350036621094
y: 349.7774963378906
z: -0.00449001882225275
","x: 161.1461639404297
y: 353.549072265625
z: -0.006438609212636948
","x: 160.06468200683594
y: 356.66668701171875
z: -0.006879463326185942
","x: 159.25137329101562
y: 359.1334533691406
z: -0.007041805423796177
","x: 165.40414428710938
y: 351.4451599121094
z: -0.00553384842351079
","x: 164.26268005371094
y: 357.4559326171875
z: -0.007522548083215952
","x: 163.39291381835938
y: 361.386962890625
z: -0.007592826150357723
","x: 162.68865966796875
y: 363.8822937011719
z: -0.007702857255935669
","x: 167.776123046875
y: 352.54443359375
z: -0.006326510105282068
","x: 167.28707885742188
y: 358.7931823730469
z: -0.008181865327060223
","x: 166.5239715576172
y: 362.7315979003906
z: -0.008152298629283905
","x: 165.82936096191406
y: 365.6810302734375
z: -0.008207343518733978
","x: 170.00735473632812
y: 353.19976806640625
z: -0.007105157244950533
","x: 170.90777587890625
y: 358.3678894042969
z: -0.008768641389906406
","x: 171.40359497070312
y: 361.86761474609375
z: -0.0091488566249609
","x: 171.5330810546875
y: 364.9942626953125
z: -0.009424620307981968
",,,,,,,,,,,,,,,,,,,,,
17,"x: 185.55247497558594
y: 275.0387268066406
z: -0.172142893075943
visibility: 0.9998441934585571
","x: 186.9962158203125
y: 269.020751953125
z: -0.15988671779632568
visibility: 0.9995672106742859
","x: 188.31861877441406
y: 268.9226379394531
z: -0.15990908443927765
visibility: 0.9995676875114441
","x: 189.65115356445312
y: 268.9288635253906
z: -0.15991714596748352
visibility: 0.9995460510253906
","x: 183.57997131347656
y: 270.0704650878906
z: -0.15638664364814758
visibility: 0.9995162487030029
","x: 182.62677001953125
y: 270.5390625
z: -0.15640023350715637
visibility: 0.999464750289917
","x: 181.67459106445312
y: 271.07977294921875
z: -0.1564076989889145
visibility: 0.9994333982467651
","x: 192.3858642578125
y: 271.7630310058594
z: -0.07984834164381027
visibility: 0.9992104768753052
","x: 181.2374267578125
y: 274.7454833984375
z: -0.06378550827503204
visibility: 0.9988152980804443
","x: 189.1331024169922
y: 281.3487548828125
z: -0.14203743636608124
visibility: 0.9998494386672974
","x: 184.1621856689453
y: 282.2754821777344
z: -0.13750424981117249
visibility: 0.999809741973877
","x: 205.92300415039062
y: 311.11480712890625
z: -0.03858647495508194
visibility: 0.9998891949653625
","x: 171.83956909179688
y: 308.895751953125
z: -0.02450454607605934
visibility: 0.9998757243156433
","x: 213.27064514160156
y: 351.7796325683594
z: -0.10622153431177139
visibility: 0.9730728268623352
","x: 155.6324920654297
y: 335.7426452636719
z: -0.08127585798501968
visibility: 0.9184842109680176
","x: 209.28997802734375
y: 352.0362854003906
z: -0.26453882455825806
visibility: 0.9263163208961487
","x: 163.26585388183594
y: 343.33685302734375
z: -0.2537934184074402
visibility: 0.8778394460678101
","x: 208.41476440429688
y: 357.62274169921875
z: -0.30348360538482666
visibility: 0.8800221085548401
","x: 163.5729522705078
y: 352.6327819824219
z: -0.28979000449180603
visibility: 0.8235155344009399
","x: 205.229736328125
y: 353.3151550292969
z: -0.30702149868011475
visibility: 0.882849931716919
","x: 165.9415740966797
y: 350.9768981933594
z: -0.3026415705680847
visibility: 0.8247740864753723
","x: 205.26097106933594
y: 351.3898010253906
z: -0.26947492361068726
visibility: 0.8574815392494202
","x: 166.2047119140625
y: 347.88983154296875
z: -0.25778114795684814
visibility: 0.8027034997940063
","x: 197.69796752929688
y: 402.57696533203125
z: 0.002949165180325508
visibility: 0.9996888041496277
","x: 176.2057342529297
y: 401.5294189453125
z: -0.0030184469651430845
visibility: 0.9998323917388916
","x: 200.27833557128906
y: 458.1518859863281
z: -0.0535285584628582
visibility: 0.9826479554176331
","x: 172.61131286621094
y: 459.1712646484375
z: -0.008439045399427414
visibility: 0.9904131293296814
","x: 205.6584930419922
y: 518.4590454101562
z: 0.09288719296455383
visibility: 0.976944625377655
","x: 168.12448120117188
y: 512.7892456054688
z: 0.14476564526557922
visibility: 0.9890280365943909
","x: 202.9905242919922
y: 528.7329711914062
z: 0.10242565721273422
visibility: 0.8748666644096375
","x: 170.05905151367188
y: 518.55224609375
z: 0.15494182705879211
visibility: 0.8889468908309937
","x: 212.74942016601562
y: 537.5816650390625
z: 0.005120272748172283
visibility: 0.973280668258667
","x: 163.6398468017578
y: 535.9815063476562
z: 0.060250092297792435
visibility: 0.9846832752227783
","x: 167.2120819091797
y: 343.23870849609375
z: 0.0
","x: 164.1919708251953
y: 345.5290222167969
z: -0.0002952032955363393
","x: 161.545166015625
y: 349.658447265625
z: -0.0013551730662584305
","x: 159.9549102783203
y: 353.72515869140625
z: -0.0024547886569052935
","x: 159.21142578125
y: 356.858642578125
z: -0.0036046013701707125
","x: 163.10350036621094
y: 349.7774963378906
z: -0.00449001882225275
","x: 161.1461639404297
y: 353.549072265625
z: -0.006438609212636948
","x: 160.06468200683594
y: 356.66668701171875
z: -0.006879463326185942
","x: 159.25137329101562
y: 359.1334533691406
z: -0.007041805423796177
","x: 165.40414428710938
y: 351.4451599121094
z: -0.00553384842351079
","x: 164.26268005371094
y: 357.4559326171875
z: -0.007522548083215952
","x: 163.39291381835938
y: 361.386962890625
z: -0.007592826150357723
","x: 162.68865966796875
y: 363.8822937011719
z: -0.007702857255935669
","x: 167.776123046875
y: 352.54443359375
z: -0.006326510105282068
","x: 167.28707885742188
y: 358.7931823730469
z: -0.008181865327060223
","x: 166.5239715576172
y: 362.7315979003906
z: -0.008152298629283905
","x: 165.82936096191406
y: 365.6810302734375
z: -0.008207343518733978
","x: 170.00735473632812
y: 353.19976806640625
z: -0.007105157244950533
","x: 170.90777587890625
y: 358.3678894042969
z: -0.008768641389906406
","x: 171.40359497070312
y: 361.86761474609375
z: -0.0091488566249609
","x: 171.5330810546875
y: 364.9942626953125
z: -0.009424620307981968
",,,,,,,,,,,,,,,,,,,,,
18,"x: 183.6989288330078
y: 278.8067626953125
z: -0.2198103964328766
visibility: 0.9998430013656616
","x: 185.04818725585938
y: 272.9805603027344
z: -0.20524665713310242
visibility: 0.9995625615119934
","x: 186.33091735839844
y: 272.6103515625
z: -0.20519034564495087
visibility: 0.9995548725128174
","x: 187.65643310546875
y: 272.30340576171875
z: -0.20522376894950867
visibility: 0.9995322227478027
","x: 181.9302520751953
y: 274.3975524902344
z: -0.2016204297542572
visibility: 0.9995203018188477
","x: 181.03150939941406
y: 274.97552490234375
z: -0.20168113708496094
visibility: 0.9994710683822632
","x: 180.13978576660156
y: 275.6380920410156
z: -0.20170803368091583
visibility: 0.9994475841522217
","x: 190.86807250976562
y: 274.81109619140625
z: -0.11948961019515991
visibility: 0.9992114901542664
","x: 179.66134643554688
y: 279.1263732910156
z: -0.10347706079483032
visibility: 0.9988958239555359
","x: 187.27481079101562
y: 284.35797119140625
z: -0.18832749128341675
visibility: 0.9998553395271301
","x: 182.6806182861328
y: 285.2738037109375
z: -0.1836882084608078
visibility: 0.9998222589492798
","x: 204.7899627685547
y: 315.3555603027344
z: -0.07648894935846329
visibility: 0.9998931884765625
","x: 170.0182342529297
y: 308.9409484863281
z: -0.07731962203979492
visibility: 0.9998856782913208
","x: 213.3086700439453
y: 352.6346130371094
z: -0.17815174162387848
visibility: 0.9752839803695679
","x: 148.69046020507812
y: 329.23150634765625
z: -0.18171857297420502
visibility: 0.9264175295829773
","x: 208.74623107910156
y: 351.7106628417969
z: -0.3272022604942322
visibility: 0.9323592185974121
","x: 163.47723388671875
y: 342.95294189453125
z: -0.32598748803138733
visibility: 0.8887119293212891
","x: 206.1730194091797
y: 357.10888671875
z: -0.36258190870285034
visibility: 0.8881296515464783
","x: 163.99571228027344
y: 353.1391906738281
z: -0.35995548963546753
visibility: 0.8367995023727417
","x: 202.46849060058594
y: 352.22369384765625
z: -0.3560164272785187
visibility: 0.8904868960380554
","x: 166.71481323242188
y: 351.5078125
z: -0.3532941937446594
visibility: 0.837455153465271
","x: 202.79795837402344
y: 350.3747863769531
z: -0.3273369073867798
visibility: 0.865095317363739
","x: 166.7870635986328
y: 348.1286926269531
z: -0.3260253965854645
visibility: 0.815707266330719
","x: 197.05545043945312
y: 402.7320556640625
z: 0.004930619616061449
visibility: 0.9996986389160156
","x: 174.81517028808594
y: 401.6000671386719
z: -0.005024871788918972
visibility: 0.9998326897621155
","x: 202.83558654785156
y: 457.59344482421875
z: -0.18136106431484222
visibility: 0.9835227727890015
","x: 170.1425018310547
y: 457.73663330078125
z: -0.1842208206653595
visibility: 0.9906315803527832
","x: 205.6562042236328
y: 517.8992309570312
z: -0.02288377285003662
visibility: 0.9778322577476501
","x: 168.2289276123047
y: 512.892822265625
z: -0.02746403217315674
visibility: 0.9890972971916199
","x: 202.720458984375
y: 528.340087890625
z: -0.012451792135834694
visibility: 0.8782964944839478
","x: 170.28646850585938
y: 518.6884765625
z: -0.017246970906853676
visibility: 0.8881588578224182
","x: 213.05580139160156
y: 537.5713500976562
z: -0.11725078523159027
visibility: 0.973431408405304
","x: 164.1255645751953
y: 536.462646484375
z: -0.12697695195674896
visibility: 0.9845018982887268
",,,,,,,,,,,,,,,,,,,,,,,,,,,,,,,,,,,,,,,,,,
19,"x: 181.9424591064453
y: 282.15380859375
z: -0.23950783908367157
visibility: 0.999843955039978
","x: 183.14474487304688
y: 276.93145751953125
z: -0.22439420223236084
visibility: 0.9995635747909546
","x: 184.44674682617188
y: 276.7415771484375
z: -0.2243470400571823
visibility: 0.9995512366294861
","x: 185.70040893554688
y: 276.58428955078125
z: -0.22436992824077606
visibility: 0.999532163143158
","x: 179.89280700683594
y: 278.162353515625
z: -0.2215060293674469
visibility: 0.9995263814926147
","x: 178.8283233642578
y: 278.8672180175781
z: -0.22156736254692078
visibility: 0.9994792342185974
","x: 177.71231079101562
y: 279.65338134765625
z: -0.22159352898597717
visibility: 0.999462902545929
","x: 188.65963745117188
y: 279.93310546875
z: -0.13723520934581757
visibility: 0.9992238879203796
","x: 176.9302978515625
y: 283.3987731933594
z: -0.12528589367866516
visibility: 0.9989640116691589
","x: 185.6890411376953
y: 287.6229248046875
z: -0.2077917605638504
visibility: 0.9998617768287659
","x: 180.76953125
y: 288.8143615722656
z: -0.20435938239097595
visibility: 0.999833881855011
","x: 201.8919677734375
y: 320.4939270019531
z: -0.09642776846885681
visibility: 0.9998998045921326
","x: 166.75357055664062
y: 309.081787109375
z: -0.09775884449481964
visibility: 0.9998934864997864
","x: 213.5028839111328
y: 353.1048583984375
z: -0.18676872551441193
visibility: 0.9774851202964783
","x: 144.07666015625
y: 326.5738220214844
z: -0.20732071995735168
visibility: 0.9335662126541138
","x: 204.51739501953125
y: 354.787841796875
z: -0.32020512223243713
visibility: 0.9384312629699707
","x: 163.6585693359375
y: 345.8364562988281
z: -0.3475857377052307
visibility: 0.8984788656234741
","x: 200.7839813232422
y: 365.64593505859375
z: -0.35460275411605835
visibility: 0.8971205353736877
","x: 164.35488891601562
y: 355.6790466308594
z: -0.3835499882698059
visibility: 0.8488142490386963
","x: 197.3369140625
y: 362.086181640625
z: -0.3496457040309906
visibility: 0.8990676999092102
","x: 168.32431030273438
y: 353.78094482421875
z: -0.37464600801467896
visibility: 0.8488088250160217
","x: 197.53146362304688
y: 359.6172790527344
z: -0.32004326581954956
visibility: 0.8744317293167114
","x: 167.9032745361328
y: 350.5549621582031
z: -0.34712114930152893
visibility: 0.8271689414978027
","x: 193.77987670898438
y: 402.84075927734375
z: 0.00746977049857378
visibility: 0.9997095465660095
","x: 171.64561462402344
y: 401.5731201171875
z: -0.007586482912302017
visibility: 0.9998340606689453
","x: 203.470458984375
y: 457.6823425292969
z: -0.1697690188884735
visibility: 0.9843109250068665
","x: 168.06333923339844
y: 456.7090148925781
z: -0.20097002387046814
visibility: 0.9908207654953003
","x: 205.69805908203125
y: 517.0985717773438
z: -0.006533383391797543
visibility: 0.9785740375518799
","x: 168.26637268066406
y: 512.9608764648438
z: -0.03278350085020065
visibility: 0.989216148853302
","x: 202.54803466796875
y: 526.748291015625
z: 0.004249894060194492
visibility: 0.8788673877716064
","x: 170.466796875
y: 518.5780639648438
z: -0.021180937066674232
visibility: 0.8866803646087646
","x: 212.9619140625
y: 537.5318603515625
z: -0.09880118817090988
visibility: 0.9731663465499878
","x: 164.14930725097656
y: 536.5303955078125
z: -0.12993314862251282
visibility: 0.9844298958778381
",,,,,,,,,,,,,,,,,,,,,,"x: 200.32106018066406
y: 366.0406799316406
z: 0.0
","x: 198.05316162109375
y: 363.90673828125
z: -0.002271870616823435
","x: 195.94723510742188
y: 362.28753662109375
z: -0.0043058134615421295
","x: 194.7220458984375
y: 359.9360656738281
z: -0.006544071715325117
","x: 194.10763549804688
y: 357.9413146972656
z: -0.008987115696072578
","x: 193.37979125976562
y: 370.6387023925781
z: -0.004854243248701096
","x: 190.4834747314453
y: 373.44354248046875
z: -0.0077785830944776535
","x: 189.50538635253906
y: 375.2119445800781
z: -0.009410444647073746
","x: 188.70217895507812
y: 377.1014709472656
z: -0.010425925254821777
","x: 194.84161376953125
y: 374.321044921875
z: -0.0058521670289337635
","x: 192.41481018066406
y: 379.1940002441406
z: -0.008406514301896095
","x: 191.54881286621094
y: 382.43316650390625
z: -0.009503594599664211
","x: 190.92898559570312
y: 385.8681640625
z: -0.010461113415658474
","x: 196.6782684326172
y: 376.5498352050781
z: -0.007064072880893946
","x: 195.33506774902344
y: 382.1332092285156
z: -0.010063482448458672
","x: 194.86183166503906
y: 386.14947509765625
z: -0.011505946516990662
","x: 194.4510040283203
y: 389.97332763671875
z: -0.012443402782082558
","x: 198.6599884033203
y: 377.5025634765625
z: -0.008505335077643394
","x: 198.89305114746094
y: 382.72705078125
z: -0.011367354542016983
","x: 199.26083374023438
y: 386.6102600097656
z: -0.012578517198562622
","x: 199.48257446289062
y: 390.1169128417969
z: -0.013311539776623249
"
20,"x: 181.9424591064453
y: 282.15380859375
z: -0.23950783908367157
visibility: 0.999843955039978
","x: 183.14474487304688
y: 276.93145751953125
z: -0.22439420223236084
visibility: 0.9995635747909546
","x: 184.44674682617188
y: 276.7415771484375
z: -0.2243470400571823
visibility: 0.9995512366294861
","x: 185.70040893554688
y: 276.58428955078125
z: -0.22436992824077606
visibility: 0.999532163143158
","x: 179.89280700683594
y: 278.162353515625
z: -0.2215060293674469
visibility: 0.9995263814926147
","x: 178.8283233642578
y: 278.8672180175781
z: -0.22156736254692078
visibility: 0.9994792342185974
","x: 177.71231079101562
y: 279.65338134765625
z: -0.22159352898597717
visibility: 0.999462902545929
","x: 188.65963745117188
y: 279.93310546875
z: -0.13723520934581757
visibility: 0.9992238879203796
","x: 176.9302978515625
y: 283.3987731933594
z: -0.12528589367866516
visibility: 0.9989640116691589
","x: 185.6890411376953
y: 287.6229248046875
z: -0.2077917605638504
visibility: 0.9998617768287659
","x: 180.76953125
y: 288.8143615722656
z: -0.20435938239097595
visibility: 0.999833881855011
","x: 201.8919677734375
y: 320.4939270019531
z: -0.09642776846885681
visibility: 0.9998998045921326
","x: 166.75357055664062
y: 309.081787109375
z: -0.09775884449481964
visibility: 0.9998934864997864
","x: 213.5028839111328
y: 353.1048583984375
z: -0.18676872551441193
visibility: 0.9774851202964783
","x: 144.07666015625
y: 326.5738220214844
z: -0.20732071995735168
visibility: 0.9335662126541138
","x: 204.51739501953125
y: 354.787841796875
z: -0.32020512223243713
visibility: 0.9384312629699707
","x: 163.6585693359375
y: 345.8364562988281
z: -0.3475857377052307
visibility: 0.8984788656234741
","x: 200.7839813232422
y: 365.64593505859375
z: -0.35460275411605835
visibility: 0.8971205353736877
","x: 164.35488891601562
y: 355.6790466308594
z: -0.3835499882698059
visibility: 0.8488142490386963
","x: 197.3369140625
y: 362.086181640625
z: -0.3496457040309906
visibility: 0.8990676999092102
","x: 168.32431030273438
y: 353.78094482421875
z: -0.37464600801467896
visibility: 0.8488088250160217
","x: 197.53146362304688
y: 359.6172790527344
z: -0.32004326581954956
visibility: 0.8744317293167114
","x: 167.9032745361328
y: 350.5549621582031
z: -0.34712114930152893
visibility: 0.8271689414978027
","x: 193.77987670898438
y: 402.84075927734375
z: 0.00746977049857378
visibility: 0.9997095465660095
","x: 171.64561462402344
y: 401.5731201171875
z: -0.007586482912302017
visibility: 0.9998340606689453
","x: 203.470458984375
y: 457.6823425292969
z: -0.1697690188884735
visibility: 0.9843109250068665
","x: 168.06333923339844
y: 456.7090148925781
z: -0.20097002387046814
visibility: 0.9908207654953003
","x: 205.69805908203125
y: 517.0985717773438
z: -0.006533383391797543
visibility: 0.9785740375518799
","x: 168.26637268066406
y: 512.9608764648438
z: -0.03278350085020065
visibility: 0.989216148853302
","x: 202.54803466796875
y: 526.748291015625
z: 0.004249894060194492
visibility: 0.8788673877716064
","x: 170.466796875
y: 518.5780639648438
z: -0.021180937066674232
visibility: 0.8866803646087646
","x: 212.9619140625
y: 537.5318603515625
z: -0.09880118817090988
visibility: 0.9731663465499878
","x: 164.14930725097656
y: 536.5303955078125
z: -0.12993314862251282
visibility: 0.9844298958778381
",,,,,,,,,,,,,,,,,,,,,,"x: 200.32106018066406
y: 366.0406799316406
z: 0.0
","x: 198.05316162109375
y: 363.90673828125
z: -0.002271870616823435
","x: 195.94723510742188
y: 362.28753662109375
z: -0.0043058134615421295
","x: 194.7220458984375
y: 359.9360656738281
z: -0.006544071715325117
","x: 194.10763549804688
y: 357.9413146972656
z: -0.008987115696072578
","x: 193.37979125976562
y: 370.6387023925781
z: -0.004854243248701096
","x: 190.4834747314453
y: 373.44354248046875
z: -0.0077785830944776535
","x: 189.50538635253906
y: 375.2119445800781
z: -0.009410444647073746
","x: 188.70217895507812
y: 377.1014709472656
z: -0.010425925254821777
","x: 194.84161376953125
y: 374.321044921875
z: -0.0058521670289337635
","x: 192.41481018066406
y: 379.1940002441406
z: -0.008406514301896095
","x: 191.54881286621094
y: 382.43316650390625
z: -0.009503594599664211
","x: 190.92898559570312
y: 385.8681640625
z: -0.010461113415658474
","x: 196.6782684326172
y: 376.5498352050781
z: -0.007064072880893946
","x: 195.33506774902344
y: 382.1332092285156
z: -0.010063482448458672
","x: 194.86183166503906
y: 386.14947509765625
z: -0.011505946516990662
","x: 194.4510040283203
y: 389.97332763671875
z: -0.012443402782082558
","x: 198.6599884033203
y: 377.5025634765625
z: -0.008505335077643394
","x: 198.89305114746094
y: 382.72705078125
z: -0.011367354542016983
","x: 199.26083374023438
y: 386.6102600097656
z: -0.012578517198562622
","x: 199.48257446289062
y: 390.1169128417969
z: -0.013311539776623249
"
21,"x: 179.0347900390625
y: 283.8851318359375
z: -0.21387167274951935
visibility: 0.9998561143875122
","x: 180.14126586914062
y: 278.3919677734375
z: -0.19884371757507324
visibility: 0.9996004700660706
","x: 181.2970428466797
y: 278.1638488769531
z: -0.19883108139038086
visibility: 0.9995890259742737
","x: 182.545654296875
y: 277.99261474609375
z: -0.1988597959280014
visibility: 0.9995715022087097
","x: 176.99732971191406
y: 279.6517333984375
z: -0.1965271383523941
visibility: 0.9995646476745605
","x: 175.9695587158203
y: 280.2928771972656
z: -0.19656729698181152
visibility: 0.9995214343070984
","x: 174.86366271972656
y: 280.98101806640625
z: -0.1965911090373993
visibility: 0.9995067119598389
","x: 185.4683837890625
y: 281.73736572265625
z: -0.10922626405954361
visibility: 0.9992917776107788
","x: 174.32061767578125
y: 284.5879211425781
z: -0.09930618852376938
visibility: 0.9990590810775757
","x: 182.48455810546875
y: 289.3992004394531
z: -0.18025720119476318
visibility: 0.9998737573623657
","x: 177.95632934570312
y: 290.8126525878906
z: -0.17777439951896667
visibility: 0.9998489022254944
","x: 199.04461669921875
y: 323.8857727050781
z: -0.051984429359436035
visibility: 0.9999067187309265
","x: 164.3643341064453
y: 309.14013671875
z: -0.08681003749370575
visibility: 0.9999027848243713
","x: 207.44027709960938
y: 365.2147216796875
z: -0.10268592834472656
visibility: 0.9784761667251587
","x: 148.70947265625
y: 329.34649658203125
z: -0.16607482731342316
visibility: 0.9397607445716858
","x: 197.68814086914062
y: 380.5491943359375
z: -0.22979378700256348
visibility: 0.9421432614326477
","x: 167.93161010742188
y: 361.358642578125
z: -0.3106918931007385
visibility: 0.9071384072303772
","x: 194.8637237548828
y: 391.5124816894531
z: -0.2622029185295105
visibility: 0.9017919301986694
","x: 170.3912811279297
y: 375.2886657714844
z: -0.3472176790237427
visibility: 0.8601142168045044
","x: 191.26223754882812
y: 384.9889831542969
z: -0.27002614736557007
visibility: 0.9033218622207642
","x: 174.819580078125
y: 373.0441589355469
z: -0.3331221640110016
visibility: 0.8596212267875671
","x: 191.49636840820312
y: 381.2620849609375
z: -0.23476946353912354
visibility: 0.8780651092529297
","x: 174.92318725585938
y: 368.73724365234375
z: -0.304965078830719
visibility: 0.8377399444580078
","x: 188.42861938476562
y: 402.9278564453125
z: 0.010934842750430107
visibility: 0.9997329711914062
","x: 167.1070556640625
y: 401.6244201660156
z: -0.010969392023980618
visibility: 0.9998462796211243
","x: 204.66712951660156
y: 447.1771240234375
z: -0.19752056896686554
visibility: 0.9852404594421387
","x: 164.133544921875
y: 453.3536376953125
z: -0.2170562446117401
visibility: 0.9914489388465881
","x: 205.14157104492188
y: 516.2485961914062
z: -0.08285924047231674
visibility: 0.9798656702041626
","x: 167.27554321289062
y: 513.0231323242188
z: -0.08751146495342255
visibility: 0.9897934198379517
","x: 200.4371337890625
y: 526.7542114257812
z: -0.07699091732501984
visibility: 0.88651043176651
","x: 170.01077270507812
y: 519.26611328125
z: -0.07958783209323883
visibility: 0.8904277682304382
","x: 214.83706665039062
y: 537.2764282226562
z: -0.18287914991378784
visibility: 0.9743441939353943
","x: 164.0424041748047
y: 536.553955078125
z: -0.18893593549728394
visibility: 0.9851058721542358
","x: 167.78826904296875
y: 362.60540771484375
z: 0.0
","x: 172.18161010742188
y: 364.4860534667969
z: -0.0011495447251945734
","x: 176.56382751464844
y: 368.84918212890625
z: -0.002447504550218582
","x: 180.42808532714844
y: 370.85528564453125
z: -0.00409687077626586
","x: 183.56117248535156
y: 369.72918701171875
z: -0.005525446031242609
","x: 174.1378631591797
y: 380.17987060546875
z: -0.0005204577464610338
","x: 174.81138610839844
y: 388.8585205078125
z: -0.002124495804309845
","x: 174.80404663085938
y: 394.2213439941406
z: -0.0030827801674604416
","x: 174.6945343017578
y: 398.7603454589844
z: -0.0036998093128204346
","x: 171.67144775390625
y: 381.7630615234375
z: -0.0016534205060452223
","x: 171.76437377929688
y: 391.025146484375
z: -0.0028706479351967573
","x: 171.74514770507812
y: 396.81378173828125
z: -0.0033082414884120226
","x: 171.55108642578125
y: 401.8182678222656
z: -0.003955123480409384
","x: 169.2147216796875
y: 381.77716064453125
z: -0.0031249388121068478
","x: 168.7512664794922
y: 389.7805480957031
z: -0.004676192998886108
","x: 168.5056915283203
y: 395.1321105957031
z: -0.005156272556632757
","x: 168.12490844726562
y: 399.4078063964844
z: -0.005597121547907591
","x: 166.9897918701172
y: 380.679443359375
z: -0.004876946564763784
","x: 166.09524536132812
y: 386.37139892578125
z: -0.006336284801363945
","x: 165.38636779785156
y: 389.5130920410156
z: -0.006645462941378355
","x: 164.66400146484375
y: 391.9282531738281
z: -0.006794673856347799
",,,,,,,,,,,,,,,,,,,,,
22,"x: 179.0347900390625
y: 283.8851318359375
z: -0.21387167274951935
visibility: 0.9998561143875122
","x: 180.14126586914062
y: 278.3919677734375
z: -0.19884371757507324
visibility: 0.9996004700660706
","x: 181.2970428466797
y: 278.1638488769531
z: -0.19883108139038086
visibility: 0.9995890259742737
","x: 182.545654296875
y: 277.99261474609375
z: -0.1988597959280014
visibility: 0.9995715022087097
","x: 176.99732971191406
y: 279.6517333984375
z: -0.1965271383523941
visibility: 0.9995646476745605
","x: 175.9695587158203
y: 280.2928771972656
z: -0.19656729698181152
visibility: 0.9995214343070984
","x: 174.86366271972656
y: 280.98101806640625
z: -0.1965911090373993
visibility: 0.9995067119598389
","x: 185.4683837890625
y: 281.73736572265625
z: -0.10922626405954361
visibility: 0.9992917776107788
","x: 174.32061767578125
y: 284.5879211425781
z: -0.09930618852376938
visibility: 0.9990590810775757
","x: 182.48455810546875
y: 289.3992004394531
z: -0.18025720119476318
visibility: 0.9998737573623657
","x: 177.95632934570312
y: 290.8126525878906
z: -0.17777439951896667
visibility: 0.9998489022254944
","x: 199.04461669921875
y: 323.8857727050781
z: -0.051984429359436035
visibility: 0.9999067187309265
","x: 164.3643341064453
y: 309.14013671875
z: -0.08681003749370575
visibility: 0.9999027848243713
","x: 207.44027709960938
y: 365.2147216796875
z: -0.10268592834472656
visibility: 0.9784761667251587
","x: 148.70947265625
y: 329.34649658203125
z: -0.16607482731342316
visibility: 0.9397607445716858
","x: 197.68814086914062
y: 380.5491943359375
z: -0.22979378700256348
visibility: 0.9421432614326477
","x: 167.93161010742188
y: 361.358642578125
z: -0.3106918931007385
visibility: 0.9071384072303772
","x: 194.8637237548828
y: 391.5124816894531
z: -0.2622029185295105
visibility: 0.9017919301986694
","x: 170.3912811279297
y: 375.2886657714844
z: -0.3472176790237427
visibility: 0.8601142168045044
","x: 191.26223754882812
y: 384.9889831542969
z: -0.27002614736557007
visibility: 0.9033218622207642
","x: 174.819580078125
y: 373.0441589355469
z: -0.3331221640110016
visibility: 0.8596212267875671
","x: 191.49636840820312
y: 381.2620849609375
z: -0.23476946353912354
visibility: 0.8780651092529297
","x: 174.92318725585938
y: 368.73724365234375
z: -0.304965078830719
visibility: 0.8377399444580078
","x: 188.42861938476562
y: 402.9278564453125
z: 0.010934842750430107
visibility: 0.9997329711914062
","x: 167.1070556640625
y: 401.6244201660156
z: -0.010969392023980618
visibility: 0.9998462796211243
","x: 204.66712951660156
y: 447.1771240234375
z: -0.19752056896686554
visibility: 0.9852404594421387
","x: 164.133544921875
y: 453.3536376953125
z: -0.2170562446117401
visibility: 0.9914489388465881
","x: 205.14157104492188
y: 516.2485961914062
z: -0.08285924047231674
visibility: 0.9798656702041626
","x: 167.27554321289062
y: 513.0231323242188
z: -0.08751146495342255
visibility: 0.9897934198379517
","x: 200.4371337890625
y: 526.7542114257812
z: -0.07699091732501984
visibility: 0.88651043176651
","x: 170.01077270507812
y: 519.26611328125
z: -0.07958783209323883
visibility: 0.8904277682304382
","x: 214.83706665039062
y: 537.2764282226562
z: -0.18287914991378784
visibility: 0.9743441939353943
","x: 164.0424041748047
y: 536.553955078125
z: -0.18893593549728394
visibility: 0.9851058721542358
","x: 167.78826904296875
y: 362.60540771484375
z: 0.0
","x: 172.18161010742188
y: 364.4860534667969
z: -0.0011495447251945734
","x: 176.56382751464844
y: 368.84918212890625
z: -0.002447504550218582
","x: 180.42808532714844
y: 370.85528564453125
z: -0.00409687077626586
","x: 183.56117248535156
y: 369.72918701171875
z: -0.005525446031242609
","x: 174.1378631591797
y: 380.17987060546875
z: -0.0005204577464610338
","x: 174.81138610839844
y: 388.8585205078125
z: -0.002124495804309845
","x: 174.80404663085938
y: 394.2213439941406
z: -0.0030827801674604416
","x: 174.6945343017578
y: 398.7603454589844
z: -0.0036998093128204346
","x: 171.67144775390625
y: 381.7630615234375
z: -0.0016534205060452223
","x: 171.76437377929688
y: 391.025146484375
z: -0.0028706479351967573
","x: 171.74514770507812
y: 396.81378173828125
z: -0.0033082414884120226
","x: 171.55108642578125
y: 401.8182678222656
z: -0.003955123480409384
","x: 169.2147216796875
y: 381.77716064453125
z: -0.0031249388121068478
","x: 168.7512664794922
y: 389.7805480957031
z: -0.004676192998886108
","x: 168.5056915283203
y: 395.1321105957031
z: -0.005156272556632757
","x: 168.12490844726562
y: 399.4078063964844
z: -0.005597121547907591
","x: 166.9897918701172
y: 380.679443359375
z: -0.004876946564763784
","x: 166.09524536132812
y: 386.37139892578125
z: -0.006336284801363945
","x: 165.38636779785156
y: 389.5130920410156
z: -0.006645462941378355
","x: 164.66400146484375
y: 391.9282531738281
z: -0.006794673856347799
",,,,,,,,,,,,,,,,,,,,,
23,"x: 178.7552490234375
y: 284.5517272949219
z: -0.20391425490379333
visibility: 0.9998682141304016
","x: 179.46554565429688
y: 278.72784423828125
z: -0.18861979246139526
visibility: 0.9996355175971985
","x: 180.56326293945312
y: 278.3417053222656
z: -0.18864791095256805
visibility: 0.9996251463890076
","x: 181.6884307861328
y: 278.0227355957031
z: -0.18867941200733185
visibility: 0.999609112739563
","x: 176.38226318359375
y: 280.4664001464844
z: -0.18876078724861145
visibility: 0.9996016025543213
","x: 175.2425537109375
y: 281.29595947265625
z: -0.1887858808040619
visibility: 0.9995619654655457
","x: 173.9867401123047
y: 282.18927001953125
z: -0.188812255859375
visibility: 0.9995485544204712
","x: 184.2729034423828
y: 281.23016357421875
z: -0.10098995268344879
visibility: 0.9993537664413452
","x: 172.80062866210938
y: 285.7309875488281
z: -0.09993685781955719
visibility: 0.9991452693939209
","x: 182.06541442871094
y: 289.79052734375
z: -0.17097897827625275
visibility: 0.9998841881752014
","x: 177.4894256591797
y: 291.90045166015625
z: -0.17113414406776428
visibility: 0.999862015247345
","x: 197.10726928710938
y: 323.7646789550781
z: -0.04305866360664368
visibility: 0.9999113082885742
","x: 165.09901428222656
y: 310.25445556640625
z: -0.08934170752763748
visibility: 0.9999109506607056
","x: 196.86630249023438
y: 369.02874755859375
z: -0.07754327356815338
visibility: 0.9727540612220764
","x: 158.48281860351562
y: 352.9471435546875
z: -0.15807196497917175
visibility: 0.9443708062171936
","x: 190.34295654296875
y: 397.53564453125
z: -0.19423824548721313
visibility: 0.9365032315254211
","x: 175.3164825439453
y: 391.18939208984375
z: -0.26446422934532166
visibility: 0.912673830986023
","x: 189.23031616210938
y: 410.6360168457031
z: -0.22509606182575226
visibility: 0.8943403959274292
","x: 176.44915771484375
y: 404.3472595214844
z: -0.29930803179740906
visibility: 0.8665037751197815
","x: 186.1702423095703
y: 407.4769592285156
z: -0.2418251931667328
