uscmakers/ReverseChoreography/data/6_levitating_dua_lipa.csv
,NOSE,LEFT_EYE_INNER,LEFT_EYE,LEFT_EYE_OUTER,RIGHT_EYE_INNER,RIGHT_EYE,RIGHT_EYE_OUTER,LEFT_EAR,RIGHT_EAR,MOUTH_LEFT,MOUTH_RIGHT,LEFT_SHOULDER,RIGHT_SHOULDER,LEFT_ELBOW,RIGHT_ELBOW,LEFT_WRIST,RIGHT_WRIST,LEFT_PINKY,RIGHT_PINKY,LEFT_INDEX,RIGHT_INDEX,LEFT_THUMB,RIGHT_THUMB,LEFT_HIP,RIGHT_HIP,LEFT_KNEE,RIGHT_KNEE,LEFT_ANKLE,RIGHT_ANKLE,LEFT_HEEL,RIGHT_HEEL,LEFT_FOOT_INDEX,RIGHT_FOOT_INDEX,WRIST,THUMB_CPC,THUMB_MCP,THUMB_IP,THUMB_TIP,INDEX_FINGER_MCP,INDEX_FINGER_PIP,INDEX_FINGER_DIP,INDEX_FINGER_TIP,MIDDLE_FINGER_MCP,MIDDLE_FINGER_PIP,MIDDLE_FINGER_DIP,MIDDLE_FINGER_TIP,RING_FINGER_PIP,RING_FINGER_DIP,RING_FINGER_TIP,RING_FINGER_MCP,PINKY_MCP,PINKY_PIP,PINKY_DIP,PINKY_TIP,WRIST2,THUMB_CPC2,THUMB_MCP2,THUMB_IP2,THUMB_TIP2,INDEX_FINGER_MCP2,INDEX_FINGER_PIP2,INDEX_FINGER_DIP2,INDEX_FINGER_TIP2,MIDDLE_FINGER_MCP2,MIDDLE_FINGER_PIP2,MIDDLE_FINGER_DIP2,MIDDLE_FINGER_TIP2,RING_FINGER_PIP2,RING_FINGER_DIP2,RING_FINGER_TIP2,RING_FINGER_MCP2,PINKY_MCP2,PINKY_PIP2,PINKY_DIP2,PINKY_TIP2
0,"x: 177.76307678222656
y: 277.3804931640625
z: -0.2944745421409607
visibility: 0.9999829530715942
","x: 179.71188354492188
y: 271.2918701171875
z: -0.2780765891075134
visibility: 0.999966025352478
","x: 180.97862243652344
y: 271.4392395019531
z: -0.27811434864997864
visibility: 0.9999715089797974
","x: 182.27725219726562
y: 271.7031555175781
z: -0.2781570255756378
visibility: 0.9999611377716064
","x: 175.8732147216797
y: 271.3211364746094
z: -0.27461081743240356
visibility: 0.99992835521698
","x: 174.53683471679688
y: 271.5474853515625
z: -0.274667888879776
visibility: 0.999929666519165
","x: 173.2721405029297
y: 271.8408203125
z: -0.27468302845954895
visibility: 0.9998990297317505
","x: 185.0232391357422
y: 276.15460205078125
z: -0.1786704808473587
visibility: 0.9999593496322632
","x: 171.47909545898438
y: 276.6425476074219
z: -0.1625051200389862
visibility: 0.999817430973053
","x: 180.86865234375
y: 285.54058837890625
z: -0.2579408884048462
visibility: 0.9999910593032837
","x: 175.78631591796875
y: 285.36932373046875
z: -0.2534104585647583
visibility: 0.999977707862854
","x: 198.60789489746094
y: 321.6667175292969
z: -0.11748786270618439
visibility: 0.9999852180480957
","x: 159.60906982421875
y: 320.14410400390625
z: -0.08790341019630432
visibility: 0.9998613595962524
","x: 205.25279235839844
y: 376.04180908203125
z: -0.218859001994133
visibility: 0.9867534041404724
","x: 152.29257202148438
y: 373.32861328125
z: -0.1804836094379425
visibility: 0.9882412552833557
","x: 209.36668395996094
y: 357.16180419921875
z: -0.43111568689346313
visibility: 0.9939864873886108
","x: 141.27256774902344
y: 354.5170593261719
z: -0.4003988206386566
visibility: 0.9920988082885742
","x: 212.42161560058594
y: 349.0067138671875
z: -0.47246870398521423
visibility: 0.9866945743560791
","x: 137.71170043945312
y: 351.49298095703125
z: -0.4389556050300598
visibility: 0.982721745967865
","x: 212.02374267578125
y: 341.3528747558594
z: -0.4749782085418701
visibility: 0.9869713187217712
","x: 138.09841918945312
y: 346.3644104003906
z: -0.4442064166069031
visibility: 0.9826188087463379
","x: 210.57334899902344
y: 343.09381103515625
z: -0.43656739592552185
visibility: 0.9775443077087402
","x: 139.84938049316406
y: 345.95330810546875
z: -0.4083857536315918
visibility: 0.9742686748504639
","x: 190.00543212890625
y: 412.7960205078125
z: -0.007378189824521542
visibility: 0.9999376535415649
","x: 167.43984985351562
y: 412.8506774902344
z: 0.007349750492721796
visibility: 0.9998076558113098
","x: 189.7109375
y: 464.1720275878906
z: -0.22115282714366913
visibility: 0.9967936873435974
","x: 167.3706512451172
y: 469.28173828125
z: -0.05738697201013565
visibility: 0.9876192808151245
","x: 190.04595947265625
y: 520.2818603515625
z: 0.0037007175851613283
visibility: 0.9934825301170349
","x: 171.2915496826172
y: 521.5541381835938
z: 0.18435919284820557
visibility: 0.9847031235694885
","x: 188.82273864746094
y: 526.638671875
z: 0.020327521488070488
visibility: 0.9265972375869751
","x: 174.17605590820312
y: 528.7239379882812
z: 0.2027277648448944
visibility: 0.8852190375328064
","x: 190.63169860839844
y: 545.0597534179688
z: -0.10154865682125092
visibility: 0.9906519651412964
","x: 168.0484619140625
y: 545.108154296875
z: 0.09041077643632889
visibility: 0.9837127923965454
",,,,,,,,,,,,,,,,,,,,,,,,,,,,,,,,,,,,,,,,,,
1,"x: 184.3884735107422
y: 253.416015625
z: -0.23824676871299744
visibility: 0.999967634677887
","x: 186.62083435058594
y: 248.9566192626953
z: -0.2235153168439865
visibility: 0.9999398589134216
","x: 188.03457641601562
y: 249.43341064453125
z: -0.22359395027160645
visibility: 0.9999493956565857
","x: 189.40823364257812
y: 249.9523162841797
z: -0.22364482283592224
visibility: 0.9999399185180664
","x: 182.77577209472656
y: 248.4141845703125
z: -0.22117456793785095
visibility: 0.999861478805542
","x: 181.5734100341797
y: 248.593505859375
z: -0.22117438912391663
visibility: 0.9998433589935303
","x: 180.4008026123047
y: 248.80950927734375
z: -0.22118377685546875
visibility: 0.999786913394928
","x: 191.29345703125
y: 254.26596069335938
z: -0.12489078938961029
visibility: 0.9999336004257202
","x: 179.21688842773438
y: 252.33770751953125
z: -0.11599858105182648
visibility: 0.9995595216751099
","x: 186.72793579101562
y: 261.7959899902344
z: -0.20094215869903564
visibility: 0.999980628490448
","x: 182.27862548828125
y: 260.56494140625
z: -0.1985563486814499
visibility: 0.9999573230743408
","x: 201.71914672851562
y: 294.63739013671875
z: -0.080263651907444
visibility: 0.9999843239784241
","x: 165.93609619140625
y: 289.5009765625
z: -0.03820619359612465
visibility: 0.9997706413269043
","x: 205.1689910888672
y: 339.6093444824219
z: -0.12684325873851776
visibility: 0.9850092530250549
","x: 152.3214111328125
y: 318.7799377441406
z: -0.08967054635286331
visibility: 0.9678285121917725
","x: 207.40097045898438
y: 359.0475158691406
z: -0.28884077072143555
visibility: 0.9925655722618103
","x: 142.52191162109375
y: 330.9342041015625
z: -0.292712539434433
visibility: 0.9698179364204407
","x: 210.21609497070312
y: 364.7436828613281
z: -0.3293352723121643
visibility: 0.9847666621208191
","x: 140.55270385742188
y: 342.4496765136719
z: -0.332797646522522
visibility: 0.9600960612297058
","x: 209.3114013671875
y: 361.0601501464844
z: -0.352863609790802
visibility: 0.9853613972663879
","x: 142.00537109375
y: 340.2254943847656
z: -0.35391101241111755
visibility: 0.9623611569404602
","x: 207.52633666992188
y: 358.9151306152344
z: -0.3016595244407654
visibility: 0.9755057096481323
","x: 142.4906005859375
y: 332.06610107421875
z: -0.30770784616470337
visibility: 0.9531662464141846
","x: 190.22561645507812
y: 384.6582336425781
z: -0.0033459444530308247
visibility: 0.9999099969863892
","x: 169.63900756835938
y: 384.7381591796875
z: 0.0033385041169822216
visibility: 0.9997283220291138
","x: 190.23965454101562
y: 446.6671142578125
z: -0.04774897173047066
visibility: 0.9954630732536316
","x: 173.37429809570312
y: 449.4714660644531
z: -0.033937446773052216
visibility: 0.984987199306488
","x: 191.43165588378906
y: 515.314208984375
z: 0.1010199785232544
visibility: 0.9923737049102783
","x: 178.33889770507812
y: 514.9268188476562
z: 0.13612303137779236
visibility: 0.9826445579528809
","x: 191.1182861328125
y: 523.8009033203125
z: 0.10957925021648407
visibility: 0.9135949611663818
","x: 180.0523681640625
y: 523.0857543945312
z: 0.1461738497018814
visibility: 0.868757426738739
","x: 191.85011291503906
y: 542.3060302734375
z: -0.010339326225221157
visibility: 0.989410400390625
","x: 181.25668334960938
y: 541.271240234375
z: 0.02839667722582817
visibility: 0.9818521738052368
",,,,,,,,,,,,,,,,,,,,,,,,,,,,,,,,,,,,,,,,,,
2,"x: 184.57159423828125
y: 255.73797607421875
z: -0.24252744019031525
visibility: 0.9999675750732422
","x: 186.71861267089844
y: 254.0095672607422
z: -0.22650806605815887
visibility: 0.9999366402626038
","x: 187.90394592285156
y: 255.5064697265625
z: -0.22655069828033447
visibility: 0.9999457597732544
","x: 189.12503051757812
y: 256.9024353027344
z: -0.2265687882900238
visibility: 0.9999349117279053
","x: 183.61013793945312
y: 249.291748046875
z: -0.22755694389343262
visibility: 0.9998605251312256
","x: 182.57220458984375
y: 250.5516815185547
z: -0.22756478190422058
visibility: 0.9998447299003601
","x: 181.50428771972656
y: 252.71725463867188
z: -0.2275862693786621
visibility: 0.9997893571853638
","x: 191.60107421875
y: 261.1534729003906
z: -0.12160515785217285
visibility: 0.9999233484268188
","x: 179.83001708984375
y: 259.42120361328125
z: -0.12763790786266327
visibility: 0.9995809197425842
","x: 186.56211853027344
y: 265.308837890625
z: -0.20253324508666992
visibility: 0.9999802112579346
","x: 182.45970153808594
y: 262.30206298828125
z: -0.20461618900299072
visibility: 0.9999591112136841
","x: 201.4644012451172
y: 303.72119140625
z: -0.0558411069214344
visibility: 0.999984860420227
","x: 165.7401885986328
y: 301.0871276855469
z: -0.05040431767702103
visibility: 0.9997807145118713
","x: 207.52120971679688
y: 350.17987060546875
z: -0.10367371886968613
visibility: 0.9848054051399231
","x: 153.85635375976562
y: 338.2052001953125
z: -0.16738352179527283
visibility: 0.9694535732269287
","x: 216.27076721191406
y: 360.4576110839844
z: -0.2885285019874573
visibility: 0.9928415417671204
","x: 160.82830810546875
y: 332.02777099609375
z: -0.3599245548248291
visibility: 0.9711982011795044
","x: 220.84317016601562
y: 368.4690856933594
z: -0.33108264207839966
visibility: 0.9855126142501831
","x: 161.4467315673828
y: 352.8793640136719
z: -0.4174656271934509
visibility: 0.9614190459251404
","x: 218.22837829589844
y: 365.7360534667969
z: -0.35297638177871704
visibility: 0.9861457943916321
","x: 164.07351684570312
y: 351.1691589355469
z: -0.4274745583534241
visibility: 0.9635196328163147
","x: 215.82925415039062
y: 363.18170166015625
z: -0.30162879824638367
visibility: 0.976904034614563
","x: 164.66397094726562
y: 347.2295837402344
z: -0.3657352924346924
visibility: 0.9539889693260193
","x: 189.00863647460938
y: 395.3193664550781
z: 0.004581602290272713
visibility: 0.9999035596847534
","x: 169.39398193359375
y: 394.3863525390625
z: -0.004577606916427612
visibility: 0.9997186660766602
","x: 185.5463409423828
y: 454.7508544921875
z: -0.021355213597416878
visibility: 0.994766116142273
","x: 169.12066650390625
y: 451.3473205566406
z: -0.03870772197842598
visibility: 0.9847956299781799
","x: 185.21775817871094
y: 515.9825439453125
z: 0.19183632731437683
visibility: 0.9906938672065735
","x: 171.36968994140625
y: 516.0443725585938
z: 0.1508629322052002
visibility: 0.9818124175071716
","x: 184.03480529785156
y: 522.9259643554688
z: 0.20762741565704346
visibility: 0.9010893106460571
","x: 172.1266632080078
y: 523.3255615234375
z: 0.164778932929039
visibility: 0.8549635410308838
","x: 184.40501403808594
y: 542.49072265625
z: 0.0997316762804985
visibility: 0.9878919720649719
","x: 178.75364685058594
y: 541.6735229492188
z: 0.04881954565644264
visibility: 0.9811974167823792
","x: 164.18775939941406
y: 339.2628173828125
z: 0.0
","x: 166.7156524658203
y: 346.52703857421875
z: 0.001202004961669445
","x: 168.31985473632812
y: 353.50750732421875
z: -0.0002893830824177712
","x: 170.03573608398438
y: 357.7801208496094
z: -0.002929413691163063
","x: 172.17355346679688
y: 360.3484802246094
z: -0.005409533157944679
","x: 164.71726989746094
y: 359.156005859375
z: -0.000350519287167117
","x: 163.85032653808594
y: 366.3825988769531
z: -0.004053295124322176
","x: 164.6437225341797
y: 367.2705383300781
z: -0.0062250555492937565
","x: 165.55905151367188
y: 366.0211486816406
z: -0.007522506173700094
","x: 163.05987548828125
y: 357.4969482421875
z: -0.003976145293563604
","x: 162.17189025878906
y: 364.5979309082031
z: -0.008160953409969807
","x: 163.35362243652344
y: 366.11187744140625
z: -0.010058563202619553
","x: 164.44705200195312
y: 365.63372802734375
z: -0.01111588254570961
","x: 161.54637145996094
y: 354.6182556152344
z: -0.007841806858778
","x: 160.43711853027344
y: 360.7339172363281
z: -0.011579562909901142
","x: 161.56980895996094
y: 363.001953125
z: -0.012624767608940601
","x: 162.47784423828125
y: 363.7464599609375
z: -0.013124603778123856
","x: 160.20863342285156
y: 350.38397216796875
z: -0.011813960038125515
","x: 157.5655517578125
y: 352.8706359863281
z: -0.014636761508882046
","x: 155.9202880859375
y: 354.5529479980469
z: -0.015269748866558075
","x: 154.52967834472656
y: 355.67291259765625
z: -0.015555459074676037
","x: 219.4521484375
y: 360.01220703125
z: 0.0
","x: 217.3486328125
y: 362.0431213378906
z: -0.005381136666983366
","x: 216.1657257080078
y: 367.08111572265625
z: -0.008279908448457718
","x: 215.18157958984375
y: 371.474853515625
z: -0.0103773083537817
","x: 213.66343688964844
y: 374.9953918457031
z: -0.012413409538567066
","x: 220.64427185058594
y: 369.7030944824219
z: -0.007190068252384663
","x: 220.95230102539062
y: 374.9267578125
z: -0.010438918136060238
","x: 220.66714477539062
y: 378.8101806640625
z: -0.01233410369604826
","x: 220.38336181640625
y: 381.784423828125
z: -0.013381545431911945
","x: 222.28343200683594
y: 369.8348388671875
z: -0.006044049747288227
","x: 223.13624572753906
y: 375.7498474121094
z: -0.009095302782952785
","x: 223.29432678222656
y: 380.11517333984375
z: -0.010919160209596157
","x: 223.54669189453125
y: 383.6749267578125
z: -0.01215705368667841
","x: 223.26434326171875
y: 369.3267517089844
z: -0.005286373198032379
","x: 224.3258514404297
y: 374.9442138671875
z: -0.008378231897950172
","x: 224.74212646484375
y: 379.1729431152344
z: -0.010454630479216576
","x: 225.2030487060547
y: 382.89739990234375
z: -0.011737652122974396
","x: 223.76950073242188
y: 368.3758850097656
z: -0.0049118781462311745
","x: 224.29458618164062
y: 372.9525451660156
z: -0.007359991315752268
","x: 224.3723907470703
y: 376.1381530761719
z: -0.008815675042569637
","x: 224.3948974609375
y: 378.91595458984375
z: -0.00978360790759325
"
3,"x: 184.57159423828125
y: 255.73797607421875
z: -0.24252744019031525
visibility: 0.9999675750732422
","x: 186.71861267089844
y: 254.0095672607422
z: -0.22650806605815887
visibility: 0.9999366402626038
","x: 187.90394592285156
y: 255.5064697265625
z: -0.22655069828033447
visibility: 0.9999457597732544
","x: 189.12503051757812
y: 256.9024353027344
z: -0.2265687882900238
visibility: 0.9999349117279053
","x: 183.61013793945312
y: 249.291748046875
z: -0.22755694389343262
visibility: 0.9998605251312256
","x: 182.57220458984375
y: 250.5516815185547
z: -0.22756478190422058
visibility: 0.9998447299003601
","x: 181.50428771972656
y: 252.71725463867188
z: -0.2275862693786621
visibility: 0.9997893571853638
","x: 191.60107421875
y: 261.1534729003906
z: -0.12160515785217285
visibility: 0.9999233484268188
","x: 179.83001708984375
y: 259.42120361328125
z: -0.12763790786266327
visibility: 0.9995809197425842
","x: 186.56211853027344
y: 265.308837890625
z: -0.20253324508666992
visibility: 0.9999802112579346
","x: 182.45970153808594
y: 262.30206298828125
z: -0.20461618900299072
visibility: 0.9999591112136841
","x: 201.4644012451172
y: 303.72119140625
z: -0.0558411069214344
visibility: 0.999984860420227
","x: 165.7401885986328
y: 301.0871276855469
z: -0.05040431767702103
visibility: 0.9997807145118713
","x: 207.52120971679688
y: 350.17987060546875
z: -0.10367371886968613
visibility: 0.9848054051399231
","x: 153.85635375976562
y: 338.2052001953125
z: -0.16738352179527283
visibility: 0.9694535732269287
","x: 216.27076721191406
y: 360.4576110839844
z: -0.2885285019874573
visibility: 0.9928415417671204
","x: 160.82830810546875
y: 332.02777099609375
z: -0.3599245548248291
visibility: 0.9711982011795044
","x: 220.84317016601562
y: 368.4690856933594
z: -0.33108264207839966
visibility: 0.9855126142501831
","x: 161.4467315673828
y: 352.8793640136719
z: -0.4174656271934509
visibility: 0.9614190459251404
","x: 218.22837829589844
y: 365.7360534667969
z: -0.35297638177871704
visibility: 0.9861457943916321
","x: 164.07351684570312
y: 351.1691589355469
z: -0.4274745583534241
visibility: 0.9635196328163147
","x: 215.82925415039062
y: 363.18170166015625
z: -0.30162879824638367
visibility: 0.976904034614563
","x: 164.66397094726562
y: 347.2295837402344
z: -0.3657352924346924
visibility: 0.9539889693260193
","x: 189.00863647460938
y: 395.3193664550781
z: 0.004581602290272713
visibility: 0.9999035596847534
","x: 169.39398193359375
y: 394.3863525390625
z: -0.004577606916427612
visibility: 0.9997186660766602
","x: 185.5463409423828
y: 454.7508544921875
z: -0.021355213597416878
visibility: 0.994766116142273
","x: 169.12066650390625
y: 451.3473205566406
z: -0.03870772197842598
visibility: 0.9847956299781799
","x: 185.21775817871094
y: 515.9825439453125
z: 0.19183632731437683
visibility: 0.9906938672065735
","x: 171.36968994140625
y: 516.0443725585938
z: 0.1508629322052002
visibility: 0.9818124175071716
","x: 184.03480529785156
y: 522.9259643554688
z: 0.20762741565704346
visibility: 0.9010893106460571
","x: 172.1266632080078
y: 523.3255615234375
z: 0.164778932929039
visibility: 0.8549635410308838
","x: 184.40501403808594
y: 542.49072265625
z: 0.0997316762804985
visibility: 0.9878919720649719
","x: 178.75364685058594
y: 541.6735229492188
z: 0.04881954565644264
visibility: 0.9811974167823792
","x: 164.18775939941406
y: 339.2628173828125
z: 0.0
","x: 166.7156524658203
y: 346.52703857421875
z: 0.001202004961669445
","x: 168.31985473632812
y: 353.50750732421875
z: -0.0002893830824177712
","x: 170.03573608398438
y: 357.7801208496094
z: -0.002929413691163063
","x: 172.17355346679688
y: 360.3484802246094
z: -0.005409533157944679
","x: 164.71726989746094
y: 359.156005859375
z: -0.000350519287167117
","x: 163.85032653808594
y: 366.3825988769531
z: -0.004053295124322176
","x: 164.6437225341797
y: 367.2705383300781
z: -0.0062250555492937565
","x: 165.55905151367188
y: 366.0211486816406
z: -0.007522506173700094
","x: 163.05987548828125
y: 357.4969482421875
z: -0.003976145293563604
","x: 162.17189025878906
y: 364.5979309082031
z: -0.008160953409969807
","x: 163.35362243652344
y: 366.11187744140625
z: -0.010058563202619553
","x: 164.44705200195312
y: 365.63372802734375
z: -0.01111588254570961
","x: 161.54637145996094
y: 354.6182556152344
z: -0.007841806858778
","x: 160.43711853027344
y: 360.7339172363281
z: -0.011579562909901142
","x: 161.56980895996094
y: 363.001953125
z: -0.012624767608940601
","x: 162.47784423828125
y: 363.7464599609375
z: -0.013124603778123856
","x: 160.20863342285156
y: 350.38397216796875
z: -0.011813960038125515
","x: 157.5655517578125
y: 352.8706359863281
z: -0.014636761508882046
","x: 155.9202880859375
y: 354.5529479980469
z: -0.015269748866558075
","x: 154.52967834472656
y: 355.67291259765625
z: -0.015555459074676037
","x: 219.4521484375
y: 360.01220703125
z: 0.0
","x: 217.3486328125
y: 362.0431213378906
z: -0.005381136666983366
","x: 216.1657257080078
y: 367.08111572265625
z: -0.008279908448457718
","x: 215.18157958984375
y: 371.474853515625
z: -0.0103773083537817
","x: 213.66343688964844
y: 374.9953918457031
z: -0.012413409538567066
","x: 220.64427185058594
y: 369.7030944824219
z: -0.007190068252384663
","x: 220.95230102539062
y: 374.9267578125
z: -0.010438918136060238
","x: 220.66714477539062
y: 378.8101806640625
z: -0.01233410369604826
","x: 220.38336181640625
y: 381.784423828125
z: -0.013381545431911945
","x: 222.28343200683594
y: 369.8348388671875
z: -0.006044049747288227
","x: 223.13624572753906
y: 375.7498474121094
z: -0.009095302782952785
","x: 223.29432678222656
y: 380.11517333984375
z: -0.010919160209596157
","x: 223.54669189453125
y: 383.6749267578125
z: -0.01215705368667841
","x: 223.26434326171875
y: 369.3267517089844
z: -0.005286373198032379
","x: 224.3258514404297
y: 374.9442138671875
z: -0.008378231897950172
","x: 224.74212646484375
y: 379.1729431152344
z: -0.010454630479216576
","x: 225.2030487060547
y: 382.89739990234375
z: -0.011737652122974396
","x: 223.76950073242188
y: 368.3758850097656
z: -0.0049118781462311745
","x: 224.29458618164062
y: 372.9525451660156
z: -0.007359991315752268
","x: 224.3723907470703
y: 376.1381530761719
z: -0.008815675042569637
","x: 224.3948974609375
y: 378.91595458984375
z: -0.00978360790759325
"
4,"x: 184.57159423828125
y: 255.73797607421875
z: -0.24252744019031525
visibility: 0.9999675750732422
","x: 186.71861267089844
y: 254.0095672607422
z: -0.22650806605815887
visibility: 0.9999366402626038
","x: 187.90394592285156
y: 255.5064697265625
z: -0.22655069828033447
visibility: 0.9999457597732544
","x: 189.12503051757812
y: 256.9024353027344
z: -0.2265687882900238
visibility: 0.9999349117279053
","x: 183.61013793945312
y: 249.291748046875
z: -0.22755694389343262
visibility: 0.9998605251312256
","x: 182.57220458984375
y: 250.5516815185547
z: -0.22756478190422058
visibility: 0.9998447299003601
","x: 181.50428771972656
y: 252.71725463867188
z: -0.2275862693786621
visibility: 0.9997893571853638
","x: 191.60107421875
y: 261.1534729003906
z: -0.12160515785217285
visibility: 0.9999233484268188
","x: 179.83001708984375
y: 259.42120361328125
z: -0.12763790786266327
visibility: 0.9995809197425842
","x: 186.56211853027344
y: 265.308837890625
z: -0.20253324508666992
visibility: 0.9999802112579346
","x: 182.45970153808594
y: 262.30206298828125
z: -0.20461618900299072
visibility: 0.9999591112136841
","x: 201.4644012451172
y: 303.72119140625
z: -0.0558411069214344
visibility: 0.999984860420227
","x: 165.7401885986328
y: 301.0871276855469
z: -0.05040431767702103
visibility: 0.9997807145118713
","x: 207.52120971679688
y: 350.17987060546875
z: -0.10367371886968613
visibility: 0.9848054051399231
","x: 153.85635375976562
y: 338.2052001953125
z: -0.16738352179527283
visibility: 0.9694535732269287
","x: 216.27076721191406
y: 360.4576110839844
z: -0.2885285019874573
visibility: 0.9928415417671204
","x: 160.82830810546875
y: 332.02777099609375
z: -0.3599245548248291
visibility: 0.9711982011795044
","x: 220.84317016601562
y: 368.4690856933594
z: -0.33108264207839966
visibility: 0.9855126142501831
","x: 161.4467315673828
y: 352.8793640136719
z: -0.4174656271934509
visibility: 0.9614190459251404
","x: 218.22837829589844
y: 365.7360534667969
z: -0.35297638177871704
visibility: 0.9861457943916321
","x: 164.07351684570312
y: 351.1691589355469
z: -0.4274745583534241
visibility: 0.9635196328163147
","x: 215.82925415039062
y: 363.18170166015625
z: -0.30162879824638367
visibility: 0.976904034614563
","x: 164.66397094726562
y: 347.2295837402344
z: -0.3657352924346924
visibility: 0.9539889693260193
","x: 189.00863647460938
y: 395.3193664550781
z: 0.004581602290272713
visibility: 0.9999035596847534
","x: 169.39398193359375
y: 394.3863525390625
z: -0.004577606916427612
visibility: 0.9997186660766602
","x: 185.5463409423828
y: 454.7508544921875
z: -0.021355213597416878
visibility: 0.994766116142273
","x: 169.12066650390625
y: 451.3473205566406
z: -0.03870772197842598
visibility: 0.9847956299781799
","x: 185.21775817871094
y: 515.9825439453125
z: 0.19183632731437683
visibility: 0.9906938672065735
","x: 171.36968994140625
y: 516.0443725585938
z: 0.1508629322052002
visibility: 0.9818124175071716
","x: 184.03480529785156
y: 522.9259643554688
z: 0.20762741565704346
visibility: 0.9010893106460571
","x: 172.1266632080078
y: 523.3255615234375
z: 0.164778932929039
visibility: 0.8549635410308838
","x: 184.40501403808594
y: 542.49072265625
z: 0.0997316762804985
visibility: 0.9878919720649719
","x: 178.75364685058594
y: 541.6735229492188
z: 0.04881954565644264
visibility: 0.9811974167823792
","x: 164.18775939941406
y: 339.2628173828125
z: 0.0
","x: 166.7156524658203
y: 346.52703857421875
z: 0.001202004961669445
","x: 168.31985473632812
y: 353.50750732421875
z: -0.0002893830824177712
","x: 170.03573608398438
y: 357.7801208496094
z: -0.002929413691163063
","x: 172.17355346679688
y: 360.3484802246094
z: -0.005409533157944679
","x: 164.71726989746094
y: 359.156005859375
z: -0.000350519287167117
","x: 163.85032653808594
y: 366.3825988769531
z: -0.004053295124322176
","x: 164.6437225341797
y: 367.2705383300781
z: -0.0062250555492937565
","x: 165.55905151367188
y: 366.0211486816406
z: -0.007522506173700094
","x: 163.05987548828125
y: 357.4969482421875
z: -0.003976145293563604
","x: 162.17189025878906
y: 364.5979309082031
z: -0.008160953409969807
","x: 163.35362243652344
y: 366.11187744140625
z: -0.010058563202619553
","x: 164.44705200195312
y: 365.63372802734375
z: -0.01111588254570961
","x: 161.54637145996094
y: 354.6182556152344
z: -0.007841806858778
","x: 160.43711853027344
y: 360.7339172363281
z: -0.011579562909901142
","x: 161.56980895996094
y: 363.001953125
z: -0.012624767608940601
","x: 162.47784423828125
y: 363.7464599609375
z: -0.013124603778123856
","x: 160.20863342285156
y: 350.38397216796875
z: -0.011813960038125515
","x: 157.5655517578125
y: 352.8706359863281
z: -0.014636761508882046
","x: 155.9202880859375
y: 354.5529479980469
z: -0.015269748866558075
","x: 154.52967834472656
y: 355.67291259765625
z: -0.015555459074676037
","x: 219.4521484375
y: 360.01220703125
z: 0.0
","x: 217.3486328125
y: 362.0431213378906
z: -0.005381136666983366
","x: 216.1657257080078
y: 367.08111572265625
z: -0.008279908448457718
","x: 215.18157958984375
y: 371.474853515625
z: -0.0103773083537817
","x: 213.66343688964844
y: 374.9953918457031
z: -0.012413409538567066
","x: 220.64427185058594
y: 369.7030944824219
z: -0.007190068252384663
","x: 220.95230102539062
y: 374.9267578125
z: -0.010438918136060238
","x: 220.66714477539062
y: 378.8101806640625
z: -0.01233410369604826
","x: 220.38336181640625
y: 381.784423828125
z: -0.013381545431911945
","x: 222.28343200683594
y: 369.8348388671875
z: -0.006044049747288227
","x: 223.13624572753906
y: 375.7498474121094
z: -0.009095302782952785
","x: 223.29432678222656
y: 380.11517333984375
z: -0.010919160209596157
","x: 223.54669189453125
y: 383.6749267578125
z: -0.01215705368667841
","x: 223.26434326171875
y: 369.3267517089844
z: -0.005286373198032379
","x: 224.3258514404297
y: 374.9442138671875
z: -0.008378231897950172
","x: 224.74212646484375
y: 379.1729431152344
z: -0.010454630479216576
","x: 225.2030487060547
y: 382.89739990234375
z: -0.011737652122974396
","x: 223.76950073242188
y: 368.3758850097656
z: -0.0049118781462311745
","x: 224.29458618164062
y: 372.9525451660156
z: -0.007359991315752268
","x: 224.3723907470703
y: 376.1381530761719
z: -0.008815675042569637
","x: 224.3948974609375
y: 378.91595458984375
z: -0.00978360790759325
"
5,"x: 183.51519775390625
y: 289.7329406738281
z: -0.27877023816108704
visibility: 0.9999690651893616
","x: 185.93569946289062
y: 285.4302673339844
z: -0.2640075981616974
visibility: 0.9999398589134216
","x: 187.19497680664062
y: 286.03173828125
z: -0.26399803161621094
visibility: 0.9999477863311768
","x: 188.46316528320312
y: 286.67864990234375
z: -0.2640482187271118
visibility: 0.9999376535415649
","x: 182.32260131835938
y: 283.9678955078125
z: -0.26437103748321533
visibility: 0.9998693466186523
","x: 181.1234588623047
y: 284.0487365722656
z: -0.26441341638565063
visibility: 0.9998552203178406
","x: 179.9442596435547
y: 284.3968811035156
z: -0.2644485831260681
visibility: 0.9998054504394531
","x: 191.02532958984375
y: 291.2288513183594
z: -0.16548623144626617
visibility: 0.9999255537986755
","x: 178.25473022460938
y: 287.9031982421875
z: -0.16806040704250336
visibility: 0.9996166825294495
","x: 185.98228454589844
y: 298.4084777832031
z: -0.24129828810691833
visibility: 0.9999806880950928
","x: 181.29957580566406
y: 296.93316650390625
z: -0.24285142123699188
visibility: 0.9999614953994751
","x: 201.18588256835938
y: 332.4359436035156
z: -0.08909150958061218
visibility: 0.9999822378158569
","x: 165.55050659179688
y: 324.88568115234375
z: -0.11212478578090668
visibility: 0.9997909069061279
","x: 211.2689666748047
y: 374.0737609863281
z: -0.18890592455863953
visibility: 0.985532820224762
","x: 154.38186645507812
y: 360.4762268066406
z: -0.23431745171546936
visibility: 0.9715495705604553
","x: 217.18093872070312
y: 355.8453063964844
z: -0.32525327801704407
visibility: 0.9931427836418152
","x: 159.01133728027344
y: 338.81280517578125
z: -0.4393124580383301
visibility: 0.9734922647476196
","x: 219.92359924316406
y: 352.6925354003906
z: -0.3694916069507599
visibility: 0.985611081123352
","x: 161.58108520507812
y: 341.57049560546875
z: -0.4827284812927246
visibility: 0.9636996388435364
","x: 218.55357360839844
y: 350.02447509765625
z: -0.4043111801147461
visibility: 0.9861420392990112
","x: 163.20388793945312
y: 337.5225524902344
z: -0.47420424222946167
visibility: 0.9654358625411987
","x: 216.93667602539062
y: 351.3097839355469
z: -0.3399714529514313
visibility: 0.9771487712860107
","x: 162.8925323486328
y: 337.5381774902344
z: -0.4407654404640198
visibility: 0.9560258984565735
","x: 187.80992126464844
y: 416.58282470703125
z: 0.002704730723053217
visibility: 0.999900221824646
","x: 168.66905212402344
y: 411.242431640625
z: -0.0026877617929130793
visibility: 0.9997343420982361
","x: 180.1383056640625
y: 471.6102600097656
z: 0.016196908429265022
visibility: 0.9912267923355103
","x: 163.6370086669922
y: 463.1404113769531
z: -0.02079680934548378
visibility: 0.9839742183685303
","x: 181.96554565429688
y: 516.9944458007812
z: 0.27266043424606323
visibility: 0.9856367111206055
","x: 170.3193817138672
y: 517.3902587890625
z: 0.21948888897895813
visibility: 0.9799026846885681
","x: 181.8453369140625
y: 522.5040893554688
z: 0.29482823610305786
visibility: 0.8885627388954163
","x: 171.91397094726562
y: 523.8123168945312
z: 0.24146859347820282
visibility: 0.8498106002807617
","x: 183.35903930664062
y: 541.900390625
z: 0.21052908897399902
visibility: 0.983588457107544
","x: 172.07266235351562
y: 541.7962036132812
z: 0.15096580982208252
visibility: 0.9797961711883545
","x: 159.56292724609375
y: 330.69189453125
z: 0.0
","x: 163.06683349609375
y: 332.3034362792969
z: -0.0009637519833631814
","x: 166.77235412597656
y: 336.1956787109375
z: -0.003103479975834489
","x: 169.175537109375
y: 340.84857177734375
z: -0.005292593035846949
","x: 171.22283935546875
y: 343.9541015625
z: -0.007426639553159475
","x: 167.00900268554688
y: 330.9889221191406
z: -0.005597748328000307
","x: 169.15777587890625
y: 337.4766845703125
z: -0.008643517270684242
","x: 170.14610290527344
y: 341.9993896484375
z: -0.01041315495967865
","x: 171.02972412109375
y: 345.2220458984375
z: -0.011580529622733593
","x: 165.08865356445312
y: 331.09844970703125
z: -0.00685077765956521
","x: 167.07720947265625
y: 339.73834228515625
z: -0.010377834551036358
","x: 168.24459838867188
y: 345.1823425292969
z: -0.011552572250366211
","x: 169.26092529296875
y: 349.1556091308594
z: -0.012441631406545639
","x: 163.1513214111328
y: 332.0587463378906
z: -0.00788403581827879
","x: 164.98582458496094
y: 340.6717529296875
z: -0.01067177951335907
","x: 166.15545654296875
y: 346.0389709472656
z: -0.010641695000231266
","x: 167.1397705078125
y: 349.9232177734375
z: -0.010727109387516975
","x: 161.32545471191406
y: 333.5208435058594
z: -0.00894586369395256
","x: 162.9547576904297
y: 340.1429748535156
z: -0.011021320708096027
","x: 164.11549377441406
y: 343.9469909667969
z: -0.010801493190228939
","x: 165.07403564453125
y: 346.8699645996094
z: -0.010612627491354942
",,,,,,,,,,,,,,,,,,,,,
6,"x: 183.51519775390625
y: 289.7329406738281
z: -0.27877023816108704
visibility: 0.9999690651893616
","x: 185.93569946289062
y: 285.4302673339844
z: -0.2640075981616974
visibility: 0.9999398589134216
","x: 187.19497680664062
y: 286.03173828125
z: -0.26399803161621094
visibility: 0.9999477863311768
","x: 188.46316528320312
y: 286.67864990234375
z: -0.2640482187271118
visibility: 0.9999376535415649
","x: 182.32260131835938
y: 283.9678955078125
z: -0.26437103748321533
visibility: 0.9998693466186523
","x: 181.1234588623047
y: 284.0487365722656
z: -0.26441341638565063
visibility: 0.9998552203178406
","x: 179.9442596435547
y: 284.3968811035156
z: -0.2644485831260681
visibility: 0.9998054504394531
","x: 191.02532958984375
y: 291.2288513183594
z: -0.16548623144626617
visibility: 0.9999255537986755
","x: 178.25473022460938
y: 287.9031982421875
z: -0.16806040704250336
visibility: 0.9996166825294495
","x: 185.98228454589844
y: 298.4084777832031
z: -0.24129828810691833
visibility: 0.9999806880950928
","x: 181.29957580566406
y: 296.93316650390625
z: -0.24285142123699188
visibility: 0.9999614953994751
","x: 201.18588256835938
y: 332.4359436035156
z: -0.08909150958061218
visibility: 0.9999822378158569
","x: 165.55050659179688
y: 324.88568115234375
z: -0.11212478578090668
visibility: 0.9997909069061279
","x: 211.2689666748047
y: 374.0737609863281
z: -0.18890592455863953
visibility: 0.985532820224762
","x: 154.38186645507812
y: 360.4762268066406
z: -0.23431745171546936
visibility: 0.9715495705604553
","x: 217.18093872070312
y: 355.8453063964844
z: -0.32525327801704407
visibility: 0.9931427836418152
","x: 159.01133728027344
y: 338.81280517578125
z: -0.4393124580383301
visibility: 0.9734922647476196
","x: 219.92359924316406
y: 352.6925354003906
z: -0.3694916069507599
visibility: 0.985611081123352
","x: 161.58108520507812
y: 341.57049560546875
z: -0.4827284812927246
visibility: 0.9636996388435364
","x: 218.55357360839844
y: 350.02447509765625
z: -0.4043111801147461
visibility: 0.9861420392990112
","x: 163.20388793945312
y: 337.5225524902344
z: -0.47420424222946167
visibility: 0.9654358625411987
","x: 216.93667602539062
y: 351.3097839355469
z: -0.3399714529514313
visibility: 0.9771487712860107
","x: 162.8925323486328
y: 337.5381774902344
z: -0.4407654404640198
visibility: 0.9560258984565735
","x: 187.80992126464844
y: 416.58282470703125
z: 0.002704730723053217
visibility: 0.999900221824646
","x: 168.66905212402344
y: 411.242431640625
z: -0.0026877617929130793
visibility: 0.9997343420982361
","x: 180.1383056640625
y: 471.6102600097656
z: 0.016196908429265022
visibility: 0.9912267923355103
","x: 163.6370086669922
y: 463.1404113769531
z: -0.02079680934548378
visibility: 0.9839742183685303
","x: 181.96554565429688
y: 516.9944458007812
z: 0.27266043424606323
visibility: 0.9856367111206055
","x: 170.3193817138672
y: 517.3902587890625
z: 0.21948888897895813
visibility: 0.9799026846885681
","x: 181.8453369140625
y: 522.5040893554688
z: 0.29482823610305786
visibility: 0.8885627388954163
","x: 171.91397094726562
y: 523.8123168945312
z: 0.24146859347820282
visibility: 0.8498106002807617
","x: 183.35903930664062
y: 541.900390625
z: 0.21052908897399902
visibility: 0.983588457107544
","x: 172.07266235351562
y: 541.7962036132812
z: 0.15096580982208252
visibility: 0.9797961711883545
","x: 159.56292724609375
y: 330.69189453125
z: 0.0
","x: 163.06683349609375
y: 332.3034362792969
z: -0.0009637519833631814
","x: 166.77235412597656
y: 336.1956787109375
z: -0.003103479975834489
","x: 169.175537109375
y: 340.84857177734375
z: -0.005292593035846949
","x: 171.22283935546875
y: 343.9541015625
z: -0.007426639553159475
","x: 167.00900268554688
y: 330.9889221191406
z: -0.005597748328000307
","x: 169.15777587890625
y: 337.4766845703125
z: -0.008643517270684242
","x: 170.14610290527344
y: 341.9993896484375
z: -0.01041315495967865
","x: 171.02972412109375
y: 345.2220458984375
z: -0.011580529622733593
","x: 165.08865356445312
y: 331.09844970703125
z: -0.00685077765956521
","x: 167.07720947265625
y: 339.73834228515625
z: -0.010377834551036358
","x: 168.24459838867188
y: 345.1823425292969
z: -0.011552572250366211
","x: 169.26092529296875
y: 349.1556091308594
z: -0.012441631406545639
","x: 163.1513214111328
y: 332.0587463378906
z: -0.00788403581827879
","x: 164.98582458496094
y: 340.6717529296875
z: -0.01067177951335907
","x: 166.15545654296875
y: 346.0389709472656
z: -0.010641695000231266
","x: 167.1397705078125
y: 349.9232177734375
z: -0.010727109387516975
","x: 161.32545471191406
y: 333.5208435058594
z: -0.00894586369395256
","x: 162.9547576904297
y: 340.1429748535156
z: -0.011021320708096027
","x: 164.11549377441406
y: 343.9469909667969
z: -0.010801493190228939
","x: 165.07403564453125
y: 346.8699645996094
z: -0.010612627491354942
",,,,,,,,,,,,,,,,,,,,,
7,"x: 183.70501708984375
y: 287.36126708984375
z: -0.27719348669052124
visibility: 0.9999715089797974
","x: 186.07901000976562
y: 285.15118408203125
z: -0.2619033753871918
visibility: 0.9999444484710693
","x: 187.4228973388672
y: 285.0915222167969
z: -0.2618890702724457
visibility: 0.9999516606330872
","x: 188.68502807617188
y: 284.83978271484375
z: -0.26194050908088684
visibility: 0.9999423027038574
","x: 182.1839599609375
y: 282.6069030761719
z: -0.2635500133037567
visibility: 0.9998800158500671
","x: 180.917724609375
y: 282.5585632324219
z: -0.26357048749923706
visibility: 0.99986732006073
","x: 179.6979522705078
y: 283.07080078125
z: -0.2635956406593323
visibility: 0.9998219013214111
","x: 190.97219848632812
y: 287.0992431640625
z: -0.16508115828037262
visibility: 0.9999316334724426
","x: 177.7829132080078
y: 286.2658386230469
z: -0.16586187481880188
visibility: 0.9996519088745117
","x: 186.4475860595703
y: 296.8770751953125
z: -0.24036237597465515
visibility: 0.9999822974205017
","x: 181.2206573486328
y: 296.62689208984375
z: -0.24222290515899658
visibility: 0.9999648332595825
","x: 201.0149383544922
y: 327.93402099609375
z: -0.09917440265417099
visibility: 0.9999831318855286
","x: 164.83860778808594
y: 323.45208740234375
z: -0.11548219621181488
visibility: 0.9998058676719666
","x: 211.0209503173828
y: 373.7757873535156
z: -0.21904388070106506
visibility: 0.9866642355918884
","x: 150.89959716796875
y: 345.92047119140625
z: -0.2574872672557831
visibility: 0.9738560318946838
","x: 215.52517700195312
y: 344.8663635253906
z: -0.4081825613975525
visibility: 0.9936180710792542
","x: 158.31529235839844
y: 334.6870422363281
z: -0.47571343183517456
visibility: 0.9751498103141785
","x: 218.5589599609375
y: 337.4573059082031
z: -0.45059338212013245
visibility: 0.9863545894622803
","x: 159.44723510742188
y: 331.219970703125
z: -0.5202755928039551
visibility: 0.964691162109375
","x: 217.35888671875
y: 331.638916015625
z: -0.44928961992263794
visibility: 0.986808717250824
","x: 161.41107177734375
y: 328.32000732421875
z: -0.5102843046188354
visibility: 0.9658889174461365
","x: 215.67425537109375
y: 334.232666015625
z: -0.41184329986572266
visibility: 0.9781999588012695
","x: 161.95587158203125
y: 330.5443115234375
z: -0.4775222837924957
visibility: 0.955714225769043
","x: 188.2978515625
y: 414.9792175292969
z: 0.002202537376433611
visibility: 0.999902606010437
","x: 168.75392150878906
y: 409.2352600097656
z: -0.002230274025350809
visibility: 0.9997459053993225
","x: 182.60279846191406
y: 469.45947265625
z: -0.08793213218450546
visibility: 0.9915074706077576
","x: 164.44100952148438
y: 464.8638610839844
z: -0.02900361455976963
visibility: 0.9842174649238586
","x: 182.79615783691406
y: 517.19287109375
z: 0.14920058846473694
visibility: 0.9854816794395447
","x: 170.13327026367188
y: 517.38720703125
z: 0.20431360602378845
visibility: 0.9800664782524109
","x: 181.77906799316406
y: 522.1350708007812
z: 0.1684761345386505
visibility: 0.8900442123413086
","x: 171.95655822753906
y: 522.7958984375
z: 0.22309859097003937
visibility: 0.8502523899078369
","x: 183.05165100097656
y: 541.7589721679688
z: 0.06217929720878601
visibility: 0.983644962310791
","x: 171.43853759765625
y: 541.921142578125
z: 0.11974655091762543
visibility: 0.9799426794052124
","x: 161.0664520263672
y: 338.6016540527344
z: 0.0
","x: 162.9982147216797
y: 336.4883117675781
z: -0.0025193174369633198
","x: 164.2281951904297
y: 332.5326843261719
z: -0.0039006287697702646
","x: 163.9910888671875
y: 329.30963134765625
z: -0.005349946208298206
","x: 162.8194122314453
y: 327.35919189453125
z: -0.0066919769160449505
","x: 162.22352600097656
y: 325.0579528808594
z: -0.00146850838791579
","x: 161.43148803710938
y: 319.73345947265625
z: -0.0037109581753611565
","x: 160.4168243408203
y: 317.3471374511719
z: -0.005256380420178175
","x: 159.3466339111328
y: 316.2672424316406
z: -0.006044994108378887
","x: 160.4400177001953
y: 325.16253662109375
z: -0.00174103700555861
","x: 159.06851196289062
y: 319.61724853515625
z: -0.003508350346237421
","x: 157.90879821777344
y: 316.57440185546875
z: -0.004749238025397062
","x: 156.82827758789062
y: 314.7988586425781
z: -0.005579439457505941
","x: 158.9615478515625
y: 326.4587097167969
z: -0.0025449316017329693
","x: 157.6861572265625
y: 321.62994384765625
z: -0.0044402191415429115
","x: 156.85984802246094
y: 318.8548583984375
z: -0.005487225484102964
","x: 156.15081787109375
y: 317.2767639160156
z: -0.006067175883799791
","x: 157.66766357421875
y: 328.7832946777344
z: -0.0037285960279405117
","x: 156.62158203125
y: 325.2397155761719
z: -0.005384499207139015
","x: 155.94027709960938
y: 323.19635009765625
z: -0.006078882608562708
","x: 155.3804931640625
y: 322.0562438964844
z: -0.0063986084423959255
",,,,,,,,,,,,,,,,,,,,,
8,"x: 183.70501708984375
y: 287.36126708984375
z: -0.27719348669052124
visibility: 0.9999715089797974
","x: 186.07901000976562
y: 285.15118408203125
z: -0.2619033753871918
visibility: 0.9999444484710693
","x: 187.4228973388672
y: 285.0915222167969
z: -0.2618890702724457
visibility: 0.9999516606330872
","x: 188.68502807617188
y: 284.83978271484375
z: -0.26194050908088684
visibility: 0.9999423027038574
","x: 182.1839599609375
y: 282.6069030761719
z: -0.2635500133037567
visibility: 0.9998800158500671
","x: 180.917724609375
y: 282.5585632324219
z: -0.26357048749923706
visibility: 0.99986732006073
","x: 179.6979522705078
y: 283.07080078125
z: -0.2635956406593323
visibility: 0.9998219013214111
","x: 190.97219848632812
y: 287.0992431640625
z: -0.16508115828037262
visibility: 0.9999316334724426
","x: 177.7829132080078
y: 286.2658386230469
z: -0.16586187481880188
visibility: 0.9996519088745117
","x: 186.4475860595703
y: 296.8770751953125
z: -0.24036237597465515
visibility: 0.9999822974205017
","x: 181.2206573486328
y: 296.62689208984375
z: -0.24222290515899658
visibility: 0.9999648332595825
","x: 201.0149383544922
y: 327.93402099609375
z: -0.09917440265417099
visibility: 0.9999831318855286
","x: 164.83860778808594
y: 323.45208740234375
z: -0.11548219621181488
visibility: 0.9998058676719666
","x: 211.0209503173828
y: 373.7757873535156
z: -0.21904388070106506
visibility: 0.9866642355918884
","x: 150.89959716796875
y: 345.92047119140625
z: -0.2574872672557831
visibility: 0.9738560318946838
","x: 215.52517700195312
y: 344.8663635253906
z: -0.4081825613975525
visibility: 0.9936180710792542
","x: 158.31529235839844
y: 334.6870422363281
z: -0.47571343183517456
visibility: 0.9751498103141785
","x: 218.5589599609375
y: 337.4573059082031
z: -0.45059338212013245
visibility: 0.9863545894622803
","x: 159.44723510742188
y: 331.219970703125
z: -0.5202755928039551
visibility: 0.964691162109375
","x: 217.35888671875
y: 331.638916015625
z: -0.44928961992263794
visibility: 0.986808717250824
","x: 161.41107177734375
y: 328.32000732421875
z: -0.5102843046188354
visibility: 0.9658889174461365
","x: 215.67425537109375
y: 334.232666015625
z: -0.41184329986572266
visibility: 0.9781999588012695
","x: 161.95587158203125
y: 330.5443115234375
z: -0.4775222837924957
visibility: 0.955714225769043
","x: 188.2978515625
y: 414.9792175292969
z: 0.002202537376433611
visibility: 0.999902606010437
","x: 168.75392150878906
y: 409.2352600097656
z: -0.002230274025350809
visibility: 0.9997459053993225
","x: 182.60279846191406
y: 469.45947265625
z: -0.08793213218450546
visibility: 0.9915074706077576
","x: 164.44100952148438
y: 464.8638610839844
z: -0.02900361455976963
visibility: 0.9842174649238586
","x: 182.79615783691406
y: 517.19287109375
z: 0.14920058846473694
visibility: 0.9854816794395447
","x: 170.13327026367188
y: 517.38720703125
z: 0.20431360602378845
visibility: 0.9800664782524109
","x: 181.77906799316406
y: 522.1350708007812
z: 0.1684761345386505
visibility: 0.8900442123413086
","x: 171.95655822753906
y: 522.7958984375
z: 0.22309859097003937
visibility: 0.8502523899078369
","x: 183.05165100097656
y: 541.7589721679688
z: 0.06217929720878601
visibility: 0.983644962310791
","x: 171.43853759765625
y: 541.921142578125
z: 0.11974655091762543
visibility: 0.9799426794052124
","x: 161.0664520263672
y: 338.6016540527344
z: 0.0
","x: 162.9982147216797
y: 336.4883117675781
z: -0.0025193174369633198
","x: 164.2281951904297
y: 332.5326843261719
z: -0.0039006287697702646
","x: 163.9910888671875
y: 329.30963134765625
z: -0.005349946208298206
","x: 162.8194122314453
y: 327.35919189453125
z: -0.0066919769160449505
","x: 162.22352600097656
y: 325.0579528808594
z: -0.00146850838791579
","x: 161.43148803710938
y: 319.73345947265625
z: -0.0037109581753611565
","x: 160.4168243408203
y: 317.3471374511719
z: -0.005256380420178175
","x: 159.3466339111328
y: 316.2672424316406
z: -0.006044994108378887
","x: 160.4400177001953
y: 325.16253662109375
z: -0.00174103700555861
","x: 159.06851196289062
y: 319.61724853515625
z: -0.003508350346237421
","x: 157.90879821777344
y: 316.57440185546875
z: -0.004749238025397062
","x: 156.82827758789062
y: 314.7988586425781
z: -0.005579439457505941
","x: 158.9615478515625
y: 326.4587097167969
z: -0.0025449316017329693
","x: 157.6861572265625
y: 321.62994384765625
z: -0.0044402191415429115
","x: 156.85984802246094
y: 318.8548583984375
z: -0.005487225484102964
","x: 156.15081787109375
y: 317.2767639160156
z: -0.006067175883799791
","x: 157.66766357421875
y: 328.7832946777344
z: -0.0037285960279405117
","x: 156.62158203125
y: 325.2397155761719
z: -0.005384499207139015
","x: 155.94027709960938
y: 323.19635009765625
z: -0.006078882608562708
","x: 155.3804931640625
y: 322.0562438964844
z: -0.0063986084423959255
",,,,,,,,,,,,,,,,,,,,,
9,"x: 183.18841552734375
y: 256.5127258300781
z: -0.23483900725841522
visibility: 0.9999732971191406
","x: 185.48887634277344
y: 251.77923583984375
z: -0.21965141594409943
visibility: 0.9999476075172424
","x: 186.81106567382812
y: 252.09519958496094
z: -0.21970024704933167
visibility: 0.9999542236328125
","x: 188.0814971923828
y: 252.5238037109375
z: -0.21972548961639404
visibility: 0.9999455809593201
","x: 181.65345764160156
y: 251.25027465820312
z: -0.21748125553131104
visibility: 0.9998883605003357
","x: 180.38766479492188
y: 251.50045776367188
z: -0.2175060212612152
visibility: 0.9998764991760254
","x: 179.15306091308594
y: 251.99180603027344
z: -0.2175266444683075
visibility: 0.9998351335525513
","x: 190.5444793701172
y: 256.5767517089844
z: -0.1254471242427826
visibility: 0.9999352097511292
","x: 177.3514404296875
y: 257.02935791015625
z: -0.11475996673107147
visibility: 0.9996775388717651
","x: 185.94790649414062
y: 264.7430114746094
z: -0.19952483475208282
visibility: 0.9999833106994629
","x: 180.82872009277344
y: 264.8318786621094
z: -0.19669413566589355
visibility: 0.9999672174453735
","x: 200.90245056152344
y: 298.3700256347656
z: -0.0762137919664383
visibility: 0.9999831914901733
","x: 165.2247314453125
y: 300.2562561035156
z: -0.04475390538573265
visibility: 0.9998166561126709
","x: 208.2593536376953
y: 342.2464599609375
z: -0.12670943140983582
visibility: 0.9846124053001404
","x: 158.22232055664062
y: 340.79217529296875
z: -0.06597669422626495
visibility: 0.9683933258056641
","x: 204.38626098632812
y: 351.867431640625
z: -0.3061661124229431
visibility: 0.9904835820198059
","x: 156.20335388183594
y: 352.0748596191406
z: -0.22917325794696808
visibility: 0.9697787761688232
","x: 206.44027709960938
y: 352.9071044921875
z: -0.34587231278419495
visibility: 0.982536792755127
","x: 156.70016479492188
y: 355.9439697265625
z: -0.2640436887741089
visibility: 0.9583460688591003
","x: 205.64132690429688
y: 347.6304626464844
z: -0.36655193567276
visibility: 0.9834416508674622
","x: 157.26805114746094
y: 352.41015625
z: -0.2841888964176178
visibility: 0.9603006839752197
","x: 204.2135009765625
y: 347.28009033203125
z: -0.3181280493736267
visibility: 0.9733864068984985
","x: 157.60556030273438
y: 351.0472106933594
z: -0.2416236698627472
visibility: 0.948911726474762
","x: 191.1078338623047
y: 389.1767883300781
z: -0.00015296788478735834
visibility: 0.9998980760574341
","x: 171.61639404296875
y: 388.05767822265625
z: 0.00015168942627497017
visibility: 0.9997483491897583
","x: 188.58584594726562
y: 448.0296630859375
z: -0.1246814876794815
visibility: 0.9913617968559265
","x: 172.11740112304688
y: 448.1976623535156
z: -0.08002082258462906
visibility: 0.9831949472427368
","x: 183.93194580078125
y: 514.6411743164062
z: 0.008182099089026451
visibility: 0.9853911995887756
","x: 173.1602783203125
y: 512.51318359375
z: 0.07611098885536194
visibility: 0.9792110323905945
","x: 183.99928283691406
y: 520.674560546875
z: 0.016001921147108078
visibility: 0.8821634650230408
","x: 174.64007568359375
y: 519.0587768554688
z: 0.08531729131937027
visibility: 0.8412788510322571
","x: 183.73532104492188
y: 539.4296875
z: -0.10512931644916534
visibility: 0.9833831787109375
","x: 172.22657775878906
y: 538.297119140625
z: -0.029582416638731956
visibility: 0.9786958694458008
",,,,,,,,,,,,,,,,,,,,,,,,,,,,,,,,,,,,,,,,,,
10,"x: 183.24929809570312
y: 258.1451416015625
z: -0.32747432589530945
visibility: 0.9999556541442871
","x: 185.2542266845703
y: 252.50694274902344
z: -0.3157629370689392
visibility: 0.9998922944068909
","x: 186.57286071777344
y: 252.74842834472656
z: -0.3158237338066101
visibility: 0.9999039769172668
","x: 187.83670043945312
y: 253.08973693847656
z: -0.3158707618713379
visibility: 0.9998948574066162
","x: 181.47271728515625
y: 252.3201141357422
z: -0.31074732542037964
visibility: 0.9998185634613037
","x: 180.2076873779297
y: 252.48086547851562
z: -0.3107829689979553
visibility: 0.9998002648353577
","x: 178.98060607910156
y: 252.80372619628906
z: -0.3108258843421936
visibility: 0.9997608065605164
","x: 190.2173614501953
y: 257.014404296875
z: -0.22263865172863007
visibility: 0.9998418092727661
","x: 177.07794189453125
y: 257.1233825683594
z: -0.1974078267812729
visibility: 0.9995200634002686
","x: 186.03570556640625
y: 266.08154296875
z: -0.2909122109413147
visibility: 0.999973475933075
","x: 181.028076171875
y: 266.6190185546875
z: -0.2837914824485779
visibility: 0.9999569058418274
","x: 201.97817993164062
y: 294.6451110839844
z: -0.16255377233028412
visibility: 0.9999817609786987
","x: 166.59971618652344
y: 297.1374816894531
z: -0.09823821485042572
visibility: 0.9998234510421753
","x: 207.8247528076172
y: 343.6934814453125
z: -0.1919635832309723
visibility: 0.9841240644454956
","x: 160.2449493408203
y: 341.5498046875
z: -0.06080847233533859
visibility: 0.9680651426315308
","x: 194.94818115234375
y: 356.73712158203125
z: -0.34682750701904297
visibility: 0.9882419109344482
","x: 152.893798828125
y: 371.2908630371094
z: -0.15669240057468414
visibility: 0.9678897857666016
","x: 191.31971740722656
y: 367.59326171875
z: -0.3872520923614502
visibility: 0.9789003729820251
","x: 147.47183227539062
y: 379.1257019042969
z: -0.1870976686477661
visibility: 0.9547215104103088
","x: 188.89537048339844
y: 361.8533630371094
z: -0.4003539979457855
visibility: 0.979796290397644
","x: 146.44151306152344
y: 378.4315185546875
z: -0.21563151478767395
visibility: 0.9570948481559753
","x: 189.65298461914062
y: 358.36529541015625
z: -0.3562129735946655
visibility: 0.9674772620201111
","x: 149.1063232421875
y: 377.0081787109375
z: -0.17113831639289856
visibility: 0.9451250433921814
","x: 194.33499145507812
y: 386.8279724121094
z: -0.0019986331462860107
visibility: 0.9998770952224731
","x: 174.700927734375
y: 387.0295715332031
z: 0.001999423373490572
visibility: 0.9997376799583435
","x: 193.54464721679688
y: 450.8052978515625
z: -0.050771523267030716
visibility: 0.9911785125732422
","x: 179.94244384765625
y: 450.9104919433594
z: -0.07049282640218735
visibility: 0.983525812625885
","x: 193.69464111328125
y: 515.0364379882812
z: 0.11498795449733734
visibility: 0.9856958389282227
","x: 182.84417724609375
y: 513.723876953125
z: 0.09619756042957306
visibility: 0.9798761010169983
","x: 192.51185607910156
y: 521.0489501953125
z: 0.12420479208230972
visibility: 0.8755626082420349
","x: 183.1070098876953
y: 520.265625
z: 0.1066078171133995
visibility: 0.8364049792289734
","x: 194.60113525390625
y: 539.6668701171875
z: -0.0022543424274772406
visibility: 0.9834184646606445
","x: 185.24014282226562
y: 539.829833984375
z: -0.016270114108920097
visibility: 0.9793035984039307
",,,,,,,,,,,,,,,,,,,,,,,,,,,,,,,,,,,,,,,,,,
11,"x: 183.20362854003906
y: 283.12799072265625
z: -0.25729936361312866
visibility: 0.9998612403869629
","x: 184.9788360595703
y: 277.98236083984375
z: -0.24410851299762726
visibility: 0.9996904134750366
","x: 186.4281463623047
y: 278.2811279296875
z: -0.24416205286979675
visibility: 0.9997071623802185
","x: 187.77281188964844
y: 278.7099914550781
z: -0.24420468509197235
visibility: 0.99970942735672
","x: 181.19142150878906
y: 278.63702392578125
z: -0.2414819300174713
visibility: 0.9995426535606384
","x: 179.99258422851562
y: 279.32476806640625
z: -0.2415277659893036
visibility: 0.9995008707046509
","x: 178.8421630859375
y: 280.07647705078125
z: -0.24156813323497772
visibility: 0.99946129322052
","x: 190.06100463867188
y: 283.0189208984375
z: -0.1612471491098404
visibility: 0.9995778799057007
","x: 177.0011444091797
y: 284.8309631347656
z: -0.14831915497779846
visibility: 0.9986295104026794
","x: 185.85263061523438
y: 291.3899841308594
z: -0.22607024013996124
visibility: 0.9999125599861145
","x: 180.83270263671875
y: 292.6772766113281
z: -0.22268716990947723
visibility: 0.9998434782028198
","x: 201.80662536621094
y: 314.45037841796875
z: -0.1397680640220642
visibility: 0.9999620914459229
","x: 168.31463623046875
y: 326.25439453125
z: -0.07696550339460373
visibility: 0.9995507597923279
","x: 209.6925048828125
y: 351.67742919921875
z: -0.19067198038101196
visibility: 0.9829777479171753
","x: 158.7648162841797
y: 354.7339172363281
z: -0.11040196567773819
visibility: 0.9475799202919006
","x: 192.2611083984375
y: 358.0924072265625
z: -0.3227870762348175
visibility: 0.9846189618110657
","x: 152.63705444335938
y: 364.682861328125
z: -0.19959388673305511
visibility: 0.932334303855896
","x: 187.9186553955078
y: 364.8451232910156
z: -0.3572635054588318
visibility: 0.9711551070213318
","x: 147.45840454101562
y: 373.55120849609375
z: -0.2120838612318039
visibility: 0.9131960868835449
","x: 185.78529357910156
y: 358.9317626953125
z: -0.3572419285774231
visibility: 0.9718915820121765
","x: 145.4073944091797
y: 377.5953369140625
z: -0.292790949344635
visibility: 0.9154564738273621
","x: 187.4622344970703
y: 356.4107666015625
z: -0.32454174757003784
visibility: 0.955435037612915
","x: 149.32595825195312
y: 369.11126708984375
z: -0.22185412049293518
visibility: 0.9023768305778503
","x: 196.39511108398438
y: 405.65045166015625
z: -0.0021042674779891968
visibility: 0.9997230172157288
","x: 176.56781005859375
y: 405.9802551269531
z: 0.002079208381474018
visibility: 0.9996102452278137
","x: 196.6717529296875
y: 465.6785583496094
z: 0.010744964703917503
visibility: 0.9899036884307861
","x: 180.871337890625
y: 466.1169128417969
z: -0.05194548889994621
visibility: 0.9812641143798828
","x: 196.98289489746094
y: 517.426025390625
z: 0.24589712917804718
visibility: 0.9816437363624573
","x: 184.67282104492188
y: 517.7833862304688
z: 0.15874116122722626
visibility: 0.977415144443512
","x: 196.769287109375
y: 522.0970458984375
z: 0.26504334807395935
visibility: 0.846554696559906
","x: 185.65609741210938
y: 522.0003662109375
z: 0.17643338441848755
visibility: 0.8130531907081604
","x: 196.5061798095703
y: 540.6194458007812
z: 0.1687452346086502
visibility: 0.9783836603164673
","x: 185.50413513183594
y: 542.4803466796875
z: 0.07620164752006531
visibility: 0.9759776592254639
",,,,,,,,,,,,,,,,,,,,,,,,,,,,,,,,,,,,,,,,,,
12,"x: 183.09213256835938
y: 288.0957946777344
z: -0.2297118604183197
visibility: 0.999422550201416
","x: 184.95388793945312
y: 281.8334045410156
z: -0.21620602905750275
visibility: 0.9984822869300842
","x: 186.36448669433594
y: 282.06524658203125
z: -0.21624839305877686
visibility: 0.9984796643257141
","x: 187.65606689453125
y: 282.4039611816406
z: -0.21627910435199738
visibility: 0.9982377290725708
","x: 181.1932830810547
y: 282.13720703125
z: -0.21495720744132996
visibility: 0.998388409614563
","x: 180.0111846923828
y: 282.6019592285156
z: -0.21500110626220703
visibility: 0.9984395503997803
","x: 178.86227416992188
y: 283.12396240234375
z: -0.21504919230937958
visibility: 0.9984564781188965
","x: 189.97242736816406
y: 286.273193359375
z: -0.13033324480056763
visibility: 0.9976098537445068
","x: 177.33547973632812
y: 286.9457702636719
z: -0.12400120496749878
visibility: 0.9968836903572083
","x: 185.9304656982422
y: 295.412353515625
z: -0.19679738581180573
visibility: 0.9995977282524109
","x: 180.85540771484375
y: 296.56964111328125
z: -0.1952381134033203
visibility: 0.9995540976524353
","x: 201.84315490722656
y: 318.7708740234375
z: -0.10000668466091156
visibility: 0.9999114274978638
","x: 167.9932861328125
y: 325.53558349609375
z: -0.06559161841869354
visibility: 0.9994726181030273
","x: 209.52310180664062
y: 356.7755432128906
z: -0.17422699928283691
visibility: 0.9795725345611572
","x: 158.70826721191406
y: 361.440185546875
z: -0.1423252820968628
visibility: 0.9474471211433411
","x: 189.65321350097656
y: 358.15863037109375
z: -0.3010534644126892
visibility: 0.976966142654419
","x: 159.1440887451172
y: 355.748779296875
z: -0.29062360525131226
visibility: 0.9285330176353455
","x: 182.5977325439453
y: 363.4829406738281
z: -0.3334755301475525
visibility: 0.9577194452285767
","x: 160.4070587158203
y: 355.88067626953125
z: -0.3261297345161438
visibility: 0.9040642976760864
","x: 181.113525390625
y: 357.2744140625
z: -0.32874149084091187
visibility: 0.9578670263290405
","x: 161.52040100097656
y: 353.2476501464844
z: -0.3408997356891632
visibility: 0.9049756526947021
","x: 183.06439208984375
y: 355.9097595214844
z: -0.3008132874965668
visibility: 0.935234010219574
","x: 161.14251708984375
y: 353.1823425292969
z: -0.2537410855293274
visibility: 0.8883478045463562
","x: 197.15858459472656
y: 410.93035888671875
z: -0.0020122153218835592
visibility: 0.9995416402816772
","x: 176.67283630371094
y: 412.0187072753906
z: 0.0019685092847794294
visibility: 0.9994641542434692
","x: 197.71714782714844
y: 470.07366943359375
z: -0.008137545548379421
visibility: 0.9888707399368286
","x: 181.28062438964844
y: 467.2326965332031
z: -0.04975532367825508
visibility: 0.9799609780311584
","x: 197.84523010253906
y: 519.42724609375
z: 0.219866544008255
visibility: 0.9781848788261414
","x: 185.17190551757812
y: 519.1724853515625
z: 0.1584991067647934
visibility: 0.976582407951355
","x: 197.58824157714844
y: 523.1305541992188
z: 0.23802654445171356
visibility: 0.8236945271492004
","x: 186.6902313232422
y: 523.09423828125
z: 0.17547821998596191
visibility: 0.7967870235443115
","x: 197.7206268310547
y: 542.8590698242188
z: 0.14145630598068237
visibility: 0.9741171002388
","x: 185.22007751464844
y: 544.3119506835938
z: 0.06975322961807251
visibility: 0.9743759632110596
",,,,,,,,,,,,,,,,,,,,,,,,,,,,,,,,,,,,,,,,,,
13,"x: 184.16258239746094
y: 266.3930969238281
z: -0.29823869466781616
visibility: 0.9994591474533081
","x: 185.97946166992188
y: 259.4143981933594
z: -0.28501588106155396
visibility: 0.998569130897522
","x: 187.30221557617188
y: 259.3365173339844
z: -0.2850703001022339
visibility: 0.9985623955726624
","x: 188.5365753173828
y: 259.3415222167969
z: -0.28509896993637085
visibility: 0.9983347654342651
","x: 182.20201110839844
y: 260.1038818359375
z: -0.27966922521591187
visibility: 0.9984793663024902
","x: 181.01824951171875
y: 260.54864501953125
z: -0.2797098755836487
visibility: 0.9985158443450928
","x: 179.8722381591797
y: 261.03765869140625
z: -0.2797713875770569
visibility: 0.9985356330871582
","x: 191.01133728027344
y: 262.40289306640625
z: -0.18851998448371887
visibility: 0.9976958632469177
","x: 178.58265686035156
y: 264.1723327636719
z: -0.16195164620876312
visibility: 0.9970377683639526
","x: 187.07171630859375
y: 273.3096618652344
z: -0.26028957962989807
visibility: 0.9996108412742615
","x: 182.2815704345703
y: 273.8190002441406
z: -0.25278499722480774
visibility: 0.999571681022644
","x: 203.40444946289062
y: 299.3594055175781
z: -0.1298104077577591
visibility: 0.9999034404754639
","x: 170.53843688964844
y: 303.82647705078125
z: -0.06887900829315186
visibility: 0.9995050430297852
","x: 208.34767150878906
y: 342.6919860839844
z: -0.1678999364376068
visibility: 0.9768438339233398
","x: 162.36074829101562
y: 345.5372314453125
z: -0.011889465153217316
visibility: 0.9419668912887573
","x: 189.494140625
y: 359.6217041015625
z: -0.3053021728992462
visibility: 0.9703892469406128
","x: 155.0120391845703
y: 365.77801513671875
z: -0.09655482321977615
visibility: 0.923310399055481
","x: 182.67324829101562
y: 364.46759033203125
z: -0.339301735162735
visibility: 0.9472408890724182
","x: 149.59271240234375
y: 371.4227600097656
z: -0.12150783836841583
visibility: 0.8961216807365417
","x: 180.9010467529297
y: 357.1716003417969
z: -0.3502197265625
visibility: 0.9475888609886169
","x: 149.22787475585938
y: 370.7325439453125
z: -0.14879369735717773
visibility: 0.8983842134475708
","x: 182.4541778564453
y: 355.8448791503906
z: -0.311563640832901
visibility: 0.9205194115638733
","x: 150.58436584472656
y: 368.9092712402344
z: -0.10916062444448471
visibility: 0.8809778094291687
","x: 197.6147003173828
y: 394.1832275390625
z: -0.00589203555136919
visibility: 0.999520480632782
","x: 177.7498321533203
y: 393.42706298828125
z: 0.005828843452036381
visibility: 0.9994857907295227
","x: 198.67996215820312
y: 461.8787841796875
z: -0.027756905183196068
visibility: 0.9886714220046997
","x: 182.4938201904297
y: 456.3421325683594
z: -0.10834605991840363
visibility: 0.9812536835670471
","x: 198.204833984375
y: 517.3297729492188
z: 0.19291329383850098
visibility: 0.978901743888855
","x: 185.21539306640625
y: 517.9042358398438
z: 0.08218024671077728
visibility: 0.9780803322792053
","x: 197.40701293945312
y: 520.986328125
z: 0.2091655284166336
visibility: 0.8215768933296204
","x: 186.53248596191406
y: 521.6964111328125
z: 0.09587984532117844
visibility: 0.8034389019012451
","x: 198.47451782226562
y: 542.7906494140625
z: 0.09779290854930878
visibility: 0.9744751453399658
","x: 186.56883239746094
y: 544.08984375
z: -0.02378826215863228
visibility: 0.9759235978126526
",,,,,,,,,,,,,,,,,,,,,,,,,,,,,,,,,,,,,,,,,,
14,"x: 184.28941345214844
y: 262.1352233886719
z: -0.31959885358810425
visibility: 0.9994493722915649
","x: 186.09439086914062
y: 256.404296875
z: -0.30615800619125366
visibility: 0.9985337257385254
","x: 187.40892028808594
y: 256.5428466796875
z: -0.30620720982551575
visibility: 0.998538076877594
","x: 188.6237335205078
y: 256.7566223144531
z: -0.30624082684516907
visibility: 0.9983280301094055
","x: 182.4130096435547
y: 256.5733642578125
z: -0.30139410495758057
visibility: 0.9984068274497986
","x: 181.19894409179688
y: 256.87030029296875
z: -0.3014433979988098
visibility: 0.9984213709831238
","x: 180.01243591308594
y: 257.24853515625
z: -0.30149686336517334
visibility: 0.9984310269355774
","x: 191.2073974609375
y: 260.5111083984375
z: -0.21102683246135712
visibility: 0.9975860118865967
","x: 178.66616821289062
y: 261.6153259277344
z: -0.18776455521583557
visibility: 0.9966193437576294
","x: 187.1646728515625
y: 269.5955505371094
z: -0.282889187335968
visibility: 0.9995747804641724
","x: 182.52633666992188
y: 270.2973327636719
z: -0.276317298412323
visibility: 0.9995097517967224
","x: 203.07904052734375
y: 293.7801818847656
z: -0.1578681766986847
visibility: 0.9998990893363953
","x: 171.1419677734375
y: 301.442138671875
z: -0.08268918097019196
visibility: 0.9994627237319946
","x: 208.20484924316406
y: 337.3196105957031
z: -0.192651629447937
visibility: 0.9771803021430969
","x: 162.37599182128906
y: 343.7869567871094
z: -0.03790174797177315
visibility: 0.9366180896759033
","x: 185.74887084960938
y: 356.1114501953125
z: -0.3226655125617981
visibility: 0.9707455635070801
","x: 150.88270568847656
y: 364.1619567871094
z: -0.12626346945762634
visibility: 0.91752690076828
","x: 178.51626586914062
y: 362.56463623046875
z: -0.3586188852787018
visibility: 0.9468950629234314
","x: 145.02117919921875
y: 371.1166076660156
z: -0.15239988267421722
visibility: 0.8877320289611816
","x: 175.8652801513672
y: 356.5750732421875
z: -0.36836475133895874
visibility: 0.9472031593322754
","x: 144.25840759277344
y: 369.7647399902344
z: -0.17956753075122833
visibility: 0.8910790085792542
","x: 178.1518096923828
y: 354.374267578125
z: -0.32826459407806396
visibility: 0.9191243052482605
","x: 146.40428161621094
y: 367.2828369140625
z: -0.14007245004177094
visibility: 0.8728407621383667
","x: 198.15000915527344
y: 389.31719970703125
z: -0.0063582113943994045
visibility: 0.9994774460792542
","x: 178.61968994140625
y: 388.8310241699219
z: 0.006291898433119059
visibility: 0.9994603991508484
","x: 199.0586700439453
y: 453.44476318359375
z: -0.021558796986937523
visibility: 0.9886460900306702
","x: 181.89065551757812
y: 452.56573486328125
z: -0.08363200724124908
visibility: 0.9818958640098572
","x: 197.9975128173828
y: 515.3309326171875
z: 0.17471346259117126
visibility: 0.9794318079948425
","x: 183.15892028808594
y: 514.6912841796875
z: 0.09187591820955276
visibility: 0.9789302945137024
","x: 196.9702606201172
y: 519.9652709960938
z: 0.18884199857711792
visibility: 0.8179932236671448
","x: 184.55929565429688
y: 518.8932495117188
z: 0.10314343869686127
visibility: 0.7996189594268799
","x: 197.1925506591797
y: 541.9989013671875
z: 0.0772441178560257
visibility: 0.9745739698410034
","x: 184.10125732421875
y: 542.2163696289062
z: -0.015528956428170204
visibility: 0.9766356348991394
",,,,,,,,,,,,,,,,,,,,,,,,,,,,,,,,,,,,,,,,,,
15,"x: 184.1007843017578
y: 289.95819091796875
z: -0.23098400235176086
visibility: 0.9994409084320068
","x: 185.92434692382812
y: 283.7334289550781
z: -0.2208886444568634
visibility: 0.9985404014587402
","x: 187.25613403320312
y: 284.02825927734375
z: -0.22091177105903625
visibility: 0.998540997505188
","x: 188.50762939453125
y: 284.4407958984375
z: -0.22094698250293732
visibility: 0.9983220100402832
","x: 182.23391723632812
y: 284.2726745605469
z: -0.21539051830768585
visibility: 0.998383641242981
","x: 181.0120849609375
y: 284.826904296875
z: -0.2154330015182495
visibility: 0.998401403427124
","x: 179.84095764160156
y: 285.37493896484375
z: -0.21547941863536835
visibility: 0.9984090328216553
","x: 191.29066467285156
y: 289.73272705078125
z: -0.1479264497756958
visibility: 0.9975841641426086
","x: 178.65145874023438
y: 290.03656005859375
z: -0.12282685935497284
visibility: 0.9965039491653442
","x: 187.16615295410156
y: 298.58544921875
z: -0.20278581976890564
visibility: 0.9995570182800293
","x: 182.26991271972656
y: 299.15087890625
z: -0.1959262192249298
visibility: 0.9994809031486511
","x: 202.878662109375
y: 321.9398498535156
z: -0.11708804219961166
visibility: 0.999843955039978
","x: 170.84945678710938
y: 327.04827880859375
z: -0.05657145380973816
visibility: 0.9994096159934998
","x: 209.40162658691406
y: 359.839599609375
z: -0.2006923258304596
visibility: 0.976505696773529
","x: 161.95455932617188
y: 369.9169921875
z: -0.12155318260192871
visibility: 0.9397850632667542
","x: 189.88845825195312
y: 338.10009765625
z: -0.33566316962242126
visibility: 0.9713641405105591
","x: 150.8682861328125
y: 348.6095886230469
z: -0.31276050209999084
visibility: 0.9244369864463806
","x: 184.9066925048828
y: 328.683349609375
z: -0.3635626435279846
visibility: 0.947130560874939
","x: 145.0573272705078
y: 339.2880554199219
z: -0.35009244084358215
visibility: 0.89616858959198
","x: 184.04364013671875
y: 323.917236328125
z: -0.36898505687713623
visibility: 0.9468905925750732
","x: 143.52513122558594
y: 336.1842346191406
z: -0.34429872035980225
visibility: 0.8990059494972229
","x: 185.21556091308594
y: 326.8386535644531
z: -0.33395326137542725
visibility: 0.918911337852478
","x: 146.41033935546875
y: 338.96832275390625
z: -0.3164081871509552
visibility: 0.8813967704772949
","x: 198.377197265625
y: 411.743896484375
z: -0.006570253521203995
visibility: 0.9994970560073853
","x: 178.09304809570312
y: 412.9794006347656
z: 0.006461478769779205
visibility: 0.9994592666625977
","x: 198.35105895996094
y: 465.48724365234375
z: -0.04125776141881943
visibility: 0.9885340929031372
","x: 180.39862060546875
y: 471.7043762207031
z: 0.01856863871216774
visibility: 0.9804836511611938
","x: 199.0484161376953
y: 516.9395141601562
z: 0.20237019658088684
visibility: 0.9774479866027832
","x: 182.35922241210938
y: 515.5826416015625
z: 0.25633758306503296
visibility: 0.9772158265113831
","x: 198.33035278320312
y: 520.0599365234375
z: 0.22463290393352509
visibility: 0.8120363354682922
","x: 183.9532470703125
y: 519.0811767578125
z: 0.27741265296936035
visibility: 0.7948678731918335
","x: 197.56146240234375
y: 542.6016845703125
z: 0.1390300840139389
visibility: 0.9731376767158508
","x: 184.32472229003906
y: 542.2344360351562
z: 0.1928926557302475
visibility: 0.9748437404632568
",,,,,,,,,,,,,,,,,,,,,,,,,,,,,,,,,,,,,,,,,,
16,"x: 184.7194061279297
y: 286.74627685546875
z: -0.24675068259239197
visibility: 0.999482274055481
","x: 187.0345001220703
y: 281.2024230957031
z: -0.23861351609230042
visibility: 0.9986644387245178
","x: 188.30088806152344
y: 281.6055908203125
z: -0.2386409342288971
visibility: 0.9986643195152283
","x: 189.53529357910156
y: 282.08197021484375
z: -0.23868687450885773
visibility: 0.9984642267227173
","x: 183.51177978515625
y: 280.7385559082031
z: -0.23237721621990204
visibility: 0.9985057711601257
","x: 182.35853576660156
y: 280.82989501953125
z: -0.23241141438484192
visibility: 0.9985203146934509
","x: 181.24545288085938
y: 280.9566955566406
z: -0.23243765532970428
visibility: 0.9985278248786926
","x: 191.82952880859375
y: 286.78985595703125
z: -0.16332879662513733
visibility: 0.9977916479110718
","x: 179.44960021972656
y: 285.54022216796875
z: -0.13854461908340454
visibility: 0.9967913031578064
","x: 187.32980346679688
y: 294.15899658203125
z: -0.21947011351585388
visibility: 0.9995923042297363
","x: 182.49574279785156
y: 294.1894836425781
z: -0.21184583008289337
visibility: 0.999519944190979
","x: 202.79507446289062
y: 325.31268310546875
z: -0.13819777965545654
visibility: 0.9998465776443481
","x: 170.1922149658203
y: 325.0147705078125
z: -0.06499733030796051
visibility: 0.9994351863861084
","x: 209.26307678222656
y: 362.2720947265625
z: -0.2692839503288269
visibility: 0.976927638053894
","x: 159.870849609375
y: 366.13702392578125
z: -0.12448178231716156
visibility: 0.9446786642074585
","x: 195.61520385742188
y: 327.5301818847656
z: -0.46323123574256897
visibility: 0.9734088182449341
","x: 149.96229553222656
y: 336.0860595703125
z: -0.2953067421913147
visibility: 0.9316412806510925
","x: 196.12802124023438
y: 314.5799865722656
z: -0.5032011866569519
visibility: 0.9506903886795044
","x: 145.4747314453125
y: 324.5597839355469
z: -0.3284294307231903
visibility: 0.905738890171051
","x: 195.8792724609375
y: 310.3573303222656
z: -0.49625977873802185
visibility: 0.9503216743469238
","x: 144.15164184570312
y: 319.35345458984375
z: -0.3308280110359192
visibility: 0.9082697033882141
","x: 194.19992065429688
y: 314.66839599609375
z: -0.4643351435661316
visibility: 0.923847496509552
","x: 146.69947814941406
y: 323.26123046875
z: -0.30003225803375244
visibility: 0.8919867277145386
","x: 197.68670654296875
y: 414.7087097167969
z: -0.010949543677270412
visibility: 0.9995402693748474
","x: 177.41073608398438
y: 416.16455078125
z: 0.01080743595957756
visibility: 0.99949711561203
","x: 197.93658447265625
y: 471.5367126464844
z: -0.04531563073396683
visibility: 0.9884133338928223
","x: 179.62753295898438
y: 474.83538818359375
z: 0.07001738250255585
visibility: 0.9788521528244019
","x: 198.6814727783203
y: 517.6673583984375
z: 0.22245943546295166
visibility: 0.9767432808876038
","x: 181.95101928710938
y: 515.662109375
z: 0.34578967094421387
visibility: 0.9749406576156616
","x: 197.80921936035156
y: 520.3812255859375
z: 0.2469770908355713
visibility: 0.812156617641449
","x: 183.6246337890625
y: 518.962646484375
z: 0.37139052152633667
visibility: 0.7935091257095337
","x: 197.68533325195312
y: 542.6648559570312
z: 0.1575828492641449
visibility: 0.9728665351867676
","x: 183.64276123046875
y: 541.871826171875
z: 0.2864026129245758
visibility: 0.9732741713523865
",,,,,,,,,,,,,,,,,,,,,,,,,,,,,,,,,,,,,,,,,,
17,"x: 187.39419555664062
y: 260.2999267578125
z: -0.2343975305557251
visibility: 0.9994486570358276
","x: 189.83924865722656
y: 255.95465087890625
z: -0.21938717365264893
visibility: 0.9986153244972229
","x: 191.10006713867188
y: 256.839111328125
z: -0.21946647763252258
visibility: 0.9986101388931274
","x: 192.37623596191406
y: 257.7049560546875
z: -0.21950304508209229
visibility: 0.9983810186386108
","x: 186.33828735351562
y: 253.90664672851562
z: -0.22071368992328644
visibility: 0.9984289407730103
","x: 185.12136840820312
y: 253.46678161621094
z: -0.22074547410011292
visibility: 0.9984570741653442
","x: 183.9517822265625
y: 253.1322021484375
z: -0.22079429030418396
visibility: 0.9984570741653442
","x: 193.8690185546875
y: 262.27728271484375
z: -0.11830593645572662
visibility: 0.9975654482841492
","x: 181.37686157226562
y: 256.169921875
z: -0.12591679394245148
visibility: 0.996744692325592
","x: 189.12522888183594
y: 268.02069091796875
z: -0.1962500512599945
visibility: 0.9995725154876709
","x: 184.43133544921875
y: 266.37255859375
z: -0.19853433966636658
visibility: 0.9995198845863342
","x: 202.3155517578125
y: 300.3358154296875
z: -0.06105278059840202
visibility: 0.9997997879981995
","x: 168.25723266601562
y: 297.16571044921875
z: -0.057094771414995193
visibility: 0.9994205236434937
","x: 209.18231201171875
y: 336.275146484375
z: -0.14343944191932678
visibility: 0.9655117392539978
","x: 159.60459899902344
y: 341.4086608886719
z: -0.11554157733917236
visibility: 0.9426048994064331
","x: 202.96717834472656
y: 330.1468200683594
z: -0.36498644948005676
visibility: 0.960902988910675
","x: 149.49656677246094
y: 334.4229431152344
z: -0.30545443296432495
visibility: 0.9339216351509094
","x: 203.95408630371094
y: 331.312744140625
z: -0.4167393743991852
visibility: 0.9376572370529175
","x: 144.94244384765625
y: 331.1083679199219
z: -0.34755855798721313
visibility: 0.9098262190818787
","x: 200.88803100585938
y: 325.7760009765625
z: -0.43861931562423706
visibility: 0.9379047155380249
","x: 144.6110076904297
y: 326.1358947753906
z: -0.36235085129737854
visibility: 0.9125546813011169
","x: 199.16732788085938
y: 325.22576904296875
z: -0.37752166390419006
visibility: 0.9085128307342529
","x: 146.56993103027344
y: 326.5787353515625
z: -0.31611528992652893
visibility: 0.8960279226303101
","x: 191.47760009765625
y: 391.972412109375
z: 0.0019304140005260706
visibility: 0.9995249509811401
","x: 171.5572509765625
y: 389.51904296875
z: -0.0020503653213381767
visibility: 0.9994462132453918
","x: 194.28207397460938
y: 458.66412353515625
z: -0.01434201467782259
visibility: 0.9873062372207642
","x: 175.41294860839844
y: 458.6089782714844
z: 0.003307339269667864
visibility: 0.9772041440010071
","x: 198.16351318359375
y: 517.6766357421875
z: 0.18722565472126007
visibility: 0.976912260055542
","x: 179.09518432617188
y: 515.2012939453125
z: 0.28138965368270874
visibility: 0.9743793606758118
","x: 197.07366943359375
y: 521.986328125
z: 0.193487286567688
visibility: 0.8078812956809998
","x: 179.9794158935547
y: 519.328125
z: 0.2669810354709625
visibility: 0.7868364453315735
","x: 197.39364624023438
y: 541.9217529296875
z: 0.07776372134685516
visibility: 0.9733017086982727
","x: 183.10963439941406
y: 539.9559936523438
z: 0.12365816533565521
visibility: 0.9729135036468506
",,,,,,,,,,,,,,,,,,,,,,,,,,,,,,,,,,,,,,,,,,
18,"x: 187.0854949951172
y: 248.06964111328125
z: -0.27167853713035583
visibility: 0.9995034337043762
","x: 189.8507843017578
y: 244.61483764648438
z: -0.25116002559661865
visibility: 0.9987525343894958
","x: 191.02972412109375
y: 245.66836547851562
z: -0.25115031003952026
visibility: 0.9987478256225586
","x: 192.25804138183594
y: 246.88876342773438
z: -0.2511445879936218
visibility: 0.9985412359237671
","x: 186.65316772460938
y: 242.0484161376953
z: -0.2565898001194
visibility: 0.9985843896865845
","x: 185.5033721923828
y: 241.33787536621094
z: -0.2566068768501282
visibility: 0.9986096620559692
","x: 184.33253479003906
y: 240.63739013671875
z: -0.25662416219711304
visibility: 0.9986093640327454
","x: 193.9650421142578
y: 252.4870147705078
z: -0.1404101550579071
visibility: 0.9978067874908447
","x: 182.1554718017578
y: 242.72113037109375
z: -0.15385326743125916
visibility: 0.9970672726631165
","x: 188.74400329589844
y: 256.582275390625
z: -0.22077730298042297
visibility: 0.9996145963668823
","x: 183.96786499023438
y: 253.6109161376953
z: -0.23203404247760773
visibility: 0.9995672702789307
","x: 200.18115234375
y: 286.602783203125
z: -0.07636715471744537
visibility: 0.9998193383216858
","x: 167.0046844482422
y: 278.5254821777344
z: -0.0674457997083664
visibility: 0.9994726777076721
","x: 205.6453399658203
y: 331.1621398925781
z: -0.08524073660373688
visibility: 0.9674603343009949
","x: 152.13380432128906
y: 311.960205078125
z: -0.14092424511909485
visibility: 0.9421414732933044
","x: 210.30706787109375
y: 356.10357666015625
z: -0.23045015335083008
visibility: 0.9635069370269775
","x: 152.48780822753906
y: 335.38311767578125
z: -0.3441484272480011
visibility: 0.9352365136146545
","x: 214.37484741210938
y: 365.7780456542969
z: -0.26422321796417236
visibility: 0.9416702389717102
","x: 151.66416931152344
y: 336.89007568359375
z: -0.38588854670524597
visibility: 0.9111407995223999
","x: 214.37228393554688
y: 365.42657470703125
z: -0.29115885496139526
visibility: 0.9421612620353699
","x: 155.07113647460938
y: 333.1604309082031
z: -0.404569536447525
visibility: 0.9142770767211914
","x: 212.45887756347656
y: 362.481201171875
z: -0.244247704744339
visibility: 0.9148793816566467
","x: 155.66458129882812
y: 333.6839294433594
z: -0.35620439052581787
visibility: 0.8973498344421387
","x: 187.3344268798828
y: 375.009521484375
z: -0.004361639264971018
visibility: 0.9995684027671814
","x: 167.76502990722656
y: 372.6890563964844
z: 0.00426336657255888
visibility: 0.9994909167289734
","x: 183.21388244628906
y: 438.76611328125
z: -0.1167856901884079
visibility: 0.98808354139328
","x: 166.5121307373047
y: 440.3219299316406
z: -0.056159596890211105
visibility: 0.9773012399673462
","x: 185.69883728027344
y: 510.41546630859375
z: 0.02533761039376259
visibility: 0.9786868095397949
","x: 168.64170837402344
y: 509.0146179199219
z: 0.11733633279800415
visibility: 0.9756578207015991
","x: 186.80482482910156
y: 517.9082641601562
z: 0.0330207496881485
visibility: 0.8115772008895874
","x: 171.303955078125
y: 515.2171630859375
z: 0.12616974115371704
visibility: 0.7965823411941528
","x: 180.27639770507812
y: 536.8624267578125
z: -0.09042778611183167
visibility: 0.9753657579421997
","x: 169.56912231445312
y: 535.49169921875
z: 0.011493510566651821
visibility: 0.9743493795394897
",,,,,,,,,,,,,,,,,,,,,,,,,,,,,,,,,,,,,,,,,,
19,"x: 186.72650146484375
y: 270.4556884765625
z: -0.27115553617477417
visibility: 0.9995363354682922
","x: 189.35931396484375
y: 266.12506103515625
z: -0.25207486748695374
visibility: 0.9988468289375305
","x: 190.67567443847656
y: 267.32958984375
z: -0.2520611882209778
visibility: 0.9988399744033813
","x: 191.95257568359375
y: 268.5706787109375
z: -0.25207799673080444
visibility: 0.9986498951911926
","x: 185.8938446044922
y: 263.1786804199219
z: -0.25700703263282776
visibility: 0.9986853003501892
","x: 184.76153564453125
y: 262.2293395996094
z: -0.2570193409919739
visibility: 0.9987075924873352
","x: 183.61856079101562
y: 261.0997619628906
z: -0.2570432722568512
visibility: 0.9987098574638367
","x: 193.20925903320312
y: 275.1416320800781
z: -0.14764918386936188
visibility: 0.9979622960090637
","x: 181.6131591796875
y: 262.6150817871094
z: -0.16151538491249084
visibility: 0.9973106980323792
","x: 187.4930877685547
y: 279.228271484375
z: -0.22267434000968933
visibility: 0.9996378421783447
","x: 183.92269897460938
y: 276.5582580566406
z: -0.23312132060527802
visibility: 0.9996004700660706
","x: 197.56036376953125
y: 311.5536193847656
z: -0.08890192955732346
visibility: 0.9998181462287903
","x: 162.84471130371094
y: 294.4835510253906
z: -0.11159193515777588
visibility: 0.9994999170303345
","x: 203.3579864501953
y: 343.93817138671875
z: -0.17020151019096375
visibility: 0.9607594609260559
","x: 146.89425659179688
y: 327.5011901855469
z: -0.23017875850200653
visibility: 0.9470014572143555
","x: 212.8746337890625
y: 354.18408203125
z: -0.37704041600227356
visibility: 0.9600504040718079
","x: 166.60984802246094
y: 328.65771484375
z: -0.4073704779148102
visibility: 0.9397151470184326
","x: 217.39730834960938
y: 360.802734375
z: -0.4219301640987396
visibility: 0.9368597269058228
","x: 169.5155029296875
y: 329.6481018066406
z: -0.4517962336540222
visibility: 0.9151543974876404
","x: 216.45062255859375
y: 358.53948974609375
z: -0.4301688075065613
visibility: 0.9375255703926086
","x: 172.55816650390625
y: 323.9688720703125
z: -0.442905992269516
visibility: 0.9175581336021423
","x: 214.2499237060547
y: 356.0276794433594
z: -0.3867848813533783
visibility: 0.9105955362319946
","x: 170.8316192626953
y: 325.35186767578125
z: -0.40788716077804565
visibility: 0.899608850479126
","x: 182.83486938476562
y: 395.781494140625
z: 0.0008543363073840737
visibility: 0.9995834827423096
","x: 162.4224853515625
y: 391.138916015625
z: -0.0009184671798720956
visibility: 0.9995003342628479
","x: 177.00796508789062
y: 459.98944091796875
z: 0.043474044650793076
visibility: 0.9878256916999817
","x: 158.3481903076172
y: 452.4217224121094
z: 0.05540356785058975
visibility: 0.9783434271812439
","x: 175.41738891601562
y: 511.69580078125
z: 0.30054739117622375
visibility: 0.978335440158844
","x: 160.11146545410156
y: 512.4041748046875
z: 0.29266291856765747
visibility: 0.9762904047966003
","x: 174.01361083984375
y: 517.3065795898438
z: 0.32323792576789856
visibility: 0.8136876225471497
","x: 161.3805389404297
y: 516.6566162109375
z: 0.313483864068985
visibility: 0.7983556985855103
","x: 174.07980346679688
y: 537.4213256835938
z: 0.23459410667419434
visibility: 0.9755769968032837
","x: 162.99070739746094
y: 538.2425537109375
z: 0.21531426906585693
visibility: 0.9749196767807007
",,,,,,,,,,,,,,,,,,,,,,,,,,,,,,,,,,,,,,,,,,
20,"x: 184.51611328125
y: 288.890625
z: -0.2913365364074707
visibility: 0.999579906463623
","x: 187.0074462890625
y: 283.4268798828125
z: -0.2751083970069885
visibility: 0.9989576935768127
","x: 188.2662353515625
y: 284.1776123046875
z: -0.27509623765945435
visibility: 0.9989510178565979
","x: 189.5034637451172
y: 284.994384765625
z: -0.2751511037349701
visibility: 0.9987801313400269
","x: 183.54283142089844
y: 282.28619384765625
z: -0.2774774134159088
visibility: 0.9988090395927429
","x: 182.4439697265625
y: 282.23919677734375
z: -0.27749624848365784
visibility: 0.998828113079071
","x: 181.30267333984375
y: 282.2397155761719
z: -0.27751588821411133
visibility: 0.9988303780555725
","x: 191.635986328125
y: 290.3970642089844
z: -0.1718124896287918
visibility: 0.9981588125228882
","x: 178.83367919921875
y: 286.56011962890625
z: -0.18340829014778137
visibility: 0.9975669384002686
","x: 186.2370147705078
y: 297.3667297363281
z: -0.2508234977722168
visibility: 0.9996720552444458
","x: 181.80372619628906
y: 296.2951965332031
z: -0.2553805112838745
visibility: 0.999638020992279
","x: 198.0521697998047
y: 329.0037841796875
z: -0.10014194250106812
visibility: 0.9998311400413513
","x: 163.3818359375
y: 318.3224792480469
z: -0.13481903076171875
visibility: 0.9995127320289612
","x: 210.2336883544922
y: 366.44873046875
z: -0.21754983067512512
visibility: 0.9640573859214783
","x: 147.62100219726562
y: 338.74090576171875
z: -0.2648804783821106
visibility: 0.9515167474746704
","x: 212.14927673339844
y: 339.2454528808594
z: -0.40128111839294434
visibility: 0.9635004997253418
","x: 161.6973876953125
y: 323.91766357421875
z: -0.4465658664703369
visibility: 0.943905770778656
","x: 214.9092559814453
y: 329.7035217285156
z: -0.4391712248325348
visibility: 0.9410929679870605
","x: 163.74301147460938
y: 318.3927001953125
z: -0.4885542392730713
visibility: 0.9179069995880127
","x: 213.5264892578125
y: 326.3949279785156
z: -0.43062907457351685
visibility: 0.9415236115455627
","x: 166.0786590576172
y: 315.71771240234375
z: -0.474606990814209
visibility: 0.919156551361084
","x: 211.59458923339844
y: 330.44268798828125
z: -0.4025666117668152
visibility: 0.9161846041679382
","x: 165.76956176757812
y: 319.21002197265625
z: -0.4460233747959137
visibility: 0.8999850749969482
","x: 182.60401916503906
y: 414.2985534667969
z: 0.0040559833869338036
visibility: 0.9996129274368286
","x: 161.90550231933594
y: 408.46478271484375
z: -0.004145167768001556
visibility: 0.9995258450508118
","x: 173.5841064453125
y: 472.5808410644531
z: 0.050717126578092575
visibility: 0.9865366816520691
","x: 157.97824096679688
y: 462.3196105957031
z: 0.04627194255590439
visibility: 0.9784418940544128
","x: 173.16836547851562
y: 515.295654296875
z: 0.3143375515937805
visibility: 0.9759407639503479
","x: 160.04588317871094
y: 515.1726684570312
z: 0.2899985909461975
visibility: 0.9754408597946167
","x: 172.03733825683594
y: 518.6362915039062
z: 0.33773544430732727
visibility: 0.8122049570083618
","x: 160.89602661132812
y: 518.4136352539062
z: 0.3115241527557373
visibility: 0.7960566282272339
","x: 173.2175750732422
y: 538.7299194335938
z: 0.24490031599998474
visibility: 0.9743062853813171
","x: 161.91539001464844
y: 539.7429809570312
z: 0.21065863966941833
visibility: 0.9743834733963013
",,,,,,,,,,,,,,,,,,,,,,,,,,,,,,,,,,,,,,,,,,
21,"x: 184.01541137695312
y: 272.7127380371094
z: -0.22404825687408447
visibility: 0.999616801738739
","x: 186.31117248535156
y: 267.0464172363281
z: -0.20901775360107422
visibility: 0.9990502595901489
","x: 187.6287841796875
y: 267.4957580566406
z: -0.20902693271636963
visibility: 0.9990445375442505
","x: 188.85528564453125
y: 268.012451171875
z: -0.20905986428260803
visibility: 0.998887836933136
","x: 182.67587280273438
y: 266.7233581542969
z: -0.20624402165412903
visibility: 0.9989111423492432
","x: 181.48187255859375
y: 266.9631042480469
z: -0.20627090334892273
visibility: 0.9989287853240967
","x: 180.29888916015625
y: 267.37554931640625
z: -0.20629993081092834
visibility: 0.9989296197891235
","x: 190.84173583984375
y: 272.9729309082031
z: -0.11909105628728867
visibility: 0.9983282089233398
","x: 177.7337646484375
y: 272.26495361328125
z: -0.10674072802066803
visibility: 0.9977849125862122
","x: 186.13421630859375
y: 281.2738952636719
z: -0.19030722975730896
visibility: 0.9997026324272156
","x: 181.3851318359375
y: 281.0575256347656
z: -0.1870313137769699
visibility: 0.9996713995933533
","x: 198.1658935546875
y: 317.80279541015625
z: -0.07162325084209442
visibility: 0.999845027923584
","x: 162.93283081054688
y: 310.4830322265625
z: -0.058904241770505905
visibility: 0.9995499849319458
","x: 210.41827392578125
y: 361.3041687011719
z: -0.18627159297466278
visibility: 0.9667182564735413
","x: 147.19970703125
y: 339.9178466796875
z: -0.21279987692832947
visibility: 0.9557998180389404
","x: 209.15858459472656
y: 334.0597839355469
z: -0.3769160807132721
visibility: 0.966451108455658
","x: 159.33692932128906
y: 327.55145263671875
z: -0.37865015864372253
visibility: 0.9486584067344666
","x: 210.65863037109375
y: 325.27203369140625
z: -0.4150868058204651
visibility: 0.9452740550041199
","x: 160.68382263183594
y: 322.927490234375
z: -0.42072492837905884
visibility: 0.9238150119781494
","x: 209.36534118652344
y: 320.492919921875
z: -0.4256798326969147
visibility: 0.9456003904342651
","x: 162.3489532470703
y: 317.02197265625
z: -0.41275501251220703
visibility: 0.9247012734413147
","x: 207.94284057617188
y: 323.53076171875
z: -0.3850485384464264
visibility: 0.921664834022522
","x: 162.41835021972656
y: 319.8206787109375
z: -0.4117400050163269
visibility: 0.9060483574867249
","x: 185.04640197753906
y: 408.2490539550781
z: 0.0023153771180659533
visibility: 0.9996428489685059
","x: 164.505615234375
y: 400.6139831542969
z: -0.002414804883301258
visibility: 0.9995561242103577
","x: 179.66746520996094
y: 464.8341369628906
z: -0.144110769033432
visibility: 0.9873415231704712
","x: 161.88372802734375
y: 460.018798828125
z: -0.06636485457420349
visibility: 0.9790686964988708
","x: 176.25790405273438
y: 514.2530517578125
z: 0.09220372885465622
visibility: 0.9770274758338928
","x: 162.80718994140625
y: 513.66259765625
z: 0.15385039150714874
visibility: 0.976068913936615
","x: 175.1968536376953
y: 517.486572265625
z: 0.1121881753206253
visibility: 0.8204394578933716
","x: 163.8670654296875
y: 517.2913208007812
z: 0.17170363664627075
visibility: 0.7993608713150024
","x: 173.40081787109375
y: 539.048828125
z: 0.009414006024599075
visibility: 0.9754350781440735
","x: 162.87057495117188
y: 539.801025390625
z: 0.06810285151004791
visibility: 0.9747650027275085
","x: 158.7343292236328
y: 329.38055419921875
z: 0.0
","x: 161.4943389892578
y: 330.1599426269531
z: -0.0027841695118695498
","x: 164.2344970703125
y: 327.83642578125
z: -0.004209301900118589
","x: 166.5094757080078
y: 326.9153137207031
z: -0.0057762134820222855
","x: 168.5845489501953
y: 327.2375793457031
z: -0.00733109749853611
","x: 162.72216796875
y: 316.3595886230469
z: -0.0008357894839718938
","x: 163.35079956054688
y: 310.97357177734375
z: -0.002824157476425171
","x: 163.4688262939453
y: 307.78717041015625
z: -0.004164175596088171
","x: 163.58572387695312
y: 305.439697265625
z: -0.004808223806321621
","x: 160.61607360839844
y: 314.3566589355469
z: -0.0010600411333143711
","x: 160.60848999023438
y: 308.14666748046875
z: -0.0024575991556048393
","x: 160.86270141601562
y: 304.3302307128906
z: -0.0031914440914988518
","x: 161.141845703125
y: 301.1834411621094
z: -0.0036353105679154396
","x: 158.52259826660156
y: 313.7872619628906
z: -0.001968319760635495
","x: 158.38864135742188
y: 307.7082824707031
z: -0.0038784502539783716
","x: 158.8084259033203
y: 303.8858337402344
z: -0.0047800359316170216
","x: 159.24012756347656
y: 300.877197265625
z: -0.0051450361497700214
","x: 156.52713012695312
y: 314.485595703125
z: -0.003337535308673978
","x: 156.23448181152344
y: 309.4425048828125
z: -0.005048342980444431
","x: 156.40802001953125
y: 306.3168029785156
z: -0.005819897633045912
","x: 156.80990600585938
y: 303.96710205078125
z: -0.006145469844341278
","x: 205.8636932373047
y: 330.46728515625
z: 0.0
","x: 203.7375030517578
y: 327.0379333496094
z: -0.0039161196909844875
","x: 202.77125549316406
y: 322.09381103515625
z: -0.0066849044524133205
","x: 202.56272888183594
y: 317.941162109375
z: -0.009345832280814648
","x: 202.5224151611328
y: 314.4274597167969
z: -0.012077650055289268
","x: 208.6073455810547
y: 315.7379455566406
z: -0.003921011462807655
","x: 210.42393493652344
y: 309.5059814453125
z: -0.00673679867759347
","x: 211.8687744140625
y: 305.3316955566406
z: -0.009042980149388313
","x: 213.17788696289062
y: 302.2643737792969
z: -0.010635660961270332
","x: 210.6880340576172
y: 317.3678894042969
z: -0.004095762502402067
","x: 212.87631225585938
y: 311.65411376953125
z: -0.00669042719528079
","x: 214.57461547851562
y: 307.8467712402344
z: -0.008747197687625885
","x: 216.10302734375
y: 305.0567321777344
z: -0.010234254412353039
","x: 212.1558074951172
y: 320.05938720703125
z: -0.004735355265438557
","x: 214.42840576171875
y: 315.0655822753906
z: -0.007527028676122427
","x: 215.96676635742188
y: 311.827880859375
z: -0.009284298866987228
","x: 217.18260192871094
y: 309.62030029296875
z: -0.010402427986264229
","x: 213.20216369628906
y: 323.7840270996094
z: -0.005815840791910887
","x: 215.5890655517578
y: 320.47735595703125
z: -0.008230195380747318
","x: 217.04263305664062
y: 318.294189453125
z: -0.00948919914662838
","x: 218.1686248779297
y: 316.77899169921875
z: -0.010270331986248493
"
22,"x: 184.01541137695312
y: 272.7127380371094
z: -0.22404825687408447
visibility: 0.999616801738739
","x: 186.31117248535156
y: 267.0464172363281
z: -0.20901775360107422
visibility: 0.9990502595901489
","x: 187.6287841796875
y: 267.4957580566406
z: -0.20902693271636963
visibility: 0.9990445375442505
","x: 188.85528564453125
y: 268.012451171875
z: -0.20905986428260803
visibility: 0.998887836933136
","x: 182.67587280273438
y: 266.7233581542969
z: -0.20624402165412903
visibility: 0.9989111423492432
","x: 181.48187255859375
y: 266.9631042480469
z: -0.20627090334892273
visibility: 0.9989287853240967
","x: 180.29888916015625
y: 267.37554931640625
z: -0.20629993081092834
visibility: 0.9989296197891235
","x: 190.84173583984375
y: 272.9729309082031
z: -0.11909105628728867
visibility: 0.9983282089233398
","x: 177.7337646484375
y: 272.26495361328125
z: -0.10674072802066803
visibility: 0.9977849125862122
","x: 186.13421630859375
y: 281.2738952636719
z: -0.19030722975730896
visibility: 0.9997026324272156
","x: 181.3851318359375
y: 281.0575256347656
z: -0.1870313137769699
visibility: 0.9996713995933533
","x: 198.1658935546875
y: 317.80279541015625
z: -0.07162325084209442
visibility: 0.999845027923584
","x: 162.93283081054688
y: 310.4830322265625
z: -0.058904241770505905
visibility: 0.9995499849319458
","x: 210.41827392578125
y: 361.3041687011719
z: -0.18627159297466278
visibility: 0.9667182564735413
","x: 147.19970703125
y: 339.9178466796875
z: -0.21279987692832947
visibility: 0.9557998180389404
","x: 209.15858459472656
y: 334.0597839355469
z: -0.3769160807132721
visibility: 0.966451108455658
","x: 159.33692932128906
y: 327.55145263671875
z: -0.37865015864372253
visibility: 0.9486584067344666
","x: 210.65863037109375
y: 325.27203369140625
z: -0.4150868058204651
visibility: 0.9452740550041199
","x: 160.68382263183594
y: 322.927490234375
z: -0.42072492837905884
visibility: 0.9238150119781494
","x: 209.36534118652344
y: 320.492919921875
z: -0.4256798326969147
visibility: 0.9456003904342651
","x: 162.3489532470703
y: 317.02197265625
z: -0.41275501251220703
visibility: 0.9247012734413147
","x: 207.94284057617188
y: 323.53076171875
z: -0.3850485384464264
visibility: 0.921664834022522
","x: 162.41835021972656
y: 319.8206787109375
z: -0.4117400050163269
visibility: 0.9060483574867249
","x: 185.04640197753906
y: 408.2490539550781
z: 0.0023153771180659533
visibility: 0.9996428489685059
","x: 164.505615234375
y: 400.6139831542969
z: -0.002414804883301258
visibility: 0.9995561242103577
","x: 179.66746520996094
y: 464.8341369628906
z: -0.144110769033432
visibility: 0.9873415231704712
","x: 161.88372802734375
y: 460.018798828125
z: -0.06636485457420349
visibility: 0.9790686964988708
","x: 176.25790405273438
y: 514.2530517578125
z: 0.09220372885465622
visibility: 0.9770274758338928
","x: 162.80718994140625
y: 513.66259765625
z: 0.15385039150714874
visibility: 0.976068913936615
","x: 175.1968536376953
y: 517.486572265625
z: 0.1121881753206253
visibility: 0.8204394578933716
","x: 163.8670654296875
y: 517.2913208007812
z: 0.17170363664627075
visibility: 0.7993608713150024
","x: 173.40081787109375
y: 539.048828125
z: 0.009414006024599075
visibility: 0.9754350781440735
","x: 162.87057495117188
y: 539.801025390625
z: 0.06810285151004791
visibility: 0.9747650027275085
","x: 158.7343292236328
y: 329.38055419921875
z: 0.0
","x: 161.4943389892578
y: 330.1599426269531
z: -0.0027841695118695498
","x: 164.2344970703125
y: 327.83642578125
z: -0.004209301900118589
","x: 166.5094757080078
y: 326.9153137207031
z: -0.0057762134820222855
","x: 168.5845489501953
y: 327.2375793457031
z: -0.00733109749853611
","x: 162.72216796875
y: 316.3595886230469
z: -0.0008357894839718938
","x: 163.35079956054688
y: 310.97357177734375
z: -0.002824157476425171
","x: 163.4688262939453
y: 307.78717041015625
z: -0.004164175596088171
","x: 163.58572387695312
y: 305.439697265625
z: -0.004808223806321621
","x: 160.61607360839844
y: 314.3566589355469
z: -0.0010600411333143711
","x: 160.60848999023438
y: 308.14666748046875
z: -0.0024575991556048393
","x: 160.86270141601562
y: 304.3302307128906
z: -0.0031914440914988518
","x: 161.141845703125
y: 301.1834411621094
z: -0.0036353105679154396
","x: 158.52259826660156
y: 313.7872619628906
z: -0.001968319760635495
","x: 158.38864135742188
y: 307.7082824707031
z: -0.0038784502539783716
","x: 158.8084259033203
y: 303.8858337402344
z: -0.0047800359316170216
","x: 159.24012756347656
y: 300.877197265625
z: -0.0051450361497700214
","x: 156.52713012695312
y: 314.485595703125
z: -0.003337535308673978
","x: 156.23448181152344
y: 309.4425048828125
z: -0.005048342980444431
","x: 156.40802001953125
y: 306.3168029785156
z: -0.005819897633045912
","x: 156.80990600585938
y: 303.96710205078125
z: -0.006145469844341278
","x: 205.8636932373047
y: 330.46728515625
z: 0.0
","x: 203.7375030517578
y: 327.0379333496094
z: -0.0039161196909844875
","x: 202.77125549316406
y: 322.09381103515625
z: -0.0066849044524133205
","x: 202.56272888183594
y: 317.941162109375
z: -0.009345832280814648
","x: 202.5224151611328
y: 314.4274597167969
z: -0.012077650055289268
","x: 208.6073455810547
y: 315.7379455566406
z: -0.003921011462807655
","x: 210.42393493652344
y: 309.5059814453125
z: -0.00673679867759347
","x: 211.8687744140625
y: 305.3316955566406
z: -0.009042980149388313
","x: 213.17788696289062
y: 302.2643737792969
z: -0.010635660961270332
","x: 210.6880340576172
y: 317.3678894042969
z: -0.004095762502402067
","x: 212.87631225585938
y: 311.65411376953125
z: -0.00669042719528079
","x: 214.57461547851562
y: 307.8467712402344
z: -0.008747197687625885
","x: 216.10302734375
y: 305.0567321777344
z: -0.010234254412353039
","x: 212.1558074951172
y: 320.05938720703125
z: -0.004735355265438557
","x: 214.42840576171875
y: 315.0655822753906
z: -0.007527028676122427
","x: 215.96676635742188
y: 311.827880859375
z: -0.009284298866987228
","x: 217.18260192871094
y: 309.62030029296875
z: -0.010402427986264229
","x: 213.20216369628906
y: 323.7840270996094
z: -0.005815840791910887
","x: 215.5890655517578
y: 320.47735595703125
z: -0.008230195380747318
","x: 217.04263305664062
y: 318.294189453125
z: -0.00948919914662838
","x: 218.1686248779297
y: 316.77899169921875
z: -0.010270331986248493
"
23,"x: 184.01541137695312
y: 272.7127380371094
z: -0.22404825687408447
visibility: 0.999616801738739
","x: 186.31117248535156
y: 267.0464172363281
z: -0.20901775360107422
visibility: 0.9990502595901489
","x: 187.6287841796875
y: 267.4957580566406
z: -0.20902693271636963
visibility: 0.9990445375442505
","x: 188.85528564453125
y: 268.012451171875
z: -0.20905986428260803
visibility: 0.998887836933136
","x: 182.67587280273438
y: 266.7233581542969
z: -0.20624402165412903
visibility: 0.9989111423492432
","x: 181.48187255859375
y: 266.9631042480469
z: -0.20627090334892273
visibility: 0.9989287853240967
","x: 180.29888916015625
y: 267.37554931640625
z: -0.20629993081092834
visibility: 0.9989296197891235
","x: 190.84173583984375
y: 272.9729309082031
z: -0.11909105628728867
visibility: 0.9983282089233398
","x: 177.7337646484375
y: 272.26495361328125
z: -0.10674072802066803
visibility: 0.9977849125862122
","x: 186.13421630859375
y: 281.2738952636719
z: -0.19030722975730896
visibility: 0.9997026324272156
","x: 181.3851318359375
y: 281.0575256347656
z: -0.1870313137769699
visibility: 0.9996713995933533
","x: 198.1658935546875
y: 317.80279541015625
z: -0.07162325084209442
visibility: 0.999845027923584
","x: 162.93283081054688
y: 310.4830322265625
z: -0.058904241770505905
visibility: 0.9995499849319458
","x: 210.41827392578125
y: 361.3041687011719
z: -0.18627159297466278
visibility: 0.9667182564735413
","x: 147.19970703125
y: 339.9178466796875
z: -0.21279987692832947
visibility: 0.9557998180389404
","x: 209.15858459472656
y: 334.0597839355469
z: -0.3769160807132721
visibility: 0.966451108455658
","x: 159.33692932128906
y: 327.55145263671875
z: -0.37865015864372253
visibility: 0.9486584067344666
","x: 210.65863037109375
y: 325.27203369140625
z: -0.4150868058204651
visibility: 0.9452740550041199
","x: 160.68382263183594
y: 322.927490234375
z: -0.42072492837905884
visibility: 0.9238150119781494
","x: 209.36534118652344
