uscmakers/ReverseChoreography/data/6_lite_spots_kaytranada.csv
,NOSE,LEFT_EYE_INNER,LEFT_EYE,LEFT_EYE_OUTER,RIGHT_EYE_INNER,RIGHT_EYE,RIGHT_EYE_OUTER,LEFT_EAR,RIGHT_EAR,MOUTH_LEFT,MOUTH_RIGHT,LEFT_SHOULDER,RIGHT_SHOULDER,LEFT_ELBOW,RIGHT_ELBOW,LEFT_WRIST,RIGHT_WRIST,LEFT_PINKY,RIGHT_PINKY,LEFT_INDEX,RIGHT_INDEX,LEFT_THUMB,RIGHT_THUMB,LEFT_HIP,RIGHT_HIP,LEFT_KNEE,RIGHT_KNEE,LEFT_ANKLE,RIGHT_ANKLE,LEFT_HEEL,RIGHT_HEEL,LEFT_FOOT_INDEX,RIGHT_FOOT_INDEX,WRIST,THUMB_CPC,THUMB_MCP,THUMB_IP,THUMB_TIP,INDEX_FINGER_MCP,INDEX_FINGER_PIP,INDEX_FINGER_DIP,INDEX_FINGER_TIP,MIDDLE_FINGER_MCP,MIDDLE_FINGER_PIP,MIDDLE_FINGER_DIP,MIDDLE_FINGER_TIP,RING_FINGER_PIP,RING_FINGER_DIP,RING_FINGER_TIP,RING_FINGER_MCP,PINKY_MCP,PINKY_PIP,PINKY_DIP,PINKY_TIP,WRIST2,THUMB_CPC2,THUMB_MCP2,THUMB_IP2,THUMB_TIP2,INDEX_FINGER_MCP2,INDEX_FINGER_PIP2,INDEX_FINGER_DIP2,INDEX_FINGER_TIP2,MIDDLE_FINGER_MCP2,MIDDLE_FINGER_PIP2,MIDDLE_FINGER_DIP2,MIDDLE_FINGER_TIP2,RING_FINGER_PIP2,RING_FINGER_DIP2,RING_FINGER_TIP2,RING_FINGER_MCP2,PINKY_MCP2,PINKY_PIP2,PINKY_DIP2,PINKY_TIP2
0,"x: 191.12771606445312
y: 285.65625
z: -0.25166556239128113
visibility: 0.9956549406051636
","x: 193.03074645996094
y: 278.2001037597656
z: -0.24649198353290558
visibility: 0.9975183010101318
","x: 194.44186401367188
y: 277.06561279296875
z: -0.24652943015098572
visibility: 0.9974727034568787
","x: 195.82237243652344
y: 276.386474609375
z: -0.24659840762615204
visibility: 0.997549831867218
","x: 189.31532287597656
y: 279.78839111328125
z: -0.2415604293346405
visibility: 0.9964553117752075
","x: 188.08750915527344
y: 280.3284912109375
z: -0.24159422516822815
visibility: 0.9946106672286987
","x: 187.13072204589844
y: 280.6146545410156
z: -0.2416113317012787
visibility: 0.9943488240242004
","x: 197.9918670654297
y: 276.0250244140625
z: -0.18646329641342163
visibility: 0.9967136383056641
","x: 186.96438598632812
y: 281.1529846191406
z: -0.16089347004890442
visibility: 0.9966310858726501
","x: 194.698974609375
y: 291.0318603515625
z: -0.2261534482240677
visibility: 0.9963447451591492
","x: 189.65464782714844
y: 291.552490234375
z: -0.21916408836841583
visibility: 0.992865800857544
","x: 209.69309997558594
y: 320.3747253417969
z: -0.1306435614824295
visibility: 0.9999573230743408
","x: 182.63658142089844
y: 306.89410400390625
z: -0.1172013133764267
visibility: 0.9996821880340576
","x: 218.4920654296875
y: 340.26776123046875
z: -0.27109479904174805
visibility: 0.7910091876983643
","x: 174.90122985839844
y: 333.5562744140625
z: -0.14133231341838837
visibility: 0.4236476719379425
","x: 217.12310791015625
y: 326.6038513183594
z: -0.3809814453125
visibility: 0.641531229019165
","x: 179.84800720214844
y: 336.30377197265625
z: -0.17028163373470306
visibility: 0.3791058361530304
","x: 217.13528442382812
y: 323.4701843261719
z: -0.40560540556907654
visibility: 0.5009452104568481
","x: 180.6417999267578
y: 337.3642578125
z: -0.18122820556163788
visibility: 0.3356998562812805
","x: 216.23023986816406
y: 315.653564453125
z: -0.3945722281932831
visibility: 0.47195684909820557
","x: 181.0550994873047
y: 335.1375732421875
z: -0.18137983977794647
visibility: 0.30484333634376526
","x: 215.50709533691406
y: 318.2046813964844
z: -0.3793550133705139
visibility: 0.3740556836128235
","x: 181.1113739013672
y: 335.4913024902344
z: -0.1703883856534958
visibility: 0.2939288914203644
","x: 187.6474151611328
y: 370.6429748535156
z: -0.007937946356832981
visibility: 0.9999223947525024
","x: 171.5911407470703
y: 353.17620849609375
z: 0.007915214635431767
visibility: 0.9998712539672852
","x: 189.67440795898438
y: 433.2412109375
z: -0.15245503187179565
visibility: 0.7794443964958191
","x: 162.78155517578125
y: 358.7886047363281
z: -0.20245185494422913
visibility: 0.7217429876327515
","x: 200.53245544433594
y: 509.6685791015625
z: -0.14665719866752625
visibility: 0.8538563251495361
","x: 148.55543518066406
y: 405.88861083984375
z: -0.1292279213666916
visibility: 0.8206773996353149
","x: 198.825439453125
y: 520.869140625
z: -0.1493230015039444
visibility: 0.7239323258399963
","x: 148.18504333496094
y: 416.6804504394531
z: -0.12325726449489594
visibility: 0.7188025712966919
","x: 207.8727264404297
y: 530.9334716796875
z: -0.24157002568244934
visibility: 0.8533904552459717
","x: 138.7425079345703
y: 412.5609130859375
z: -0.2001873254776001
visibility: 0.8385803699493408
",,,,,,,,,,,,,,,,,,,,,,,,,,,,,,,,,,,,,,,,,,
1,"x: 190.7443084716797
y: 285.2667541503906
z: -0.4795586168766022
visibility: 0.9960870146751404
","x: 192.79469299316406
y: 277.91839599609375
z: -0.47516995668411255
visibility: 0.9977656006813049
","x: 194.2613067626953
y: 276.7911071777344
z: -0.4751760959625244
visibility: 0.9977242946624756
","x: 195.5108642578125
y: 276.1385498046875
z: -0.4753181040287018
visibility: 0.9977937340736389
","x: 188.966064453125
y: 279.71630859375
z: -0.46726664900779724
visibility: 0.9968076348304749
","x: 187.72955322265625
y: 280.17901611328125
z: -0.4673457741737366
visibility: 0.9951450228691101
","x: 186.53793334960938
y: 280.3555908203125
z: -0.4673689007759094
visibility: 0.9949091076850891
","x: 197.94461059570312
y: 276.84619140625
z: -0.39109233021736145
visibility: 0.9970412850379944
","x: 185.5654754638672
y: 281.29345703125
z: -0.35329076647758484
visibility: 0.996963381767273
","x: 193.7279052734375
y: 290.9403076171875
z: -0.4443265497684479
visibility: 0.9967097043991089
","x: 188.8516387939453
y: 291.7406921386719
z: -0.43377137184143066
visibility: 0.9935778975486755
","x: 209.08302307128906
y: 328.6834716796875
z: -0.288299560546875
visibility: 0.9999568462371826
","x: 176.4020233154297
y: 313.6056823730469
z: -0.2650638222694397
visibility: 0.9996941089630127
","x: 210.17564392089844
y: 354.9234313964844
z: -0.4312565326690674
visibility: 0.7869371771812439
","x: 160.8561553955078
y: 334.74273681640625
z: -0.33945432305336
visibility: 0.45613572001457214
","x: 213.52554321289062
y: 336.07354736328125
z: -0.6075876355171204
visibility: 0.6536685228347778
","x: 169.25299072265625
y: 331.6513366699219
z: -0.46575355529785156
visibility: 0.41566190123558044
","x: 215.6890869140625
y: 330.2635498046875
z: -0.6414570808410645
visibility: 0.5239445567131042
","x: 171.13841247558594
y: 330.5444030761719
z: -0.4887405335903168
visibility: 0.36757692694664
","x: 215.5366973876953
y: 326.0712890625
z: -0.6339337229728699
visibility: 0.4945548474788666
","x: 172.87545776367188
y: 327.1961669921875
z: -0.4820388853549957
visibility: 0.3360481560230255
","x: 213.56382751464844
y: 327.11767578125
z: -0.6075300574302673
visibility: 0.39283883571624756
","x: 172.85398864746094
y: 328.0798645019531
z: -0.46608608961105347
visibility: 0.3212723433971405
","x: 189.2952423095703
y: 390.9466247558594
z: 0.0053616915829479694
visibility: 0.9999226331710815
","x: 168.92828369140625
y: 385.22210693359375
z: -0.005385301075875759
visibility: 0.9998647570610046
","x: 208.2337646484375
y: 449.2425231933594
z: -0.18888913094997406
visibility: 0.8008071184158325
","x: 167.47740173339844
y: 467.3525695800781
z: -0.15872815251350403
visibility: 0.7443916201591492
","x: 205.35824584960938
y: 513.5437622070312
z: -0.041406288743019104
visibility: 0.8653888702392578
","x: 179.95587158203125
y: 512.370849609375
z: 0.0885351151227951
visibility: 0.8268164992332458
","x: 200.6744384765625
y: 520.8284301757812
z: -0.030639324337244034
visibility: 0.7373287081718445
","x: 180.3116455078125
y: 518.536376953125
z: 0.11111185699701309
visibility: 0.706291139125824
","x: 210.28211975097656
y: 539.90869140625
z: -0.13905689120292664
visibility: 0.8638651967048645
","x: 181.9434356689453
y: 536.1064453125
z: 0.024948470294475555
visibility: 0.8392759561538696
",,,,,,,,,,,,,,,,,,,,,,,,,,,,,,,,,,,,,,,,,,
2,"x: 190.3257293701172
y: 280.3119201660156
z: -0.5130077600479126
visibility: 0.9964780211448669
","x: 192.48672485351562
y: 272.0529479980469
z: -0.5091410875320435
visibility: 0.9979888796806335
","x: 194.04556274414062
y: 271.2978210449219
z: -0.509130597114563
visibility: 0.9979516863822937
","x: 195.4043426513672
y: 270.5483093261719
z: -0.5092470049858093
visibility: 0.9980141520500183
","x: 188.28680419921875
y: 274.20330810546875
z: -0.5014610886573792
visibility: 0.9971265196800232
","x: 187.01882934570312
y: 274.877197265625
z: -0.5015273690223694
visibility: 0.9956298470497131
","x: 185.81544494628906
y: 275.4854736328125
z: -0.5015369653701782
visibility: 0.9954171776771545
","x: 197.9044189453125
y: 273.3419189453125
z: -0.42169103026390076
visibility: 0.9973369836807251
","x: 184.56886291503906
y: 280.2528076171875
z: -0.38475775718688965
visibility: 0.9972665309906006
","x: 193.63742065429688
y: 286.1141357421875
z: -0.47582095861434937
visibility: 0.9970385432243347
","x: 188.54319763183594
y: 288.8216247558594
z: -0.46555957198143005
visibility: 0.9942197799682617
","x: 209.09588623046875
y: 326.76226806640625
z: -0.32434552907943726
visibility: 0.9999597072601318
","x: 174.61062622070312
y: 313.1673889160156
z: -0.28840091824531555
visibility: 0.9997151494026184
","x: 212.0438690185547
y: 351.1102600097656
z: -0.49400052428245544
visibility: 0.793255090713501
","x: 159.3363494873047
y: 327.07916259765625
z: -0.350563108921051
visibility: 0.47105884552001953
","x: 214.07862854003906
y: 334.83807373046875
z: -0.7005273103713989
visibility: 0.6797876954078674
","x: 155.42233276367188
y: 327.0780944824219
z: -0.46874427795410156
visibility: 0.432611882686615
","x: 218.45535278320312
y: 329.98321533203125
z: -0.7407788038253784
visibility: 0.5612621307373047
","x: 153.15435791015625
y: 327.369140625
z: -0.4906667172908783
visibility: 0.38563278317451477
","x: 220.20736694335938
y: 325.6607360839844
z: -0.7360082864761353
visibility: 0.5343334674835205
","x: 155.4451446533203
y: 325.901611328125
z: -0.48998594284057617
visibility: 0.35540297627449036
","x: 218.97418212890625
y: 326.43109130859375
z: -0.7027097940444946
visibility: 0.4342280924320221
","x: 156.90045166015625
y: 326.2420349121094
z: -0.4718017578125
visibility: 0.3400346040725708
","x: 194.16043090820312
y: 387.43798828125
z: 0.003270388813689351
visibility: 0.9999051094055176
","x: 172.40081787109375
y: 383.65313720703125
z: -0.0033474918454885483
visibility: 0.9998555183410645
","x: 208.0469512939453
y: 457.6982116699219
z: -0.013516975566744804
visibility: 0.8195323944091797
","x: 178.0814208984375
y: 457.29595947265625
z: -0.055918555706739426
visibility: 0.766851544380188
","x: 212.5536651611328
y: 518.04150390625
z: 0.22020849585533142
visibility: 0.8766286969184875
","x: 181.86502075195312
y: 518.5479125976562
z: 0.20549075305461884
visibility: 0.8413432836532593
","x: 208.4113006591797
y: 523.5185546875
z: 0.23816430568695068
visibility: 0.7481080889701843
","x: 183.60638427734375
y: 524.0388793945312
z: 0.22813865542411804
visibility: 0.7133690118789673
","x: 217.69061279296875
y: 542.2293701171875
z: 0.13516315817832947
visibility: 0.8736352920532227
","x: 182.607177734375
y: 542.478759765625
z: 0.12658463418483734
visibility: 0.8509852290153503
",,,,,,,,,,,,,,,,,,,,,,,,,,,,,,,,,,,,,,,,,,
3,"x: 190.54412841796875
y: 280.85284423828125
z: -0.31686946749687195
visibility: 0.9968294501304626
","x: 192.62783813476562
y: 272.8450622558594
z: -0.3068186044692993
visibility: 0.9981884956359863
","x: 194.1672821044922
y: 272.064453125
z: -0.30685222148895264
visibility: 0.9981552958488464
","x: 195.5455322265625
y: 271.3057556152344
z: -0.30692189931869507
visibility: 0.9982109665870667
","x: 188.3200225830078
y: 274.822509765625
z: -0.30240610241889954
visibility: 0.9974117875099182
","x: 187.05198669433594
y: 275.49786376953125
z: -0.3024598956108093
visibility: 0.9960644245147705
","x: 185.87619018554688
y: 276.0672607421875
z: -0.3024729788303375
visibility: 0.9958725571632385
","x: 198.24609375
y: 273.44940185546875
z: -0.22246327996253967
visibility: 0.9976019263267517
","x: 184.73526000976562
y: 280.2672424316406
z: -0.19969430565834045
visibility: 0.9975380897521973
","x: 194.1063232421875
y: 286.64306640625
z: -0.28305789828300476
visibility: 0.9973339438438416
","x: 188.72610473632812
y: 288.96270751953125
z: -0.2768978178501129
visibility: 0.9947970509529114
","x: 210.5718231201172
y: 323.8415222167969
z: -0.14819160103797913
visibility: 0.9999614357948303
","x: 175.3809356689453
y: 312.3745422363281
z: -0.1385401487350464
visibility: 0.999741792678833
","x: 213.70135498046875
y: 354.9139709472656
z: -0.26160290837287903
visibility: 0.8112054467201233
","x: 156.44647216796875
y: 335.5330810546875
z: -0.2481135129928589
visibility: 0.5231318473815918
","x: 226.7063446044922
y: 330.4566650390625
z: -0.4394454061985016
visibility: 0.7102091312408447
","x: 161.6649932861328
y: 307.8573913574219
z: -0.41914230585098267
visibility: 0.48836010694503784
","x: 232.23426818847656
y: 324.9525451660156
z: -0.4700639843940735
visibility: 0.6010918617248535
","x: 163.3289031982422
y: 305.4147644042969
z: -0.4522911608219147
visibility: 0.44383206963539124
","x: 232.57972717285156
y: 323.06988525390625
z: -0.4682285785675049
visibility: 0.5765164494514465
","x: 164.67076110839844
y: 299.158935546875
z: -0.4432924687862396
visibility: 0.4161195158958435
","x: 230.54310607910156
y: 323.26019287109375
z: -0.4433475434780121
visibility: 0.48360416293144226
","x: 165.158203125
y: 303.0102233886719
z: -0.42105722427368164
visibility: 0.4007200002670288
","x: 199.06214904785156
y: 397.80328369140625
z: 0.005004398059099913
visibility: 0.9998825788497925
","x: 176.74945068359375
y: 396.48736572265625
z: -0.005021523684263229
visibility: 0.9998596906661987
","x: 207.5441436767578
y: 459.8515625
z: -0.04533480852842331
visibility: 0.8369345664978027
","x: 181.03663635253906
y: 455.0010681152344
z: -0.12263543903827667
visibility: 0.789807140827179
","x: 213.1553192138672
y: 521.4072265625
z: 0.10817365348339081
visibility: 0.8880829215049744
","x: 183.40634155273438
y: 520.9556274414062
z: 0.028259996324777603
visibility: 0.8568416833877563
","x: 209.80641174316406
y: 527.4639892578125
z: 0.11765167862176895
visibility: 0.7664699554443359
","x: 184.16856384277344
y: 528.9484252929688
z: 0.03947928547859192
visibility: 0.7370180487632751
","x: 218.96461486816406
y: 542.9631958007812
z: 0.01731887459754944
visibility: 0.8847140073776245
","x: 183.57757568359375
y: 543.57373046875
z: -0.058109384030103683
visibility: 0.8653140068054199
",,,,,,,,,,,,,,,,,,,,,,,,,,,,,,,,,,,,,,,,,,
4,"x: 190.90406799316406
y: 280.72198486328125
z: -0.24414709210395813
visibility: 0.9971374273300171
","x: 193.0614013671875
y: 273.1443176269531
z: -0.23316606879234314
visibility: 0.9983519315719604
","x: 194.64743041992188
y: 272.5012512207031
z: -0.23320046067237854
visibility: 0.9983242750167847
","x: 196.20709228515625
y: 271.7724914550781
z: -0.23328375816345215
visibility: 0.998370349407196
","x: 188.99783325195312
y: 274.44866943359375
z: -0.23094022274017334
visibility: 0.997643768787384
","x: 187.80764770507812
y: 274.80096435546875
z: -0.23096564412117004
visibility: 0.9964309930801392
","x: 186.58177185058594
y: 275.0703125
z: -0.23096963763237
visibility: 0.9962550401687622
","x: 199.1273956298828
y: 273.6605529785156
z: -0.152339369058609
visibility: 0.9978261590003967
","x: 185.06784057617188
y: 278.15655517578125
z: -0.1392502784729004
visibility: 0.9977583885192871
","x: 194.42405700683594
y: 286.7061767578125
z: -0.21267981827259064
visibility: 0.9975945949554443
","x: 188.98863220214844
y: 288.0937805175781
z: -0.2092074453830719
visibility: 0.9953096508979797
","x: 210.5908203125
y: 319.9557189941406
z: -0.08897928893566132
visibility: 0.9999580979347229
","x: 175.31784057617188
y: 312.5265808105469
z: -0.09437449276447296
visibility: 0.9997605085372925
","x: 217.12391662597656
y: 351.7634582519531
z: -0.20407399535179138
visibility: 0.8276916742324829
","x: 161.35861206054688
y: 342.9259948730469
z: -0.22470836341381073
visibility: 0.569927990436554
","x: 225.60916137695312
y: 320.378662109375
z: -0.3751732409000397
visibility: 0.736780047416687
","x: 165.803955078125
y: 311.6018981933594
z: -0.37931716442108154
visibility: 0.5388617515563965
","x: 229.11239624023438
y: 312.2337951660156
z: -0.4058458209037781
visibility: 0.6347352266311646
","x: 166.19561767578125
y: 302.4388427734375
z: -0.41256022453308105
visibility: 0.4975433945655823
","x: 228.722900390625
y: 310.7336730957031
z: -0.39725571870803833
visibility: 0.6119981408119202
","x: 167.22323608398438
y: 298.1400146484375
z: -0.40477418899536133
visibility: 0.4723648726940155
","x: 227.3015899658203
y: 312.8354187011719
z: -0.37637510895729065
visibility: 0.5255745053291321
","x: 167.8282928466797
y: 302.19781494140625
z: -0.3812845051288605
visibility: 0.4573397636413574
","x: 199.95372009277344
y: 394.5045166015625
z: 0.007277221884578466
visibility: 0.9998708367347717
","x: 177.57725524902344
y: 395.217529296875
z: -0.007327294908463955
visibility: 0.9998459815979004
","x: 210.221435546875
y: 453.30804443359375
z: -0.11207301914691925
visibility: 0.8525708317756653
","x: 182.02203369140625
y: 451.0373229980469
z: -0.12937211990356445
visibility: 0.8096173405647278
","x: 213.48110961914062
y: 520.0194091796875
z: 0.010923451744019985
visibility: 0.8980423212051392
","x: 183.90257263183594
y: 516.6111450195312
z: 0.006349105387926102
visibility: 0.8694036602973938
","x: 209.49169921875
y: 527.2244873046875
z: 0.017806079238653183
visibility: 0.7809290885925293
","x: 184.43092346191406
y: 522.147705078125
z: 0.016376517713069916
visibility: 0.7459055185317993
","x: 219.87228393554688
y: 543.5588989257812
z: -0.08225201070308685
visibility: 0.8943310379981995
","x: 183.6014862060547
y: 542.2003173828125
z: -0.0824805274605751
visibility: 0.8766663670539856
",,,,,,,,,,,,,,,,,,,,,,,,,,,,,,,,,,,,,,,,,,
5,"x: 191.35284423828125
y: 280.8475036621094
z: -0.1337241679430008
visibility: 0.9974147081375122
","x: 193.5812530517578
y: 273.4017333984375
z: -0.12121818214654922
visibility: 0.9985014200210571
","x: 195.27073669433594
y: 273.50506591796875
z: -0.12126084417104721
visibility: 0.9984773993492126
","x: 196.89430236816406
y: 273.4194641113281
z: -0.12134391069412231
visibility: 0.9985178709030151
","x: 189.3115692138672
y: 274.8266906738281
z: -0.1198841780424118
visibility: 0.9978517293930054
","x: 188.06605529785156
y: 275.20709228515625
z: -0.11987768113613129
visibility: 0.996753990650177
","x: 186.76097106933594
y: 275.49481201171875
z: -0.11989305168390274
visibility: 0.9965924024581909
","x: 199.6889190673828
y: 276.3147277832031
z: -0.047929342836141586
visibility: 0.998029351234436
","x: 185.14013671875
y: 278.41973876953125
z: -0.040639478713274
visibility: 0.9979517459869385
","x: 195.27537536621094
y: 287.49761962890625
z: -0.10614532232284546
visibility: 0.997828483581543
","x: 189.3578643798828
y: 288.2217102050781
z: -0.10438007116317749
visibility: 0.9957683086395264
","x: 210.55442810058594
y: 319.68408203125
z: -0.011922470293939114
visibility: 0.9999558925628662
","x: 176.02935791015625
y: 315.23187255859375
z: -0.02578068897128105
visibility: 0.9997666478157043
","x: 216.8580780029297
y: 353.45928955078125
z: -0.12002258002758026
visibility: 0.8413244485855103
","x: 162.24755859375
y: 342.4859313964844
z: -0.15081161260604858
visibility: 0.6107566952705383
","x: 223.77964782714844
y: 319.8482666015625
z: -0.2531786262989044
visibility: 0.7608164548873901
","x: 167.45053100585938
y: 313.4747009277344
z: -0.30182746052742004
visibility: 0.581899881362915
","x: 226.59881591796875
y: 311.13616943359375
z: -0.2758387625217438
visibility: 0.6656152009963989
","x: 167.0554656982422
y: 302.7382507324219
z: -0.3377539813518524
visibility: 0.5393065810203552
","x: 226.96578979492188
y: 307.8478698730469
z: -0.26205673813819885
visibility: 0.6443222165107727
","x: 168.45111083984375
y: 300.3218994140625
z: -0.31233280897140503
visibility: 0.5152291655540466
","x: 225.8770294189453
y: 310.9350280761719
z: -0.250870019197464
visibility: 0.5636991858482361
","x: 169.7094268798828
y: 304.008544921875
z: -0.2995144724845886
visibility: 0.4982900023460388
","x: 200.93646240234375
y: 401.00506591796875
z: 0.009618542157113552
visibility: 0.9998703002929688
","x: 178.80763244628906
y: 403.1356506347656
z: -0.009665889665484428
visibility: 0.9998416900634766
","x: 215.32138061523438
y: 452.74005126953125
z: -0.16978825628757477
visibility: 0.867010235786438
","x: 179.0594482421875
y: 454.0102844238281
z: -0.17275837063789368
visibility: 0.8281259536743164
","x: 212.58990478515625
y: 519.7015991210938
z: -0.013759451918303967
visibility: 0.9074381589889526
","x: 183.4183349609375
y: 518.677001953125
z: -0.005198872648179531
visibility: 0.8812751173973083
","x: 208.25978088378906
y: 527.2540893554688
z: 0.009006133303046227
visibility: 0.7970827221870422
","x: 184.9093780517578
y: 522.70849609375
z: 0.0011270807590335608
visibility: 0.7569969892501831
","x: 220.7237091064453
y: 542.698486328125
z: -0.10253261029720306
visibility: 0.903529703617096
","x: 183.64317321777344
y: 544.3065185546875
z: -0.08955155313014984
visibility: 0.8871509432792664
",,,,,,,,,,,,,,,,,,,,,,,,,,,,,,,,,,,,,,,,,,
6,"x: 191.81793212890625
y: 285.3994140625
z: -0.16048167645931244
visibility: 0.9976634383201599
","x: 194.02285766601562
y: 277.9237976074219
z: -0.14766672253608704
visibility: 0.9986335039138794
","x: 195.63743591308594
y: 277.8561706542969
z: -0.14771056175231934
visibility: 0.9986118674278259
","x: 197.18551635742188
y: 277.66680908203125
z: -0.14777109026908875
visibility: 0.9986445903778076
","x: 189.765380859375
y: 278.835693359375
z: -0.14387652277946472
visibility: 0.9980396032333374
","x: 188.53955078125
y: 279.0688171386719
z: -0.14389632642269135
visibility: 0.9970483779907227
","x: 187.2713165283203
y: 279.3138427734375
z: -0.14391258358955383
visibility: 0.9969015717506409
","x: 199.94976806640625
y: 280.66290283203125
z: -0.06954114139080048
visibility: 0.9981957077980042
","x: 185.5725860595703
y: 282.2478942871094
z: -0.05168192833662033
visibility: 0.9981235265731812
","x: 195.45858764648438
y: 291.9086608886719
z: -0.13134199380874634
visibility: 0.9980344176292419
","x: 189.71246337890625
y: 292.91546630859375
z: -0.1263739913702011
visibility: 0.9961795210838318
","x: 211.29217529296875
y: 321.30450439453125
z: -0.023277170956134796
visibility: 0.9999392628669739
","x: 176.3738555908203
y: 318.4216003417969
z: -0.02394668385386467
visibility: 0.9997768402099609
","x: 216.83409118652344
y: 356.9804382324219
z: -0.1371769905090332
visibility: 0.8536327481269836
","x: 162.7124481201172
y: 354.7592468261719
z: -0.1366555541753769
visibility: 0.6489298939704895
","x: 223.22329711914062
y: 326.8230895996094
z: -0.2883605659008026
visibility: 0.7829477787017822
","x: 167.04281616210938
y: 316.6075439453125
z: -0.29492953419685364
visibility: 0.6230456233024597
","x: 224.44607543945312
y: 316.8387756347656
z: -0.3142293393611908
visibility: 0.6945763826370239
","x: 167.81407165527344
y: 309.0301818847656
z: -0.33405953645706177
visibility: 0.583164632320404
","x: 224.45460510253906
y: 314.23199462890625
z: -0.3019816279411316
visibility: 0.6747778654098511
","x: 169.0724639892578
y: 304.9876708984375
z: -0.3092420995235443
visibility: 0.5610929727554321
","x: 224.30606079101562
y: 316.4022521972656
z: -0.28691890835762024
visibility: 0.5994243025779724
","x: 169.57400512695312
y: 308.90606689453125
z: -0.2934611737728119
visibility: 0.5444705486297607
","x: 201.5406494140625
y: 408.06842041015625
z: 0.009914434514939785
visibility: 0.9998707175254822
","x: 179.7969207763672
y: 408.329833984375
z: -0.009958785958588123
visibility: 0.9998385310173035
","x: 213.25868225097656
y: 455.1280517578125
z: -0.20286118984222412
visibility: 0.8796621561050415
","x: 179.19692993164062
y: 458.567138671875
z: -0.1957457959651947
visibility: 0.8446298241615295
","x: 211.31588745117188
y: 521.757568359375
z: -0.08322210609912872
visibility: 0.9154880046844482
","x: 183.5483856201172
y: 517.8944091796875
z: -0.04891711100935936
visibility: 0.8916746377944946
","x: 208.15609741210938
y: 530.2982788085938
z: -0.07474953681230545
visibility: 0.812800407409668
","x: 184.91488647460938
y: 522.9210815429688
z: -0.03871294856071472
visibility: 0.7690756916999817
","x: 220.0165252685547
y: 543.6240234375
z: -0.16839691996574402
visibility: 0.9115579724311829
","x: 183.92030334472656
y: 543.17919921875
z: -0.13177743554115295
visibility: 0.8964995741844177
","x: 166.15550231933594
y: 314.5162658691406
z: 0.0
","x: 167.02194213867188
y: 307.83441162109375
z: 0.00029598682885989547
","x: 167.72706604003906
y: 301.6984558105469
z: -0.0025570110883563757
","x: 168.07852172851562
y: 297.02691650390625
z: -0.006037360057234764
","x: 167.91717529296875
y: 292.952392578125
z: -0.009534100070595741
","x: 168.27210998535156
y: 302.788330078125
z: -0.00719478540122509
","x: 168.99612426757812
y: 299.57861328125
z: -0.012065653689205647
","x: 167.93727111816406
y: 296.50311279296875
z: -0.01465259213000536
","x: 166.63455200195312
y: 294.24505615234375
z: -0.016178172081708908
","x: 167.36688232421875
y: 306.48602294921875
z: -0.010169703513383865
","x: 171.22067260742188
y: 307.6624450683594
z: -0.015854140743613243
","x: 174.33084106445312
y: 309.37689208984375
z: -0.016940739005804062
","x: 176.97103881835938
y: 310.5157165527344
z: -0.017525600269436836
","x: 166.81813049316406
y: 311.0849914550781
z: -0.012794334441423416
","x: 171.28480529785156
y: 313.037841796875
z: -0.017541605979204178
","x: 174.61729431152344
y: 313.9992980957031
z: -0.01677992194890976
","x: 177.10179138183594
y: 314.9591369628906
z: -0.016090884804725647
","x: 166.72323608398438
y: 315.617919921875
z: -0.015388933010399342
","x: 170.56968688964844
y: 317.2738342285156
z: -0.018564917147159576
","x: 172.8982696533203
y: 317.7045593261719
z: -0.017789680510759354
","x: 174.73622131347656
y: 318.3948669433594
z: -0.01699654757976532
",,,,,,,,,,,,,,,,,,,,,
7,"x: 191.81793212890625
y: 285.3994140625
z: -0.16048167645931244
visibility: 0.9976634383201599
","x: 194.02285766601562
y: 277.9237976074219
z: -0.14766672253608704
visibility: 0.9986335039138794
","x: 195.63743591308594
y: 277.8561706542969
z: -0.14771056175231934
visibility: 0.9986118674278259
","x: 197.18551635742188
y: 277.66680908203125
z: -0.14777109026908875
visibility: 0.9986445903778076
","x: 189.765380859375
y: 278.835693359375
z: -0.14387652277946472
visibility: 0.9980396032333374
","x: 188.53955078125
y: 279.0688171386719
z: -0.14389632642269135
visibility: 0.9970483779907227
","x: 187.2713165283203
y: 279.3138427734375
z: -0.14391258358955383
visibility: 0.9969015717506409
","x: 199.94976806640625
y: 280.66290283203125
z: -0.06954114139080048
visibility: 0.9981957077980042
","x: 185.5725860595703
y: 282.2478942871094
z: -0.05168192833662033
visibility: 0.9981235265731812
","x: 195.45858764648438
y: 291.9086608886719
z: -0.13134199380874634
visibility: 0.9980344176292419
","x: 189.71246337890625
y: 292.91546630859375
z: -0.1263739913702011
visibility: 0.9961795210838318
","x: 211.29217529296875
y: 321.30450439453125
z: -0.023277170956134796
visibility: 0.9999392628669739
","x: 176.3738555908203
y: 318.4216003417969
z: -0.02394668385386467
visibility: 0.9997768402099609
","x: 216.83409118652344
y: 356.9804382324219
z: -0.1371769905090332
visibility: 0.8536327481269836
","x: 162.7124481201172
y: 354.7592468261719
z: -0.1366555541753769
visibility: 0.6489298939704895
","x: 223.22329711914062
y: 326.8230895996094
z: -0.2883605659008026
visibility: 0.7829477787017822
","x: 167.04281616210938
y: 316.6075439453125
z: -0.29492953419685364
visibility: 0.6230456233024597
","x: 224.44607543945312
y: 316.8387756347656
z: -0.3142293393611908
visibility: 0.6945763826370239
","x: 167.81407165527344
y: 309.0301818847656
z: -0.33405953645706177
visibility: 0.583164632320404
","x: 224.45460510253906
y: 314.23199462890625
z: -0.3019816279411316
visibility: 0.6747778654098511
","x: 169.0724639892578
y: 304.9876708984375
z: -0.3092420995235443
visibility: 0.5610929727554321
","x: 224.30606079101562
y: 316.4022521972656
z: -0.28691890835762024
visibility: 0.5994243025779724
","x: 169.57400512695312
y: 308.90606689453125
z: -0.2934611737728119
visibility: 0.5444705486297607
","x: 201.5406494140625
y: 408.06842041015625
z: 0.009914434514939785
visibility: 0.9998707175254822
","x: 179.7969207763672
y: 408.329833984375
z: -0.009958785958588123
visibility: 0.9998385310173035
","x: 213.25868225097656
y: 455.1280517578125
z: -0.20286118984222412
visibility: 0.8796621561050415
","x: 179.19692993164062
y: 458.567138671875
z: -0.1957457959651947
visibility: 0.8446298241615295
","x: 211.31588745117188
y: 521.757568359375
z: -0.08322210609912872
visibility: 0.9154880046844482
","x: 183.5483856201172
y: 517.8944091796875
z: -0.04891711100935936
visibility: 0.8916746377944946
","x: 208.15609741210938
y: 530.2982788085938
z: -0.07474953681230545
visibility: 0.812800407409668
","x: 184.91488647460938
y: 522.9210815429688
z: -0.03871294856071472
visibility: 0.7690756916999817
","x: 220.0165252685547
y: 543.6240234375
z: -0.16839691996574402
visibility: 0.9115579724311829
","x: 183.92030334472656
y: 543.17919921875
z: -0.13177743554115295
visibility: 0.8964995741844177
","x: 166.15550231933594
y: 314.5162658691406
z: 0.0
","x: 167.02194213867188
y: 307.83441162109375
z: 0.00029598682885989547
","x: 167.72706604003906
y: 301.6984558105469
z: -0.0025570110883563757
","x: 168.07852172851562
y: 297.02691650390625
z: -0.006037360057234764
","x: 167.91717529296875
y: 292.952392578125
z: -0.009534100070595741
","x: 168.27210998535156
y: 302.788330078125
z: -0.00719478540122509
","x: 168.99612426757812
y: 299.57861328125
z: -0.012065653689205647
","x: 167.93727111816406
y: 296.50311279296875
z: -0.01465259213000536
","x: 166.63455200195312
y: 294.24505615234375
z: -0.016178172081708908
","x: 167.36688232421875
y: 306.48602294921875
z: -0.010169703513383865
","x: 171.22067260742188
y: 307.6624450683594
z: -0.015854140743613243
","x: 174.33084106445312
y: 309.37689208984375
z: -0.016940739005804062
","x: 176.97103881835938
y: 310.5157165527344
z: -0.017525600269436836
","x: 166.81813049316406
y: 311.0849914550781
z: -0.012794334441423416
","x: 171.28480529785156
y: 313.037841796875
z: -0.017541605979204178
","x: 174.61729431152344
y: 313.9992980957031
z: -0.01677992194890976
","x: 177.10179138183594
y: 314.9591369628906
z: -0.016090884804725647
","x: 166.72323608398438
y: 315.617919921875
z: -0.015388933010399342
","x: 170.56968688964844
y: 317.2738342285156
z: -0.018564917147159576
","x: 172.8982696533203
y: 317.7045593261719
z: -0.017789680510759354
","x: 174.73622131347656
y: 318.3948669433594
z: -0.01699654757976532
",,,,,,,,,,,,,,,,,,,,,
8,"x: 192.1945037841797
y: 285.93157958984375
z: -0.1875729113817215
visibility: 0.9978945255279541
","x: 194.4810791015625
y: 278.5174865722656
z: -0.17181506752967834
visibility: 0.9987656474113464
","x: 195.96896362304688
y: 278.341552734375
z: -0.1718422770500183
visibility: 0.9987463355064392
","x: 197.39894104003906
y: 278.13885498046875
z: -0.17191055417060852
visibility: 0.9987753629684448
","x: 190.28225708007812
y: 279.2974548339844
z: -0.17220982909202576
visibility: 0.9982277154922485
","x: 189.03672790527344
y: 279.4862060546875
z: -0.1722237467765808
visibility: 0.9973341226577759
","x: 187.82408142089844
y: 279.71502685546875
z: -0.17222222685813904
visibility: 0.9972007274627686
","x: 199.88787841796875
y: 280.7908020019531
z: -0.07846464216709137
visibility: 0.9983714818954468
","x: 185.85777282714844
y: 282.6015930175781
z: -0.08158455789089203
visibility: 0.9983038902282715
","x: 195.62567138671875
y: 292.18939208984375
z: -0.15282055735588074
visibility: 0.9982296228408813
","x: 189.85838317871094
y: 293.0345458984375
z: -0.15384182333946228
visibility: 0.9965599179267883
","x: 211.20391845703125
y: 321.2794189453125
z: -0.032091982662677765
visibility: 0.9999428391456604
","x: 176.12794494628906
y: 317.2540283203125
z: -0.04822291061282158
visibility: 0.9997904300689697
","x: 218.06698608398438
y: 360.47100830078125
z: -0.15026989579200745
visibility: 0.8667702674865723
","x: 157.79995727539062
y: 346.8122863769531
z: -0.14522811770439148
visibility: 0.6829163432121277
","x: 222.87615966796875
y: 332.97015380859375
z: -0.3207570016384125
visibility: 0.8037692308425903
","x: 167.55999755859375
y: 318.2132568359375
z: -0.34821027517318726
visibility: 0.6567514538764954
","x: 225.3123779296875
y: 325.7748107910156
z: -0.3521243631839752
visibility: 0.7225972414016724
","x: 168.30303955078125
y: 311.001953125
z: -0.3803732693195343
visibility: 0.6135050654411316
","x: 224.9603271484375
y: 321.5625
z: -0.3421059250831604
visibility: 0.7046167850494385
","x: 169.66104125976562
y: 308.2431640625
z: -0.36687350273132324
visibility: 0.5921920537948608
","x: 223.80325317382812
y: 323.33203125
z: -0.320793092250824
visibility: 0.6349589824676514
","x: 170.1453094482422
y: 311.4380187988281
z: -0.3477245569229126
visibility: 0.5735620856285095
","x: 203.56422424316406
y: 409.3534851074219
z: 0.009951082058250904
visibility: 0.9998708367347717
","x: 181.27313232421875
y: 411.1288757324219
z: -0.009958477690815926
visibility: 0.9998399019241333
","x: 213.17335510253906
y: 455.63226318359375
z: -0.21437522768974304
visibility: 0.8912745118141174
","x: 180.2560577392578
y: 456.20001220703125
z: -0.24361486732959747
visibility: 0.8596601486206055
","x: 210.94400024414062
y: 521.6812744140625
z: -0.07363100349903107
visibility: 0.9231281876564026
","x: 184.11972045898438
y: 518.376220703125
z: -0.08341068774461746
visibility: 0.9016292095184326
","x: 207.2490692138672
y: 530.5275268554688
z: -0.06473003327846527
visibility: 0.8263307213783264
","x: 185.61770629882812
y: 524.7009887695312
z: -0.07169660180807114
visibility: 0.783121645450592
","x: 219.9414520263672
y: 544.1503295898438
z: -0.16852548718452454
visibility: 0.9191610217094421
","x: 183.89698791503906
y: 542.4109497070312
z: -0.17631851136684418
visibility: 0.9056235551834106
",,,,,,,,,,,,,,,,,,,,,,,,,,,,,,,,,,,,,,,,,,
9,"x: 193.4808807373047
y: 285.7738952636719
z: -0.212479829788208
visibility: 0.9981037974357605
","x: 195.474609375
y: 278.295166015625
z: -0.19688352942466736
visibility: 0.9988877773284912
","x: 196.729248046875
y: 278.2816162109375
z: -0.19692805409431458
visibility: 0.9988704323768616
","x: 197.88143920898438
y: 278.0379638671875
z: -0.19702206552028656
visibility: 0.9988964796066284
","x: 191.44517517089844
y: 278.87469482421875
z: -0.19875243306159973
visibility: 0.9984015226364136
","x: 189.9757080078125
y: 278.9786071777344
z: -0.19876530766487122
visibility: 0.9975959062576294
","x: 188.537841796875
y: 279.17083740234375
z: -0.19874326884746552
visibility: 0.997473955154419
","x: 199.8750457763672
y: 280.32904052734375
z: -0.09979858249425888
visibility: 0.998533308506012
","x: 186.07989501953125
y: 282.120849609375
z: -0.10968725383281708
visibility: 0.9984687566757202
","x: 196.23553466796875
y: 292.1011657714844
z: -0.17612111568450928
visibility: 0.9984059929847717
","x: 190.70236206054688
y: 292.62860107421875
z: -0.17891986668109894
visibility: 0.996902346611023
","x: 211.0070037841797
y: 319.0196838378906
z: -0.05155045911669731
visibility: 0.999947190284729
","x: 175.94345092773438
y: 316.407470703125
z: -0.07437194883823395
visibility: 0.9997907280921936
","x: 218.02975463867188
y: 359.2412109375
z: -0.17543138563632965
visibility: 0.8775091171264648
","x: 160.1798858642578
y: 324.9096374511719
z: -0.21856708824634552
visibility: 0.7129718065261841
","x: 229.9688262939453
y: 332.2053527832031
z: -0.35540342330932617
visibility: 0.8217283487319946
","x: 160.29759216308594
y: 300.65283203125
z: -0.4018913805484772
visibility: 0.685217022895813
","x: 234.706298828125
y: 325.27789306640625
z: -0.37993353605270386
visibility: 0.7464396953582764
","x: 157.0290985107422
y: 292.3584899902344
z: -0.4361210763454437
visibility: 0.6386212706565857
","x: 233.9012451171875
y: 321.2242431640625
z: -0.3770388960838318
visibility: 0.7304174900054932
","x: 159.35894775390625
y: 294.3554992675781
z: -0.43192440271377563
visibility: 0.6188534498214722
","x: 231.8529510498047
y: 323.1414794921875
z: -0.35056954622268677
visibility: 0.6664919257164001
","x: 159.53854370117188
y: 295.1926574707031
z: -0.40682047605514526
visibility: 0.599837064743042
","x: 205.2469482421875
y: 404.1344909667969
z: 0.012760301120579243
visibility: 0.9998814463615417
","x: 183.1669158935547
y: 406.1986083984375
z: -0.01273096539080143
visibility: 0.999847412109375
","x: 217.58592224121094
y: 453.9231872558594
z: -0.20043595135211945
visibility: 0.9019126892089844
","x: 181.54957580566406
y: 460.618896484375
z: -0.11979828774929047
visibility: 0.8733275532722473
","x: 216.18264770507812
y: 520.9039916992188
z: -0.08284681290388107
visibility: 0.9303320050239563
","x: 184.04867553710938
y: 518.3203735351562
z: 0.057211983948946
visibility: 0.9099413156509399
","x: 211.73123168945312
y: 530.171630859375
z: -0.07563149183988571
visibility: 0.8405165076255798
","x: 184.61709594726562
y: 522.7607421875
z: 0.07015196979045868
visibility: 0.7869720458984375
","x: 225.45675659179688
y: 543.423583984375
z: -0.18382211029529572
visibility: 0.9264921545982361
","x: 184.1012420654297
y: 541.1826171875
z: -0.024111006408929825
visibility: 0.9125944972038269
",,,,,,,,,,,,,,,,,,,,,,,,,,,,,,,,,,,,,,,,,,
10,"x: 195.42503356933594
y: 285.71832275390625
z: -0.22229287028312683
visibility: 0.9982903599739075
","x: 197.01722717285156
y: 278.1109619140625
z: -0.2113461196422577
visibility: 0.9989930987358093
","x: 198.11734008789062
y: 278.15802001953125
z: -0.2113664597272873
visibility: 0.998977541923523
","x: 199.16253662109375
y: 277.9560546875
z: -0.21146735548973083
visibility: 0.9990002512931824
","x: 193.38943481445312
y: 278.30511474609375
z: -0.2019691914319992
visibility: 0.9985516667366028
","x: 191.85484313964844
y: 278.1647033691406
z: -0.20206038653850555
visibility: 0.9978241920471191
","x: 190.24325561523438
y: 278.15850830078125
z: -0.2021075189113617
visibility: 0.9977115988731384
","x: 200.7482147216797
y: 280.0533142089844
z: -0.12636828422546387
visibility: 0.9986718893051147
","x: 186.8639373779297
y: 280.847900390625
z: -0.11071570962667465
visibility: 0.9986041188240051
","x: 197.536376953125
y: 291.6529541015625
z: -0.1928955465555191
visibility: 0.9985619187355042
","x: 192.76629638671875
y: 291.9882507324219
z: -0.18853123486042023
visibility: 0.9972071647644043
","x: 211.31626892089844
y: 314.94488525390625
z: -0.06369189918041229
visibility: 0.9999485611915588
","x: 176.31600952148438
y: 314.6611328125
z: -0.08080042898654938
visibility: 0.9997894167900085
","x: 217.80072021484375
y: 356.9991455078125
z: -0.1476905196905136
visibility: 0.8868125677108765
","x: 162.8738555908203
y: 333.255126953125
z: -0.20830006897449493
visibility: 0.7390940189361572
","x: 232.5035400390625
y: 331.24249267578125
z: -0.3250110447406769
visibility: 0.8381600975990295
","x: 162.7510223388672
y: 308.46783447265625
z: -0.4052201211452484
visibility: 0.7142626643180847
","x: 238.420166015625
y: 324.8472900390625
z: -0.3584185540676117
visibility: 0.7686521410942078
","x: 158.55271911621094
y: 301.64910888671875
z: -0.44542399048805237
visibility: 0.6696876883506775
","x: 238.097412109375
y: 320.51336669921875
z: -0.36626094579696655
visibility: 0.7544040083885193
","x: 158.98501586914062
y: 299.8779602050781
z: -0.4475690424442291
visibility: 0.6518415212631226
","x: 235.78350830078125
y: 322.4110412597656
z: -0.33305174112319946
visibility: 0.6958404779434204
","x: 161.5634765625
y: 301.3388977050781
z: -0.41283950209617615
visibility: 0.6334677934646606
","x: 205.97023010253906
y: 404.304931640625
z: 0.011131511069834232
visibility: 0.9998735785484314
","x: 184.52639770507812
y: 405.7564697265625
z: -0.011134732514619827
visibility: 0.9998292922973633
","x: 216.0956573486328
y: 461.28778076171875
z: -0.020170098170638084
visibility: 0.9114388823509216
","x: 183.24728393554688
y: 464.51104736328125
z: 0.012135105207562447
visibility: 0.8856255412101746
","x: 221.85159301757812
y: 521.9389038085938
z: 0.1000274270772934
visibility: 0.9368780255317688
","x: 183.31683349609375
y: 521.0572509765625
z: 0.17344117164611816
visibility: 0.9183387756347656
","x: 219.2882080078125
y: 532.0643310546875
z: 0.10645923763513565
visibility: 0.8509813547134399
","x: 184.17529296875
y: 527.42333984375
z: 0.18464195728302002
visibility: 0.798145592212677
","x: 227.6311492919922
y: 543.6449584960938
z: 0.00014041167742107064
visibility: 0.933180034160614
","x: 182.4198760986328
y: 542.9117431640625
z: 0.08612577617168427
visibility: 0.9203404188156128
",,,,,,,,,,,,,,,,,,,,,,,,,,,,,,,,,,,,,,,,,,
11,"x: 199.21620178222656
y: 284.5762939453125
z: -0.2525123953819275
visibility: 0.9984602332115173
","x: 200.3670196533203
y: 277.062255859375
z: -0.23929564654827118
visibility: 0.9990915656089783
","x: 201.4185028076172
y: 277.06219482421875
z: -0.23930557072162628
visibility: 0.9990773797035217
","x: 202.41717529296875
y: 276.87548828125
z: -0.23935964703559875
visibility: 0.999097466468811
","x: 197.07147216796875
y: 277.2818603515625
z: -0.23965111374855042
visibility: 0.9986934661865234
","x: 195.7126007080078
y: 277.1768493652344
z: -0.23969082534313202
visibility: 0.998038113117218
","x: 194.236083984375
y: 277.1978454589844
z: -0.23968681693077087
visibility: 0.9979361891746521
","x: 203.5589599609375
y: 279.12176513671875
z: -0.13978184759616852
visibility: 0.9988007545471191
","x: 191.1184844970703
y: 280.1532287597656
z: -0.15000911056995392
visibility: 0.9987382888793945
","x: 201.17630004882812
y: 289.75885009765625
z: -0.2161054164171219
visibility: 0.9987044930458069
","x: 196.9980926513672
y: 290.6871337890625
z: -0.21817561984062195
visibility: 0.9974848628044128
","x: 213.8946533203125
y: 314.1357727050781
z: -0.0751044750213623
visibility: 0.9999514818191528
","x: 180.03993225097656
y: 314.51727294921875
z: -0.09428265690803528
visibility: 0.9997997879981995
","x: 224.12570190429688
y: 355.81317138671875
z: -0.17297996580600739
visibility: 0.896991491317749
","x: 168.11325073242188
y: 349.53167724609375
z: -0.2152387797832489
visibility: 0.764244019985199
","x: 237.56260681152344
y: 328.146240234375
z: -0.3469347357749939
visibility: 0.8537532091140747
","x: 164.04287719726562
y: 315.12042236328125
z: -0.4183558523654938
visibility: 0.742032527923584
","x: 242.71356201171875
y: 321.66876220703125
z: -0.3650570809841156
visibility: 0.7901684045791626
","x: 160.11920166015625
y: 302.30828857421875
z: -0.4583478569984436
visibility: 0.7006060481071472
","x: 241.635986328125
y: 317.4685363769531
z: -0.3870338201522827
visibility: 0.7774034142494202
","x: 160.94654846191406
y: 301.9311218261719
z: -0.4581436216831207
visibility: 0.6844772100448608
","x: 239.50294494628906
y: 319.00341796875
z: -0.3445262312889099
visibility: 0.7240991592407227
","x: 163.0404815673828
y: 302.1636047363281
z: -0.4243805408477783
visibility: 0.6671881675720215
","x: 208.64578247070312
y: 405.6883544921875
z: 0.010965852066874504
visibility: 0.9998780488967896
","x: 187.64474487304688
y: 406.5107727050781
z: -0.01097145862877369
visibility: 0.9998281002044678
","x: 216.50856018066406
y: 464.4864501953125
z: -0.008291088044643402
visibility: 0.9200140833854675
","x: 184.9514923095703
y: 466.5600280761719
z: 0.059315264225006104
visibility: 0.8965885043144226
","x: 222.352294921875
y: 521.7254028320312
z: 0.13986407220363617
visibility: 0.9427242279052734
","x: 183.48902893066406
y: 520.0665893554688
z: 0.25948989391326904
visibility: 0.925743043422699
","x: 220.09571838378906
y: 531.548095703125
z: 0.14991208910942078
visibility: 0.8605684638023376
","x: 184.35708618164062
y: 525.85791015625
z: 0.27550140023231506
visibility: 0.8075294494628906
","x: 227.6501922607422
y: 543.6275634765625
z: 0.04859307408332825
visibility: 0.9392204284667969
","x: 182.9257354736328
y: 542.98876953125
z: 0.18509557843208313
visibility: 0.9272019863128662
",,,,,,,,,,,,,,,,,,,,,,,,,,,,,,,,,,,,,,,,,,
12,"x: 201.90574645996094
y: 282.4864807128906
z: -0.2419433891773224
visibility: 0.9986046552658081
","x: 203.6375732421875
y: 274.4735412597656
z: -0.22768814861774445
visibility: 0.9991651177406311
","x: 204.83929443359375
y: 274.4048767089844
z: -0.22770552337169647
visibility: 0.9991503357887268
","x: 205.96859741210938
y: 274.3381042480469
z: -0.22774961590766907
visibility: 0.9991663098335266
","x: 199.95193481445312
y: 275.2291564941406
z: -0.227651908993721
visibility: 0.9988037347793579
","x: 198.57403564453125
y: 275.4463806152344
z: -0.22769621014595032
visibility: 0.9982125163078308
","x: 197.09568786621094
y: 275.7516784667969
z: -0.2277180403470993
visibility: 0.9981218576431274
","x: 207.809326171875
y: 278.04327392578125
z: -0.13560496270656586
visibility: 0.9988921880722046
","x: 194.79331970214844
y: 279.7798767089844
z: -0.1362902820110321
visibility: 0.9988372921943665
","x: 204.60861206054688
y: 287.880126953125
z: -0.20726612210273743
visibility: 0.9988267421722412
","x: 199.64044189453125
y: 289.04193115234375
z: -0.2077079564332962
visibility: 0.9977291226387024
","x: 218.643798828125
y: 314.0884094238281
z: -0.07746797800064087
visibility: 0.9999443292617798
","x: 183.62173461914062
y: 314.2481689453125
z: -0.08362467586994171
visibility: 0.999806821346283
","x: 231.04664611816406
y: 355.29766845703125
z: -0.18592095375061035
visibility: 0.9053658843040466
","x: 171.3353729248047
y: 352.9798583984375
z: -0.19398978352546692
visibility: 0.7871384024620056
","x: 235.66246032714844
y: 325.16363525390625
z: -0.36491838097572327
visibility: 0.8661388754844666
","x: 163.3527374267578
y: 321.5975646972656
z: -0.38280385732650757
visibility: 0.7670592069625854
","x: 239.04116821289062
y: 313.9994201660156
z: -0.4003240466117859
visibility: 0.8056320548057556
","x: 159.19859313964844
y: 311.85906982421875
z: -0.4190638065338135
visibility: 0.7284309267997742
","x: 237.97344970703125
y: 310.6403503417969
z: -0.40146344900131226
visibility: 0.7939779162406921
","x: 159.64779663085938
y: 306.5618591308594
z: -0.41822195053100586
visibility: 0.7138381600379944
","x: 236.52394104003906
y: 314.1036376953125
z: -0.36689266562461853
visibility: 0.7438209056854248
","x: 162.130126953125
y: 307.5975646972656
z: -0.3880614936351776
visibility: 0.6974195241928101
","x: 213.00137329101562
y: 406.91534423828125
z: 0.008628997020423412
visibility: 0.9998776316642761
","x: 191.4283905029297
y: 407.5561218261719
z: -0.008654960431158543
visibility: 0.9998202323913574
","x: 219.87799072265625
y: 463.60491943359375
z: -0.08588498085737228
visibility: 0.9275612235069275
","x: 187.01502990722656
y: 461.00445556640625
z: -0.02907198667526245
visibility: 0.9061124324798584
","x: 221.9541778564453
y: 522.42333984375
z: 0.045355480164289474
visibility: 0.9475605487823486
","x: 184.2996826171875
y: 519.3779907226562
z: 0.15045645833015442
visibility: 0.9317780137062073
","x: 219.36317443847656
y: 531.9348754882812
z: 0.05400758981704712
visibility: 0.8664965033531189
","x: 185.4437255859375
y: 525.4124755859375
z: 0.16400225460529327
visibility: 0.8114598989486694
","x: 227.7154541015625
y: 543.9876708984375
z: -0.04796513542532921
visibility: 0.9441766738891602
","x: 183.10589599609375
y: 542.4923095703125
z: 0.0681721493601799
visibility: 0.9328233003616333
",,,,,,,,,,,,,,,,,,,,,,,,,,,,,,,,,,,,,,,,,,
13,"x: 207.2523193359375
y: 282.1716003417969
z: -0.24501554667949677
visibility: 0.9987075328826904
","x: 209.2633819580078
y: 274.5099792480469
z: -0.23039980232715607
visibility: 0.999152660369873
","x: 210.53887939453125
y: 274.4239501953125
z: -0.2304151952266693
visibility: 0.9991238117218018
","x: 211.68836975097656
y: 274.35968017578125
z: -0.2304392158985138
visibility: 0.9991270899772644
","x: 205.28594970703125
y: 275.2120361328125
z: -0.22810713946819305
visibility: 0.9988360404968262
","x: 203.79318237304688
y: 275.440673828125
z: -0.22817222774028778
visibility: 0.998309314250946
","x: 202.3879852294922
y: 275.7536926269531
z: -0.22821632027626038
visibility: 0.9982434511184692
","x: 213.7798309326172
y: 278.0175476074219
z: -0.1379471719264984
visibility: 0.9987136125564575
","x: 201.04067993164062
y: 279.3919982910156
z: -0.1311822235584259
visibility: 0.9988468289375305
","x: 210.1702880859375
y: 287.7015380859375
z: -0.21050326526165009
visibility: 0.9988910555839539
","x: 204.46640014648438
y: 288.6817321777344
z: -0.20822672545909882
visibility: 0.9979239106178284
","x: 225.21853637695312
y: 313.77667236328125
z: -0.09121890366077423
visibility: 0.9998471140861511
","x: 189.80715942382812
y: 313.0507507324219
z: -0.06811623275279999
visibility: 0.9998028874397278
","x: 236.01905822753906
y: 354.9134521484375
z: -0.21383599936962128
visibility: 0.9127092361450195
","x: 177.0321807861328
y: 350.3354187011719
z: -0.172067791223526
visibility: 0.8066502809524536
","x: 233.3030548095703
y: 326.2543029785156
z: -0.38536888360977173
visibility: 0.8752182126045227
","x: 173.10260009765625
y: 321.501708984375
z: -0.37310218811035156
visibility: 0.7881805300712585
","x: 227.08126831054688
y: 314.16217041015625
z: -0.42159050703048706
visibility: 0.8148567080497742
","x: 170.5003662109375
y: 312.1053466796875
z: -0.4124344289302826
visibility: 0.7504199147224426
","x: 225.974853515625
y: 310.8797607421875
z: -0.41239315271377563
visibility: 0.8036614060401917
","x: 171.9353790283203
y: 306.9949951171875
z: -0.4101436734199524
visibility: 0.7369488477706909
","x: 225.9198455810547
y: 316.04461669921875
z: -0.3849450647830963
visibility: 0.7528086304664612
","x: 174.02598571777344
y: 307.786376953125
z: -0.37783652544021606
visibility: 0.7199510931968689
","x: 217.19627380371094
y: 405.8102722167969
z: -2.1309893782017753e-05
visibility: 0.9998409152030945
","x: 195.3991241455078
y: 404.66534423828125
z: -6.383347499649972e-05
visibility: 0.9998214840888977
","x: 222.41073608398438
y: 464.7738037109375
z: -0.04886291176080704
visibility: 0.9337453842163086
","x: 186.53790283203125
y: 458.5235290527344
z: -0.16585993766784668
visibility: 0.91518235206604
","x: 222.21173095703125
y: 523.0408325195312
z: 0.15151020884513855
visibility: 0.9514238238334656
","x: 183.75277709960938
y: 516.5955810546875
z: 0.010583902709186077
visibility: 0.9380877017974854
","x: 219.72613525390625
y: 532.4181518554688
z: 0.1656903475522995
visibility: 0.8630337715148926
","x: 185.19143676757812
y: 523.229248046875
z: 0.02334103360772133
visibility: 0.8212088346481323
","x: 227.39402770996094
y: 544.0166015625
z: 0.060768239200115204
visibility: 0.9473153948783875
","x: 182.29754638671875
y: 541.8786010742188
z: -0.09278592467308044
visibility: 0.9388118982315063
",,,,,,,,,,,,,,,,,,,,,,,,,,,,,,,,,,,,,,,,,,
14,"x: 209.30824279785156
y: 281.55218505859375
z: -0.2085587978363037
visibility: 0.9987807273864746
","x: 211.42945861816406
y: 274.08673095703125
z: -0.19546924531459808
visibility: 0.9991286993026733
","x: 212.92544555664062
y: 273.99462890625
z: -0.1955234259366989
visibility: 0.9991011619567871
","x: 214.23001098632812
y: 273.9333801269531
z: -0.19556103646755219
visibility: 0.9991015791893005
","x: 207.2645263671875
y: 274.7988586425781
z: -0.18992766737937927
visibility: 0.9988145232200623
","x: 205.88833618164062
y: 275.07177734375
z: -0.18996529281139374
visibility: 0.9983258247375488
","x: 204.54537963867188
y: 275.4382629394531
z: -0.19000239670276642
visibility: 0.9982637166976929
","x: 216.71827697753906
y: 277.37469482421875
z: -0.11058425903320312
visibility: 0.9986365437507629
","x: 203.33981323242188
y: 279.1666564941406
z: -0.08636487275362015
visibility: 0.9986938834190369
","x: 212.35440063476562
y: 287.4615478515625
z: -0.17711606621742249
visibility: 0.9989148378372192
","x: 207.02188110351562
y: 288.3923034667969
z: -0.17021875083446503
visibility: 0.9980321526527405
","x: 227.7066650390625
y: 313.9760437011719
z: -0.07661236077547073
visibility: 0.9997236728668213
","x: 193.75140380859375
y: 312.9927673339844
z: -0.025359177961945534
visibility: 0.9996798634529114
","x: 235.49400329589844
y: 352.4911193847656
z: -0.2043951004743576
visibility: 0.9178451299667358
","x: 182.70069885253906
y: 349.46759033203125
z: -0.12569674849510193
visibility: 0.8139234781265259
","x: 231.6588134765625
y: 328.3395690917969
z: -0.36749833822250366
visibility: 0.8830618262290955
","x: 179.4794464111328
y: 321.43878173828125
z: -0.3350626826286316
visibility: 0.7953888773918152
","x: 224.72015380859375
y: 318.5394287109375
z: -0.4026458263397217
visibility: 0.8241132497787476
","x: 172.98043823242188
y: 312.5080261230469
z: -0.37529292702674866
visibility: 0.7530680894851685
","x: 225.3438720703125
y: 315.470703125
z: -0.39740437269210815
visibility: 0.8137682676315308
","x: 174.63856506347656
y: 307.02777099609375
z: -0.37792450189590454
visibility: 0.7404975295066833
","x: 225.39031982421875
y: 318.0609436035156
z: -0.36863088607788086
visibility: 0.76285320520401
","x: 177.9193572998047
y: 310.14312744140625
z: -0.34300267696380615
visibility: 0.7219595909118652
","x: 218.65440368652344
y: 406.3021545410156
z: -0.00603127246722579
visibility: 0.9998026490211487
","x: 197.17849731445312
y: 403.55731201171875
z: 0.0060011399909853935
visibility: 0.9998137354850769
","x: 222.82180786132812
y: 467.45501708984375
z: -0.03255455568432808
visibility: 0.9393975734710693
","x: 186.8491973876953
y: 457.19354248046875
z: -0.13632896542549133
visibility: 0.9234461784362793
","x: 222.34942626953125
y: 523.7957153320312
z: 0.12632636725902557
visibility: 0.9553171992301941
","x: 182.84811401367188
y: 516.5399780273438
z: 0.01581081561744213
visibility: 0.9439022541046143
","x: 219.93988037109375
y: 533.22265625
z: 0.13580206036567688
visibility: 0.8633091449737549
","x: 184.7262420654297
y: 524.5643310546875
z: 0.025416966527700424
visibility: 0.831980288028717
","x: 227.40390014648438
y: 544.146240234375
z: 0.03019295074045658
visibility: 0.9507424831390381
","x: 181.68287658691406
y: 540.508056640625
z: -0.08228600770235062
visibility: 0.9442650079727173
",,,,,,,,,,,,,,,,,,,,,,,,,,,,,,,,,,,,,,,,,,
15,"x: 209.60662841796875
y: 278.3369140625
z: -0.22188818454742432
visibility: 0.9988818764686584
","x: 211.61898803710938
y: 271.848876953125
z: -0.20943991839885712
visibility: 0.9991763830184937
","x: 212.93714904785156
y: 271.8042907714844
z: -0.2094816416501999
visibility: 0.9991494417190552
","x: 214.3058624267578
y: 271.7899169921875
z: -0.20953723788261414
visibility: 0.999147891998291
","x: 208.1559295654297
y: 272.2909851074219
z: -0.20546850562095642
visibility: 0.9988844394683838
","x: 206.83543395996094
y: 272.47796630859375
z: -0.20550183951854706
visibility: 0.9984367489814758
","x: 205.54042053222656
y: 272.70068359375
z: -0.20552675426006317
visibility: 0.9983755350112915
","x: 217.3268280029297
y: 276.08929443359375
z: -0.12136199325323105
visibility: 0.9986974596977234
","x: 204.3435516357422
y: 277.05364990234375
z: -0.10633905231952667
visibility: 0.9986926317214966
","x: 212.0745086669922
y: 285.18609619140625
z: -0.1886979192495346
visibility: 0.9989953637123108
","x: 207.7045135498047
y: 285.4870910644531
z: -0.18504811823368073
visibility: 0.9981911778450012
","x: 227.4906463623047
y: 314.0798645019531
z: -0.1004193052649498
visibility: 0.9996640086174011
","x: 194.12753295898438
y: 312.9031066894531
z: -0.041072387248277664
visibility: 0.999651312828064
","x: 235.956298828125
y: 352.8786926269531
z: -0.2277911901473999
visibility: 0.9237985014915466
","x: 182.85533142089844
y: 348.580322265625
z: -0.11612103134393692
visibility: 0.8253034949302673
","x: 230.90823364257812
y: 328.0602722167969
z: -0.4074035584926605
visibility: 0.8923190236091614
","x: 175.8092041015625
y: 319.94384765625
z: -0.3138920068740845
visibility: 0.8120483756065369
","x: 225.89144897460938
y: 318.69775390625
z: -0.444282591342926
visibility: 0.8364378213882446
","x: 172.07595825195312
y: 312.6202087402344
z: -0.3507084250450134
visibility: 0.770898699760437
","x: 226.08619689941406
y: 315.3909606933594
z: -0.4407728612422943
visibility: 0.8268672823905945
","x: 172.18600463867188
y: 307.31884765625
z: -0.35643261671066284
visibility: 0.7595773935317993
","x: 225.75357055664062
y: 318.0389709472656
z: -0.40984970331192017
visibility: 0.7783065438270569
","x: 177.39341735839844
y: 310.5163269042969
z: -0.3227948248386383
visibility: 0.7413901090621948
","x: 218.55209350585938
y: 406.7559814453125
z: -0.007661513984203339
visibility: 0.9997988343238831
","x: 196.90501403808594
y: 404.15667724609375
z: 0.007563645951449871
visibility: 0.999813973903656
","x: 221.77052307128906
y: 468.8033752441406
z: 0.030441289767622948
visibility: 0.9450042247772217
","x: 189.12088012695312
y: 464.9515380859375
z: 0.029912859201431274
visibility: 0.9308547377586365
","x: 222.43312072753906
y: 523.6896362304688
z: 0.21334664523601532
visibility: 0.9591777920722961
","x: 183.12734985351562
y: 519.3013916015625
z: 0.20266342163085938
visibility: 0.9491979479789734
","x: 219.90826416015625
y: 533.0570068359375
z: 0.2265191525220871
visibility: 0.8697483539581299
","x: 185.1629180908203
y: 526.9768676757812
z: 0.21499690413475037
visibility: 0.8425883054733276
","x: 227.50338745117188
y: 544.6911010742188
z: 0.13153396546840668
visibility: 0.9547114372253418
","x: 180.9532470703125
y: 542.0743408203125
z: 0.1190631166100502
visibility: 0.9492673873901367
",,,,,,,,,,,,,,,,,,,,,,,,,,,,,,,,,,,,,,,,,,
16,"x: 209.07923889160156
y: 278.6457214355469
z: -0.22840151190757751
visibility: 0.9989882707595825
","x: 211.30609130859375
y: 271.89947509765625
z: -0.2233857363462448
visibility: 0.9992488026618958
","x: 212.60983276367188
y: 271.8805236816406
z: -0.22343066334724426
visibility: 0.9992247819900513
","x: 213.94447326660156
y: 271.88134765625
z: -0.22346535325050354
visibility: 0.9992223381996155
","x: 207.37948608398438
y: 272.465576171875
z: -0.20974604785442352
visibility: 0.9989798665046692
","x: 205.98330688476562
y: 272.77630615234375
z: -0.2097550928592682
visibility: 0.9985730648040771
","x: 204.75628662109375
y: 273.08209228515625
z: -0.20977160334587097
visibility: 0.9985141754150391
","x: 216.98753356933594
y: 276.1153564453125
z: -0.14997553825378418
visibility: 0.9988117218017578
","x: 203.77725219726562
y: 277.22845458984375
z: -0.11314849555492401
visibility: 0.9987850189208984
","x: 211.98094177246094
y: 285.4571838378906
z: -0.2003813087940216
visibility: 0.9990890622138977
","x: 206.9585418701172
y: 285.8648986816406
z: -0.18929381668567657
visibility: 0.9983611702919006
","x: 229.53407287597656
y: 313.93896484375
z: -0.10987232625484467
visibility: 0.9996819496154785
","x: 195.7477264404297
y: 311.6744384765625
z: -0.0349341556429863
visibility: 0.9996679425239563
","x: 236.2993621826172
y: 355.23724365234375
z: -0.2474069595336914
visibility: 0.930457353591919
","x: 184.31333923339844
y: 348.1798095703125
z: -0.06681724637746811
visibility: 0.8385986089706421
","x: 234.43214416503906
y: 326.4746398925781
z: -0.45343106985092163
visibility: 0.9023881554603577
","x: 174.27899169921875
y: 317.4096984863281
z: -0.22834984958171844
visibility: 0.8294565677642822
","x: 233.35525512695312
y: 316.61749267578125
z: -0.4938488006591797
visibility: 0.8510690927505493
","x: 170.80979919433594
y: 308.9666748046875
z: -0.25714045763015747
visibility: 0.7908927798271179
","x: 232.85421752929688
y: 313.5041198730469
z: -0.4896169602870941
visibility: 0.8423650860786438
","x: 169.95748901367188
y: 304.68389892578125
z: -0.26803499460220337
visibility: 0.7807708978652954
","x: 232.3954315185547
y: 316.53302001953125
z: -0.4564055800437927
visibility: 0.7974398136138916
","x: 174.09849548339844
y: 307.3100891113281
z: -0.23808102309703827
visibility: 0.7636929750442505
","x: 219.4129638671875
y: 407.1219482421875
z: -0.01510053314268589
visibility: 0.99980229139328
","x: 198.24386596679688
y: 404.6739501953125
z: 0.015037775039672852
visibility: 0.9998177289962769
","x: 221.55848693847656
y: 468.46331787109375
z: 0.033618610352277756
visibility: 0.950007975101471
","x: 190.2961883544922
y: 466.3438720703125
z: 0.05096306651830673
visibility: 0.937501072883606
","x: 222.35794067382812
y: 523.635986328125
z: 0.2102779895067215
visibility: 0.9626464247703552
","x: 183.68968200683594
y: 519.0654296875
z: 0.21524763107299805
visibility: 0.9539308547973633
","x: 220.01324462890625
y: 533.1428833007812
z: 0.22300174832344055
visibility: 0.8763918280601501
","x: 185.9625701904297
y: 527.329345703125
z: 0.22695612907409668
visibility: 0.8535401225090027
","x: 227.17076110839844
y: 544.7203369140625
z: 0.12796622514724731
visibility: 0.9583157300949097
","x: 180.6754913330078
y: 541.4837036132812
z: 0.1325571984052658
visibility: 0.953757107257843
","x: 172.9093475341797
y: 314.9014587402344
z: 0.0
","x: 173.36868286132812
y: 312.27618408203125
z: -0.004511408973485231
","x: 172.17579650878906
y: 309.531982421875
z: -0.009325999766588211
","x: 169.87445068359375
y: 309.9386291503906
z: -0.013951282016932964
","x: 167.4722900390625
y: 311.5039978027344
z: -0.018413033336400986
","x: 166.75111389160156
y: 298.44232177734375
z: -0.009014545939862728
","x: 162.6262664794922
y: 291.119873046875
z: -0.015658417716622353
","x: 159.1432647705078
y: 285.599365234375
z: -0.020681221038103104
","x: 156.30111694335938
y: 281.379638671875
z: -0.023961229249835014
","x: 165.0315704345703
y: 301.43511962890625
z: -0.009352928027510643
","x: 162.31585693359375
y: 303.5692443847656
z: -0.014901084825396538
","x: 165.7340850830078
y: 306.73699951171875
z: -0.014794186688959599
","x: 167.72760009765625
y: 306.9786682128906
z: -0.013943890109658241
","x: 164.32102966308594
y: 305.9722595214844
z: -0.010378790087997913
","x: 162.38449096679688
y: 308.60174560546875
z: -0.014590378850698471
","x: 165.51832580566406
y: 310.9917907714844
z: -0.012325436808168888
","x: 167.57247924804688
y: 311.1072998046875
z: -0.010488679632544518
","x: 164.25010681152344
y: 310.6826171875
z: -0.012147645466029644
","x: 162.92103576660156
y: 313.3581237792969
z: -0.014663427136838436
","x: 165.55587768554688
y: 314.9299621582031
z: -0.013439432717859745
","x: 167.2353973388672
y: 314.7952575683594
z: -0.012183001264929771
",,,,,,,,,,,,,,,,,,,,,
17,"x: 209.07923889160156
y: 278.6457214355469
z: -0.22840151190757751
visibility: 0.9989882707595825
","x: 211.30609130859375
y: 271.89947509765625
z: -0.2233857363462448
visibility: 0.9992488026618958
","x: 212.60983276367188
y: 271.8805236816406
z: -0.22343066334724426
visibility: 0.9992247819900513
","x: 213.94447326660156
y: 271.88134765625
z: -0.22346535325050354
visibility: 0.9992223381996155
","x: 207.37948608398438
y: 272.465576171875
z: -0.20974604785442352
visibility: 0.9989798665046692
","x: 205.98330688476562
y: 272.77630615234375
z: -0.2097550928592682
visibility: 0.9985730648040771
","x: 204.75628662109375
y: 273.08209228515625
z: -0.20977160334587097
visibility: 0.9985141754150391
","x: 216.98753356933594
y: 276.1153564453125
z: -0.14997553825378418
visibility: 0.9988117218017578
","x: 203.77725219726562
y: 277.22845458984375
z: -0.11314849555492401
visibility: 0.9987850189208984
","x: 211.98094177246094
y: 285.4571838378906
z: -0.2003813087940216
visibility: 0.9990890622138977
","x: 206.9585418701172
y: 285.8648986816406
z: -0.18929381668567657
visibility: 0.9983611702919006
","x: 229.53407287597656
y: 313.93896484375
z: -0.10987232625484467
visibility: 0.9996819496154785
","x: 195.7477264404297
y: 311.6744384765625
z: -0.0349341556429863
visibility: 0.9996679425239563
","x: 236.2993621826172
y: 355.23724365234375
z: -0.2474069595336914
visibility: 0.930457353591919
","x: 184.31333923339844
y: 348.1798095703125
z: -0.06681724637746811
visibility: 0.8385986089706421
","x: 234.43214416503906
y: 326.4746398925781
z: -0.45343106985092163
visibility: 0.9023881554603577
","x: 174.27899169921875
y: 317.4096984863281
z: -0.22834984958171844
visibility: 0.8294565677642822
","x: 233.35525512695312
y: 316.61749267578125
z: -0.4938488006591797
visibility: 0.8510690927505493
","x: 170.80979919433594
y: 308.9666748046875
z: -0.25714045763015747
visibility: 0.7908927798271179
","x: 232.85421752929688
y: 313.5041198730469
z: -0.4896169602870941
visibility: 0.8423650860786438
","x: 169.95748901367188
y: 304.68389892578125
z: -0.26803499460220337
visibility: 0.7807708978652954
","x: 232.3954315185547
y: 316.53302001953125
z: -0.4564055800437927
visibility: 0.7974398136138916
","x: 174.09849548339844
y: 307.3100891113281
z: -0.23808102309703827
visibility: 0.7636929750442505
","x: 219.4129638671875
y: 407.1219482421875
z: -0.01510053314268589
visibility: 0.99980229139328
","x: 198.24386596679688
y: 404.6739501953125
z: 0.015037775039672852
visibility: 0.9998177289962769
","x: 221.55848693847656
y: 468.46331787109375
z: 0.033618610352277756
visibility: 0.950007975101471
","x: 190.2961883544922
y: 466.3438720703125
z: 0.05096306651830673
visibility: 0.937501072883606
","x: 222.35794067382812
y: 523.635986328125
z: 0.2102779895067215
visibility: 0.9626464247703552
","x: 183.68968200683594
y: 519.0654296875
z: 0.21524763107299805
visibility: 0.9539308547973633
","x: 220.01324462890625
y: 533.1428833007812
z: 0.22300174832344055
visibility: 0.8763918280601501
","x: 185.9625701904297
y: 527.329345703125
z: 0.22695612907409668
visibility: 0.8535401225090027
","x: 227.17076110839844
y: 544.7203369140625
z: 0.12796622514724731
visibility: 0.9583157300949097
","x: 180.6754913330078
y: 541.4837036132812
z: 0.1325571984052658
visibility: 0.953757107257843
","x: 172.9093475341797
y: 314.9014587402344
z: 0.0
","x: 173.36868286132812
y: 312.27618408203125
z: -0.004511408973485231
","x: 172.17579650878906
y: 309.531982421875
z: -0.009325999766588211
","x: 169.87445068359375
y: 309.9386291503906
z: -0.013951282016932964
","x: 167.4722900390625
y: 311.5039978027344
z: -0.018413033336400986
","x: 166.75111389160156
y: 298.44232177734375
z: -0.009014545939862728
","x: 162.6262664794922
y: 291.119873046875
z: -0.015658417716622353
","x: 159.1432647705078
y: 285.599365234375
z: -0.020681221038103104
","x: 156.30111694335938
y: 281.379638671875
z: -0.023961229249835014
","x: 165.0315704345703
y: 301.43511962890625
z: -0.009352928027510643
","x: 162.31585693359375
y: 303.5692443847656
z: -0.014901084825396538
","x: 165.7340850830078
y: 306.73699951171875
z: -0.014794186688959599
","x: 167.72760009765625
y: 306.9786682128906
z: -0.013943890109658241
","x: 164.32102966308594
y: 305.9722595214844
z: -0.010378790087997913
","x: 162.38449096679688
y: 308.60174560546875
z: -0.014590378850698471
","x: 165.51832580566406
y: 310.9917907714844
z: -0.012325436808168888
","x: 167.57247924804688
y: 311.1072998046875
z: -0.010488679632544518
","x: 164.25010681152344
y: 310.6826171875
z: -0.012147645466029644
","x: 162.92103576660156
y: 313.3581237792969
z: -0.014663427136838436
","x: 165.55587768554688
y: 314.9299621582031
z: -0.013439432717859745
","x: 167.2353973388672
y: 314.7952575683594
z: -0.012183001264929771
",,,,,,,,,,,,,,,,,,,,,
18,"x: 209.72268676757812
y: 279.44366455078125
z: -0.2024511843919754
visibility: 0.9990811347961426
","x: 212.06936645507812
y: 272.94976806640625
z: -0.19095869362354279
visibility: 0.9993031024932861
","x: 213.4069061279297
y: 273.0049743652344
z: -0.19099187850952148
visibility: 0.9992775917053223
","x: 214.61233520507812
y: 273.06500244140625
z: -0.19101889431476593
visibility: 0.999274730682373
","x: 208.02951049804688
y: 273.1304016113281
z: -0.18381746113300323
visibility: 0.9990624785423279
","x: 206.69204711914062
y: 273.2492370605469
z: -0.18385961651802063
visibility: 0.9986915588378906
","x: 205.53533935546875
y: 273.38275146484375
z: -0.18387751281261444
visibility: 0.9986398816108704
","x: 217.6385040283203
y: 277.5042419433594
z: -0.10985586792230606
visibility: 0.9988915920257568
","x: 204.4573516845703
y: 277.6382751464844
z: -0.08055473864078522
visibility: 0.9988706111907959
","x: 212.5663604736328
y: 286.40142822265625
z: -0.17228834331035614
visibility: 0.9991630911827087
","x: 207.5790252685547
y: 286.3562927246094
z: -0.16384300589561462
visibility: 0.9985082149505615
","x: 230.57696533203125
y: 314.39459228515625
z: -0.07234221696853638
visibility: 0.9996122121810913
","x: 196.46653747558594
y: 313.1319274902344
z: -0.019981717690825462
visibility: 0.9996762871742249
","x: 240.80992126464844
y: 351.0361022949219
z: -0.2010052502155304
visibility: 0.9360509514808655
","x: 185.0047149658203
y: 340.3175048828125
z: -0.10723806917667389
visibility: 0.8501670360565186
","x: 235.742919921875
y: 327.1492919921875
z: -0.3743166923522949
visibility: 0.9099995493888855
","x: 176.3114776611328
y: 318.1323547363281
z: -0.2784278988838196
visibility: 0.843174397945404
","x: 234.01087951660156
y: 318.6459045410156
z: -0.40934115648269653
visibility: 0.8607081770896912
","x: 171.4851531982422
y: 309.66461181640625
z: -0.2789517045021057
visibility: 0.805118978023529
","x: 233.37185668945312
y: 316.98419189453125
z: -0.4044298231601715
visibility: 0.8526972532272339
","x: 171.2737579345703
y: 305.815673828125
z: -0.287911593914032
visibility: 0.7960168719291687
","x: 233.0592498779297
y: 319.3866271972656
z: -0.3762160837650299
visibility: 0.8094539642333984
","x: 174.63514709472656
y: 309.5361633300781
z: -0.27634334564208984
visibility: 0.7792420983314514
","x: 221.02749633789062
y: 407.7175598144531
z: -0.011299757286906242
visibility: 0.9997727274894714
","x: 199.69998168945312
y: 404.6169738769531
z: 0.011248357594013214
visibility: 0.9998217225074768
","x: 223.3936309814453
y: 466.967529296875
z: -0.07740292698144913
visibility: 0.953843891620636
","x: 189.54165649414062
y: 462.94732666015625
z: -0.1572481244802475
visibility: 0.9435020089149475
","x: 222.21514892578125
y: 523.9742431640625
z: 0.06005561351776123
visibility: 0.9650588631629944
","x: 188.1593017578125
y: 521.78125
z: -0.025088433176279068
visibility: 0.9581981897354126
","x: 219.44911193847656
y: 533.7076416015625
z: 0.0677187591791153
visibility: 0.8803684115409851
","x: 192.96817016601562
y: 533.53369140625
z: -0.017940618097782135
visibility: 0.8640648126602173
","x: 227.48191833496094
y: 545.2425537109375
z: -0.03239915519952774
visibility: 0.9607588052749634
","x: 180.61753845214844
y: 542.802490234375
z: -0.12374071031808853
visibility: 0.9577761292457581
",,,,,,,,,,,,,,,,,,,,,,,,,,,,,,,,,,,,,,,,,,
19,"x: 210.47500610351562
y: 281.49127197265625
z: -0.21190539002418518
visibility: 0.9991702437400818
","x: 212.8314971923828
y: 275.1175231933594
z: -0.19958040118217468
visibility: 0.9993654489517212
","x: 214.2589111328125
y: 275.0943298339844
z: -0.1996293067932129
visibility: 0.999342679977417
","x: 215.42697143554688
y: 275.0921936035156
z: -0.19966129958629608
visibility: 0.9993396401405334
","x: 208.72630310058594
y: 275.28155517578125
z: -0.1939266473054886
visibility: 0.9991463422775269
","x: 207.5045928955078
y: 275.2750549316406
z: -0.1939597725868225
visibility: 0.9988094568252563
","x: 206.38270568847656
y: 275.337890625
z: -0.19397315382957458
visibility: 0.9987613558769226
","x: 218.2548828125
y: 279.232666015625
z: -0.11437562853097916
visibility: 0.9989911913871765
","x: 205.41416931152344
y: 279.3011779785156
z: -0.08964749425649643
visibility: 0.998960018157959
","x: 213.576171875
y: 288.1326599121094
z: -0.18021884560585022
visibility: 0.9992409944534302
","x: 208.3868865966797
y: 288.044189453125
z: -0.17314305901527405
visibility: 0.9986494183540344
","x: 230.44589233398438
y: 315.773193359375
z: -0.07392533123493195
visibility: 0.9996364116668701
","x: 196.9585418701172
y: 315.19525146484375
z: -0.0181195680052042
visibility: 0.999689519405365
","x: 237.95162963867188
y: 359.5449523925781
z: -0.1922629177570343
visibility: 0.9413400292396545
","x: 187.4814910888672
y: 348.29998779296875
z: -0.08431859314441681
visibility: 0.858945906162262
","x: 237.94871520996094
y: 334.9510192871094
z: -0.3777933716773987
visibility: 0.918366014957428
","x: 175.94102478027344
y: 330.9186096191406
z: -0.2823517620563507
visibility: 0.8566486835479736
","x: 241.3887939453125
y: 330.531494140625
z: -0.41262251138687134
visibility: 0.8731893301010132
","x: 170.683837890625
y: 328.93359375
z: -0.31443044543266296
visibility: 0.8205141425132751
","x: 241.1636962890625
y: 326.4987487792969
z: -0.4199649393558502
visibility: 0.8660011887550354
","x: 170.77413940429688
y: 325.0074462890625
z: -0.32381901144981384
visibility: 0.812516987323761
","x: 239.10324096679688
y: 327.5850830078125
z: -0.38050687313079834
visibility: 0.8261581659317017
","x: 173.66424560546875
y: 326.2982482910156
z: -0.2918244004249573
visibility: 0.7966579794883728
","x: 221.94476318359375
y: 407.87335205078125
z: -0.011709962040185928
visibility: 0.9997618198394775
","x: 200.42225646972656
y: 405.37652587890625
z: 0.011703826487064362
visibility: 0.9998272061347961
","x: 223.49826049804688
y: 468.0886535644531
z: -0.07111766934394836
visibility: 0.9577178359031677
","x: 191.57650756835938
y: 461.84881591796875
z: -0.13330240547657013
visibility: 0.9489166140556335
","x: 222.77239990234375
y: 524.3329467773438
z: 0.07530844211578369
visibility: 0.9676943421363831
","x: 191.18394470214844
y: 523.091796875
z: 0.011022182181477547
visibility: 0.962052583694458
","x: 219.91744995117188
y: 534.372314453125
z: 0.08433936536312103
visibility: 0.8841407299041748
","x: 195.79147338867188
y: 534.4532470703125
z: 0.01923011615872383
visibility: 0.8738610148429871
","x: 227.24887084960938
y: 545.1427001953125
z: -0.017382826656103134
visibility: 0.9635501503944397
","x: 182.0453643798828
y: 543.7266235351562
z: -0.08820168673992157
visibility: 0.9614956974983215
",,,,,,,,,,,,,,,,,,,,,,,,,,,,,,,,,,,,,,,,,,
20,"x: 211.55653381347656
y: 282.15789794921875
z: -0.21679870784282684
visibility: 0.9992468357086182
","x: 213.8135986328125
y: 275.5677185058594
z: -0.2047368288040161
visibility: 0.9994152784347534
","x: 215.17872619628906
y: 275.5238037109375
z: -0.20478355884552002
visibility: 0.9993934035301208
","x: 216.33204650878906
y: 275.52313232421875
z: -0.20482099056243896
visibility: 0.9993898272514343
","x: 209.6707763671875
y: 275.8829650878906
z: -0.19942523539066315
visibility: 0.9992166757583618
","x: 208.4248809814453
y: 275.89337158203125
z: -0.1994551569223404
visibility: 0.9989098310470581
","x: 207.29026794433594
y: 275.9606628417969
z: -0.1994663029909134
visibility: 0.9988654851913452
","x: 219.09979248046875
y: 279.67352294921875
z: -0.11989063024520874
visibility: 0.9990726113319397
","x: 206.1471405029297
y: 279.90924072265625
z: -0.09566673636436462
visibility: 0.9990327954292297
","x: 214.63609313964844
y: 288.68463134765625
z: -0.184926837682724
visibility: 0.9993081092834473
","x: 209.48048400878906
y: 288.82342529296875
z: -0.17813009023666382
visibility: 0.9987717866897583
","x: 231.31149291992188
y: 316.20477294921875
z: -0.07707975804805756
visibility: 0.9996365308761597
","x: 197.5486297607422
y: 316.44903564453125
z: -0.028327295556664467
visibility: 0.9996822476387024
","x: 240.4470672607422
y: 356.7665100097656
z: -0.19499443471431732
visibility: 0.945960521697998
","x: 188.235595703125
y: 351.1492919921875
z: -0.10984142124652863
visibility: 0.8653254508972168
","x: 236.12574768066406
y: 336.3096923828125
z: -0.37751537561416626
visibility: 0.9245358109474182
","x: 178.8218536376953
y: 333.29058837890625
z: -0.31936147809028625
visibility: 0.8668055534362793
","x: 238.11984252929688
y: 330.81488037109375
z: -0.41421395540237427
visibility: 0.8812863230705261
","x: 173.59075927734375
y: 332.4767761230469
z: -0.36122503876686096
visibility: 0.8312162160873413
","x: 237.9082489013672
y: 327.24871826171875
z: -0.4156407415866852
visibility: 0.8745981454849243
","x: 174.35223388671875
y: 328.9053955078125
z: -0.36816149950027466
visibility: 0.8239254355430603
","x: 238.53038024902344
y: 328.40142822265625
z: -0.3801894783973694
visibility: 0.8361654877662659
","x: 177.39813232421875
y: 330.2238464355469
z: -0.3291397988796234
visibility: 0.8078493475914001
","x: 220.5592041015625
y: 408.7164611816406
z: -0.01178416982293129
visibility: 0.999758243560791
","x: 199.359375
y: 405.679443359375
z: 0.011738276109099388
visibility: 0.9998288750648499
","x: 222.47283935546875
y: 468.1227111816406
z: -0.0337749682366848
visibility: 0.9612079858779907
","x: 191.01483154296875
y: 465.1104736328125
z: -0.0668177530169487
visibility: 0.9537477493286133
","x: 222.45716857910156
y: 524.1961059570312
z: 0.13715240359306335
visibility: 0.9700901508331299
","x: 191.24737548828125
y: 522.8575439453125
z: 0.09767915308475494
visibility: 0.9654951691627502
","x: 219.85992431640625
y: 534.3257446289062
z: 0.14833596348762512
visibility: 0.8877429962158203
","x: 195.87466430664062
y: 533.928466796875
z: 0.10834479331970215
visibility: 0.8825467824935913
","x: 227.06588745117188
y: 545.0835571289062
z: 0.04960666224360466
visibility: 0.9659833908081055
","x: 182.18701171875
y: 543.4293212890625
z: 0.011394308879971504
visibility: 0.9647019505500793
",,,,,,,,,,,,,,,,,,,,,,,,,,,,,,,,,,,,,,,,,,
21,"x: 212.28610229492188
y: 282.2919006347656
z: -0.21902000904083252
visibility: 0.9992859363555908
","x: 214.5598602294922
y: 275.6514892578125
z: -0.21176746487617493
visibility: 0.9994062185287476
","x: 216.00669860839844
y: 275.5639343261719
z: -0.21184270083904266
visibility: 0.9993815422058105
","x: 217.26422119140625
y: 275.52960205078125
z: -0.21188969910144806
visibility: 0.9993752837181091
","x: 210.4185791015625
y: 276.0052185058594
z: -0.20054185390472412
visibility: 0.9992184638977051
","x: 209.2223358154297
y: 275.99884033203125
z: -0.200578972697258
visibility: 0.9989274144172668
","x: 208.0609893798828
y: 276.0565490722656
z: -0.20061174035072327
visibility: 0.9988929629325867
","x: 220.1725616455078
y: 279.62060546875
z: -0.13685789704322815
visibility: 0.9990888237953186
","x: 207.0978240966797
y: 279.90301513671875
z: -0.09925433993339539
visibility: 0.9989640712738037
","x: 215.47805786132812
y: 288.6954040527344
z: -0.18975381553173065
visibility: 0.9993395209312439
","x: 210.13723754882812
y: 288.9435119628906
z: -0.18101367354393005
visibility: 0.9988282918930054
","x: 233.1203155517578
y: 312.96917724609375
z: -0.09648559987545013
visibility: 0.9996324777603149
","x: 199.49795532226562
y: 316.1670227050781
z: -0.016995897516608238
visibility: 0.9996508359909058
","x: 243.4448699951172
y: 346.7266540527344
z: -0.2159779965877533
visibility: 0.950057864189148
","x: 191.78411865234375
y: 354.0740661621094
z: -0.07035935670137405
visibility: 0.861477792263031
","x: 230.13763427734375
y: 335.20037841796875
z: -0.39219921827316284
visibility: 0.9292418360710144
","x: 181.3997344970703
y: 330.4045104980469
z: -0.27421829104423523
visibility: 0.876305878162384
","x: 226.2381134033203
y: 333.38031005859375
z: -0.4285596013069153
visibility: 0.8865453600883484
","x: 175.43942260742188
y: 329.84979248046875
z: -0.3111823797225952
visibility: 0.8423947691917419
","x: 223.5677947998047
y: 328.72296142578125
z: -0.42424964904785156
visibility: 0.8799355030059814
","x: 175.44940185546875
y: 326.04931640625
z: -0.31943050026893616
visibility: 0.8357700109481812
","x: 224.42605590820312
y: 329.50189208984375
z: -0.39223092794418335
visibility: 0.8407986760139465
","x: 177.9954833984375
y: 326.6674499511719
z: -0.28352290391921997
visibility: 0.8192509412765503
","x: 219.57977294921875
y: 408.2464904785156
z: -0.01906958594918251
visibility: 0.9997466802597046
","x: 198.50180053710938
y: 402.28662109375
z: 0.018982719630002975
visibility: 0.9998298287391663
","x: 222.0323944091797
y: 469.42852783203125
z: -0.029461106285452843
visibility: 0.9641432166099548
","x: 190.13296508789062
y: 463.4793395996094
z: -0.0818115621805191
visibility: 0.9581582546234131
","x: 222.19747924804688
y: 523.0494995117188
z: 0.1507735401391983
visibility: 0.9722016453742981
","x: 189.4244842529297
y: 521.7645874023438
z: 0.07236294448375702
visibility: 0.9686911106109619
","x: 219.8528594970703
y: 532.9225463867188
z: 0.1630675047636032
visibility: 0.8893851637840271
","x: 193.6842498779297
y: 532.6380615234375
z: 0.08263697475194931
visibility: 0.8910850882530212
","x: 226.95523071289062
y: 544.8816528320312
z: 0.0621141716837883
visibility: 0.9679093360900879
","x: 181.74685668945312
y: 542.7335205078125
z: -0.01913013868033886
visibility: 0.9677569270133972
",,,,,,,,,,,,,,,,,,,,,,,,,,,,,,,,,,,,,,,,,,
22,"x: 211.14341735839844
y: 282.2989501953125
z: -0.21097108721733093
visibility: 0.9992891550064087
","x: 213.40635681152344
y: 275.5878601074219
z: -0.20642760396003723
visibility: 0.9993317127227783
","x: 214.93115234375
y: 275.4439697265625
z: -0.20649436116218567
visibility: 0.9993143081665039
","x: 216.32626342773438
y: 275.3207092285156
z: -0.20655176043510437
visibility: 0.9993005394935608
","x: 209.51087951660156
y: 276.01336669921875
z: -0.19260357320308685
visibility: 0.999129593372345
","x: 208.37147521972656
y: 276.0606689453125
z: -0.19263771176338196
visibility: 0.9988486766815186
","x: 207.2710723876953
y: 276.2076416015625
z: -0.19266515970230103
visibility: 0.9988124966621399
","x: 219.59202575683594
y: 278.88714599609375
z: -0.14430201053619385
visibility: 0.9990458488464355
","x: 207.01364135742188
y: 279.8956604003906
z: -0.08588859438896179
visibility: 0.9987367987632751
","x: 214.4336395263672
y: 288.69378662109375
z: -0.1873186230659485
visibility: 0.9993517398834229
","x: 209.15142822265625
y: 288.962158203125
z: -0.17042723298072815
visibility: 0.998837947845459
","x: 233.72642517089844
y: 313.90789794921875
z: -0.11356817185878754
visibility: 0.999610960483551
","x: 199.7168426513672
y: 316.0682067871094
z: -0.017639733850955963
visibility: 0.9996254444122314
","x: 242.502197265625
y: 345.1866455078125
z: -0.25916165113449097
visibility: 0.9541795253753662
","x: 191.4575653076172
y: 354.60333251953125
z: -0.08720268309116364
visibility: 0.8585288524627686
","x: 225.57261657714844
y: 329.50140380859375
z: -0.4133196771144867
visibility: 0.9337678551673889
","x: 183.216552734375
y: 328.71832275390625
z: -0.2898750603199005
visibility: 0.8825888633728027
","x: 220.10189819335938
y: 326.88580322265625
z: -0.44793081283569336
visibility: 0.8909619450569153
","x: 176.0190887451172
y: 321.65264892578125
z: -0.32757848501205444
visibility: 0.8485628962516785
","x: 218.1716766357422
y: 321.8741149902344
z: -0.435710608959198
visibility: 0.884109616279602
","x: 176.10897827148438
y: 318.6919860839844
z: -0.33143219351768494
visibility: 0.8422398567199707
","x: 219.208984375
y: 323.8380432128906
z: -0.4103139340877533
visibility: 0.8439363241195679
","x: 179.38296508789062
y: 320.5517883300781
z: -0.29801440238952637
visibility: 0.8245198726654053
","x: 218.96243286132812
y: 410.66424560546875
z: -0.01742568239569664
visibility: 0.9997454881668091
","x: 197.68653869628906
y: 403.118408203125
z: 0.01734047941863537
visibility: 0.9998359084129333
","x: 221.92669677734375
y: 469.3265075683594
z: 0.014345206320285797
visibility: 0.9669106006622314
","x: 190.00794982910156
y: 463.92474365234375
z: -0.06972005218267441
visibility: 0.9621331095695496
","x: 222.0110626220703
y: 522.1290283203125
z: 0.2301667481660843
visibility: 0.9739469885826111
","x: 188.92642211914062
y: 521.4006958007812
z: 0.10154499858617783
visibility: 0.9715165495872498
","x: 219.76910400390625
y: 530.8016357421875
z: 0.2469649314880371
visibility: 0.8886476159095764
","x: 192.49159240722656
y: 531.8250732421875
z: 0.11427240073680878
visibility: 0.8967682123184204
","x: 226.919677734375
y: 544.5531005859375
z: 0.14867007732391357
visibility: 0.9694206118583679
","x: 181.6502227783203
y: 542.7493896484375
z: 0.008928274735808372
visibility: 0.9704312682151794
",,,,,,,,,,,,,,,,,,,,,,,,,,,,,,,,,,,,,,,,,,
23,"x: 211.02960205078125
y: 279.7900695800781
z: -0.21640999615192413
visibility: 0.9993587732315063
","x: 213.3358154296875
y: 272.74542236328125
z: -0.20983734726905823
visibility: 0.9993953108787537
","x: 214.8764190673828
y: 272.5163879394531
z: -0.20988479256629944
visibility: 0.9993799924850464
","x: 215.9917449951172
y: 272.4083557128906
z: -0.20993193984031677
visibility: 0.9993671178817749
","x: 208.85894775390625
y: 273.5659484863281
z: -0.19899797439575195
visibility: 0.9992116689682007
","x: 207.64404296875
y: 273.72198486328125
z: -0.1989866942167282
visibility: 0.9989573359489441
","x: 206.4935760498047
y: 273.85406494140625
z: -0.1989753097295761
visibility: 0.9989219903945923
","x: 218.5674591064453
y: 276.2008361816406
z: -0.141875758767128
visibility: 0.9991374611854553
","x: 205.82095336914062
y: 276.989013671875
z: -0.09031359106302261
visibility: 0.9988471865653992
","x: 213.74276733398438
y: 285.972412109375
z: -0.1890074908733368
visibility: 0.999414324760437
","x: 208.61146545410156
y: 286.27740478515625
z: -0.17574769258499146
visibility: 0.9989500641822815
","x: 233.4661407470703
y: 313.72064208984375
z: -0.09807408601045609
visibility: 0.9996416568756104
","x: 199.34005737304688
y: 312.6003112792969
z: -0.017922788858413696
visibility: 0.9996379017829895
","x: 238.2827911376953
y: 353.3287353515625
z: -0.2125062495470047
visibility: 0.9581217765808105
","x: 189.38182067871094
y: 345.83154296875
z: -0.12905558943748474
visibility: 0.8632358908653259
","x: 233.22303771972656
y: 328.9738464355469
z: -0.3828756809234619
visibility: 0.9399033188819885
","x: 181.0224151611328
y: 324.7695617675781
z: -0.3513135313987732
visibility: 0.8884559273719788
","x: 236.5435028076172
y: 324.9579162597656
z: -0.4189242720603943
visibility: 0.900489330291748
","x: 175.04209899902344
y: 318.80841064453125
z: -0.39027541875839233
visibility: 0.8535276651382446
","x: 235.35842895507812
y: 320.52056884765625
z: -0.41749316453933716
visibility: 0.8942916989326477
","x: 175.36842346191406
y: 316.55633544921875
z: -0.3935849964618683
visibility: 0.8475714325904846
","x: 233.24749755859375
y: 321.98529052734375
z: -0.3855854570865631
visibility: 0.85726398229599
","x: 178.43313598632812
y: 318.4677734375
z: -0.35968858003616333
visibility: 0.8297945261001587
","x: 218.53016662597656
y: 410.02850341796875
z: -0.01730976440012455
visibility: 0.999743640422821
","x: 197.63516235351562
y: 403.7548828125
z: 0.01719314604997635
visibility: 0.9998359680175781
","x: 221.4617919921875
y: 468.8498229980469
z: 0.02725953981280327
visibility: 0.9699463248252869
","x: 191.10598754882812
y: 464.69488525390625
z: 0.01613895408809185
visibility: 0.9657235741615295
","x: 222.01992797851562
y: 522.3209228515625
z: 0.18419179320335388
visibility: 0.9761656522750854
","x: 188.25546264648438
y: 521.2152709960938
z: 0.15761680901050568
visibility: 0.9741199016571045
","x: 219.91099548339844
y: 531.1876831054688
z: 0.19445200264453888
visibility: 0.8946658372879028
","x: 191.769287109375
y: 531.2000732421875
z: 0.1660507470369339
visibility: 0.9029547572135925
","x: 227.14527893066406
y: 544.6016235351562
z: 0.09588684141635895
visibility: 0.9718820452690125
","x: 181.53817749023438
y: 542.6555786132812
z: 0.06820233166217804
visibility: 0.9728989005088806
",,,,,,,,,,,,,,,,,,,,,,,,,,,,,,,,,,,,,,,,,,
24,"x: 207.98851013183594
y: 280.6457824707031
z: -0.18689298629760742
visibility: 0.9993972778320312
","x: 210.0159912109375
y: 273.3742370605469
z: -0.18673807382583618
visibility: 0.9994063973426819
","x: 211.43496704101562
y: 272.89154052734375
z: -0.1867780238389969
visibility: 0.9993911981582642
","x: 212.8153839111328
y: 272.559814453125
z: -0.18680524826049805
visibility: 0.999370276927948
","x: 206.16419982910156
y: 274.6850280761719
z: -0.17074909806251526
visibility: 0.9992331266403198
","x: 205.0414276123047
y: 274.88507080078125
z: -0.17076149582862854
visibility: 0.9989936947822571
","x: 204.04074096679688
y: 275.05194091796875
z: -0.17077448964118958
visibility: 0.9989548325538635
","x: 217.64035034179688
y: 276.2615051269531
z: -0.14046280086040497
visibility: 0.9991680383682251
","x: 205.72872924804688
y: 277.2768859863281
z: -0.06683467328548431
visibility: 0.9988273978233337
","x: 211.2595672607422
y: 286.4842529296875
z: -0.16746410727500916
visibility: 0.999448299407959
","x: 207.08079528808594
y: 287.0325622558594
z: -0.14645235240459442
visibility: 0.9990108013153076
","x: 231.79409790039062
y: 312.9330139160156
z: -0.09917156398296356
visibility: 0.9996435046195984
","x: 197.95010375976562
y: 312.63128662109375
z: 0.001085631549358368
visibility: 0.9996557235717773
","x: 239.83151245117188
y: 347.0431823730469
z: -0.2236146479845047
visibility: 0.961636483669281
","x: 188.1405792236328
y: 346.1905517578125
z: -0.06924888491630554
visibility: 0.867455005645752
","x: 231.85406494140625
y: 321.82318115234375
z: -0.37492793798446655
visibility: 0.9446393251419067
","x: 180.80625915527344
y: 321.91619873046875
z: -0.2814185321331024
visibility: 0.8976081609725952
","x: 228.80307006835938
y: 314.0428771972656
z: -0.40701714158058167
visibility: 0.9066855311393738
","x: 174.9968719482422
y: 313.65032958984375
z: -0.31656238436698914
visibility: 0.8644729852676392
","x: 227.82162475585938
y: 310.183349609375
z: -0.3966835141181946
visibility: 0.9005712270736694
","x: 175.60308837890625
y: 310.7906494140625
z: -0.3193986713886261
visibility: 0.8589228987693787
","x: 227.57972717285156
y: 312.5220031738281
z: -0.3725191056728363
visibility: 0.8644803166389465
","x: 178.63299560546875
y: 313.5048522949219
z: -0.2890121340751648
visibility: 0.8415364027023315
","x: 218.7855224609375
y: 409.6129150390625
z: -0.0189022459089756
visibility: 0.999725878238678
","x: 197.22186279296875
y: 404.2821960449219
z: 0.018797829747200012
visibility: 0.9998322129249573
","x: 221.38259887695312
y: 468.5564880371094
z: 0.0206978190690279
visibility: 0.9721072316169739
","x: 191.46560668945312
y: 464.63507080078125
z: 0.005034595262259245
visibility: 0.9687138795852661
","x: 221.94520568847656
y: 522.4640502929688
z: 0.17958751320838928
visibility: 0.9772897958755493
","x: 187.97344970703125
y: 520.923828125
z: 0.13331207633018494
visibility: 0.976224422454834
","x: 219.79669189453125
y: 531.5501708984375
z: 0.19043858349323273
visibility: 0.8959035277366638
","x: 191.41070556640625
y: 530.8568725585938
z: 0.1414811611175537
visibility: 0.9071713089942932
","x: 227.32997131347656
y: 544.7314453125
z: 0.09724998474121094
visibility: 0.9728329181671143
","x: 181.36117553710938
y: 543.0101928710938
z: 0.04492519795894623
visibility: 0.9747839570045471
","x: 181.3077850341797
y: 317.3287658691406
z: 0.0
","x: 180.96170043945312
y: 311.46234130859375
z: -0.0013762869639322162
","x: 179.64743041992188
y: 305.753173828125
z: -0.0032729131635278463
","x: 178.95652770996094
y: 301.37652587890625
z: -0.005574976559728384
","x: 178.8634490966797
y: 297.44683837890625
z: -0.008047860115766525
","x: 174.35374450683594
y: 304.9437255859375
z: -0.0032970495522022247
","x: 170.1724853515625
y: 300.9753723144531
z: -0.00655024591833353
","x: 167.4368133544922
y: 298.40728759765625
z: -0.0089217908680439
","x: 165.03289794921875
y: 296.33306884765625
z: -0.01061565987765789
","x: 173.58689880371094
y: 307.62335205078125
z: -0.005332732107490301
","x: 169.4454345703125
y: 304.250244140625
z: -0.008465738967061043
","x: 166.7749786376953
y: 302.5997314453125
z: -0.010353896766901016
","x: 164.402587890625
y: 301.6193542480469
z: -0.011786365881562233
","x: 173.39938354492188
y: 311.0758056640625
z: -0.007663025055080652
","x: 169.1918487548828
y: 308.54559326171875
z: -0.010882026515901089
","x: 166.47366333007812
y: 306.9620056152344
z: -0.012595775537192822
","x: 164.21080017089844
y: 305.8001708984375
z: -0.013805405236780643
","x: 173.82667541503906
y: 315.1748962402344
z: -0.010213391855359077
","x: 170.18954467773438
y: 314.61175537109375
z: -0.012988089583814144
","x: 167.68077087402344
y: 314.04827880859375
z: -0.014288265258073807
","x: 165.5972137451172
y: 313.6094665527344
z: -0.015239877626299858
","x: 233.16651916503906
y: 318.1238708496094
z: 0.0
","x: 229.20947265625
y: 313.6242980957031
z: 0.0010490638669580221
","x: 225.2624053955078
y: 308.62689208984375
z: -0.00036638256278820336
","x: 222.13613891601562
y: 305.53057861328125
z: -0.002280736807733774
","x: 219.63955688476562
y: 302.9599609375
z: -0.003998613450676203
","x: 227.50819396972656
y: 305.9256591796875
z: -0.0037534134462475777
","x: 224.57200622558594
y: 303.1168212890625
z: -0.006827886216342449
","x: 222.7733612060547
y: 303.0440979003906
z: -0.007866378873586655
","x: 221.18011474609375
y: 303.4215087890625
z: -0.008387568406760693
","x: 228.73159790039062
y: 308.515869140625
z: -0.006253231782466173
","x: 225.09390258789062
y: 308.8205871582031
z: -0.009593833237886429
","x: 222.48265075683594
y: 310.2500915527344
z: -0.009840395301580429
","x: 220.13424682617188
y: 311.62939453125
z: -0.01006817165762186
","x: 229.84255981445312
y: 312.1523742675781
z: -0.008494787849485874
","x: 226.07611083984375
y: 313.4951171875
z: -0.011703302152454853
","x: 223.37303161621094
y: 315.469482421875
z: -0.01085752435028553
","x: 221.04376220703125
y: 317.13665771484375
z: -0.010217886418104172
","x: 230.70384216308594
y: 316.1293640136719
z: -0.010639900341629982
","x: 228.306396484375
y: 317.3574523925781
z: -0.013119574636220932
","x: 226.98599243164062
y: 318.55731201171875
z: -0.012510474771261215
","x: 225.83242797851562
y: 319.59521484375
z: -0.011858667246997356
"
25,"x: 207.98851013183594
y: 280.6457824707031
z: -0.18689298629760742
visibility: 0.9993972778320312
","x: 210.0159912109375
y: 273.3742370605469
z: -0.18673807382583618
visibility: 0.9994063973426819
","x: 211.43496704101562
y: 272.89154052734375
z: -0.1867780238389969
visibility: 0.9993911981582642
","x: 212.8153839111328
y: 272.559814453125
z: -0.18680524826049805
visibility: 0.999370276927948
","x: 206.16419982910156
y: 274.6850280761719
z: -0.17074909806251526
visibility: 0.9992331266403198
","x: 205.0414276123047
y: 274.88507080078125
z: -0.17076149582862854
visibility: 0.9989936947822571
","x: 204.04074096679688
y: 275.05194091796875
z: -0.17077448964118958
visibility: 0.9989548325538635
","x: 217.64035034179688
y: 276.2615051269531
z: -0.14046280086040497
visibility: 0.9991680383682251
","x: 205.72872924804688
y: 277.2768859863281
z: -0.06683467328548431
visibility: 0.9988273978233337
","x: 211.2595672607422
y: 286.4842529296875
z: -0.16746410727500916
visibility: 0.999448299407959
","x: 207.08079528808594
y: 287.0325622558594
z: -0.14645235240459442
visibility: 0.9990108013153076
","x: 231.79409790039062
y: 312.9330139160156
z: -0.09917156398296356
visibility: 0.9996435046195984
","x: 197.95010375976562
y: 312.63128662109375
z: 0.001085631549358368
visibility: 0.9996557235717773
","x: 239.83151245117188
y: 347.0431823730469
z: -0.2236146479845047
visibility: 0.961636483669281
","x: 188.1405792236328
y: 346.1905517578125
z: -0.06924888491630554
visibility: 0.867455005645752
","x: 231.85406494140625
y: 321.82318115234375
z: -0.37492793798446655
visibility: 0.9446393251419067
","x: 180.80625915527344
y: 321.91619873046875
z: -0.2814185321331024
visibility: 0.8976081609725952
","x: 228.80307006835938
y: 314.0428771972656
z: -0.40701714158058167
visibility: 0.9066855311393738
","x: 174.9968719482422
y: 313.65032958984375
z: -0.31656238436698914
visibility: 0.8644729852676392
","x: 227.82162475585938
y: 310.183349609375
z: -0.3966835141181946
visibility: 0.9005712270736694
","x: 175.60308837890625
y: 310.7906494140625
z: -0.3193986713886261
visibility: 0.8589228987693787
","x: 227.57972717285156
y: 312.5220031738281
z: -0.3725191056728363
visibility: 0.8644803166389465
","x: 178.63299560546875
y: 313.5048522949219
z: -0.2890121340751648
visibility: 0.8415364027023315
","x: 218.7855224609375
y: 409.6129150390625
z: -0.0189022459089756
visibility: 0.999725878238678
","x: 197.22186279296875
y: 404.2821960449219
z: 0.018797829747200012
visibility: 0.9998322129249573
","x: 221.38259887695312
y: 468.5564880371094
z: 0.0206978190690279
visibility: 0.9721072316169739
","x: 191.46560668945312
y: 464.63507080078125
z: 0.005034595262259245
visibility: 0.9687138795852661
","x: 221.94520568847656
y: 522.4640502929688
z: 0.17958751320838928
visibility: 0.9772897958755493
","x: 187.97344970703125
y: 520.923828125
z: 0.13331207633018494
visibility: 0.976224422454834
","x: 219.79669189453125
y: 531.5501708984375
z: 0.19043858349323273
visibility: 0.8959035277366638
","x: 191.41070556640625
y: 530.8568725585938
z: 0.1414811611175537
visibility: 0.9071713089942932
","x: 227.32997131347656
y: 544.7314453125
z: 0.09724998474121094
visibility: 0.9728329181671143
","x: 181.36117553710938
y: 543.0101928710938
z: 0.04492519795894623
visibility: 0.9747839570045471
","x: 181.3077850341797
y: 317.3287658691406
z: 0.0
","x: 180.96170043945312
y: 311.46234130859375
z: -0.0013762869639322162
","x: 179.64743041992188
y: 305.753173828125
z: -0.0032729131635278463
","x: 178.95652770996094
y: 301.37652587890625
z: -0.005574976559728384
","x: 178.8634490966797
y: 297.44683837890625
z: -0.008047860115766525
","x: 174.35374450683594
y: 304.9437255859375
z: -0.0032970495522022247
","x: 170.1724853515625
y: 300.9753723144531
z: -0.00655024591833353
","x: 167.4368133544922
y: 298.40728759765625
z: -0.0089217908680439
","x: 165.03289794921875
y: 296.33306884765625
z: -0.01061565987765789
","x: 173.58689880371094
y: 307.62335205078125
z: -0.005332732107490301
","x: 169.4454345703125
y: 304.250244140625
z: -0.008465738967061043
","x: 166.7749786376953
y: 302.5997314453125
z: -0.010353896766901016
","x: 164.402587890625
y: 301.6193542480469
z: -0.011786365881562233
","x: 173.39938354492188
y: 311.0758056640625
z: -0.007663025055080652
","x: 169.1918487548828
y: 308.54559326171875
z: -0.010882026515901089
","x: 166.47366333007812
y: 306.9620056152344
z: -0.012595775537192822
","x: 164.21080017089844
y: 305.8001708984375
z: -0.013805405236780643
","x: 173.82667541503906
y: 315.1748962402344
z: -0.010213391855359077
","x: 170.18954467773438
y: 314.61175537109375
z: -0.012988089583814144
","x: 167.68077087402344
y: 314.04827880859375
z: -0.014288265258073807
","x: 165.5972137451172
y: 313.6094665527344
z: -0.015239877626299858
","x: 233.16651916503906
y: 318.1238708496094
z: 0.0
","x: 229.20947265625
y: 313.6242980957031
z: 0.0010490638669580221
","x: 225.2624053955078
y: 308.62689208984375
z: -0.00036638256278820336
","x: 222.13613891601562
y: 305.53057861328125
z: -0.002280736807733774
","x: 219.63955688476562
y: 302.9599609375
z: -0.003998613450676203
","x: 227.50819396972656
y: 305.9256591796875
z: -0.0037534134462475777
","x: 224.57200622558594
y: 303.1168212890625
z: -0.006827886216342449
","x: 222.7733612060547
y: 303.0440979003906
z: -0.007866378873586655
","x: 221.18011474609375
y: 303.4215087890625
z: -0.008387568406760693
","x: 228.73159790039062
y: 308.515869140625
z: -0.006253231782466173
","x: 225.09390258789062
y: 308.8205871582031
z: -0.009593833237886429
","x: 222.48265075683594
y: 310.2500915527344
z: -0.009840395301580429
","x: 220.13424682617188
y: 311.62939453125
z: -0.01006817165762186
","x: 229.84255981445312
y: 312.1523742675781
z: -0.008494787849485874
","x: 226.07611083984375
y: 313.4951171875
z: -0.011703302152454853
","x: 223.37303161621094
y: 315.469482421875
z: -0.01085752435028553
","x: 221.04376220703125
y: 317.13665771484375
z: -0.010217886418104172
","x: 230.70384216308594
y: 316.1293640136719
z: -0.010639900341629982
","x: 228.306396484375
y: 317.3574523925781
z: -0.013119574636220932
","x: 226.98599243164062
y: 318.55731201171875
z: -0.012510474771261215
","x: 225.83242797851562
y: 319.59521484375
z: -0.011858667246997356
"
26,"x: 207.98851013183594
y: 280.6457824707031
z: -0.18689298629760742
visibility: 0.9993972778320312
","x: 210.0159912109375
y: 273.3742370605469
z: -0.18673807382583618
visibility: 0.9994063973426819
","x: 211.43496704101562
y: 272.89154052734375
z: -0.1867780238389969
visibility: 0.9993911981582642
","x: 212.8153839111328
y: 272.559814453125
z: -0.18680524826049805
visibility: 0.999370276927948
","x: 206.16419982910156
y: 274.6850280761719
z: -0.17074909806251526
visibility: 0.9992331266403198
","x: 205.0414276123047
