uscmakers/ReverseChoreography/data/6_peaches_justin_bieber.csv
,NOSE,LEFT_EYE_INNER,LEFT_EYE,LEFT_EYE_OUTER,RIGHT_EYE_INNER,RIGHT_EYE,RIGHT_EYE_OUTER,LEFT_EAR,RIGHT_EAR,MOUTH_LEFT,MOUTH_RIGHT,LEFT_SHOULDER,RIGHT_SHOULDER,LEFT_ELBOW,RIGHT_ELBOW,LEFT_WRIST,RIGHT_WRIST,LEFT_PINKY,RIGHT_PINKY,LEFT_INDEX,RIGHT_INDEX,LEFT_THUMB,RIGHT_THUMB,LEFT_HIP,RIGHT_HIP,LEFT_KNEE,RIGHT_KNEE,LEFT_ANKLE,RIGHT_ANKLE,LEFT_HEEL,RIGHT_HEEL,LEFT_FOOT_INDEX,RIGHT_FOOT_INDEX,WRIST2,THUMB_CPC2,THUMB_MCP2,THUMB_IP2,THUMB_TIP2,INDEX_FINGER_MCP2,INDEX_FINGER_PIP2,INDEX_FINGER_DIP2,INDEX_FINGER_TIP2,MIDDLE_FINGER_MCP2,MIDDLE_FINGER_PIP2,MIDDLE_FINGER_DIP2,MIDDLE_FINGER_TIP2,RING_FINGER_PIP2,RING_FINGER_DIP2,RING_FINGER_TIP2,RING_FINGER_MCP2,PINKY_MCP2,PINKY_PIP2,PINKY_DIP2,PINKY_TIP2,WRIST,THUMB_CPC,THUMB_MCP,THUMB_IP,THUMB_TIP,INDEX_FINGER_MCP,INDEX_FINGER_PIP,INDEX_FINGER_DIP,INDEX_FINGER_TIP,MIDDLE_FINGER_MCP,MIDDLE_FINGER_PIP,MIDDLE_FINGER_DIP,MIDDLE_FINGER_TIP,RING_FINGER_PIP,RING_FINGER_DIP,RING_FINGER_TIP,RING_FINGER_MCP,PINKY_MCP,PINKY_PIP,PINKY_DIP,PINKY_TIP
0,"x: 170.57586669921875
y: 278.11346435546875
z: -0.25531816482543945
visibility: 0.9999902248382568
","x: 171.83847045898438
y: 272.28753662109375
z: -0.24412961304187775
visibility: 0.9999756813049316
","x: 173.08839416503906
y: 272.16387939453125
z: -0.24415895342826843
visibility: 0.9999716281890869
","x: 174.35745239257812
y: 272.0715026855469
z: -0.24417713284492493
visibility: 0.9999713897705078
","x: 168.41336059570312
y: 272.55517578125
z: -0.2442450076341629
visibility: 0.9999592304229736
","x: 167.162109375
y: 272.7232666015625
z: -0.24426856637001038
visibility: 0.9999468326568604
","x: 166.01351928710938
y: 272.9233703613281
z: -0.24428324401378632
visibility: 0.999935507774353
","x: 176.80714416503906
y: 274.9139404296875
z: -0.15825136005878448
visibility: 0.9999630451202393
","x: 163.68028259277344
y: 277.60699462890625
z: -0.16197499632835388
visibility: 0.9999020099639893
","x: 173.58892822265625
y: 284.4820556640625
z: -0.22238537669181824
visibility: 0.9999912977218628
","x: 168.8113250732422
y: 285.51898193359375
z: -0.2233072817325592
visibility: 0.999983549118042
","x: 189.25015258789062
y: 314.302978515625
z: -0.09907960146665573
visibility: 0.9999780654907227
","x: 153.59127807617188
y: 313.3733825683594
z: -0.0963454470038414
visibility: 0.9998708963394165
","x: 205.4561004638672
y: 341.37103271484375
z: -0.11770882457494736
visibility: 0.9927335977554321
","x: 136.9984893798828
y: 341.2130126953125
z: -0.12543714046478271
visibility: 0.9792328476905823
","x: 221.74603271484375
y: 359.7225646972656
z: -0.25255438685417175
visibility: 0.9949883222579956
","x: 118.6753921508789
y: 354.5791931152344
z: -0.27058884501457214
visibility: 0.9828290343284607
","x: 226.35150146484375
y: 365.12921142578125
z: -0.27803343534469604
visibility: 0.9896531701087952
","x: 113.29010009765625
y: 361.14202880859375
z: -0.2978605628013611
visibility: 0.9716995358467102
","x: 224.5882110595703
y: 361.841064453125
z: -0.3058081865310669
visibility: 0.9912537932395935
","x: 113.49881744384766
y: 360.0318603515625
z: -0.32317283749580383
visibility: 0.9759381413459778
","x: 222.5081329345703
y: 360.4861145019531
z: -0.2664748430252075
visibility: 0.9900896549224854
","x: 115.34941101074219
y: 357.7981872558594
z: -0.28532087802886963
visibility: 0.9736453294754028
","x: 179.1391143798828
y: 407.126708984375
z: 0.005330902524292469
visibility: 0.9998230338096619
","x: 160.55006408691406
y: 404.6972351074219
z: -0.005423230119049549
visibility: 0.9996882677078247
","x: 176.18450927734375
y: 466.219482421875
z: 0.05325760319828987
visibility: 0.986716628074646
","x: 156.53465270996094
y: 465.4214782714844
z: 0.04215139523148537
visibility: 0.9943344593048096
","x: 173.8228302001953
y: 518.9612426757812
z: 0.2212647944688797
visibility: 0.989890456199646
","x: 157.1004180908203
y: 515.8255615234375
z: 0.20598049461841583
visibility: 0.9943882822990417
","x: 171.5882110595703
y: 526.78662109375
z: 0.2330433875322342
visibility: 0.9479277729988098
","x: 159.59666442871094
y: 521.7731323242188
z: 0.21733355522155762
visibility: 0.9320064783096313
","x: 181.52508544921875
y: 539.4169921875
z: 0.1530866026878357
visibility: 0.9882948398590088
","x: 154.79763793945312
y: 541.0973510742188
z: 0.13010507822036743
visibility: 0.9918836355209351
",,,,,,,,,,,,,,,,,,,,,,,,,,,,,,,,,,,,,,,,,,
1,"x: 176.1226043701172
y: 278.4336242675781
z: -0.3299708962440491
visibility: 0.9999903440475464
","x: 177.6487274169922
y: 272.75152587890625
z: -0.31801074743270874
visibility: 0.9999750256538391
","x: 178.88572692871094
y: 272.7734375
z: -0.3179997503757477
visibility: 0.9999712109565735
","x: 180.03628540039062
y: 272.8506164550781
z: -0.3180083632469177
visibility: 0.9999702572822571
","x: 173.9095001220703
y: 272.8436584472656
z: -0.32210275530815125
visibility: 0.99996018409729
","x: 172.5469970703125
y: 272.98297119140625
z: -0.32216212153434753
visibility: 0.9999488592147827
","x: 171.10287475585938
y: 273.1683044433594
z: -0.3221953213214874
visibility: 0.9999375939369202
","x: 181.686767578125
y: 275.7823791503906
z: -0.219509094953537
visibility: 0.9999550580978394
","x: 168.7044219970703
y: 277.53289794921875
z: -0.24068887531757355
visibility: 0.9999060034751892
","x: 178.5576171875
y: 285.21783447265625
z: -0.29068657755851746
visibility: 0.9999898076057434
","x: 173.69192504882812
y: 285.7507629394531
z: -0.29687756299972534
visibility: 0.9999831914901733
","x: 191.6189422607422
y: 320.3079833984375
z: -0.12218250334262848
visibility: 0.9999772310256958
","x: 156.68704223632812
y: 310.9932556152344
z: -0.17984595894813538
visibility: 0.9998819231987
","x: 199.06361389160156
y: 364.189208984375
z: -0.07196428626775742
visibility: 0.9901920557022095
","x: 144.05245971679688
y: 352.52362060546875
z: -0.1589633971452713
visibility: 0.9803910851478577
","x: 206.2383270263672
y: 402.218994140625
z: -0.14095370471477509
visibility: 0.992563784122467
","x: 137.22445678710938
y: 395.37396240234375
z: -0.22815659642219543
visibility: 0.9814653992652893
","x: 208.16949462890625
y: 412.7914123535156
z: -0.15751221776008606
visibility: 0.9843003749847412
","x: 134.92962646484375
y: 406.2970275878906
z: -0.25252431631088257
visibility: 0.9676495790481567
","x: 206.9342041015625
y: 411.91595458984375
z: -0.18853792548179626
visibility: 0.9864249229431152
","x: 136.36473083496094
y: 406.1960144042969
z: -0.27751535177230835
visibility: 0.9717728495597839
","x: 205.91282653808594
y: 408.8044738769531
z: -0.15490014851093292
visibility: 0.9844990968704224
","x: 137.81578063964844
y: 402.9820251464844
z: -0.23973271250724792
visibility: 0.9684563875198364
","x: 179.6606903076172
y: 407.8631286621094
z: 0.018534068018198013
visibility: 0.9998356699943542
","x: 160.54368591308594
y: 406.2335205078125
z: -0.01862272433936596
visibility: 0.9997130036354065
","x: 184.0162353515625
y: 467.107666015625
z: 0.05546261742711067
visibility: 0.9873096942901611
","x: 156.90318298339844
y: 466.5333557128906
z: 0.06433653086423874
visibility: 0.9945458769798279
","x: 191.50857543945312
y: 522.7985229492188
z: 0.18832257390022278
visibility: 0.9903949499130249
","x: 155.5245361328125
y: 518.5234985351562
z: 0.26941967010498047
visibility: 0.9944744110107422
","x: 188.2532501220703
y: 532.1229248046875
z: 0.19593915343284607
visibility: 0.9500044584274292
","x: 155.94403076171875
y: 523.6204223632812
z: 0.2849116027355194
visibility: 0.9297003746032715
","x: 201.56369018554688
y: 540.986572265625
z: 0.09925717115402222
visibility: 0.9888139963150024
","x: 154.88095092773438
y: 541.5140380859375
z: 0.18790891766548157
visibility: 0.9918422698974609
",,,,,,,,,,,,,,,,,,,,,,,,,,,,,,,,,,,,,,,,,,
2,"x: 184.36245727539062
y: 280.048095703125
z: -0.2964526414871216
visibility: 0.9999890923500061
","x: 185.1490478515625
y: 274.97906494140625
z: -0.2841328978538513
visibility: 0.9999712109565735
","x: 185.98512268066406
y: 275.17376708984375
z: -0.2841465175151825
visibility: 0.9999659657478333
","x: 186.7858428955078
y: 275.4235534667969
z: -0.284160852432251
visibility: 0.9999631643295288
","x: 182.3020477294922
y: 274.8482360839844
z: -0.28865498304367065
visibility: 0.9999597072601318
","x: 181.09268188476562
y: 274.97198486328125
z: -0.2886996269226074
visibility: 0.9999496340751648
","x: 179.89724731445312
y: 275.1775817871094
z: -0.28873077034950256
visibility: 0.9999392628669739
","x: 187.11639404296875
y: 278.9547119140625
z: -0.2111370861530304
visibility: 0.9999225735664368
","x: 177.43768310546875
y: 279.1916198730469
z: -0.21981939673423767
visibility: 0.9999086856842041
","x: 186.11285400390625
y: 287.4132080078125
z: -0.26005131006240845
visibility: 0.9999819397926331
","x: 181.97369384765625
y: 287.1107177734375
z: -0.26749950647354126
visibility: 0.9999799728393555
","x: 192.92030334472656
y: 324.74261474609375
z: -0.0760224312543869
visibility: 0.9999598264694214
","x: 166.73255920410156
y: 311.8222961425781
z: -0.18966123461723328
visibility: 0.9998899698257446
","x: 194.21347045898438
y: 368.143310546875
z: -0.011664791032671928
visibility: 0.9642840027809143
","x: 155.6651153564453
y: 363.9677429199219
z: -0.18933343887329102
visibility: 0.9813970923423767
","x: 200.04559326171875
y: 404.7468566894531
z: -0.06687554717063904
visibility: 0.9773246049880981
","x: 148.84657287597656
y: 415.5746765136719
z: -0.24040880799293518
visibility: 0.9811757206916809
","x: 202.3496551513672
y: 415.53973388671875
z: -0.07938817143440247
visibility: 0.961109459400177
","x: 147.0287628173828
y: 429.8540954589844
z: -0.2672475278377533
visibility: 0.9661421775817871
","x: 201.8027801513672
y: 414.1845703125
z: -0.10721783339977264
visibility: 0.964879035949707
","x: 149.1511688232422
y: 429.8374938964844
z: -0.2867121994495392
visibility: 0.9698846936225891
","x: 200.60911560058594
y: 411.0904541015625
z: -0.08007660508155823
visibility: 0.9610795974731445
","x: 150.123046875
y: 424.8565979003906
z: -0.24949416518211365
visibility: 0.9653348326683044
","x: 180.884765625
y: 409.4646911621094
z: 0.03345115855336189
visibility: 0.9998430609703064
","x: 162.02490234375
y: 407.16510009765625
z: -0.03358222171664238
visibility: 0.9997329115867615
","x: 184.1234893798828
y: 467.50537109375
z: 0.07448787987232208
visibility: 0.9868690371513367
","x: 157.3868408203125
y: 466.3613586425781
z: 0.048851002007722855
visibility: 0.9945193529129028
","x: 193.69598388671875
y: 524.46826171875
z: 0.19939374923706055
visibility: 0.9902904629707336
","x: 154.7253875732422
y: 519.240234375
z: 0.25120431184768677
visibility: 0.9944621324539185
","x: 190.79632568359375
y: 534.404052734375
z: 0.20946642756462097
visibility: 0.9493230581283569
","x: 154.561279296875
y: 524.7115478515625
z: 0.2596293091773987
visibility: 0.9247589111328125
","x: 203.45860290527344
y: 542.0991821289062
z: 0.11810219287872314
visibility: 0.9886907339096069
","x: 154.943603515625
y: 542.0033569335938
z: 0.16624964773654938
visibility: 0.9916599988937378
",,,,,,,,,,,,,,,,,,,,,,,,,,,,,,,,,,,,,,,,,,
3,"x: 183.4592742919922
y: 280.7418518066406
z: -0.2256125658750534
visibility: 0.9999741315841675
","x: 184.7183837890625
y: 275.6399230957031
z: -0.2076021134853363
visibility: 0.9999455213546753
","x: 185.7029571533203
y: 275.8655700683594
z: -0.20758509635925293
visibility: 0.9999342560768127
","x: 186.666259765625
y: 276.16595458984375
z: -0.2075924426317215
visibility: 0.9999253749847412
","x: 181.52574157714844
y: 275.4480285644531
z: -0.21682310104370117
visibility: 0.999933660030365
","x: 180.28834533691406
y: 275.547607421875
z: -0.2168913334608078
visibility: 0.9999265074729919
","x: 179.04153442382812
y: 275.71319580078125
z: -0.21694529056549072
visibility: 0.9999102354049683
","x: 187.54200744628906
y: 279.85394287109375
z: -0.10394209623336792
visibility: 0.9998490214347839
","x: 176.82972717285156
y: 279.3470153808594
z: -0.14574185013771057
visibility: 0.9998693466186523
","x: 185.4541778564453
y: 288.28021240234375
z: -0.18534600734710693
visibility: 0.999939501285553
","x: 181.0043182373047
y: 287.9330139160156
z: -0.19809091091156006
visibility: 0.9999262094497681
","x: 192.68032836914062
y: 324.76971435546875
z: -0.013896772637963295
visibility: 0.9998087882995605
","x: 167.62149047851562
y: 309.0645446777344
z: -0.1552874594926834
visibility: 0.999841570854187
","x: 192.6987762451172
y: 365.36004638671875
z: 0.01892966404557228
visibility: 0.925257682800293
","x: 163.59234619140625
y: 325.4189453125
z: -0.29895979166030884
visibility: 0.9808414578437805
","x: 195.1977081298828
y: 405.0857849121094
z: -0.016657967120409012
visibility: 0.9289625287055969
","x: 175.8013458251953
y: 301.2503356933594
z: -0.4582046568393707
visibility: 0.9799349904060364
","x: 196.842041015625
y: 416.7232666015625
z: -0.02200740948319435
visibility: 0.9035621881484985
","x: 176.9285430908203
y: 298.4640808105469
z: -0.498750776052475
visibility: 0.9639962315559387
","x: 196.59365844726562
y: 416.4710693359375
z: -0.04256931692361832
visibility: 0.9088659286499023
","x: 178.2000732421875
y: 296.3635559082031
z: -0.4920172095298767
visibility: 0.9669470191001892
","x: 194.70596313476562
y: 411.91693115234375
z: -0.025954719632864
visibility: 0.9045039415359497
","x: 177.8073272705078
y: 298.86993408203125
z: -0.46002498269081116
visibility: 0.9596644043922424
","x: 180.81399536132812
y: 408.8079528808594
z: 0.03972401097416878
visibility: 0.9998393654823303
","x: 162.05209350585938
y: 405.2305908203125
z: -0.039884693920612335
visibility: 0.9997442960739136
","x: 184.67869567871094
y: 465.85931396484375
z: 0.03308152034878731
visibility: 0.9868115782737732
","x: 157.372802734375
y: 462.0802307128906
z: -0.008028531447052956
visibility: 0.9946752190589905
","x: 193.61691284179688
y: 524.35791015625
z: 0.1291368305683136
visibility: 0.9906388521194458
","x: 154.0469970703125
y: 519.1219482421875
z: 0.135524719953537
visibility: 0.9946997165679932
","x: 190.50035095214844
y: 535.0731201171875
z: 0.13365986943244934
visibility: 0.9504892826080322
","x: 153.60475158691406
y: 524.802001953125
z: 0.1441490352153778
visibility: 0.9247185587882996
","x: 203.68569946289062
y: 542.2578125
z: 0.04108727350831032
visibility: 0.9889066219329834
","x: 154.96287536621094
y: 541.90576171875
z: 0.044291723519563675
visibility: 0.9918662309646606
",,,,,,,,,,,,,,,,,,,,,,,,,,,,,,,,,,,,,,,,,,
4,"x: 181.466796875
y: 281.0204772949219
z: -0.19254601001739502
visibility: 0.999971866607666
","x: 182.83290100097656
y: 275.57342529296875
z: -0.17646680772304535
visibility: 0.9999393224716187
","x: 183.7655029296875
y: 275.76611328125
z: -0.17648223042488098
visibility: 0.9999254941940308
","x: 184.69874572753906
y: 276.0224609375
z: -0.176498144865036
visibility: 0.9999144077301025
","x: 179.5664825439453
y: 275.343994140625
z: -0.18746648728847504
visibility: 0.9999314546585083
","x: 178.236328125
y: 275.4146728515625
z: -0.18748238682746887
visibility: 0.9999240040779114
","x: 176.85752868652344
y: 275.6009521484375
z: -0.1875261813402176
visibility: 0.9999092221260071
","x: 185.47491455078125
y: 279.60565185546875
z: -0.07348839938640594
visibility: 0.9998044967651367
","x: 173.90284729003906
y: 278.7371520996094
z: -0.12164217233657837
visibility: 0.999876081943512
","x: 183.37510681152344
y: 288.46978759765625
z: -0.15196602046489716
visibility: 0.9999333024024963
","x: 178.91346740722656
y: 288.02447509765625
z: -0.16613158583641052
visibility: 0.9999272227287292
","x: 191.2456817626953
y: 323.51824951171875
z: 0.01826753094792366
visibility: 0.9997918605804443
","x: 164.1728515625
y: 306.8188171386719
z: -0.1188456192612648
visibility: 0.99985271692276
","x: 192.33428955078125
y: 360.9793395996094
z: -0.028263065963983536
visibility: 0.8889360427856445
","x: 161.8048095703125
y: 338.2629699707031
z: -0.13743269443511963
visibility: 0.9790462851524353
","x: 194.71267700195312
y: 346.967041015625
z: -0.17328426241874695
visibility: 0.8960922360420227
","x: 174.4715576171875
y: 373.0716247558594
z: -0.1414371132850647
visibility: 0.9655828475952148
","x: 195.24330139160156
y: 340.1766662597656
z: -0.20782606303691864
visibility: 0.8639865517616272
","x: 175.85296630859375
y: 384.0025634765625
z: -0.15837213397026062
visibility: 0.9413653016090393
","x: 193.3704071044922
y: 337.4690246582031
z: -0.1826471984386444
visibility: 0.8693028092384338
","x: 178.82901000976562
y: 378.67071533203125
z: -0.16788072884082794
visibility: 0.943240761756897
","x: 192.5109100341797
y: 339.3045654296875
z: -0.1729385405778885
visibility: 0.8599754571914673
","x: 177.98146057128906
y: 375.9139709472656
z: -0.1432681381702423
visibility: 0.9305497407913208
","x: 181.17076110839844
y: 407.32855224609375
z: 0.038602929562330246
visibility: 0.99981689453125
","x: 161.97850036621094
y: 404.68817138671875
z: -0.038681283593177795
visibility: 0.9997363090515137
","x: 185.08013916015625
y: 465.68096923828125
z: 0.027768094092607498
visibility: 0.9860806465148926
","x: 157.50123596191406
y: 462.3125915527344
z: 8.33480735309422e-05
visibility: 0.9946510195732117
","x: 193.69979858398438
y: 524.34814453125
z: 0.11931745707988739
visibility: 0.99038165807724
","x: 154.15493774414062
y: 520.2545166015625
z: 0.14636480808258057
visibility: 0.994581401348114
","x: 190.3853759765625
y: 535.0589599609375
z: 0.12330988794565201
visibility: 0.9496070742607117
","x: 153.7749786376953
y: 526.655517578125
z: 0.15571139752864838
visibility: 0.9221981763839722
","x: 203.68785095214844
y: 543.0152587890625
z: 0.032003168016672134
visibility: 0.9886993169784546
","x: 155.11715698242188
y: 542.28515625
z: 0.06287578493356705
visibility: 0.9917017817497253
",,,,,,,,,,,,,,,,,,,,,,,,,,,,,,,,,,,,,,,,,,
5,"x: 174.6692657470703
y: 280.98565673828125
z: -0.21158058941364288
visibility: 0.9999487996101379
","x: 176.0851593017578
y: 275.34429931640625
z: -0.1981109380722046
visibility: 0.9999018907546997
","x: 177.41233825683594
y: 275.27239990234375
z: -0.19813397526741028
visibility: 0.9998823404312134
","x: 178.6781768798828
y: 275.2608947753906
z: -0.19816115498542786
visibility: 0.9998711943626404
","x: 172.26466369628906
y: 275.25994873046875
z: -0.202078178524971
visibility: 0.9998955726623535
","x: 170.97474670410156
y: 275.4024963378906
z: -0.20209786295890808
visibility: 0.9998816251754761
","x: 169.61688232421875
y: 275.6844177246094
z: -0.20214655995368958
visibility: 0.9998628497123718
","x: 180.43484497070312
y: 278.4497375488281
z: -0.10345485061407089
visibility: 0.9997285008430481
","x: 167.6153564453125
y: 278.8681640625
z: -0.1204272136092186
visibility: 0.999830424785614
","x: 177.87252807617188
y: 288.3055419921875
z: -0.17471961677074432
visibility: 0.9999129772186279
","x: 172.70510864257812
y: 287.9923095703125
z: -0.17995037138462067
visibility: 0.9999081492424011
","x: 189.20033264160156
y: 321.4388732910156
z: -0.031785860657691956
visibility: 0.9997479915618896
","x: 159.63143920898438
y: 307.2184143066406
z: -0.09680767357349396
visibility: 0.9998305439949036
","x: 192.262451171875
y: 358.7964172363281
z: -0.10271833091974258
visibility: 0.87992262840271
","x: 159.718505859375
y: 339.4364929199219
z: -0.1795274019241333
visibility: 0.9744543433189392
","x: 184.00865173339844
y: 342.84765625
z: -0.2576844096183777
visibility: 0.8817558884620667
","x: 162.97640991210938
y: 349.00439453125
z: -0.30912140011787415
visibility: 0.9487883448600769
","x: 181.29640197753906
y: 341.45013427734375
z: -0.29064303636550903
visibility: 0.8437565565109253
","x: 165.3278045654297
y: 352.6867980957031
z: -0.34267520904541016
visibility: 0.9168157577514648
","x: 180.69467163085938
y: 335.63836669921875
z: -0.2888610064983368
visibility: 0.8484607338905334
","x: 167.058349609375
y: 347.5769348144531
z: -0.33908945322036743
visibility: 0.9165560603141785
","x: 180.79727172851562
y: 336.2893981933594
z: -0.26097002625465393
visibility: 0.8328970670700073
","x: 166.54148864746094
y: 346.86474609375
z: -0.3104366660118103
visibility: 0.8986393809318542
","x: 181.14112854003906
y: 406.5477294921875
z: 0.03583509474992752
visibility: 0.9997965693473816
","x: 161.21279907226562
y: 404.694580078125
z: -0.03567194938659668
visibility: 0.9997208714485168
","x: 185.726806640625
y: 465.5872802734375
z: 0.018575211986899376
visibility: 0.9865618348121643
","x: 157.61227416992188
y: 462.7725524902344
z: 0.03106280043721199
visibility: 0.9945781826972961
","x: 193.56982421875
y: 524.4275512695312
z: 0.12401753664016724
visibility: 0.9905281662940979
","x: 154.2794189453125
y: 520.2406616210938
z: 0.2028762549161911
visibility: 0.9942962527275085
","x: 190.02149963378906
y: 535.0475463867188
z: 0.12942078709602356
visibility: 0.9495589137077332
","x: 154.12550354003906
y: 526.7105712890625
z: 0.21522188186645508
visibility: 0.9177449941635132
","x: 203.95703125
y: 543.1231079101562
z: 0.02846204675734043
visibility: 0.9887185096740723
","x: 155.10316467285156
y: 542.2691650390625
z: 0.11774986982345581
visibility: 0.9909842014312744
",,,,,,,,,,,,,,,,,,,,,,,,,,,,,,,,,,,,,,,,,,
6,"x: 168.57421875
y: 281.4483947753906
z: -0.2313096821308136
visibility: 0.9999451041221619
","x: 169.66075134277344
y: 275.24554443359375
z: -0.2257613241672516
visibility: 0.9998932480812073
","x: 171.0029296875
y: 275.1379089355469
z: -0.22580090165138245
visibility: 0.9998730421066284
","x: 172.4124298095703
y: 274.7705383300781
z: -0.22586221992969513
visibility: 0.999860405921936
","x: 166.2206573486328
y: 275.6069641113281
z: -0.21557791531085968
visibility: 0.9998889565467834
","x: 165.09271240234375
y: 275.9019775390625
z: -0.21564431488513947
visibility: 0.9998745918273926
","x: 163.9320831298828
y: 276.29962158203125
z: -0.2157915085554123
visibility: 0.9998554587364197
","x: 175.28695678710938
y: 276.7804260253906
z: -0.14329098165035248
visibility: 0.9997089505195618
","x: 163.34031677246094
y: 279.00128173828125
z: -0.14136357605457306
visibility: 0.9998258948326111
","x: 171.94970703125
y: 288.17388916015625
z: -0.20020540058612823
visibility: 0.9999133348464966
","x: 167.6982421875
y: 288.51800537109375
z: -0.18626359105110168
visibility: 0.9999104738235474
","x: 187.98587036132812
y: 320.4812316894531
z: -0.04891812056303024
visibility: 0.9997544288635254
","x: 156.7681121826172
y: 310.24774169921875
z: -0.10761308670043945
visibility: 0.9998432397842407
","x: 192.93338012695312
y: 359.5556945800781
z: -0.09218628704547882
visibility: 0.8608782291412354
","x: 148.79434204101562
y: 341.61785888671875
z: -0.18766485154628754
visibility: 0.9729581475257874
","x: 194.4913787841797
y: 361.8519287109375
z: -0.21710625290870667
visibility: 0.8597155213356018
","x: 154.72991943359375
y: 354.4711608886719
z: -0.3458034098148346
visibility: 0.9451738595962524
","x: 194.6449737548828
y: 374.83697509765625
z: -0.24489621818065643
visibility: 0.8202658891677856
","x: 156.5972442626953
y: 362.6116943359375
z: -0.38439610600471497
visibility: 0.9115061163902283
","x: 194.60606384277344
y: 356.3084716796875
z: -0.2609545588493347
visibility: 0.827028751373291
","x: 158.2597198486328
y: 351.07177734375
z: -0.389687716960907
visibility: 0.9107285141944885
","x: 193.56396484375
y: 353.9969177246094
z: -0.22658424079418182
visibility: 0.8076873421669006
","x: 158.0113525390625
y: 352.4627380371094
z: -0.351646363735199
visibility: 0.8905658721923828
","x: 180.87379455566406
y: 407.00384521484375
z: 0.0343647226691246
visibility: 0.9998021721839905
","x: 160.26980590820312
y: 406.0287780761719
z: -0.0340607613325119
visibility: 0.9997350573539734
","x: 186.48353576660156
y: 465.2871398925781
z: 0.028567031025886536
visibility: 0.9868227243423462
","x: 157.6343994140625
y: 463.6030578613281
z: 0.061059027910232544
visibility: 0.9946346282958984
","x: 193.5981903076172
y: 524.6515502929688
z: 0.13896670937538147
visibility: 0.9906963109970093
","x: 154.2277069091797
y: 520.1311645507812
z: 0.24968555569648743
visibility: 0.99411541223526
","x: 190.0231475830078
y: 535.3180541992188
z: 0.14475785195827484
visibility: 0.950003445148468
","x: 153.9844970703125
y: 526.4815063476562
z: 0.2641562819480896
visibility: 0.915045976638794
","x: 204.33453369140625
y: 543.0550537109375
z: 0.04488019645214081
visibility: 0.9888555407524109
","x: 155.27267456054688
y: 542.206298828125
z: 0.17214488983154297
visibility: 0.9906076192855835
",,,,,,,,,,,,,,,,,,,,,,,,,,,,,,,,,,,,,,,,,,
7,"x: 168.26502990722656
y: 282.1595153808594
z: -0.27838650345802307
visibility: 0.9999500513076782
","x: 169.32579040527344
y: 275.285888671875
z: -0.2692027688026428
visibility: 0.9999023675918579
","x: 170.7454376220703
y: 275.05194091796875
z: -0.2691941261291504
visibility: 0.9998839497566223
","x: 172.11990356445312
y: 274.73614501953125
z: -0.26920902729034424
visibility: 0.9998721480369568
","x: 165.74441528320312
y: 276.3778381347656
z: -0.26617512106895447
visibility: 0.9998986721038818
","x: 164.63902282714844
y: 276.8184814453125
z: -0.2662319540977478
visibility: 0.9998858571052551
","x: 163.50308227539062
y: 277.3175354003906
z: -0.2662842571735382
visibility: 0.9998682737350464
","x: 174.7133331298828
y: 276.5089111328125
z: -0.18448765575885773
visibility: 0.9997340440750122
","x: 162.9945068359375
y: 279.83087158203125
z: -0.17679598927497864
visibility: 0.9998410940170288
","x: 172.02780151367188
y: 288.2388000488281
z: -0.24537678062915802
visibility: 0.9999212026596069
","x: 167.10873413085938
y: 289.1772766113281
z: -0.241609126329422
visibility: 0.9999186992645264
","x: 189.30177307128906
y: 320.4529113769531
z: -0.09061591327190399
visibility: 0.9997767806053162
","x: 155.8629608154297
y: 314.9801025390625
z: -0.13662762939929962
visibility: 0.9998574256896973
","x: 193.10882568359375
y: 361.3682556152344
z: -0.04824923723936081
visibility: 0.8699687719345093
","x: 148.1614532470703
y: 351.1219482421875
z: -0.20614230632781982
visibility: 0.9725016355514526
","x: 199.81393432617188
y: 392.6005554199219
z: -0.1045653373003006
visibility: 0.8692579865455627
","x: 151.5487823486328
y: 377.64361572265625
z: -0.3722544312477112
visibility: 0.9464839696884155
","x: 203.19229125976562
y: 403.2870788574219
z: -0.11979176849126816
visibility: 0.8299452066421509
","x: 151.93861389160156
y: 383.53460693359375
z: -0.41089171171188354
visibility: 0.9133551716804504
","x: 203.593505859375
y: 401.0176086425781
z: -0.14747026562690735
visibility: 0.8369794487953186
","x: 153.4950408935547
y: 377.8388671875
z: -0.4218273162841797
visibility: 0.912480354309082
","x: 201.99403381347656
y: 397.5616149902344
z: -0.11668871343135834
visibility: 0.8182986378669739
","x: 153.74327087402344
y: 375.6219177246094
z: -0.38073739409446716
visibility: 0.892166256904602
","x: 182.21212768554688
y: 407.8912048339844
z: 0.022538740187883377
visibility: 0.9998178482055664
","x: 160.70440673828125
y: 407.96728515625
z: -0.022488445043563843
visibility: 0.9997566342353821
","x: 187.6688690185547
y: 465.39923095703125
z: 0.04388538375496864
visibility: 0.9874307513237
","x: 157.71725463867188
y: 464.5341491699219
z: 0.06358903646469116
visibility: 0.9947366118431091
","x: 194.01783752441406
y: 524.5936279296875
z: 0.1876736581325531
visibility: 0.9910007119178772
","x: 154.29588317871094
y: 520.0739135742188
z: 0.2607269287109375
visibility: 0.9941392540931702
","x: 190.57882690429688
y: 535.292724609375
z: 0.19697989523410797
visibility: 0.950260579586029
","x: 154.2099609375
y: 526.321044921875
z: 0.27640804648399353
visibility: 0.9140828251838684
","x: 203.45326232910156
y: 543.25732421875
z: 0.09802412241697311
visibility: 0.9891165494918823
","x: 155.24209594726562
y: 542.4247436523438
z: 0.18477019667625427
visibility: 0.990570068359375
",,,,,,,,,,,,,,,,,,,,,,,,,,,,,,,,,,,,,,,,,,
8,"x: 168.98867797851562
y: 282.05499267578125
z: -0.2752452790737152
visibility: 0.9999542236328125
","x: 170.10589599609375
y: 275.1498107910156
z: -0.2661377489566803
visibility: 0.9999092817306519
","x: 171.43934631347656
y: 274.6104736328125
z: -0.26614904403686523
visibility: 0.9998928308486938
","x: 172.7204132080078
y: 274.03277587890625
z: -0.26616767048835754
visibility: 0.9998814463615417
","x: 166.5277862548828
y: 276.4078063964844
z: -0.26354557275772095
visibility: 0.9999055862426758
","x: 165.41758728027344
y: 276.9442443847656
z: -0.26359862089157104
visibility: 0.9998944401741028
","x: 164.3053741455078
y: 277.55084228515625
z: -0.26363125443458557
visibility: 0.9998775124549866
","x: 175.17620849609375
y: 275.56488037109375
z: -0.18540866672992706
visibility: 0.9997535943984985
","x: 163.67318725585938
y: 280.0957946777344
z: -0.17486876249313354
visibility: 0.9998509287834167
","x: 172.49444580078125
y: 287.6770324707031
z: -0.24337179958820343
visibility: 0.9999275803565979
","x: 167.58824157714844
y: 289.1350402832031
z: -0.24008813500404358
visibility: 0.9999247789382935
","x: 190.5458984375
y: 318.7500305175781
z: -0.09877483546733856
visibility: 0.9997977614402771
","x: 157.4395751953125
y: 316.4954833984375
z: -0.13318604230880737
visibility: 0.9998704195022583
","x: 197.08982849121094
y: 362.4284362792969
z: -0.050733573734760284
visibility: 0.8792683482170105
","x: 151.4261932373047
y: 361.4355773925781
z: -0.16005265712738037
visibility: 0.9699557423591614
","x: 211.40724182128906
y: 394.44683837890625
z: -0.10973545163869858
visibility: 0.8796091079711914
","x: 144.3749237060547
y: 391.4770202636719
z: -0.2852257490158081
visibility: 0.9471210241317749
","x: 215.47698974609375
y: 401.3133239746094
z: -0.12392517179250717
visibility: 0.8415799140930176
","x: 138.83924865722656
y: 399.4406433105469
z: -0.314725399017334
visibility: 0.9143627285957336
","x: 215.71949768066406
y: 399.8941650390625
z: -0.1536199152469635
visibility: 0.8488360643386841
","x: 138.36439514160156
y: 397.9984130859375
z: -0.342324435710907
visibility: 0.9141555428504944
","x: 214.25099182128906
y: 397.9911804199219
z: -0.12335628271102905
visibility: 0.8314291834831238
","x: 140.085693359375
y: 396.0836486816406
z: -0.30071964859962463
visibility: 0.8949572443962097
","x: 186.02549743652344
y: 408.21527099609375
z: 0.021649982780218124
visibility: 0.9998283982276917
","x: 165.15695190429688
y: 407.9996032714844
z: -0.021659059450030327
visibility: 0.9997749328613281
","x: 189.8001251220703
y: 466.1496276855469
z: 0.05682140588760376
visibility: 0.9867796897888184
","x: 160.32107543945312
y: 465.28851318359375
z: 0.002268205862492323
visibility: 0.9947426319122314
","x: 194.3769073486328
y: 524.4895629882812
z: 0.21278604865074158
visibility: 0.9907444715499878
","x: 154.34080505371094
y: 520.0008544921875
z: 0.16592811048030853
visibility: 0.9941428303718567
","x: 190.5872802734375
y: 535.1475830078125
z: 0.22331400215625763
visibility: 0.9490481615066528
","x: 154.1364288330078
y: 526.206787109375
z: 0.17839910089969635
visibility: 0.9135085344314575
","x: 203.5329132080078
y: 543.322265625
z: 0.13750211894512177
visibility: 0.9887514114379883
","x: 155.3982391357422
y: 542.4806518554688
z: 0.08649172633886337
visibility: 0.9906319379806519
",,,,,,,,,,,,,,,,,,,,,,,,,,,,,,,,,,,,,,,,,,
9,"x: 169.5909881591797
y: 282.00927734375
z: -0.2867540419101715
visibility: 0.9999547600746155
","x: 170.51654052734375
y: 275.1236877441406
z: -0.27489158511161804
visibility: 0.999901294708252
","x: 171.95008850097656
y: 274.5569152832031
z: -0.2749331593513489
visibility: 0.9998886585235596
","x: 173.3700714111328
y: 273.97821044921875
z: -0.27497103810310364
visibility: 0.9998749494552612
","x: 167.03248596191406
y: 276.3808898925781
z: -0.2767373025417328
visibility: 0.9998953938484192
","x: 165.9743194580078
y: 277.00396728515625
z: -0.27678734064102173
visibility: 0.9998885989189148
","x: 164.86709594726562
y: 277.7416076660156
z: -0.27681630849838257
visibility: 0.9998665452003479
","x: 175.77734375
y: 275.5770263671875
z: -0.18319806456565857
visibility: 0.9997318387031555
","x: 164.03912353515625
y: 281.00299072265625
z: -0.19092664122581482
visibility: 0.9998317360877991
","x: 173.48948669433594
y: 287.6500244140625
z: -0.25041162967681885
visibility: 0.9999264478683472
","x: 167.98414611816406
y: 289.0994873046875
z: -0.2526305913925171
visibility: 0.9999217391014099
","x: 191.59405517578125
y: 317.95867919921875
z: -0.09156917780637741
visibility: 0.9998167753219604
","x: 158.35255432128906
y: 316.8129577636719
z: -0.14242993295192719
visibility: 0.999880850315094
","x: 202.2718048095703
y: 361.2872314453125
z: -0.04467746615409851
visibility: 0.8885636925697327
","x: 151.17811584472656
y: 364.8884582519531
z: -0.14157924056053162
visibility: 0.9709765911102295
","x: 217.3432159423828
y: 388.3245849609375
z: -0.1266954243183136
visibility: 0.8899664282798767
","x: 138.3479766845703
y: 391.95556640625
z: -0.23250141739845276
visibility: 0.9497911930084229
","x: 222.5318145751953
y: 395.7571105957031
z: -0.14579463005065918
visibility: 0.8537248373031616
","x: 132.19679260253906
y: 401.06085205078125
z: -0.2604008913040161
visibility: 0.9176472425460815
","x: 222.65084838867188
y: 394.21429443359375
z: -0.1763329654932022
visibility: 0.8610548377037048
","x: 131.94091796875
y: 399.5289306640625
z: -0.29048630595207214
visibility: 0.9180551767349243
","x: 220.74783325195312
y: 391.800537109375
z: -0.14209096133708954
visibility: 0.8449493646621704
","x: 133.7786102294922
y: 397.4789123535156
z: -0.24791233241558075
visibility: 0.8999433517456055
","x: 189.2577667236328
y: 408.3313293457031
z: 0.024487987160682678
visibility: 0.9998272061347961
","x: 170.15719604492188
y: 408.441162109375
z: -0.024511879310011864
visibility: 0.9997759461402893
","x: 191.81922912597656
y: 465.50115966796875
z: 0.05910732224583626
visibility: 0.9837884306907654
","x: 167.87164306640625
y: 464.2427062988281
z: -0.019803661853075027
visibility: 0.9939386248588562
","x: 194.36500549316406
y: 524.40966796875
z: 0.2062932252883911
visibility: 0.9893081784248352
","x: 158.68344116210938
y: 519.9517211914062
z: 0.13972526788711548
visibility: 0.9934237599372864
","x: 190.9878387451172
y: 534.9767456054688
z: 0.2156783789396286
visibility: 0.9429260492324829
","x: 155.181884765625
y: 527.0970458984375
z: 0.15103551745414734
visibility: 0.9063233137130737
","x: 203.6487579345703
y: 543.2548828125
z: 0.12658289074897766
visibility: 0.9875560998916626
","x: 166.017822265625
y: 542.0111694335938
z: 0.052461832761764526
visibility: 0.9900336861610413
",,,,,,,,,,,,,,,,,,,,,,,,,,,,,,,,,,,,,,,,,,
10,"x: 170.18890380859375
y: 285.3168029785156
z: -0.25637733936309814
visibility: 0.9999562501907349
","x: 171.16604614257812
y: 277.7020263671875
z: -0.2430940568447113
visibility: 0.9998993873596191
","x: 172.54287719726562
y: 277.03662109375
z: -0.24312810599803925
visibility: 0.9998887181282043
","x: 173.90359497070312
y: 276.43902587890625
z: -0.24318985641002655
visibility: 0.9998735785484314
","x: 167.71365356445312
y: 279.5780334472656
z: -0.24447199702262878
visibility: 0.9998922348022461
","x: 166.6121368408203
y: 280.32769775390625
z: -0.24452725052833557
visibility: 0.9998875260353088
","x: 165.47573852539062
y: 281.17352294921875
z: -0.24455399811267853
visibility: 0.9998617768287659
","x: 176.17391967773438
y: 277.5555725097656
z: -0.15157723426818848
visibility: 0.9997358918190002
","x: 164.37530517578125
y: 283.6304626464844
z: -0.1576228141784668
visibility: 0.999821126461029
","x: 173.85400390625
y: 290.46502685546875
z: -0.22031113505363464
visibility: 0.9999279379844666
","x: 168.5706329345703
y: 292.66961669921875
z: -0.22207967936992645
visibility: 0.9999220967292786
","x: 191.63986206054688
y: 319.1409606933594
z: -0.06377078592777252
visibility: 0.9998332262039185
","x: 157.86245727539062
y: 316.4140625
z: -0.12050540745258331
visibility: 0.9998891949653625
","x: 205.41920471191406
y: 362.53802490234375
z: -0.024468418210744858
visibility: 0.8940864205360413
","x: 146.9918975830078
y: 361.91656494140625
z: -0.14575907588005066
visibility: 0.9730064272880554
","x: 222.626953125
y: 387.1719665527344
z: -0.10440750420093536
visibility: 0.8968491554260254
","x: 133.63427734375
y: 391.4114074707031
z: -0.25296610593795776
visibility: 0.9524535536766052
","x: 228.1446990966797
y: 395.99176025390625
z: -0.12038031965494156
visibility: 0.8609288334846497
","x: 128.10940551757812
y: 401.858642578125
z: -0.2795179486274719
visibility: 0.9209197759628296
","x: 228.0303955078125
y: 394.9248046875
z: -0.15099374949932098
visibility: 0.869113564491272
","x: 128.5185546875
y: 400.408447265625
z: -0.30305740237236023
visibility: 0.9218602180480957
","x: 226.09523010253906
y: 391.8791198730469
z: -0.11950118839740753
visibility: 0.8537765741348267
","x: 130.42568969726562
y: 397.6865234375
z: -0.2657724916934967
visibility: 0.9043864607810974
","x: 189.73651123046875
y: 408.34344482421875
z: 0.02453211322426796
visibility: 0.999841034412384
","x: 169.5857391357422
y: 409.72479248046875
z: -0.024515852332115173
visibility: 0.999783992767334
","x: 199.2946014404297
y: 458.8739013671875
z: -0.17814642190933228
visibility: 0.9842230081558228
","x: 169.95616149902344
y: 463.4678955078125
z: -0.03184134140610695
visibility: 0.9928144812583923
","x: 195.38746643066406
y: 523.7578735351562
z: -0.08035335689783096
visibility: 0.9886355996131897
","x: 161.00013732910156
y: 519.9127807617188
z: 0.1342984437942505
visibility: 0.9914346933364868
","x: 191.43507385253906
y: 533.1824951171875
z: -0.07468391209840775
visibility: 0.9426321983337402
","x: 156.5360870361328
y: 527.482421875
z: 0.14576849341392517
visibility: 0.893015444278717
","x: 205.66513061523438
y: 543.302978515625
z: -0.177523672580719
visibility: 0.9873924255371094
","x: 168.32540893554688
y: 540.40576171875
z: 0.05377041548490524
visibility: 0.9875693917274475
",,,,,,,,,,,,,,,,,,,,,,,,,,,,,,,,,,,,,,,,,,
11,"x: 170.5145263671875
y: 288.080078125
z: -0.2351829558610916
visibility: 0.9999552965164185
","x: 171.4263458251953
y: 280.369873046875
z: -0.22271659970283508
visibility: 0.9998937249183655
","x: 172.68685913085938
y: 279.5386047363281
z: -0.22275058925151825
visibility: 0.999886155128479
","x: 173.87579345703125
y: 278.8975830078125
z: -0.22282543778419495
visibility: 0.9998700618743896
","x: 168.016845703125
y: 283.5054626464844
z: -0.22211754322052002
visibility: 0.9998827576637268
","x: 166.86810302734375
y: 284.7714538574219
z: -0.22216658294200897
visibility: 0.9998766183853149
","x: 165.69627380371094
y: 286.0528869628906
z: -0.22220785915851593
visibility: 0.9998429417610168
","x: 176.20770263671875
y: 281.2740783691406
z: -0.1394081860780716
visibility: 0.999739944934845
","x: 164.55198669433594
y: 288.6371154785156
z: -0.13573122024536133
visibility: 0.9997893571853638
","x: 174.06561279296875
y: 293.1765441894531
z: -0.20281150937080383
visibility: 0.9999265074729919
","x: 168.88674926757812
y: 296.1828308105469
z: -0.20176005363464355
visibility: 0.9999163746833801
","x: 191.61224365234375
y: 325.4699401855469
z: -0.06039457768201828
visibility: 0.9998459219932556
","x: 157.95794677734375
y: 317.3831787109375
z: -0.10792404413223267
visibility: 0.9998933672904968
","x: 206.24395751953125
y: 366.5020751953125
z: -0.03430318087339401
visibility: 0.8982328176498413
","x: 142.72427368164062
y: 360.7054443359375
z: -0.1311434656381607
visibility: 0.9746996164321899
","x: 225.79098510742188
y: 390.6999206542969
z: -0.11923147737979889
visibility: 0.9000052809715271
","x: 129.04566955566406
y: 393.2717590332031
z: -0.2158094346523285
visibility: 0.9531347155570984
","x: 230.49835205078125
y: 400.96075439453125
z: -0.13554295897483826
visibility: 0.8624770045280457
","x: 123.91482543945312
y: 403.373046875
z: -0.23777131736278534
visibility: 0.9196552634239197
","x: 229.73011779785156
y: 400.1535339355469
z: -0.16413775086402893
visibility: 0.8722084760665894
","x: 124.98394775390625
y: 402.9014587402344
z: -0.261175274848938
visibility: 0.9214401841163635
","x: 227.8597869873047
y: 396.2179870605469
z: -0.13358280062675476
visibility: 0.8577362895011902
","x: 126.96881103515625
y: 400.62646484375
z: -0.22853901982307434
visibility: 0.9043036699295044
","x: 188.212890625
y: 410.1344299316406
z: 0.024205610156059265
visibility: 0.999855637550354
","x: 168.07785034179688
y: 414.1671447753906
z: -0.02418794110417366
visibility: 0.9997983574867249
","x: 205.99063110351562
y: 450.3470153808594
z: -0.20188748836517334
visibility: 0.9851701259613037
","x: 167.3318634033203
y: 465.6366271972656
z: -0.008813368156552315
visibility: 0.9922423362731934
","x: 200.2799835205078
y: 520.0572509765625
z: -0.10035665333271027
visibility: 0.9886632561683655
","x: 161.4274139404297
y: 519.69287109375
z: 0.23141150176525116
visibility: 0.9892619848251343
","x: 194.09365844726562
y: 529.629150390625
z: -0.09337686002254486
visibility: 0.9445117712020874
","x: 157.17567443847656
y: 527.39501953125
z: 0.24941284954547882
visibility: 0.8743236660957336
","x: 209.91238403320312
y: 542.112060546875
z: -0.19260495901107788
visibility: 0.9876673817634583
","x: 169.79649353027344
y: 539.2284545898438
z: 0.17212308943271637
visibility: 0.9842483401298523
",,,,,,,,,,,,,,,,,,,,,,,,,,,,,,,,,,,,,,,,,,
12,"x: 171.66445922851562
y: 290.71697998046875
z: -0.27482786774635315
visibility: 0.999958336353302
","x: 172.5589141845703
y: 283.2355651855469
z: -0.2629964351654053
visibility: 0.9999000430107117
","x: 173.8339385986328
y: 282.4615173339844
z: -0.26302075386047363
visibility: 0.9998939037322998
","x: 175.1060028076172
y: 281.84344482421875
z: -0.2630688548088074
visibility: 0.9998787045478821
","x: 169.24693298339844
y: 285.82379150390625
z: -0.2624444365501404
visibility: 0.9998884201049805
","x: 168.23182678222656
y: 286.79937744140625
z: -0.262503981590271
visibility: 0.999882698059082
","x: 167.27133178710938
y: 287.7820129394531
z: -0.2625488340854645
visibility: 0.9998487234115601
","x: 177.64898681640625
y: 284.27825927734375
z: -0.17709046602249146
visibility: 0.9997581243515015
","x: 166.7926025390625
y: 290.8154296875
z: -0.17408451437950134
visibility: 0.9997976422309875
","x: 175.6084747314453
y: 296.1899108886719
z: -0.24115660786628723
visibility: 0.9999310970306396
","x: 170.7559814453125
y: 298.84173583984375
z: -0.24037130177021027
visibility: 0.9999204874038696
","x: 193.30274963378906
y: 327.32220458984375
z: -0.08420815318822861
visibility: 0.9998595118522644
","x: 161.14759826660156
y: 320.27783203125
z: -0.13670065999031067
visibility: 0.9998998641967773
","x: 207.876708984375
y: 368.8440246582031
z: -0.0395711250603199
visibility: 0.9050546288490295
","x: 144.70233154296875
y: 362.34210205078125
z: -0.1420777291059494
visibility: 0.9758347272872925
","x: 225.9290771484375
y: 395.2182312011719
z: -0.12088550627231598
visibility: 0.9068441987037659
","x: 133.5567626953125
y: 395.9364013671875
z: -0.21969863772392273
visibility: 0.9534444212913513
","x: 230.48805236816406
y: 406.3992004394531
z: -0.13526073098182678
visibility: 0.8697086572647095
","x: 129.45919799804688
y: 407.46533203125
z: -0.2419104129076004
visibility: 0.91813725233078
","x: 229.72628784179688
y: 405.30377197265625
z: -0.16439783573150635
visibility: 0.8796574473381042
","x: 130.4471435546875
y: 407.0617980957031
z: -0.26639485359191895
visibility: 0.9205602407455444
","x: 228.0025177001953
y: 401.507080078125
z: -0.13488136231899261
visibility: 0.8660326600074768
","x: 132.01979064941406
y: 404.3323974609375
z: -0.232418492436409
visibility: 0.9040483236312866
","x: 187.67015075683594
y: 412.14495849609375
z: 0.0270772036164999
visibility: 0.9998673796653748
","x: 167.97291564941406
y: 415.35516357421875
z: -0.027090642601251602
visibility: 0.9998087882995605
","x: 202.33982849121094
y: 452.3016662597656
z: -0.08048532903194427
visibility: 0.985170304775238
","x: 168.7361297607422
y: 468.3422546386719
z: 0.016596730798482895
visibility: 0.9922077655792236
","x: 205.01109313964844
y: 521.17138671875
z: 0.022242208942770958
visibility: 0.9888563752174377
","x: 161.5164794921875
y: 519.9241943359375
z: 0.22018828988075256
visibility: 0.9888071417808533
","x: 200.99392700195312
y: 531.4967041015625
z: 0.0280060563236475
visibility: 0.9456397294998169
","x: 157.72470092773438
y: 528.3214111328125
z: 0.23515291512012482
visibility: 0.8667744398117065
","x: 216.61837768554688
y: 542.1447143554688
z: -0.0665874034166336
visibility: 0.9878758192062378
","x: 169.81942749023438
y: 539.233154296875
z: 0.15231895446777344
visibility: 0.983254611492157
",,,,,,,,,,,,,,,,,,,,,,,,,,,,,,,,,,,,,,,,,,
13,"x: 175.75775146484375
y: 289.3608703613281
z: -0.23203179240226746
visibility: 0.9999621510505676
","x: 176.55789184570312
y: 282.18792724609375
z: -0.21595101058483124
visibility: 0.9999089241027832
","x: 177.59402465820312
y: 281.6147766113281
z: -0.21597230434417725
visibility: 0.9999033808708191
","x: 178.58192443847656
y: 281.1833801269531
z: -0.21601442992687225
visibility: 0.999889612197876
","x: 173.48095703125
y: 284.3433837890625
z: -0.21894696354866028
visibility: 0.9998983144760132
","x: 172.46347045898438
y: 285.1916198730469
z: -0.21898873150348663
visibility: 0.9998931884765625
","x: 171.38131713867188
y: 286.0639343261719
z: -0.2189977616071701
visibility: 0.999862015247345
","x: 180.68844604492188
y: 284.42041015625
z: -0.12496445327997208
visibility: 0.9997798800468445
","x: 169.54721069335938
y: 289.74090576171875
z: -0.13853147625923157
visibility: 0.9998149871826172
","x: 178.84046936035156
y: 295.3463439941406
z: -0.19794587790966034
visibility: 0.9999369978904724
","x: 174.74618530273438
y: 297.402099609375
z: -0.20189812779426575
visibility: 0.9999268054962158
","x: 195.6195526123047
y: 329.8499755859375
z: -0.038575179874897
visibility: 0.9998705983161926
","x: 164.74839782714844
y: 320.409423828125
z: -0.12513013184070587
visibility: 0.9999050498008728
","x: 209.9853515625
y: 369.3760681152344
z: 0.0041071330197155476
visibility: 0.9086742401123047
","x: 153.79119873046875
y: 365.1642150878906
z: -0.16330762207508087
visibility: 0.9766756296157837
","x: 225.21273803710938
y: 399.6505126953125
z: -0.05608712509274483
visibility: 0.9118756055831909
","x: 144.1868896484375
y: 400.1510925292969
z: -0.2726142704486847
visibility: 0.9544434547424316
","x: 228.63601684570312
y: 410.79144287109375
z: -0.06650987267494202
visibility: 0.8745030760765076
","x: 141.01564025878906
y: 411.84075927734375
z: -0.3004867732524872
visibility: 0.9192385077476501
","x: 227.06573486328125
y: 409.6922302246094
z: -0.09319332987070084
visibility: 0.8848364353179932
","x: 142.21546936035156
y: 411.2985534667969
z: -0.3165609538555145
visibility: 0.921747624874115
","x: 225.67367553710938
y: 405.9073486328125
z: -0.06856516748666763
visibility: 0.8715808987617493
","x: 144.07138061523438
y: 408.5021667480469
z: -0.28242188692092896
visibility: 0.904997706413269
","x: 189.2869873046875
y: 413.6340026855469
z: 0.029757335782051086
visibility: 0.9998787641525269
","x: 170.0321502685547
y: 414.6910400390625
z: -0.029772356152534485
visibility: 0.9998214244842529
","x: 202.27955627441406
y: 454.9754333496094
z: -0.11556975543498993
visibility: 0.9851325154304504
","x: 167.85174560546875
y: 464.88775634765625
z: -0.0007420990150421858
visibility: 0.9919049143791199
","x: 205.06649780273438
y: 522.029296875
z: -0.04403068870306015
visibility: 0.9889119267463684
","x: 161.3826446533203
y: 519.804443359375
z: 0.1607055813074112
visibility: 0.9884815216064453
","x: 201.39208984375
y: 533.0878295898438
z: -0.04084855690598488
visibility: 0.9473243355751038
","x: 157.82777404785156
y: 528.748779296875
z: 0.17164546251296997
visibility: 0.8621227145195007
","x: 217.47312927246094
y: 542.1480712890625
z: -0.13100019097328186
visibility: 0.9880675673484802
","x: 170.468505859375
y: 539.3272705078125
z: 0.09193266928195953
visibility: 0.9823992848396301
",,,,,,,,,,,,,,,,,,,,,,,,,,,,,,,,,,,,,,,,,,
14,"x: 178.9774932861328
y: 288.95550537109375
z: -0.22224685549736023
visibility: 0.9999614953994751
","x: 179.85433959960938
y: 281.6885070800781
z: -0.20453612506389618
visibility: 0.999906063079834
","x: 180.96437072753906
y: 281.0633544921875
z: -0.20457050204277039
visibility: 0.9998986721038818
","x: 182.093994140625
y: 280.6106262207031
z: -0.2046208679676056
visibility: 0.9998846650123596
","x: 176.52316284179688
y: 283.8663330078125
z: -0.21058852970600128
visibility: 0.999898374080658
","x: 175.34124755859375
y: 284.5668640136719
z: -0.21062126755714417
visibility: 0.9998934268951416
","x: 174.19137573242188
y: 285.287109375
z: -0.21066999435424805
visibility: 0.9998615980148315
","x: 184.10475158691406
y: 283.6526184082031
z: -0.10238458961248398
visibility: 0.9997584819793701
","x: 172.3753662109375
y: 288.7737731933594
z: -0.12841863930225372
visibility: 0.9998128414154053
","x: 181.94439697265625
y: 295.3033752441406
z: -0.18332329392433167
visibility: 0.9999261498451233
","x: 178.01339721679688
y: 297.2210388183594
z: -0.190814808011055
visibility: 0.9999125003814697
","x: 197.21217346191406
y: 323.8024597167969
z: 0.0025061077903956175
visibility: 0.9998485445976257
","x: 169.94412231445312
y: 319.8634948730469
z: -0.12469484657049179
visibility: 0.9998902082443237
","x: 207.94293212890625
y: 363.3758544921875
z: 0.056701354682445526
visibility: 0.8736077547073364
","x: 168.3622589111328
y: 364.3143310546875
z: -0.17253121733665466
visibility: 0.9717584848403931
","x: 223.37806701660156
y: 396.46246337890625
z: -0.0013027748791500926
visibility: 0.8865048289299011
","x: 171.421630859375
y: 399.269287109375
z: -0.2710168957710266
visibility: 0.9413542747497559
","x: 223.1652069091797
y: 406.6201477050781
z: -0.012883923947811127
visibility: 0.8443162441253662
","x: 169.16957092285156
y: 415.290283203125
z: -0.30025774240493774
visibility: 0.9001674652099609
","x: 221.59503173828125
y: 405.4298400878906
z: -0.04059365391731262
visibility: 0.857365608215332
","x: 171.60951232910156
y: 413.8450927734375
z: -0.31541725993156433
visibility: 0.9019588828086853
","x: 221.03504943847656
y: 401.8601989746094
z: -0.014608575031161308
visibility: 0.8427994251251221
","x: 173.33070373535156
y: 408.4356384277344
z: -0.28058958053588867
visibility: 0.8809178471565247
","x: 196.05014038085938
y: 413.15728759765625
z: 0.039071645587682724
visibility: 0.9998810291290283
","x: 177.04144287109375
y: 414.051513671875
z: -0.03905926272273064
visibility: 0.9998189210891724
","x: 208.02471923828125
y: 455.47283935546875
z: -0.05417678505182266
visibility: 0.9844149947166443
","x: 170.8888397216797
y: 464.9130554199219
z: 0.0020690567325800657
visibility: 0.9915069341659546
","x: 205.980224609375
y: 522.2760620117188
z: -0.027647575363516808
visibility: 0.988336980342865
","x: 161.87017822265625
y: 519.5148315429688
z: 0.16555491089820862
visibility: 0.9884870648384094
","x: 201.704833984375
y: 533.6409912109375
z: -0.016301123425364494
visibility: 0.9472114443778992
","x: 158.44422912597656
y: 528.6107177734375
z: 0.1765027940273285
visibility: 0.8582596182823181
","x: 217.7899932861328
y: 542.2173461914062
z: -0.097244493663311
visibility: 0.9873165488243103
","x: 169.4962921142578
y: 539.3834228515625
z: 0.08684099465608597
visibility: 0.9820966720581055
",,,,,,,,,,,,,,,,,,,,,,,,,,,,,,,,,,,,,,,,,,
15,"x: 180.49171447753906
y: 284.264404296875
z: -0.21996860206127167
visibility: 0.9999595284461975
","x: 181.85565185546875
y: 277.5464172363281
z: -0.20264609158039093
visibility: 0.9999033212661743
","x: 183.08091735839844
y: 276.9696960449219
z: -0.20267760753631592
visibility: 0.9998953938484192
","x: 184.33465576171875
y: 276.4981384277344
z: -0.20267441868782043
visibility: 0.9998830556869507
","x: 178.3582000732422
y: 279.50274658203125
z: -0.20650169253349304
visibility: 0.9998932480812073
","x: 177.21026611328125
y: 280.1949768066406
z: -0.20652428269386292
visibility: 0.9998886585235596
","x: 176.08563232421875
y: 280.909423828125
z: -0.20658890902996063
visibility: 0.9998559355735779
","x: 186.86293029785156
y: 279.12799072265625
z: -0.10103978216648102
visibility: 0.9997451901435852
","x: 175.14732360839844
y: 285.14227294921875
z: -0.11592195183038712
visibility: 0.9998002052307129
","x: 183.96707153320312
y: 289.92767333984375
z: -0.18137550354003906
visibility: 0.9999288320541382
","x: 179.74771118164062
y: 292.330810546875
z: -0.18584498763084412
visibility: 0.9999145865440369
","x: 202.21652221679688
y: 318.1954345703125
z: -0.02027827873826027
visibility: 0.9998587965965271
","x: 171.38589477539062
y: 317.9639587402344
z: -0.12001200020313263
visibility: 0.9998916983604431
","x: 209.52151489257812
y: 359.12298583984375
z: -0.05514873191714287
visibility: 0.8788226246833801
","x: 178.53054809570312
y: 360.7751770019531
z: -0.1895601600408554
visibility: 0.9718949198722839
","x: 210.4529266357422
y: 390.12445068359375
z: -0.20477452874183655
visibility: 0.8925089836120605
","x: 195.46878051757812
y: 395.41070556640625
z: -0.2967676520347595
visibility: 0.9432036280632019
","x: 208.74606323242188
y: 405.93817138671875
z: -0.24353353679180145
visibility: 0.8520410060882568
","x: 196.94313049316406
y: 413.8815002441406
z: -0.3374716341495514
visibility: 0.9033515453338623
","x: 205.0341033935547
y: 403.1155700683594
z: -0.259471595287323
visibility: 0.8640404939651489
","x: 199.8741455078125
y: 403.2657165527344
z: -0.3437213599681854
visibility: 0.9043631553649902
","x: 206.21649169921875
y: 393.120849609375
z: -0.21492882072925568
visibility: 0.8488245606422424
","x: 199.6491241455078
y: 397.2067565917969
z: -0.30119481682777405
visibility: 0.8817314505577087
","x: 199.62872314453125
y: 409.4208068847656
z: 0.03599342703819275
visibility: 0.999890923500061
","x: 179.9444122314453
y: 409.5899658203125
z: -0.03602457046508789
visibility: 0.9998334646224976
","x: 205.61737060546875
y: 458.0190734863281
z: 0.03324955329298973
visibility: 0.9842368364334106
","x: 176.5400390625
y: 464.51580810546875
z: 0.016593819484114647
visibility: 0.991658627986908
","x: 205.6688690185547
y: 522.8709716796875
z: 0.19980783760547638
visibility: 0.9878868460655212
","x: 169.52694702148438
y: 517.1979370117188
z: 0.22344112396240234
visibility: 0.9886651039123535
","x: 201.69117736816406
y: 534.1615600585938
z: 0.2124854028224945
visibility: 0.9459620714187622
","x: 168.21226501464844
y: 522.8074951171875
z: 0.24009497463703156
visibility: 0.8588901162147522
","x: 217.73159790039062
y: 542.2550659179688
z: 0.12470511347055435
visibility: 0.986867368221283
","x: 172.49464416503906
y: 539.6648559570312
z: 0.14811451733112335
visibility: 0.9825693964958191
",,,,,,,,,,,,,,,,,,,,,,,,,,,,,,,,,,,,,,,,,,
16,"x: 183.96751403808594
y: 284.291748046875
z: -0.1389230191707611
visibility: 0.9999394416809082
","x: 185.1077880859375
y: 277.5931396484375
z: -0.12018340826034546
visibility: 0.9998811483383179
","x: 186.15345764160156
y: 277.0810852050781
z: -0.12021584808826447
visibility: 0.9998701214790344
","x: 187.22059631347656
y: 276.68487548828125
z: -0.12024180591106415
visibility: 0.9998639225959778
","x: 181.82859802246094
y: 279.4296875
z: -0.12548357248306274
visibility: 0.9998589754104614
","x: 180.51307678222656
y: 280.0278625488281
z: -0.1254836916923523
visibility: 0.9998424053192139
","x: 179.1088104248047
y: 280.65960693359375
z: -0.12552228569984436
visibility: 0.9998019337654114
","x: 188.73733520507812
y: 279.33856201171875
z: -0.02026483789086342
visibility: 0.9997108578681946
","x: 176.9363250732422
y: 284.8809509277344
z: -0.04184577241539955
visibility: 0.999717652797699
","x: 186.47601318359375
y: 290.0021667480469
z: -0.10160521417856216
visibility: 0.9999206066131592
","x: 182.4713134765625
y: 292.28948974609375
z: -0.10789449512958527
visibility: 0.9998964667320251
","x: 200.77967834472656
y: 317.3221435546875
z: 0.03724289685487747
visibility: 0.999859631061554
","x: 170.80718994140625
y: 317.5560302734375
z: -0.04878601059317589
visibility: 0.9998396039009094
","x: 211.01028442382812
y: 357.39886474609375
z: -0.04600299149751663
visibility: 0.8810840249061584
","x: 174.16500854492188
y: 357.4758605957031
z: -0.14544041454792023
visibility: 0.9730945229530334
","x: 210.09434509277344
y: 363.4683837890625
z: -0.21703512966632843
visibility: 0.8957036733627319
","x: 197.53436279296875
y: 360.5668640136719
z: -0.22707875072956085
visibility: 0.943772554397583
","x: 207.4027862548828
y: 364.38983154296875
z: -0.2546314597129822
visibility: 0.8553495407104492
","x: 202.43019104003906
y: 363.1289978027344
z: -0.25521042943000793
visibility: 0.9021870493888855
","x: 206.0527801513672
y: 357.6207275390625
z: -0.25617870688438416
visibility: 0.8665790557861328
","x: 203.16464233398438
y: 357.3684997558594
z: -0.2514892816543579
visibility: 0.9022776484489441
","x: 206.1422882080078
y: 356.9648742675781
z: -0.22182098031044006
visibility: 0.8481612205505371
","x: 201.24374389648438
y: 357.0361633300781
z: -0.2258187085390091
visibility: 0.8753663301467896
","x: 200.47344970703125
y: 408.076904296875
z: 0.030928995460271835
visibility: 0.9999003410339355
","x: 180.70944213867188
y: 409.255126953125
z: -0.030750036239624023
visibility: 0.9998409152030945
","x: 214.6094207763672
y: 455.73956298828125
z: -0.19549216330051422
visibility: 0.9854575395584106
","x: 177.30213928222656
y: 464.54522705078125
z: 0.025625217705965042
visibility: 0.9909773468971252
","x: 208.06507873535156
y: 521.470703125
z: -0.11265261471271515
visibility: 0.9884825944900513
","x: 173.0943603515625
y: 517.4177856445312
z: 0.24887749552726746
visibility: 0.987176239490509
","x: 202.833984375
y: 531.6053466796875
z: -0.10821721702814102
visibility: 0.9488241672515869
","x: 172.97523498535156
y: 523.2348022460938
z: 0.266391783952713
visibility: 0.8466724753379822
","x: 218.5796356201172
y: 542.2572631835938
z: -0.21754705905914307
visibility: 0.9874815940856934
","x: 173.58522033691406
y: 540.0267944335938
z: 0.1806943714618683
visibility: 0.9805746078491211
",,,,,,,,,,,,,,,,,,,,,,,,,,,,,,,,,,,,,,,,,,
17,"x: 186.9081573486328
y: 285.26708984375
z: -0.17354080080986023
visibility: 0.999944806098938
","x: 187.96115112304688
y: 278.8137512207031
z: -0.1568545401096344
visibility: 0.9998917579650879
","x: 189.0730438232422
y: 278.5135192871094
z: -0.1569254845380783
visibility: 0.9998816251754761
","x: 190.19200134277344
y: 278.2714538574219
z: -0.15678967535495758
visibility: 0.9998759627342224
","x: 184.77005004882812
y: 279.991943359375
z: -0.16020514070987701
visibility: 0.9998711347579956
","x: 183.4939727783203
y: 280.4102783203125
z: -0.16031937301158905
visibility: 0.9998554587364197
","x: 182.08216857910156
y: 280.8789367675781
z: -0.1606566607952118
visibility: 0.999817967414856
","x: 192.1173095703125
y: 280.678955078125
z: -0.08209936320781708
visibility: 0.9997375011444092
","x: 179.96022033691406
y: 284.9267272949219
z: -0.09458693861961365
visibility: 0.9997410178184509
","x: 189.4373779296875
y: 291.0189208984375
z: -0.15112359821796417
visibility: 0.9999275207519531
","x: 185.37533569335938
y: 292.6523132324219
z: -0.15322189033031464
visibility: 0.999904990196228
","x: 204.5695037841797
y: 317.609619140625
z: -0.006444770842790604
visibility: 0.9998722672462463
","x: 171.6051025390625
y: 317.1251220703125
z: -0.07666300237178802
visibility: 0.9998447895050049
","x: 212.6573486328125
y: 357.7478332519531
z: -0.06929417699575424
visibility: 0.8896203637123108
","x: 168.22653198242188
y: 342.81634521484375
z: -0.21503663063049316
visibility: 0.9741348624229431
","x: 224.79917907714844
y: 345.4150085449219
z: -0.22443608939647675
visibility: 0.9053597450256348
","x: 178.56393432617188
y: 334.0536804199219
z: -0.43014082312583923
visibility: 0.9472858309745789
","x: 229.08673095703125
y: 342.9541015625
z: -0.25318443775177
visibility: 0.86806720495224
","x: 176.29949951171875
y: 331.80657958984375
z: -0.4706494212150574
visibility: 0.9075037837028503
","x: 228.16006469726562
y: 337.26019287109375
z: -0.26451388001441956
visibility: 0.8783450126647949
","x: 185.7963409423828
y: 326.90814208984375
z: -0.4708271920681
visibility: 0.9075131416320801
","x: 226.13108825683594
y: 337.7025146484375
z: -0.23308059573173523
visibility: 0.8608543276786804
","x: 190.95004272460938
y: 328.4674072265625
z: -0.4361969828605652
visibility: 0.8816253542900085
","x: 203.49517822265625
y: 406.5829772949219
z: 0.018551472574472427
visibility: 0.9999074339866638
","x: 182.85340881347656
y: 409.2654724121094
z: -0.018415268510580063
visibility: 0.9998470544815063
","x: 218.62152099609375
y: 456.5002136230469
z: -0.10356215387582779
visibility: 0.9866999387741089
","x: 178.09716796875
y: 464.37646484375
z: 0.04755996912717819
visibility: 0.9912776947021484
","x: 226.25509643554688
y: 520.5597534179688
z: -0.016283463686704636
visibility: 0.9892136454582214
","x: 174.18878173828125
y: 517.4743041992188
z: 0.24809284508228302
visibility: 0.9875255227088928
","x: 223.636474609375
y: 530.4754028320312
z: -0.013053598813712597
visibility: 0.9502847790718079
","x: 175.32247924804688
y: 523.4359130859375
z: 0.2630539834499359
visibility: 0.8503605723381042
","x: 236.97889709472656
y: 541.9761352539062
z: -0.12323043495416641
visibility: 0.9881080389022827
","x: 172.879150390625
y: 540.1375732421875
z: 0.17169581353664398
visibility: 0.9810723066329956
",,,,,,,,,,,,,,,,,,,,,,,,,,,,,,,,,,,,,,,,,,
18,"x: 199.6747589111328
y: 282.0602722167969
z: -0.19486913084983826
visibility: 0.999945342540741
","x: 200.96298217773438
y: 276.85943603515625
z: -0.1836562156677246
visibility: 0.999893844127655
","x: 202.11346435546875
y: 276.72796630859375
z: -0.18365804851055145
visibility: 0.9998812675476074
","x: 203.4099884033203
y: 276.623046875
z: -0.1836399883031845
visibility: 0.999875009059906
","x: 198.44973754882812
y: 277.19720458984375
z: -0.18129339814186096
visibility: 0.9998751282691956
","x: 197.69424438476562
y: 277.2965393066406
z: -0.18132947385311127
visibility: 0.9998603463172913
","x: 196.83319091796875
y: 277.4622497558594
z: -0.18139606714248657
visibility: 0.9998283386230469
","x: 206.20968627929688
y: 279.3816833496094
z: -0.10029573738574982
visibility: 0.9997362494468689
","x: 195.36666870117188
y: 281.30328369140625
z: -0.0961184948682785
visibility: 0.9997560381889343
","x: 202.19859313964844
y: 287.357421875
z: -0.16708281636238098
visibility: 0.9999246597290039
","x: 198.91217041015625
y: 288.075439453125
z: -0.16351580619812012
visibility: 0.9999065399169922
","x: 217.01760864257812
y: 314.9514465332031
z: -0.06284350901842117
visibility: 0.9998143911361694
","x: 186.04061889648438
y: 314.1699523925781
z: -0.06806806474924088
visibility: 0.9998483061790466
","x: 229.44552612304688
y: 340.7916564941406
z: -0.18270191550254822
visibility: 0.8970124125480652
","x: 174.775634765625
y: 337.0543212890625
z: -0.19243700802326202
visibility: 0.9761276841163635
","x: 227.53729248046875
y: 303.3896484375
z: -0.323284775018692
visibility: 0.9095003008842468
","x: 177.8721160888672
y: 298.47454833984375
z: -0.34400540590286255
visibility: 0.9517512917518616
","x: 226.84097290039062
y: 290.0934143066406
z: -0.3495337665081024
visibility: 0.8682070374488831
","x: 176.5584259033203
y: 287.0331115722656
z: -0.3786768317222595
visibility: 0.9138787388801575
","x: 225.23968505859375
y: 289.5179443359375
z: -0.3396175503730774
visibility: 0.8761186003684998
","x: 178.6636505126953
y: 284.59906005859375
z: -0.37461650371551514
visibility: 0.9134008884429932
","x: 224.8554229736328
y: 293.8382263183594
z: -0.32328271865844727
visibility: 0.8567438721656799
","x: 180.19442749023438
y: 288.67437744140625
z: -0.34594690799713135
visibility: 0.8886445760726929
","x: 210.332763671875
y: 406.39459228515625
z: 0.0038295756094157696
visibility: 0.9999121427536011
","x: 189.40570068359375
y: 406.3663024902344
z: -0.0039849360473454
visibility: 0.9998589754104614
","x: 221.33248901367188
y: 463.6783447265625
z: 0.020738938823342323
visibility: 0.9875228404998779
","x: 180.51759338378906
y: 463.7393798828125
z: 0.03604719787836075
visibility: 0.9920245409011841
","x: 232.4407958984375
y: 521.6870727539062
z: 0.16883696615695953
visibility: 0.9898958802223206
","x: 175.26837158203125
y: 516.8031005859375
z: 0.20627005398273468
visibility: 0.9885652661323547
","x: 230.63548278808594
y: 530.5120849609375
z: 0.17926646769046783
visibility: 0.9503196477890015
","x: 176.60630798339844
y: 522.6683959960938
z: 0.21943266689777374
visibility: 0.8600725531578064
","x: 240.10247802734375
y: 542.8899536132812
z: 0.0861310213804245
visibility: 0.9885910749435425
","x: 172.27545166015625
y: 539.9022216796875
z: 0.13796955347061157
visibility: 0.982537567615509
",,,,,,,,,,,,,,,,,,,,,,,,,,,,,,,,,,,,,,,,,,
19,"x: 202.13336181640625
y: 274.0011901855469
z: -0.23300275206565857
visibility: 0.9999499917030334
","x: 204.64329528808594
y: 269.2218933105469
z: -0.2197054922580719
visibility: 0.9999029040336609
","x: 206.07852172851562
y: 269.372314453125
z: -0.21968893706798553
visibility: 0.9998914003372192
","x: 207.53846740722656
y: 269.63299560546875
z: -0.2197115123271942
visibility: 0.999885618686676
","x: 200.8224334716797
y: 269.54864501953125
z: -0.21473701298236847
visibility: 0.9998859167098999
","x: 199.5854949951172
y: 269.8966064453125
z: -0.2147504836320877
visibility: 0.9998723268508911
","x: 198.39056396484375
y: 270.25579833984375
z: -0.21473033726215363
visibility: 0.999843418598175
","x: 210.27890014648438
y: 274.8890075683594
z: -0.1363959014415741
visibility: 0.9997593760490417
","x: 198.50230407714844
y: 275.723388671875
z: -0.11204294860363007
visibility: 0.9997772574424744
","x: 204.818115234375
y: 280.8572998046875
z: -0.20299260318279266
visibility: 0.9999307990074158
","x: 200.4287567138672
y: 281.6871032714844
z: -0.19699467718601227
visibility: 0.999914288520813
","x: 222.55516052246094
y: 313.8193054199219
z: -0.09074713289737701
visibility: 0.9998241662979126
","x: 187.59347534179688
y: 314.2177734375
z: -0.07422762364149094
visibility: 0.9998509287834167
","x: 237.48570251464844
y: 343.1689147949219
z: -0.2113373577594757
visibility: 0.9069634079933167
","x: 172.0096893310547
y: 341.152099609375
z: -0.1850699782371521
visibility: 0.9777706861495972
","x: 239.1133575439453
y: 309.106201171875
z: -0.37513303756713867
visibility: 0.9177817106246948
","x: 175.0319061279297
y: 309.77197265625
z: -0.3550235629081726
visibility: 0.9554420113563538
","x: 238.35731506347656
y: 299.13470458984375
z: -0.40835219621658325
visibility: 0.8783780336380005
","x: 174.41134643554688
y: 300.9136657714844
z: -0.39258846640586853
visibility: 0.918555498123169
","x: 236.38638305664062
y: 296.9946594238281
z: -0.39885926246643066
visibility: 0.8853070735931396
","x: 176.5691680908203
y: 299.80328369140625
z: -0.3821144998073578
visibility: 0.9175772666931152
","x: 235.8380584716797
y: 300.5633850097656
z: -0.37573710083961487
visibility: 0.8664574027061462
","x: 177.66720581054688
y: 303.54351806640625
z: -0.35623621940612793
visibility: 0.8936955332756042
","x: 213.6405029296875
y: 404.8836975097656
z: -0.003962009213864803
visibility: 0.9999130368232727
","x: 191.80331420898438
y: 404.791015625
z: 0.0038130662869662046
visibility: 0.9998654723167419
","x: 222.19749450683594
y: 465.7791442871094
z: 0.0055833375081419945
visibility: 0.9882500767707825
","x: 182.73110961914062
y: 463.4901123046875
z: 0.03193008899688721
visibility: 0.9925423264503479
","x: 233.34620666503906
y: 523.5220947265625
z: 0.16636382043361664
visibility: 0.990381121635437
","x: 176.6260986328125
y: 516.7219848632812
z: 0.20645757019519806
visibility: 0.9894034266471863
","x: 231.63514709472656
y: 532.1655883789062
z: 0.1776958405971527
visibility: 0.9477567076683044
","x: 178.71054077148438
y: 522.92529296875
z: 0.21965685486793518
visibility: 0.86799156665802
","x: 239.34906005859375
y: 543.6627807617188
z: 0.07892469316720963
visibility: 0.9888404607772827
","x: 171.6001739501953
y: 539.4794311523438
z: 0.13456670939922333
visibility: 0.9836578965187073
",,,,,,,,,,,,,,,,,,,,,,,,,,,,,,,,,,,,,,,,,,
20,"x: 198.23306274414062
y: 273.68646240234375
z: -0.21095621585845947
visibility: 0.9999510645866394
","x: 201.33074951171875
y: 269.2136535644531
z: -0.2085830718278885
visibility: 0.9999063014984131
","x: 202.50323486328125
y: 269.6129455566406
z: -0.20861570537090302
visibility: 0.9998979568481445
","x: 203.78370666503906
y: 270.07818603515625
z: -0.20866136252880096
visibility: 0.9998913407325745
","x: 198.7677001953125
y: 268.61456298828125
z: -0.1930459588766098
visibility: 0.9998825788497925
","x: 198.16432189941406
y: 268.6116943359375
z: -0.19304783642292023
visibility: 0.9998708367347717
","x: 197.64166259765625
y: 268.62091064453125
z: -0.19301559031009674
visibility: 0.9998384118080139
","x: 207.55723571777344
y: 275.25238037109375
z: -0.14921937882900238
visibility: 0.9997785091400146
","x: 200.1945037841797
y: 274.01214599609375
z: -0.09246879070997238
visibility: 0.9997798800468445
","x: 200.6546630859375
y: 281.24005126953125
z: -0.19612497091293335
visibility: 0.9999351501464844
","x: 196.942626953125
y: 280.5433044433594
z: -0.17318515479564667
visibility: 0.9999154806137085
","x: 220.8354034423828
y: 311.9625549316406
z: -0.11477696895599365
visibility: 0.9998400807380676
","x: 188.4996795654297
y: 311.8427734375
z: -0.016523707658052444
visibility: 0.999830961227417
","x: 236.81378173828125
y: 344.00311279296875
z: -0.24980485439300537
visibility: 0.9159997701644897
","x: 175.35409545898438
y: 329.8567199707031
z: 0.010024163872003555
visibility: 0.9694735407829285
","x: 242.74435424804688
y: 315.90606689453125
z: -0.43860945105552673
visibility: 0.9255573749542236
","x: 172.01968383789062
y: 307.3031311035156
z: -0.06252362579107285
visibility: 0.9564855098724365
","x: 246.9913330078125
y: 312.7637023925781
z: -0.47545868158340454
visibility: 0.888999342918396
","x: 172.0792694091797
y: 301.5659484863281
z: -0.07699805498123169
visibility: 0.9199877977371216
","x: 246.07553100585938
y: 310.1636657714844
z: -0.47887811064720154
visibility: 0.8952455520629883
","x: 173.55198669433594
y: 301.3339538574219
z: -0.08231020718812943
visibility: 0.9191733598709106
","x: 243.51461791992188
y: 311.4805908203125
z: -0.44488558173179626
visibility: 0.8773887753486633
","x: 173.89620971679688
y: 303.7622985839844
z: -0.06801126897335052
visibility: 0.8964237570762634
","x: 211.58836364746094
y: 405.2452087402344
z: -0.02157953754067421
visibility: 0.999918520450592
","x: 189.8154296875
y: 405.2125549316406
z: 0.02157498337328434
visibility: 0.9998738169670105
","x: 221.36329650878906
y: 468.6000061035156
z: -0.016129979863762856
visibility: 0.9892643690109253
","x: 182.8932647705078
y: 467.1194763183594
z: 0.0558491051197052
visibility: 0.9931126236915588
","x: 234.19619750976562
y: 524.558837890625
z: 0.15669476985931396
visibility: 0.9911659955978394
","x: 175.71617126464844
y: 517.2115478515625
z: 0.25181910395622253
visibility: 0.9903117418289185
","x: 233.21006774902344
y: 532.5390014648438
z: 0.16931776702404022
visibility: 0.9485762119293213
","x: 177.77056884765625
y: 523.590576171875
z: 0.2665823698043823
visibility: 0.8779375553131104
","x: 238.55831909179688
y: 544.8652954101562
z: 0.0628771111369133
visibility: 0.9896153807640076
","x: 171.19915771484375
y: 539.4931640625
z: 0.1755894124507904
visibility: 0.9850081205368042
","x: 241.76846313476562
y: 310.400634765625
z: 0.0
","x: 243.23785400390625
y: 315.1734313964844
z: -0.001277388189919293
","x: 245.88906860351562
y: 319.1724548339844
z: -0.002489621751010418
","x: 247.95147705078125
y: 321.7446594238281
z: -0.004228600766509771
","x: 249.42996215820312
y: 324.5520324707031
z: -0.005749549251049757
","x: 250.23843383789062
y: 315.289794921875
z: -0.00027500157011672854
","x: 253.85450744628906
y: 316.3634338378906
z: -0.0024401997216045856
","x: 256.0444641113281
y: 317.2008056640625
z: -0.0037789316847920418
","x: 257.93817138671875
y: 318.04583740234375
z: -0.004607669077813625
","x: 250.40745544433594
y: 312.2149963378906
z: -0.001358773442916572
","x: 254.40496826171875
y: 313.66180419921875
z: -0.0037865377962589264
","x: 256.85791015625
y: 315.2773132324219
z: -0.0054309191182255745
","x: 258.6871643066406
y: 317.046142578125
z: -0.0063435910269618034
","x: 249.9396514892578
y: 308.88330078125
z: -0.0028429594822227955
","x: 251.1634521484375
y: 310.3260498046875
z: -0.0053384979255497456
","x: 248.80857849121094
y: 311.102294921875
z: -0.005510157905519009
","x: 246.87298583984375
y: 312.16436767578125
z: -0.004875577054917812
","x: 249.0242156982422
y: 305.5391845703125
z: -0.004712119232863188
","x: 250.1966552734375
y: 305.285400390625
z: -0.006371494382619858
","x: 248.65602111816406
y: 306.0494384765625
z: -0.006390975788235664
","x: 247.0877227783203
y: 307.3190002441406
z: -0.005857571959495544
",,,,,,,,,,,,,,,,,,,,,
21,"x: 198.23306274414062
y: 273.68646240234375
z: -0.21095621585845947
visibility: 0.9999510645866394
","x: 201.33074951171875
y: 269.2136535644531
z: -0.2085830718278885
visibility: 0.9999063014984131
","x: 202.50323486328125
y: 269.6129455566406
z: -0.20861570537090302
visibility: 0.9998979568481445
","x: 203.78370666503906
y: 270.07818603515625
z: -0.20866136252880096
visibility: 0.9998913407325745
","x: 198.7677001953125
y: 268.61456298828125
z: -0.1930459588766098
visibility: 0.9998825788497925
","x: 198.16432189941406
y: 268.6116943359375
z: -0.19304783642292023
visibility: 0.9998708367347717
","x: 197.64166259765625
y: 268.62091064453125
z: -0.19301559031009674
visibility: 0.9998384118080139
","x: 207.55723571777344
y: 275.25238037109375
z: -0.14921937882900238
visibility: 0.9997785091400146
","x: 200.1945037841797
y: 274.01214599609375
z: -0.09246879070997238
visibility: 0.9997798800468445
","x: 200.6546630859375
y: 281.24005126953125
z: -0.19612497091293335
visibility: 0.9999351501464844
","x: 196.942626953125
y: 280.5433044433594
z: -0.17318515479564667
visibility: 0.9999154806137085
","x: 220.8354034423828
y: 311.9625549316406
z: -0.11477696895599365
visibility: 0.9998400807380676
","x: 188.4996795654297
y: 311.8427734375
z: -0.016523707658052444
visibility: 0.999830961227417
","x: 236.81378173828125
y: 344.00311279296875
z: -0.24980485439300537
visibility: 0.9159997701644897
","x: 175.35409545898438
y: 329.8567199707031
z: 0.010024163872003555
visibility: 0.9694735407829285
","x: 242.74435424804688
y: 315.90606689453125
z: -0.43860945105552673
visibility: 0.9255573749542236
","x: 172.01968383789062
y: 307.3031311035156
z: -0.06252362579107285
visibility: 0.9564855098724365
","x: 246.9913330078125
y: 312.7637023925781
z: -0.47545868158340454
visibility: 0.888999342918396
","x: 172.0792694091797
y: 301.5659484863281
z: -0.07699805498123169
visibility: 0.9199877977371216
","x: 246.07553100585938
y: 310.1636657714844
z: -0.47887811064720154
visibility: 0.8952455520629883
","x: 173.55198669433594
y: 301.3339538574219
z: -0.08231020718812943
visibility: 0.9191733598709106
","x: 243.51461791992188
y: 311.4805908203125
z: -0.44488558173179626
visibility: 0.8773887753486633
","x: 173.89620971679688
y: 303.7622985839844
z: -0.06801126897335052
visibility: 0.8964237570762634
","x: 211.58836364746094
y: 405.2452087402344
z: -0.02157953754067421
visibility: 0.999918520450592
","x: 189.8154296875
y: 405.2125549316406
z: 0.02157498337328434
visibility: 0.9998738169670105
","x: 221.36329650878906
y: 468.6000061035156
z: -0.016129979863762856
visibility: 0.9892643690109253
","x: 182.8932647705078
y: 467.1194763183594
z: 0.0558491051197052
visibility: 0.9931126236915588
","x: 234.19619750976562
y: 524.558837890625
z: 0.15669476985931396
visibility: 0.9911659955978394
","x: 175.71617126464844
y: 517.2115478515625
z: 0.25181910395622253
visibility: 0.9903117418289185
","x: 233.21006774902344
y: 532.5390014648438
z: 0.16931776702404022
visibility: 0.9485762119293213
","x: 177.77056884765625
y: 523.590576171875
z: 0.2665823698043823
visibility: 0.8779375553131104
","x: 238.55831909179688
y: 544.8652954101562
z: 0.0628771111369133
visibility: 0.9896153807640076
","x: 171.19915771484375
y: 539.4931640625
z: 0.1755894124507904
visibility: 0.9850081205368042
","x: 241.76846313476562
y: 310.400634765625
z: 0.0
","x: 243.23785400390625
y: 315.1734313964844
z: -0.001277388189919293
","x: 245.88906860351562
y: 319.1724548339844
z: -0.002489621751010418
","x: 247.95147705078125
y: 321.7446594238281
z: -0.004228600766509771
","x: 249.42996215820312
y: 324.5520324707031
z: -0.005749549251049757
","x: 250.23843383789062
y: 315.289794921875
z: -0.00027500157011672854
","x: 253.85450744628906
y: 316.3634338378906
z: -0.0024401997216045856
","x: 256.0444641113281
y: 317.2008056640625
z: -0.0037789316847920418
","x: 257.93817138671875
y: 318.04583740234375
z: -0.004607669077813625
","x: 250.40745544433594
y: 312.2149963378906
z: -0.001358773442916572
","x: 254.40496826171875
y: 313.66180419921875
z: -0.0037865377962589264
","x: 256.85791015625
y: 315.2773132324219
z: -0.0054309191182255745
","x: 258.6871643066406
y: 317.046142578125
z: -0.0063435910269618034
","x: 249.9396514892578
y: 308.88330078125
z: -0.0028429594822227955
","x: 251.1634521484375
y: 310.3260498046875
z: -0.0053384979255497456
","x: 248.80857849121094
y: 311.102294921875
z: -0.005510157905519009
","x: 246.87298583984375
y: 312.16436767578125
z: -0.004875577054917812
","x: 249.0242156982422
y: 305.5391845703125
z: -0.004712119232863188
","x: 250.1966552734375
y: 305.285400390625
z: -0.006371494382619858
","x: 248.65602111816406
y: 306.0494384765625
z: -0.006390975788235664
","x: 247.0877227783203
y: 307.3190002441406
z: -0.005857571959495544
",,,,,,,,,,,,,,,,,,,,,
22,"x: 195.9667510986328
y: 274.7447509765625
z: -0.1267877221107483
visibility: 0.9999479055404663
","x: 199.30145263671875
y: 270.1384582519531
z: -0.1278482973575592
visibility: 0.9999018311500549
","x: 200.49623107910156
y: 270.4293518066406
z: -0.12791135907173157
visibility: 0.9998995065689087
","x: 201.84017944335938
y: 270.8092346191406
z: -0.12793467938899994
visibility: 0.9998904466629028
","x: 197.24810791015625
y: 269.8184814453125
z: -0.11105285584926605
visibility: 0.999860405921936
","x: 196.9443817138672
y: 269.88653564453125
z: -0.11103663593530655
visibility: 0.9998485445976257
","x: 196.734130859375
y: 269.9486389160156
z: -0.11104150116443634
visibility: 0.9998071193695068
","x: 206.4499969482422
y: 275.5142822265625
z: -0.10418268293142319
visibility: 0.9997830390930176
","x: 200.7836151123047
y: 275.1319274902344
z: -0.026439284905791283
visibility: 0.9997674822807312
","x: 198.13067626953125
y: 282.248779296875
z: -0.1175699234008789
visibility: 0.9999311566352844
","x: 195.230712890625
y: 281.71685791015625
z: -0.0952327698469162
visibility: 0.9998997449874878
","x: 215.62515258789062
y: 312.5920715332031
z: -0.09943883866071701
visibility: 0.9998526573181152
","x: 191.2972412109375
y: 311.9947204589844
z: 0.037749435752630234
visibility: 0.9997921586036682
","x: 227.95724487304688
y: 342.28594970703125
z: -0.25450605154037476
visibility: 0.9229661822319031
","x: 178.3097381591797
y: 333.174072265625
z: 0.16016730666160583
visibility: 0.9378376603126526
","x: 237.02000427246094
y: 329.9688415527344
z: -0.45601367950439453
visibility: 0.9323390126228333
","x: 162.57589721679688
y: 327.38134765625
z: 0.2331182211637497
visibility: 0.9526113271713257
","x: 242.42337036132812
y: 324.9599609375
z: -0.49082812666893005
visibility: 0.8986455202102661
","x: 157.42251586914062
y: 326.2716369628906
z: 0.24209992587566376
visibility: 0.9149366617202759
","x: 242.48101806640625
y: 323.5751647949219
z: -0.5059345960617065
visibility: 0.9044067859649658
","x: 161.53024291992188
y: 324.64776611328125
z: 0.22800099849700928
visibility: 0.9154456853866577
","x: 240.8148193359375
y: 323.2334899902344
z: -0.4679383635520935
visibility: 0.8878902792930603
","x: 158.75682067871094
y: 325.4510192871094
z: 0.22762766480445862
visibility: 0.8941327929496765
","x: 209.7730255126953
y: 407.32843017578125
z: -0.022450877353549004
visibility: 0.9999220967292786
","x: 188.16812133789062
y: 407.230712890625
z: 0.022426608949899673
visibility: 0.9998785853385925
","x: 219.82159423828125
y: 469.045166015625
z: -0.01862458512187004
visibility: 0.9900444149971008
","x: 183.12722778320312
y: 467.6394348144531
z: 0.06280769407749176
visibility: 0.9935761094093323
","x: 232.6921844482422
y: 524.7176513671875
z: 0.1209593266248703
visibility: 0.9917632937431335
","x: 176.72341918945312
y: 517.16162109375
z: 0.23831894993782043
visibility: 0.9910463690757751
","x: 231.8225555419922
y: 532.5901489257812
z: 0.13050007820129395
visibility: 0.949155330657959
","x: 178.5070343017578
y: 523.6744384765625
z: 0.25147300958633423
visibility: 0.8861134052276611
","x: 238.63075256347656
y: 544.9725341796875
z: 0.030734878033399582
visibility: 0.9900964498519897
","x: 171.3797149658203
y: 538.9683227539062
z: 0.16810448467731476
visibility: 0.9861125946044922
",,,,,,,,,,,,,,,,,,,,,,,,,,,,,,,,,,,,,,,,,,
23,"x: 196.9287109375
y: 274.8212890625
z: -0.11755651235580444
visibility: 0.9999204277992249
","x: 200.17254638671875
y: 270.25018310546875
z: -0.12527617812156677
visibility: 0.9998816251754761
","x: 201.17843627929688
y: 270.75323486328125
z: -0.1253553032875061
visibility: 0.9998823404312134
","x: 202.3218536376953
y: 271.3027648925781
z: -0.12540259957313538
visibility: 0.999875545501709
","x: 198.87265014648438
y: 270.52685546875
z: -0.10322354733943939
visibility: 0.9998067021369934
","x: 198.88563537597656
y: 270.82086181640625
z: -0.10319056361913681
visibility: 0.9997692704200745
","x: 199.01580810546875
y: 271.07861328125
z: -0.10320998728275299
visibility: 0.9997115135192871
","x: 207.11993408203125
y: 276.06634521484375
z: -0.11320352554321289
visibility: 0.9997620582580566
","x: 203.93374633789062
y: 275.9844665527344
z: -0.022200781852006912
visibility: 0.999651312828064
","x: 198.89590454101562
y: 282.3934326171875
z: -0.11470155417919159
visibility: 0.999901294708252
","x: 196.73831176757812
y: 282.5344543457031
z: -0.08586771786212921
visibility: 0.9998350739479065
","x: 213.45260620117188
y: 313.014892578125
z: -0.13513539731502533
visibility: 0.9998549222946167
","x: 195.24269104003906
y: 314.5138854980469
z: 0.05141351372003555
visibility: 0.9997312426567078
","x: 219.08905029296875
y: 344.43524169921875
z: -0.28345590829849243
visibility: 0.9264856576919556
","x: 182.5387725830078
y: 338.06060791015625
z: 0.11819010972976685
visibility: 0.8623651266098022
","x: 219.3845672607422
y: 331.37359619140625
z: -0.4567874073982239
visibility: 0.9371305108070374
","x: 170.2674102783203
y: 347.65338134765625
z: 0.09480585902929306
visibility: 0.9020511507987976
","x: 224.01858520507812
y: 332.7041015625
z: -0.49743181467056274
visibility: 0.9061349034309387
","x: 166.39651489257812
y: 350.8766174316406
z: 0.09199230372905731
visibility: 0.8668821454048157
","x: 224.20989990234375
y: 329.1361083984375
z: -0.500786304473877
visibility: 0.9112926721572876
","x: 167.1710662841797
y: 348.31219482421875
z: 0.07188594341278076
visibility: 0.8695470094680786
","x: 222.6842498779297
y: 329.6049499511719
z: -0.4624409079551697
visibility: 0.8943960666656494
","x: 167.61648559570312
y: 347.6254577636719
z: 0.08428679406642914
visibility: 0.8484811186790466
","x: 208.21888732910156
y: 408.30316162109375
z: -0.038977958261966705
visibility: 0.999916136264801
","x: 187.57456970214844
y: 407.260498046875
z: 0.039013057947158813
visibility: 0.9998708367347717
","x: 218.63429260253906
y: 468.3395690917969
z: 0.001088635646738112
visibility: 0.9902729988098145
","x: 183.89678955078125
y: 467.45953369140625
z: 0.07762297242879868
visibility: 0.9935645461082458
","x: 232.35585021972656
y: 524.9175415039062
z: 0.11121039092540741
visibility: 0.9922130703926086
","x: 176.75704956054688
y: 517.3274536132812
z: 0.210842564702034
visibility: 0.9914839267730713
","x: 231.31182861328125
y: 532.85693359375
z: 0.1217956691980362
visibility: 0.9502396583557129
","x: 178.3336639404297
y: 525.51416015625
z: 0.21792976558208466
visibility: 0.8935534358024597
","x: 238.703125
y: 545.0125732421875
z: 0.022046275436878204
visibility: 0.990379810333252
","x: 171.34524536132812
y: 537.737060546875
z: 0.14619776606559753
visibility: 0.9867879748344421
",,,,,,,,,,,,,,,,,,,,,,,,,,,,,,,,,,,,,,,,,,
24,"x: 197.312255859375
y: 275.4459228515625
z: -0.1045946478843689
visibility: 0.999515175819397
","x: 200.67613220214844
y: 270.8155212402344
z: -0.11419862508773804
visibility: 0.9994018077850342
","x: 201.74273681640625
y: 271.418212890625
z: -0.11427968740463257
visibility: 0.9994345307350159
","x: 202.97610473632812
y: 271.99468994140625
z: -0.11430732905864716
visibility: 0.9994590878486633
","x: 199.3672637939453
y: 270.66961669921875
z: -0.0909990593791008
visibility: 0.9989476799964905
","x: 199.38438415527344
y: 271.161376953125
z: -0.09099256992340088
visibility: 0.9986779689788818
","x: 199.48883056640625
y: 271.597412109375
z: -0.09102819859981537
visibility: 0.9986066222190857
","x: 208.2891845703125
y: 277.0584716796875
z: -0.11701210588216782
visibility: 0.9992046356201172
","x: 204.71316528320312
y: 276.4548645019531
z: -0.016369866207242012
visibility: 0.9975951313972473
","x: 199.1612091064453
y: 282.91668701171875
z: -0.10591031610965729
visibility: 0.9995644092559814
","x: 197.13768005371094
y: 282.8359680175781
z: -0.07523220032453537
visibility: 0.999147891998291
","x: 213.53335571289062
y: 311.8932800292969
z: -0.14773865044116974
visibility: 0.999826967716217
","x: 195.26856994628906
y: 317.7088623046875
z: 0.05766759067773819
visibility: 0.9996048808097839
","x: 202.73220825195312
y: 345.25994873046875
z: -0.2298744171857834
visibility: 0.9247021079063416
","x: 186.81781005859375
y: 347.58551025390625
z: 0.1259802281856537
visibility: 0.7890809774398804
","x: 186.3489227294922
y: 352.4219055175781
z: -0.3152211904525757
visibility: 0.9284709692001343
","x: 174.8128204345703
y: 358.80621337890625
z: 0.09000028669834137
visibility: 0.8422330617904663
","x: 184.42604064941406
y: 355.2514953613281
z: -0.3475172221660614
visibility: 0.8982958197593689
","x: 171.44985961914062
y: 362.30511474609375
z: 0.08292766660451889
visibility: 0.8133966326713562
","x: 185.6039581298828
y: 349.1476745605469
z: -0.3442629277706146
visibility: 0.9024157524108887
","x: 171.3392333984375
y: 358.90093994140625
z: 0.06103146821260452
visibility: 0.817590594291687
","x: 186.0593719482422
y: 348.9729309082031
z: -0.3128715753555298
visibility: 0.8771904706954956
","x: 172.78265380859375
y: 357.8338623046875
z: 0.07841407507658005
visibility: 0.7966678142547607
","x: 208.20602416992188
y: 410.4559326171875
z: -0.04314044862985611
visibility: 0.9999004006385803
","x: 188.7388153076172
y: 410.09783935546875
z: 0.04316481947898865
visibility: 0.9998530149459839
","x: 217.81741333007812
y: 467.9385681152344
z: -0.053120024502277374
visibility: 0.9906888008117676
","x: 184.2932891845703
y: 467.3393249511719
z: 0.06740550696849823
visibility: 0.993229866027832
","x: 233.00621032714844
y: 525.1050415039062
z: 0.0749434232711792
visibility: 0.992621123790741
","x: 176.65037536621094
y: 517.3468017578125
z: 0.21759402751922607
visibility: 0.9917447566986084
","x: 232.27035522460938
y: 533.2613525390625
z: 0.083925262093544
visibility: 0.9488204121589661
","x: 178.18206787109375
y: 525.6298217773438
z: 0.22650685906410217
visibility: 0.8979688882827759
","x: 238.15342712402344
y: 545.0292358398438
z: -0.00971658993512392
visibility: 0.9906730055809021
","x: 171.22532653808594
y: 537.8006591796875
z: 0.15613122284412384
visibility: 0.9871745705604553
",,,,,,,,,,,,,,,,,,,,,,,,,,,,,,,,,,,,,,,,,,
25,"x: 198.91619873046875
y: 279.4769592285156
z: -0.1396058350801468
visibility: 0.9984442591667175
","x: 202.11688232421875
y: 274.6558837890625
z: -0.14375074207782745
visibility: 0.9982055425643921
","x: 203.0780029296875
y: 275.15521240234375
z: -0.1438106745481491
visibility: 0.9981649518013
","x: 204.1630096435547
y: 275.56048583984375
z: -0.14383673667907715
visibility: 0.9983282685279846
","x: 200.8955078125
y: 274.0487976074219
z: -0.12529918551445007
visibility: 0.9968055486679077
","x: 200.89508056640625
y: 274.1913146972656
z: -0.12531253695487976
visibility: 0.9957695007324219
","x: 200.94924926757812
y: 274.2995910644531
z: -0.1253424733877182
visibility: 0.9959301352500916
","x: 209.36813354492188
y: 280.543701171875
z: -0.14059627056121826
visibility: 0.9978079795837402
","x: 205.89601135253906
y: 279.18170166015625
z: -0.0433976836502552
visibility: 0.9894311428070068
","x: 200.49151611328125
y: 286.8273620605469
z: -0.13123737275600433
visibility: 0.9986075758934021
","x: 198.90719604492188
y: 286.47198486328125
z: -0.10730208456516266
visibility: 0.9971045255661011
","x: 213.9003448486328
y: 311.8016662597656
z: -0.18071845173835754
visibility: 0.9998030066490173
","x: 199.15777587890625
y: 320.76220703125
z: 0.05280313640832901
visibility: 0.9993299245834351
","x: 196.33982849121094
y: 343.54364013671875
z: -0.23864944279193878
visibility: 0.9292681217193604
","x: 183.0281524658203
y: 349.6510009765625
z: 0.07994823902845383
visibility: 0.7246869802474976
","x: 172.54298400878906
y: 351.0791015625
z: -0.26636090874671936
visibility: 0.928139865398407
","x: 167.46859741210938
y: 355.65728759765625
z: -0.01443586777895689
visibility: 0.7900800108909607
","x: 166.1719970703125
y: 353.9842529296875
z: -0.2989475727081299
visibility: 0.8965203762054443
","x: 163.9110107421875
y: 357.8580017089844
z: -0.03004172444343567
visibility: 0.7671999335289001
","x: 165.30178833007812
y: 350.22174072265625
z: -0.2955246567726135
visibility: 0.9000675678253174
","x: 163.51268005371094
y: 351.45220947265625
z: -0.05111013725399971
visibility: 0.7727634310722351
","x: 168.070556640625
y: 349.552734375
z: -0.264329195022583
visibility: 0.8697627782821655
","x: 165.89451599121094
y: 351.7840881347656
z: -0.0274905264377594
visibility: 0.7533071637153625
","x: 212.31495666503906
y: 407.32928466796875
z: -0.06018994003534317
visibility: 0.9998233914375305
","x: 194.62646484375
y: 409.54608154296875
z: 0.06014372035861015
visibility: 0.9997921586036682
","x: 217.17318725585938
y: 468.093017578125
z: -0.0757184773683548
visibility: 0.9898786544799805
","x: 185.56817626953125
y: 467.3197937011719
z: 0.07111035287380219
visibility: 0.9882225394248962
","x: 232.80746459960938
y: 525.2278442382812
z: 0.058613020926713943
visibility: 0.9923543930053711
","x: 176.65133666992188
y: 517.3872680664062
z: 0.2120402604341507
visibility: 0.990864098072052
","x: 233.68431091308594
y: 533.2643432617188
z: 0.0685197040438652
visibility: 0.9448209404945374
","x: 178.57049560546875
y: 526.904541015625
z: 0.22119863331317902
visibility: 0.900205671787262
","x: 236.89236450195312
y: 545.4219360351562
z: -0.017707934603095055
visibility: 0.9903043508529663
","x: 171.06716918945312
y: 537.8160400390625
z: 0.15208257734775543
visibility: 0.986208975315094
",,,,,,,,,,,,,,,,,,,,,,,,,,,,,,,,,,,,,,,,,,
26,"x: 200.64414978027344
y: 280.2708740234375
z: -0.15890955924987793
visibility: 0.9982422590255737
","x: 204.0713653564453
y: 275.4197082519531
z: -0.18425416946411133
visibility: 0.9979931116104126
","x: 204.82928466796875
y: 275.9515075683594
z: -0.18427744507789612
visibility: 0.9980247616767883
","x: 205.71478271484375
y: 276.40728759765625
z: -0.18429484963417053
visibility: 0.9981879591941833
","x: 203.44955444335938
y: 274.6905212402344
z: -0.15062962472438812
visibility: 0.996422529220581
","x: 203.7125244140625
y: 274.7872619628906
z: -0.1506572663784027
visibility: 0.995465099811554
","x: 204.0435791015625
y: 274.8320617675781
z: -0.15071530640125275
visibility: 0.9955288767814636
","x: 211.27670288085938
y: 282.0185546875
z: -0.2222088873386383
visibility: 0.9976758360862732
","x: 209.22274780273438
y: 279.9847106933594
z: -0.08838878571987152
visibility: 0.9886533617973328
","x: 201.54605102539062
y: 288.2485656738281
z: -0.1758900284767151
visibility: 0.9983752965927124
","x: 200.56170654296875
y: 287.6138916015625
z: -0.13372962176799774
visibility: 0.9966980218887329
","x: 215.8660125732422
y: 315.7622375488281
z: -0.26183396577835083
visibility: 0.999805212020874
","x: 208.58139038085938
y: 320.1307678222656
z: 0.01768151856958866
visibility: 0.999305784702301
","x: 204.2200164794922
y: 363.78900146484375
z: -0.28756600618362427
visibility: 0.9326074123382568
","x: 202.69052124023438
y: 353.3818359375
z: 0.09829890727996826
visibility: 0.6558099985122681
","x: 189.94007873535156
y: 401.5998840332031
z: -0.24839258193969727
visibility: 0.9244399070739746
","x: 199.78500366210938
y: 370.8982849121094
z: 0.10293440520763397
visibility: 0.7141001224517822
","x: 189.5843505859375
y: 411.7937927246094
z: -0.2742019295692444
visibility: 0.8885905742645264
","x: 199.83888244628906
y: 376.72015380859375
z: 0.10781464725732803
visibility: 0.6941236257553101
","x: 189.30287170410156
y: 408.5111083984375
z: -0.27272289991378784
visibility: 0.8914617896080017
","x: 199.681396484375
y: 373.3628845214844
z: 0.08454059064388275
visibility: 0.6993199586868286
","x: 190.0675506591797
y: 406.5624694824219
z: -0.246036097407341
visibility: 0.8539111018180847
","x: 199.51400756835938
y: 371.1448974609375
z: 0.09243570268154144
visibility: 0.6817818880081177
","x: 217.94851684570312
y: 409.218994140625
z: -0.07075946033000946
visibility: 0.9997981786727905
","x: 205.04672241210938
y: 409.50335693359375
z: 0.07075982540845871
visibility: 0.9997954964637756
","x: 222.42201232910156
y: 469.921875
z: 0.014161931350827217
visibility: 0.9896153807640076
","x: 188.77281188964844
y: 467.20391845703125
z: 0.0834030956029892
visibility: 0.988045334815979
","x: 232.7690887451172
y: 525.2305297851562
z: 0.18693053722381592
visibility: 0.992618978023529
","x: 176.65505981445312
y: 517.936767578125
z: 0.20504195988178253
visibility: 0.9911848902702332
","x: 233.11428833007812
y: 533.2679443359375
z: 0.20023846626281738
visibility: 0.9440807104110718
","x: 178.50692749023438
y: 528.4668579101562
z: 0.21219047904014587
visibility: 0.9047864675521851
","x: 236.39251708984375
y: 545.2632446289062
z: 0.11900772154331207
visibility: 0.990429162979126
","x: 171.05181884765625
y: 537.6920166015625
z: 0.13786447048187256
visibility: 0.9867389798164368
",,,,,,,,,,,,,,,,,,,,,,,,,,,,,,,,,,,,,,,,,,
27,"x: 205.31832885742188
y: 280.3832092285156
z: -0.22978368401527405
visibility: 0.998067319393158
","x: 209.05075073242188
y: 275.4770202636719
z: -0.23392263054847717
visibility: 0.997475266456604
","x: 210.2056121826172
y: 275.9862060546875
z: -0.23398081958293915
visibility: 0.997650682926178
","x: 211.4647979736328
y: 276.443115234375
z: -0.23403815925121307
visibility: 0.9978337287902832
","x: 206.9557342529297
y: 274.765869140625
z: -0.21517875790596008
visibility: 0.9956207275390625
","x: 206.5712127685547
y: 274.8638610839844
z: -0.21518561244010925
visibility: 0.994735598564148
","x: 206.25689697265625
y: 274.904296875
z: -0.21526578068733215
visibility: 0.9946393370628357
","x: 215.5908966064453
y: 282.33270263671875
z: -0.21042875945568085
visibility: 0.9969561696052551
","x: 209.5924530029297
y: 280.0174560546875
z: -0.1254190355539322
visibility: 0.9856094121932983
","x: 206.78897094726562
y: 289.0303955078125
z: -0.21929916739463806
visibility: 0.9981479644775391
","x: 204.1919403076172
y: 288.1662292480469
z: -0.19451406598091125
visibility: 0.9962112307548523
","x: 222.13909912109375
y: 315.73046875
z: -0.19945941865444183
visibility: 0.9997684955596924
","x: 204.9942169189453
y: 320.6598205566406
z: -0.0332467183470726
visibility: 0.999114990234375
","x: 225.02322387695312
y: 363.159423828125
z: -0.24363259971141815
visibility: 0.9235145449638367
","x: 202.14588928222656
y: 365.0180358886719
z: 0.04370579123497009
visibility: 0.6019166707992554
","x: 221.16165161132812
y: 405.8923034667969
z: -0.29662251472473145
visibility: 0.8919807076454163
","x: 204.71475219726562
y: 400.58612060546875
z: -0.03676239401102066
visibility: 0.6530173420906067
","x: 222.7968292236328
y: 417.7093811035156
z: -0.3308907151222229
visibility: 0.8536161780357361
","x: 205.2015838623047
y: 412.52569580078125
z: -0.05314268544316292
visibility: 0.6356437802314758
","x: 220.3218536376953
y: 417.5263671875
z: -0.3440040349960327
visibility: 0.8561694025993347
","x: 205.3192901611328
y: 411.76922607421875
z: -0.09027479588985443
visibility: 0.6406540870666504
","x: 219.109619140625
y: 413.04766845703125
z: -0.3022010028362274
visibility: 0.8136692047119141
","x: 205.76925659179688
y: 407.07220458984375
z: -0.0551307387650013
visibility: 0.624539852142334
","x: 225.31723022460938
y: 414.4238586425781
z: -0.04826470464468002
visibility: 0.999791145324707
","x: 205.4421844482422
y: 413.9934997558594
z: 0.04829723387956619
visibility: 0.9997963905334473
","x: 227.66842651367188
y: 472.1171875
z: 0.010371094569563866
visibility: 0.9902340769767761
","x: 191.1228790283203
y: 468.4208984375
z: 0.07311796396970749
visibility: 0.988667368888855
","x: 233.25823974609375
y: 525.2012939453125
z: 0.2308577001094818
visibility: 0.9929759502410889
","x: 176.93031311035156
y: 518.2959594726562
z: 0.2596765160560608
visibility: 0.9917211532592773
","x: 232.2345428466797
y: 532.7362670898438
z: 0.24687127768993378
visibility: 0.9419212341308594
","x: 178.9805908203125
y: 528.377197265625
z: 0.27351540327072144
visibility: 0.9098802804946899
","x: 237.35438537597656
y: 545.5074462890625
z: 0.14404992759227753
visibility: 0.9905455112457275
","x: 170.63800048828125
y: 538.423828125
z: 0.18086828291416168
visibility: 0.9874733090400696
",,,,,,,,,,,,,,,,,,,,,,,,,,,,,,,,,,,,,,,,,,
28,"x: 212.62486267089844
y: 280.0680847167969
z: -0.26637110114097595
visibility: 0.9982424974441528
","x: 215.726318359375
y: 274.8269348144531
z: -0.25736790895462036
visibility: 0.9977020621299744
","x: 217.20726013183594
y: 275.3621520996094
z: -0.2573833465576172
visibility: 0.9978597164154053
","x: 218.66207885742188
y: 275.91534423828125
z: -0.25741446018218994
visibility: 0.9980244636535645
","x: 211.83926391601562
y: 273.9623718261719
z: -0.24835312366485596
visibility: 0.9960207939147949
","x: 210.6166534423828
y: 273.95086669921875
z: -0.2484103888273239
visibility: 0.9952215552330017
","x: 209.46038818359375
y: 273.93988037109375
z: -0.2484089583158493
visibility: 0.9951257705688477
","x: 221.859375
y: 281.22821044921875
z: -0.1848735511302948
visibility: 0.9972384572029114
","x: 209.7667236328125
y: 278.08746337890625
z: -0.14189091324806213
visibility: 0.9868955016136169
","x: 215.0298614501953
y: 288.3153076171875
z: -0.23776045441627502
visibility: 0.9983190298080444
","x: 210.1980743408203
y: 287.58050537109375
z: -0.22629043459892273
visibility: 0.9965546727180481
","x: 234.9521026611328
y: 315.6816711425781
z: -0.1853966861963272
visibility: 0.9997792840003967
","x: 203.30030822753906
y: 320.47076416015625
z: -0.058586589992046356
visibility: 0.999055802822113
","x: 250.36325073242188
y: 361.16680908203125
z: -0.17887631058692932
visibility: 0.9299004077911377
","x: 192.86224365234375
y: 350.3729248046875
z: -0.13707751035690308
visibility: 0.6245139241218567
","x: 244.93666076660156
y: 388.8083190917969
z: -0.2637401521205902
visibility: 0.898709237575531
","x: 195.2667236328125
y: 318.04022216796875
z: -0.3620718717575073
visibility: 0.6690263152122498
","x: 241.8110809326172
y: 399.29571533203125
z: -0.2892560064792633
visibility: 0.859054684638977
","x: 196.6803741455078
y: 311.6410217285156
z: -0.40171313285827637
visibility: 0.6465078592300415
","x: 238.92108154296875
y: 394.5817565917969
z: -0.30403608083724976
visibility: 0.8614001870155334
","x: 196.74334716796875
y: 308.59600830078125
z: -0.4096006453037262
visibility: 0.6508771777153015
","x: 239.10113525390625
y: 390.388427734375
z: -0.26938799023628235
visibility: 0.8191677927970886
","x: 192.5203399658203
y: 311.5951232910156
z: -0.3727433979511261
visibility: 0.6331021189689636
","x: 230.19203186035156
y: 413.6332702636719
z: -0.01983429118990898
visibility: 0.9998019337654114
","x: 208.39915466308594
y: 412.5402526855469
z: 0.019785897806286812
visibility: 0.9998108148574829
","x: 234.083984375
y: 471.3160400390625
z: 0.029044514521956444
visibility: 0.9905929565429688
","x: 194.44114685058594
y: 468.1789855957031
z: -0.011947980150580406
