uscmakers/ReverseChoreography/data/6_power_little_mix.csv
,NOSE,LEFT_EYE_INNER,LEFT_EYE,LEFT_EYE_OUTER,RIGHT_EYE_INNER,RIGHT_EYE,RIGHT_EYE_OUTER,LEFT_EAR,RIGHT_EAR,MOUTH_LEFT,MOUTH_RIGHT,LEFT_SHOULDER,RIGHT_SHOULDER,LEFT_ELBOW,RIGHT_ELBOW,LEFT_WRIST,RIGHT_WRIST,LEFT_PINKY,RIGHT_PINKY,LEFT_INDEX,RIGHT_INDEX,LEFT_THUMB,RIGHT_THUMB,LEFT_HIP,RIGHT_HIP,LEFT_KNEE,RIGHT_KNEE,LEFT_ANKLE,RIGHT_ANKLE,LEFT_HEEL,RIGHT_HEEL,LEFT_FOOT_INDEX,RIGHT_FOOT_INDEX,WRIST,THUMB_CPC,THUMB_MCP,THUMB_IP,THUMB_TIP,INDEX_FINGER_MCP,INDEX_FINGER_PIP,INDEX_FINGER_DIP,INDEX_FINGER_TIP,MIDDLE_FINGER_MCP,MIDDLE_FINGER_PIP,MIDDLE_FINGER_DIP,MIDDLE_FINGER_TIP,RING_FINGER_PIP,RING_FINGER_DIP,RING_FINGER_TIP,RING_FINGER_MCP,PINKY_MCP,PINKY_PIP,PINKY_DIP,PINKY_TIP,WRIST2,THUMB_CPC2,THUMB_MCP2,THUMB_IP2,THUMB_TIP2,INDEX_FINGER_MCP2,INDEX_FINGER_PIP2,INDEX_FINGER_DIP2,INDEX_FINGER_TIP2,MIDDLE_FINGER_MCP2,MIDDLE_FINGER_PIP2,MIDDLE_FINGER_DIP2,MIDDLE_FINGER_TIP2,RING_FINGER_PIP2,RING_FINGER_DIP2,RING_FINGER_TIP2,RING_FINGER_MCP2,PINKY_MCP2,PINKY_PIP2,PINKY_DIP2,PINKY_TIP2
0,"x: 200.93235778808594
y: 282.9800720214844
z: -0.2561028003692627
visibility: 0.999991774559021
","x: 202.5701904296875
y: 276.3583984375
z: -0.247274249792099
visibility: 0.9999716281890869
","x: 204.00767517089844
y: 276.0738830566406
z: -0.24732288718223572
visibility: 0.9999727010726929
","x: 205.40077209472656
y: 275.8436279296875
z: -0.24735502898693085
visibility: 0.9999657869338989
","x: 198.87213134765625
y: 276.79949951171875
z: -0.2427377998828888
visibility: 0.9999692440032959
","x: 197.78048706054688
y: 276.93536376953125
z: -0.24277158081531525
visibility: 0.9999638795852661
","x: 196.64410400390625
y: 277.1569519042969
z: -0.24279256165027618
visibility: 0.999950647354126
","x: 207.71795654296875
y: 277.3761291503906
z: -0.16696347296237946
visibility: 0.9999587535858154
","x: 195.14187622070312
y: 280.09564208984375
z: -0.14492559432983398
visibility: 0.9999303817749023
","x: 203.87265014648438
y: 288.3556823730469
z: -0.22450070083141327
visibility: 0.9999903440475464
","x: 199.11773681640625
y: 289.47308349609375
z: -0.21827062964439392
visibility: 0.9999855756759644
","x: 221.15634155273438
y: 315.0894470214844
z: -0.10598687827587128
visibility: 0.9999829530715942
","x: 185.7125701904297
y: 318.5909423828125
z: -0.08642280846834183
visibility: 0.9999817609786987
","x: 226.34799194335938
y: 356.0850830078125
z: -0.1515895575284958
visibility: 0.9780893921852112
","x: 181.04116821289062
y: 355.5364990234375
z: -0.12645323574543
visibility: 0.9451115727424622
","x: 233.12954711914062
y: 387.65521240234375
z: -0.3091713488101959
visibility: 0.9611850380897522
","x: 176.48582458496094
y: 384.1437072753906
z: -0.2897855341434479
visibility: 0.9524289965629578
","x: 233.03416442871094
y: 394.4900207519531
z: -0.34663844108581543
visibility: 0.9373859763145447
","x: 175.09127807617188
y: 393.862060546875
z: -0.32820242643356323
visibility: 0.9339715838432312
","x: 232.12376403808594
y: 390.5410461425781
z: -0.3705909550189972
visibility: 0.9448805451393127
","x: 176.0796356201172
y: 389.7356872558594
z: -0.3478127419948578
visibility: 0.9374445080757141
","x: 231.5146942138672
y: 387.8736572265625
z: -0.3223367929458618
visibility: 0.9304882884025574
","x: 177.08311462402344
y: 386.76507568359375
z: -0.3022196590900421
visibility: 0.9230599999427795
","x: 212.95262145996094
y: 406.173095703125
z: -0.001966531854122877
visibility: 0.9999339580535889
","x: 191.7232666015625
y: 405.276123046875
z: 0.0019798558205366135
visibility: 0.9999641180038452
","x: 220.91024780273438
y: 464.21270751953125
z: 0.005819585639983416
visibility: 0.9953500032424927
","x: 180.64820861816406
y: 459.73284912109375
z: 0.01648007333278656
visibility: 0.9978522062301636
","x: 229.42543029785156
y: 523.9637451171875
z: 0.14663393795490265
visibility: 0.9952399730682373
","x: 175.387939453125
y: 519.88623046875
z: 0.17373207211494446
visibility: 0.9977511763572693
","x: 226.00418090820312
y: 533.2674560546875
z: 0.15502169728279114
visibility: 0.9646495580673218
","x: 177.90902709960938
y: 527.2720947265625
z: 0.18364207446575165
visibility: 0.95586758852005
","x: 240.2606964111328
y: 544.9800415039062
z: 0.0561702623963356
visibility: 0.9920660853385925
","x: 168.9403076171875
y: 543.3137817382812
z: 0.08753155171871185
visibility: 0.994017481803894
",,,,,,,,,,,,,,,,,,,,,,,,,,,,,,,,,,,,,,,,,,
1,"x: 205.04867553710938
y: 282.9723205566406
z: -0.2568054795265198
visibility: 0.9999900460243225
","x: 206.45443725585938
y: 276.3497314453125
z: -0.24644164741039276
visibility: 0.9999688267707825
","x: 207.56900024414062
y: 276.073486328125
z: -0.24648523330688477
visibility: 0.9999685287475586
","x: 208.6572265625
y: 275.8473815917969
z: -0.24652667343616486
visibility: 0.9999607801437378
","x: 203.11285400390625
y: 276.7781677246094
z: -0.24352006614208221
visibility: 0.999967098236084
","x: 201.83993530273438
y: 276.9105224609375
z: -0.24355128407478333
visibility: 0.9999613761901855
","x: 200.5277557373047
y: 277.10833740234375
z: -0.2435683310031891
visibility: 0.9999489784240723
","x: 210.5350799560547
y: 277.7769775390625
z: -0.1514395773410797
visibility: 0.9999496340751648
","x: 198.0255889892578
y: 280.09637451171875
z: -0.1473250538110733
visibility: 0.9999310374259949
","x: 207.44252014160156
y: 288.5864562988281
z: -0.22292903065681458
visibility: 0.9999874830245972
","x: 203.2965087890625
y: 289.50994873046875
z: -0.21968162059783936
visibility: 0.999984622001648
","x: 221.4390869140625
y: 318.30242919921875
z: -0.0820680558681488
visibility: 0.9999757409095764
","x: 186.31378173828125
y: 312.937255859375
z: -0.08820637315511703
visibility: 0.9999801516532898
","x: 229.603759765625
y: 356.00238037109375
z: -0.13892138004302979
visibility: 0.9733414649963379
","x: 174.14088439941406
y: 342.5793151855469
z: -0.1659543365240097
visibility: 0.9477742314338684
","x: 239.20152282714844
y: 368.2822265625
z: -0.32057803869247437
visibility: 0.9569916725158691
","x: 176.8983154296875
y: 360.46087646484375
z: -0.3517933487892151
visibility: 0.9505910873413086
","x: 243.97854614257812
y: 371.49163818359375
z: -0.36157137155532837
visibility: 0.9319678544998169
","x: 177.841552734375
y: 367.1202087402344
z: -0.3921048045158386
visibility: 0.9287995100021362
","x: 242.35006713867188
y: 367.68182373046875
z: -0.38155823945999146
visibility: 0.9401947259902954
","x: 180.4940185546875
y: 362.5186462402344
z: -0.4027527868747711
visibility: 0.9323219060897827
","x: 240.95701599121094
y: 366.8868408203125
z: -0.33407339453697205
visibility: 0.9246099591255188
","x: 180.7830810546875
y: 359.2309875488281
z: -0.3605054020881653
visibility: 0.9172683954238892
","x: 214.44430541992188
y: 406.088623046875
z: 0.0008346777176484466
visibility: 0.9999265670776367
","x: 192.43382263183594
y: 405.27642822265625
z: -0.0008072867058217525
visibility: 0.9999623894691467
","x: 224.3813018798828
y: 464.63946533203125
z: 0.016537616029381752
visibility: 0.9952284693717957
","x: 183.6376953125
y: 462.1460266113281
z: -0.020438268780708313
visibility: 0.9978868961334229
","x: 229.53564453125
y: 523.1754760742188
z: 0.1803288459777832
visibility: 0.9951639771461487
","x: 175.99826049804688
y: 519.88623046875
z: 0.13147202134132385
visibility: 0.9977977275848389
","x: 226.1962890625
y: 533.2006225585938
z: 0.19049426913261414
visibility: 0.9626806974411011
","x: 178.55235290527344
y: 527.3438110351562
z: 0.14057791233062744
visibility: 0.9567642211914062
","x: 239.88194274902344
y: 544.1990966796875
z: 0.09331776201725006
visibility: 0.9918341636657715
","x: 168.9940185546875
y: 543.2905883789062
z: 0.038827162235975266
visibility: 0.9941754937171936
",,,,,,,,,,,,,,,,,,,,,,,,,,,,,,,,,,,,,,,,,,
2,"x: 209.9559783935547
y: 279.3541564941406
z: -0.2592768967151642
visibility: 0.9999892115592957
","x: 211.6912078857422
y: 272.75531005859375
z: -0.2483091652393341
visibility: 0.9999681711196899
","x: 212.994384765625
y: 272.56756591796875
z: -0.24836692214012146
visibility: 0.9999676942825317
","x: 214.29644775390625
y: 272.4801025390625
z: -0.2484123706817627
visibility: 0.9999600648880005
","x: 207.8740234375
y: 273.20623779296875
z: -0.2452659159898758
visibility: 0.9999648332595825
","x: 206.5587921142578
y: 273.373291015625
z: -0.2453014850616455
visibility: 0.9999584555625916
","x: 205.1929473876953
y: 273.5457458496094
z: -0.24531395733356476
visibility: 0.999945342540741
","x: 216.33071899414062
y: 274.9167785644531
z: -0.15542402863502502
visibility: 0.9999488592147827
","x: 203.49429321289062
y: 276.4585266113281
z: -0.1467316746711731
visibility: 0.9999241232872009
","x: 212.6525115966797
y: 285.58526611328125
z: -0.22411401569843292
visibility: 0.9999865293502808
","x: 208.1888885498047
y: 285.8031921386719
z: -0.22063443064689636
visibility: 0.9999822974205017
","x: 228.6439208984375
y: 316.2869873046875
z: -0.0897228866815567
visibility: 0.9999737739562988
","x: 192.46295166015625
y: 311.2253112792969
z: -0.0729638859629631
visibility: 0.9999728798866272
","x: 237.44754028320312
y: 356.82147216796875
z: -0.15016058087348938
visibility: 0.973010778427124
","x: 185.63906860351562
y: 347.4871826171875
z: -0.12316901981830597
visibility: 0.9405284523963928
","x: 240.3981170654297
y: 364.5068664550781
z: -0.3363007605075836
visibility: 0.9580427408218384
","x: 176.232421875
y: 362.6788024902344
z: -0.32350921630859375
visibility: 0.9493119120597839
","x: 241.54367065429688
y: 368.11505126953125
z: -0.37636232376098633
visibility: 0.9334124326705933
","x: 172.3907928466797
y: 362.73388671875
z: -0.36259859800338745
visibility: 0.9282206296920776
","x: 240.3618927001953
y: 360.7079772949219
z: -0.39409181475639343
visibility: 0.9414336085319519
","x: 172.79454040527344
y: 360.11724853515625
z: -0.3790346086025238
visibility: 0.9322178959846497
","x: 239.36923217773438
y: 359.6301574707031
z: -0.3472648859024048
visibility: 0.925671398639679
","x: 174.79025268554688
y: 359.1198425292969
z: -0.33425286412239075
visibility: 0.9174399375915527
","x: 217.1521453857422
y: 406.1462097167969
z: -0.00010970842413371429
visibility: 0.9999245405197144
","x: 195.53375244140625
y: 404.04730224609375
z: 0.0001151856267824769
visibility: 0.9999610781669617
","x: 224.63302612304688
y: 468.2685852050781
z: 0.02215634286403656
visibility: 0.9950768351554871
","x: 185.07061767578125
y: 463.6092834472656
z: -0.0143423555418849
visibility: 0.9979375004768372
","x: 229.55419921875
y: 523.5222778320312
z: 0.2115820348262787
visibility: 0.9950335621833801
","x: 176.58251953125
y: 519.828857421875
z: 0.14706635475158691
visibility: 0.997868001461029
","x: 226.2502899169922
y: 533.3814697265625
z: 0.22469469904899597
visibility: 0.9614717364311218
","x: 179.2330780029297
y: 527.371337890625
z: 0.1570143699645996
visibility: 0.9580944776535034
","x: 239.70339965820312
y: 544.1829833984375
z: 0.13038042187690735
visibility: 0.9915558695793152
","x: 168.98805236816406
y: 542.803466796875
z: 0.057335834950208664
visibility: 0.9943788051605225
",,,,,,,,,,,,,,,,,,,,,,,,,,,,,,,,,,,,,,,,,,
3,"x: 209.86109924316406
y: 278.06756591796875
z: -0.26030904054641724
visibility: 0.9999864101409912
","x: 211.8751220703125
y: 271.9812316894531
z: -0.24962487816810608
visibility: 0.9999656081199646
","x: 213.16802978515625
y: 271.9275207519531
z: -0.24970605969429016
visibility: 0.999964714050293
","x: 214.44068908691406
y: 271.96112060546875
z: -0.24977509677410126
visibility: 0.9999575614929199
","x: 208.06654357910156
y: 272.3034973144531
z: -0.24537917971611023
visibility: 0.9999595284461975
","x: 206.69125366210938
y: 272.4865417480469
z: -0.24541306495666504
visibility: 0.9999507069587708
","x: 205.31887817382812
y: 272.6970520019531
z: -0.24542412161827087
visibility: 0.9999362230300903
","x: 216.99855041503906
y: 274.7813720703125
z: -0.1566755473613739
visibility: 0.9999469518661499
","x: 203.83641052246094
y: 276.05792236328125
z: -0.1413417011499405
visibility: 0.9999049305915833
","x: 212.5098419189453
y: 284.8082275390625
z: -0.22537529468536377
visibility: 0.9999834299087524
","x: 207.8862762451172
y: 285.34521484375
z: -0.22054748237133026
visibility: 0.99997478723526
","x: 228.62716674804688
y: 316.25408935546875
z: -0.11031270027160645
visibility: 0.9999674558639526
","x: 193.58837890625
y: 312.1505126953125
z: -0.053118299692869186
visibility: 0.9999560713768005
","x: 235.79342651367188
y: 359.78155517578125
z: -0.19316232204437256
visibility: 0.96957927942276
","x: 188.64013671875
y: 350.768310546875
z: -0.08988017588853836
visibility: 0.9104782938957214
","x: 237.03762817382812
y: 366.3333435058594
z: -0.3727778196334839
visibility: 0.9537345170974731
","x: 173.5860595703125
y: 360.6885070800781
z: -0.2937704920768738
visibility: 0.9416661262512207
","x: 237.81272888183594
y: 372.2716064453125
z: -0.41298285126686096
visibility: 0.9285082221031189
","x: 167.31149291992188
y: 356.851318359375
z: -0.33021819591522217
visibility: 0.922873318195343
","x: 236.15509033203125
y: 363.47344970703125
z: -0.42518290877342224
visibility: 0.9363082647323608
","x: 167.33099365234375
y: 354.9556884765625
z: -0.35456621646881104
visibility: 0.9278969168663025
","x: 235.40711975097656
y: 360.4702453613281
z: -0.3812715709209442
visibility: 0.9181885719299316
","x: 168.73777770996094
y: 355.52349853515625
z: -0.31013399362564087
visibility: 0.9131191372871399
","x: 217.1367645263672
y: 407.7373046875
z: -0.013686303980648518
visibility: 0.9999187588691711
","x: 195.74368286132812
y: 405.00830078125
z: 0.013644683174788952
visibility: 0.9999576807022095
","x: 224.34732055664062
y: 471.69439697265625
z: 0.02645820751786232
visibility: 0.9948450922966003
","x: 186.80499267578125
y: 465.8566589355469
z: 0.02009514346718788
visibility: 0.9978163838386536
","x: 229.8054656982422
y: 523.5198364257812
z: 0.22079846262931824
visibility: 0.9948088526725769
","x: 178.45016479492188
y: 520.719482421875
z: 0.19302436709403992
visibility: 0.9978834986686707
","x: 226.6483612060547
y: 533.1702880859375
z: 0.2345718890428543
visibility: 0.9589399695396423
","x: 181.73223876953125
y: 529.94091796875
z: 0.20483651757240295
visibility: 0.959762454032898
","x: 239.63279724121094
y: 544.255126953125
z: 0.14491815865039825
visibility: 0.9911624789237976
","x: 168.9719696044922
y: 542.7138671875
z: 0.11287432909011841
visibility: 0.9945021867752075
",,,,,,,,,,,,,,,,,,,,,,,,,,,,,,,,,,,,,,,,,,
4,"x: 208.27626037597656
y: 278.5272521972656
z: -0.2507593035697937
visibility: 0.9999708533287048
","x: 210.09356689453125
y: 272.3291931152344
z: -0.24150297045707703
visibility: 0.9999367594718933
","x: 211.4189910888672
y: 272.2388610839844
z: -0.24160635471343994
visibility: 0.9999365210533142
","x: 212.72332763671875
y: 272.22894287109375
z: -0.24169568717479706
visibility: 0.9999281764030457
","x: 206.34613037109375
y: 272.6145324707031
z: -0.23496809601783752
visibility: 0.99992436170578
","x: 205.0890655517578
y: 272.7628173828125
z: -0.23498395085334778
visibility: 0.9999048113822937
","x: 203.87657165527344
y: 272.94171142578125
z: -0.23500056564807892
visibility: 0.9998791217803955
","x: 215.29835510253906
y: 274.8602294921875
z: -0.15627829730510712
visibility: 0.9999168515205383
","x: 203.1162872314453
y: 276.27545166015625
z: -0.12723970413208008
visibility: 0.999819815158844
","x: 210.9829559326172
y: 285.0710754394531
z: -0.21775777637958527
visibility: 0.9999696612358093
","x: 206.3437042236328
y: 285.6786804199219
z: -0.20912471413612366
visibility: 0.9999498128890991
","x: 227.43772888183594
y: 314.51898193359375
z: -0.11191797256469727
visibility: 0.9999630451202393
","x: 193.1504364013672
y: 312.5345764160156
z: -0.04101140424609184
visibility: 0.9999439120292664
","x: 234.6715545654297
y: 355.85089111328125
z: -0.1942998617887497
visibility: 0.9685949087142944
","x: 188.133056640625
y: 350.9356689453125
z: -0.06755293905735016
visibility: 0.8800155520439148
","x: 229.7655792236328
y: 363.58453369140625
z: -0.36778655648231506
visibility: 0.9481267929077148
","x: 178.77996826171875
y: 362.1394348144531
z: -0.2472909390926361
visibility: 0.9160881042480469
","x: 228.78125
y: 370.3958435058594
z: -0.4095820486545563
visibility: 0.9209112524986267
","x: 175.72039794921875
y: 382.9132385253906
z: -0.2829020917415619
visibility: 0.8979080319404602
","x: 226.8138885498047
y: 359.8132019042969
z: -0.42155489325523376
visibility: 0.9284497499465942
","x: 177.40170288085938
y: 380.3789978027344
z: -0.3051831126213074
visibility: 0.903712809085846
","x: 226.46054077148438
y: 358.0948181152344
z: -0.3759085237979889
visibility: 0.9059311151504517
","x: 179.70541381835938
y: 377.3271484375
z: -0.26145726442337036
visibility: 0.8869271278381348
","x: 216.73333740234375
y: 407.8482666015625
z: -0.01790531352162361
visibility: 0.9999138712882996
","x: 195.29757690429688
y: 405.01422119140625
z: 0.017908010631799698
visibility: 0.9999561905860901
","x: 223.63868713378906
y: 472.43878173828125
z: 0.022730503231287003
visibility: 0.9945963025093079
","x: 186.58456420898438
y: 466.63433837890625
z: 0.006635218858718872
visibility: 0.9977624416351318
","x: 230.030517578125
y: 524.7748413085938
z: 0.19471730291843414
visibility: 0.9946413040161133
","x: 179.12220764160156
y: 521.862548828125
z: 0.16133061051368713
visibility: 0.9978989958763123
","x: 227.0672607421875
y: 534.7646484375
z: 0.20593130588531494
visibility: 0.9563782811164856
","x: 182.49948120117188
y: 532.0259399414062
z: 0.17050425708293915
visibility: 0.9611685276031494
","x: 239.74951171875
y: 544.7632446289062
z: 0.11129119247198105
visibility: 0.9906571507453918
","x: 168.95538330078125
y: 542.717041015625
z: 0.0733397975564003
visibility: 0.9945566058158875
",,,,,,,,,,,,,,,,,,,,,,,,,,,,,,,,,,,,,,,,,,
5,"x: 205.8006134033203
y: 282.422119140625
z: -0.2604933977127075
visibility: 0.9999327659606934
","x: 208.17723083496094
y: 275.6277160644531
z: -0.2558603882789612
visibility: 0.9998666644096375
","x: 209.83657836914062
y: 275.3268737792969
z: -0.2559514045715332
visibility: 0.9998632669448853
","x: 211.59434509277344
y: 275.0965576171875
z: -0.2560429871082306
visibility: 0.9998618960380554
","x: 204.46133422851562
y: 276.5503845214844
z: -0.24208641052246094
visibility: 0.9998248815536499
","x: 203.4660186767578
y: 276.88031005859375
z: -0.24211373925209045
visibility: 0.9997665882110596
","x: 202.51400756835938
y: 277.25433349609375
z: -0.24211104214191437
visibility: 0.9997456669807434
","x: 214.62474060058594
y: 277.69451904296875
z: -0.18695756793022156
visibility: 0.9998741149902344
","x: 202.14210510253906
y: 279.5339050292969
z: -0.12925907969474792
visibility: 0.9996277093887329
","x: 209.40980529785156
y: 288.6107177734375
z: -0.23240050673484802
visibility: 0.9999449253082275
","x: 204.5482635498047
y: 289.0765686035156
z: -0.21275527775287628
visibility: 0.9998836517333984
","x: 226.81068420410156
y: 314.17901611328125
z: -0.1465683877468109
visibility: 0.9999600648880005
","x: 193.7871856689453
y: 314.0084533691406
z: -0.027238020673394203
visibility: 0.9999114871025085
","x: 239.48707580566406
y: 347.48828125
z: -0.2317439764738083
visibility: 0.9708417057991028
","x: 186.7967071533203
y: 349.0579833984375
z: -0.020605895668268204
visibility: 0.8423966765403748
","x: 221.9890594482422
y: 359.5675048828125
z: -0.36560529470443726
visibility: 0.9479759335517883
","x: 173.9320068359375
y: 352.3951416015625
z: -0.17578576505184174
visibility: 0.8929250836372375
","x: 217.99075317382812
y: 367.37646484375
z: -0.402531236410141
visibility: 0.9166246056556702
","x: 169.1982421875
y: 356.8322448730469
z: -0.20563268661499023
visibility: 0.8730164766311646
","x: 214.3282470703125
y: 360.475830078125
z: -0.40860915184020996
visibility: 0.9229418039321899
","x: 169.34474182128906
y: 352.598876953125
z: -0.2293960601091385
visibility: 0.8797861933708191
","x: 215.49029541015625
y: 358.2685546875
z: -0.3692927658557892
visibility: 0.8953002095222473
","x: 171.83499145507812
y: 351.9754333496094
z: -0.19089439511299133
visibility: 0.8617503046989441
","x: 216.64540100097656
y: 409.55267333984375
z: -0.026643261313438416
visibility: 0.9999017715454102
","x: 194.50062561035156
y: 405.29925537109375
z: 0.026696017012000084
visibility: 0.9999517798423767
","x: 223.44461059570312
y: 471.73590087890625
z: -0.04199027642607689
visibility: 0.9947207570075989
","x: 182.64651489257812
y: 464.817138671875
z: -0.09765902906656265
visibility: 0.9978715181350708
","x: 230.04876708984375
y: 524.6561889648438
z: 0.13014748692512512
visibility: 0.9947983622550964
","x: 178.83193969726562
y: 521.8250732421875
z: 0.051193587481975555
visibility: 0.9979957342147827
","x: 227.1153564453125
y: 534.6891479492188
z: 0.14078697562217712
visibility: 0.9550252556800842
","x: 182.51023864746094
y: 532.223388671875
z: 0.059806156903505325
visibility: 0.9637290835380554
","x: 239.74411010742188
y: 544.7923583984375
z: 0.033555686473846436
visibility: 0.9907676577568054
","x: 168.96710205078125
y: 542.56982421875
z: -0.043558575212955475
visibility: 0.9948475360870361
",,,,,,,,,,,,,,,,,,,,,,,,,,,,,,,,,,,,,,,,,,
6,"x: 199.93019104003906
y: 284.40960693359375
z: -0.2676994800567627
visibility: 0.9999301433563232
","x: 202.05296325683594
y: 277.57373046875
z: -0.2584417462348938
visibility: 0.9998578429222107
","x: 203.47569274902344
y: 277.18243408203125
z: -0.2585141062736511
visibility: 0.9998553991317749
","x: 204.88833618164062
y: 276.82586669921875
z: -0.2586016058921814
visibility: 0.9998549222946167
","x: 198.71534729003906
y: 278.47314453125
z: -0.2478369027376175
visibility: 0.999814510345459
","x: 197.68116760253906
y: 278.6959533691406
z: -0.2478870153427124
visibility: 0.9997554421424866
","x: 196.67694091796875
y: 278.901123046875
z: -0.24788634479045868
visibility: 0.9997352361679077
","x: 208.9874725341797
y: 279.50030517578125
z: -0.18007497489452362
visibility: 0.999870777130127
","x: 197.07443237304688
y: 280.87603759765625
z: -0.131881982088089
visibility: 0.9996183514595032
","x: 203.15411376953125
y: 290.3018493652344
z: -0.23676829040050507
visibility: 0.999944269657135
","x: 199.02923583984375
y: 290.7613525390625
z: -0.22178161144256592
visibility: 0.999879777431488
","x: 222.90199279785156
y: 314.66668701171875
z: -0.13955049216747284
visibility: 0.9999586343765259
","x: 188.9188995361328
y: 316.6436462402344
z: -0.044405970722436905
visibility: 0.9998959898948669
","x: 237.14002990722656
y: 348.384521484375
z: -0.2643330693244934
visibility: 0.9731954336166382
","x: 179.21714782714844
y: 349.15362548828125
z: -0.11002089828252792
visibility: 0.8381814956665039
","x: 215.19534301757812
y: 353.5330505371094
z: -0.4236828684806824
visibility: 0.9503451585769653
","x: 163.88186645507812
y: 347.473388671875
z: -0.3299429714679718
visibility: 0.8868137001991272
","x: 209.0558319091797
y: 356.35321044921875
z: -0.46196919679641724
visibility: 0.9178775548934937
","x: 159.51683044433594
y: 347.3548583984375
z: -0.3725217282772064
visibility: 0.8638496994972229
","x: 205.70803833007812
y: 350.0774841308594
z: -0.4561411738395691
visibility: 0.9229746460914612
","x: 160.46153259277344
y: 344.2393798828125
z: -0.3831329643726349
visibility: 0.8695616126060486
","x: 207.19805908203125
y: 349.6496887207031
z: -0.42366185784339905
visibility: 0.8920261263847351
","x: 163.12548828125
y: 345.0652770996094
z: -0.3420267701148987
visibility: 0.8491061329841614
","x: 213.30406188964844
y: 409.8141784667969
z: -0.021536249667406082
visibility: 0.9998894333839417
","x: 190.70138549804688
y: 406.7610168457031
z: 0.02155068889260292
visibility: 0.9999488592147827
","x: 223.3220672607422
y: 471.38140869140625
z: -0.07709246873855591
visibility: 0.9948794841766357
","x: 175.9738311767578
y: 464.45794677734375
z: -0.1701786071062088
visibility: 0.997947633266449
","x: 230.1487274169922
y: 524.641845703125
z: 0.11948177963495255
visibility: 0.9948405623435974
","x: 178.6501922607422
y: 521.8470458984375
z: 0.016366349533200264
visibility: 0.9980393648147583
","x: 227.2903289794922
y: 534.6070556640625
z: 0.1320953667163849
visibility: 0.9508331418037415
","x: 182.67880249023438
y: 532.6553955078125
z: 0.028674107044935226
visibility: 0.9652867317199707
","x: 239.73147583007812
y: 545.2857666015625
z: 0.018421996384859085
visibility: 0.9904762506484985
","x: 168.9582977294922
y: 542.9047241210938
z: -0.08154277503490448
visibility: 0.9949955940246582
",,,,,,,,,,,,,,,,,,,,,,,,,,,,,,,,,,,,,,,,,,
7,"x: 195.9093780517578
y: 281.10430908203125
z: -0.23155435919761658
visibility: 0.9999338388442993
","x: 197.53111267089844
y: 275.1238098144531
z: -0.21691663563251495
visibility: 0.9998648166656494
","x: 198.78125
y: 275.11651611328125
z: -0.21696822345256805
visibility: 0.99986332654953
","x: 199.96243286132812
y: 275.1513366699219
z: -0.2170455902814865
visibility: 0.9998624920845032
","x: 194.0210418701172
y: 275.4334411621094
z: -0.2161303013563156
visibility: 0.9998223185539246
","x: 192.76666259765625
y: 275.63067626953125
z: -0.21614117920398712
visibility: 0.999765157699585
","x: 191.536865234375
y: 275.86944580078125
z: -0.21612548828125
visibility: 0.9997414350509644
","x: 202.2058868408203
y: 278.2960205078125
z: -0.12349407374858856
visibility: 0.9998776316642761
","x: 189.9228973388672
y: 278.61614990234375
z: -0.11931221187114716
visibility: 0.9996301531791687
","x: 198.64413452148438
y: 287.64923095703125
z: -0.19635455310344696
visibility: 0.9999446272850037
","x: 193.97586059570312
y: 287.76361083984375
z: -0.19534803926944733
visibility: 0.9998810291290283
","x: 214.38392639160156
y: 314.04974365234375
z: -0.07956180721521378
visibility: 0.9999544024467468
","x: 178.78656005859375
y: 314.34100341796875
z: -0.04506542161107063
visibility: 0.9998397827148438
","x: 225.62315368652344
y: 348.6744384765625
z: -0.19795802235603333
visibility: 0.9742491841316223
","x: 166.5766143798828
y: 331.9837951660156
z: -0.173775315284729
visibility: 0.8428452014923096
","x: 218.13616943359375
y: 338.1366271972656
z: -0.3982297480106354
visibility: 0.9532657861709595
","x: 161.26107788085938
y: 306.5025634765625
z: -0.38400566577911377
visibility: 0.8861440420150757
","x: 224.84500122070312
y: 332.2503356933594
z: -0.44341525435447693
visibility: 0.921319305896759
","x: 158.4907684326172
y: 300.3815612792969
z: -0.42496633529663086
visibility: 0.858225405216217
","x: 224.0211181640625
y: 328.3432312011719
z: -0.4280412793159485
visibility: 0.9261717200279236
","x: 159.8867950439453
y: 296.76800537109375
z: -0.42884501814842224
visibility: 0.8635945916175842
","x: 222.2130584716797
y: 330.0806884765625
z: -0.4043083190917969
visibility: 0.8965163826942444
","x: 161.5372772216797
y: 299.4549255371094
z: -0.39316803216934204
visibility: 0.8432498574256897
","x: 206.58755493164062
y: 405.4700927734375
z: -0.011801482178270817
visibility: 0.9998621940612793
","x: 184.7194061279297
y: 405.2267150878906
z: 0.01179859135299921
visibility: 0.9999328255653381
","x: 215.34498596191406
y: 465.8759765625
z: -0.03947364538908005
visibility: 0.995144248008728
","x: 176.62928771972656
y: 464.294677734375
z: -0.13221938908100128
visibility: 0.9979482889175415
","x: 225.06297302246094
y: 521.8705444335938
z: 0.1052614226937294
visibility: 0.9950668215751648
","x: 178.56846618652344
y: 523.804931640625
z: 0.08142875880002975
visibility: 0.998035192489624
","x: 222.4952392578125
y: 532.5369873046875
z: 0.11287243664264679
visibility: 0.9505446553230286
","x: 182.4152374267578
y: 534.1524658203125
z: 0.09388073533773422
visibility: 0.9656834006309509
","x: 233.2654266357422
y: 543.7576904296875
z: 0.005402057431638241
visibility: 0.9908875823020935
","x: 168.95802307128906
y: 543.7568359375
z: -0.008603032678365707
visibility: 0.995002031326294
",,,,,,,,,,,,,,,,,,,,,,,,,,,,,,,,,,,,,,,,,,
8,"x: 193.3956756591797
y: 271.951416015625
z: -0.22591321170330048
visibility: 0.9999253153800964
","x: 195.08277893066406
y: 265.45159912109375
z: -0.21367044746875763
visibility: 0.9998401999473572
","x: 196.32948303222656
y: 265.36175537109375
z: -0.21372990310192108
visibility: 0.9998406171798706
","x: 197.6227264404297
y: 265.4212646484375
z: -0.21379923820495605
visibility: 0.9998360872268677
","x: 191.4432830810547
y: 266.049072265625
z: -0.21198968589305878
visibility: 0.9997838735580444
","x: 190.143798828125
y: 266.3733215332031
z: -0.21199600398540497
visibility: 0.9997217059135437
","x: 188.78736877441406
y: 266.7602233886719
z: -0.21199102699756622
visibility: 0.999685525894165
","x: 199.36053466796875
y: 268.7731628417969
z: -0.1273229420185089
visibility: 0.9998347163200378
","x: 186.38531494140625
y: 270.47802734375
z: -0.11919204145669937
visibility: 0.9995431900024414
","x: 196.06089782714844
y: 278.4771423339844
z: -0.19310817122459412
visibility: 0.9999306797981262
","x: 191.5955352783203
y: 279.40203857421875
z: -0.19092461466789246
visibility: 0.9998600482940674
","x: 211.46739196777344
y: 306.6072998046875
z: -0.07240629941225052
visibility: 0.9999406337738037
","x: 175.84434509277344
y: 305.5294494628906
z: -0.05267707630991936
visibility: 0.9997596144676208
","x: 224.54872131347656
y: 340.4602355957031
z: -0.16424904763698578
visibility: 0.9747159481048584
","x: 165.10760498046875
y: 335.27001953125
z: -0.15828968584537506
visibility: 0.855842113494873
","x: 228.3310546875
y: 325.37542724609375
z: -0.3424040675163269
visibility: 0.9563608169555664
","x: 153.76272583007812
y: 303.011962890625
z: -0.3559179902076721
visibility: 0.8956707119941711
","x: 235.57388305664062
y: 317.86944580078125
z: -0.3777831494808197
visibility: 0.9253614544868469
","x: 148.1646270751953
y: 297.9012756347656
z: -0.3946225047111511
visibility: 0.868338406085968
","x: 235.17620849609375
y: 313.95709228515625
z: -0.381897509098053
visibility: 0.9299976825714111
","x: 150.0867156982422
y: 292.3758544921875
z: -0.4003525674343109
visibility: 0.8731746673583984
","x: 232.95352172851562
y: 316.3507995605469
z: -0.35066401958465576
visibility: 0.9025312662124634
","x: 152.0700225830078
y: 293.8232116699219
z: -0.3648795783519745
visibility: 0.8538944125175476
","x: 200.36460876464844
y: 402.5851745605469
z: -0.00200991821475327
visibility: 0.9998484253883362
","x: 180.2382354736328
y: 399.73974609375
z: 0.0020106486044824123
visibility: 0.9998924136161804
","x: 198.8880157470703
y: 465.0646667480469
z: 0.017023829743266106
visibility: 0.9947148561477661
","x: 176.93666076660156
y: 464.215576171875
z: 0.044280678033828735
visibility: 0.997511625289917
","x: 197.18116760253906
y: 521.760009765625
z: 0.16795730590820312
visibility: 0.9945604205131531
","x: 174.63722229003906
y: 520.499267578125
z: 0.22993318736553192
visibility: 0.9972979426383972
","x: 193.39889526367188
y: 531.561279296875
z: 0.1780756413936615
visibility: 0.9475599527359009
","x: 175.9210662841797
y: 528.2454833984375
z: 0.24378113448619843
visibility: 0.9574545621871948
","x: 204.09133911132812
y: 543.7554321289062
z: 0.08369298279285431
visibility: 0.9905374646186829
","x: 169.8791961669922
y: 542.9064331054688
z: 0.15014660358428955
visibility: 0.9942089915275574
",,,,,,,,,,,,,,,,,,,,,,,,,,,,,,,,,,,,,,,,,,
9,"x: 190.6021728515625
y: 273.85552978515625
z: -0.2426893711090088
visibility: 0.9999302625656128
","x: 192.46693420410156
y: 267.4508972167969
z: -0.2329467535018921
visibility: 0.9998483061790466
","x: 193.83860778808594
y: 267.32427978515625
z: -0.23297230899333954
visibility: 0.9998501539230347
","x: 195.2789306640625
y: 267.3187561035156
z: -0.23296992480754852
visibility: 0.9998437166213989
","x: 188.97532653808594
y: 268.01300048828125
z: -0.22916606068611145
visibility: 0.999795138835907
","x: 187.77027893066406
y: 268.27496337890625
z: -0.22919873893260956
visibility: 0.9997389912605286
","x: 186.45611572265625
y: 268.5904541015625
z: -0.22918960452079773
visibility: 0.9997020959854126
","x: 197.82980346679688
y: 270.3504333496094
z: -0.15519532561302185
visibility: 0.9998361468315125
","x: 184.78750610351562
y: 272.05743408203125
z: -0.13713595271110535
visibility: 0.9995664358139038
","x: 193.1708526611328
y: 280.27020263671875
z: -0.21382372081279755
visibility: 0.9999324083328247
","x: 188.7220458984375
y: 281.08209228515625
z: -0.20867793262004852
visibility: 0.9998665452003479
","x: 210.23532104492188
y: 311.2420654296875
z: -0.08175398409366608
visibility: 0.9999411106109619
","x: 173.172119140625
y: 307.2746887207031
z: -0.07659091055393219
visibility: 0.9997770190238953
","x: 220.02049255371094
y: 347.1676330566406
z: -0.17954523861408234
visibility: 0.9762136340141296
","x: 159.64625549316406
y: 343.4585876464844
z: -0.15383973717689514
visibility: 0.8697245717048645
","x: 229.2089385986328
y: 340.654541015625
z: -0.3846326768398285
visibility: 0.9602025151252747
","x: 144.5057830810547
y: 324.7926025390625
z: -0.3404009938240051
visibility: 0.9058911800384521
","x: 235.65869140625
y: 338.04876708984375
z: -0.42073577642440796
visibility: 0.9315822720527649
","x: 138.80633544921875
y: 319.9443359375
z: -0.37606361508369446
visibility: 0.8808777332305908
","x: 235.301025390625
y: 333.3552551269531
z: -0.43429216742515564
visibility: 0.935931384563446
","x: 140.7766571044922
y: 314.7132568359375
z: -0.38622981309890747
visibility: 0.8852688074111938
","x: 233.1778564453125
y: 334.11419677734375
z: -0.3953969180583954
visibility: 0.9109594821929932
","x: 142.88026428222656
y: 316.35968017578125
z: -0.35026615858078003
visibility: 0.8677346706390381
","x: 195.73324584960938
y: 402.80023193359375
z: 0.0021898881532251835
visibility: 0.9998498558998108
","x: 175.30731201171875
y: 400.2960205078125
z: -0.0021988393273204565
visibility: 0.999893069267273
","x: 197.14279174804688
y: 465.10400390625
z: 0.0417431965470314
visibility: 0.9941680431365967
","x: 164.79519653320312
y: 459.55377197265625
z: 0.004479298368096352
visibility: 0.9975026845932007
","x: 194.93023681640625
y: 521.9176025390625
z: 0.20638379454612732
visibility: 0.9942426085472107
","x: 153.89942932128906
y: 516.570068359375
z: 0.16345341503620148
visibility: 0.9972057938575745
","x: 191.58583068847656
y: 531.6486206054688
z: 0.21738652884960175
visibility: 0.9475528001785278
","x: 154.68670654296875
y: 523.5155639648438
z: 0.17038144171237946
visibility: 0.9542673230171204
","x: 202.33177185058594
y: 543.787353515625
z: 0.1290629804134369
visibility: 0.9900848865509033
","x: 148.69454956054688
y: 538.6268310546875
z: 0.07133753597736359
visibility: 0.994114875793457
",,,,,,,,,,,,,,,,,,,,,,,,,,,,,,,,,,,,,,,,,,
10,"x: 187.25401306152344
y: 274.521484375
z: -0.2529818117618561
visibility: 0.999934732913971
","x: 188.98797607421875
y: 268.43829345703125
z: -0.23925372958183289
visibility: 0.9998540878295898
","x: 190.13775634765625
y: 268.56475830078125
z: -0.23928776383399963
visibility: 0.9998564124107361
","x: 191.25820922851562
y: 268.7853088378906
z: -0.2392626702785492
visibility: 0.9998478889465332
","x: 185.5787353515625
y: 268.44134521484375
z: -0.24061687290668488
visibility: 0.9998056292533875
","x: 184.33395385742188
y: 268.5454406738281
z: -0.24065199494361877
visibility: 0.9997557997703552
","x: 183.0424346923828
y: 268.72418212890625
z: -0.2406708002090454
visibility: 0.9997203946113586
","x: 193.08091735839844
y: 272.86859130859375
z: -0.15520063042640686
visibility: 0.9998220205307007
","x: 181.12139892578125
y: 272.80645751953125
z: -0.1566634327173233
visibility: 0.9995937347412109
","x: 189.49322509765625
y: 281.63653564453125
z: -0.2209288775920868
visibility: 0.9999308586120605
","x: 185.2918701171875
y: 281.80963134765625
z: -0.22234146296977997
visibility: 0.9998732805252075
","x: 202.5253143310547
y: 315.2374267578125
z: -0.08594870567321777
visibility: 0.9999407529830933
","x: 168.05270385742188
y: 308.5387268066406
z: -0.10493848472833633
visibility: 0.9997962713241577
","x: 205.4381866455078
y: 358.3367919921875
z: -0.10218732059001923
visibility: 0.9698174595832825
","x: 154.698974609375
y: 351.40313720703125
z: -0.1305692046880722
visibility: 0.8812525868415833
","x: 220.3752899169922
y: 376.01763916015625
z: -0.2414674013853073
visibility: 0.9576676487922668
","x: 138.55731201171875
y: 376.52947998046875
z: -0.22711651027202606
visibility: 0.9132987856864929
","x: 225.74810791015625
y: 377.7508239746094
z: -0.26983171701431274
visibility: 0.9282504916191101
","x: 132.83274841308594
y: 379.7857360839844
z: -0.2532132863998413
visibility: 0.8885724544525146
","x: 226.5561981201172
y: 375.70086669921875
z: -0.29648736119270325
visibility: 0.9337870478630066
","x: 132.17796325683594
y: 377.3527526855469
z: -0.28070318698883057
visibility: 0.8929957747459412
","x: 224.31793212890625
y: 375.0997619628906
z: -0.25673428177833557
visibility: 0.9108051061630249
","x: 134.30943298339844
y: 377.1832580566406
z: -0.24159058928489685
visibility: 0.876878559589386
","x: 190.7550811767578
y: 405.0343017578125
z: 0.014778174459934235
visibility: 0.9998486042022705
","x: 169.35906982421875
y: 401.94964599609375
z: -0.014828299172222614
visibility: 0.9998924732208252
","x: 194.72621154785156
y: 465.23565673828125
z: 0.03875107318162918
visibility: 0.994015097618103
","x: 155.2559356689453
y: 459.74786376953125
z: -0.042681384831666946
visibility: 0.997581422328949
","x: 195.91909790039062
y: 521.9656982421875
z: 0.1962948888540268
visibility: 0.9943894743919373
","x: 142.16030883789062
y: 516.8202514648438
z: 0.09712617844343185
visibility: 0.9972729086875916
","x: 192.40115356445312
y: 532.3364868164062
z: 0.20610912144184113
visibility: 0.9493377208709717
","x: 142.14352416992188
y: 523.11328125
z: 0.1055213212966919
visibility: 0.9518339037895203
","x: 202.54779052734375
y: 543.7835083007812
z: 0.11592243611812592
visibility: 0.9902822971343994
","x: 140.0999755859375
y: 539.0908203125
z: 0.0015254121972247958
visibility: 0.9942319393157959
",,,,,,,,,,,,,,,,,,,,,,,,,,,,,,,,,,,,,,,,,,
11,"x: 181.58795166015625
y: 277.32305908203125
z: -0.2499247044324875
visibility: 0.999938428401947
","x: 183.36338806152344
y: 271.2913818359375
z: -0.23371043801307678
visibility: 0.999860942363739
","x: 184.41514587402344
y: 271.68798828125
z: -0.23371517658233643
visibility: 0.9998622536659241
","x: 185.54429626464844
y: 272.1788330078125
z: -0.2337081879377365
visibility: 0.9998522996902466
","x: 180.049560546875
y: 270.406982421875
z: -0.23772001266479492
visibility: 0.9998162388801575
","x: 178.72979736328125
y: 270.1431884765625
z: -0.23776450753211975
visibility: 0.9997711181640625
","x: 177.2630157470703
y: 269.9068908691406
z: -0.23777683079242706
visibility: 0.9997373819351196
","x: 187.3535919189453
y: 276.99151611328125
z: -0.1369745135307312
visibility: 0.9998151063919067
","x: 174.23419189453125
y: 273.9928894042969
z: -0.15058009326457977
visibility: 0.9996103048324585
","x: 183.2431182861328
y: 284.4493408203125
z: -0.21396541595458984
visibility: 0.9999248385429382
","x: 179.33566284179688
y: 283.9020080566406
z: -0.2210519015789032
visibility: 0.9998739957809448
","x: 194.4378662109375
y: 321.28839111328125
z: -0.059573955833911896
visibility: 0.9999305605888367
","x: 160.05267333984375
y: 308.34979248046875
z: -0.10539309680461884
visibility: 0.9997982382774353
","x: 194.68165588378906
y: 366.52447509765625
z: -0.03576751798391342
visibility: 0.9657851457595825
","x: 148.25135803222656
y: 350.98760986328125
z: -0.21774573624134064
visibility: 0.8923687934875488
","x: 208.75172424316406
y: 379.5126953125
z: -0.12373067438602448
visibility: 0.9591371417045593
","x: 145.7224884033203
y: 316.38525390625
z: -0.40795058012008667
visibility: 0.9214807152748108
","x: 214.92970275878906
y: 383.202880859375
z: -0.14077135920524597
visibility: 0.9297823309898376
","x: 153.0830841064453
y: 306.6004638671875
z: -0.4466346800327301
visibility: 0.898418664932251
","x: 215.99331665039062
y: 379.63140869140625
z: -0.16344162821769714
visibility: 0.9353294968605042
","x: 153.68084716796875
y: 302.5915832519531
z: -0.4426117539405823
visibility: 0.902298629283905
","x: 213.63368225097656
y: 377.9700012207031
z: -0.13500037789344788
visibility: 0.9134395122528076
","x: 150.75462341308594
y: 306.57073974609375
z: -0.4105948507785797
visibility: 0.8869402408599854
","x: 180.82778930664062
y: 406.36968994140625
z: 0.01746126264333725
visibility: 0.9998534321784973
","x: 160.02288818359375
y: 404.5324401855469
z: -0.017563272267580032
visibility: 0.9998873472213745
","x: 188.43295288085938
y: 465.2709655761719
z: -0.019726580008864403
visibility: 0.9940820336341858
","x: 149.23538208007812
y: 460.638671875
z: 0.009987693279981613
visibility: 0.9973966479301453
","x: 194.95468139648438
y: 523.8696899414062
z: 0.08860500156879425
visibility: 0.994551420211792
","x: 141.49266052246094
y: 517.1143188476562
z: 0.17015430331230164
visibility: 0.9969872236251831
","x: 191.43820190429688
y: 534.6961059570312
z: 0.09423183649778366
visibility: 0.9514781832695007
","x: 141.69224548339844
y: 523.8312377929688
z: 0.181388720870018
visibility: 0.9464017748832703
","x: 203.00088500976562
y: 544.1279907226562
z: -0.0070259845815598965
visibility: 0.9906178116798401
","x: 139.5159454345703
y: 539.2734375
z: 0.08225680142641068
visibility: 0.9936639070510864
",,,,,,,,,,,,,,,,,,,,,,,,,,,,,,,,,,,,,,,,,,
12,"x: 170.96104431152344
y: 278.7710266113281
z: -0.24538664519786835
visibility: 0.9999319314956665
","x: 172.6594696044922
y: 274.06622314453125
z: -0.23032429814338684
visibility: 0.9998518824577332
","x: 173.7207794189453
y: 274.47589111328125
z: -0.23033499717712402
visibility: 0.99985271692276
","x: 174.8599395751953
y: 274.9566955566406
z: -0.23036453127861023
visibility: 0.9998432993888855
","x: 169.469970703125
y: 272.7932434082031
z: -0.23486828804016113
visibility: 0.9998065233230591
","x: 168.2455596923828
y: 272.29534912109375
z: -0.2349049299955368
visibility: 0.999760091304779
","x: 166.69395446777344
y: 271.70050048828125
z: -0.23493650555610657
visibility: 0.9997217059135437
","x: 175.69964599609375
y: 279.2232666015625
z: -0.13430097699165344
visibility: 0.9997885823249817
","x: 163.19969177246094
y: 274.15228271484375
z: -0.14957675337791443
visibility: 0.9995802640914917
","x: 171.98892211914062
y: 286.0770568847656
z: -0.20861180126667023
visibility: 0.9999196529388428
","x: 168.4193572998047
y: 285.4932861328125
z: -0.21727056801319122
visibility: 0.999871551990509
","x: 183.29847717285156
y: 320.63250732421875
z: -0.07034264504909515
visibility: 0.9999257922172546
","x: 148.62705993652344
y: 308.36419677734375
z: -0.10915876924991608
visibility: 0.9997859597206116
","x: 185.08372497558594
y: 362.70550537109375
z: -0.09534965455532074
visibility: 0.963978111743927
","x: 138.63461303710938
y: 337.1318359375
z: -0.24474704265594482
visibility: 0.9010118842124939
","x: 190.8243408203125
y: 358.83984375
z: -0.152481347322464
visibility: 0.9595520496368408
","x: 143.71778869628906
y: 307.8105773925781
z: -0.4377203583717346
visibility: 0.9262023568153381
","x: 192.4451446533203
y: 359.6209716796875
z: -0.20449545979499817
visibility: 0.9300523400306702
","x: 147.66610717773438
y: 302.4017639160156
z: -0.48067694902420044
visibility: 0.9024039506912231
","x: 191.606689453125
y: 352.5145263671875
z: -0.24853603541851044
visibility: 0.9351220726966858
","x: 149.8537139892578
y: 299.147216796875
z: -0.4755857586860657
visibility: 0.9052715301513672
","x: 190.3107147216797
y: 352.4615478515625
z: -0.17898406088352203
visibility: 0.912619948387146
","x: 149.5858612060547
y: 302.42230224609375
z: -0.4411703944206238
visibility: 0.8884786367416382
","x: 174.71633911132812
y: 406.4387512207031
z: 0.01643020287156105
visibility: 0.9998531341552734
","x: 152.69293212890625
y: 406.30682373046875
z: -0.01644737645983696
visibility: 0.9998748898506165
","x: 184.16546630859375
y: 464.974609375
z: -0.02203875035047531
visibility: 0.9945338368415833
","x: 145.9334259033203
y: 462.486083984375
z: 0.0417998842895031
visibility: 0.9974274039268494
","x: 194.24798583984375
y: 523.598876953125
z: 0.08640976250171661
visibility: 0.9948695302009583
","x: 140.4576873779297
y: 517.2930297851562
z: 0.22693240642547607
visibility: 0.99689120054245
","x: 190.69528198242188
y: 534.6174926757812
z: 0.09207036346197128
visibility: 0.9534780383110046
","x: 141.5160369873047
y: 523.9388427734375
z: 0.24032127857208252
visibility: 0.9413676857948303
","x: 202.74224853515625
y: 544.0858764648438
z: -0.013451958075165749
visibility: 0.9911292791366577
","x: 140.86936950683594
y: 539.511962890625
z: 0.1432904750108719
visibility: 0.9933420419692993
",,,,,,,,,,,,,,,,,,,,,,,,,,,,,,,,,,,,,,,,,,
13,"x: 160.20335388183594
y: 278.82769775390625
z: -0.2529219388961792
visibility: 0.9999338388442993
","x: 161.6495361328125
y: 273.98150634765625
z: -0.23729117214679718
visibility: 0.9998572468757629
","x: 162.61964416503906
y: 274.3868408203125
z: -0.23724465072155
visibility: 0.9998556971549988
","x: 163.60797119140625
y: 274.87835693359375
z: -0.2372550517320633
visibility: 0.9998464584350586
","x: 158.63604736328125
y: 272.8314514160156
z: -0.24345512688159943
visibility: 0.9998161196708679
","x: 157.37294006347656
y: 272.4123840332031
z: -0.2434985339641571
visibility: 0.9997727870941162
","x: 155.9180908203125
y: 271.9237976074219
z: -0.24351999163627625
visibility: 0.9997366666793823
","x: 164.86578369140625
y: 279.1279296875
z: -0.1370663344860077
visibility: 0.9997912645339966
","x: 152.41400146484375
y: 274.2421569824219
z: -0.16417598724365234
visibility: 0.9996042251586914
","x: 161.8563690185547
y: 286.054931640625
z: -0.21533343195915222
visibility: 0.9999234676361084
","x: 157.86221313476562
y: 285.56256103515625
z: -0.22420747578144073
visibility: 0.9998797178268433
","x: 175.69589233398438
y: 318.3507080078125
z: -0.07480273395776749
visibility: 0.9999274611473083
","x: 141.4162139892578
y: 308.5211486816406
z: -0.1369009017944336
visibility: 0.9997956156730652
","x: 185.21185302734375
y: 358.1429748535156
z: -0.12151291221380234
visibility: 0.9602943062782288
","x: 126.86488342285156
y: 312.6785583496094
z: -0.30012762546539307
visibility: 0.9105997085571289
","x: 195.66741943359375
y: 374.4385986328125
z: -0.24330084025859833
visibility: 0.9569489359855652
","x: 132.68658447265625
y: 289.2697448730469
z: -0.4807405471801758
visibility: 0.9326145052909851
","x: 201.747314453125
y: 381.2287902832031
z: -0.2725238800048828
visibility: 0.9251728057861328
","x: 135.85569763183594
y: 283.32965087890625
z: -0.5235579013824463
visibility: 0.9092249274253845
","x: 201.11370849609375
y: 378.06158447265625
z: -0.291484534740448
visibility: 0.930512011051178
","x: 138.6282501220703
y: 280.1985778808594
z: -0.5139147043228149
visibility: 0.9113281965255737
","x: 199.1322784423828
y: 376.969970703125
z: -0.25499120354652405
visibility: 0.9080446362495422
","x: 138.98008728027344
y: 283.8255615234375
z: -0.48236045241355896
visibility: 0.8948377370834351
","x: 173.31381225585938
y: 404.9209899902344
z: 0.012560551054775715
visibility: 0.9998632073402405
","x: 150.8076934814453
y: 406.3214416503906
z: -0.012574093416333199
visibility: 0.9998814463615417
","x: 182.6846466064453
y: 463.5174865722656
z: -0.018530819565057755
visibility: 0.994956910610199
","x: 145.27085876464844
y: 461.2613220214844
z: 0.0763152688741684
visibility: 0.9974603652954102
","x: 194.59201049804688
y: 523.5936279296875
z: 0.09931091219186783
visibility: 0.99521803855896
","x: 140.5315399169922
y: 517.40380859375
z: 0.28475531935691833
visibility: 0.996798038482666
","x: 191.4996795654297
y: 534.3616333007812
z: 0.10606320202350616
visibility: 0.9552072882652283
","x: 140.87115478515625
y: 524.1083374023438
z: 0.3008916974067688
visibility: 0.9375309348106384
","x: 202.3092498779297
y: 543.9221801757812
z: -0.0030159882735460997
visibility: 0.9917014837265015
","x: 140.75816345214844
y: 539.7056884765625
z: 0.2073432207107544
visibility: 0.993145227432251
",,,,,,,,,,,,,,,,,,,,,,,,,,,,,,,,,,,,,,,,,,
14,"x: 154.48780822753906
y: 276.62445068359375
z: -0.2725706100463867
visibility: 0.9999398589134216
","x: 155.34982299804688
y: 272.17486572265625
z: -0.26143911480903625
visibility: 0.9998703002929688
","x: 156.46417236328125
y: 272.30157470703125
z: -0.2614135444164276
visibility: 0.9998686909675598
","x: 157.57814025878906
y: 272.53460693359375
z: -0.2614665925502777
visibility: 0.999860405921936
","x: 152.12588500976562
y: 272.2911376953125
z: -0.25940507650375366
visibility: 0.9998325109481812
","x: 151.0091094970703
y: 272.3218078613281
z: -0.2594689428806305
visibility: 0.9997928738594055
","x: 149.85055541992188
y: 272.0951232910156
z: -0.2594480812549591
visibility: 0.9997592568397522
","x: 159.13780212402344
y: 276.54669189453125
z: -0.18347737193107605
visibility: 0.9998104572296143
","x: 148.522705078125
y: 274.4158020019531
z: -0.17399568855762482
visibility: 0.9996382594108582
","x: 157.30140686035156
y: 283.1156005859375
z: -0.24281246960163116
visibility: 0.9999304413795471
","x: 152.8008270263672
y: 283.83905029296875
z: -0.24057146906852722
visibility: 0.9998897910118103
","x: 174.362548828125
y: 313.32696533203125
z: -0.1294633448123932
visibility: 0.9999338388442993
","x: 139.86599731445312
y: 307.5203857421875
z: -0.13966640830039978
visibility: 0.9998053908348083
","x: 188.5065460205078
y: 353.163818359375
z: -0.1289992332458496
visibility: 0.9637840986251831
","x: 120.90516662597656
y: 295.08660888671875
z: -0.2707248628139496
visibility: 0.9191350936889648
","x: 203.8267364501953
y: 375.38232421875
z: -0.21864882111549377
visibility: 0.9603121280670166
","x: 116.27561950683594
y: 267.0489807128906
z: -0.4384719729423523
visibility: 0.9370394945144653
","x: 209.3272705078125
y: 383.41741943359375
z: -0.23591546714305878
visibility: 0.9297339916229248
","x: 113.99164581298828
y: 260.7480163574219
z: -0.477632999420166
visibility: 0.9105221033096313
","x: 208.9544677734375
y: 380.9173889160156
z: -0.2604913115501404
visibility: 0.9349832534790039
","x: 115.99483489990234
y: 258.7041931152344
z: -0.4778958261013031
visibility: 0.9118223786354065
","x: 207.24810791015625
y: 378.6934814453125
z: -0.23081763088703156
visibility: 0.9142210483551025
","x: 116.85326385498047
y: 261.4122314453125
z: -0.44630151987075806
visibility: 0.8965188264846802
","x: 171.67434692382812
y: 402.80133056640625
z: 0.010939917527139187
visibility: 0.9998754858970642
","x: 149.02980041503906
y: 406.170654296875
z: -0.011007423512637615
visibility: 0.9998911023139954
","x: 181.62405395507812
y: 463.2342834472656
z: -0.014178069308400154
visibility: 0.9953559637069702
","x: 144.10269165039062
y: 461.0234375
z: 0.09184390306472778
visibility: 0.9975284337997437
","x: 194.674072265625
y: 523.5027465820312
z: 0.1030711680650711
visibility: 0.9955780506134033
","x: 140.38003540039062
y: 517.2669677734375
z: 0.3093727231025696
visibility: 0.9967669248580933
","x: 192.14968872070312
y: 534.2430419921875
z: 0.10942169278860092
visibility: 0.9572775363922119
","x: 141.97215270996094
y: 523.87744140625
z: 0.3260841965675354
visibility: 0.9357843995094299
","x: 203.49085998535156
y: 543.394287109375
z: -0.003657204331830144
visibility: 0.9922828674316406
","x: 139.11082458496094
y: 539.6364135742188
z: 0.23720137774944305
visibility: 0.9931783080101013
",,,,,,,,,,,,,,,,,,,,,,,,,,,,,,,,,,,,,,,,,,
15,"x: 152.1941680908203
y: 274.7985534667969
z: -0.2662288546562195
visibility: 0.9999451637268066
","x: 153.17027282714844
y: 269.85107421875
z: -0.25785914063453674
visibility: 0.9998818635940552
","x: 154.18936157226562
y: 269.6990661621094
z: -0.2578602135181427
visibility: 0.9998801350593567
","x: 155.18148803710938
y: 269.67724609375
z: -0.2579275965690613
visibility: 0.9998727440834045
","x: 150.32200622558594
y: 271.03143310546875
z: -0.25260549783706665
visibility: 0.9998461008071899
","x: 149.47589111328125
y: 271.5018310546875
z: -0.25265830755233765
visibility: 0.9998093247413635
","x: 148.6316680908203
y: 271.7760925292969
z: -0.2526455521583557
visibility: 0.9997773766517639
","x: 157.4711456298828
y: 273.6669616699219
z: -0.20027920603752136
visibility: 0.9998272657394409
","x: 148.52777099609375
y: 274.65966796875
z: -0.1650516837835312
visibility: 0.9996667504310608
","x: 155.32403564453125
y: 280.8486328125
z: -0.24167191982269287
visibility: 0.9999364614486694
","x: 151.48599243164062
y: 282.47467041015625
z: -0.2331564724445343
visibility: 0.9998974800109863
","x: 175.30728149414062
y: 313.03564453125
z: -0.15228284895420074
visibility: 0.9999385476112366
","x: 139.17910766601562
y: 306.33380126953125
z: -0.13460515439510345
visibility: 0.9998167753219604
","x: 191.04986572265625
y: 347.3188781738281
z: -0.20825903117656708
visibility: 0.9671369791030884
","x: 121.28282165527344
y: 278.8915710449219
z: -0.21855950355529785
visibility: 0.9271320700645447
","x: 208.31393432617188
y: 358.6116027832031
z: -0.33319759368896484
visibility: 0.9636516571044922
","x: 110.2833480834961
y: 242.61680603027344
z: -0.27843961119651794
visibility: 0.943124532699585
","x: 218.1385498046875
y: 365.64495849609375
z: -0.35961148142814636
visibility: 0.934963583946228
","x: 105.80842590332031
y: 233.8664093017578
z: -0.30755701661109924
visibility: 0.9185527563095093
","x: 218.37509155273438
y: 362.867919921875
z: -0.3840239644050598
visibility: 0.9399338960647583
","x: 105.86807250976562
y: 231.75387573242188
z: -0.3201354146003723
visibility: 0.9197254776954651
","x: 216.1889190673828
y: 361.24920654296875
z: -0.34758418798446655
visibility: 0.920952558517456
","x: 107.50357818603516
y: 235.60308837890625
z: -0.29011353850364685
visibility: 0.905931293964386
","x: 171.81336975097656
y: 401.315185546875
z: 0.0033859636168926954
visibility: 0.9998862147331238
","x: 148.62657165527344
y: 405.07012939453125
z: -0.0034421668387949467
visibility: 0.9999001622200012
","x: 183.06039428710938
y: 462.7127685546875
z: -0.05300479382276535
visibility: 0.9956828355789185
","x: 144.90252685546875
y: 461.0376281738281
z: 0.06698571145534515
visibility: 0.9976529479026794
","x: 194.50680541992188
y: 523.2574462890625
z: 0.06506901979446411
visibility: 0.9958747029304504
","x: 140.32574462890625
y: 517.0018310546875
z: 0.28939229249954224
visibility: 0.9967739582061768
","x: 191.89724731445312
y: 534.1924438476562
z: 0.07183949649333954
visibility: 0.9598066210746765
","x: 141.6121063232422
y: 523.4375
z: 0.3064980208873749
visibility: 0.9366585612297058
","x: 203.47183227539062
y: 542.607666015625
z: -0.038251493126153946
visibility: 0.9927420020103455
","x: 139.1569061279297
y: 539.428466796875
z: 0.22304920852184296
visibility: 0.9932588338851929
",,,,,,,,,,,,,,,,,,,,,,,,,,,,,,,,,,,,,,,,,,
16,"x: 152.48585510253906
y: 273.57867431640625
z: -0.2774133086204529
visibility: 0.9999499320983887
","x: 153.41583251953125
y: 268.5438232421875
z: -0.2738877534866333
visibility: 0.9998912811279297
","x: 154.52432250976562
y: 268.24407958984375
z: -0.2738790810108185
visibility: 0.999889612197876
","x: 155.671630859375
y: 268.0364685058594
z: -0.27395787835121155
visibility: 0.9998823404312134
","x: 150.6474151611328
y: 270.06304931640625
z: -0.26430460810661316
visibility: 0.9998576641082764
","x: 149.90184020996094
y: 270.7061462402344
z: -0.264373779296875
visibility: 0.9998242259025574
","x: 149.10845947265625
y: 271.25311279296875
z: -0.26434338092803955
visibility: 0.9997934103012085
","x: 159.08534240722656
y: 272.04541015625
z: -0.22833478450775146
visibility: 0.9998403787612915
","x: 149.53323364257812
y: 274.762451171875
z: -0.18141786754131317
visibility: 0.9996916651725769
","x: 156.33961486816406
y: 278.78076171875
z: -0.2586495280265808
visibility: 0.9999406337738037
","x: 152.04066467285156
y: 281.2020568847656
z: -0.24515119194984436
visibility: 0.9999011754989624
","x: 177.4116973876953
y: 312.4902038574219
z: -0.16624745726585388
visibility: 0.9999411702156067
","x: 142.10745239257812
y: 306.339111328125
z: -0.15537962317466736
visibility: 0.9998236894607544
","x: 195.14010620117188
y: 340.3583984375
z: -0.17891958355903625
visibility: 0.9701818227767944
","x: 125.01300048828125
y: 281.6160888671875
z: -0.18233218789100647
visibility: 0.9342123866081238
","x: 218.13194274902344
y: 337.71893310546875
z: -0.24562640488147736
visibility: 0.9667109251022339
","x: 109.20743560791016
y: 243.2489013671875
z: -0.23533499240875244
visibility: 0.9484609961509705
","x: 227.02024841308594
y: 339.2799377441406
z: -0.2622377574443817
visibility: 0.9395752549171448
","x: 103.03723907470703
y: 231.66436767578125
z: -0.26084113121032715
visibility: 0.9253348112106323
","x: 227.7522735595703
y: 336.29937744140625
z: -0.2901795506477356
visibility: 0.9443364143371582
","x: 102.62284851074219
y: 229.53575134277344
z: -0.2786865234375
visibility: 0.926454484462738
","x: 224.86209106445312
y: 336.0597229003906
z: -0.26114827394485474
visibility: 0.9271253347396851
","x: 104.94111633300781
y: 232.8958740234375
z: -0.24868988990783691
visibility: 0.9141846895217896
","x: 172.97752380371094
y: 401.210693359375
z: -0.0019746250472962856
visibility: 0.9998933672904968
","x: 149.94480895996094
y: 404.3533020019531
z: 0.0019264888251200318
visibility: 0.9999057054519653
","x: 184.06930541992188
y: 462.6905517578125
z: -0.03781382739543915
visibility: 0.9958232641220093
","x: 144.6192626953125
y: 461.20648193359375
z: 0.08149778097867966
visibility: 0.9976992011070251
","x: 194.59327697753906
y: 523.2661743164062
z: 0.07280990481376648
visibility: 0.9961028695106506
","x: 140.15614318847656
y: 517.0615234375
z: 0.3021743893623352
visibility: 0.9968147873878479
","x: 191.92166137695312
y: 534.3690185546875
z: 0.07884504646062851
visibility: 0.9624232053756714
","x: 140.90318298339844
y: 523.3801879882812
z: 0.31933650374412537
visibility: 0.9401211738586426
","x: 203.45596313476562
y: 542.6154174804688
z: -0.02801724337041378
visibility: 0.993200957775116
","x: 138.964599609375
y: 539.4893188476562
z: 0.24008889496326447
visibility: 0.9933888912200928
",,,,,,,,,,,,,,,,,,,,,,,,,,,,,,,,,,,,,,,,,,
17,"x: 154.55075073242188
y: 277.02227783203125
z: -0.27274221181869507
visibility: 0.9999467730522156
","x: 156.36795043945312
y: 271.9059143066406
z: -0.2659263610839844
visibility: 0.9998747110366821
","x: 157.77076721191406
y: 271.3931884765625
z: -0.26592084765434265
visibility: 0.9998739361763
","x: 159.10528564453125
y: 270.94671630859375
z: -0.2659810185432434
visibility: 0.9998607635498047
","x: 153.01121520996094
y: 274.14111328125
z: -0.25920113921165466
visibility: 0.9998427033424377
","x: 152.13941955566406
y: 274.8074645996094
z: -0.2592602074146271
visibility: 0.9998135566711426
","x: 151.27346801757812
y: 275.24688720703125
z: -0.2592480182647705
visibility: 0.9997748136520386
","x: 162.2904052734375
y: 274.6224365234375
z: -0.2002253532409668
visibility: 0.9998273849487305
","x: 152.0745391845703
y: 277.7120056152344
z: -0.178284153342247
visibility: 0.9996636509895325
","x: 158.30050659179688
y: 280.9573059082031
z: -0.24705162644386292
visibility: 0.999933660030365
","x: 153.7561492919922
y: 284.09869384765625
z: -0.23823079466819763
visibility: 0.9998863935470581
","x: 178.89620971679688
y: 310.8364562988281
z: -0.1464795023202896
visibility: 0.9999422430992126
","x: 144.2617950439453
y: 306.50128173828125
z: -0.13891759514808655
visibility: 0.9997981190681458
","x: 197.55325317382812
y: 337.50140380859375
z: -0.12808936834335327
visibility: 0.9724432229995728
","x: 125.96968078613281
y: 298.88372802734375
z: -0.2644001543521881
visibility: 0.9393996596336365
","x: 220.47720336914062
y: 342.9117431640625
z: -0.19555935263633728
visibility: 0.9685962200164795
","x: 122.64286804199219
y: 271.66766357421875
z: -0.47089895606040955
visibility: 0.9504393339157104
","x: 227.89572143554688
y: 346.3863830566406
z: -0.2117585688829422
visibility: 0.9416744709014893
","x: 119.26809692382812
y: 264.48626708984375
z: -0.5161980986595154
visibility: 0.9243326783180237
","x: 228.23341369628906
y: 344.20782470703125
z: -0.23609893023967743
visibility: 0.9466107487678528
","x: 115.2017593383789
y: 260.8522644042969
z: -0.5146075487136841
visibility: 0.925081729888916
","x: 225.77842712402344
y: 343.6331787109375
z: -0.20810778439044952
visibility: 0.9306976199150085
","x: 119.91697692871094
y: 264.14532470703125
z: -0.47884601354599
visibility: 0.913443386554718
","x: 174.35211181640625
y: 401.6920166015625
z: -0.003542765974998474
visibility: 0.9998958110809326
","x: 151.56251525878906
y: 404.76788330078125
z: 0.0034890584647655487
visibility: 0.9999036192893982
","x: 184.95643615722656
y: 462.85382080078125
z: 0.010167240165174007
visibility: 0.9960902333259583
","x: 144.33108520507812
y: 461.24530029296875
z: 0.09951764345169067
visibility: 0.9976897239685059
","x: 196.68370056152344
y: 522.912841796875
z: 0.15861813724040985
visibility: 0.9963268041610718
","x: 140.81625366210938
y: 516.0672607421875
z: 0.32145947217941284
visibility: 0.9968098402023315
","x: 192.4256591796875
y: 531.404541015625
z: 0.16822268068790436
visibility: 0.9625570774078369
","x: 142.1765899658203
y: 522.1276245117188
z: 0.33907321095466614
visibility: 0.9414913058280945
","x: 202.97291564941406
y: 542.9821166992188
z: 0.051453135907649994
visibility: 0.9935393333435059
","x: 138.54000854492188
y: 539.0074462890625
z: 0.24571318924427032
visibility: 0.9934025406837463
",,,,,,,,,,,,,,,,,,,,,,,,,,,,,,,,,,,,,,,,,,
18,"x: 157.89907836914062
y: 281.35302734375
z: -0.27950865030288696
visibility: 0.9999460577964783
","x: 159.89401245117188
y: 275.376708984375
z: -0.27119067311286926
visibility: 0.9998591542243958
","x: 161.26759338378906
y: 275.0480041503906
z: -0.27119559049606323
visibility: 0.9998652338981628
","x: 162.6431121826172
y: 274.74591064453125
z: -0.27123066782951355
visibility: 0.9998478293418884
","x: 156.4469451904297
y: 276.926513671875
z: -0.26366811990737915
visibility: 0.9998219013214111
","x: 155.41604614257812
y: 277.4916687011719
z: -0.26371264457702637
visibility: 0.9998032450675964
","x: 154.40574645996094
y: 277.91705322265625
z: -0.2636827826499939
visibility: 0.9997573494911194
","x: 166.0588836669922
y: 278.1607360839844
z: -0.1972859501838684
visibility: 0.9998184442520142
","x: 154.7939910888672
y: 280.2550354003906
z: -0.17499811947345734
visibility: 0.9995670318603516
","x: 161.2352752685547
y: 285.7239074707031
z: -0.250378280878067
visibility: 0.9999282956123352
","x: 156.78463745117188
y: 288.2021789550781
z: -0.24020695686340332
visibility: 0.9998675584793091
","x: 180.58387756347656
y: 311.08807373046875
z: -0.13528233766555786
visibility: 0.9999467730522156
","x: 147.58700561523438
y: 315.459716796875
z: -0.09134883433580399
visibility: 0.9997762441635132
","x: 198.0586395263672
y: 340.0284118652344
z: -0.11039944738149643
visibility: 0.9749805331230164
","x: 133.932373046875
y: 361.9593505859375
z: -0.1976877748966217
visibility: 0.9428157806396484
","x: 223.0225372314453
y: 354.2165832519531
z: -0.17956672608852386
visibility: 0.9713934659957886
","x: 134.88600158691406
y: 321.0378723144531
z: -0.42376717925071716
visibility: 0.9547919631004333
","x: 229.98947143554688
y: 362.42108154296875
z: -0.19534622132778168
visibility: 0.9464045166969299
","x: 134.67271423339844
y: 307.0419921875
z: -0.46969372034072876
visibility: 0.9303643107414246
","x: 229.75596618652344
y: 363.3204650878906
z: -0.21903438866138458
visibility: 0.9510400295257568
","x: 134.19981384277344
y: 303.8769226074219
z: -0.47083625197410583
visibility: 0.9310576319694519
","x: 227.3740997314453
y: 361.0992126464844
z: -0.18997588753700256
visibility: 0.9364997148513794
","x: 135.74490356445312
y: 307.36798095703125
z: -0.43146759271621704
visibility: 0.9198129177093506
","x: 175.42018127441406
y: 405.6704406738281
z: -0.01699916459619999
visibility: 0.9998972415924072
","x: 153.73434448242188
y: 407.00762939453125
z: 0.016870519146323204
visibility: 0.9998951554298401
","x: 186.3187255859375
y: 465.29278564453125
z: 0.020637933164834976
visibility: 0.9962065815925598
","x: 145.86270141601562
y: 461.2585754394531
z: 0.05057360604405403
visibility: 0.9974836707115173
","x: 202.23922729492188
y: 521.4448852539062
z: 0.2293405830860138
visibility: 0.9964404106140137
","x: 140.28561401367188
y: 516.1552734375
z: 0.2676568627357483
visibility: 0.9966850876808167
","x: 205.29689025878906
y: 526.2020263671875
z: 0.24438011646270752
visibility: 0.9543413519859314
","x: 141.26499938964844
y: 522.33740234375
z: 0.2898949384689331
visibility: 0.9408100843429565
","x: 203.21514892578125
y: 542.997802734375
z: 0.12752312421798706
visibility: 0.9935901165008545
","x: 138.26268005371094
y: 538.676025390625
z: 0.18309670686721802
visibility: 0.9934924840927124
",,,,,,,,,,,,,,,,,,,,,,,,,,,,,,,,,,,,,,,,,,
19,"x: 160.6424102783203
y: 289.26312255859375
z: -0.18395596742630005
visibility: 0.9999042749404907
","x: 161.452392578125
y: 282.924560546875
z: -0.18029774725437164
visibility: 0.99974524974823
","x: 162.8515167236328
y: 282.64251708984375
z: -0.18033252656459808
visibility: 0.9997873902320862
","x: 164.1022491455078
y: 282.38580322265625
z: -0.1803775429725647
visibility: 0.9997727870941162
","x: 157.86268615722656
y: 283.718017578125
z: -0.16833224892616272
visibility: 0.9996118545532227
","x: 158.2224578857422
y: 283.9136657714844
z: -0.1683509647846222
visibility: 0.999616265296936
","x: 158.45423889160156
y: 284.12408447265625
z: -0.16835251450538635
visibility: 0.999478816986084
","x: 167.71051025390625
y: 284.89599609375
z: -0.1328289806842804
visibility: 0.9997431635856628
","x: 162.03582763671875
y: 286.0672912597656
z: -0.07921497523784637
visibility: 0.9988599419593811
","x: 163.92173767089844
y: 293.8565368652344
z: -0.1651298701763153
visibility: 0.9998727440834045
","x: 157.34033203125
y: 294.94970703125
z: -0.14969144761562347
visibility: 0.9996886849403381
","x: 182.7744598388672
y: 311.9339294433594
z: -0.10188096761703491
visibility: 0.9999493360519409
","x: 156.1410369873047
y: 318.80718994140625
z: -0.0179958026856184
visibility: 0.9996157884597778
","x: 198.66073608398438
y: 346.097412109375
z: -0.1145227774977684
visibility: 0.9769222736358643
","x: 145.97958374023438
y: 346.1452941894531
z: -0.11403485387563705
visibility: 0.9238845109939575
","x: 221.59759521484375
y: 371.0606689453125
z: -0.18716005980968475
visibility: 0.9736198782920837
","x: 146.49432373046875
y: 328.3028869628906
z: -0.3307243287563324
visibility: 0.9373757243156433
","x: 227.84896850585938
y: 380.8243408203125
z: -0.2055998295545578
visibility: 0.9501954317092896
","x: 146.6854248046875
y: 326.72308349609375
z: -0.37062156200408936
visibility: 0.9042235016822815
","x: 227.59811401367188
y: 380.9691162109375
z: -0.2288500964641571
visibility: 0.9546072483062744
","x: 148.28662109375
y: 322.6756286621094
z: -0.37439072132110596
visibility: 0.9058245420455933
","x: 225.464599609375
y: 377.38702392578125
z: -0.19730150699615479
visibility: 0.9409862160682678
","x: 149.7891082763672
y: 326.2093811035156
z: -0.3403426706790924
visibility: 0.893025815486908
","x: 177.22628784179688
y: 410.1885681152344
z: -0.018626254051923752
visibility: 0.999890148639679
","x: 158.27879333496094
y: 410.7554931640625
z: 0.01858019270002842
visibility: 0.9998781085014343
","x: 187.26107788085938
y: 467.53350830078125
z: 0.0204875897616148
visibility: 0.9964192509651184
","x: 146.3372802734375
y: 463.32958984375
z: 0.021126100793480873
visibility: 0.9974675178527832
","x: 205.73194885253906
y: 521.1919555664062
z: 0.18276047706604004
visibility: 0.9966045618057251
","x: 140.80943298339844
y: 516.1533203125
z: 0.15879669785499573
visibility: 0.9966222643852234
","x: 209.43154907226562
y: 525.6963500976562
z: 0.19266687333583832
visibility: 0.9479332566261292
","x: 141.52017211914062
y: 522.4796142578125
z: 0.1683667004108429
visibility: 0.937703013420105
","x: 203.06297302246094
y: 541.3499755859375
z: 0.08058680593967438
visibility: 0.9936105608940125
","x: 138.31005859375
y: 537.4171142578125
z: 0.07425912469625473
visibility: 0.9935119152069092
",,,,,,,,,,,,,,,,,,,,,,,,,,,,,,,,,,,,,,,,,,
20,"x: 167.1795196533203
y: 289.711669921875
z: -0.21768240630626678
visibility: 0.9998704791069031
","x: 169.87057495117188
y: 284.809814453125
z: -0.2152954638004303
visibility: 0.999716579914093
","x: 171.23670959472656
y: 284.92633056640625
z: -0.2152942419052124
visibility: 0.9997625350952148
","x: 172.6768798828125
y: 285.1300964355469
z: -0.2153041660785675
visibility: 0.9997501373291016
","x: 167.0728302001953
y: 285.01239013671875
z: -0.20198896527290344
visibility: 0.9995642304420471
","x: 166.83018493652344
y: 285.23077392578125
z: -0.20204278826713562
visibility: 0.9995596408843994
","x: 166.56704711914062
y: 285.4797668457031
z: -0.20205986499786377
visibility: 0.9994272589683533
","x: 176.9960174560547
y: 289.4292907714844
z: -0.17613111436367035
visibility: 0.9997114539146423
","x: 169.8233184814453
y: 288.9486999511719
z: -0.11094614118337631
visibility: 0.9986727237701416
","x: 169.55517578125
y: 295.6917724609375
z: -0.19886502623558044
visibility: 0.9998401403427124
","x: 165.37164306640625
y: 296.27032470703125
z: -0.182541623711586
visibility: 0.9996175765991211
","x: 187.59552001953125
y: 321.2463684082031
z: -0.20540833473205566
visibility: 0.9999380111694336
","x: 163.66323852539062
y: 321.5147399902344
z: -0.036473434418439865
visibility: 0.9994791746139526
","x: 177.9585418701172
y: 345.9623718261719
z: -0.324087530374527
visibility: 0.9786539673805237
","x: 147.97877502441406
y: 338.461669921875
z: -0.12425976991653442
visibility: 0.8828029632568359
","x: 153.5034637451172
y: 339.0755920410156
z: -0.3841402232646942
visibility: 0.9752179384231567
","x: 146.65402221679688
y: 322.8013610839844
z: -0.3094813823699951
visibility: 0.8990432024002075
","x: 147.4846954345703
y: 340.0418701171875
z: -0.41503119468688965
visibility: 0.9526697993278503
","x: 146.07948303222656
y: 319.5435791015625
z: -0.34177273511886597
visibility: 0.8617837429046631
","x: 146.79266357421875
y: 337.18255615234375
z: -0.4049903452396393
visibility: 0.9564233422279358
","x: 147.58389282226562
y: 318.2252197265625
z: -0.3399026095867157
visibility: 0.8618173599243164
","x: 149.17507934570312
y: 336.421630859375
z: -0.37971195578575134
visibility: 0.9414101243019104
","x: 148.62217712402344
y: 320.808837890625
z: -0.3157685399055481
visibility: 0.8486834168434143
","x: 185.9783172607422
y: 415.32965087890625
z: -0.035481423139572144
visibility: 0.9998695254325867
","x: 166.31906127929688
y: 413.33843994140625
z: 0.035249605774879456
visibility: 0.9998716115951538
","x: 191.67108154296875
y: 474.6923522949219
z: 0.011624942533671856
visibility: 0.9963170289993286
","x: 148.9359893798828
y: 466.4056396484375
z: -0.010378439910709858
visibility: 0.9972704648971558
","x: 206.9019012451172
y: 521.7030639648438
z: 0.20597930252552032
visibility: 0.9965699315071106
","x: 141.4467315673828
y: 516.1978759765625
z: 0.14782583713531494
visibility: 0.9964388012886047
","x: 209.8956298828125
y: 526.1717529296875
z: 0.22038476169109344
visibility: 0.9315773844718933
","x: 142.5098419189453
y: 522.6607666015625
z: 0.15998733043670654
visibility: 0.9330880641937256
","x: 203.29180908203125
y: 541.4678344726562
z: 0.11449860036373138
visibility: 0.9932704567909241
","x: 137.83399963378906
y: 537.5620727539062
z: 0.07119567692279816
visibility: 0.9933576583862305
",,,,,,,,,,,,,,,,,,,,,,,,,,,,,,,,,,,,,,,,,,
21,"x: 169.5082550048828
y: 289.7445373535156
z: -0.1948441118001938
visibility: 0.9998542666435242
","x: 172.67930603027344
y: 284.80548095703125
z: -0.19180944561958313
visibility: 0.9997137784957886
","x: 174.2044219970703
y: 285.0226135253906
z: -0.19179727137088776
visibility: 0.9997561573982239
","x: 175.8828887939453
y: 285.38836669921875
z: -0.19175906479358673
visibility: 0.9997451901435852
","x: 169.78382873535156
y: 284.59796142578125
z: -0.17713622748851776
visibility: 0.9995660185813904
","x: 169.2064971923828
y: 284.6510009765625
z: -0.1771794855594635
visibility: 0.9995580911636353
","x: 168.63372802734375
y: 284.7532043457031
z: -0.17719699442386627
visibility: 0.9994401931762695
","x: 180.45452880859375
y: 289.47381591796875
z: -0.14693182706832886
visibility: 0.9996987581253052
","x: 170.37875366210938
y: 287.6626892089844
z: -0.07866137474775314
visibility: 0.9986293911933899
","x: 171.346435546875
y: 295.9463806152344
z: -0.17639264464378357
visibility: 0.999813437461853
","x: 167.8695068359375
y: 295.3753662109375
z: -0.1574704945087433
visibility: 0.9995886087417603
","x: 187.58233642578125
y: 320.0169677734375
z: -0.1703934371471405
visibility: 0.9999054074287415
","x: 165.97897338867188
y: 320.7478332519531
z: 0.002276100218296051
visibility: 0.9993417263031006
","x: 171.21922302246094
y: 340.8284912109375
z: -0.26628023386001587
visibility: 0.9791751503944397
","x: 149.79672241210938
y: 336.4561462402344
z: -0.10963807255029678
visibility: 0.8484005928039551
","x: 153.51612854003906
y: 325.80023193359375
z: -0.30916640162467957
visibility: 0.9730398058891296
","x: 150.8419189453125
y: 324.38983154296875
z: -0.3133091628551483
visibility: 0.8667434453964233
","x: 150.05369567871094
y: 324.3905334472656
z: -0.3368496298789978
visibility: 0.9481748938560486
","x: 150.5689697265625
y: 319.2431945800781
z: -0.3475418984889984
visibility: 0.8241061568260193
","x: 150.39654541015625
y: 320.8052978515625
z: -0.34032920002937317
visibility: 0.9509727954864502
","x: 152.1728515625
y: 318.317626953125
z: -0.34499138593673706
visibility: 0.8222512006759644
","x: 151.77886962890625
y: 321.89862060546875
z: -0.3099462389945984
visibility: 0.9319036602973938
","x: 153.12521362304688
y: 321.5233154296875
z: -0.3192426264286041
visibility: 0.8084099292755127
","x: 187.45724487304688
y: 413.9244079589844
z: -0.04757113382220268
visibility: 0.9998617172241211
","x: 168.13742065429688
y: 413.2998962402344
z: 0.04735678806900978
visibility: 0.9998643398284912
","x: 192.67173767089844
y: 474.09869384765625
z: -0.013833573088049889
visibility: 0.9963783025741577
","x: 152.83177185058594
y: 465.26104736328125
z: 0.0363132543861866
visibility: 0.9968591928482056
","x: 207.3687744140625
y: 522.1380615234375
z: 0.18856897950172424
visibility: 0.9966992735862732
","x: 142.0227508544922
y: 516.0278930664062
z: 0.16184315085411072
visibility: 0.9962931871414185
","x: 210.58236694335938
y: 526.77783203125
z: 0.19498321413993835
visibility: 0.9231776595115662
","x: 143.09658813476562
y: 522.728271484375
z: 0.1796802282333374
visibility: 0.931972324848175
","x: 202.8755645751953
y: 541.5601806640625
z: 0.08364606648683548
visibility: 0.9934809803962708
","x: 138.04591369628906
y: 537.3814697265625
z: 0.12491005659103394
visibility: 0.9933363199234009
",,,,,,,,,,,,,,,,,,,,,,,,,,,,,,,,,,,,,,,,,,
22,"x: 169.30105590820312
y: 288.3639831542969
z: -0.2512785792350769
visibility: 0.9998406767845154
","x: 171.95675659179688
y: 283.2196044921875
z: -0.24712881445884705
visibility: 0.999710202217102
","x: 173.42568969726562
y: 283.41424560546875
z: -0.2471417486667633
visibility: 0.9997498393058777
","x: 174.9935302734375
y: 283.7565002441406
z: -0.24712824821472168
visibility: 0.9997437596321106
","x: 169.33168029785156
y: 283.3166198730469
z: -0.23275525867938995
visibility: 0.999564528465271
","x: 169.0631561279297
y: 283.49658203125
z: -0.23281297087669373
visibility: 0.9995458126068115
","x: 167.9361114501953
y: 283.7259521484375
z: -0.23283573985099792
visibility: 0.9994425773620605
","x: 178.96788024902344
y: 287.7596740722656
z: -0.19464363157749176
visibility: 0.9997023344039917
","x: 169.16246032714844
y: 286.70635986328125
z: -0.12690016627311707
visibility: 0.9986222386360168
","x: 171.20785522460938
y: 294.61279296875
z: -0.22983486950397491
visibility: 0.9998076558113098
","x: 167.6226806640625
y: 294.32086181640625
z: -0.21113714575767517
visibility: 0.9995853304862976
","x: 184.76583862304688
y: 319.96380615234375
z: -0.22395065426826477
visibility: 0.9999062418937683
","x: 162.950927734375
y: 320.6286315917969
z: -0.03970655798912048
visibility: 0.9993066787719727
","x: 160.97280883789062
y: 339.3349914550781
z: -0.3263457417488098
visibility: 0.9807655811309814
","x: 148.07891845703125
y: 338.60076904296875
z: -0.1400780975818634
visibility: 0.8088656067848206
","x: 137.87168884277344
y: 332.3367919921875
z: -0.36597347259521484
visibility: 0.9738686084747314
","x: 146.902587890625
y: 328.9779968261719
z: -0.3495407700538635
visibility: 0.8261614441871643
","x: 131.4112548828125
y: 333.5910339355469
z: -0.4001539647579193
visibility: 0.9493296146392822
","x: 145.337890625
y: 326.1925964355469
z: -0.3865016996860504
visibility: 0.7841747403144836
","x: 130.8163604736328
y: 329.8738098144531
z: -0.39106643199920654
visibility: 0.9515959024429321
","x: 146.0912322998047
y: 324.11920166015625
z: -0.389604389667511
visibility: 0.7816939949989319
","x: 133.8215789794922
y: 329.6712951660156
z: -0.36258190870285034
visibility: 0.9308285713195801
","x: 147.08554077148438
y: 326.5343017578125
z: -0.359118789434433
visibility: 0.7676271796226501
","x: 186.87606811523438
y: 413.11700439453125
z: -0.0449635311961174
visibility: 0.9998602271080017
","x: 167.03749084472656
y: 412.7095947265625
z: 0.04472007974982262
visibility: 0.9998626708984375
","x: 192.67982482910156
y: 473.33966064453125
z: -0.016513172537088394
visibility: 0.9964724779129028
","x: 152.47630310058594
y: 462.13116455078125
z: 0.017646480351686478
visibility: 0.9965912699699402
","x: 207.1468963623047
y: 522.26953125
z: 0.18670272827148438
visibility: 0.9968222379684448
","x: 141.81747436523438
y: 515.0682983398438
z: 0.1859244704246521
visibility: 0.9962525963783264
","x: 210.29283142089844
y: 527.2380981445312
z: 0.20007970929145813
visibility: 0.9120572209358215
","x: 142.8665771484375
y: 522.1387329101562
z: 0.20014262199401855
visibility: 0.930891752243042
","x: 202.9853515625
y: 543.8982543945312
z: 0.08853959292173386
visibility: 0.9936943054199219
","x: 137.27069091796875
y: 537.461669921875
z: 0.11404764652252197
visibility: 0.9935054183006287
",,,,,,,,,,,,,,,,,,,,,,,,,,,,,,,,,,,,,,,,,,
23,"x: 165.60458374023438
y: 282.6639709472656
z: -0.21055276691913605
visibility: 0.9998559355735779
","x: 167.553955078125
y: 278.24462890625
z: -0.1966482698917389
visibility: 0.9997371435165405
","x: 168.7702178955078
y: 278.54962158203125
z: -0.19670288264751434
visibility: 0.9997734427452087
","x: 169.88121032714844
y: 279.04266357421875
z: -0.1967117190361023
visibility: 0.9997678399085999
","x: 164.33631896972656
y: 278.25079345703125
z: -0.19350937008857727
visibility: 0.9996041059494019
","x: 163.35723876953125
y: 278.49951171875
z: -0.19347089529037476
visibility: 0.9995868802070618
","x: 162.18446350097656
y: 278.7934265136719
z: -0.19345051050186157
visibility: 0.9994914531707764
","x: 171.8253936767578
y: 283.6646423339844
z: -0.1123218685388565
visibility: 0.999729335308075
","x: 160.88470458984375
y: 282.7566223144531
z: -0.09667159616947174
visibility: 0.998749315738678
","x: 167.3097381591797
y: 289.6921081542969
z: -0.1796370893716812
visibility: 0.9998260140419006
","x: 162.99398803710938
y: 289.5389099121094
z: -0.17549970746040344
visibility: 0.9996253252029419
","x: 177.6239776611328
y: 316.09759521484375
z: -0.10452040284872055
visibility: 0.9999147653579712
","x: 150.333740234375
y: 316.38531494140625
z: -0.029206514358520508
visibility: 0.999347984790802
","x: 172.30763244628906
y: 339.839111328125
z: -0.25315505266189575
visibility: 0.9807097911834717
","x: 146.94773864746094
y: 349.9427795410156
z: -0.07206455618143082
visibility: 0.7845630049705505
","x: 181.3186798095703
y: 334.3027038574219
z: -0.4539320468902588
visibility: 0.9747833013534546
","x: 147.60501098632812
y: 386.9316101074219
z: -0.2097606658935547
visibility: 0.8051019310951233
","x: 182.1649627685547
y: 332.102294921875
z: -0.5007576942443848
visibility: 0.9522370100021362
","x: 146.15052795410156
y: 398.33538818359375
z: -0.24158284068107605
visibility: 0.7657110095024109
","x: 178.51467895507812
y: 326.3821105957031
z: -0.5089502334594727
visibility: 0.9543823599815369
","x: 148.06285095214844
y: 398.12506103515625
z: -0.2582361102104187
visibility: 0.7646465301513672
","x: 174.84085083007812
y: 327.17620849609375
z: -0.46273159980773926
visibility: 0.9343150854110718
","x: 149.51376342773438
y: 394.5039367675781
z: -0.22060461342334747
visibility: 0.7484148144721985
","x: 174.77603149414062
y: 406.0122375488281
z: -0.04340299591422081
visibility: 0.9998725652694702
","x: 153.88229370117188
y: 410.31512451171875
z: 0.043273527175188065
visibility: 0.9998709559440613
","x: 188.4108123779297
y: 464.91796875
z: -0.03171484172344208
visibility: 0.99666827917099
","x: 143.9154815673828
y: 459.1446228027344
z: 0.003957534208893776
visibility: 0.9967564344406128
","x: 206.86114501953125
y: 521.2377319335938
z: 0.13135001063346863
visibility: 0.9970376491546631
","x: 141.00469970703125
y: 514.9178466796875
z: 0.19524067640304565
visibility: 0.9964362382888794
","x: 209.36302185058594
y: 526.0853271484375
z: 0.14133352041244507
visibility: 0.9097081422805786
","x: 142.39967346191406
y: 521.8659057617188
z: 0.20647570490837097
visibility: 0.933384120464325
","x: 203.28167724609375
y: 544.5043334960938
z: 0.02331634797155857
visibility: 0.9940325021743774
","x: 136.99880981445312
y: 537.450927734375
z: 0.1183716282248497
visibility: 0.9937735795974731
",,,,,,,,,,,,,,,,,,,,,,,,,,,,,,,,,,,,,,,,,,
24,"x: 153.95240783691406
y: 275.5736999511719
z: -0.3746642470359802
visibility: 0.9998701214790344
","x: 155.64666748046875
y: 270.9411315917969
z: -0.3654279112815857
visibility: 0.9997622966766357
","x: 156.72674560546875
y: 271.3043212890625
z: -0.36542803049087524
visibility: 0.999795138835907
","x: 157.77603149414062
y: 271.861083984375
z: -0.3655022978782654
visibility: 0.999789834022522
","x: 152.2845001220703
y: 270.8472900390625
z: -0.3624713122844696
visibility: 0.9996426701545715
","x: 151.0886993408203
y: 271.130859375
z: -0.36251991987228394
visibility: 0.9996272325515747
","x: 149.75665283203125
y: 271.5762939453125
z: -0.36249130964279175
visibility: 0.9995411038398743
","x: 159.2332305908203
y: 276.28857421875
z: -0.2806643843650818
visibility: 0.9997553825378418
","x: 148.47116088867188
y: 275.7449035644531
z: -0.2663269639015198
visibility: 0.9988735914230347
","x: 156.11550903320312
y: 282.3272399902344
z: -0.34134647250175476
visibility: 0.9998427033424377
","x: 151.8850555419922
y: 282.13214111328125
z: -0.33731573820114136
visibility: 0.9996622204780579
","x: 172.45950317382812
y: 307.1861572265625
z: -0.20095011591911316
visibility: 0.9999226331710815
","x: 138.3603515625
y: 311.9910583496094
z: -0.19524571299552917
visibility: 0.9994099736213684
","x: 192.3559112548828
y: 299.0953674316406
z: -0.23805996775627136
visibility: 0.9825800061225891
","x: 133.5541229248047
y: 349.3995361328125
z: -0.2079642117023468
visibility: 0.8010879755020142
","x: 217.84347534179688
y: 279.50067138671875
z: -0.4364786148071289
visibility: 0.9770383834838867
","x: 129.82752990722656
y: 386.0754089355469
z: -0.2631674110889435
visibility: 0.8158084750175476
","x: 222.2534942626953
y: 271.17510986328125
z: -0.4301316738128662
visibility: 0.9557641744613647
","x: 127.89928436279297
y: 396.65765380859375
z: -0.30943524837493896
visibility: 0.7722740769386292
","x: 222.13046264648438
y: 268.0584411621094
z: -0.40299493074417114
visibility: 0.9578821063041687
","x: 128.1848907470703
y: 396.92205810546875
z: -0.3453385531902313
visibility: 0.7723618149757385
","x: 220.38040161132812
y: 272.52203369140625
z: -0.3757757842540741
visibility: 0.9396164417266846
","x: 129.2905731201172
y: 393.1806945800781
z: -0.2969260811805725
visibility: 0.7566556930541992
","x: 162.7429962158203
y: 397.8721923828125
z: -0.010885990224778652
visibility: 0.9998809099197388
","x: 141.99266052246094
y: 399.6011047363281
z: 0.010846232995390892
visibility: 0.9998763203620911
","x: 175.11117553710938
y: 455.168701171875
z: -0.02725834771990776
visibility: 0.9966882467269897
","x: 139.80992126464844
y: 457.1687316894531
z: -0.0017343697836622596
visibility: 0.9967985153198242
","x: 188.45196533203125
y: 514.93310546875
z: 0.1122872605919838
visibility: 0.9971181154251099
","x: 140.4859619140625
y: 513.766845703125
z: 0.17246831953525543
visibility: 0.9964503049850464
","x: 187.84300231933594
y: 522.8619384765625
z: 0.11694638431072235
visibility: 0.9111598134040833
","x: 142.4178924560547
y: 520.441162109375
z: 0.1829414665699005
visibility: 0.9331503510475159
","x: 193.76025390625
y: 538.49560546875
z: -0.009320927783846855
visibility: 0.9941567182540894
","x: 137.61488342285156
y: 537.4735107421875
z: 0.07419659942388535
visibility: 0.9938173294067383
",,,,,,,,,,,,,,,,,,,,,,,,,,,,,,,,,,,,,,,,,,
25,"x: 147.28543090820312
y: 272.21612548828125
z: -0.37167245149612427
visibility: 0.9998827576637268
","x: 148.64013671875
y: 267.8888854980469
z: -0.3608950674533844
visibility: 0.999784529209137
","x: 149.64468383789062
y: 267.9427795410156
z: -0.3608642816543579
visibility: 0.9998142123222351
","x: 150.6173095703125
y: 268.0948486328125
z: -0.3608981966972351
visibility: 0.9998088479042053
","x: 145.779052734375
y: 268.3794250488281
z: -0.3578263819217682
visibility: 0.9996770620346069
","x: 144.77008056640625
y: 268.76751708984375
z: -0.3578850030899048
visibility: 0.9996628761291504
","x: 143.68841552734375
y: 269.260009765625
z: -0.35790005326271057
visibility: 0.9995850324630737
","x: 152.2700653076172
y: 271.1652526855469
z: -0.2698054611682892
visibility: 0.9997779726982117
","x: 142.55023193359375
y: 272.75335693359375
z: -0.25606557726860046
visibility: 0.998984694480896
","x: 149.5897216796875
y: 277.7395324707031
z: -0.33553987741470337
visibility: 0.9998571872711182
","x: 145.4501953125
y: 278.6534423828125
z: -0.3316780924797058
visibility: 0.9996949434280396
","x: 167.85650634765625
y: 302.357666015625
z: -0.1921216994524002
visibility: 0.999919593334198
","x: 134.4297332763672
y: 309.5910949707031
z: -0.1868356168270111
visibility: 0.9994596838951111
","x: 191.00119018554688
y: 293.8045959472656
z: -0.2908896803855896
visibility: 0.9840977191925049
","x: 115.08638000488281
y: 345.6214599609375
z: -0.22294409573078156
visibility: 0.8204923272132874
","x: 204.29766845703125
y: 251.0421600341797
z: -0.4508898854255676
visibility: 0.9788881540298462
","x: 99.872802734375
y: 356.53240966796875
z: -0.30624109506607056
visibility: 0.8331226110458374
","x: 206.30398559570312
y: 240.84573364257812
z: -0.48422321677207947
visibility: 0.9584023356437683
","x: 95.01210021972656
y: 360.365478515625
z: -0.33306393027305603
visibility: 0.7914994955062866
","x: 205.19728088378906
y: 238.27200317382812
z: -0.4880385398864746
visibility: 0.9603665471076965
","x: 94.56085968017578
y: 360.1802978515625
z: -0.3545374572277069
visibility: 0.7918078303337097
","x: 204.28482055664062
y: 241.48306274414062
z: -0.4563302993774414
visibility: 0.9437500238418579
","x: 96.94013977050781
y: 359.29327392578125
z: -0.32533693313598633
visibility: 0.7770361304283142
","x: 157.44114685058594
y: 391.7715759277344
z: 0.0006845674361102283
visibility: 0.9998853802680969
","x: 138.1625518798828
y: 390.5810852050781
z: -0.0007954058237373829
visibility: 0.9998747110366821
","x: 156.54144287109375
y: 445.14508056640625
z: -0.10370098054409027
visibility: 0.995903491973877
","x: 139.16392517089844
y: 456.32135009765625
z: 0.008634053170681
visibility: 0.9956514835357666
","x: 154.25831604003906
y: 501.83740234375
z: 0.06746546179056168
visibility: 0.9958885312080383
","x: 139.9837646484375
y: 516.2506713867188
z: 0.17471255362033844
visibility: 0.995514452457428
","x: 150.63156127929688
y: 510.0069885253906
z: 0.08002116531133652
visibility: 0.9152354001998901
","x: 141.1989288330078
y: 521.76220703125
z: 0.18965944647789001
visibility: 0.9276926517486572
","x: 160.64097595214844
y: 525.5941162109375
z: -0.028690850362181664
visibility: 0.9938347339630127
","x: 137.81138610839844
y: 537.5169677734375
z: 0.1007453054189682
visibility: 0.9925938844680786
",,,,,,,,,,,,,,,,,,,,,,,,,,,,,,,,,,,,,,,,,,
26,"x: 142.96534729003906
y: 270.11041259765625
z: -0.12428170442581177
visibility: 0.9998353719711304
","x: 144.52731323242188
y: 266.9461364746094
z: -0.10699929296970367
visibility: 0.9996686577796936
","x: 145.83285522460938
y: 267.3240051269531
z: -0.10703527927398682
visibility: 0.9997011423110962
","x: 147.23141479492188
y: 267.56658935546875
z: -0.10707219690084457
visibility: 0.9996734857559204
","x: 141.19932556152344
y: 266.8530578613281
z: -0.10770615190267563
visibility: 0.9995772242546082
","x: 140.09274291992188
y: 267.1824035644531
z: -0.10772720724344254
visibility: 0.9995439052581787
","x: 138.87620544433594
y: 267.56268310546875
z: -0.10777813196182251
visibility: 0.9994896054267883
","x: 149.74244689941406
y: 271.809326171875
z: -0.01932689920067787
visibility: 0.9995713233947754
","x: 137.3795928955078
y: 271.9934387207031
z: -0.0226343534886837
visibility: 0.9989305734634399
","x: 145.33078002929688
y: 276.11138916015625
z: -0.09138496220111847
visibility: 0.9997076988220215
","x: 140.79457092285156
y: 277.02935791015625
z: -0.09238483011722565
visibility: 0.9995988011360168
","x: 164.0118865966797
y: 304.0804138183594
z: 0.013709841296076775
visibility: 0.9997935891151428
","x: 129.62850952148438
y: 307.0625915527344
z: 0.03012927807867527
visibility: 0.9993841648101807
","x: 179.322265625
y: 304.4198303222656
z: -0.1085973009467125
visibility: 0.9844018816947937
","x: 108.75675201416016
y: 335.8047790527344
z: 0.05142934247851372
visibility: 0.8348835706710815
","x: 172.1210174560547
y: 260.098388671875
z: -0.2695797085762024
visibility: 0.979388415813446
","x: 81.15267181396484
y: 316.1327819824219
z: 0.009202479384839535
visibility: 0.8478267192840576
","x: 171.8744354248047
y: 249.93765258789062
z: -0.3025710880756378
visibility: 0.9578001499176025
","x: 77.32929229736328
y: 313.77777099609375
z: -0.004453415982425213
visibility: 0.8069761991500854
","x: 169.6744842529297
y: 248.00828552246094
z: -0.28741490840911865
visibility: 0.959372878074646
","x: 76.31442260742188
y: 307.7884216308594
z: -0.020112890750169754
visibility: 0.8078528046607971
","x: 168.7129669189453
y: 251.94305419921875
z: -0.26901131868362427
visibility: 0.9439325928688049
","x: 78.69793701171875
y: 307.594482421875
z: 0.0005695524159818888
visibility: 0.7942743897438049
","x: 153.6368408203125
y: 386.6488342285156
z: 0.001761005842126906
visibility: 0.9998205900192261
","x: 135.28579711914062
y: 387.2545166015625
z: -0.0017864678520709276
visibility: 0.9998468160629272
","x: 138.96334838867188
y: 447.68304443359375
z: -0.014459100551903248
visibility: 0.9735766053199768
","x: 138.14630126953125
y: 451.8420715332031
z: -0.07093635946512222
visibility: 0.9774106740951538
","x: 125.84335327148438
y: 493.14068603515625
z: 0.20623965561389923
visibility: 0.9677706360816956
","x: 138.8799285888672
y: 516.2620849609375
z: 0.0479455292224884
visibility: 0.9897189736366272
","x: 119.9970474243164
y: 499.6753234863281
z: 0.2264077216386795
visibility: 0.8939114809036255
","x: 139.8906707763672
y: 522.1673583984375
z: 0.05632617324590683
visibility: 0.9153661727905273
","x: 124.16004180908203
y: 516.4859619140625
z: 0.1604498326778412
visibility: 0.9756880402565002
","x: 137.76510620117188
y: 536.8859252929688
z: -0.04964575171470642
visibility: 0.9850730895996094
",,,,,,,,,,,,,,,,,,,,,,,,,,,,,,,,,,,,,,,,,,
27,"x: 144.3599853515625
y: 271.8460388183594
z: -0.35436996817588806
visibility: 0.9997690916061401
","x: 145.4458465576172
y: 268.52239990234375
z: -0.34195059537887573
visibility: 0.9995157718658447
","x: 146.6906280517578
y: 268.81158447265625
z: -0.3419995903968811
visibility: 0.9995650053024292
","x: 148.28335571289062
y: 269.03765869140625
z: -0.3421114683151245
visibility: 0.999564528465271
","x: 141.93658447265625
y: 268.47003173828125
z: -0.34552350640296936
visibility: 0.9993632435798645
","x: 140.62118530273438
y: 268.68951416015625
z: -0.34556910395622253
visibility: 0.9992614984512329
","x: 139.5123291015625
y: 268.94622802734375
z: -0.34562167525291443
visibility: 0.999181866645813
","x: 148.75225830078125
y: 272.06158447265625
z: -0.23390328884124756
visibility: 0.9993873238563538
","x: 136.79733276367188
y: 272.085205078125
z: -0.2510715126991272
visibility: 0.9985116720199585
","x: 146.18885803222656
y: 277.86785888671875
z: -0.3105185925960541
visibility: 0.999621570110321
","x: 141.87901306152344
y: 278.86090087890625
z: -0.31543081998825073
visibility: 0.9994393587112427
","x: 158.75962829589844
y: 300.0798645019531
z: -0.13763904571533203
visibility: 0.9997835159301758
","x: 126.56005096435547
y: 299.5529479980469
z: -0.174585223197937
visibility: 0.9993332028388977
","x: 175.06704711914062
y: 304.98388671875
z: -0.245977520942688
visibility: 0.9843480587005615
","x: 112.57058715820312
y: 322.88128662109375
z: -0.23001456260681152
visibility: 0.8457385897636414
","x: 177.85023498535156
y: 270.6595153808594
z: -0.44561767578125
visibility: 0.977954089641571
","x: 105.23391723632812
y: 301.3780517578125
z: -0.3646402955055237
visibility: 0.8528048396110535
","x: 176.53497314453125
y: 278.3009033203125
z: -0.4863956868648529
visibility: 0.9537707567214966
","x: 102.96402740478516
y: 296.4427795410156
z: -0.39880990982055664
visibility: 0.8079603910446167
","x: 172.04539489746094
y: 279.9753112792969
z: -0.490461528301239
visibility: 0.9553703665733337
","x: 103.12356567382812
y: 292.730224609375
z: -0.40769052505493164
visibility: 0.8088088035583496
","x: 176.25369262695312
y: 262.94775390625
z: -0.4532322287559509
visibility: 0.940066933631897
","x: 104.38907623291016
y: 294.8653564453125
z: -0.3728692829608917
visibility: 0.792238175868988
","x: 148.24215698242188
y: 384.0553283691406
z: 0.014868097379803658
visibility: 0.9995064735412598
","x: 132.46539306640625
y: 381.53662109375
z: -0.014887914061546326
visibility: 0.9996997714042664
","x: 134.16517639160156
y: 447.35400390625
z: 0.04794001951813698
visibility: 0.9344125390052795
","x: 135.8602752685547
y: 445.872802734375
z: -0.06965421140193939
visibility: 0.9638796448707581
","x: 122.727783203125
y: 501.30633544921875
z: 0.22754573822021484
visibility: 0.9394509196281433
","x: 135.72088623046875
y: 514.1900024414062
z: 0.0479801669716835
visibility: 0.9794415235519409
","x: 113.98797607421875
y: 502.98388671875
z: 0.2411230504512787
visibility: 0.870060920715332
","x: 137.82591247558594
y: 522.1827392578125
z: 0.05475500971078873
visibility: 0.8945392370223999
","x: 131.94448852539062
y: 523.6527099609375
z: 0.14940141141414642
visibility: 0.953482449054718
","x: 136.6382598876953
y: 533.4212646484375
z: -0.06399751454591751
visibility: 0.9750849604606628
",,,,,,,,,,,,,,,,,,,,,,,,,,,,,,,,,,,,,,,,,,
28,"x: 143.68031311035156
y: 276.19976806640625
z: -0.13140325248241425
visibility: 0.9997026920318604
","x: 143.6253204345703
y: 272.0863037109375
z: -0.1172395572066307
visibility: 0.999424397945404
","x: 143.9274444580078
y: 272.09698486328125
z: -0.1172681599855423
visibility: 0.9994124174118042
","x: 144.24378967285156
y: 271.91461181640625
z: -0.1172974556684494
visibility: 0.9994322657585144
","x: 141.72222900390625
y: 271.5235290527344
z: -0.1329427808523178
visibility: 0.9993116855621338
","x: 140.83673095703125
y: 271.3341369628906
z: -0.13295376300811768
visibility: 0.9992002248764038
","x: 139.88491821289062
y: 271.11187744140625
z: -0.13300494849681854
visibility: 0.9991589188575745
","x: 142.10598754882812
y: 272.275390625
z: -0.03154546767473221
visibility: 0.9991227388381958
","x: 135.99267578125
y: 272.1594543457031
z: -0.10523941367864609
visibility: 0.9984806180000305
","x: 143.3643035888672
y: 280.4837341308594
z: -0.09686166793107986
visibility: 0.9994138479232788
","x: 141.28221130371094
y: 280.6042785644531
z: -0.1177479475736618
visibility: 0.9993170499801636
","x: 143.93414306640625
y: 302.3595886230469
z: 0.05147648975253105
visibility: 0.9996414184570312
","x: 124.95244598388672
y: 302.1785888671875
z: -0.1661098301410675
visibility: 0.9993095397949219
","x: 146.43312072753906
y: 312.51385498046875
z: 0.12540805339813232
visibility: 0.909857451915741
","x: 107.78704833984375
y: 311.18829345703125
z: -0.17852510511875153
visibility: 0.8530362248420715
","x: 140.27284240722656
y: 332.6114196777344
z: 0.11478990316390991
visibility: 0.904376745223999
","x: 105.8426513671875
y: 294.2284851074219
z: -0.2633177638053894
visibility: 0.8533522486686707
","x: 138.72021484375
y: 341.87158203125
z: 0.11355085670948029
visibility: 0.8803556561470032
","x: 104.4753646850586
y: 290.9903564453125
z: -0.2898526191711426
visibility: 0.8092021346092224
","x: 137.30679321289062
y: 338.2162780761719
z: 0.09726203978061676
visibility: 0.8821814060211182
","x: 105.21354675292969
y: 287.3224182128906
z: -0.2935953736305237
visibility: 0.8100236058235168
","x: 138.19482421875
y: 333.83575439453125
z: 0.10776416212320328
visibility: 0.8687286972999573
","x: 105.86908721923828
y: 289.09014892578125
z: -0.2659265398979187
visibility: 0.7911967635154724
","x: 135.94114685058594
y: 386.8231201171875
z: 0.05655105784535408
visibility: 0.9993801116943359
","x: 128.1097412109375
y: 386.57720947265625
z: -0.05662454292178154
visibility: 0.9996480345726013
","x: 131.02252197265625
y: 449.9442138671875
z: 0.09741341322660446
visibility: 0.8914650678634644
","x: 136.748291015625
y: 448.6477966308594
z: -0.10267876088619232
visibility: 0.9611143469810486
","x: 118.18217468261719
y: 504.1187744140625
z: 0.19539156556129456
visibility: 0.9279391169548035
","x: 136.18157958984375
y: 514.9056396484375
z: -0.06630498915910721
visibility: 0.9784538745880127
","x: 111.5222396850586
y: 504.1529846191406
z: 0.20366355776786804
visibility: 0.8682141304016113
","x: 135.4012451171875
y: 523.7816772460938
z: -0.06521186232566833
visibility: 0.896806001663208
","x: 129.0458984375
y: 524.8969116210938
z: 0.13935969769954681
visibility: 0.9428474307060242
","x: 136.67758178710938
y: 534.3585815429688
z: -0.1475878655910492
visibility: 0.9732093214988708
",,,,,,,,,,,,,,,,,,,,,,,,,,,,,,,,,,,,,,,,,,
29,"x: 142.5963897705078
y: 284.720703125
z: 0.14219585061073303
visibility: 0.9997223019599915
","x: 142.73045349121094
y: 279.6829528808594
z: 0.1633158028125763
visibility: 0.9994667768478394
","x: 143.29019165039062
y: 279.65216064453125
z: 0.16328054666519165
visibility: 0.9994520545005798
","x: 143.69688415527344
y: 279.51824951171875
z: 0.1632702648639679
visibility: 0.9994775056838989
","x: 140.98031616210938
y: 278.5577392578125
z: 0.1444711983203888
visibility: 0.9993680715560913
","x: 140.17950439453125
y: 277.9422607421875
z: 0.14445464313030243
visibility: 0.9992687106132507
","x: 139.12155151367188
y: 277.1616516113281
z: 0.1443730890750885
visibility: 0.999236524105072
","x: 140.9936065673828
y: 279.0435791015625
z: 0.2343810498714447
visibility: 0.9991828799247742
","x: 134.44105529785156
y: 280.02581787109375
z: 0.15003857016563416
visibility: 0.9986237287521362
","x: 142.16204833984375
y: 289.2407531738281
z: 0.16844986379146576
visibility: 0.9994182586669922
","x: 140.08721923828125
y: 288.3780212402344
z: 0.1437419354915619
visibility: 0.9993445873260498
","x: 136.11988830566406
y: 314.2718505859375
z: 0.2836962342262268
visibility: 0.999595582485199
","x: 125.07079315185547
y: 303.7308349609375
z: 0.0596863254904747
visibility: 0.9993752241134644
","x: 136.71031188964844
y: 347.80194091796875
z: 0.2915617525577545
visibility: 0.8233925104141235
","x: 121.80363464355469
y: 341.91021728515625
z: -0.05717281624674797
visibility: 0.863541841506958
","x: 136.09124755859375
y: 371.9366760253906
z: 0.2537090480327606
visibility: 0.82033771276474
","x: 147.392822265625
y: 361.48114013671875
z: -0.12205185741186142
visibility: 0.8563530445098877
","x: 135.63626098632812
y: 381.12713623046875
z: 0.2515275776386261
visibility: 0.8009633421897888
","x: 151.20675659179688
y: 372.0534973144531
z: -0.14155270159244537
visibility: 0.8135175704956055
","x: 136.54017639160156
y: 378.0899658203125
z: 0.2484501600265503
visibility: 0.8023266792297363
","x: 152.45387268066406
y: 366.48443603515625
z: -0.12882684171199799
visibility: 0.8127070069313049
","x: 136.6779022216797
y: 374.74957275390625
