uscmakers/ReverseChoreography/data/6_sad_girlz_luv_money_amaarae.csv
,NOSE,LEFT_EYE_INNER,LEFT_EYE,LEFT_EYE_OUTER,RIGHT_EYE_INNER,RIGHT_EYE,RIGHT_EYE_OUTER,LEFT_EAR,RIGHT_EAR,MOUTH_LEFT,MOUTH_RIGHT,LEFT_SHOULDER,RIGHT_SHOULDER,LEFT_ELBOW,RIGHT_ELBOW,LEFT_WRIST,RIGHT_WRIST,LEFT_PINKY,RIGHT_PINKY,LEFT_INDEX,RIGHT_INDEX,LEFT_THUMB,RIGHT_THUMB,LEFT_HIP,RIGHT_HIP,LEFT_KNEE,RIGHT_KNEE,LEFT_ANKLE,RIGHT_ANKLE,LEFT_HEEL,RIGHT_HEEL,LEFT_FOOT_INDEX,RIGHT_FOOT_INDEX,WRIST,THUMB_CPC,THUMB_MCP,THUMB_IP,THUMB_TIP,INDEX_FINGER_MCP,INDEX_FINGER_PIP,INDEX_FINGER_DIP,INDEX_FINGER_TIP,MIDDLE_FINGER_MCP,MIDDLE_FINGER_PIP,MIDDLE_FINGER_DIP,MIDDLE_FINGER_TIP,RING_FINGER_PIP,RING_FINGER_DIP,RING_FINGER_TIP,RING_FINGER_MCP,PINKY_MCP,PINKY_PIP,PINKY_DIP,PINKY_TIP,WRIST2,THUMB_CPC2,THUMB_MCP2,THUMB_IP2,THUMB_TIP2,INDEX_FINGER_MCP2,INDEX_FINGER_PIP2,INDEX_FINGER_DIP2,INDEX_FINGER_TIP2,MIDDLE_FINGER_MCP2,MIDDLE_FINGER_PIP2,MIDDLE_FINGER_DIP2,MIDDLE_FINGER_TIP2,RING_FINGER_PIP2,RING_FINGER_DIP2,RING_FINGER_TIP2,RING_FINGER_MCP2,PINKY_MCP2,PINKY_PIP2,PINKY_DIP2,PINKY_TIP2
0,"x: 180.08135986328125
y: 282.0372314453125
z: -0.27247679233551025
visibility: 0.9999953508377075
","x: 182.19845581054688
y: 275.45916748046875
z: -0.2628384232521057
visibility: 0.9999912977218628
","x: 183.43292236328125
y: 275.21893310546875
z: -0.262871652841568
visibility: 0.9999899864196777
","x: 184.8020477294922
y: 275.0728759765625
z: -0.2629079520702362
visibility: 0.9999881982803345
","x: 179.16983032226562
y: 276.0513610839844
z: -0.2601131200790405
visibility: 0.9999904632568359
","x: 178.21585083007812
y: 276.16717529296875
z: -0.2601495385169983
visibility: 0.9999867677688599
","x: 177.24826049804688
y: 276.2785949707031
z: -0.2601492404937744
visibility: 0.9999834299087524
","x: 187.62142944335938
y: 277.41021728515625
z: -0.17497922480106354
visibility: 0.9999904632568359
","x: 176.1981658935547
y: 277.9379577636719
z: -0.16098876297473907
visibility: 0.9999858140945435
","x: 182.58921813964844
y: 287.71417236328125
z: -0.23714978992938995
visibility: 0.9999972581863403
","x: 178.88055419921875
y: 288.7048034667969
z: -0.23349323868751526
visibility: 0.9999959468841553
","x: 200.0918426513672
y: 312.3306884765625
z: -0.10999606549739838
visibility: 0.9999923706054688
","x: 164.74606323242188
y: 311.6143493652344
z: -0.0843036100268364
visibility: 0.9999862909317017
","x: 207.84817504882812
y: 360.1916809082031
z: -0.17428286373615265
visibility: 0.9968704581260681
","x: 156.14459228515625
y: 349.48431396484375
z: -0.11684554815292358
visibility: 0.9586076736450195
","x: 195.02000427246094
y: 350.9074401855469
z: -0.3371146619319916
visibility: 0.9927506446838379
","x: 161.0952606201172
y: 367.2013854980469
z: -0.2863878905773163
visibility: 0.9355815052986145
","x: 189.7598114013672
y: 353.32879638671875
z: -0.37627583742141724
visibility: 0.981056272983551
","x: 162.45228576660156
y: 375.35052490234375
z: -0.3220452666282654
visibility: 0.8967547416687012
","x: 188.63551330566406
y: 343.9937744140625
z: -0.3798384666442871
visibility: 0.9810872673988342
","x: 164.7264404296875
y: 370.6683654785156
z: -0.33640092611312866
visibility: 0.8966572880744934
","x: 189.8765869140625
y: 343.7185974121094
z: -0.340857595205307
visibility: 0.9662910103797913
","x: 164.6832275390625
y: 367.236083984375
z: -0.29577013850212097
visibility: 0.8693345189094543
","x: 190.6561279296875
y: 401.1501770019531
z: -0.009821817278862
visibility: 0.9998819828033447
","x: 170.9105224609375
y: 399.5022888183594
z: 0.009867139160633087
visibility: 0.9999160766601562
","x: 194.3328399658203
y: 461.548828125
z: 0.00048812385648489
visibility: 0.996508777141571
","x: 166.8448944091797
y: 460.1560974121094
z: 0.04406851530075073
visibility: 0.9960801005363464
","x: 198.43655395507812
y: 518.5234985351562
z: 0.11078755557537079
visibility: 0.9957868456840515
","x: 164.31321716308594
y: 516.0628662109375
z: 0.19619455933570862
visibility: 0.9969610571861267
","x: 196.1455078125
y: 528.800048828125
z: 0.11566761881113052
visibility: 0.9441892504692078
","x: 167.0531005859375
y: 523.2938232421875
z: 0.2057056874036789
visibility: 0.9663445353507996
","x: 204.06198120117188
y: 541.721435546875
z: 0.012238896451890469
visibility: 0.9928682446479797
","x: 156.33103942871094
y: 537.015625
z: 0.11102615296840668
visibility: 0.9944716691970825
",,,,,,,,,,,,,,,,,,,,,,,,,,,,,,,,,,,,,,,,,,
1,"x: 180.69639587402344
y: 282.0331115722656
z: -0.26896747946739197
visibility: 0.9999949336051941
","x: 182.88262939453125
y: 275.4806823730469
z: -0.25775080919265747
visibility: 0.9999905228614807
","x: 184.2438507080078
y: 275.29962158203125
z: -0.257793128490448
visibility: 0.9999890327453613
","x: 185.52513122558594
y: 275.20989990234375
z: -0.25782808661460876
visibility: 0.9999872446060181
","x: 179.3906707763672
y: 275.94842529296875
z: -0.2552799582481384
visibility: 0.99998939037323
","x: 178.35829162597656
y: 275.9776611328125
z: -0.2553030550479889
visibility: 0.9999853372573853
","x: 177.3502655029297
y: 275.9957580566406
z: -0.2553043067455292
visibility: 0.9999818801879883
","x: 188.0668487548828
y: 277.5479431152344
z: -0.1643359363079071
visibility: 0.99998939037323
","x: 176.28497314453125
y: 277.8915100097656
z: -0.1531778872013092
visibility: 0.9999843239784241
","x: 183.6361846923828
y: 287.747314453125
z: -0.23221580684185028
visibility: 0.9999970197677612
","x: 179.03469848632812
y: 288.5806884765625
z: -0.2292809933423996
visibility: 0.9999956488609314
","x: 200.30894470214844
y: 313.3045654296875
z: -0.10478244721889496
visibility: 0.9999918341636658
","x: 164.70721435546875
y: 312.54083251953125
z: -0.06957466900348663
visibility: 0.9999843835830688
","x: 207.5976104736328
y: 360.521240234375
z: -0.17756974697113037
visibility: 0.9968359470367432
","x: 156.7815704345703
y: 349.47991943359375
z: -0.11169101297855377
visibility: 0.9558748602867126
","x: 194.6055450439453
y: 350.810302734375
z: -0.3577919602394104
visibility: 0.9929842352867126
","x: 159.11892700195312
y: 366.32098388671875
z: -0.30044883489608765
visibility: 0.9358669519424438
","x: 189.29417419433594
y: 352.204833984375
z: -0.4000001549720764
visibility: 0.9816928505897522
","x: 160.03695678710938
y: 373.1224365234375
z: -0.33978596329689026
visibility: 0.8979703783988953
","x: 188.58847045898438
y: 343.4503173828125
z: -0.4026342034339905
visibility: 0.9817136526107788
","x: 161.45249938964844
y: 368.4496765136719
z: -0.35463792085647583
visibility: 0.8980196118354797
","x: 189.79457092285156
y: 342.83685302734375
z: -0.3615906238555908
visibility: 0.9673470258712769
","x: 162.03866577148438
y: 365.8312683105469
z: -0.31100994348526
visibility: 0.8710598945617676
","x: 190.87155151367188
y: 404.216064453125
z: -0.008954832330346107
visibility: 0.999884307384491
","x: 170.68463134765625
y: 401.5391845703125
z: 0.008971309289336205
visibility: 0.9999166131019592
","x: 194.31019592285156
y: 463.40655517578125
z: 0.004712119698524475
visibility: 0.9966018795967102
","x: 166.8258819580078
y: 460.0784606933594
z: 0.023516638204455376
visibility: 0.9962683320045471
","x: 198.4416046142578
y: 519.7957153320312
z: 0.15881602466106415
visibility: 0.9958176612854004
","x: 164.31527709960938
y: 516.4429321289062
z: 0.19962318241596222
visibility: 0.9970355033874512
","x: 196.14747619628906
y: 528.8348388671875
z: 0.1679799109697342
visibility: 0.944884717464447
","x: 167.19451904296875
y: 523.2964477539062
z: 0.21144983172416687
visibility: 0.9665882587432861
","x: 204.0612030029297
y: 541.8558959960938
z: 0.06168833374977112
visibility: 0.9929323792457581
","x: 156.5867462158203
y: 537.14794921875
z: 0.11352449655532837
visibility: 0.9945849180221558
",,,,,,,,,,,,,,,,,,,,,,,,,,,,,,,,,,,,,,,,,,
2,"x: 181.1207275390625
y: 282.0142517089844
z: -0.26517254114151
visibility: 0.9999942183494568
","x: 183.36203002929688
y: 275.4945983886719
z: -0.2540968358516693
visibility: 0.9999891519546509
","x: 184.77801513671875
y: 275.36474609375
z: -0.2541455328464508
visibility: 0.9999875426292419
","x: 186.03338623046875
y: 275.33074951171875
z: -0.2541884183883667
visibility: 0.9999857544898987
","x: 179.60598754882812
y: 275.8517761230469
z: -0.2515202462673187
visibility: 0.9999872446060181
","x: 178.5228271484375
y: 275.8270263671875
z: -0.25153475999832153
visibility: 0.9999823570251465
","x: 177.48069763183594
y: 275.7937316894531
z: -0.2515324652194977
visibility: 0.9999778270721436
","x: 188.4934844970703
y: 277.7939758300781
z: -0.16075840592384338
visibility: 0.9999879002571106
","x: 176.3724365234375
y: 277.8758544921875
z: -0.14961081743240356
visibility: 0.9999793767929077
","x: 184.24375915527344
y: 287.7804260253906
z: -0.22844234108924866
visibility: 0.999996542930603
","x: 179.1407928466797
y: 288.46484375
z: -0.22558608651161194
visibility: 0.999994695186615
","x: 200.45742797851562
y: 313.933837890625
z: -0.1027272567152977
visibility: 0.9999909400939941
","x: 164.82130432128906
y: 313.36492919921875
z: -0.06605560332536697
visibility: 0.9999770522117615
","x: 207.591064453125
y: 360.8699951171875
z: -0.177944153547287
visibility: 0.9966905117034912
","x: 157.7057342529297
y: 349.4776611328125
z: -0.11206243187189102
visibility: 0.9412796497344971
","x: 194.6038818359375
y: 350.8964538574219
z: -0.3552857041358948
visibility: 0.9929465651512146
","x: 157.44154357910156
y: 363.183837890625
z: -0.31639567017555237
visibility: 0.9266079068183899
","x: 189.28311157226562
y: 352.1062927246094
z: -0.39666542410850525
visibility: 0.9816710352897644
","x: 157.5458526611328
y: 368.497802734375
z: -0.35647064447402954
visibility: 0.8895648121833801
","x: 188.6741180419922
y: 343.440185546875
z: -0.3991844356060028
visibility: 0.9816950559616089
","x: 158.5781707763672
y: 363.5645751953125
z: -0.3724285960197449
visibility: 0.8900575637817383
","x: 189.8913116455078
y: 342.753173828125
z: -0.3589325547218323
visibility: 0.967308759689331
","x: 159.15875244140625
y: 361.5307312011719
z: -0.3281664252281189
visibility: 0.8623271584510803
","x: 190.87030029296875
y: 406.2134094238281
z: -0.00848180241882801
visibility: 0.9998852610588074
","x: 170.47303771972656
y: 403.27154541015625
z: 0.008483481593430042
visibility: 0.9999127984046936
","x: 194.18423461914062
y: 464.22991943359375
z: 0.011722651310265064
visibility: 0.9966814517974854
","x: 166.7769012451172
y: 460.28509521484375
z: 0.04412262141704559
visibility: 0.996417224407196
","x: 198.44073486328125
y: 520.5385131835938
z: 0.16451382637023926
visibility: 0.9958670735359192
","x: 164.14019775390625
y: 516.5501098632812
z: 0.2438081055879593
visibility: 0.9970895648002625
","x: 196.13311767578125
y: 528.8870849609375
z: 0.17339390516281128
visibility: 0.9461005926132202
","x: 167.15090942382812
y: 523.3902587890625
z: 0.2575032711029053
visibility: 0.9665955305099487
","x: 204.09060668945312
y: 541.90380859375
z: 0.06706304103136063
visibility: 0.9930433034896851
","x: 156.5850372314453
y: 537.3145141601562
z: 0.1620180457830429
visibility: 0.9946490526199341
",,,,,,,,,,,,,,,,,,,,,,,,,,,,,,,,,,,,,,,,,,
3,"x: 181.3046417236328
y: 281.8597106933594
z: -0.26209092140197754
visibility: 0.9999937415122986
","x: 183.54286193847656
y: 275.46014404296875
z: -0.2505567967891693
visibility: 0.9999881386756897
","x: 184.9768524169922
y: 275.356201171875
z: -0.2506020665168762
visibility: 0.9999863505363464
","x: 186.22203063964844
y: 275.32952880859375
z: -0.25064167380332947
visibility: 0.9999843835830688
","x: 179.7021484375
y: 275.67071533203125
z: -0.2485828697681427
visibility: 0.9999861121177673
","x: 178.5947265625
y: 275.6167907714844
z: -0.2486024647951126
visibility: 0.9999809861183167
","x: 177.5394287109375
y: 275.55914306640625
z: -0.24860472977161407
visibility: 0.9999763369560242
","x: 188.62135314941406
y: 277.7932434082031
z: -0.15656337141990662
visibility: 0.9999862909317017
","x: 176.44554138183594
y: 277.77789306640625
z: -0.14816012978553772
visibility: 0.9999775886535645
","x: 184.51112365722656
y: 287.6740417480469
z: -0.2251320332288742
visibility: 0.9999960660934448
","x: 179.21945190429688
y: 288.1073303222656
z: -0.22303251922130585
visibility: 0.9999942183494568
","x: 200.54837036132812
y: 313.9105529785156
z: -0.09606995433568954
visibility: 0.9999896287918091
","x: 164.82005310058594
y: 313.5172119140625
z: -0.06614641845226288
visibility: 0.9999749660491943
","x: 207.58892822265625
y: 360.8876953125
z: -0.1695815771818161
visibility: 0.9965801239013672
","x: 157.62539672851562
y: 351.1562805175781
z: -0.11269299685955048
visibility: 0.9389089345932007
","x: 194.6478271484375
y: 350.9006042480469
z: -0.352908730506897
visibility: 0.9930207133293152
","x: 157.02125549316406
y: 363.0171203613281
z: -0.3139006495475769
visibility: 0.9275100231170654
","x: 189.30438232421875
y: 352.0263671875
z: -0.39266297221183777
visibility: 0.98185795545578
","x: 157.930908203125
y: 368.0352783203125
z: -0.3536604344844818
visibility: 0.8912560343742371
","x: 188.83956909179688
y: 343.361083984375
z: -0.3961103558540344
visibility: 0.981868326663971
","x: 158.7772979736328
y: 362.15594482421875
z: -0.3679041266441345
visibility: 0.891740083694458
","x: 190.05677795410156
y: 342.5732421875
z: -0.3566080927848816
visibility: 0.9676476716995239
","x: 159.19088745117188
y: 360.1173400878906
z: -0.3243837356567383
visibility: 0.864172637462616
","x: 190.888427734375
y: 406.055419921875
z: -0.007964356802403927
visibility: 0.9998814463615417
","x: 170.3073272705078
y: 403.45635986328125
z: 0.007947658188641071
visibility: 0.9999120235443115
","x: 194.15484619140625
y: 464.2038269042969
z: 0.021271226927638054
visibility: 0.9966692924499512
","x: 166.73171997070312
y: 460.4522399902344
z: 0.017234239727258682
visibility: 0.9965462684631348
","x: 198.43777465820312
y: 520.80419921875
z: 0.1805209219455719
visibility: 0.9957948923110962
","x: 163.96051025390625
y: 517.162109375
z: 0.1934230774641037
visibility: 0.997145414352417
","x: 196.06158447265625
y: 529.0350952148438
z: 0.19019028544425964
visibility: 0.9465175867080688
","x: 167.1646270751953
y: 524.262451171875
z: 0.2049163579940796
visibility: 0.9667907953262329
","x: 204.09983825683594
y: 541.9098510742188
z: 0.08914847671985626
visibility: 0.9929864406585693
","x: 156.58375549316406
y: 537.8615112304688
z: 0.10628092288970947
visibility: 0.9947103261947632
",,,,,,,,,,,,,,,,,,,,,,,,,,,,,,,,,,,,,,,,,,
4,"x: 181.8239288330078
y: 281.713134765625
z: -0.2607742249965668
visibility: 0.9999930262565613
","x: 184.05642700195312
y: 275.44256591796875
z: -0.24924573302268982
visibility: 0.9999867677688599
","x: 185.43350219726562
y: 275.3563537597656
z: -0.249294251203537
visibility: 0.9999847412109375
","x: 186.6328582763672
y: 275.3420104980469
z: -0.24934335052967072
visibility: 0.9999828338623047
","x: 180.12738037109375
y: 275.45916748046875
z: -0.24736161530017853
visibility: 0.9999842643737793
","x: 178.96165466308594
y: 275.3509826660156
z: -0.24737270176410675
visibility: 0.9999783039093018
","x: 177.86241149902344
y: 275.25628662109375
z: -0.2473752796649933
visibility: 0.9999732375144958
","x: 188.90184020996094
y: 277.8396301269531
z: -0.15526726841926575
visibility: 0.9999845027923584
","x: 176.5963897705078
y: 277.57293701171875
z: -0.14739909768104553
visibility: 0.9999743103981018
","x: 184.91746520996094
y: 287.627197265625
z: -0.2236921340227127
visibility: 0.9999956488609314
","x: 179.5680694580078
y: 287.7352600097656
z: -0.2217874526977539
visibility: 0.999993622303009
","x: 200.56063842773438
y: 313.9483642578125
z: -0.09600074589252472
visibility: 0.99998939037323
","x: 164.80853271484375
y: 313.2991943359375
z: -0.0646870881319046
visibility: 0.999973714351654
","x: 207.57508850097656
y: 361.0775451660156
z: -0.1664983481168747
visibility: 0.9965200424194336
","x: 157.62322998046875
y: 349.17095947265625
z: -0.10057923942804337
visibility: 0.9340988993644714
","x: 194.650146484375
y: 351.058349609375
z: -0.34724003076553345
visibility: 0.9931526184082031
","x: 158.3083953857422
y: 363.10980224609375
z: -0.28150230646133423
visibility: 0.9220975637435913
","x: 189.25286865234375
y: 352.100830078125
z: -0.3893794119358063
visibility: 0.982197642326355
","x: 159.5878448486328
y: 371.1407165527344
z: -0.31883320212364197
visibility: 0.8847069144248962
","x: 188.84915161132812
y: 343.380126953125
z: -0.3928619921207428
visibility: 0.982205331325531
","x: 160.2825927734375
y: 366.7394714355469
z: -0.3348357081413269
visibility: 0.8853147029876709
","x: 190.09957885742188
y: 342.5834655761719
z: -0.3513047397136688
visibility: 0.968195378780365
","x: 161.0806121826172
y: 363.3995361328125
z: -0.2923363447189331
visibility: 0.8571422696113586
","x: 190.890625
y: 406.3201904296875
z: -0.007310985121876001
visibility: 0.9998821020126343
","x: 170.2565460205078
y: 403.9966125488281
z: 0.007296268828213215
visibility: 0.9999125599861145
","x: 194.12782287597656
y: 464.3447570800781
z: 0.04326576739549637
visibility: 0.9966673254966736
","x: 166.70620727539062
y: 461.0670471191406
z: 0.021405860781669617
visibility: 0.9966524243354797
","x: 198.40362548828125
y: 521.17236328125
z: 0.20790067315101624
visibility: 0.995701253414154
","x: 163.73873901367188
y: 518.2771606445312
z: 0.20209959149360657
visibility: 0.9971837997436523
","x: 195.98593139648438
y: 529.1536865234375
z: 0.21844136714935303
visibility: 0.9466357827186584
","x: 167.09727478027344
y: 525.1857299804688
z: 0.21349561214447021
visibility: 0.9666876792907715
","x: 204.10293579101562
y: 541.8743286132812
z: 0.11811505258083344
visibility: 0.9929196834564209
","x: 156.58604431152344
y: 537.99609375
z: 0.11311075836420059
visibility: 0.9947777986526489
","x: 163.41375732421875
y: 377.2868347167969
z: 0.0
","x: 163.89364624023438
y: 372.202880859375
z: -0.00390240247361362
","x: 163.8542022705078
y: 366.6273498535156
z: -0.008392580784857273
","x: 163.36424255371094
y: 362.65997314453125
z: -0.012432106770575047
","x: 163.13558959960938
y: 360.5622863769531
z: -0.016325339674949646
","x: 164.07542419433594
y: 369.9215393066406
z: -0.011937449686229229
","x: 161.25587463378906
y: 364.8120422363281
z: -0.01634562760591507
","x: 160.9170684814453
y: 364.603759765625
z: -0.01834459789097309
","x: 161.55960083007812
y: 366.01202392578125
z: -0.019533656537532806
","x: 162.53823852539062
y: 373.22967529296875
z: -0.012500015087425709
","x: 159.27427673339844
y: 367.5205078125
z: -0.016509467735886574
","x: 158.98065185546875
y: 367.02392578125
z: -0.01609538309276104
","x: 159.69692993164062
y: 368.1789855957031
z: -0.01620110496878624
","x: 160.9569091796875
y: 376.02130126953125
z: -0.01258639246225357
","x: 158.02468872070312
y: 370.67694091796875
z: -0.014928014017641544
","x: 158.1229705810547
y: 370.119140625
z: -0.012855678796768188
","x: 158.9428253173828
y: 371.11712646484375
z: -0.011941066011786461
","x: 159.4795379638672
y: 378.3282165527344
z: -0.013084623962640762
","x: 156.9814453125
y: 374.17608642578125
z: -0.013928384520113468
","x: 157.1977996826172
y: 373.2950439453125
z: -0.012621116824448109
","x: 158.0628204345703
y: 373.8348388671875
z: -0.012049317359924316
","x: 193.48330688476562
y: 353.1799011230469
z: 0.0
","x: 190.98065185546875
y: 346.474609375
z: -1.3622798178403173e-05
","x: 186.5540313720703
y: 341.5476989746094
z: -0.0011610676301643252
","x: 182.90606689453125
y: 338.73193359375
z: -0.00213841930963099
","x: 180.23928833007812
y: 337.1170654296875
z: -0.003095997031778097
","x: 188.23428344726562
y: 343.818359375
z: -0.005315154790878296
","x: 183.9307403564453
y: 341.000244140625
z: -0.007125585339963436
","x: 181.44906616210938
y: 339.65167236328125
z: -0.006796632893383503
","x: 179.62063598632812
y: 338.5888366699219
z: -0.006254616193473339
","x: 188.3304901123047
y: 348.7211608886719
z: -0.006181497126817703
","x: 183.02886962890625
y: 348.31036376953125
z: -0.007911144755780697
","x: 180.59788513183594
y: 348.57513427734375
z: -0.006529620848596096
","x: 179.28233337402344
y: 348.8598327636719
z: -0.005327831953763962
","x: 188.18096923828125
y: 353.6468200683594
z: -0.006690056063234806
","x: 182.94630432128906
y: 353.3617858886719
z: -0.008388017304241657
","x: 180.5233612060547
y: 353.6164855957031
z: -0.006636472884565592
","x: 179.2382354736328
y: 353.76934814453125
z: -0.005273457616567612
","x: 187.87503051757812
y: 358.1268615722656
z: -0.007130281534045935
","x: 183.7584991455078
y: 357.810791015625
z: -0.008476012386381626
","x: 181.70091247558594
y: 357.591552734375
z: -0.007491058204323053
","x: 180.4885711669922
y: 357.4354553222656
z: -0.006502524483948946
"
5,"x: 181.8239288330078
y: 281.713134765625
z: -0.2607742249965668
visibility: 0.9999930262565613
","x: 184.05642700195312
y: 275.44256591796875
z: -0.24924573302268982
visibility: 0.9999867677688599
","x: 185.43350219726562
y: 275.3563537597656
z: -0.249294251203537
visibility: 0.9999847412109375
","x: 186.6328582763672
y: 275.3420104980469
z: -0.24934335052967072
visibility: 0.9999828338623047
","x: 180.12738037109375
y: 275.45916748046875
z: -0.24736161530017853
visibility: 0.9999842643737793
","x: 178.96165466308594
y: 275.3509826660156
z: -0.24737270176410675
visibility: 0.9999783039093018
","x: 177.86241149902344
y: 275.25628662109375
z: -0.2473752796649933
visibility: 0.9999732375144958
","x: 188.90184020996094
y: 277.8396301269531
z: -0.15526726841926575
visibility: 0.9999845027923584
","x: 176.5963897705078
y: 277.57293701171875
z: -0.14739909768104553
visibility: 0.9999743103981018
","x: 184.91746520996094
y: 287.627197265625
z: -0.2236921340227127
visibility: 0.9999956488609314
","x: 179.5680694580078
y: 287.7352600097656
z: -0.2217874526977539
visibility: 0.999993622303009
","x: 200.56063842773438
y: 313.9483642578125
z: -0.09600074589252472
visibility: 0.99998939037323
","x: 164.80853271484375
y: 313.2991943359375
z: -0.0646870881319046
visibility: 0.999973714351654
","x: 207.57508850097656
y: 361.0775451660156
z: -0.1664983481168747
visibility: 0.9965200424194336
","x: 157.62322998046875
y: 349.17095947265625
z: -0.10057923942804337
visibility: 0.9340988993644714
","x: 194.650146484375
y: 351.058349609375
z: -0.34724003076553345
visibility: 0.9931526184082031
","x: 158.3083953857422
y: 363.10980224609375
z: -0.28150230646133423
visibility: 0.9220975637435913
","x: 189.25286865234375
y: 352.100830078125
z: -0.3893794119358063
visibility: 0.982197642326355
","x: 159.5878448486328
y: 371.1407165527344
z: -0.31883320212364197
visibility: 0.8847069144248962
","x: 188.84915161132812
y: 343.380126953125
z: -0.3928619921207428
visibility: 0.982205331325531
","x: 160.2825927734375
y: 366.7394714355469
z: -0.3348357081413269
visibility: 0.8853147029876709
","x: 190.09957885742188
y: 342.5834655761719
z: -0.3513047397136688
visibility: 0.968195378780365
","x: 161.0806121826172
y: 363.3995361328125
z: -0.2923363447189331
visibility: 0.8571422696113586
","x: 190.890625
y: 406.3201904296875
z: -0.007310985121876001
visibility: 0.9998821020126343
","x: 170.2565460205078
y: 403.9966125488281
z: 0.007296268828213215
visibility: 0.9999125599861145
","x: 194.12782287597656
y: 464.3447570800781
z: 0.04326576739549637
visibility: 0.9966673254966736
","x: 166.70620727539062
y: 461.0670471191406
z: 0.021405860781669617
visibility: 0.9966524243354797
","x: 198.40362548828125
y: 521.17236328125
z: 0.20790067315101624
visibility: 0.995701253414154
","x: 163.73873901367188
y: 518.2771606445312
z: 0.20209959149360657
visibility: 0.9971837997436523
","x: 195.98593139648438
y: 529.1536865234375
z: 0.21844136714935303
visibility: 0.9466357827186584
","x: 167.09727478027344
y: 525.1857299804688
z: 0.21349561214447021
visibility: 0.9666876792907715
","x: 204.10293579101562
y: 541.8743286132812
z: 0.11811505258083344
visibility: 0.9929196834564209
","x: 156.58604431152344
y: 537.99609375
z: 0.11311075836420059
visibility: 0.9947777986526489
","x: 163.41375732421875
y: 377.2868347167969
z: 0.0
","x: 163.89364624023438
y: 372.202880859375
z: -0.00390240247361362
","x: 163.8542022705078
y: 366.6273498535156
z: -0.008392580784857273
","x: 163.36424255371094
y: 362.65997314453125
z: -0.012432106770575047
","x: 163.13558959960938
y: 360.5622863769531
z: -0.016325339674949646
","x: 164.07542419433594
y: 369.9215393066406
z: -0.011937449686229229
","x: 161.25587463378906
y: 364.8120422363281
z: -0.01634562760591507
","x: 160.9170684814453
y: 364.603759765625
z: -0.01834459789097309
","x: 161.55960083007812
y: 366.01202392578125
z: -0.019533656537532806
","x: 162.53823852539062
y: 373.22967529296875
z: -0.012500015087425709
","x: 159.27427673339844
y: 367.5205078125
z: -0.016509467735886574
","x: 158.98065185546875
y: 367.02392578125
z: -0.01609538309276104
","x: 159.69692993164062
y: 368.1789855957031
z: -0.01620110496878624
","x: 160.9569091796875
y: 376.02130126953125
z: -0.01258639246225357
","x: 158.02468872070312
y: 370.67694091796875
z: -0.014928014017641544
","x: 158.1229705810547
y: 370.119140625
z: -0.012855678796768188
","x: 158.9428253173828
y: 371.11712646484375
z: -0.011941066011786461
","x: 159.4795379638672
y: 378.3282165527344
z: -0.013084623962640762
","x: 156.9814453125
y: 374.17608642578125
z: -0.013928384520113468
","x: 157.1977996826172
y: 373.2950439453125
z: -0.012621116824448109
","x: 158.0628204345703
y: 373.8348388671875
z: -0.012049317359924316
","x: 193.48330688476562
y: 353.1799011230469
z: 0.0
","x: 190.98065185546875
y: 346.474609375
z: -1.3622798178403173e-05
","x: 186.5540313720703
y: 341.5476989746094
z: -0.0011610676301643252
","x: 182.90606689453125
y: 338.73193359375
z: -0.00213841930963099
","x: 180.23928833007812
y: 337.1170654296875
z: -0.003095997031778097
","x: 188.23428344726562
y: 343.818359375
z: -0.005315154790878296
","x: 183.9307403564453
y: 341.000244140625
z: -0.007125585339963436
","x: 181.44906616210938
y: 339.65167236328125
z: -0.006796632893383503
","x: 179.62063598632812
y: 338.5888366699219
z: -0.006254616193473339
","x: 188.3304901123047
y: 348.7211608886719
z: -0.006181497126817703
","x: 183.02886962890625
y: 348.31036376953125
z: -0.007911144755780697
","x: 180.59788513183594
y: 348.57513427734375
z: -0.006529620848596096
","x: 179.28233337402344
y: 348.8598327636719
z: -0.005327831953763962
","x: 188.18096923828125
y: 353.6468200683594
z: -0.006690056063234806
","x: 182.94630432128906
y: 353.3617858886719
z: -0.008388017304241657
","x: 180.5233612060547
y: 353.6164855957031
z: -0.006636472884565592
","x: 179.2382354736328
y: 353.76934814453125
z: -0.005273457616567612
","x: 187.87503051757812
y: 358.1268615722656
z: -0.007130281534045935
","x: 183.7584991455078
y: 357.810791015625
z: -0.008476012386381626
","x: 181.70091247558594
y: 357.591552734375
z: -0.007491058204323053
","x: 180.4885711669922
y: 357.4354553222656
z: -0.006502524483948946
"
6,"x: 181.8239288330078
y: 281.713134765625
z: -0.2607742249965668
visibility: 0.9999930262565613
","x: 184.05642700195312
y: 275.44256591796875
z: -0.24924573302268982
visibility: 0.9999867677688599
","x: 185.43350219726562
y: 275.3563537597656
z: -0.249294251203537
visibility: 0.9999847412109375
","x: 186.6328582763672
y: 275.3420104980469
z: -0.24934335052967072
visibility: 0.9999828338623047
","x: 180.12738037109375
y: 275.45916748046875
z: -0.24736161530017853
visibility: 0.9999842643737793
","x: 178.96165466308594
y: 275.3509826660156
z: -0.24737270176410675
visibility: 0.9999783039093018
","x: 177.86241149902344
y: 275.25628662109375
z: -0.2473752796649933
visibility: 0.9999732375144958
","x: 188.90184020996094
y: 277.8396301269531
z: -0.15526726841926575
visibility: 0.9999845027923584
","x: 176.5963897705078
y: 277.57293701171875
z: -0.14739909768104553
visibility: 0.9999743103981018
","x: 184.91746520996094
y: 287.627197265625
z: -0.2236921340227127
visibility: 0.9999956488609314
","x: 179.5680694580078
y: 287.7352600097656
z: -0.2217874526977539
visibility: 0.999993622303009
","x: 200.56063842773438
y: 313.9483642578125
z: -0.09600074589252472
visibility: 0.99998939037323
","x: 164.80853271484375
y: 313.2991943359375
z: -0.0646870881319046
visibility: 0.999973714351654
","x: 207.57508850097656
y: 361.0775451660156
z: -0.1664983481168747
visibility: 0.9965200424194336
","x: 157.62322998046875
y: 349.17095947265625
z: -0.10057923942804337
visibility: 0.9340988993644714
","x: 194.650146484375
y: 351.058349609375
z: -0.34724003076553345
visibility: 0.9931526184082031
","x: 158.3083953857422
y: 363.10980224609375
z: -0.28150230646133423
visibility: 0.9220975637435913
","x: 189.25286865234375
y: 352.100830078125
z: -0.3893794119358063
visibility: 0.982197642326355
","x: 159.5878448486328
y: 371.1407165527344
z: -0.31883320212364197
visibility: 0.8847069144248962
","x: 188.84915161132812
y: 343.380126953125
z: -0.3928619921207428
visibility: 0.982205331325531
","x: 160.2825927734375
y: 366.7394714355469
z: -0.3348357081413269
visibility: 0.8853147029876709
","x: 190.09957885742188
y: 342.5834655761719
z: -0.3513047397136688
visibility: 0.968195378780365
","x: 161.0806121826172
y: 363.3995361328125
z: -0.2923363447189331
visibility: 0.8571422696113586
","x: 190.890625
y: 406.3201904296875
z: -0.007310985121876001
visibility: 0.9998821020126343
","x: 170.2565460205078
y: 403.9966125488281
z: 0.007296268828213215
visibility: 0.9999125599861145
","x: 194.12782287597656
y: 464.3447570800781
z: 0.04326576739549637
visibility: 0.9966673254966736
","x: 166.70620727539062
y: 461.0670471191406
z: 0.021405860781669617
visibility: 0.9966524243354797
","x: 198.40362548828125
y: 521.17236328125
z: 0.20790067315101624
visibility: 0.995701253414154
","x: 163.73873901367188
y: 518.2771606445312
z: 0.20209959149360657
visibility: 0.9971837997436523
","x: 195.98593139648438
y: 529.1536865234375
z: 0.21844136714935303
visibility: 0.9466357827186584
","x: 167.09727478027344
y: 525.1857299804688
z: 0.21349561214447021
visibility: 0.9666876792907715
","x: 204.10293579101562
y: 541.8743286132812
z: 0.11811505258083344
visibility: 0.9929196834564209
","x: 156.58604431152344
y: 537.99609375
z: 0.11311075836420059
visibility: 0.9947777986526489
","x: 163.41375732421875
y: 377.2868347167969
z: 0.0
","x: 163.89364624023438
y: 372.202880859375
z: -0.00390240247361362
","x: 163.8542022705078
y: 366.6273498535156
z: -0.008392580784857273
","x: 163.36424255371094
y: 362.65997314453125
z: -0.012432106770575047
","x: 163.13558959960938
y: 360.5622863769531
z: -0.016325339674949646
","x: 164.07542419433594
y: 369.9215393066406
z: -0.011937449686229229
","x: 161.25587463378906
y: 364.8120422363281
z: -0.01634562760591507
","x: 160.9170684814453
y: 364.603759765625
z: -0.01834459789097309
","x: 161.55960083007812
y: 366.01202392578125
z: -0.019533656537532806
","x: 162.53823852539062
y: 373.22967529296875
z: -0.012500015087425709
","x: 159.27427673339844
y: 367.5205078125
z: -0.016509467735886574
","x: 158.98065185546875
y: 367.02392578125
z: -0.01609538309276104
","x: 159.69692993164062
y: 368.1789855957031
z: -0.01620110496878624
","x: 160.9569091796875
y: 376.02130126953125
z: -0.01258639246225357
","x: 158.02468872070312
y: 370.67694091796875
z: -0.014928014017641544
","x: 158.1229705810547
y: 370.119140625
z: -0.012855678796768188
","x: 158.9428253173828
y: 371.11712646484375
z: -0.011941066011786461
","x: 159.4795379638672
y: 378.3282165527344
z: -0.013084623962640762
","x: 156.9814453125
y: 374.17608642578125
z: -0.013928384520113468
","x: 157.1977996826172
y: 373.2950439453125
z: -0.012621116824448109
","x: 158.0628204345703
y: 373.8348388671875
z: -0.012049317359924316
","x: 193.48330688476562
y: 353.1799011230469
z: 0.0
","x: 190.98065185546875
y: 346.474609375
z: -1.3622798178403173e-05
","x: 186.5540313720703
y: 341.5476989746094
z: -0.0011610676301643252
","x: 182.90606689453125
y: 338.73193359375
z: -0.00213841930963099
","x: 180.23928833007812
y: 337.1170654296875
z: -0.003095997031778097
","x: 188.23428344726562
y: 343.818359375
z: -0.005315154790878296
","x: 183.9307403564453
y: 341.000244140625
z: -0.007125585339963436
","x: 181.44906616210938
y: 339.65167236328125
z: -0.006796632893383503
","x: 179.62063598632812
y: 338.5888366699219
z: -0.006254616193473339
","x: 188.3304901123047
y: 348.7211608886719
z: -0.006181497126817703
","x: 183.02886962890625
y: 348.31036376953125
z: -0.007911144755780697
","x: 180.59788513183594
y: 348.57513427734375
z: -0.006529620848596096
","x: 179.28233337402344
y: 348.8598327636719
z: -0.005327831953763962
","x: 188.18096923828125
y: 353.6468200683594
z: -0.006690056063234806
","x: 182.94630432128906
y: 353.3617858886719
z: -0.008388017304241657
","x: 180.5233612060547
y: 353.6164855957031
z: -0.006636472884565592
","x: 179.2382354736328
y: 353.76934814453125
z: -0.005273457616567612
","x: 187.87503051757812
y: 358.1268615722656
z: -0.007130281534045935
","x: 183.7584991455078
y: 357.810791015625
z: -0.008476012386381626
","x: 181.70091247558594
y: 357.591552734375
z: -0.007491058204323053
","x: 180.4885711669922
y: 357.4354553222656
z: -0.006502524483948946
"
7,"x: 182.11361694335938
y: 281.2679138183594
z: -0.26186543703079224
visibility: 0.9999926686286926
","x: 184.52532958984375
y: 275.2155456542969
z: -0.24974112212657928
visibility: 0.9999862313270569
","x: 185.8633270263672
y: 275.26068115234375
z: -0.2497689425945282
visibility: 0.9999842047691345
","x: 187.02320861816406
y: 275.32122802734375
z: -0.24981316924095154
visibility: 0.999982476234436
","x: 180.457275390625
y: 274.8616943359375
z: -0.2482178956270218
visibility: 0.9999830722808838
","x: 179.22528076171875
y: 274.73382568359375
z: -0.24823376536369324
visibility: 0.9999765753746033
","x: 178.0646209716797
y: 274.67254638671875
z: -0.24824568629264832
visibility: 0.9999709725379944
","x: 189.26756286621094
y: 277.8974609375
z: -0.15819336473941803
visibility: 0.9999841451644897
","x: 176.66796875
y: 277.36956787109375
z: -0.1488870084285736
visibility: 0.9999706745147705
","x: 185.0666046142578
y: 287.4671630859375
z: -0.22459593415260315
visibility: 0.9999954700469971
","x: 179.6563720703125
y: 287.33868408203125
z: -0.22223007678985596
visibility: 0.9999929666519165
","x: 200.63319396972656
y: 314.1463317871094
z: -0.10661069303750992
visibility: 0.9999896287918091
","x: 164.84539794921875
y: 314.9451904296875
z: -0.06139363721013069
visibility: 0.999971330165863
","x: 208.7396240234375
y: 360.5401306152344
z: -0.18904714286327362
visibility: 0.996677041053772
","x: 159.57215881347656
y: 353.1408996582031
z: -0.09030750393867493
visibility: 0.9290211796760559
","x: 195.22512817382812
y: 351.0102844238281
z: -0.37442904710769653
visibility: 0.993640124797821
","x: 153.61610412597656
y: 362.17626953125
z: -0.2819327116012573
visibility: 0.9248387217521667
","x: 189.53123474121094
y: 351.5994567871094
z: -0.41769203543663025
visibility: 0.9834033846855164
","x: 150.96632385253906
y: 365.8346252441406
z: -0.3193761706352234
visibility: 0.8897637724876404
","x: 189.02674865722656
y: 343.0326843261719
z: -0.4198855459690094
visibility: 0.9834078550338745
","x: 150.9985809326172
y: 362.2984619140625
z: -0.33799827098846436
visibility: 0.8907659649848938
","x: 190.23617553710938
y: 342.248779296875
z: -0.3780369162559509
visibility: 0.9702887535095215
","x: 152.74716186523438
y: 360.8127136230469
z: -0.29468029737472534
visibility: 0.8640213012695312
","x: 191.36224365234375
y: 408.9255065917969
z: -0.00800556130707264
visibility: 0.9998846054077148
","x: 170.26007080078125
y: 406.6714172363281
z: 0.007974224165081978
visibility: 0.9999140501022339
","x: 194.1569366455078
y: 465.4446716308594
z: 0.03332129865884781
visibility: 0.9966104030609131
","x: 166.67977905273438
y: 461.41241455078125
z: 0.011760363355278969
visibility: 0.9966962933540344
","x: 198.3412628173828
y: 521.4869384765625
z: 0.2049395740032196
visibility: 0.9954926371574402
","x: 163.72767639160156
y: 518.2588500976562
z: 0.19047102332115173
visibility: 0.9971478581428528
","x: 195.80661010742188
y: 529.2672119140625
z: 0.21644902229309082
visibility: 0.9464821815490723
","x: 167.0985870361328
y: 525.281494140625
z: 0.20231842994689941
visibility: 0.9661935567855835
","x: 204.2882537841797
y: 541.8804321289062
z: 0.11771389096975327
visibility: 0.9927259683609009
","x: 156.5932159423828
y: 538.0670166015625
z: 0.1036941409111023
visibility: 0.9947469234466553
",,,,,,,,,,,,,,,,,,,,,,"x: 194.5948486328125
y: 350.0980224609375
z: 0.0
","x: 191.81524658203125
y: 344.4469909667969
z: -0.0001484706881456077
","x: 187.95535278320312
y: 340.17425537109375
z: -0.0021595710422843695
","x: 185.0950927734375
y: 336.8809509277344
z: -0.004088463727384806
","x: 183.20089721679688
y: 333.15533447265625
z: -0.005886449478566647
","x: 188.49728393554688
y: 341.9108581542969
z: -0.006881788372993469
","x: 183.3713836669922
y: 342.9148864746094
z: -0.009515680372714996
","x: 181.3018798828125
y: 344.53106689453125
z: -0.00975390337407589
","x: 180.3935546875
y: 345.88201904296875
z: -0.00960841216146946
","x: 189.05133056640625
y: 346.6080017089844
z: -0.00823515560477972
","x: 183.81398010253906
y: 348.57476806640625
z: -0.010738392360508442
","x: 181.429931640625
y: 349.7408447265625
z: -0.009907207451760769
","x: 180.35398864746094
y: 350.3636474609375
z: -0.009314042516052723
","x: 189.46018981933594
y: 351.49151611328125
z: -0.009190404787659645
","x: 184.62054443359375
y: 353.6224365234375
z: -0.01134102139621973
","x: 182.27468872070312
y: 354.63433837890625
z: -0.009796591475605965
","x: 181.0656280517578
y: 355.0749206542969
z: -0.008767155930399895
","x: 189.7242889404297
y: 356.0699462890625
z: -0.010069130919873714
","x: 185.99200439453125
y: 358.28314208984375
z: -0.01182214543223381
","x: 184.26303100585938
y: 359.01812744140625
z: -0.010879927314817905
","x: 183.35211181640625
y: 359.29986572265625
z: -0.01003129780292511
"
8,"x: 182.11361694335938
y: 281.2679138183594
z: -0.26186543703079224
visibility: 0.9999926686286926
","x: 184.52532958984375
y: 275.2155456542969
z: -0.24974112212657928
visibility: 0.9999862313270569
","x: 185.8633270263672
y: 275.26068115234375
z: -0.2497689425945282
visibility: 0.9999842047691345
","x: 187.02320861816406
y: 275.32122802734375
z: -0.24981316924095154
visibility: 0.999982476234436
","x: 180.457275390625
y: 274.8616943359375
z: -0.2482178956270218
visibility: 0.9999830722808838
","x: 179.22528076171875
y: 274.73382568359375
z: -0.24823376536369324
visibility: 0.9999765753746033
","x: 178.0646209716797
y: 274.67254638671875
z: -0.24824568629264832
visibility: 0.9999709725379944
","x: 189.26756286621094
y: 277.8974609375
z: -0.15819336473941803
visibility: 0.9999841451644897
","x: 176.66796875
y: 277.36956787109375
z: -0.1488870084285736
visibility: 0.9999706745147705
","x: 185.0666046142578
y: 287.4671630859375
z: -0.22459593415260315
visibility: 0.9999954700469971
","x: 179.6563720703125
y: 287.33868408203125
z: -0.22223007678985596
visibility: 0.9999929666519165
","x: 200.63319396972656
y: 314.1463317871094
z: -0.10661069303750992
visibility: 0.9999896287918091
","x: 164.84539794921875
y: 314.9451904296875
z: -0.06139363721013069
visibility: 0.999971330165863
","x: 208.7396240234375
y: 360.5401306152344
z: -0.18904714286327362
visibility: 0.996677041053772
","x: 159.57215881347656
y: 353.1408996582031
z: -0.09030750393867493
visibility: 0.9290211796760559
","x: 195.22512817382812
y: 351.0102844238281
z: -0.37442904710769653
visibility: 0.993640124797821
","x: 153.61610412597656
y: 362.17626953125
z: -0.2819327116012573
visibility: 0.9248387217521667
","x: 189.53123474121094
y: 351.5994567871094
z: -0.41769203543663025
visibility: 0.9834033846855164
","x: 150.96632385253906
y: 365.8346252441406
z: -0.3193761706352234
visibility: 0.8897637724876404
","x: 189.02674865722656
y: 343.0326843261719
z: -0.4198855459690094
visibility: 0.9834078550338745
","x: 150.9985809326172
y: 362.2984619140625
z: -0.33799827098846436
visibility: 0.8907659649848938
","x: 190.23617553710938
y: 342.248779296875
z: -0.3780369162559509
visibility: 0.9702887535095215
","x: 152.74716186523438
y: 360.8127136230469
z: -0.29468029737472534
visibility: 0.8640213012695312
","x: 191.36224365234375
y: 408.9255065917969
z: -0.00800556130707264
visibility: 0.9998846054077148
","x: 170.26007080078125
y: 406.6714172363281
z: 0.007974224165081978
visibility: 0.9999140501022339
","x: 194.1569366455078
y: 465.4446716308594
z: 0.03332129865884781
visibility: 0.9966104030609131
","x: 166.67977905273438
y: 461.41241455078125
z: 0.011760363355278969
visibility: 0.9966962933540344
","x: 198.3412628173828
y: 521.4869384765625
z: 0.2049395740032196
visibility: 0.9954926371574402
","x: 163.72767639160156
y: 518.2588500976562
z: 0.19047102332115173
visibility: 0.9971478581428528
","x: 195.80661010742188
y: 529.2672119140625
z: 0.21644902229309082
visibility: 0.9464821815490723
","x: 167.0985870361328
y: 525.281494140625
z: 0.20231842994689941
visibility: 0.9661935567855835
","x: 204.2882537841797
y: 541.8804321289062
z: 0.11771389096975327
visibility: 0.9927259683609009
","x: 156.5932159423828
y: 538.0670166015625
z: 0.1036941409111023
visibility: 0.9947469234466553
",,,,,,,,,,,,,,,,,,,,,,"x: 194.5948486328125
y: 350.0980224609375
z: 0.0
","x: 191.81524658203125
y: 344.4469909667969
z: -0.0001484706881456077
","x: 187.95535278320312
y: 340.17425537109375
z: -0.0021595710422843695
","x: 185.0950927734375
y: 336.8809509277344
z: -0.004088463727384806
","x: 183.20089721679688
y: 333.15533447265625
z: -0.005886449478566647
","x: 188.49728393554688
y: 341.9108581542969
z: -0.006881788372993469
","x: 183.3713836669922
y: 342.9148864746094
z: -0.009515680372714996
","x: 181.3018798828125
y: 344.53106689453125
z: -0.00975390337407589
","x: 180.3935546875
y: 345.88201904296875
z: -0.00960841216146946
","x: 189.05133056640625
y: 346.6080017089844
z: -0.00823515560477972
","x: 183.81398010253906
y: 348.57476806640625
z: -0.010738392360508442
","x: 181.429931640625
y: 349.7408447265625
z: -0.009907207451760769
","x: 180.35398864746094
y: 350.3636474609375
z: -0.009314042516052723
","x: 189.46018981933594
y: 351.49151611328125
z: -0.009190404787659645
","x: 184.62054443359375
y: 353.6224365234375
z: -0.01134102139621973
","x: 182.27468872070312
y: 354.63433837890625
z: -0.009796591475605965
","x: 181.0656280517578
y: 355.0749206542969
z: -0.008767155930399895
","x: 189.7242889404297
y: 356.0699462890625
z: -0.010069130919873714
","x: 185.99200439453125
y: 358.28314208984375
z: -0.01182214543223381
","x: 184.26303100585938
y: 359.01812744140625
z: -0.010879927314817905
","x: 183.35211181640625
y: 359.29986572265625
z: -0.01003129780292511
"
9,"x: 182.1764373779297
y: 277.8734130859375
z: -0.24471338093280792
visibility: 0.9999719262123108
","x: 184.70860290527344
y: 272.59637451171875
z: -0.23251327872276306
visibility: 0.9999473094940186
","x: 186.09454345703125
y: 272.94134521484375
z: -0.23256146907806396
visibility: 0.9999424815177917
","x: 187.28402709960938
y: 273.2788391113281
z: -0.23259857296943665
visibility: 0.9999423027038574
","x: 180.50892639160156
y: 271.8200988769531
z: -0.228750079870224
visibility: 0.9999382495880127
","x: 179.2714385986328
y: 271.74884033203125
z: -0.22876815497875214
visibility: 0.9999198913574219
","x: 178.11224365234375
y: 271.7386779785156
z: -0.22876830399036407
visibility: 0.9999040961265564
","x: 189.6353302001953
y: 276.80322265625
z: -0.14588220417499542
visibility: 0.9999366402626038
","x: 176.87039184570312
y: 275.18096923828125
z: -0.12890145182609558
visibility: 0.9998681545257568
","x: 185.19622802734375
y: 285.25286865234375
z: -0.21170958876609802
visibility: 0.9999838471412659
","x: 179.7255401611328
y: 284.73675537109375
z: -0.2070714235305786
visibility: 0.999975323677063
","x: 201.33099365234375
y: 312.58258056640625
z: -0.10671888291835785
visibility: 0.999985933303833
","x: 165.07669067382812
y: 314.2166442871094
z: -0.05814328044652939
visibility: 0.9999428391456604
","x: 214.7900390625
y: 350.037353515625
z: -0.19171039760112762
visibility: 0.9965716004371643
","x: 153.7378692626953
y: 340.1314697265625
z: -0.1045941710472107
visibility: 0.9244100451469421
","x: 196.32113647460938
y: 350.1884460449219
z: -0.3720467984676361
visibility: 0.9932434558868408
","x: 154.1240234375
y: 355.2841796875
z: -0.28974494338035583
visibility: 0.9107607007026672
","x: 191.61489868164062
y: 353.50164794921875
z: -0.41562700271606445
visibility: 0.9825337529182434
","x: 153.7542266845703
y: 363.4637451171875
z: -0.33075156807899475
visibility: 0.8726873993873596
","x: 189.34881591796875
y: 347.745361328125
z: -0.41783633828163147
visibility: 0.9824729561805725
","x: 154.5316925048828
y: 361.8516540527344
z: -0.34359678626060486
visibility: 0.8738677501678467
","x: 190.284912109375
y: 345.60601806640625
z: -0.3738134503364563
visibility: 0.9689135551452637
","x: 155.6821746826172
y: 358.62384033203125
z: -0.3009214997291565
visibility: 0.8468756079673767
","x: 192.0809326171875
y: 408.3885192871094
z: -0.007947849109768867
visibility: 0.9998816847801208
","x: 170.57644653320312
y: 406.56085205078125
z: 0.007919127121567726
visibility: 0.9999091029167175
","x: 194.3533172607422
y: 465.7623291015625
z: 0.042914681136608124
visibility: 0.9961488246917725
","x: 166.8892059326172
y: 461.41339111328125
z: 0.009984412230551243
visibility: 0.9964108467102051
","x: 198.51324462890625
y: 521.892333984375
z: 0.2071615755558014
visibility: 0.9947806000709534
","x: 163.61630249023438
y: 516.8389282226562
z: 0.17011608183383942
visibility: 0.9968240261077881
","x: 196.182861328125
y: 529.3502197265625
z: 0.21791282296180725
visibility: 0.9398300647735596
","x: 166.85885620117188
y: 524.3847045898438
z: 0.1805936098098755
visibility: 0.9618130922317505
","x: 204.2974853515625
y: 541.961181640625
z: 0.11856166273355484
visibility: 0.9915642142295837
","x: 156.59719848632812
y: 537.9883422851562
z: 0.08238710463047028
visibility: 0.9942067861557007
",,,,,,,,,,,,,,,,,,,,,,,,,,,,,,,,,,,,,,,,,,
10,"x: 182.69512939453125
y: 275.74005126953125
z: -0.2507758140563965
visibility: 0.9999623894691467
","x: 185.25709533691406
y: 270.6931457519531
z: -0.24012155830860138
visibility: 0.9999295473098755
","x: 186.617919921875
y: 271.1745300292969
z: -0.24017897248268127
visibility: 0.9999200105667114
","x: 187.8317108154297
y: 271.67852783203125
z: -0.24021708965301514
visibility: 0.999922513961792
","x: 180.9569091796875
y: 269.82623291015625
z: -0.23716051876544952
visibility: 0.9999219179153442
","x: 179.63568115234375
y: 269.8118896484375
z: -0.2371811866760254
visibility: 0.999900221824646
","x: 178.4381866455078
y: 269.8760681152344
z: -0.23718135058879852
visibility: 0.9998863935470581
","x: 190.28335571289062
y: 275.85052490234375
z: -0.15384063124656677
visibility: 0.9999200701713562
","x: 177.1588134765625
y: 273.8455810546875
z: -0.13395492732524872
visibility: 0.9998558759689331
","x: 185.6818084716797
y: 283.2333068847656
z: -0.21601112186908722
visibility: 0.9999778866767883
","x: 180.18252563476562
y: 282.7716369628906
z: -0.20786166191101074
visibility: 0.9999680519104004
","x: 201.76406860351562
y: 310.7309265136719
z: -0.1332779824733734
visibility: 0.9999769330024719
","x: 166.0247344970703
y: 311.1996765136719
z: -0.0967678427696228
visibility: 0.9999333620071411
","x: 220.0841064453125
y: 331.8396301269531
z: -0.27939388155937195
visibility: 0.9965580105781555
","x: 152.34068298339844
y: 330.99896240234375
z: -0.2145097702741623
visibility: 0.9293404817581177
","x: 199.07470703125
y: 327.9169006347656
z: -0.43307942152023315
visibility: 0.9921120405197144
","x: 153.6640167236328
y: 344.91094970703125
z: -0.39264607429504395
visibility: 0.9107844829559326
","x: 194.8655548095703
y: 332.5535583496094
z: -0.47322043776512146
visibility: 0.9787362813949585
","x: 157.5001220703125
y: 348.91192626953125
z: -0.4324258863925934
visibility: 0.8690145611763
","x: 191.16448974609375
y: 330.9630126953125
z: -0.4630918502807617
visibility: 0.9782257080078125
","x: 161.3887939453125
y: 346.4149475097656
z: -0.4313807487487793
visibility: 0.869239091873169
","x: 191.6593017578125
y: 330.310546875
z: -0.4324575364589691
visibility: 0.9633573889732361
","x: 161.23329162597656
y: 345.21112060546875
z: -0.39790016412734985
visibility: 0.8421021103858948
","x: 192.33981323242188
y: 407.8014831542969
z: -0.0037051434628665447
visibility: 0.9998838305473328
","x: 170.6361846923828
y: 406.22259521484375
z: 0.003588145598769188
visibility: 0.9999060034751892
","x: 194.6478271484375
y: 465.83349609375
z: 0.009758107364177704
visibility: 0.9958279132843018
","x: 166.88711547851562
y: 465.7293701171875
z: 0.005665031261742115
visibility: 0.9960836172103882
","x: 198.4600372314453
y: 521.81787109375
z: 0.1829432249069214
visibility: 0.9942532777786255
","x: 162.8936309814453
y: 517.6759033203125
z: 0.16985788941383362
visibility: 0.996410071849823
","x: 196.13156127929688
y: 529.2268676757812
z: 0.1980985701084137
visibility: 0.9341187477111816
","x: 165.9776153564453
y: 525.9818725585938
z: 0.18059001863002777
visibility: 0.954136073589325
","x: 204.29766845703125
y: 541.9833984375
z: 0.0995897650718689
visibility: 0.9905796647071838
","x: 156.54066467285156
y: 539.2675170898438
z: 0.0798145979642868
visibility: 0.9934738874435425
",,,,,,,,,,,,,,,,,,,,,,,,,,,,,,,,,,,,,,,,,,
11,"x: 182.52012634277344
y: 275.0665588378906
z: -0.23059344291687012
visibility: 0.999958336353302
","x: 185.1945037841797
y: 269.8656921386719
z: -0.21775022149085999
visibility: 0.9999139308929443
","x: 186.54061889648438
y: 270.19512939453125
z: -0.21779504418373108
visibility: 0.9999088048934937
","x: 187.7295379638672
y: 270.5734558105469
z: -0.217820405960083
visibility: 0.9999082684516907
","x: 180.8910369873047
y: 269.3907775878906
z: -0.2139112651348114
visibility: 0.9998994469642639
","x: 179.60386657714844
y: 269.3911437988281
z: -0.21392092108726501
visibility: 0.9998707175254822
","x: 178.4322509765625
y: 269.46038818359375
z: -0.2139318734407425
visibility: 0.9998483061790466
","x: 190.21295166015625
y: 274.35040283203125
z: -0.13573375344276428
visibility: 0.9998975396156311
","x: 177.23707580566406
y: 273.311767578125
z: -0.11539356410503387
visibility: 0.9998160600662231
","x: 185.59649658203125
y: 282.8171691894531
z: -0.19926440715789795
visibility: 0.9999587535858154
","x: 180.119384765625
y: 282.1557922363281
z: -0.19326065480709076
visibility: 0.9999353885650635
","x: 201.4646759033203
y: 310.5692138671875
z: -0.09752028435468674
visibility: 0.9999604821205139
","x: 166.25791931152344
y: 311.25445556640625
z: -0.03579655662178993
visibility: 0.9999035596847534
","x: 218.87356567382812
y: 339.690185546875
z: -0.2540043294429779
visibility: 0.9966236352920532
","x: 149.6121368408203
y: 334.91925048828125
z: 0.010790908709168434
visibility: 0.9348251223564148
","x: 208.45106506347656
y: 306.57049560546875
z: -0.4278565049171448
visibility: 0.9925493597984314
","x: 129.31752014160156
y: 316.029541015625
z: -0.039988625794649124
visibility: 0.9187615513801575
","x: 208.27532958984375
y: 295.7223815917969
z: -0.420846164226532
visibility: 0.9795079231262207
","x: 123.55433654785156
y: 311.2535400390625
z: -0.04988221451640129
visibility: 0.8790769577026367
","x: 206.49526977539062
y: 293.161376953125
z: -0.4039522707462311
visibility: 0.978958785533905
","x: 123.9195556640625
y: 307.58160400390625
z: -0.07120612263679504
visibility: 0.8795743584632874
","x: 205.55079650878906
y: 296.078857421875
z: -0.41346102952957153
visibility: 0.9649426937103271
","x: 126.30147552490234
y: 309.0113525390625
z: -0.05162670090794563
visibility: 0.8550337553024292
","x: 192.33218383789062
y: 402.8987121582031
z: -0.017434190958738327
visibility: 0.9998423457145691
","x: 170.4969482421875
y: 401.93402099609375
z: 0.017442617565393448
visibility: 0.9998692274093628
","x: 194.6441650390625
y: 461.46588134765625
z: -0.034245751798152924
visibility: 0.9956463575363159
","x: 164.77857971191406
y: 462.4305725097656
z: -0.014957042410969734
visibility: 0.9959693551063538
","x: 198.63845825195312
y: 522.5194702148438
z: 0.05675394460558891
visibility: 0.9944095015525818
","x: 163.4291229248047
y: 518.6158447265625
z: 0.10222600400447845
visibility: 0.9963825345039368
","x: 196.46859741210938
y: 530.5558471679688
z: 0.059965550899505615
visibility: 0.9356557726860046
","x: 167.58274841308594
y: 528.8222045898438
z: 0.10801041126251221
visibility: 0.9557183980941772
","x: 204.3902587890625
y: 542.52880859375
z: -0.040847454220056534
visibility: 0.9909139275550842
","x: 155.8723907470703
y: 539.3746337890625
z: 0.015170340426266193
visibility: 0.9935519099235535
","x: 124.75361633300781
y: 315.91973876953125
z: 0.0
","x: 123.85517120361328
y: 310.4726867675781
z: -0.00011433738836785778
","x: 122.17656707763672
y: 305.6948547363281
z: -0.0014956106897443533
","x: 120.13082122802734
y: 303.3153076171875
z: -0.0031704166904091835
","x: 118.1591796875
y: 302.4524230957031
z: -0.004928915295749903
","x: 120.43344116210938
y: 302.4825439453125
z: -0.0038258179556578398
","x: 116.2357177734375
y: 299.02447509765625
z: -0.006493775174021721
","x: 113.58744812011719
y: 298.28424072265625
z: -0.007659105584025383
","x: 111.35284423828125
y: 298.41632080078125
z: -0.008236636407673359
","x: 119.47521209716797
y: 304.81732177734375
z: -0.00556175084784627
","x: 115.05574798583984
y: 301.3421325683594
z: -0.007973157800734043
","x: 112.1941909790039
y: 300.2579650878906
z: -0.008465190418064594
","x: 109.82717895507812
y: 300.1199951171875
z: -0.00884217768907547
","x: 118.74180603027344
y: 307.9391174316406
z: -0.007288373541086912
","x: 114.5257339477539
y: 304.9192810058594
z: -0.00956440344452858
","x: 111.87428283691406
y: 303.738037109375
z: -0.009858524426817894
","x: 109.71341705322266
y: 303.260498046875
z: -0.010100247338414192
","x: 118.2832260131836
y: 311.6644592285156
z: -0.009051809087395668
","x: 115.15023803710938
y: 309.7891540527344
z: -0.011011217720806599
","x: 113.08401489257812
y: 308.802490234375
z: -0.011275239288806915
","x: 111.29597473144531
y: 308.2946472167969
z: -0.011393851600587368
",,,,,,,,,,,,,,,,,,,,,
12,"x: 182.52012634277344
y: 275.0665588378906
z: -0.23059344291687012
visibility: 0.999958336353302
","x: 185.1945037841797
y: 269.8656921386719
z: -0.21775022149085999
visibility: 0.9999139308929443
","x: 186.54061889648438
y: 270.19512939453125
z: -0.21779504418373108
visibility: 0.9999088048934937
","x: 187.7295379638672
y: 270.5734558105469
z: -0.217820405960083
visibility: 0.9999082684516907
","x: 180.8910369873047
y: 269.3907775878906
z: -0.2139112651348114
visibility: 0.9998994469642639
","x: 179.60386657714844
y: 269.3911437988281
z: -0.21392092108726501
visibility: 0.9998707175254822
","x: 178.4322509765625
y: 269.46038818359375
z: -0.2139318734407425
visibility: 0.9998483061790466
","x: 190.21295166015625
y: 274.35040283203125
z: -0.13573375344276428
visibility: 0.9998975396156311
","x: 177.23707580566406
y: 273.311767578125
z: -0.11539356410503387
visibility: 0.9998160600662231
","x: 185.59649658203125
y: 282.8171691894531
z: -0.19926440715789795
visibility: 0.9999587535858154
","x: 180.119384765625
y: 282.1557922363281
z: -0.19326065480709076
visibility: 0.9999353885650635
","x: 201.4646759033203
y: 310.5692138671875
z: -0.09752028435468674
visibility: 0.9999604821205139
","x: 166.25791931152344
y: 311.25445556640625
z: -0.03579655662178993
visibility: 0.9999035596847534
","x: 218.87356567382812
y: 339.690185546875
z: -0.2540043294429779
visibility: 0.9966236352920532
","x: 149.6121368408203
y: 334.91925048828125
z: 0.010790908709168434
visibility: 0.9348251223564148
","x: 208.45106506347656
y: 306.57049560546875
z: -0.4278565049171448
visibility: 0.9925493597984314
","x: 129.31752014160156
y: 316.029541015625
z: -0.039988625794649124
visibility: 0.9187615513801575
","x: 208.27532958984375
y: 295.7223815917969
z: -0.420846164226532
visibility: 0.9795079231262207
","x: 123.55433654785156
y: 311.2535400390625
z: -0.04988221451640129
visibility: 0.8790769577026367
","x: 206.49526977539062
y: 293.161376953125
z: -0.4039522707462311
visibility: 0.978958785533905
","x: 123.9195556640625
y: 307.58160400390625
z: -0.07120612263679504
visibility: 0.8795743584632874
","x: 205.55079650878906
y: 296.078857421875
z: -0.41346102952957153
visibility: 0.9649426937103271
","x: 126.30147552490234
y: 309.0113525390625
z: -0.05162670090794563
visibility: 0.8550337553024292
","x: 192.33218383789062
y: 402.8987121582031
z: -0.017434190958738327
visibility: 0.9998423457145691
","x: 170.4969482421875
y: 401.93402099609375
z: 0.017442617565393448
visibility: 0.9998692274093628
","x: 194.6441650390625
y: 461.46588134765625
z: -0.034245751798152924
visibility: 0.9956463575363159
","x: 164.77857971191406
y: 462.4305725097656
z: -0.014957042410969734
visibility: 0.9959693551063538
","x: 198.63845825195312
y: 522.5194702148438
z: 0.05675394460558891
visibility: 0.9944095015525818
","x: 163.4291229248047
y: 518.6158447265625
z: 0.10222600400447845
visibility: 0.9963825345039368
","x: 196.46859741210938
y: 530.5558471679688
z: 0.059965550899505615
visibility: 0.9356557726860046
","x: 167.58274841308594
y: 528.8222045898438
z: 0.10801041126251221
visibility: 0.9557183980941772
","x: 204.3902587890625
y: 542.52880859375
z: -0.040847454220056534
visibility: 0.9909139275550842
","x: 155.8723907470703
y: 539.3746337890625
z: 0.015170340426266193
visibility: 0.9935519099235535
","x: 124.75361633300781
y: 315.91973876953125
z: 0.0
","x: 123.85517120361328
y: 310.4726867675781
z: -0.00011433738836785778
","x: 122.17656707763672
y: 305.6948547363281
z: -0.0014956106897443533
","x: 120.13082122802734
y: 303.3153076171875
z: -0.0031704166904091835
","x: 118.1591796875
y: 302.4524230957031
z: -0.004928915295749903
","x: 120.43344116210938
y: 302.4825439453125
z: -0.0038258179556578398
","x: 116.2357177734375
y: 299.02447509765625
z: -0.006493775174021721
","x: 113.58744812011719
y: 298.28424072265625
z: -0.007659105584025383
","x: 111.35284423828125
y: 298.41632080078125
z: -0.008236636407673359
","x: 119.47521209716797
y: 304.81732177734375
z: -0.00556175084784627
","x: 115.05574798583984
y: 301.3421325683594
z: -0.007973157800734043
","x: 112.1941909790039
y: 300.2579650878906
z: -0.008465190418064594
","x: 109.82717895507812
y: 300.1199951171875
z: -0.00884217768907547
","x: 118.74180603027344
y: 307.9391174316406
z: -0.007288373541086912
","x: 114.5257339477539
y: 304.9192810058594
z: -0.00956440344452858
","x: 111.87428283691406
y: 303.738037109375
z: -0.009858524426817894
","x: 109.71341705322266
y: 303.260498046875
z: -0.010100247338414192
","x: 118.2832260131836
y: 311.6644592285156
z: -0.009051809087395668
","x: 115.15023803710938
y: 309.7891540527344
z: -0.011011217720806599
","x: 113.08401489257812
y: 308.802490234375
z: -0.011275239288806915
","x: 111.29597473144531
y: 308.2946472167969
z: -0.011393851600587368
",,,,,,,,,,,,,,,,,,,,,
13,"x: 181.97840881347656
y: 274.4891052246094
z: -0.20927424728870392
visibility: 0.9999570846557617
","x: 185.0593719482422
y: 269.9698486328125
z: -0.2013774812221527
visibility: 0.9999153017997742
","x: 186.4855499267578
y: 270.42529296875
z: -0.20140695571899414
visibility: 0.9999127984046936
","x: 187.68832397460938
y: 270.89007568359375
z: -0.20141847431659698
visibility: 0.9999079704284668
","x: 180.8855438232422
y: 269.3210144042969
z: -0.1910354048013687
visibility: 0.9998955130577087
","x: 179.58604431152344
y: 269.2967529296875
z: -0.1910478174686432
visibility: 0.9998713731765747
","x: 178.445556640625
y: 269.3151550292969
z: -0.19103671610355377
visibility: 0.9998513460159302
","x: 190.18995666503906
y: 275.1332702636719
z: -0.1428457796573639
visibility: 0.9998951554298401
","x: 177.38748168945312
y: 273.15447998046875
z: -0.09771128743886948
visibility: 0.9998254776000977
","x: 184.8480987548828
y: 282.7391357421875
z: -0.18905732035636902
visibility: 0.9999533295631409
","x: 179.49620056152344
y: 281.3580627441406
z: -0.1753079742193222
visibility: 0.999933123588562
","x: 195.6506805419922
y: 311.46759033203125
z: -0.16178159415721893
visibility: 0.9999554753303528
","x: 166.1378631591797
y: 311.2249755859375
z: -0.0030766702257096767
visibility: 0.9998862743377686
","x: 194.507568359375
y: 338.7931823730469
z: -0.3396868407726288
visibility: 0.9966119527816772
","x: 146.4774932861328
y: 327.3909912109375
z: 0.10182598978281021
visibility: 0.9379523396492004
","x: 196.23707580566406
y: 295.80755615234375
z: -0.5259378552436829
visibility: 0.9931091666221619
","x: 131.77294921875
y: 295.5386047363281
z: 0.15871813893318176
visibility: 0.9265130162239075
","x: 201.25698852539062
y: 281.4997253417969
z: -0.5642678737640381
visibility: 0.9810521602630615
","x: 127.31571960449219
y: 284.8853759765625
z: 0.16349828243255615
visibility: 0.890020489692688
","x: 204.81349182128906
y: 278.85076904296875
z: -0.5628031492233276
visibility: 0.9805570840835571
","x: 129.3607177734375
y: 281.70697021484375
z: 0.1577383130788803
visibility: 0.8904765844345093
","x: 200.61753845214844
y: 283.4203796386719
z: -0.5313570499420166
visibility: 0.9676913022994995
","x: 131.3631591796875
y: 284.6383056640625
z: 0.15612782537937164
visibility: 0.8683026432991028
","x: 191.7276153564453
y: 405.1822204589844
z: -0.04935325309634209
visibility: 0.9998490810394287
","x: 170.60543823242188
y: 406.56732177734375
z: 0.0492083840072155
visibility: 0.9998785853385925
","x: 196.43701171875
y: 466.9920654296875
z: 0.01756790094077587
visibility: 0.9959743022918701
","x: 164.97999572753906
y: 463.5000915527344
z: 0.05943970009684563
visibility: 0.996070921421051
","x: 205.64488220214844
y: 519.220458984375
z: 0.21548321843147278
visibility: 0.9948681592941284
","x: 163.42449951171875
y: 519.1155395507812
z: 0.2282835990190506
visibility: 0.9966484308242798
","x: 208.1166229248047
y: 523.7127075195312
z: 0.23174640536308289
visibility: 0.9380632638931274
","x: 167.5882568359375
y: 529.6587524414062
z: 0.2408563643693924
visibility: 0.9592851996421814
","x: 204.443115234375
y: 542.6432495117188
z: 0.1476002186536789
visibility: 0.9916527271270752
","x: 154.26113891601562
y: 539.33935546875
z: 0.16510102152824402
visibility: 0.9940812587738037
",,,,,,,,,,,,,,,,,,,,,,,,,,,,,,,,,,,,,,,,,,
14,"x: 180.81478881835938
y: 272.6427307128906
z: -0.2073260098695755
visibility: 0.9999483227729797
","x: 184.6683807373047
y: 268.607177734375
z: -0.20695623755455017
visibility: 0.9999094605445862
","x: 185.94908142089844
y: 268.92645263671875
z: -0.20693233609199524
visibility: 0.9999059438705444
","x: 187.13864135742188
y: 269.25543212890625
z: -0.20690298080444336
visibility: 0.9998997449874878
","x: 180.94573974609375
y: 267.9830627441406
z: -0.19044163823127747
visibility: 0.9998900294303894
","x: 180.05221557617188
y: 267.8963623046875
z: -0.190484419465065
visibility: 0.9998618960380554
","x: 179.4130096435547
y: 267.75921630859375
z: -0.19049927592277527
visibility: 0.9998483061790466
","x: 190.11399841308594
y: 273.6758728027344
z: -0.17589254677295685
visibility: 0.9998843669891357
","x: 181.79991149902344
y: 271.1515197753906
z: -0.09935753047466278
visibility: 0.9997919201850891
","x: 182.7329864501953
y: 280.1617736816406
z: -0.19435016810894012
visibility: 0.9999248385429382
","x: 179.13333129882812
y: 278.8974914550781
z: -0.1725374460220337
visibility: 0.9999094605445862
","x: 194.74888610839844
y: 305.32708740234375
z: -0.2161599099636078
visibility: 0.9999096393585205
","x: 169.03598022460938
y: 308.4035339355469
z: -0.022792281582951546
visibility: 0.999866247177124
","x: 165.99681091308594
y: 302.9805603027344
z: -0.32154253125190735
visibility: 0.9962519407272339
","x: 146.62899780273438
y: 304.1158142089844
z: -0.1481017768383026
visibility: 0.9349600672721863
","x: 153.20147705078125
y: 273.2083740234375
z: -0.3595770597457886
visibility: 0.9911994338035583
","x: 140.94781494140625
y: 271.26361083984375
z: -0.35499998927116394
visibility: 0.9253952503204346
","x: 151.06129455566406
y: 264.1908874511719
z: -0.3930855691432953
visibility: 0.9783913493156433
","x: 146.76290893554688
y: 262.2913513183594
z: -0.3918903172016144
visibility: 0.8852380514144897
","x: 156.0216522216797
y: 261.5765686035156
z: -0.38809067010879517
visibility: 0.9777262806892395
","x: 153.62954711914062
y: 261.2735595703125
z: -0.38158345222473145
visibility: 0.8837811946868896
","x: 157.05538940429688
y: 265.8950500488281
z: -0.3588055968284607
visibility: 0.962207019329071
","x: 152.31051635742188
y: 264.4754333496094
z: -0.3590736985206604
visibility: 0.8617794513702393
","x: 191.81866455078125
y: 397.0054931640625
z: -0.05999692156910896
visibility: 0.9998515844345093
","x: 171.72802734375
y: 401.3885192871094
z: 0.05973988026380539
visibility: 0.999886155128479
","x: 201.67282104492188
y: 462.1380615234375
z: -0.05641179159283638
visibility: 0.9962249994277954
","x: 165.97596740722656
y: 462.0043640136719
z: 0.12507660686969757
visibility: 0.9951908588409424
","x: 220.3869171142578
y: 517.4321899414062
z: 0.04851818457245827
visibility: 0.9953156113624573
","x: 164.0042266845703
y: 519.2561645507812
z: 0.29324930906295776
visibility: 0.9965472221374512
","x: 224.08653259277344
y: 523.06689453125
z: 0.05342359095811844
visibility: 0.9408329725265503
","x: 168.05032348632812
y: 530.4639892578125
z: 0.30521419644355774
visibility: 0.9600798487663269
","x: 218.74928283691406
y: 541.8363647460938
z: -0.058324236422777176
visibility: 0.9923816919326782
","x: 153.44253540039062
y: 539.0347900390625
z: 0.22599990665912628
visibility: 0.9942030906677246
","x: 140.75271606445312
y: 267.625244140625
z: 0.0
","x: 143.90127563476562
y: 273.55096435546875
z: -0.0026257673744112253
","x: 147.60781860351562
y: 276.2237243652344
z: -0.00506046786904335
","x: 149.5665740966797
y: 279.00506591796875
z: -0.007305436301976442
","x: 150.71347045898438
y: 282.02642822265625
z: -0.00904809683561325
","x: 154.1350860595703
y: 262.56536865234375
z: -0.0047603813000023365
","x: 159.93077087402344
y: 257.877197265625
z: -0.0068626063875854015
","x: 162.51905822753906
y: 253.3666229248047
z: -0.00803492870181799
","x: 164.1582489013672
y: 249.253662109375
z: -0.008612663485109806
","x: 152.78732299804688
y: 257.21441650390625
z: -0.004246839787811041
","x: 154.91098022460938
y: 258.0598449707031
z: -0.004125998355448246
","x: 153.3591766357422
y: 260.6764221191406
z: -0.00215655704960227
","x: 151.7957763671875
y: 261.67547607421875
z: -0.001085745170712471
","x: 150.36114501953125
y: 253.90158081054688
z: -0.0039902846328914165
","x: 151.22108459472656
y: 256.04254150390625
z: -0.003984958399087191
","x: 149.9014129638672
y: 258.5149841308594
z: -0.0025667238514870405
","x: 148.6927490234375
y: 259.2569580078125
z: -0.0019280340056866407
","x: 147.62557983398438
y: 251.90902709960938
z: -0.004232618026435375
","x: 147.9691925048828
y: 253.288330078125
z: -0.004397696349769831
","x: 146.60133361816406
y: 255.1490478515625
z: -0.003712865523993969
","x: 145.2273712158203
y: 255.50157165527344
z: -0.0031588298734277487
",,,,,,,,,,,,,,,,,,,,,
15,"x: 180.81478881835938
y: 272.6427307128906
z: -0.2073260098695755
visibility: 0.9999483227729797
","x: 184.6683807373047
y: 268.607177734375
z: -0.20695623755455017
visibility: 0.9999094605445862
","x: 185.94908142089844
y: 268.92645263671875
z: -0.20693233609199524
visibility: 0.9999059438705444
","x: 187.13864135742188
y: 269.25543212890625
z: -0.20690298080444336
visibility: 0.9998997449874878
","x: 180.94573974609375
y: 267.9830627441406
z: -0.19044163823127747
visibility: 0.9998900294303894
","x: 180.05221557617188
y: 267.8963623046875
z: -0.190484419465065
visibility: 0.9998618960380554
","x: 179.4130096435547
y: 267.75921630859375
z: -0.19049927592277527
visibility: 0.9998483061790466
","x: 190.11399841308594
y: 273.6758728027344
z: -0.17589254677295685
visibility: 0.9998843669891357
","x: 181.79991149902344
y: 271.1515197753906
z: -0.09935753047466278
visibility: 0.9997919201850891
","x: 182.7329864501953
y: 280.1617736816406
z: -0.19435016810894012
visibility: 0.9999248385429382
","x: 179.13333129882812
y: 278.8974914550781
z: -0.1725374460220337
visibility: 0.9999094605445862
","x: 194.74888610839844
y: 305.32708740234375
z: -0.2161599099636078
visibility: 0.9999096393585205
","x: 169.03598022460938
y: 308.4035339355469
z: -0.022792281582951546
visibility: 0.999866247177124
","x: 165.99681091308594
y: 302.9805603027344
z: -0.32154253125190735
visibility: 0.9962519407272339
","x: 146.62899780273438
y: 304.1158142089844
z: -0.1481017768383026
visibility: 0.9349600672721863
","x: 153.20147705078125
y: 273.2083740234375
z: -0.3595770597457886
visibility: 0.9911994338035583
","x: 140.94781494140625
y: 271.26361083984375
z: -0.35499998927116394
visibility: 0.9253952503204346
","x: 151.06129455566406
y: 264.1908874511719
z: -0.3930855691432953
visibility: 0.9783913493156433
","x: 146.76290893554688
y: 262.2913513183594
z: -0.3918903172016144
visibility: 0.8852380514144897
","x: 156.0216522216797
y: 261.5765686035156
z: -0.38809067010879517
visibility: 0.9777262806892395
","x: 153.62954711914062
y: 261.2735595703125
z: -0.38158345222473145
visibility: 0.8837811946868896
","x: 157.05538940429688
y: 265.8950500488281
z: -0.3588055968284607
visibility: 0.962207019329071
","x: 152.31051635742188
y: 264.4754333496094
z: -0.3590736985206604
visibility: 0.8617794513702393
","x: 191.81866455078125
y: 397.0054931640625
z: -0.05999692156910896
visibility: 0.9998515844345093
","x: 171.72802734375
y: 401.3885192871094
z: 0.05973988026380539
visibility: 0.999886155128479
","x: 201.67282104492188
y: 462.1380615234375
z: -0.05641179159283638
visibility: 0.9962249994277954
","x: 165.97596740722656
y: 462.0043640136719
z: 0.12507660686969757
visibility: 0.9951908588409424
","x: 220.3869171142578
y: 517.4321899414062
z: 0.04851818457245827
visibility: 0.9953156113624573
","x: 164.0042266845703
y: 519.2561645507812
z: 0.29324930906295776
visibility: 0.9965472221374512
","x: 224.08653259277344
y: 523.06689453125
z: 0.05342359095811844
visibility: 0.9408329725265503
","x: 168.05032348632812
y: 530.4639892578125
z: 0.30521419644355774
visibility: 0.9600798487663269
","x: 218.74928283691406
y: 541.8363647460938
z: -0.058324236422777176
visibility: 0.9923816919326782
","x: 153.44253540039062
y: 539.0347900390625
z: 0.22599990665912628
visibility: 0.9942030906677246
","x: 140.75271606445312
y: 267.625244140625
z: 0.0
","x: 143.90127563476562
y: 273.55096435546875
z: -0.0026257673744112253
","x: 147.60781860351562
y: 276.2237243652344
z: -0.00506046786904335
","x: 149.5665740966797
y: 279.00506591796875
z: -0.007305436301976442
","x: 150.71347045898438
y: 282.02642822265625
z: -0.00904809683561325
","x: 154.1350860595703
y: 262.56536865234375
z: -0.0047603813000023365
","x: 159.93077087402344
y: 257.877197265625
z: -0.0068626063875854015
","x: 162.51905822753906
y: 253.3666229248047
z: -0.00803492870181799
","x: 164.1582489013672
y: 249.253662109375
z: -0.008612663485109806
","x: 152.78732299804688
y: 257.21441650390625
z: -0.004246839787811041
","x: 154.91098022460938
y: 258.0598449707031
z: -0.004125998355448246
","x: 153.3591766357422
y: 260.6764221191406
z: -0.00215655704960227
","x: 151.7957763671875
y: 261.67547607421875
z: -0.001085745170712471
","x: 150.36114501953125
y: 253.90158081054688
z: -0.0039902846328914165
","x: 151.22108459472656
y: 256.04254150390625
z: -0.003984958399087191
","x: 149.9014129638672
y: 258.5149841308594
z: -0.0025667238514870405
","x: 148.6927490234375
y: 259.2569580078125
z: -0.0019280340056866407
","x: 147.62557983398438
y: 251.90902709960938
z: -0.004232618026435375
","x: 147.9691925048828
y: 253.288330078125
z: -0.004397696349769831
","x: 146.60133361816406
y: 255.1490478515625
z: -0.003712865523993969
","x: 145.2273712158203
y: 255.50157165527344
z: -0.0031588298734277487
",,,,,,,,,,,,,,,,,,,,,
16,"x: 185.35951232910156
y: 275.3077392578125
z: -0.0724780336022377
visibility: 0.9999392628669739
","x: 188.8073272705078
y: 272.50750732421875
z: -0.0778307169675827
visibility: 0.9999051094055176
","x: 189.70140075683594
y: 272.64910888671875
z: -0.07783156633377075
visibility: 0.9999008178710938
","x: 190.58473205566406
y: 272.7044372558594
z: -0.0778166800737381
visibility: 0.9998968243598938
","x: 186.8129425048828
y: 272.0035400390625
z: -0.05709589645266533
visibility: 0.9998831748962402
","x: 186.42205810546875
y: 271.9277648925781
z: -0.057099033147096634
visibility: 0.9998507499694824
","x: 186.0756072998047
y: 271.7403869628906
z: -0.05712930113077164
visibility: 0.9998458623886108
","x: 193.13475036621094
y: 277.0425720214844
z: -0.07900731265544891
visibility: 0.9998833537101746
","x: 187.97999572753906
y: 275.0968017578125
z: 0.018391113728284836
visibility: 0.999772846698761
","x: 185.6609649658203
y: 280.4423828125
z: -0.07175865769386292
visibility: 0.9998845458030701
","x: 183.9730224609375
y: 279.8386535644531
z: -0.04440399631857872
visibility: 0.999872088432312
","x: 195.34848022460938
y: 305.71392822265625
z: -0.16669484972953796
visibility: 0.9998897910118103
","x: 177.95851135253906
y: 314.1943664550781
z: 0.08471262454986572
visibility: 0.9998279213905334
","x: 170.8229522705078
y: 298.5259704589844
z: -0.20392481982707977
visibility: 0.9955578446388245
","x: 159.31683349609375
y: 304.630615234375
z: -0.01993967592716217
visibility: 0.9166175723075867
","x: 168.06820678710938
y: 266.9940490722656
z: -0.1677972376346588
visibility: 0.9881499409675598
","x: 165.30946350097656
y: 271.74066162109375
z: -0.198521226644516
visibility: 0.9140205383300781
","x: 167.91378784179688
y: 260.73291015625
z: -0.18999050557613373
visibility: 0.9737910628318787
","x: 170.96498107910156
y: 261.92926025390625
z: -0.22887754440307617
visibility: 0.8657276630401611
","x: 170.147216796875
y: 260.0440368652344
z: -0.19052234292030334
visibility: 0.9725698232650757
","x: 173.96929931640625
y: 262.0720520019531
z: -0.2118387520313263
visibility: 0.8619880080223083
","x: 170.6848907470703
y: 263.6251525878906
z: -0.1675403118133545
visibility: 0.9544243216514587
","x: 172.8489532470703
y: 266.044921875
z: -0.20136848092079163
visibility: 0.8405627012252808
","x: 194.17388916015625
y: 398.01763916015625
z: -0.0644647628068924
visibility: 0.999859094619751
","x: 176.9494171142578
y: 405.2737731933594
z: 0.06435029208660126
visibility: 0.9998939037322998
","x: 205.20872497558594
y: 464.0548400878906
z: -0.05069943144917488
visibility: 0.9965543150901794
","x: 167.10658264160156
y: 462.6556701660156
z: 0.15297004580497742
visibility: 0.9952383637428284
","x: 222.70367431640625
y: 518.047119140625
z: 0.04584074020385742
visibility: 0.9957032203674316
","x: 164.02664184570312
y: 519.9529418945312
z: 0.27731794118881226
visibility: 0.9966799020767212
","x: 224.96878051757812
y: 523.7315673828125
z: 0.05079827457666397
visibility: 0.9429610967636108
","x: 168.0638427734375
y: 531.18212890625
z: 0.2856278121471405
visibility: 0.9622026681900024
","x: 221.9235076904297
y: 541.998779296875
z: -0.043832577764987946
visibility: 0.9930013418197632
","x: 153.1279296875
y: 539.0215454101562
z: 0.2261466532945633
visibility: 0.9944704174995422
",,,,,,,,,,,,,,,,,,,,,,,,,,,,,,,,,,,,,,,,,,
17,"x: 192.27976989746094
y: 275.466796875
z: -0.16014009714126587
visibility: 0.9999260902404785
","x: 194.89109802246094
y: 271.5791015625
z: -0.1578356772661209
visibility: 0.999884843826294
","x: 196.18930053710938
y: 271.55841064453125
z: -0.1578367054462433
visibility: 0.9998809695243835
","x: 197.38687133789062
y: 271.5237121582031
z: -0.15783557295799255
visibility: 0.9998753070831299
","x: 192.25128173828125
y: 271.58160400390625
z: -0.14386142790317535
visibility: 0.9998618364334106
","x: 191.44851684570312
y: 271.6097106933594
z: -0.1438649594783783
visibility: 0.9998257160186768
","x: 190.7351531982422
y: 271.5410461425781
z: -0.14389267563819885
visibility: 0.9998276829719543
","x: 200.3657684326172
y: 275.4508361816406
z: -0.117182157933712
visibility: 0.9998530745506287
","x: 191.46725463867188
y: 274.934814453125
z: -0.051490962505340576
visibility: 0.9997392296791077
","x: 193.9783477783203
y: 280.8030090332031
z: -0.14367172122001648
visibility: 0.9998639225959778
","x: 191.03196716308594
y: 280.39532470703125
z: -0.1248965635895729
visibility: 0.999846875667572
","x: 209.89837646484375
y: 303.3887939453125
z: -0.15174700319766998
visibility: 0.9998586773872375
","x: 184.68797302246094
y: 311.3592224121094
z: 0.025738518685102463
visibility: 0.9997800588607788
","x: 213.75872802734375
y: 310.24896240234375
z: -0.31170251965522766
visibility: 0.9953651428222656
","x: 164.99977111816406
y: 310.7519226074219
z: -0.038279660046100616
visibility: 0.9227609038352966
","x: 204.63096618652344
y: 278.7190856933594
z: -0.47030606865882874
visibility: 0.9880391955375671
","x: 165.49652099609375
y: 283.47003173828125
z: -0.1917114555835724
visibility: 0.9212607741355896
","x: 202.2678680419922
y: 269.979736328125
z: -0.506909191608429
visibility: 0.9735652804374695
","x: 166.5776824951172
y: 277.2353515625
z: -0.21869134902954102
visibility: 0.8751742243766785
","x: 201.6002197265625
y: 269.43841552734375
z: -0.49705585837364197
visibility: 0.971942126750946
","x: 168.5471649169922
y: 276.0962829589844
z: -0.2110852301120758
visibility: 0.8713796138763428
","x: 202.33621215820312
y: 273.59765625
z: -0.4703744947910309
visibility: 0.9528483748435974
","x: 169.07513427734375
y: 278.2779846191406
z: -0.19512751698493958
visibility: 0.8511549830436707
","x: 206.9948272705078
y: 397.7900390625
z: -0.055780135095119476
visibility: 0.9998515844345093
","x: 186.79470825195312
y: 402.8983154296875
z: 0.05561017245054245
visibility: 0.9998863339424133
","x: 214.43560791015625
y: 463.3807678222656
z: -0.053060583770275116
visibility: 0.9967961311340332
","x: 174.76040649414062
y: 459.01416015625
z: 0.09525252133607864
visibility: 0.9952436089515686
","x: 224.05255126953125
y: 519.5125122070312
z: 0.06458340585231781
visibility: 0.9960250854492188
","x: 166.77835083007812
y: 519.88720703125
z: 0.22767047584056854
visibility: 0.9967485666275024
","x: 225.2618865966797
y: 526.0753173828125
z: 0.07101501524448395
visibility: 0.9439694881439209
","x: 170.15834045410156
y: 531.2113647460938
z: 0.23213434219360352
visibility: 0.9636169672012329
","x: 223.1232147216797
y: 543.1983032226562
z: -0.03340065851807594
visibility: 0.9934710264205933
","x: 153.48863220214844
y: 538.75390625
z: 0.16921569406986237
visibility: 0.9945842623710632
","x: 168.4476318359375
y: 271.9914245605469
z: 0.0
","x: 166.7190399169922
y: 275.0986328125
z: -0.0075496188364923
","x: 166.2927703857422
y: 277.7554016113281
z: -0.0138383898884058
","x: 166.14418029785156
y: 282.08746337890625
z: -0.019229929894208908
","x: 166.24241638183594
y: 286.4998779296875
z: -0.02482152357697487
","x: 168.8966064453125
y: 267.5708923339844
z: -0.015508854761719704
","x: 173.09893798828125
y: 269.44683837890625
z: -0.021209167316555977
","x: 176.5232391357422
y: 270.0008239746094
z: -0.024899279698729515
","x: 179.56240844726562
y: 271.2863464355469
z: -0.02716435305774212
","x: 171.1467742919922
y: 265.66790771484375
z: -0.014268634840846062
","x: 175.2894744873047
y: 268.4010009765625
z: -0.019469434395432472
","x: 178.6480712890625
y: 269.39459228515625
z: -0.022108765318989754
","x: 181.55282592773438
y: 270.80194091796875
z: -0.02424493618309498
","x: 172.9088134765625
y: 265.4664611816406
z: -0.01287810318171978
","x: 176.72845458984375
y: 267.67596435546875
z: -0.017134124413132668
","x: 179.60336303710938
y: 269.1728515625
z: -0.018925469368696213
","x: 181.9961700439453
y: 270.83526611328125
z: -0.02029525116086006
","x: 174.1715545654297
y: 266.0824890136719
z: -0.011998538859188557
","x: 177.36053466796875
y: 267.1950378417969
z: -0.015391002409160137
","x: 179.8874969482422
y: 268.4762878417969
z: -0.016563083976507187
","x: 182.04904174804688
y: 270.02008056640625
z: -0.01738886721432209
",,,,,,,,,,,,,,,,,,,,,
18,"x: 192.27976989746094
y: 275.466796875
z: -0.16014009714126587
visibility: 0.9999260902404785
","x: 194.89109802246094
y: 271.5791015625
z: -0.1578356772661209
visibility: 0.999884843826294
","x: 196.18930053710938
y: 271.55841064453125
z: -0.1578367054462433
visibility: 0.9998809695243835
","x: 197.38687133789062
y: 271.5237121582031
z: -0.15783557295799255
visibility: 0.9998753070831299
","x: 192.25128173828125
y: 271.58160400390625
z: -0.14386142790317535
visibility: 0.9998618364334106
","x: 191.44851684570312
y: 271.6097106933594
z: -0.1438649594783783
visibility: 0.9998257160186768
","x: 190.7351531982422
y: 271.5410461425781
z: -0.14389267563819885
visibility: 0.9998276829719543
","x: 200.3657684326172
y: 275.4508361816406
z: -0.117182157933712
visibility: 0.9998530745506287
","x: 191.46725463867188
y: 274.934814453125
z: -0.051490962505340576
visibility: 0.9997392296791077
","x: 193.9783477783203
y: 280.8030090332031
z: -0.14367172122001648
visibility: 0.9998639225959778
","x: 191.03196716308594
y: 280.39532470703125
z: -0.1248965635895729
visibility: 0.999846875667572
","x: 209.89837646484375
y: 303.3887939453125
z: -0.15174700319766998
visibility: 0.9998586773872375
","x: 184.68797302246094
y: 311.3592224121094
z: 0.025738518685102463
visibility: 0.9997800588607788
","x: 213.75872802734375
y: 310.24896240234375
z: -0.31170251965522766
visibility: 0.9953651428222656
","x: 164.99977111816406
y: 310.7519226074219
z: -0.038279660046100616
visibility: 0.9227609038352966
","x: 204.63096618652344
y: 278.7190856933594
z: -0.47030606865882874
visibility: 0.9880391955375671
","x: 165.49652099609375
y: 283.47003173828125
z: -0.1917114555835724
visibility: 0.9212607741355896
","x: 202.2678680419922
y: 269.979736328125
z: -0.506909191608429
visibility: 0.9735652804374695
","x: 166.5776824951172
y: 277.2353515625
z: -0.21869134902954102
visibility: 0.8751742243766785
","x: 201.6002197265625
y: 269.43841552734375
z: -0.49705585837364197
visibility: 0.971942126750946
","x: 168.5471649169922
y: 276.0962829589844
z: -0.2110852301120758
visibility: 0.8713796138763428
","x: 202.33621215820312
y: 273.59765625
z: -0.4703744947910309
visibility: 0.9528483748435974
","x: 169.07513427734375
y: 278.2779846191406
z: -0.19512751698493958
visibility: 0.8511549830436707
","x: 206.9948272705078
y: 397.7900390625
z: -0.055780135095119476
visibility: 0.9998515844345093
","x: 186.79470825195312
y: 402.8983154296875
z: 0.05561017245054245
visibility: 0.9998863339424133
","x: 214.43560791015625
y: 463.3807678222656
z: -0.053060583770275116
visibility: 0.9967961311340332
","x: 174.76040649414062
y: 459.01416015625
z: 0.09525252133607864
visibility: 0.9952436089515686
","x: 224.05255126953125
y: 519.5125122070312
z: 0.06458340585231781
visibility: 0.9960250854492188
","x: 166.77835083007812
y: 519.88720703125
z: 0.22767047584056854
visibility: 0.9967485666275024
","x: 225.2618865966797
y: 526.0753173828125
z: 0.07101501524448395
visibility: 0.9439694881439209
","x: 170.15834045410156
y: 531.2113647460938
z: 0.23213434219360352
visibility: 0.9636169672012329
","x: 223.1232147216797
y: 543.1983032226562
z: -0.03340065851807594
visibility: 0.9934710264205933
","x: 153.48863220214844
y: 538.75390625
z: 0.16921569406986237
visibility: 0.9945842623710632
","x: 168.4476318359375
y: 271.9914245605469
z: 0.0
","x: 166.7190399169922
y: 275.0986328125
z: -0.0075496188364923
","x: 166.2927703857422
y: 277.7554016113281
z: -0.0138383898884058
","x: 166.14418029785156
y: 282.08746337890625
z: -0.019229929894208908
","x: 166.24241638183594
y: 286.4998779296875
z: -0.02482152357697487
","x: 168.8966064453125
y: 267.5708923339844
z: -0.015508854761719704
","x: 173.09893798828125
y: 269.44683837890625
z: -0.021209167316555977
","x: 176.5232391357422
y: 270.0008239746094
z: -0.024899279698729515
","x: 179.56240844726562
y: 271.2863464355469
z: -0.02716435305774212
","x: 171.1467742919922
y: 265.66790771484375
z: -0.014268634840846062
","x: 175.2894744873047
y: 268.4010009765625
z: -0.019469434395432472
","x: 178.6480712890625
y: 269.39459228515625
z: -0.022108765318989754
","x: 181.55282592773438
y: 270.80194091796875
z: -0.02424493618309498
","x: 172.9088134765625
y: 265.4664611816406
z: -0.01287810318171978
","x: 176.72845458984375
y: 267.67596435546875
z: -0.017134124413132668
","x: 179.60336303710938
y: 269.1728515625
z: -0.018925469368696213
","x: 181.9961700439453
y: 270.83526611328125
z: -0.02029525116086006
","x: 174.1715545654297
y: 266.0824890136719
z: -0.011998538859188557
","x: 177.36053466796875
y: 267.1950378417969
z: -0.015391002409160137
","x: 179.8874969482422
y: 268.4762878417969
z: -0.016563083976507187
","x: 182.04904174804688
y: 270.02008056640625
z: -0.01738886721432209
",,,,,,,,,,,,,,,,,,,,,
19,"x: 204.3088836669922
y: 280.0413818359375
z: -0.16893133521080017
visibility: 0.999931275844574
","x: 206.73220825195312
y: 275.6675109863281
z: -0.17770038545131683
visibility: 0.9998924732208252
","x: 208.10244750976562
y: 275.9215087890625
z: -0.17771293222904205
visibility: 0.9998867511749268
","x: 209.43199157714844
y: 276.22369384765625
z: -0.17772063612937927
visibility: 0.9998815059661865
","x: 202.9779815673828
y: 275.4967041015625
z: -0.16271303594112396
visibility: 0.9998726844787598
","x: 201.7767791748047
y: 275.62115478515625
z: -0.16268290579319
visibility: 0.9998397827148438
","x: 200.62335205078125
y: 275.7051696777344
z: -0.16271761059761047
visibility: 0.999842643737793
","x: 211.96217346191406
y: 280.66845703125
z: -0.11408032476902008
visibility: 0.9998584985733032
","x: 199.28195190429688
y: 279.47564697265625
z: -0.07071610540151596
visibility: 0.999760627746582
","x: 206.99295043945312
y: 286.7607727050781
z: -0.16102319955825806
visibility: 0.9998735785484314
","x: 201.75331115722656
y: 285.8415832519531
z: -0.13126620650291443
visibility: 0.9998594522476196
","x: 220.365478515625
y: 310.46954345703125
z: -0.10022497177124023
visibility: 0.9998291730880737
","x: 189.51776123046875
y: 315.5486755371094
z: -0.033357489854097366
visibility: 0.9997885227203369
","x: 230.4521484375
y: 317.47015380859375
z: -0.21639756858348846
visibility: 0.9947558045387268
","x: 168.5621795654297
y: 316.3310852050781
z: -0.15887993574142456
visibility: 0.930325984954834
","x: 225.8736114501953
y: 280.3102722167969
z: -0.3129740059375763
visibility: 0.9858440160751343
","x: 172.79507446289062
y: 288.0425109863281
z: -0.30148589611053467
visibility: 0.9286074638366699
","x: 224.56471252441406
y: 269.1221008300781
z: -0.33713072538375854
visibility: 0.9663829803466797
","x: 173.641357421875
y: 279.2911682128906
z: -0.3313319683074951
visibility: 0.8847763538360596
","x: 222.59963989257812
y: 268.5018615722656
z: -0.3210281729698181
visibility: 0.9630930423736572
","x: 176.1172332763672
y: 276.95794677734375
z: -0.31226009130477905
visibility: 0.880815327167511
","x: 222.13275146484375
y: 273.6922912597656
z: -0.3097321391105652
visibility: 0.9427356719970703
","x: 176.4785614013672
y: 281.0159606933594
z: -0.29908472299575806
visibility: 0.8617057204246521
","x: 216.94168090820312
y: 398.9482421875
z: -0.026601413264870644
visibility: 0.9998568892478943
","x: 195.52513122558594
y: 403.875244140625
z: 0.026372645050287247
visibility: 0.9998836517333984
","x: 221.8828582763672
y: 462.685791015625
z: -0.15745440125465393
visibility: 0.9970053434371948
","x: 184.03042602539062
y: 461.7509460449219
z: 0.024813491851091385
visibility: 0.9953575134277344
","x: 224.3997344970703
y: 518.5652465820312
z: 0.01282938290387392
visibility: 0.9961696863174438
","x: 170.02015686035156
y: 519.6361083984375
z: 0.18441036343574524
visibility: 0.9967512488365173
","x: 224.60362243652344
y: 524.65380859375
z: 0.024692127481102943
visibility: 0.9388415217399597
","x: 172.21644592285156
y: 529.4912109375
z: 0.19528424739837646
visibility: 0.9627746939659119
","x: 223.24977111816406
y: 543.161865234375
z: -0.08149904757738113
visibility: 0.9935728907585144
","x: 159.98858642578125
y: 539.0858764648438
z: 0.10809814929962158
visibility: 0.9945650100708008
",,,,,,,,,,,,,,,,,,,,,,,,,,,,,,,,,,,,,,,,,,
20,"x: 210.5852508544922
y: 264.02447509765625
z: -0.16911320388317108
visibility: 0.9999094605445862
","x: 212.55226135253906
y: 258.7049560546875
z: -0.1554245501756668
visibility: 0.9998622536659241
","x: 213.6243133544922
y: 258.4536437988281
z: -0.1554667204618454
visibility: 0.9998492002487183
","x: 214.6988067626953
y: 258.26324462890625
z: -0.15547727048397064
visibility: 0.9998466372489929
","x: 209.8084259033203
y: 258.9084777832031
z: -0.15200139582157135
visibility: 0.9998289942741394
","x: 208.89266967773438
y: 258.8455810546875
z: -0.1519976705312729
visibility: 0.9997926354408264
","x: 207.8961944580078
y: 258.650146484375
z: -0.152041494846344
visibility: 0.9998042583465576
","x: 216.30340576171875
y: 262.3385009765625
z: -0.0677737146615982
visibility: 0.9998037815093994
","x: 206.4257354736328
y: 262.03631591796875
z: -0.054182399064302444
visibility: 0.9997139573097229
","x: 212.5893096923828
y: 269.4784240722656
z: -0.1387079805135727
visibility: 0.9998510479927063
","x: 209.26318359375
y: 269.3078918457031
z: -0.1329411119222641
visibility: 0.9998445510864258
","x: 225.93716430664062
y: 298.2351989746094
z: -0.05782366544008255
visibility: 0.999744713306427
","x: 196.30108642578125
y: 300.7964172363281
z: -0.03134077414870262
visibility: 0.9997080564498901
","x: 229.46185302734375
y: 314.5049743652344
z: -0.22789010405540466
visibility: 0.9928691983222961
","x: 191.7766876220703
y: 318.6980895996094
z: -0.1613493263721466
visibility: 0.9324403405189514
","x: 219.60418701171875
y: 265.248779296875
z: -0.3790886700153351
visibility: 0.9861340522766113
","x: 193.40121459960938
y: 276.69696044921875
z: -0.3466394543647766
visibility: 0.9339866042137146
","x: 218.27645874023438
y: 250.008056640625
z: -0.4149583876132965
visibility: 0.967476487159729
","x: 190.77597045898438
y: 266.4177551269531
z: -0.38758373260498047
visibility: 0.8926612734794617
","x: 217.9141387939453
y: 247.51190185546875
z: -0.395446240901947
visibility: 0.9641867876052856
","x: 190.9920654296875
y: 264.01861572265625
z: -0.3796251714229584
visibility: 0.888770341873169
","x: 217.6426239013672
y: 253.4170379638672
z: -0.37737348675727844
visibility: 0.9443568587303162
","x: 192.8114776611328
y: 267.3842468261719
z: -0.35010454058647156
visibility: 0.8699678778648376
","x: 221.5248565673828
y: 395.5398864746094
z: -0.009859517216682434
visibility: 0.9998570680618286
","x: 200.1490478515625
y: 394.8318176269531
z: 0.00976198073476553
visibility: 0.9998850226402283
","x: 224.64195251464844
y: 462.6895751953125
z: -0.08303558081388474
visibility: 0.9970839619636536
","x: 189.38870239257812
y: 458.77099609375
z: -0.1235601082444191
visibility: 0.9956896901130676
","x: 224.16036987304688
y: 517.8687133789062
z: 0.14991089701652527
visibility: 0.9959120750427246
","x: 183.925048828125
y: 519.4176635742188
z: 0.01978144980967045
visibility: 0.9967546463012695
","x: 223.3861541748047
y: 523.89599609375
z: 0.16547462344169617
visibility: 0.9235278367996216
","x: 184.3372802734375
y: 527.0352783203125
z: 0.02953892946243286
visibility: 0.955475389957428
","x: 222.66641235351562
y: 543.2465209960938
z: 0.060291044414043427
visibility: 0.9929799437522888
","x: 184.9715576171875
y: 542.7727661132812
z: -0.0826784148812294
visibility: 0.9946295619010925
","x: 193.47406005859375
y: 259.0873718261719
z: 0.0
","x: 190.75094604492188
y: 259.292724609375
z: -0.003868330968543887
","x: 188.17588806152344
y: 259.5069885253906
z: -0.008269193582236767
","x: 185.52447509765625
y: 259.35955810546875
z: -0.01236583013087511
","x: 182.9726104736328
y: 258.6837158203125
z: -0.01627238653600216
","x: 191.81784057617188
y: 263.81341552734375
z: -0.014689029194414616
","x: 192.27011108398438
y: 268.6242370605469
z: -0.020254531875252724
","x: 191.8958740234375
y: 272.37908935546875
z: -0.022050855681300163
","x: 191.66390991210938
y: 275.164306640625
z: -0.022714577615261078
","x: 194.46990966796875
y: 264.80328369140625
z: -0.015103165060281754
","x: 195.03004455566406
y: 270.29150390625
z: -0.020820252597332
","x: 194.5298614501953
y: 274.22735595703125
z: -0.02022862620651722
","x: 194.35696411132812
y: 276.84588623046875
z: -0.019745370373129845
","x: 196.3495330810547
y: 264.7162780761719
z: -0.014768249355256557
","x: 196.97821044921875
y: 269.36346435546875
z: -0.018882403150200844
","x: 196.41685485839844
y: 272.36370849609375
z: -0.016028299927711487
","x: 195.9701385498047
y: 274.69793701171875
z: -0.014068206772208214
","x: 197.53004455566406
y: 264.18231201171875
z: -0.01471008826047182
","x: 198.328369140625
y: 267.83740234375
z: -0.016797468066215515
","x: 197.8612823486328
y: 269.89630126953125
z: -0.01495314110070467
","x: 197.41693115234375
y: 271.6293029785156
z: -0.013489778153598309
",,,,,,,,,,,,,,,,,,,,,
21,"x: 210.5852508544922
y: 264.02447509765625
z: -0.16911320388317108
visibility: 0.9999094605445862
","x: 212.55226135253906
y: 258.7049560546875
z: -0.1554245501756668
visibility: 0.9998622536659241
","x: 213.6243133544922
y: 258.4536437988281
z: -0.1554667204618454
visibility: 0.9998492002487183
","x: 214.6988067626953
y: 258.26324462890625
z: -0.15547727048397064
visibility: 0.9998466372489929
","x: 209.8084259033203
y: 258.9084777832031
z: -0.15200139582157135
visibility: 0.9998289942741394
","x: 208.89266967773438
y: 258.8455810546875
z: -0.1519976705312729
visibility: 0.9997926354408264
","x: 207.8961944580078
y: 258.650146484375
z: -0.152041494846344
visibility: 0.9998042583465576
","x: 216.30340576171875
y: 262.3385009765625
z: -0.0677737146615982
visibility: 0.9998037815093994
","x: 206.4257354736328
y: 262.03631591796875
z: -0.054182399064302444
visibility: 0.9997139573097229
","x: 212.5893096923828
y: 269.4784240722656
z: -0.1387079805135727
visibility: 0.9998510479927063
","x: 209.26318359375
y: 269.3078918457031
z: -0.1329411119222641
visibility: 0.9998445510864258
","x: 225.93716430664062
y: 298.2351989746094
z: -0.05782366544008255
visibility: 0.999744713306427
","x: 196.30108642578125
y: 300.7964172363281
z: -0.03134077414870262
visibility: 0.9997080564498901
","x: 229.46185302734375
y: 314.5049743652344
z: -0.22789010405540466
visibility: 0.9928691983222961
","x: 191.7766876220703
y: 318.6980895996094
z: -0.1613493263721466
visibility: 0.9324403405189514
","x: 219.60418701171875
y: 265.248779296875
z: -0.3790886700153351
visibility: 0.9861340522766113
","x: 193.40121459960938
y: 276.69696044921875
z: -0.3466394543647766
visibility: 0.9339866042137146
","x: 218.27645874023438
y: 250.008056640625
z: -0.4149583876132965
visibility: 0.967476487159729
","x: 190.77597045898438
y: 266.4177551269531
z: -0.38758373260498047
visibility: 0.8926612734794617
","x: 217.9141387939453
y: 247.51190185546875
z: -0.395446240901947
visibility: 0.9641867876052856
","x: 190.9920654296875
y: 264.01861572265625
z: -0.3796251714229584
visibility: 0.888770341873169
","x: 217.6426239013672
y: 253.4170379638672
z: -0.37737348675727844
visibility: 0.9443568587303162
","x: 192.8114776611328
y: 267.3842468261719
z: -0.35010454058647156
visibility: 0.8699678778648376
","x: 221.5248565673828
y: 395.5398864746094
z: -0.009859517216682434
visibility: 0.9998570680618286
","x: 200.1490478515625
y: 394.8318176269531
z: 0.00976198073476553
visibility: 0.9998850226402283
","x: 224.64195251464844
y: 462.6895751953125
z: -0.08303558081388474
visibility: 0.9970839619636536
","x: 189.38870239257812
y: 458.77099609375
z: -0.1235601082444191
visibility: 0.9956896901130676
","x: 224.16036987304688
y: 517.8687133789062
z: 0.14991089701652527
visibility: 0.9959120750427246
","x: 183.925048828125
y: 519.4176635742188
z: 0.01978144980967045
visibility: 0.9967546463012695
","x: 223.3861541748047
y: 523.89599609375
z: 0.16547462344169617
visibility: 0.9235278367996216
","x: 184.3372802734375
y: 527.0352783203125
z: 0.02953892946243286
visibility: 0.955475389957428
","x: 222.66641235351562
y: 543.2465209960938
z: 0.060291044414043427
visibility: 0.9929799437522888
","x: 184.9715576171875
y: 542.7727661132812
z: -0.0826784148812294
visibility: 0.9946295619010925
","x: 193.47406005859375
y: 259.0873718261719
z: 0.0
","x: 190.75094604492188
y: 259.292724609375
z: -0.003868330968543887
","x: 188.17588806152344
y: 259.5069885253906
z: -0.008269193582236767
","x: 185.52447509765625
y: 259.35955810546875
z: -0.01236583013087511
","x: 182.9726104736328
y: 258.6837158203125
z: -0.01627238653600216
","x: 191.81784057617188
y: 263.81341552734375
z: -0.014689029194414616
","x: 192.27011108398438
y: 268.6242370605469
z: -0.020254531875252724
","x: 191.8958740234375
y: 272.37908935546875
z: -0.022050855681300163
","x: 191.66390991210938
y: 275.164306640625
z: -0.022714577615261078
","x: 194.46990966796875
y: 264.80328369140625
z: -0.015103165060281754
","x: 195.03004455566406
y: 270.29150390625
z: -0.020820252597332
","x: 194.5298614501953
y: 274.22735595703125
z: -0.02022862620651722
","x: 194.35696411132812
y: 276.84588623046875
z: -0.019745370373129845
","x: 196.3495330810547
y: 264.7162780761719
z: -0.014768249355256557
","x: 196.97821044921875
y: 269.36346435546875
z: -0.018882403150200844
","x: 196.41685485839844
y: 272.36370849609375
z: -0.016028299927711487
","x: 195.9701385498047
y: 274.69793701171875
z: -0.014068206772208214
","x: 197.53004455566406
y: 264.18231201171875
z: -0.01471008826047182
","x: 198.328369140625
y: 267.83740234375
z: -0.016797468066215515
","x: 197.8612823486328
y: 269.89630126953125
z: -0.01495314110070467
","x: 197.41693115234375
y: 271.6293029785156
z: -0.013489778153598309
",,,,,,,,,,,,,,,,,,,,,
22,"x: 209.09243774414062
y: 267.2945861816406
z: -0.10252898931503296
visibility: 0.9998368620872498
","x: 210.48838806152344
y: 261.90106201171875
z: -0.08761876821517944
visibility: 0.9997678995132446
","x: 211.58078002929688
y: 261.77764892578125
z: -0.08763972669839859
visibility: 0.9997488856315613
","x: 212.61932373046875
y: 261.733154296875
z: -0.08762609958648682
visibility: 0.9997509717941284
","x: 207.2840576171875
y: 261.878662109375
z: -0.08505599200725555
visibility: 0.9996956586837769
","x: 206.22747802734375
y: 261.677978515625
z: -0.08505889773368835
visibility: 0.9996442794799805
","x: 205.31204223632812
y: 261.3436584472656
z: -0.08511074632406235
visibility: 0.9996615648269653
","x: 214.0120391845703
y: 264.89715576171875
z: -0.013624070212244987
visibility: 0.999671220779419
","x: 204.26121520996094
y: 264.58447265625
z: 0.00021335350174922496
visibility: 0.9994096159934998
","x: 211.29360961914062
y: 273.17352294921875
z: -0.07558034360408783
visibility: 0.9997367262840271
","x: 207.65240478515625
y: 272.9931335449219
z: -0.07190846651792526
visibility: 0.9996747970581055
","x: 225.65513610839844
y: 300.4852600097656
z: -0.020259294658899307
visibility: 0.9996132850646973
","x: 195.55128479003906
y: 303.2043151855469
z: 0.002733048750087619
visibility: 0.999412477016449
","x: 222.3798065185547
y: 311.8499450683594
z: -0.17534713447093964
visibility: 0.990954577922821
","x: 190.52487182617188
y: 320.6390075683594
z: -0.13470059633255005
visibility: 0.935075044631958
","x: 211.2498321533203
y: 272.7115478515625
z: -0.29950597882270813
visibility: 0.9862866997718811
","x: 191.3069305419922
y: 277.572265625
z: -0.2879316210746765
visibility: 0.9384608268737793
","x: 207.975341796875
y: 264.7902526855469
z: -0.331869900226593
visibility: 0.9680255651473999
","x: 190.82073974609375
y: 270.8083801269531
z: -0.3239136338233948
visibility: 0.8987452983856201
","x: 207.7886962890625
y: 262.16070556640625
z: -0.3201740086078644
visibility: 0.9647532105445862
","x: 191.0019989013672
y: 269.8684997558594
z: -0.3166325092315674
visibility: 0.8947305083274841
","x: 208.01783752441406
y: 266.04632568359375
z: -0.2984849214553833
visibility: 0.9455460906028748
","x: 193.2235565185547
y: 271.9854431152344
z: -0.2910279631614685
visibility: 0.8764034509658813
","x: 221.40235900878906
y: 396.587646484375
z: -0.0039089336059987545
visibility: 0.9998480081558228
","x: 200.7425079345703
y: 396.38079833984375
z: 0.0037806059699505568
visibility: 0.9998713731765747
","x: 223.72378540039062
y: 461.9136962890625
z: -0.03378261998295784
