uscmakers/ReverseChoreography/data/6_skeletons_keshi.csv
,NOSE,LEFT_EYE_INNER,LEFT_EYE,LEFT_EYE_OUTER,RIGHT_EYE_INNER,RIGHT_EYE,RIGHT_EYE_OUTER,LEFT_EAR,RIGHT_EAR,MOUTH_LEFT,MOUTH_RIGHT,LEFT_SHOULDER,RIGHT_SHOULDER,LEFT_ELBOW,RIGHT_ELBOW,LEFT_WRIST,RIGHT_WRIST,LEFT_PINKY,RIGHT_PINKY,LEFT_INDEX,RIGHT_INDEX,LEFT_THUMB,RIGHT_THUMB,LEFT_HIP,RIGHT_HIP,LEFT_KNEE,RIGHT_KNEE,LEFT_ANKLE,RIGHT_ANKLE,LEFT_HEEL,RIGHT_HEEL,LEFT_FOOT_INDEX,RIGHT_FOOT_INDEX,WRIST2,THUMB_CPC2,THUMB_MCP2,THUMB_IP2,THUMB_TIP2,INDEX_FINGER_MCP2,INDEX_FINGER_PIP2,INDEX_FINGER_DIP2,INDEX_FINGER_TIP2,MIDDLE_FINGER_MCP2,MIDDLE_FINGER_PIP2,MIDDLE_FINGER_DIP2,MIDDLE_FINGER_TIP2,RING_FINGER_PIP2,RING_FINGER_DIP2,RING_FINGER_TIP2,RING_FINGER_MCP2,PINKY_MCP2,PINKY_PIP2,PINKY_DIP2,PINKY_TIP2,WRIST,THUMB_CPC,THUMB_MCP,THUMB_IP,THUMB_TIP,INDEX_FINGER_MCP,INDEX_FINGER_PIP,INDEX_FINGER_DIP,INDEX_FINGER_TIP,MIDDLE_FINGER_MCP,MIDDLE_FINGER_PIP,MIDDLE_FINGER_DIP,MIDDLE_FINGER_TIP,RING_FINGER_PIP,RING_FINGER_DIP,RING_FINGER_TIP,RING_FINGER_MCP,PINKY_MCP,PINKY_PIP,PINKY_DIP,PINKY_TIP
0,"x: 172.65989685058594
y: 279.4154968261719
z: -0.28849542140960693
visibility: 0.9999874830245972
","x: 174.57424926757812
y: 271.613037109375
z: -0.2754072844982147
visibility: 0.9999697208404541
","x: 175.8271942138672
y: 271.20635986328125
z: -0.27547261118888855
visibility: 0.9999723434448242
","x: 177.10440063476562
y: 270.8471984863281
z: -0.2755098044872284
visibility: 0.9999642372131348
","x: 171.02163696289062
y: 272.05908203125
z: -0.2739606201648712
visibility: 0.9999438524246216
","x: 169.73545837402344
y: 271.8739013671875
z: -0.27399516105651855
visibility: 0.9999345541000366
","x: 168.37890625
y: 271.61993408203125
z: -0.2739843428134918
visibility: 0.9999092817306519
","x: 179.9279327392578
y: 271.9409484863281
z: -0.16964271664619446
visibility: 0.9999456405639648
","x: 165.62977600097656
y: 272.0423583984375
z: -0.1641463041305542
visibility: 0.999847412109375
","x: 175.0007781982422
y: 285.0487060546875
z: -0.24689359962940216
visibility: 0.9999711513519287
","x: 170.43887329101562
y: 285.3489990234375
z: -0.24530652165412903
visibility: 0.9999567270278931
","x: 190.07215881347656
y: 312.1190185546875
z: -0.08965152502059937
visibility: 0.9999653100967407
","x: 154.93643188476562
y: 300.2575378417969
z: -0.08263235539197922
visibility: 0.9998375177383423
","x: 195.63258361816406
y: 348.0055236816406
z: -0.15472546219825745
visibility: 0.9767479300498962
","x: 144.06170654296875
y: 341.44085693359375
z: -0.1268082857131958
visibility: 0.9868202805519104
","x: 208.60446166992188
y: 347.1928405761719
z: -0.3698001205921173
visibility: 0.994954526424408
","x: 130.64932250976562
y: 327.2677917480469
z: -0.30933311581611633
visibility: 0.9940062761306763
","x: 215.728271484375
y: 346.9795227050781
z: -0.41338104009628296
visibility: 0.9902358651161194
","x: 124.35697937011719
y: 324.90936279296875
z: -0.3447762727737427
visibility: 0.9881601333618164
","x: 216.19082641601562
y: 342.6571960449219
z: -0.4336659908294678
visibility: 0.9918660521507263
","x: 124.60631561279297
y: 321.2400817871094
z: -0.3615146279335022
visibility: 0.9893932342529297
","x: 212.7539520263672
y: 342.647216796875
z: -0.3837163746356964
visibility: 0.9889019727706909
","x: 127.50575256347656
y: 322.297607421875
z: -0.3210676908493042
visibility: 0.9866824150085449
","x: 177.0985107421875
y: 403.20721435546875
z: 0.006911522708833218
visibility: 0.9995437264442444
","x: 157.96446228027344
y: 399.0686340332031
z: -0.006893052253872156
visibility: 0.9993916749954224
","x: 174.30648803710938
y: 463.05963134765625
z: 0.038834355771541595
visibility: 0.9463228583335876
","x: 159.35281372070312
y: 459.0638427734375
z: 0.006237007677555084
visibility: 0.978392481803894
","x: 164.65980529785156
y: 514.39111328125
z: 0.2301960289478302
visibility: 0.9294883012771606
","x: 158.9001922607422
y: 518.3640747070312
z: 0.17606261372566223
visibility: 0.9602648615837097
","x: 160.1641387939453
y: 520.3427734375
z: 0.24520047008991241
visibility: 0.8494532108306885
","x: 157.011474609375
y: 525.3787841796875
z: 0.18875151872634888
visibility: 0.8066746592521667
","x: 169.31483459472656
y: 539.30908203125
z: 0.1570053994655609
visibility: 0.9482783675193787
","x: 163.56829833984375
y: 541.9537353515625
z: 0.08463944494724274
visibility: 0.9599765539169312
",,,,,,,,,,,,,,,,,,,,,,,,,,,,,,,,,,,,,,,,,,
1,"x: 181.8116455078125
y: 271.7124328613281
z: -0.2570248544216156
visibility: 0.9999866485595703
","x: 182.11839294433594
y: 264.63848876953125
z: -0.24071331322193146
visibility: 0.9999681711196899
","x: 183.1492156982422
y: 264.57220458984375
z: -0.2407962530851364
visibility: 0.9999719262123108
","x: 184.14129638671875
y: 264.52685546875
z: -0.24085919559001923
visibility: 0.9999637603759766
","x: 178.34051513671875
y: 265.2196044921875
z: -0.2426251620054245
visibility: 0.9999393820762634
","x: 176.68605041503906
y: 265.6214599609375
z: -0.24263615906238556
visibility: 0.9999293088912964
","x: 174.9655303955078
y: 266.00933837890625
z: -0.24262504279613495
visibility: 0.9998986124992371
","x: 183.7845916748047
y: 268.0777893066406
z: -0.14568933844566345
visibility: 0.9999478459358215
","x: 170.57540893554688
y: 270.1009826660156
z: -0.1531352996826172
visibility: 0.9998493194580078
","x: 183.6741485595703
y: 278.8426513671875
z: -0.2219582051038742
visibility: 0.9999724626541138
","x: 178.93206787109375
y: 279.87615966796875
z: -0.22431954741477966
visibility: 0.9999582171440125
","x: 195.52401733398438
y: 312.1187438964844
z: -0.09995976090431213
visibility: 0.9999679923057556
","x: 157.88270568847656
y: 308.3233947753906
z: -0.08378076553344727
visibility: 0.9998294711112976
","x: 206.15029907226562
y: 348.6884765625
z: -0.20445117354393005
visibility: 0.9774295687675476
","x: 145.93963623046875
y: 351.3708190917969
z: -0.1417129933834076
visibility: 0.9846349358558655
","x: 217.24795532226562
y: 333.3148193359375
z: -0.4087255895137787
visibility: 0.9948498010635376
","x: 127.12523651123047
y: 339.43133544921875
z: -0.3015201687812805
visibility: 0.9898111820220947
","x: 223.7626953125
y: 329.9932861328125
z: -0.4483211636543274
visibility: 0.9898582100868225
","x: 121.3311767578125
y: 338.9599304199219
z: -0.33150020241737366
visibility: 0.9805706739425659
","x: 223.01925659179688
y: 325.9251708984375
z: -0.4588668942451477
visibility: 0.9914542436599731
","x: 121.37068939208984
y: 334.7008056640625
z: -0.3482256531715393
visibility: 0.9825612306594849
","x: 219.51498413085938
y: 327.04632568359375
z: -0.41874995827674866
visibility: 0.9884103536605835
","x: 124.37677764892578
y: 335.7485656738281
z: -0.3142945170402527
visibility: 0.9798411130905151
","x: 192.66651916503906
y: 404.1752624511719
z: 0.005877469200640917
visibility: 0.9995675683021545
","x: 169.74681091308594
y: 408.99462890625
z: -0.005852838978171349
visibility: 0.9994078278541565
","x: 205.97048950195312
y: 465.7159729003906
z: -0.007555738091468811
visibility: 0.9513300657272339
","x: 174.91297912597656
y: 468.386474609375
z: -0.015842968598008156
visibility: 0.9799094796180725
","x: 216.8287811279297
y: 519.6402587890625
z: 0.1989370733499527
visibility: 0.935853898525238
","x: 179.00758361816406
y: 524.1838989257812
z: 0.18072471022605896
visibility: 0.9633747935295105
","x: 213.09886169433594
y: 528.4346923828125
z: 0.21412932872772217
visibility: 0.8572131991386414
","x: 180.8412322998047
y: 529.6405029296875
z: 0.1959269940853119
visibility: 0.8130690455436707
","x: 225.90921020507812
y: 543.9392700195312
z: 0.11060364544391632
visibility: 0.9522276520729065
","x: 180.37710571289062
y: 549.066650390625
z: 0.09008853137493134
visibility: 0.9625621438026428
","x: 218.4755859375
y: 320.48388671875
z: 0.0
","x: 219.58401489257812
y: 324.3673095703125
z: -0.003868544939905405
","x: 222.14808654785156
y: 327.55584716796875
z: -0.00616559199988842
","x: 223.97283935546875
y: 330.5575256347656
z: -0.008122559636831284
","x: 224.91131591796875
y: 334.0578918457031
z: -0.009901579469442368
","x: 226.34140014648438
y: 323.20941162109375
z: -0.004760307259857655
","x: 230.54452514648438
y: 321.33416748046875
z: -0.00704537145793438
","x: 233.09600830078125
y: 320.1330871582031
z: -0.008583995513617992
","x: 235.1446533203125
y: 319.268310546875
z: -0.009485137648880482
","x: 226.4724884033203
y: 320.565185546875
z: -0.0038853564765304327
","x: 229.06643676757812
y: 318.9656677246094
z: -0.005689929239451885
","x: 230.00637817382812
y: 318.0141296386719
z: -0.006443208083510399
","x: 230.92172241210938
y: 317.4075012207031
z: -0.006865825038403273
","x: 226.247314453125
y: 318.9507751464844
z: -0.003355429507791996
","x: 228.29647827148438
y: 317.7046813964844
z: -0.005282603204250336
","x: 228.0631561279297
y: 317.1434631347656
z: -0.0055889044888317585
","x: 228.01661682128906
y: 316.9736328125
z: -0.005561904516071081
","x: 226.0116729736328
y: 317.91998291015625
z: -0.0032807812094688416
","x: 228.4197540283203
y: 317.17059326171875
z: -0.0047786361537873745
","x: 229.1832733154297
y: 316.68927001953125
z: -0.005157100036740303
","x: 229.91603088378906
y: 316.49786376953125
z: -0.0051736184395849705
",,,,,,,,,,,,,,,,,,,,,
2,"x: 181.8116455078125
y: 271.7124328613281
z: -0.2570248544216156
visibility: 0.9999866485595703
","x: 182.11839294433594
y: 264.63848876953125
z: -0.24071331322193146
visibility: 0.9999681711196899
","x: 183.1492156982422
y: 264.57220458984375
z: -0.2407962530851364
visibility: 0.9999719262123108
","x: 184.14129638671875
y: 264.52685546875
z: -0.24085919559001923
visibility: 0.9999637603759766
","x: 178.34051513671875
y: 265.2196044921875
z: -0.2426251620054245
visibility: 0.9999393820762634
","x: 176.68605041503906
y: 265.6214599609375
z: -0.24263615906238556
visibility: 0.9999293088912964
","x: 174.9655303955078
y: 266.00933837890625
z: -0.24262504279613495
visibility: 0.9998986124992371
","x: 183.7845916748047
y: 268.0777893066406
z: -0.14568933844566345
visibility: 0.9999478459358215
","x: 170.57540893554688
y: 270.1009826660156
z: -0.1531352996826172
visibility: 0.9998493194580078
","x: 183.6741485595703
y: 278.8426513671875
z: -0.2219582051038742
visibility: 0.9999724626541138
","x: 178.93206787109375
y: 279.87615966796875
z: -0.22431954741477966
visibility: 0.9999582171440125
","x: 195.52401733398438
y: 312.1187438964844
z: -0.09995976090431213
visibility: 0.9999679923057556
","x: 157.88270568847656
y: 308.3233947753906
z: -0.08378076553344727
visibility: 0.9998294711112976
","x: 206.15029907226562
y: 348.6884765625
z: -0.20445117354393005
visibility: 0.9774295687675476
","x: 145.93963623046875
y: 351.3708190917969
z: -0.1417129933834076
visibility: 0.9846349358558655
","x: 217.24795532226562
y: 333.3148193359375
z: -0.4087255895137787
visibility: 0.9948498010635376
","x: 127.12523651123047
y: 339.43133544921875
z: -0.3015201687812805
visibility: 0.9898111820220947
","x: 223.7626953125
y: 329.9932861328125
z: -0.4483211636543274
visibility: 0.9898582100868225
","x: 121.3311767578125
y: 338.9599304199219
z: -0.33150020241737366
visibility: 0.9805706739425659
","x: 223.01925659179688
y: 325.9251708984375
z: -0.4588668942451477
visibility: 0.9914542436599731
","x: 121.37068939208984
y: 334.7008056640625
z: -0.3482256531715393
visibility: 0.9825612306594849
","x: 219.51498413085938
y: 327.04632568359375
z: -0.41874995827674866
visibility: 0.9884103536605835
","x: 124.37677764892578
y: 335.7485656738281
z: -0.3142945170402527
visibility: 0.9798411130905151
","x: 192.66651916503906
y: 404.1752624511719
z: 0.005877469200640917
visibility: 0.9995675683021545
","x: 169.74681091308594
y: 408.99462890625
z: -0.005852838978171349
visibility: 0.9994078278541565
","x: 205.97048950195312
y: 465.7159729003906
z: -0.007555738091468811
visibility: 0.9513300657272339
","x: 174.91297912597656
y: 468.386474609375
z: -0.015842968598008156
visibility: 0.9799094796180725
","x: 216.8287811279297
y: 519.6402587890625
z: 0.1989370733499527
visibility: 0.935853898525238
","x: 179.00758361816406
y: 524.1838989257812
z: 0.18072471022605896
visibility: 0.9633747935295105
","x: 213.09886169433594
y: 528.4346923828125
z: 0.21412932872772217
visibility: 0.8572131991386414
","x: 180.8412322998047
y: 529.6405029296875
z: 0.1959269940853119
visibility: 0.8130690455436707
","x: 225.90921020507812
y: 543.9392700195312
z: 0.11060364544391632
visibility: 0.9522276520729065
","x: 180.37710571289062
y: 549.066650390625
z: 0.09008853137493134
visibility: 0.9625621438026428
","x: 218.4755859375
y: 320.48388671875
z: 0.0
","x: 219.58401489257812
y: 324.3673095703125
z: -0.003868544939905405
","x: 222.14808654785156
y: 327.55584716796875
z: -0.00616559199988842
","x: 223.97283935546875
y: 330.5575256347656
z: -0.008122559636831284
","x: 224.91131591796875
y: 334.0578918457031
z: -0.009901579469442368
","x: 226.34140014648438
y: 323.20941162109375
z: -0.004760307259857655
","x: 230.54452514648438
y: 321.33416748046875
z: -0.00704537145793438
","x: 233.09600830078125
y: 320.1330871582031
z: -0.008583995513617992
","x: 235.1446533203125
y: 319.268310546875
z: -0.009485137648880482
","x: 226.4724884033203
y: 320.565185546875
z: -0.0038853564765304327
","x: 229.06643676757812
y: 318.9656677246094
z: -0.005689929239451885
","x: 230.00637817382812
y: 318.0141296386719
z: -0.006443208083510399
","x: 230.92172241210938
y: 317.4075012207031
z: -0.006865825038403273
","x: 226.247314453125
y: 318.9507751464844
z: -0.003355429507791996
","x: 228.29647827148438
y: 317.7046813964844
z: -0.005282603204250336
","x: 228.0631561279297
y: 317.1434631347656
z: -0.0055889044888317585
","x: 228.01661682128906
y: 316.9736328125
z: -0.005561904516071081
","x: 226.0116729736328
y: 317.91998291015625
z: -0.0032807812094688416
","x: 228.4197540283203
y: 317.17059326171875
z: -0.0047786361537873745
","x: 229.1832733154297
y: 316.68927001953125
z: -0.005157100036740303
","x: 229.91603088378906
y: 316.49786376953125
z: -0.0051736184395849705
",,,,,,,,,,,,,,,,,,,,,
3,"x: 186.0994415283203
y: 268.69927978515625
z: -0.1891569197177887
visibility: 0.9999849796295166
","x: 186.5233917236328
y: 262.23748779296875
z: -0.17219585180282593
visibility: 0.9999638199806213
","x: 187.45230102539062
y: 262.2996826171875
z: -0.17226186394691467
visibility: 0.9999671578407288
","x: 188.33140563964844
y: 262.375
z: -0.17233091592788696
visibility: 0.9999594688415527
","x: 182.75485229492188
y: 262.3424377441406
z: -0.17989899218082428
visibility: 0.9999351501464844
","x: 181.12295532226562
y: 262.57568359375
z: -0.17989881336688995
visibility: 0.9999237060546875
","x: 179.54307556152344
y: 262.908203125
z: -0.17989227175712585
visibility: 0.999891996383667
","x: 187.72549438476562
y: 266.37872314453125
z: -0.0797685980796814
visibility: 0.9999434947967529
","x: 175.8892059326172
y: 267.6468505859375
z: -0.1164659708738327
visibility: 0.9998443722724915
","x: 187.87464904785156
y: 276.123291015625
z: -0.1550593078136444
visibility: 0.9999728798866272
","x: 183.4313507080078
y: 276.6873779296875
z: -0.16589835286140442
visibility: 0.9999590516090393
","x: 198.25225830078125
y: 311.8130798339844
z: -0.03964879363775253
visibility: 0.9999686479568481
","x: 161.81027221679688
y: 308.749267578125
z: -0.07776401191949844
visibility: 0.9998208284378052
","x: 210.61256408691406
y: 348.8201904296875
z: -0.12112481892108917
visibility: 0.9775885343551636
","x: 153.6833953857422
y: 350.2691955566406
z: -0.19075998663902283
visibility: 0.9806845784187317
","x: 219.95278930664062
y: 330.68963623046875
z: -0.29396241903305054
visibility: 0.9945094585418701
","x: 147.73666381835938
y: 336.78759765625
z: -0.39079853892326355
visibility: 0.985721230506897
","x: 225.39288330078125
y: 326.86798095703125
z: -0.3293081820011139
visibility: 0.9889384508132935
","x: 145.1968231201172
y: 335.9389953613281
z: -0.43301644921302795
visibility: 0.9746106863021851
","x: 224.46414184570312
y: 322.6611633300781
z: -0.33696210384368896
visibility: 0.990473210811615
","x: 147.23321533203125
y: 332.30169677734375
z: -0.4340241551399231
visibility: 0.9762551784515381
","x: 221.726806640625
y: 324.0034484863281
z: -0.3021519184112549
visibility: 0.9869392514228821
","x: 149.1305389404297
y: 333.2226257324219
z: -0.3980681300163269
visibility: 0.9711818695068359
","x: 195.71640014648438
y: 406.26336669921875
z: 0.0089885164052248
visibility: 0.9995965361595154
","x: 173.44029235839844
y: 413.0968933105469
z: -0.008983010426163673
visibility: 0.9994412660598755
","x: 206.41424560546875
y: 465.66754150390625
z: -0.05903854966163635
visibility: 0.9558693170547485
","x: 176.95199584960938
y: 470.6219482421875
z: -0.05125686526298523
visibility: 0.981406569480896
","x: 216.5145721435547
y: 521.468505859375
z: 0.11592277139425278
visibility: 0.9415790438652039
","x: 181.25721740722656
y: 525.0413818359375
z: 0.15740200877189636
visibility: 0.9663055539131165
","x: 212.98202514648438
y: 531.98193359375
z: 0.12840983271598816
visibility: 0.8655434846878052
","x: 182.9733123779297
y: 529.748779296875
z: 0.17326930165290833
visibility: 0.8218238949775696
","x: 228.29910278320312
y: 544.523681640625
z: 0.027253171429038048
visibility: 0.956068754196167
","x: 182.3836669921875
y: 550.5241088867188
z: 0.07297198474407196
visibility: 0.9651352763175964
",,,,,,,,,,,,,,,,,,,,,,,,,,,,,,,,,,,,,,,,,,
4,"x: 187.50994873046875
y: 268.5283508300781
z: -0.19806301593780518
visibility: 0.9999794960021973
","x: 187.93026733398438
y: 261.9939880371094
z: -0.18215829133987427
visibility: 0.9999552965164185
","x: 188.85494995117188
y: 262.0919189453125
z: -0.18224993348121643
visibility: 0.9999594688415527
","x: 189.75860595703125
y: 262.2023620605469
z: -0.18232664465904236
visibility: 0.9999522566795349
","x: 184.1861114501953
y: 262.1654052734375
z: -0.18859174847602844
visibility: 0.9999163746833801
","x: 182.53607177734375
y: 262.485595703125
z: -0.18857282400131226
visibility: 0.9998982548713684
","x: 180.9474334716797
y: 262.9062805175781
z: -0.18855814635753632
visibility: 0.9998501539230347
","x: 189.47349548339844
y: 266.27069091796875
z: -0.08619904518127441
visibility: 0.9999365210533142
","x: 177.4065704345703
y: 267.8061218261719
z: -0.11687229573726654
visibility: 0.9998100996017456
","x: 189.4491424560547
y: 275.8922119140625
z: -0.16193155944347382
visibility: 0.9999712109565735
","x: 185.04873657226562
y: 276.4981689453125
z: -0.17095664143562317
visibility: 0.9999544620513916
","x: 199.8489990234375
y: 311.1819763183594
z: -0.04666181281208992
visibility: 0.9999688863754272
","x: 163.44972229003906
y: 308.84344482421875
z: -0.07834182679653168
visibility: 0.9997794032096863
","x: 211.05792236328125
y: 348.2959289550781
z: -0.14978435635566711
visibility: 0.9751235246658325
","x: 153.51824951171875
y: 337.2857971191406
z: -0.21368937194347382
visibility: 0.9762051105499268
","x: 222.42950439453125
y: 330.0985412597656
z: -0.34671974182128906
visibility: 0.9938008189201355
","x: 143.49594116210938
y: 335.3918151855469
z: -0.4146244525909424
visibility: 0.9806536436080933
","x: 228.89224243164062
y: 325.4481506347656
z: -0.3861664831638336
visibility: 0.9878444075584412
","x: 140.0785369873047
y: 318.19659423828125
z: -0.4580388069152832
visibility: 0.9673603177070618
","x: 228.4405517578125
y: 320.77691650390625
z: -0.3808804452419281
visibility: 0.9894201159477234
","x: 141.4369354248047
y: 316.03387451171875
z: -0.46211308240890503
visibility: 0.9688984155654907
","x: 224.8188018798828
y: 322.807373046875
z: -0.35527414083480835
visibility: 0.9857403635978699
","x: 143.86251831054688
y: 318.29095458984375
z: -0.42403078079223633
visibility: 0.9625641107559204
","x: 196.876953125
y: 406.8859558105469
z: 0.013353236019611359
visibility: 0.9996307492256165
","x: 174.18328857421875
y: 411.899658203125
z: -0.013322828337550163
visibility: 0.9994754195213318
","x: 206.6581268310547
y: 467.1387023925781
z: -0.03338993340730667
visibility: 0.9599981307983398
","x: 176.07533264160156
y: 471.9581604003906
z: 0.026340922340750694
visibility: 0.9829407334327698
","x: 216.8214569091797
y: 523.2780151367188
z: 0.16912949085235596
visibility: 0.9469345211982727
","x: 181.01947021484375
y: 524.5972290039062
z: 0.24818821251392365
visibility: 0.9690307974815369
","x: 213.55633544921875
y: 534.1959228515625
z: 0.18134139478206635
visibility: 0.8745763301849365
","x: 182.60455322265625
y: 529.4019165039062
z: 0.26533037424087524
visibility: 0.8283008933067322
","x: 229.765869140625
y: 545.19970703125
z: 0.08091378211975098
visibility: 0.9597864151000977
","x: 182.43934631347656
y: 550.2455444335938
z: 0.16601449251174927
visibility: 0.9676731824874878
",,,,,,,,,,,,,,,,,,,,,,,,,,,,,,,,,,,,,,,,,,
5,"x: 188.68228149414062
y: 269.1177062988281
z: -0.22965142130851746
visibility: 0.9999802112579346
","x: 189.45748901367188
y: 262.4776611328125
z: -0.21477630734443665
visibility: 0.9999548196792603
","x: 190.41122436523438
y: 262.60540771484375
z: -0.21485169231891632
visibility: 0.9999586939811707
","x: 191.3296661376953
y: 262.7294616699219
z: -0.21490609645843506
visibility: 0.9999496936798096
","x: 185.6329803466797
y: 262.359375
z: -0.21727493405342102
visibility: 0.9999192357063293
","x: 183.978515625
y: 262.4833068847656
z: -0.2172822505235672
visibility: 0.9999030232429504
","x: 182.36598205566406
y: 262.6662902832031
z: -0.2172660380601883
visibility: 0.9998570084571838
","x: 191.06137084960938
y: 266.4267578125
z: -0.11225070059299469
visibility: 0.999931275844574
","x: 179.0315399169922
y: 266.8909912109375
z: -0.13901212811470032
visibility: 0.9998213052749634
","x: 190.4538116455078
y: 276.1938781738281
z: -0.19173328578472137
visibility: 0.999971866607666
","x: 185.9544677734375
y: 276.6337890625
z: -0.1897078901529312
visibility: 0.999957263469696
","x: 201.1043243408203
y: 311.0671691894531
z: -0.05574057251214981
visibility: 0.9999691247940063
","x: 164.19204711914062
y: 310.57452392578125
z: -0.08843939751386642
visibility: 0.999793291091919
","x: 213.22494506835938
y: 349.1614990234375
z: -0.13145512342453003
visibility: 0.9752981662750244
","x: 155.43031311035156
y: 349.6646423339844
z: -0.2061435878276825
visibility: 0.9767963290214539
","x: 224.30255126953125
y: 329.8402404785156
z: -0.3271945118904114
visibility: 0.9939625263214111
","x: 147.07740783691406
y: 335.81622314453125
z: -0.433675616979599
visibility: 0.9817519187927246
","x: 230.6836395263672
y: 325.3826599121094
z: -0.3664265275001526
visibility: 0.9880717396736145
","x: 144.00494384765625
y: 328.53466796875
z: -0.47949352860450745
visibility: 0.9690846800804138
","x: 230.20909118652344
y: 321.0869140625
z: -0.3771510124206543
visibility: 0.9895690679550171
","x: 145.207763671875
y: 323.8066101074219
z: -0.48526182770729065
visibility: 0.9704819917678833
","x: 226.8678741455078
y: 322.7143859863281
z: -0.33751949667930603
visibility: 0.9858080148696899
","x: 146.89437866210938
y: 325.2990417480469
z: -0.44251227378845215
visibility: 0.9640648365020752
","x: 199.60556030273438
y: 407.53515625
z: 0.013195906765758991
visibility: 0.9996504187583923
","x: 177.22569274902344
y: 411.568115234375
z: -0.013156332075595856
visibility: 0.9995133280754089
","x: 205.86058044433594
y: 469.81011962890625
z: -0.007693288382142782
visibility: 0.9634485244750977
","x: 177.5899658203125
y: 470.74237060546875
z: -0.068113312125206
visibility: 0.9843318462371826
","x: 214.65573120117188
y: 525.636474609375
z: 0.21975287795066833
visibility: 0.9514142274856567
","x: 181.1014862060547
y: 525.7161254882812
z: 0.14139337837696075
visibility: 0.9716424345970154
","x: 211.31350708007812
y: 536.362060546875
z: 0.2341926544904709
visibility: 0.8812128901481628
","x: 182.7651824951172
y: 530.3654174804688
z: 0.1567080318927765
visibility: 0.8382455706596375
","x: 229.0015869140625
y: 545.6982421875
z: 0.13025864958763123
visibility: 0.9627253413200378
","x: 181.25718688964844
y: 550.7628173828125
z: 0.04537629336118698
visibility: 0.9702423214912415
",,,,,,,,,,,,,,,,,,,,,,"x: 148.69969177246094
y: 335.85626220703125
z: 0.0
","x: 146.57530212402344
y: 333.6130065917969
z: -0.0013163910480216146
","x: 144.4254150390625
y: 331.3834228515625
z: -0.004403033293783665
","x: 142.76597595214844
y: 330.55926513671875
z: -0.007776480633765459
","x: 141.8553466796875
y: 328.8241271972656
z: -0.010767768137156963
","x: 147.28192138671875
y: 319.46539306640625
z: -0.005978559143841267
","x: 142.68373107910156
y: 324.95465087890625
z: -0.010496551170945168
","x: 140.63217163085938
y: 330.85870361328125
z: -0.012425471097230911
","x: 139.9518280029297
y: 335.67169189453125
z: -0.013228818774223328
","x: 147.99147033691406
y: 320.2514953613281
z: -0.007934353314340115
","x: 143.01943969726562
y: 325.73846435546875
z: -0.012374155223369598
","x: 140.99940490722656
y: 331.3423156738281
z: -0.01261268462985754
","x: 140.37130737304688
y: 336.03594970703125
z: -0.012561357580125332
","x: 148.5401153564453
y: 323.1611633300781
z: -0.009998234920203686
","x: 144.00523376464844
y: 327.04083251953125
z: -0.013738894835114479
","x: 142.2316436767578
y: 331.3028259277344
z: -0.012473179027438164
","x: 141.76547241210938
y: 334.8183898925781
z: -0.011333182454109192
","x: 148.94720458984375
y: 327.3128967285156
z: -0.012268433347344398
","x: 146.96408081054688
y: 328.5738830566406
z: -0.014872892759740353
","x: 146.62661743164062
y: 329.1601257324219
z: -0.014133009128272533
","x: 147.09999084472656
y: 329.5081787109375
z: -0.01324434857815504
"
6,"x: 188.68228149414062
y: 269.1177062988281
z: -0.22965142130851746
visibility: 0.9999802112579346
","x: 189.45748901367188
y: 262.4776611328125
z: -0.21477630734443665
visibility: 0.9999548196792603
","x: 190.41122436523438
y: 262.60540771484375
z: -0.21485169231891632
visibility: 0.9999586939811707
","x: 191.3296661376953
y: 262.7294616699219
z: -0.21490609645843506
visibility: 0.9999496936798096
","x: 185.6329803466797
y: 262.359375
z: -0.21727493405342102
visibility: 0.9999192357063293
","x: 183.978515625
y: 262.4833068847656
z: -0.2172822505235672
visibility: 0.9999030232429504
","x: 182.36598205566406
y: 262.6662902832031
z: -0.2172660380601883
visibility: 0.9998570084571838
","x: 191.06137084960938
y: 266.4267578125
z: -0.11225070059299469
visibility: 0.999931275844574
","x: 179.0315399169922
y: 266.8909912109375
z: -0.13901212811470032
visibility: 0.9998213052749634
","x: 190.4538116455078
y: 276.1938781738281
z: -0.19173328578472137
visibility: 0.999971866607666
","x: 185.9544677734375
y: 276.6337890625
z: -0.1897078901529312
visibility: 0.999957263469696
","x: 201.1043243408203
y: 311.0671691894531
z: -0.05574057251214981
visibility: 0.9999691247940063
","x: 164.19204711914062
y: 310.57452392578125
z: -0.08843939751386642
visibility: 0.999793291091919
","x: 213.22494506835938
y: 349.1614990234375
z: -0.13145512342453003
visibility: 0.9752981662750244
","x: 155.43031311035156
y: 349.6646423339844
z: -0.2061435878276825
visibility: 0.9767963290214539
","x: 224.30255126953125
y: 329.8402404785156
z: -0.3271945118904114
visibility: 0.9939625263214111
","x: 147.07740783691406
y: 335.81622314453125
z: -0.433675616979599
visibility: 0.9817519187927246
","x: 230.6836395263672
y: 325.3826599121094
z: -0.3664265275001526
visibility: 0.9880717396736145
","x: 144.00494384765625
y: 328.53466796875
z: -0.47949352860450745
visibility: 0.9690846800804138
","x: 230.20909118652344
y: 321.0869140625
z: -0.3771510124206543
visibility: 0.9895690679550171
","x: 145.207763671875
y: 323.8066101074219
z: -0.48526182770729065
visibility: 0.9704819917678833
","x: 226.8678741455078
y: 322.7143859863281
z: -0.33751949667930603
visibility: 0.9858080148696899
","x: 146.89437866210938
y: 325.2990417480469
z: -0.44251227378845215
visibility: 0.9640648365020752
","x: 199.60556030273438
y: 407.53515625
z: 0.013195906765758991
visibility: 0.9996504187583923
","x: 177.22569274902344
y: 411.568115234375
z: -0.013156332075595856
visibility: 0.9995133280754089
","x: 205.86058044433594
y: 469.81011962890625
z: -0.007693288382142782
visibility: 0.9634485244750977
","x: 177.5899658203125
y: 470.74237060546875
z: -0.068113312125206
visibility: 0.9843318462371826
","x: 214.65573120117188
y: 525.636474609375
z: 0.21975287795066833
visibility: 0.9514142274856567
","x: 181.1014862060547
y: 525.7161254882812
z: 0.14139337837696075
visibility: 0.9716424345970154
","x: 211.31350708007812
y: 536.362060546875
z: 0.2341926544904709
visibility: 0.8812128901481628
","x: 182.7651824951172
y: 530.3654174804688
z: 0.1567080318927765
visibility: 0.8382455706596375
","x: 229.0015869140625
y: 545.6982421875
z: 0.13025864958763123
visibility: 0.9627253413200378
","x: 181.25718688964844
y: 550.7628173828125
z: 0.04537629336118698
visibility: 0.9702423214912415
",,,,,,,,,,,,,,,,,,,,,,"x: 148.69969177246094
y: 335.85626220703125
z: 0.0
","x: 146.57530212402344
y: 333.6130065917969
z: -0.0013163910480216146
","x: 144.4254150390625
y: 331.3834228515625
z: -0.004403033293783665
","x: 142.76597595214844
y: 330.55926513671875
z: -0.007776480633765459
","x: 141.8553466796875
y: 328.8241271972656
z: -0.010767768137156963
","x: 147.28192138671875
y: 319.46539306640625
z: -0.005978559143841267
","x: 142.68373107910156
y: 324.95465087890625
z: -0.010496551170945168
","x: 140.63217163085938
y: 330.85870361328125
z: -0.012425471097230911
","x: 139.9518280029297
y: 335.67169189453125
z: -0.013228818774223328
","x: 147.99147033691406
y: 320.2514953613281
z: -0.007934353314340115
","x: 143.01943969726562
y: 325.73846435546875
z: -0.012374155223369598
","x: 140.99940490722656
y: 331.3423156738281
z: -0.01261268462985754
","x: 140.37130737304688
y: 336.03594970703125
z: -0.012561357580125332
","x: 148.5401153564453
y: 323.1611633300781
z: -0.009998234920203686
","x: 144.00523376464844
y: 327.04083251953125
z: -0.013738894835114479
","x: 142.2316436767578
y: 331.3028259277344
z: -0.012473179027438164
","x: 141.76547241210938
y: 334.8183898925781
z: -0.011333182454109192
","x: 148.94720458984375
y: 327.3128967285156
z: -0.012268433347344398
","x: 146.96408081054688
y: 328.5738830566406
z: -0.014872892759740353
","x: 146.62661743164062
y: 329.1601257324219
z: -0.014133009128272533
","x: 147.09999084472656
y: 329.5081787109375
z: -0.01324434857815504
"
7,"x: 190.38070678710938
y: 267.43890380859375
z: -0.20875175297260284
visibility: 0.9999713897705078
","x: 190.91555786132812
y: 261.4294128417969
z: -0.19280773401260376
visibility: 0.9999343752861023
","x: 191.82843017578125
y: 261.5516052246094
z: -0.1928699016571045
visibility: 0.9999357461929321
","x: 192.66552734375
y: 261.6918640136719
z: -0.19291625916957855
visibility: 0.9999248385429382
","x: 187.41477966308594
y: 261.60693359375
z: -0.19955557584762573
visibility: 0.9998939037322998
","x: 185.75494384765625
y: 261.9930114746094
z: -0.19955340027809143
visibility: 0.9998712539672852
","x: 184.03936767578125
y: 262.4944763183594
z: -0.19958484172821045
visibility: 0.9998173117637634
","x: 192.5799560546875
y: 265.6872863769531
z: -0.09056494385004044
visibility: 0.9998862147331238
","x: 180.9789276123047
y: 267.14984130859375
z: -0.12579630315303802
visibility: 0.9997962713241577
","x: 192.27969360351562
y: 274.29425048828125
z: -0.1697920262813568
visibility: 0.9999645352363586
","x: 187.83969116210938
y: 275.31243896484375
z: -0.17900177836418152
visibility: 0.9999527931213379
","x: 204.1040802001953
y: 309.37005615234375
z: -0.02575068548321724
visibility: 0.9999663829803467
","x: 167.87213134765625
y: 309.54296875
z: -0.08747835457324982
visibility: 0.9998022317886353
","x: 215.60980224609375
y: 346.30078125
z: -0.0925588458776474
visibility: 0.9720682501792908
","x: 153.54525756835938
y: 334.13262939453125
z: -0.19756066799163818
visibility: 0.9776483178138733
","x: 226.71994018554688
y: 327.95062255859375
z: -0.28763025999069214
visibility: 0.9936466813087463
","x: 152.4121856689453
y: 339.6038818359375
z: -0.39464953541755676
visibility: 0.9815874099731445
","x: 232.76820373535156
y: 324.9374694824219
z: -0.3268076181411743
visibility: 0.9876386523246765
","x: 150.8931884765625
y: 343.64202880859375
z: -0.43715357780456543
visibility: 0.968095600605011
","x: 232.67047119140625
y: 320.6368408203125
z: -0.3435429632663727
visibility: 0.989189088344574
","x: 154.40550231933594
y: 333.5386962890625
z: -0.443572461605072
visibility: 0.9693790674209595
","x: 229.36581420898438
y: 322.00433349609375
z: -0.3007008135318756
visibility: 0.9853097200393677
","x: 154.47630310058594
y: 333.67108154296875
z: -0.40319138765335083
visibility: 0.9625213742256165
","x: 200.7654571533203
y: 407.32232666015625
z: 0.01903466321527958
visibility: 0.9996770024299622
","x: 179.2129364013672
y: 410.3350524902344
z: -0.01899474486708641
visibility: 0.9995502233505249
","x: 207.4810791015625
y: 469.44171142578125
z: 0.03186836838722229
visibility: 0.966107964515686
","x: 179.7484893798828
y: 469.6861267089844
z: 0.003141947789117694
visibility: 0.9852584600448608
","x: 213.62156677246094
y: 526.21435546875
z: 0.21515515446662903
visibility: 0.9549893736839294
","x: 181.53379821777344
y: 526.0270385742188
z: 0.2195216715335846
visibility: 0.9736884236335754
","x: 209.36932373046875
y: 537.1229858398438
z: 0.2289639711380005
visibility: 0.887338399887085
","x: 183.24815368652344
y: 531.5132446289062
z: 0.23575446009635925
visibility: 0.8452872633934021
","x: 228.61830139160156
y: 545.9815063476562
z: 0.1288934350013733
visibility: 0.9650585651397705
","x: 182.49020385742188
y: 551.2757568359375
z: 0.13113738596439362
visibility: 0.9721906781196594
",,,,,,,,,,,,,,,,,,,,,,,,,,,,,,,,,,,,,,,,,,
8,"x: 197.00857543945312
y: 266.79052734375
z: -0.22259390354156494
visibility: 0.9999635219573975
","x: 196.9021453857422
y: 260.7310791015625
z: -0.2065996378660202
visibility: 0.9999212026596069
","x: 197.52163696289062
y: 260.86260986328125
z: -0.2066691815853119
visibility: 0.9999215006828308
","x: 198.08062744140625
y: 261.01239013671875
z: -0.20672781765460968
visibility: 0.9999117851257324
","x: 194.197265625
y: 260.86328125
z: -0.2145906388759613
visibility: 0.9998773336410522
","x: 192.68417358398438
y: 261.2713623046875
z: -0.21459388732910156
visibility: 0.9998478293418884
","x: 190.996826171875
y: 261.8851623535156
z: -0.21461811661720276
visibility: 0.999784529209137
","x: 196.9522247314453
y: 264.9447021484375
z: -0.10092072188854218
visibility: 0.9998617768287659
","x: 186.75656127929688
y: 267.166748046875
z: -0.14403407275676727
visibility: 0.9997712969779968
","x: 198.26600646972656
y: 273.7869567871094
z: -0.18193401396274567
visibility: 0.9999575614929199
","x: 194.62815856933594
y: 274.68756103515625
z: -0.19323208928108215
visibility: 0.999945342540741
","x: 208.7175750732422
y: 307.6387939453125
z: -0.026810165494680405
visibility: 0.9999637603759766
","x: 174.140869140625
y: 308.037841796875
z: -0.10763818025588989
visibility: 0.9997843503952026
","x: 219.4384002685547
y: 346.8352966308594
z: -0.0774461179971695
visibility: 0.9674041867256165
","x: 164.59986877441406
y: 337.2964172363281
z: -0.2170587033033371
visibility: 0.9711143970489502
","x: 228.97610473632812
y: 327.514892578125
z: -0.26452627778053284
visibility: 0.9926229119300842
","x: 168.19505310058594
y: 344.11456298828125
z: -0.41078177094459534
visibility: 0.9706847667694092
","x: 234.84988403320312
y: 323.145263671875
z: -0.3026408553123474
visibility: 0.9859909415245056
","x: 167.76025390625
y: 347.70928955078125
z: -0.4535810947418213
visibility: 0.953957200050354
","x: 234.61483764648438
y: 318.5492858886719
z: -0.31934401392936707
visibility: 0.9876980185508728
","x: 169.93348693847656
y: 341.82666015625
z: -0.46313875913619995
visibility: 0.9549643397331238
","x: 231.41317749023438
y: 320.1726989746094
z: -0.277354896068573
visibility: 0.9831694960594177
","x: 170.58895874023438
y: 340.87115478515625
z: -0.42037802934646606
visibility: 0.9444979429244995
","x: 203.37779235839844
y: 407.6328125
z: 0.024720050394535065
visibility: 0.9996998906135559
","x: 182.1773223876953
y: 409.6678466796875
z: -0.024670787155628204
visibility: 0.9995773434638977
","x: 208.7222900390625
y: 468.9228515625
z: 0.06760383397340775
visibility: 0.9687572121620178
","x: 182.38323974609375
y: 469.2750244140625
z: 0.0672769546508789
visibility: 0.9861626029014587
","x: 214.4106903076172
y: 526.7741088867188
z: 0.21514467895030975
visibility: 0.958770215511322
","x: 182.33331298828125
y: 526.9243774414062
z: 0.2843407690525055
visibility: 0.9755842089653015
","x: 210.1661376953125
y: 537.43310546875
z: 0.22670061886310577
visibility: 0.8953384160995483
","x: 183.84080505371094
y: 532.9716186523438
z: 0.3001978397369385
visibility: 0.8521514534950256
","x: 230.0408172607422
y: 546.4768676757812
z: 0.1280531883239746
visibility: 0.9677083492279053
","x: 182.99752807617188
y: 551.7450561523438
z: 0.1974082589149475
visibility: 0.9737943410873413
",,,,,,,,,,,,,,,,,,,,,,,,,,,,,,,,,,,,,,,,,,
9,"x: 204.53712463378906
y: 267.0855712890625
z: -0.20357957482337952
visibility: 0.9999639391899109
","x: 203.6964111328125
y: 260.89312744140625
z: -0.18501824140548706
visibility: 0.9999228119850159
","x: 203.97779846191406
y: 260.9707946777344
z: -0.1850343495607376
visibility: 0.9999212026596069
","x: 204.20407104492188
y: 261.0660705566406
z: -0.18503683805465698
visibility: 0.9999111890792847
","x: 201.8059844970703
y: 261.1471862792969
z: -0.20338015258312225
visibility: 0.999885082244873
","x: 200.55706787109375
y: 261.5362854003906
z: -0.2033824920654297
visibility: 0.9998571276664734
","x: 199.05673217773438
y: 262.09552001953125
z: -0.20346477627754211
visibility: 0.9997990727424622
","x: 201.5859832763672
y: 265.06695556640625
z: -0.07655080407857895
visibility: 0.999846339225769
","x: 193.9998321533203
y: 267.239990234375
z: -0.1555151492357254
visibility: 0.9997903108596802
","x: 205.1385040283203
y: 273.85736083984375
z: -0.16111557185649872
visibility: 0.9999552965164185
","x: 202.60025024414062
y: 274.6648254394531
z: -0.18495988845825195
visibility: 0.9999481439590454
","x: 211.3311309814453
y: 306.6962890625
z: 0.02230101078748703
visibility: 0.9999539256095886
","x: 182.69204711914062
y: 306.87322998046875
z: -0.1531643569469452
visibility: 0.9998003244400024
","x: 218.80137634277344
y: 346.8984375
z: -0.0127750588580966
visibility: 0.9460686445236206
","x: 170.0770263671875
y: 343.0689697265625
z: -0.24318258464336395
visibility: 0.9737468957901001
","x: 229.8954620361328
y: 328.1383972167969
z: -0.1979232132434845
visibility: 0.9905242323875427
","x: 188.83387756347656
y: 348.212158203125
z: -0.33260175585746765
visibility: 0.9731675386428833
","x: 234.58428955078125
y: 324.21685791015625
z: -0.23224613070487976
visibility: 0.9830677509307861
","x: 194.47293090820312
y: 350.7626037597656
z: -0.3629465699195862
visibility: 0.9571337699890137
","x: 234.3395538330078
y: 319.70257568359375
z: -0.24338145554065704
visibility: 0.9850676655769348
","x: 195.8810577392578
y: 344.1329650878906
z: -0.36293894052505493
visibility: 0.9578444957733154
","x: 231.73484802246094
y: 321.2376403808594
z: -0.20899799466133118
visibility: 0.9798086285591125
","x: 194.29344177246094
y: 342.521484375
z: -0.33223748207092285
visibility: 0.9472365975379944
","x: 206.0968017578125
y: 411.1286926269531
z: 0.047782815992832184
visibility: 0.9997256398200989
","x: 186.8982391357422
y: 412.013427734375
z: -0.047775402665138245
visibility: 0.9996123313903809
","x: 210.02444458007812
y: 469.8745422363281
z: 0.09631620347499847
visibility: 0.9703282713890076
","x: 186.00938415527344
y: 470.69500732421875
z: 0.09477047622203827
visibility: 0.9868632555007935
","x: 214.23541259765625
y: 527.5977172851562
z: 0.24206335842609406
visibility: 0.9619441032409668
","x: 182.40626525878906
y: 526.7771606445312
z: 0.3429654836654663
visibility: 0.9772119522094727
","x: 210.00872802734375
y: 538.2665405273438
z: 0.25234121084213257
visibility: 0.9032179713249207
","x: 183.04812622070312
y: 533.06005859375
z: 0.3634442985057831
visibility: 0.8594528436660767
","x: 230.0360870361328
y: 546.2501831054688
z: 0.16592445969581604
visibility: 0.9701145887374878
","x: 183.369140625
y: 552.1283569335938
z: 0.27270418405532837
visibility: 0.9753492474555969
",,,,,,,,,,,,,,,,,,,,,,"x: 190.84519958496094
y: 353.67291259765625
z: 0.0
","x: 190.97190856933594
y: 347.2875671386719
z: -0.00492106843739748
","x: 192.5166015625
y: 341.1785888671875
z: -0.008988694287836552
","x: 193.15579223632812
y: 335.6558532714844
z: -0.012009120546281338
","x: 192.69322204589844
y: 330.5184326171875
z: -0.015010315924882889
","x: 197.95069885253906
y: 348.64459228515625
z: -0.010438119992613792
","x: 203.26663208007812
y: 349.098876953125
z: -0.013750697486102581
","x: 206.8411407470703
y: 349.0075378417969
z: -0.01554160937666893
","x: 209.5934295654297
y: 348.69482421875
z: -0.01648641563951969
","x: 198.93292236328125
y: 352.6502990722656
z: -0.008940142579376698
","x: 204.27835083007812
y: 352.2146301269531
z: -0.011893927119672298
","x: 208.02517700195312
y: 350.8279724121094
z: -0.013244935311377048
","x: 210.9876251220703
y: 349.31829833984375
z: -0.01428727712482214
","x: 199.41969299316406
y: 355.2881164550781
z: -0.007250685710459948
","x: 204.2366943359375
y: 354.6376953125
z: -0.009811987169086933
","x: 207.68496704101562
y: 353.3968505859375
z: -0.011436914093792439
","x: 210.32896423339844
y: 351.98089599609375
z: -0.012525603175163269
","x: 199.5979461669922
y: 356.7791748046875
z: -0.005793055985122919
","x: 203.43614196777344
y: 356.1549377441406
z: -0.007467437069863081
","x: 206.17654418945312
y: 355.0646667480469
z: -0.00850575789809227
","x: 208.32159423828125
y: 353.8006286621094
z: -0.009310349822044373
"
10,"x: 204.53712463378906
y: 267.0855712890625
z: -0.20357957482337952
visibility: 0.9999639391899109
","x: 203.6964111328125
y: 260.89312744140625
z: -0.18501824140548706
visibility: 0.9999228119850159
","x: 203.97779846191406
y: 260.9707946777344
z: -0.1850343495607376
visibility: 0.9999212026596069
","x: 204.20407104492188
y: 261.0660705566406
z: -0.18503683805465698
visibility: 0.9999111890792847
","x: 201.8059844970703
y: 261.1471862792969
z: -0.20338015258312225
visibility: 0.999885082244873
","x: 200.55706787109375
y: 261.5362854003906
z: -0.2033824920654297
visibility: 0.9998571276664734
","x: 199.05673217773438
y: 262.09552001953125
z: -0.20346477627754211
visibility: 0.9997990727424622
","x: 201.5859832763672
y: 265.06695556640625
z: -0.07655080407857895
visibility: 0.999846339225769
","x: 193.9998321533203
y: 267.239990234375
z: -0.1555151492357254
visibility: 0.9997903108596802
","x: 205.1385040283203
y: 273.85736083984375
z: -0.16111557185649872
visibility: 0.9999552965164185
","x: 202.60025024414062
y: 274.6648254394531
z: -0.18495988845825195
visibility: 0.9999481439590454
","x: 211.3311309814453
y: 306.6962890625
z: 0.02230101078748703
visibility: 0.9999539256095886
","x: 182.69204711914062
y: 306.87322998046875
z: -0.1531643569469452
visibility: 0.9998003244400024
","x: 218.80137634277344
y: 346.8984375
z: -0.0127750588580966
visibility: 0.9460686445236206
","x: 170.0770263671875
y: 343.0689697265625
z: -0.24318258464336395
visibility: 0.9737468957901001
","x: 229.8954620361328
y: 328.1383972167969
z: -0.1979232132434845
visibility: 0.9905242323875427
","x: 188.83387756347656
y: 348.212158203125
z: -0.33260175585746765
visibility: 0.9731675386428833
","x: 234.58428955078125
y: 324.21685791015625
z: -0.23224613070487976
visibility: 0.9830677509307861
","x: 194.47293090820312
y: 350.7626037597656
z: -0.3629465699195862
visibility: 0.9571337699890137
","x: 234.3395538330078
y: 319.70257568359375
z: -0.24338145554065704
visibility: 0.9850676655769348
","x: 195.8810577392578
y: 344.1329650878906
z: -0.36293894052505493
visibility: 0.9578444957733154
","x: 231.73484802246094
y: 321.2376403808594
z: -0.20899799466133118
visibility: 0.9798086285591125
","x: 194.29344177246094
y: 342.521484375
z: -0.33223748207092285
visibility: 0.9472365975379944
","x: 206.0968017578125
y: 411.1286926269531
z: 0.047782815992832184
visibility: 0.9997256398200989
","x: 186.8982391357422
y: 412.013427734375
z: -0.047775402665138245
visibility: 0.9996123313903809
","x: 210.02444458007812
y: 469.8745422363281
z: 0.09631620347499847
visibility: 0.9703282713890076
","x: 186.00938415527344
y: 470.69500732421875
z: 0.09477047622203827
visibility: 0.9868632555007935
","x: 214.23541259765625
y: 527.5977172851562
z: 0.24206335842609406
visibility: 0.9619441032409668
","x: 182.40626525878906
y: 526.7771606445312
z: 0.3429654836654663
visibility: 0.9772119522094727
","x: 210.00872802734375
y: 538.2665405273438
z: 0.25234121084213257
visibility: 0.9032179713249207
","x: 183.04812622070312
y: 533.06005859375
z: 0.3634442985057831
visibility: 0.8594528436660767
","x: 230.0360870361328
y: 546.2501831054688
z: 0.16592445969581604
visibility: 0.9701145887374878
","x: 183.369140625
y: 552.1283569335938
z: 0.27270418405532837
visibility: 0.9753492474555969
",,,,,,,,,,,,,,,,,,,,,,"x: 190.84519958496094
y: 353.67291259765625
z: 0.0
","x: 190.97190856933594
y: 347.2875671386719
z: -0.00492106843739748
","x: 192.5166015625
y: 341.1785888671875
z: -0.008988694287836552
","x: 193.15579223632812
y: 335.6558532714844
z: -0.012009120546281338
","x: 192.69322204589844
y: 330.5184326171875
z: -0.015010315924882889
","x: 197.95069885253906
y: 348.64459228515625
z: -0.010438119992613792
","x: 203.26663208007812
y: 349.098876953125
z: -0.013750697486102581
","x: 206.8411407470703
y: 349.0075378417969
z: -0.01554160937666893
","x: 209.5934295654297
y: 348.69482421875
z: -0.01648641563951969
","x: 198.93292236328125
y: 352.6502990722656
z: -0.008940142579376698
","x: 204.27835083007812
y: 352.2146301269531
z: -0.011893927119672298
","x: 208.02517700195312
y: 350.8279724121094
z: -0.013244935311377048
","x: 210.9876251220703
y: 349.31829833984375
z: -0.01428727712482214
","x: 199.41969299316406
y: 355.2881164550781
z: -0.007250685710459948
","x: 204.2366943359375
y: 354.6376953125
z: -0.009811987169086933
","x: 207.68496704101562
y: 353.3968505859375
z: -0.011436914093792439
","x: 210.32896423339844
y: 351.98089599609375
z: -0.012525603175163269
","x: 199.5979461669922
y: 356.7791748046875
z: -0.005793055985122919
","x: 203.43614196777344
y: 356.1549377441406
z: -0.007467437069863081
","x: 206.17654418945312
y: 355.0646667480469
z: -0.00850575789809227
","x: 208.32159423828125
y: 353.8006286621094
z: -0.009310349822044373
"
11,"x: 208.32733154296875
y: 267.5633544921875
z: -0.16003578901290894
visibility: 0.9999524354934692
","x: 206.71841430664062
y: 261.5909118652344
z: -0.14214541018009186
visibility: 0.9999087452888489
","x: 206.70826721191406
y: 261.55743408203125
z: -0.14217177033424377
visibility: 0.9999040365219116
","x: 206.63905334472656
y: 261.52117919921875
z: -0.14217829704284668
visibility: 0.9998952746391296
","x: 205.34417724609375
y: 262.13922119140625
z: -0.16627097129821777
visibility: 0.9998759627342224
","x: 204.29257202148438
y: 262.5828857421875
z: -0.16627879440784454
visibility: 0.9998459219932556
","x: 203.08750915527344
y: 263.10601806640625
z: -0.16636115312576294
visibility: 0.9997876882553101
","x: 202.87876892089844
y: 265.40289306640625
z: -0.041751645505428314
visibility: 0.9997710585594177
","x: 198.65966796875
y: 267.8660888671875
z: -0.15221503376960754
visibility: 0.9997875094413757
","x: 208.82382202148438
y: 274.3001708984375
z: -0.11999938637018204
visibility: 0.9999235272407532
","x: 206.7099609375
y: 275.14508056640625
z: -0.15099367499351501
visibility: 0.9999268651008606
","x: 209.8534393310547
y: 305.58489990234375
z: 0.056113265454769135
visibility: 0.9999279975891113
","x: 190.06898498535156
y: 306.7724304199219
z: -0.1719583123922348
visibility: 0.9997830390930176
","x: 217.98001098632812
y: 347.13922119140625
z: 0.026842866092920303
visibility: 0.9147050976753235
","x: 185.96249389648438
y: 352.1684265136719
z: -0.2332485467195511
visibility: 0.9753372073173523
","x: 228.829345703125
y: 329.3122863769531
z: -0.1272404044866562
visibility: 0.9870864748954773
","x: 207.0812225341797
y: 345.67449951171875
z: -0.23003947734832764
visibility: 0.9744685292243958
","x: 233.12596130371094
y: 324.89300537109375
z: -0.15439936518669128
visibility: 0.9785036444664001
","x: 213.60675048828125
y: 346.19183349609375
z: -0.2531047463417053
visibility: 0.9582653641700745
","x: 233.296630859375
y: 320.1748962402344
z: -0.1647089570760727
visibility: 0.9808886051177979
","x: 213.40081787109375
y: 340.0106201171875
z: -0.253081738948822
visibility: 0.9585068821907043
","x: 230.76998901367188
y: 321.4991760253906
z: -0.1376042664051056
visibility: 0.9748418927192688
","x: 211.551025390625
y: 339.3533935546875
z: -0.22797580063343048
visibility: 0.9463313817977905
","x: 205.38050842285156
y: 412.8091125488281
z: 0.06192401051521301
visibility: 0.9997439980506897
","x: 188.40052795410156
y: 413.035888671875
z: -0.061884962022304535
visibility: 0.9996309876441956
","x: 209.17108154296875
y: 470.2377014160156
z: 0.10492287576198578
visibility: 0.9698793888092041
","x: 187.46493530273438
y: 470.398681640625
z: 0.07409311085939407
visibility: 0.987337052822113
","x: 214.1723175048828
y: 527.3499145507812
z: 0.22537168860435486
visibility: 0.9641297459602356
","x: 182.38766479492188
y: 527.5743408203125
z: 0.2817835807800293
visibility: 0.9786537885665894
","x: 209.93943786621094
y: 538.6193237304688
z: 0.22724488377571106
visibility: 0.9095166921615601
","x: 182.35997009277344
y: 534.59765625
z: 0.29849788546562195
visibility: 0.8662793636322021
","x: 229.99061584472656
y: 546.4476318359375
z: 0.14992979168891907
visibility: 0.9719378352165222
","x: 183.9302978515625
y: 552.53759765625
z: 0.21497099101543427
visibility: 0.976758599281311
",,,,,,,,,,,,,,,,,,,,,,"x: 206.70010375976562
y: 349.302978515625
z: 0.0
","x: 205.9580078125
y: 345.06787109375
z: -0.005629702005535364
","x: 206.1524658203125
y: 339.7287292480469
z: -0.009290238842368126
","x: 206.06703186035156
y: 334.57574462890625
z: -0.012142258696258068
","x: 205.8416748046875
y: 330.4425048828125
z: -0.014735022559762001
","x: 213.53192138671875
y: 343.9996643066406
z: -0.006247470621019602
","x: 217.39889526367188
y: 344.195556640625
z: -0.008770383894443512
","x: 219.95272827148438
y: 343.72998046875
z: -0.010392021387815475
","x: 221.8275146484375
y: 343.06207275390625
z: -0.011308539658784866
","x: 215.07196044921875
y: 345.6173095703125
z: -0.0046638548374176025
","x: 219.38467407226562
y: 344.76226806640625
z: -0.006782885175198317
","x: 222.20481872558594
y: 343.12457275390625
z: -0.008363381028175354
","x: 224.47109985351562
y: 341.7611083984375
z: -0.00961722806096077
","x: 215.95333862304688
y: 346.6224670410156
z: -0.003441188018769026
","x: 220.01528930664062
y: 345.7603759765625
z: -0.005660411436110735
","x: 222.6680908203125
y: 344.4991455078125
z: -0.007684029638767242
","x: 224.8730010986328
y: 343.475830078125
z: -0.008961766958236694
","x: 216.31399536132812
y: 347.0770263671875
z: -0.002669913461431861
","x: 219.6921844482422
y: 346.6015930175781
z: -0.004228879231959581
","x: 221.93167114257812
y: 346.0353088378906
z: -0.005612902343273163
","x: 223.80538940429688
y: 345.71173095703125
z: -0.006634984165430069
"
12,"x: 208.32733154296875
y: 267.5633544921875
z: -0.16003578901290894
visibility: 0.9999524354934692
","x: 206.71841430664062
y: 261.5909118652344
z: -0.14214541018009186
visibility: 0.9999087452888489
","x: 206.70826721191406
y: 261.55743408203125
z: -0.14217177033424377
visibility: 0.9999040365219116
","x: 206.63905334472656
y: 261.52117919921875
z: -0.14217829704284668
visibility: 0.9998952746391296
","x: 205.34417724609375
y: 262.13922119140625
z: -0.16627097129821777
visibility: 0.9998759627342224
","x: 204.29257202148438
y: 262.5828857421875
z: -0.16627879440784454
visibility: 0.9998459219932556
","x: 203.08750915527344
y: 263.10601806640625
z: -0.16636115312576294
visibility: 0.9997876882553101
","x: 202.87876892089844
y: 265.40289306640625
z: -0.041751645505428314
visibility: 0.9997710585594177
","x: 198.65966796875
y: 267.8660888671875
z: -0.15221503376960754
visibility: 0.9997875094413757
","x: 208.82382202148438
y: 274.3001708984375
z: -0.11999938637018204
visibility: 0.9999235272407532
","x: 206.7099609375
y: 275.14508056640625
z: -0.15099367499351501
visibility: 0.9999268651008606
","x: 209.8534393310547
y: 305.58489990234375
z: 0.056113265454769135
visibility: 0.9999279975891113
","x: 190.06898498535156
y: 306.7724304199219
z: -0.1719583123922348
visibility: 0.9997830390930176
","x: 217.98001098632812
y: 347.13922119140625
z: 0.026842866092920303
visibility: 0.9147050976753235
","x: 185.96249389648438
y: 352.1684265136719
z: -0.2332485467195511
visibility: 0.9753372073173523
","x: 228.829345703125
y: 329.3122863769531
z: -0.1272404044866562
visibility: 0.9870864748954773
","x: 207.0812225341797
y: 345.67449951171875
z: -0.23003947734832764
visibility: 0.9744685292243958
","x: 233.12596130371094
y: 324.89300537109375
z: -0.15439936518669128
visibility: 0.9785036444664001
","x: 213.60675048828125
y: 346.19183349609375
z: -0.2531047463417053
visibility: 0.9582653641700745
","x: 233.296630859375
y: 320.1748962402344
z: -0.1647089570760727
visibility: 0.9808886051177979
","x: 213.40081787109375
y: 340.0106201171875
z: -0.253081738948822
visibility: 0.9585068821907043
","x: 230.76998901367188
y: 321.4991760253906
z: -0.1376042664051056
visibility: 0.9748418927192688
","x: 211.551025390625
y: 339.3533935546875
z: -0.22797580063343048
visibility: 0.9463313817977905
","x: 205.38050842285156
y: 412.8091125488281
z: 0.06192401051521301
visibility: 0.9997439980506897
","x: 188.40052795410156
y: 413.035888671875
z: -0.061884962022304535
visibility: 0.9996309876441956
","x: 209.17108154296875
y: 470.2377014160156
z: 0.10492287576198578
visibility: 0.9698793888092041
","x: 187.46493530273438
y: 470.398681640625
z: 0.07409311085939407
visibility: 0.987337052822113
","x: 214.1723175048828
y: 527.3499145507812
z: 0.22537168860435486
visibility: 0.9641297459602356
","x: 182.38766479492188
y: 527.5743408203125
z: 0.2817835807800293
visibility: 0.9786537885665894
","x: 209.93943786621094
y: 538.6193237304688
z: 0.22724488377571106
visibility: 0.9095166921615601
","x: 182.35997009277344
y: 534.59765625
z: 0.29849788546562195
visibility: 0.8662793636322021
","x: 229.99061584472656
y: 546.4476318359375
z: 0.14992979168891907
visibility: 0.9719378352165222
","x: 183.9302978515625
y: 552.53759765625
z: 0.21497099101543427
visibility: 0.976758599281311
",,,,,,,,,,,,,,,,,,,,,,"x: 206.70010375976562
y: 349.302978515625
z: 0.0
","x: 205.9580078125
y: 345.06787109375
z: -0.005629702005535364
","x: 206.1524658203125
y: 339.7287292480469
z: -0.009290238842368126
","x: 206.06703186035156
y: 334.57574462890625
z: -0.012142258696258068
","x: 205.8416748046875
y: 330.4425048828125
z: -0.014735022559762001
","x: 213.53192138671875
y: 343.9996643066406
z: -0.006247470621019602
","x: 217.39889526367188
y: 344.195556640625
z: -0.008770383894443512
","x: 219.95272827148438
y: 343.72998046875
z: -0.010392021387815475
","x: 221.8275146484375
y: 343.06207275390625
z: -0.011308539658784866
","x: 215.07196044921875
y: 345.6173095703125
z: -0.0046638548374176025
","x: 219.38467407226562
y: 344.76226806640625
z: -0.006782885175198317
","x: 222.20481872558594
y: 343.12457275390625
z: -0.008363381028175354
","x: 224.47109985351562
y: 341.7611083984375
z: -0.00961722806096077
","x: 215.95333862304688
y: 346.6224670410156
z: -0.003441188018769026
","x: 220.01528930664062
y: 345.7603759765625
z: -0.005660411436110735
","x: 222.6680908203125
y: 344.4991455078125
z: -0.007684029638767242
","x: 224.8730010986328
y: 343.475830078125
z: -0.008961766958236694
","x: 216.31399536132812
y: 347.0770263671875
z: -0.002669913461431861
","x: 219.6921844482422
y: 346.6015930175781
z: -0.004228879231959581
","x: 221.93167114257812
y: 346.0353088378906
z: -0.005612902343273163
","x: 223.80538940429688
y: 345.71173095703125
z: -0.006634984165430069
"
13,"x: 210.42591857910156
y: 268.05828857421875
z: -0.11038611829280853
visibility: 0.9999428391456604
","x: 207.99618530273438
y: 261.8728332519531
z: -0.09079928696155548
visibility: 0.999901533126831
","x: 207.89364624023438
y: 261.8398742675781
z: -0.09084101021289825
visibility: 0.9998955130577087
","x: 207.7599639892578
y: 261.81170654296875
z: -0.09085477143526077
visibility: 0.9998893141746521
","x: 206.62252807617188
y: 262.3541564941406
z: -0.11505872011184692
visibility: 0.9998705983161926
","x: 205.50929260253906
y: 262.75128173828125
z: -0.11507229506969452
visibility: 0.9998399615287781
","x: 204.29713439941406
y: 263.24163818359375
z: -0.11517319828271866
visibility: 0.999785304069519
","x: 203.48719787597656
y: 265.5252685546875
z: 0.008752850815653801
visibility: 0.9997258186340332
","x: 199.72300720214844
y: 267.9251708984375
z: -0.10041862726211548
visibility: 0.9997892379760742
","x: 210.53916931152344
y: 274.6991271972656
z: -0.07131032645702362
visibility: 0.9998896718025208
","x: 208.6566162109375
y: 275.4400939941406
z: -0.10264071077108383
visibility: 0.9999013543128967
","x: 208.95391845703125
y: 305.6929626464844
z: 0.10331670939922333
visibility: 0.9998975396156311
","x: 192.35398864746094
y: 306.66522216796875
z: -0.14336085319519043
visibility: 0.9997684955596924
","x: 215.92845153808594
y: 347.0936279296875
z: 0.07192401587963104
visibility: 0.8678572773933411
","x: 189.6292266845703
y: 352.9005432128906
z: -0.21553727984428406
visibility: 0.9767351746559143
","x: 227.52276611328125
y: 331.60400390625
z: -0.0762169361114502
visibility: 0.9799715876579285
","x: 211.0205535888672
y: 344.0306091308594
z: -0.20962974429130554
visibility: 0.9755815863609314
","x: 232.462890625
y: 328.86444091796875
z: -0.10021059215068817
visibility: 0.9696396589279175
","x: 218.04385375976562
y: 345.5776672363281
z: -0.23169615864753723
visibility: 0.9591360092163086
","x: 233.27606201171875
y: 325.2220153808594
z: -0.10987246036529541
visibility: 0.9727272391319275
","x: 217.99314880371094
y: 339.1442565917969
z: -0.2306053638458252
visibility: 0.9589292407035828
","x: 230.48403930664062
y: 325.6612854003906
z: -0.08641202747821808
visibility: 0.9650636315345764
","x: 215.62513732910156
y: 338.6015625
z: -0.20734481513500214
visibility: 0.9452084302902222
","x: 204.80404663085938
y: 412.5603942871094
z: 0.06791676580905914
visibility: 0.9997528791427612
","x: 189.23025512695312
y: 412.1307067871094
z: -0.06785748898983002
visibility: 0.9996334314346313
","x: 208.87127685546875
y: 470.1253967285156
z: 0.0813382938504219
visibility: 0.9682847261428833
","x: 187.47959899902344
y: 466.3011474609375
z: 0.029210513457655907
visibility: 0.9876565933227539
","x: 213.8137664794922
y: 527.8175048828125
z: 0.13433487713336945
visibility: 0.9656673669815063
","x: 181.88539123535156
y: 527.40185546875
z: 0.18610690534114838
visibility: 0.9799270033836365
","x: 209.05039978027344
y: 540.3638305664062
z: 0.137216717004776
visibility: 0.9146893620491028
","x: 181.3870849609375
y: 534.5087890625
z: 0.1974731981754303
visibility: 0.8717221021652222
","x: 229.9130859375
y: 547.0079345703125
z: 0.057750772684812546
visibility: 0.9734194278717041
","x: 184.18190002441406
y: 552.2412719726562
z: 0.11035797744989395
visibility: 0.9780927896499634
",,,,,,,,,,,,,,,,,,,,,,"x: 213.39675903320312
y: 341.99151611328125
z: 0.0
","x: 212.98953247070312
y: 337.7225341796875
z: -0.002180711831897497
","x: 213.9934539794922
y: 332.1902160644531
z: -0.004112603608518839
","x: 214.4676513671875
y: 326.63690185546875
z: -0.006264056079089642
","x: 214.29953002929688
y: 321.6020202636719
z: -0.008260778151452541
","x: 221.9688262939453
y: 336.0620422363281
z: 0.0005626708152703941
","x: 225.52439880371094
y: 334.77056884765625
z: -0.0009991786209866405
","x: 227.9519805908203
y: 333.1145935058594
z: -0.0027267804834991693
","x: 229.9328155517578
y: 331.8501281738281
z: -0.003978499677032232
","x: 223.0615234375
y: 336.9547119140625
z: -4.06872495659627e-05
","x: 227.1604461669922
y: 334.8533630371094
z: -0.0011067796731367707
","x: 229.90516662597656
y: 332.87274169921875
z: -0.002846424002200365
","x: 232.34744262695312
y: 331.837890625
z: -0.004395532887428999
","x: 223.45724487304688
y: 338.0057373046875
z: -0.001189711270853877
","x: 227.4136505126953
y: 336.33392333984375
z: -0.002720149466767907
","x: 230.1226043701172
y: 335.10504150390625
z: -0.004703154321759939
","x: 232.53152465820312
y: 334.4471740722656
z: -0.006153513211756945
","x: 223.25961303710938
y: 339.3133239746094
z: -0.0026866502594202757
","x: 226.56103515625
y: 339.4427795410156
z: -0.0040697213262319565
","x: 228.66786193847656
y: 339.7244873046875
z: -0.005269030574709177
","x: 230.55075073242188
y: 340.21307373046875
z: -0.006210374180227518
"
14,"x: 210.42591857910156
y: 268.05828857421875
z: -0.11038611829280853
visibility: 0.9999428391456604
","x: 207.99618530273438
y: 261.8728332519531
z: -0.09079928696155548
visibility: 0.999901533126831
","x: 207.89364624023438
y: 261.8398742675781
z: -0.09084101021289825
visibility: 0.9998955130577087
","x: 207.7599639892578
y: 261.81170654296875
z: -0.09085477143526077
visibility: 0.9998893141746521
","x: 206.62252807617188
y: 262.3541564941406
z: -0.11505872011184692
visibility: 0.9998705983161926
","x: 205.50929260253906
y: 262.75128173828125
z: -0.11507229506969452
visibility: 0.9998399615287781
","x: 204.29713439941406
y: 263.24163818359375
z: -0.11517319828271866
visibility: 0.999785304069519
","x: 203.48719787597656
y: 265.5252685546875
z: 0.008752850815653801
visibility: 0.9997258186340332
","x: 199.72300720214844
y: 267.9251708984375
z: -0.10041862726211548
visibility: 0.9997892379760742
","x: 210.53916931152344
y: 274.6991271972656
z: -0.07131032645702362
visibility: 0.9998896718025208
","x: 208.6566162109375
y: 275.4400939941406
z: -0.10264071077108383
visibility: 0.9999013543128967
","x: 208.95391845703125
y: 305.6929626464844
z: 0.10331670939922333
visibility: 0.9998975396156311
","x: 192.35398864746094
y: 306.66522216796875
z: -0.14336085319519043
visibility: 0.9997684955596924
","x: 215.92845153808594
y: 347.0936279296875
z: 0.07192401587963104
visibility: 0.8678572773933411
","x: 189.6292266845703
y: 352.9005432128906
z: -0.21553727984428406
visibility: 0.9767351746559143
","x: 227.52276611328125
y: 331.60400390625
z: -0.0762169361114502
visibility: 0.9799715876579285
","x: 211.0205535888672
y: 344.0306091308594
z: -0.20962974429130554
visibility: 0.9755815863609314
","x: 232.462890625
y: 328.86444091796875
z: -0.10021059215068817
visibility: 0.9696396589279175
","x: 218.04385375976562
y: 345.5776672363281
z: -0.23169615864753723
visibility: 0.9591360092163086
","x: 233.27606201171875
y: 325.2220153808594
z: -0.10987246036529541
visibility: 0.9727272391319275
","x: 217.99314880371094
y: 339.1442565917969
z: -0.2306053638458252
visibility: 0.9589292407035828
","x: 230.48403930664062
y: 325.6612854003906
z: -0.08641202747821808
visibility: 0.9650636315345764
","x: 215.62513732910156
y: 338.6015625
z: -0.20734481513500214
visibility: 0.9452084302902222
","x: 204.80404663085938
y: 412.5603942871094
z: 0.06791676580905914
visibility: 0.9997528791427612
","x: 189.23025512695312
y: 412.1307067871094
z: -0.06785748898983002
visibility: 0.9996334314346313
","x: 208.87127685546875
y: 470.1253967285156
z: 0.0813382938504219
visibility: 0.9682847261428833
","x: 187.47959899902344
y: 466.3011474609375
z: 0.029210513457655907
visibility: 0.9876565933227539
","x: 213.8137664794922
y: 527.8175048828125
z: 0.13433487713336945
visibility: 0.9656673669815063
","x: 181.88539123535156
y: 527.40185546875
z: 0.18610690534114838
visibility: 0.9799270033836365
","x: 209.05039978027344
y: 540.3638305664062
z: 0.137216717004776
visibility: 0.9146893620491028
","x: 181.3870849609375
y: 534.5087890625
z: 0.1974731981754303
visibility: 0.8717221021652222
","x: 229.9130859375
y: 547.0079345703125
z: 0.057750772684812546
visibility: 0.9734194278717041
","x: 184.18190002441406
y: 552.2412719726562
z: 0.11035797744989395
visibility: 0.9780927896499634
",,,,,,,,,,,,,,,,,,,,,,"x: 213.39675903320312
y: 341.99151611328125
z: 0.0
","x: 212.98953247070312
y: 337.7225341796875
z: -0.002180711831897497
","x: 213.9934539794922
y: 332.1902160644531
z: -0.004112603608518839
","x: 214.4676513671875
y: 326.63690185546875
z: -0.006264056079089642
","x: 214.29953002929688
y: 321.6020202636719
z: -0.008260778151452541
","x: 221.9688262939453
y: 336.0620422363281
z: 0.0005626708152703941
","x: 225.52439880371094
y: 334.77056884765625
z: -0.0009991786209866405
","x: 227.9519805908203
y: 333.1145935058594
z: -0.0027267804834991693
","x: 229.9328155517578
y: 331.8501281738281
z: -0.003978499677032232
","x: 223.0615234375
y: 336.9547119140625
z: -4.06872495659627e-05
","x: 227.1604461669922
y: 334.8533630371094
z: -0.0011067796731367707
","x: 229.90516662597656
y: 332.87274169921875
z: -0.002846424002200365
","x: 232.34744262695312
y: 331.837890625
z: -0.004395532887428999
","x: 223.45724487304688
y: 338.0057373046875
z: -0.001189711270853877
","x: 227.4136505126953
y: 336.33392333984375
z: -0.002720149466767907
","x: 230.1226043701172
y: 335.10504150390625
z: -0.004703154321759939
","x: 232.53152465820312
y: 334.4471740722656
z: -0.006153513211756945
","x: 223.25961303710938
y: 339.3133239746094
z: -0.0026866502594202757
","x: 226.56103515625
y: 339.4427795410156
z: -0.0040697213262319565
","x: 228.66786193847656
y: 339.7244873046875
z: -0.005269030574709177
","x: 230.55075073242188
y: 340.21307373046875
z: -0.006210374180227518
"
15,"x: 210.3697509765625
y: 268.37115478515625
z: -0.1385578215122223
visibility: 0.9999353885650635
","x: 207.86578369140625
y: 262.0926208496094
z: -0.11953461170196533
visibility: 0.9998937249183655
","x: 207.767578125
y: 262.0460205078125
z: -0.1195598691701889
visibility: 0.9998838901519775
","x: 207.6526641845703
y: 262.0108642578125
z: -0.11958881467580795
visibility: 0.9998800158500671
","x: 206.59153747558594
y: 262.5735778808594
z: -0.14572404325008392
visibility: 0.999869704246521
","x: 205.5390625
y: 262.94354248046875
z: -0.14574185013771057
visibility: 0.9998396635055542
","x: 204.41424560546875
y: 263.39874267578125
z: -0.14583589136600494
visibility: 0.9997891187667847
","x: 203.61720275878906
y: 265.5953674316406
z: -0.02045523375272751
visibility: 0.9996863007545471
","x: 199.93128967285156
y: 267.9723815917969
z: -0.12050233781337738
visibility: 0.9997946619987488
","x: 210.25881958007812
y: 274.9469299316406
z: -0.09901098161935806
visibility: 0.9998513460159302
","x: 208.1038055419922
y: 275.6396484375
z: -0.1327936351299286
visibility: 0.9998781681060791
","x: 207.9359893798828
y: 305.7264404296875
z: 0.0833858996629715
visibility: 0.9998413324356079
","x: 192.292236328125
y: 305.3294677734375
z: -0.18531683087348938
visibility: 0.9997586607933044
","x: 212.28387451171875
y: 346.7086181640625
z: 0.10850994288921356
visibility: 0.8112966418266296
","x: 191.6728515625
y: 352.1217041015625
z: -0.27280178666114807
visibility: 0.9779990315437317
","x: 226.107666015625
y: 331.9427490234375
z: 0.033165257424116135
visibility: 0.9601845145225525
","x: 213.37432861328125
y: 339.5095520019531
z: -0.27713310718536377
visibility: 0.9765690565109253
","x: 232.22152709960938
y: 329.6969909667969
z: 0.021779624745249748
visibility: 0.9462698698043823
","x: 223.3472137451172
y: 336.4324645996094
z: -0.3054465055465698
visibility: 0.9600034952163696
","x: 232.8505096435547
y: 327.9581298828125
z: 0.009389842860400677
visibility: 0.9508618712425232
","x: 219.3856201171875
y: 333.63909912109375
z: -0.3016308546066284
visibility: 0.9593441486358643
","x: 229.6204833984375
y: 328.1631774902344
z: 0.023854995146393776
visibility: 0.9410011172294617
","x: 217.6790313720703
y: 334.2189025878906
z: -0.27608639001846313
visibility: 0.9439103603363037
","x: 205.55972290039062
y: 412.0035095214844
z: 0.07340222597122192
visibility: 0.9997628331184387
","x: 188.808837890625
y: 411.79180908203125
z: -0.0733742043375969
visibility: 0.9996461868286133
","x: 209.59730529785156
y: 470.61138916015625
z: 0.10559626668691635
visibility: 0.967512845993042
","x: 187.13140869140625
y: 466.3052062988281
z: 0.044434554874897
visibility: 0.9879191517829895
","x: 213.8184051513672
y: 528.1573486328125
z: 0.21826839447021484
visibility: 0.9668428897857666
","x: 181.55450439453125
y: 527.2395629882812
z: 0.23488283157348633
visibility: 0.9812517166137695
","x: 209.05426025390625
y: 540.6546630859375
z: 0.22563791275024414
visibility: 0.9182758331298828
","x: 180.94357299804688
y: 534.1990356445312
z: 0.25031915307044983
visibility: 0.8789944648742676
","x: 230.11593627929688
y: 546.99853515625
z: 0.15965725481510162
visibility: 0.9745635390281677
","x: 183.9405975341797
y: 552.5205688476562
z: 0.1730501502752304
visibility: 0.9794500470161438
",,,,,,,,,,,,,,,,,,,,,,,,,,,,,,,,,,,,,,,,,,
16,"x: 205.1824188232422
y: 268.39697265625
z: -0.13713905215263367
visibility: 0.9999331831932068
","x: 204.45648193359375
y: 262.348876953125
z: -0.11932522058486938
visibility: 0.999891996383667
","x: 204.83624267578125
y: 262.47540283203125
z: -0.11934222280979156
visibility: 0.9998779892921448
","x: 205.20144653320312
y: 262.65130615234375
z: -0.11935362964868546
visibility: 0.9998759031295776
","x: 202.27841186523438
y: 262.616943359375
z: -0.1417134702205658
visibility: 0.9998697638511658
","x: 201.00146484375
y: 263.0166015625
z: -0.1417194902896881
visibility: 0.9998385310173035
","x: 199.636962890625
y: 263.4828796386719
z: -0.14178916811943054
visibility: 0.9997928738594055
","x: 202.5968475341797
y: 266.570068359375
z: -0.015534316189587116
visibility: 0.9996479749679565
","x: 195.03643798828125
y: 268.0101623535156
z: -0.11525791883468628
visibility: 0.9998010396957397
","x: 205.74302673339844
y: 275.29864501953125
z: -0.09585191309452057
visibility: 0.9998459219932556
","x: 202.6642608642578
y: 275.76397705078125
z: -0.12513084709644318
visibility: 0.9998756051063538
","x: 207.791015625
y: 306.1695251464844
z: 0.08596616983413696
visibility: 0.9998352527618408
","x: 185.9524688720703
y: 300.831298828125
z: -0.15521764755249023
visibility: 0.9997724294662476
","x: 212.77651977539062
y: 347.70428466796875
z: 0.05471397563815117
visibility: 0.7803804874420166
","x: 188.07615661621094
y: 348.8038635253906
z: -0.18355488777160645
visibility: 0.9770529866218567
","x: 224.9141387939453
y: 331.9334716796875
z: -0.10234862565994263
visibility: 0.9519217014312744
","x: 204.7262420654297
y: 339.0345458984375
z: -0.15627029538154602
visibility: 0.9745463132858276
","x: 231.92955017089844
y: 328.881103515625
z: -0.13005822896957397
visibility: 0.9348849654197693
","x: 205.82122802734375
y: 337.01190185546875
z: -0.1729198545217514
visibility: 0.9565248489379883
","x: 232.50282287597656
y: 326.8541259765625
z: -0.13452869653701782
visibility: 0.939810037612915
","x: 205.83233642578125
y: 334.0762939453125
z: -0.17992642521858215
visibility: 0.9555599689483643
","x: 228.3603973388672
y: 327.79010009765625
z: -0.11077035963535309
visibility: 0.9280846118927002
","x: 206.36302185058594
y: 334.32049560546875
z: -0.15693052113056183
visibility: 0.9384531378746033
","x: 205.74887084960938
y: 411.6038513183594
z: 0.06632213294506073
visibility: 0.9997597336769104
","x: 188.40139770507812
y: 411.47357177734375
z: -0.06632865965366364
visibility: 0.9996494650840759
","x: 209.47027587890625
y: 470.40277099609375
z: 0.09654219448566437
visibility: 0.9645651578903198
","x: 187.80735778808594
y: 465.94769287109375
z: 0.02337133325636387
visibility: 0.9873570799827576
","x: 214.18601989746094
y: 527.9509887695312
z: 0.2153453826904297
visibility: 0.9666599631309509
","x: 182.55276489257812
y: 526.43359375
z: 0.1917618364095688
visibility: 0.9820175170898438
","x: 209.4947509765625
y: 540.1204833984375
z: 0.22317402064800262
visibility: 0.9199878573417664
","x: 182.31007385253906
y: 533.991455078125
z: 0.20465993881225586
visibility: 0.8835887908935547
","x: 230.27806091308594
y: 547.0496826171875
z: 0.15121641755104065
visibility: 0.9747201204299927
","x: 183.91859436035156
y: 552.3260498046875
z: 0.12401913106441498
visibility: 0.980313241481781
",,,,,,,,,,,,,,,,,,,,,,,,,,,,,,,,,,,,,,,,,,
17,"x: 198.84539794921875
y: 270.67681884765625
z: -0.16657772660255432
visibility: 0.9999375939369202
","x: 199.86795043945312
y: 263.73956298828125
z: -0.1515924632549286
visibility: 0.9998976588249207
","x: 200.92991638183594
y: 263.8619689941406
z: -0.15154671669006348
visibility: 0.9998835921287537
","x: 201.98654174804688
y: 264.07891845703125
z: -0.15150699019432068
visibility: 0.9998813271522522
","x: 196.72769165039062
y: 263.9956970214844
z: -0.1600939929485321
visibility: 0.9998784065246582
","x: 195.5441436767578
y: 264.34442138671875
z: -0.16004276275634766
visibility: 0.9998492002487183
","x: 194.29183959960938
y: 264.7225646972656
z: -0.1601293981075287
visibility: 0.9998073577880859
","x: 202.07046508789062
y: 268.065673828125
z: -0.04495638236403465
visibility: 0.9996655583381653
","x: 191.5185089111328
y: 269.12969970703125
z: -0.12232117354869843
visibility: 0.9998157024383545
","x: 200.70346069335938
y: 276.7663269042969
z: -0.12453053891658783
visibility: 0.9998577237129211
","x: 196.019287109375
y: 277.2722473144531
z: -0.1333504617214203
visibility: 0.9998858571052551
","x: 207.2290802001953
y: 308.5509033203125
z: 0.05554920434951782
visibility: 0.9998443126678467
","x: 180.71031188964844
y: 301.26434326171875
z: -0.12131458520889282
visibility: 0.9997922778129578
","x: 212.69961547851562
y: 349.41961669921875
z: 0.01171768270432949
visibility: 0.7882945537567139
","x: 170.7010955810547
y: 339.54974365234375
z: -0.19877491891384125
visibility: 0.9787822961807251
","x: 223.20291137695312
y: 331.9776916503906
z: -0.1493535339832306
visibility: 0.954302966594696
","x: 192.7444610595703
y: 343.8220520019531
z: -0.3261551260948181
visibility: 0.9762715101242065
","x: 230.1005859375
y: 329.055419921875
z: -0.18002526462078094
visibility: 0.9372881054878235
","x: 194.59927368164062
y: 345.932861328125
z: -0.3619832992553711
visibility: 0.9588989019393921
","x: 230.61656188964844
y: 326.860595703125
z: -0.19060035049915314
visibility: 0.9420172572135925
","x: 194.593994140625
y: 340.6845397949219
z: -0.36385470628738403
visibility: 0.957852303981781
","x: 227.2853546142578
y: 327.8367614746094
z: -0.15954267978668213
visibility: 0.9300687313079834
","x: 194.75770568847656
y: 339.9026794433594
z: -0.328970730304718
visibility: 0.9412475824356079
","x: 205.63404846191406
y: 411.4122314453125
z: 0.04589715972542763
visibility: 0.9997703433036804
","x: 186.5855255126953
y: 412.2372741699219
z: -0.04588041827082634
visibility: 0.9996731877326965
","x: 210.03781127929688
y: 470.348876953125
z: 0.07697662711143494
visibility: 0.9672231674194336
","x: 186.6073455810547
y: 465.95050048828125
z: 0.04235532879829407
visibility: 0.988027811050415
","x: 214.62188720703125
y: 528.0670776367188
z: 0.20759396255016327
visibility: 0.9690558910369873
","x: 182.9051055908203
y: 526.5648193359375
z: 0.2282058745622635
visibility: 0.9830416440963745
","x: 210.31570434570312
y: 540.12890625
z: 0.21585094928741455
visibility: 0.924700140953064
","x: 183.4102325439453
y: 533.9459228515625
z: 0.24143488705158234
visibility: 0.8878087997436523
","x: 229.93942260742188
y: 547.2293701171875
z: 0.12571391463279724
visibility: 0.9763944149017334
","x: 183.8794708251953
y: 552.3737182617188
z: 0.14731952548027039
visibility: 0.9812191128730774
",,,,,,,,,,,,,,,,,,,,,,,,,,,,,,,,,,,,,,,,,,
18,"x: 190.85076904296875
y: 270.89080810546875
z: -0.2455449104309082
visibility: 0.9999434947967529
","x: 192.6707763671875
y: 263.96417236328125
z: -0.22892343997955322
visibility: 0.9999070167541504
","x: 194.08648681640625
y: 263.996826171875
z: -0.22892487049102783
visibility: 0.9998940825462341
","x: 195.49166870117188
y: 264.14984130859375
z: -0.22893652319908142
visibility: 0.9998918175697327
","x: 189.00238037109375
y: 264.35345458984375
z: -0.2340511977672577
visibility: 0.9998897910118103
","x: 187.733642578125
y: 264.6636047363281
z: -0.23405539989471436
visibility: 0.99986332654953
","x: 186.3608856201172
y: 264.9745788574219
z: -0.23409387469291687
visibility: 0.9998255372047424
","x: 197.84619140625
y: 268.06390380859375
z: -0.11372014135122299
visibility: 0.9996950030326843
","x: 184.2472686767578
y: 269.1298522949219
z: -0.14132089912891388
visibility: 0.9998331069946289
","x: 193.27835083007812
y: 277.1162109375
z: -0.20064225792884827
visibility: 0.9998711347579956
","x: 188.76084899902344
y: 277.5861511230469
z: -0.20765244960784912
visibility: 0.9998968243598938
","x: 206.5613250732422
y: 308.7275390625
z: -0.004147297702729702
visibility: 0.9998577237129211
","x: 174.1297149658203
y: 301.70147705078125
z: -0.10953432321548462
visibility: 0.9998119473457336
","x: 212.3433380126953
y: 352.0344543457031
z: -0.018495602533221245
visibility: 0.8047893047332764
","x: 160.87911987304688
y: 340.57568359375
z: -0.19994908571243286
visibility: 0.9804956316947937
","x: 223.0182647705078
y: 332.1917419433594
z: -0.18916355073451996
visibility: 0.9580052495002747
","x: 180.41522216796875
y: 350.8629150390625
z: -0.37605375051498413
visibility: 0.9781927466392517
","x: 229.7022705078125
y: 329.58428955078125
z: -0.224713996052742
visibility: 0.9418258666992188
","x: 184.13961791992188
y: 351.4054870605469
z: -0.41637954115867615
visibility: 0.9618397355079651
","x: 229.53990173339844
y: 327.0277404785156
z: -0.23908385634422302
visibility: 0.9462396502494812
","x: 185.1417694091797
y: 344.78125
z: -0.4203391671180725
visibility: 0.9608246684074402
","x: 226.90048217773438
y: 327.92132568359375
z: -0.19972547888755798
visibility: 0.9346351027488708
","x: 184.72882080078125
y: 344.01385498046875
z: -0.38039785623550415
visibility: 0.9451184272766113
","x: 205.18338012695312
y: 408.932373046875
z: 0.0340285450220108
visibility: 0.9997875094413757
","x: 185.53810119628906
y: 410.8370666503906
z: -0.034013018012046814
visibility: 0.999699056148529
","x: 210.192138671875
y: 469.9844055175781
z: 0.006873869337141514
visibility: 0.9696473479270935
","x: 186.1697998046875
y: 464.8642578125
z: 0.0518176443874836
visibility: 0.9882528185844421
","x: 214.74659729003906
y: 527.9154052734375
z: 0.11656178534030914
visibility: 0.971247673034668
","x: 182.75439453125
y: 525.2429809570312
z: 0.256878525018692
visibility: 0.9836565852165222
","x: 210.22023010253906
y: 540.657470703125
z: 0.12235405296087265
visibility: 0.9289721846580505
","x: 183.3606414794922
y: 531.7210083007812
z: 0.27174049615859985
visibility: 0.8892590999603271
","x: 230.2411651611328
y: 547.2965698242188
z: 0.015765951946377754
visibility: 0.9779975414276123
","x: 183.4920654296875
y: 552.2762451171875
z: 0.17081989347934723
visibility: 0.9816628098487854
",,,,,,,,,,,,,,,,,,,,,,,,,,,,,,,,,,,,,,,,,,
19,"x: 186.83016967773438
y: 274.4269104003906
z: -0.2851833701133728
visibility: 0.9999483823776245
","x: 188.47496032714844
y: 266.2606201171875
z: -0.27087098360061646
visibility: 0.9999138116836548
","x: 189.8738555908203
y: 265.7791748046875
z: -0.2708662450313568
visibility: 0.9999013543128967
","x: 191.2547149658203
y: 265.47344970703125
z: -0.2708801031112671
visibility: 0.9998983144760132
","x: 184.75730895996094
y: 267.56414794921875
z: -0.27530327439308167
visibility: 0.9998989701271057
","x: 183.55982971191406
y: 267.8661804199219
z: -0.2753223180770874
visibility: 0.9998748302459717
","x: 182.2649688720703
y: 268.10015869140625
z: -0.2753831148147583
visibility: 0.9998405575752258
","x: 194.0125274658203
y: 268.2781982421875
z: -0.15776361525058746
visibility: 0.9997127652168274
","x: 180.42446899414062
y: 270.536865234375
z: -0.17871102690696716
visibility: 0.999847948551178
","x: 189.86087036132812
y: 279.7310791015625
z: -0.2399137318134308
visibility: 0.999882161617279
","x: 185.44729614257812
y: 280.8373718261719
z: -0.24612195789813995
visibility: 0.9999064803123474
","x: 206.2581024169922
y: 308.39141845703125
z: -0.04106486588716507
visibility: 0.9998689293861389
","x: 169.8516082763672
y: 303.54925537109375
z: -0.1207534521818161
visibility: 0.9998301267623901
","x: 212.37863159179688
y: 352.04913330078125
z: -0.049528028815984726
visibility: 0.8162185549736023
","x: 153.6942901611328
y: 341.1923828125
z: -0.21252909302711487
visibility: 0.9822513461112976
","x: 222.9913330078125
y: 332.28387451171875
z: -0.22084245085716248
visibility: 0.9608634114265442
","x: 169.21771240234375
y: 353.34307861328125
z: -0.38692814111709595
visibility: 0.9801397323608398
","x: 229.65284729003906
y: 329.79669189453125
z: -0.25698626041412354
visibility: 0.9454126358032227
","x: 172.08389282226562
y: 353.5148620605469
z: -0.4266525208950043
visibility: 0.9649267196655273
","x: 229.37156677246094
y: 327.0450134277344
z: -0.272980272769928
visibility: 0.9496069550514221
","x: 173.4608917236328
y: 346.24072265625
z: -0.43134450912475586
visibility: 0.9639490842819214
","x: 226.67984008789062
y: 327.9251708984375
z: -0.23220498859882355
visibility: 0.9382472038269043
","x: 173.38345336914062
y: 345.7983093261719
z: -0.39135968685150146
visibility: 0.9493303894996643
","x: 204.88526916503906
y: 407.94189453125
z: 0.030957454815506935
visibility: 0.9998059272766113
","x: 185.45233154296875
y: 410.80804443359375
z: -0.030978640541434288
visibility: 0.999725878238678
","x: 210.97900390625
y: 469.68878173828125
z: 0.027634400874376297
visibility: 0.9717792272567749
","x: 185.9858856201172
y: 465.684326171875
z: 0.09417613595724106
visibility: 0.9885003566741943
","x: 215.18455505371094
y: 527.7713623046875
z: 0.18854770064353943
visibility: 0.9732441902160645
","x: 182.49684143066406
y: 523.855224609375
z: 0.34418267011642456
visibility: 0.9843278527259827
","x: 210.63275146484375
y: 540.3253784179688
z: 0.20057395100593567
visibility: 0.9328882098197937
","x: 182.7823028564453
y: 528.5088500976562
z: 0.36462587118148804
visibility: 0.8928633332252502
","x: 230.56121826171875
y: 547.2949829101562
z: 0.08321548998355865
visibility: 0.9794217944145203
","x: 183.55604553222656
y: 552.2724609375
z: 0.26836130023002625
visibility: 0.9821726679801941
",,,,,,,,,,,,,,,,,,,,,,,,,,,,,,,,,,,,,,,,,,
20,"x: 185.71844482421875
y: 274.45220947265625
z: -0.26048725843429565
visibility: 0.9999521970748901
","x: 187.70001220703125
y: 266.45538330078125
z: -0.2448328286409378
visibility: 0.999919056892395
","x: 189.22642517089844
y: 265.9685363769531
z: -0.2448660433292389
visibility: 0.9999069571495056
","x: 190.58558654785156
y: 265.6566162109375
z: -0.24491512775421143
visibility: 0.9999039769172668
","x: 183.70947265625
y: 267.7529296875
z: -0.25014543533325195
visibility: 0.999905526638031
","x: 182.5434112548828
y: 268.07275390625
z: -0.2501510977745056
visibility: 0.9998825788497925
","x: 181.29974365234375
y: 268.401123046875
z: -0.25018781423568726
visibility: 0.9998507499694824
","x: 193.26768493652344
y: 268.31585693359375
z: -0.13309155404567719
visibility: 0.9997290372848511
","x: 179.86228942871094
y: 270.75726318359375
z: -0.16238939762115479
visibility: 0.9998572468757629
","x: 189.14630126953125
y: 279.98638916015625
z: -0.21669340133666992
visibility: 0.9998915195465088
","x: 184.11126708984375
y: 281.2854309082031
z: -0.22441375255584717
visibility: 0.9999142289161682
","x: 206.06219482421875
y: 307.984130859375
z: -0.03665336221456528
visibility: 0.9998790621757507
","x: 168.8905029296875
y: 303.88616943359375
z: -0.10580016672611237
visibility: 0.9998443126678467
","x: 212.42367553710938
y: 351.9067687988281
z: -0.06654144823551178
visibility: 0.8269423246383667
","x: 155.8793182373047
y: 341.5783996582031
z: -0.19532209634780884
visibility: 0.9830650091171265
","x: 222.05960083007812
y: 332.36322021484375
z: -0.24852335453033447
visibility: 0.9634041786193848
","x: 161.37060546875
y: 352.6807861328125
z: -0.3775879442691803
visibility: 0.9805880784988403
","x: 228.926513671875
y: 330.54888916015625
z: -0.2897583842277527
visibility: 0.9486156702041626
","x: 163.2423095703125
y: 355.8576965332031
z: -0.4194943308830261
visibility: 0.9652290940284729
","x: 228.1952362060547
y: 327.3501892089844
z: -0.30659219622612
visibility: 0.9526328444480896
","x: 164.27976989746094
y: 348.2464294433594
z: -0.42895179986953735
visibility: 0.964272677898407
","x: 225.4215545654297
y: 328.0234375
z: -0.260864794254303
visibility: 0.9413877725601196
","x: 164.0724639892578
y: 346.9652099609375
z: -0.3854386806488037
visibility: 0.9497500658035278
","x: 204.89688110351562
y: 406.379638671875
z: 0.02609960176050663
visibility: 0.9998227953910828
","x: 185.4062957763672
y: 410.1588134765625
z: -0.026085857301950455
visibility: 0.9997482299804688
","x: 211.3323974609375
y: 468.33135986328125
z: -0.0029389685951173306
visibility: 0.973946750164032
","x: 185.58509826660156
y: 466.5617370605469
z: 0.08544813841581345
visibility: 0.9886065721511841
","x: 215.2277374267578
y: 527.66455078125
z: 0.14033477008342743
visibility: 0.9750037789344788
","x: 182.53909301757812
y: 523.6065063476562
z: 0.3197847902774811
visibility: 0.9846426844596863
","x: 210.65447998046875
y: 540.124755859375
z: 0.15023043751716614
visibility: 0.9363277554512024
","x: 182.70193481445312
y: 527.715576171875
z: 0.3378876745700836
visibility: 0.8928705453872681
","x: 229.7730255126953
y: 547.2594604492188
z: 0.04337426647543907
visibility: 0.9806801676750183
","x: 183.4524383544922
y: 552.4445190429688
z: 0.23978281021118164
visibility: 0.9822260141372681
",,,,,,,,,,,,,,,,,,,,,,,,,,,,,,,,,,,,,,,,,,
21,"x: 185.86997985839844
y: 275.01776123046875
z: -0.2405315637588501
visibility: 0.9999513030052185
","x: 187.73118591308594
y: 266.9261474609375
z: -0.2264273464679718
visibility: 0.9999150633811951
","x: 189.19361877441406
y: 266.349853515625
z: -0.2264717072248459
visibility: 0.9999045729637146
","x: 190.60537719726562
y: 265.91558837890625
z: -0.2265165150165558
visibility: 0.9999012351036072
","x: 183.53390502929688
y: 268.5299072265625
z: -0.23217324912548065
visibility: 0.9998952150344849
","x: 182.36912536621094
y: 268.93572998046875
z: -0.2321813851594925
visibility: 0.9998671412467957
","x: 181.32281494140625
y: 269.3370361328125
z: -0.2322286069393158
visibility: 0.9998254179954529
","x: 193.2919464111328
y: 268.314453125
z: -0.1257404386997223
visibility: 0.9997328519821167
","x: 180.19512939453125
y: 271.87481689453125
z: -0.1346651017665863
visibility: 0.9998103976249695
","x: 189.66812133789062
y: 280.3410949707031
z: -0.20043551921844482
visibility: 0.9998958110809326
","x: 184.29957580566406
y: 281.8323974609375
z: -0.20979614555835724
visibility: 0.999911904335022
","x: 207.62596130371094
y: 307.9580993652344
z: -0.052091050893068314
visibility: 0.9998864531517029
","x: 170.46095275878906
y: 305.4105224609375
z: -0.08072663843631744
visibility: 0.9998296499252319
","x: 212.6693115234375
y: 351.7184143066406
z: -0.1149456650018692
visibility: 0.8363781571388245
","x: 157.4319305419922
y: 346.4785461425781
z: -0.19307248294353485
visibility: 0.9772582054138184
","x: 224.19769287109375
y: 333.0272216796875
z: -0.29491573572158813
visibility: 0.9655805230140686
","x: 157.9610595703125
y: 351.36846923828125
z: -0.4026821255683899
visibility: 0.9750609397888184
","x: 231.98414611816406
y: 331.5988464355469
z: -0.33277687430381775
visibility: 0.9514433145523071
","x: 153.63339233398438
y: 352.50244140625
z: -0.4448532164096832
visibility: 0.9572129845619202
","x: 231.68612670898438
y: 327.7705078125
z: -0.3499391973018646
visibility: 0.9553365707397461
","x: 158.2865447998047
y: 346.46295166015625
z: -0.4537280201911926
visibility: 0.9563266038894653
","x: 228.11668395996094
y: 328.250244140625
z: -0.3067857027053833
visibility: 0.9441936016082764
","x: 160.28268432617188
y: 345.22076416015625
z: -0.4128163456916809
visibility: 0.9409381151199341
","x: 205.42404174804688
y: 406.59661865234375
z: 0.01642962545156479
visibility: 0.9998356699943542
","x: 184.94554138183594
y: 410.8857421875
z: -0.0163947232067585
visibility: 0.9997600317001343
","x: 214.6470184326172
y: 468.2550048828125
z: 0.00011217444989597425
visibility: 0.9762306809425354
","x: 185.3292999267578
y: 470.1904602050781
z: 0.1063009649515152
visibility: 0.98922199010849
","x: 220.1549072265625
y: 527.1781005859375
z: 0.128530353307724
visibility: 0.9770570993423462
","x: 182.41456604003906
y: 523.7548828125
z: 0.3460782766342163
visibility: 0.9852418899536133
","x: 216.23460388183594
y: 539.7764892578125
z: 0.13613882660865784
visibility: 0.9390689134597778
","x: 182.52110290527344
y: 528.0032958984375
z: 0.36530062556266785
visibility: 0.8934454321861267
","x: 231.7495880126953
y: 547.3724365234375
z: 0.024035807698965073
visibility: 0.9820030927658081
","x: 183.3303680419922
y: 552.519775390625
z: 0.2714712619781494
visibility: 0.9826993346214294
",,,,,,,,,,,,,,,,,,,,,,,,,,,,,,,,,,,,,,,,,,
22,"x: 187.23629760742188
y: 277.6759948730469
z: -0.312478631734848
visibility: 0.9999560117721558
","x: 188.50491333007812
y: 269.0423889160156
z: -0.2985376715660095
visibility: 0.9999231696128845
","x: 189.55599975585938
y: 268.4155578613281
z: -0.2985635995864868
visibility: 0.9999136924743652
","x: 190.70675659179688
y: 267.9395446777344
z: -0.2985871732234955
visibility: 0.9999105334281921
","x: 185.12721252441406
y: 270.7967834472656
z: -0.29956337809562683
visibility: 0.9999050498008728
","x: 183.9729766845703
y: 271.263916015625
z: -0.29958805441856384
visibility: 0.9998796582221985
","x: 182.8411865234375
y: 271.7457275390625
z: -0.2995859682559967
visibility: 0.9998416900634766
","x: 194.8632049560547
y: 270.4425964355469
z: -0.1904611587524414
visibility: 0.9997585415840149
","x: 181.09901428222656
y: 274.8265380859375
z: -0.1951950192451477
visibility: 0.9998279213905334
","x: 190.08689880371094
y: 283.03765869140625
z: -0.27062052488327026
visibility: 0.9999058842658997
","x: 185.2838897705078
y: 284.6632995605469
z: -0.2724143862724304
visibility: 0.9999203085899353
","x: 209.9951629638672
y: 308.73681640625
z: -0.09712082892656326
visibility: 0.9998968839645386
","x: 173.5333251953125
y: 313.3028564453125
z: -0.12397893518209457
visibility: 0.9998416304588318
","x: 218.02467346191406
y: 353.6060791015625
z: -0.15845514833927155
visibility: 0.849740207195282
","x: 165.7563934326172
y: 363.5252380371094
z: -0.22359219193458557
visibility: 0.9785398840904236
","x: 228.91488647460938
y: 334.3500061035156
z: -0.3728927969932556
visibility: 0.9687425494194031
","x: 157.19363403320312
y: 358.3319396972656
z: -0.44604992866516113
visibility: 0.9771193861961365
","x: 236.73118591308594
y: 332.72412109375
z: -0.4160527288913727
visibility: 0.9557686448097229
","x: 153.43075561523438
y: 357.5306701660156
z: -0.48978525400161743
visibility: 0.960582435131073
","x: 236.38133239746094
y: 328.1778259277344
z: -0.4327232241630554
visibility: 0.9593413472175598
","x: 153.67556762695312
y: 350.137451171875
z: -0.5018559098243713
visibility: 0.9597971439361572
","x: 233.0518341064453
y: 328.6255187988281
z: -0.38498443365097046
visibility: 0.9490506649017334
","x: 155.63258361816406
y: 349.8469543457031
z: -0.45663565397262573
visibility: 0.9455815553665161
","x: 206.56199645996094
y: 408.61041259765625
z: 0.01801607385277748
visibility: 0.9998497366905212
","x: 184.97267150878906
y: 413.0491943359375
z: -0.01805846579372883
visibility: 0.9997780919075012
","x: 215.6795196533203
y: 469.373046875
z: 0.007533591240644455
visibility: 0.9781017899513245
","x: 185.1599578857422
y: 472.1427001953125
z: 0.09209131449460983
visibility: 0.9899076819419861
","x: 221.89736938476562
y: 527.4779052734375
z: 0.2118597775697708
visibility: 0.978839635848999
","x: 182.28839111328125
y: 524.665771484375
z: 0.3428540825843811
visibility: 0.9861089587211609
","x: 218.2307891845703
y: 539.8164672851562
z: 0.2252621352672577
visibility: 0.9421593546867371
","x: 182.43406677246094
y: 528.307373046875
z: 0.3638002574443817
visibility: 0.895927369594574
","x: 233.84884643554688
y: 547.999267578125
z: 0.12206532806158066
visibility: 0.983208954334259
","x: 183.67898559570312
y: 552.8927001953125
z: 0.26763567328453064
visibility: 0.9834530353546143
",,,,,,,,,,,,,,,,,,,,,,,,,,,,,,,,,,,,,,,,,,
23,"x: 189.6446075439453
y: 278.0780334472656
z: -0.30040061473846436
visibility: 0.99996018409729
","x: 190.8524169921875
y: 269.64459228515625
z: -0.28493183851242065
visibility: 0.9999302625656128
","x: 192.1038818359375
y: 269.1357116699219
z: -0.2849583029747009
visibility: 0.9999217391014099
","x: 193.42189025878906
y: 268.77197265625
z: -0.28497955203056335
visibility: 0.9999186396598816
","x: 186.88189697265625
y: 271.0803527832031
z: -0.28635478019714355
visibility: 0.9999136924743652
","x: 185.4293670654297
y: 271.5084228515625
z: -0.2863793671131134
visibility: 0.9998908042907715
","x: 184.07716369628906
y: 272.00677490234375
z: -0.2863664925098419
visibility: 0.9998562335968018
","x: 197.25643920898438
y: 271.8900146484375
z: -0.17729613184928894
visibility: 0.9997812509536743
","x: 181.97808837890625
y: 276.4483947753906
z: -0.18552899360656738
visibility: 0.9998435974121094
","x: 193.01052856445312
y: 283.9732666015625
z: -0.2596246600151062
visibility: 0.9999147653579712
","x: 188.13699340820312
y: 285.4967956542969
z: -0.26185452938079834
visibility: 0.9999277591705322
","x: 212.30738830566406
y: 310.0460205078125
z: -0.09207062423229218
visibility: 0.999906063079834
","x: 175.3963165283203
y: 317.682861328125
z: -0.12273155152797699
visibility: 0.9998530149459839
","x: 221.6572265625
y: 354.4471740722656
z: -0.15540650486946106
visibility: 0.8626217842102051
","x: 168.57470703125
y: 370.5684814453125
z: -0.22223520278930664
visibility: 0.9800549149513245
","x: 233.74813842773438
y: 334.561767578125
z: -0.3674720823764801
visibility: 0.9716069102287292
","x: 157.0323944091797
y: 360.7265625
z: -0.4257466793060303
visibility: 0.9791203141212463
","x: 240.7315673828125
y: 332.754638671875
z: -0.40984630584716797
visibility: 0.9596303105354309
","x: 152.64718627929688
y: 358.35321044921875
z: -0.4675711691379547
visibility: 0.9638466238975525
","x: 239.7831573486328
y: 328.1663513183594
z: -0.4247306287288666
visibility: 0.9629167914390564
","x: 152.326904296875
y: 351.6809387207031
z: -0.47945600748062134
visibility: 0.9631586074829102
","x: 237.02542114257812
y: 328.5928039550781
z: -0.3791099488735199
visibility: 0.9534137845039368
","x: 154.20431518554688
y: 351.7729187011719
z: -0.43614354729652405
visibility: 0.950115442276001
","x: 210.89620971679688
y: 409.56109619140625
z: 0.014634139835834503
visibility: 0.9998610019683838
","x: 188.92881774902344
y: 413.4989929199219
z: -0.014677338302135468
visibility: 0.9997925758361816
","x: 219.31837463378906
y: 470.88739013671875
z: 0.02061339095234871
visibility: 0.9798115491867065
","x: 185.51910400390625
y: 471.76397705078125
z: 0.07942260056734085
visibility: 0.9904264211654663
","x: 222.45663452148438
y: 527.8382568359375
z: 0.21223454177379608
visibility: 0.9803372025489807
","x: 182.52413940429688
y: 524.6943359375
z: 0.3145461678504944
visibility: 0.9867703914642334
","x: 218.52117919921875
y: 539.8200073242188
z: 0.22549135982990265
visibility: 0.9441375136375427
","x: 182.64862060546875
y: 528.4326782226562
z: 0.33308273553848267
visibility: 0.8963969349861145
","x: 234.35592651367188
y: 549.0136108398438
z: 0.12461347877979279
visibility: 0.9841536283493042
","x: 183.692138671875
y: 553.0481567382812
z: 0.23807165026664734
visibility: 0.9839993715286255
","x: 234.17262268066406
y: 325.52935791015625
z: 0.0
","x: 235.80630493164062
y: 326.5218505859375
z: -0.0038722320459783077
","x: 238.81207275390625
y: 326.81689453125
z: -0.005681166425347328
","x: 242.20053100585938
y: 327.17608642578125
z: -0.007220553699880838
","x: 245.21014404296875
y: 328.04425048828125
z: -0.008476952090859413
","x: 242.26052856445312
y: 321.04229736328125
z: -0.003010423155501485
","x: 246.56719970703125
y: 324.3505859375
z: -0.005412560421973467
","x: 248.23385620117188
y: 328.6492919921875
z: -0.0070192646235227585
","x: 248.64329528808594
y: 332.2918701171875
z: -0.007797338999807835
","x: 243.10203552246094
y: 321.1598205566406
z: -0.0022835610434412956
","x: 247.2561492919922
y: 324.88226318359375
z: -0.005534400697797537
","x: 248.5162353515625
y: 329.694091796875
z: -0.0074270740151405334
","x: 248.72262573242188
y: 333.6323547363281
z: -0.008178412914276123
","x: 243.50912475585938
y: 322.3405456542969
z: -0.0019744406454265118
","x: 247.3599853515625
y: 325.8081359863281
z: -0.005050464533269405
","x: 248.5362091064453
y: 329.9319152832031
z: -0.006444393191486597
","x: 248.76316833496094
y: 333.56597900390625
z: -0.006814976688474417
","x: 243.6197052001953
y: 324.35089111328125
z: -0.00204864633269608
","x: 246.69247436523438
y: 326.57958984375
z: -0.004381255246698856
","x: 247.8915557861328
y: 329.64935302734375
z: -0.005335013382136822
","x: 248.20848083496094
y: 332.5712890625
z: -0.005509515758603811
",,,,,,,,,,,,,,,,,,,,,
24,"x: 189.6446075439453
y: 278.0780334472656
z: -0.30040061473846436
visibility: 0.99996018409729
","x: 190.8524169921875
y: 269.64459228515625
z: -0.28493183851242065
visibility: 0.9999302625656128
","x: 192.1038818359375
y: 269.1357116699219
z: -0.2849583029747009
visibility: 0.9999217391014099
","x: 193.42189025878906
y: 268.77197265625
z: -0.28497955203056335
visibility: 0.9999186396598816
","x: 186.88189697265625
y: 271.0803527832031
z: -0.28635478019714355
visibility: 0.9999136924743652
","x: 185.4293670654297
y: 271.5084228515625
z: -0.2863793671131134
visibility: 0.9998908042907715
","x: 184.07716369628906
y: 272.00677490234375
z: -0.2863664925098419
visibility: 0.9998562335968018
","x: 197.25643920898438
y: 271.8900146484375
z: -0.17729613184928894
visibility: 0.9997812509536743
","x: 181.97808837890625
y: 276.4483947753906
z: -0.18552899360656738
visibility: 0.9998435974121094
","x: 193.01052856445312
y: 283.9732666015625
z: -0.2596246600151062
visibility: 0.9999147653579712
","x: 188.13699340820312
y: 285.4967956542969
z: -0.26185452938079834
visibility: 0.9999277591705322
","x: 212.30738830566406
y: 310.0460205078125
z: -0.09207062423229218
visibility: 0.999906063079834
","x: 175.3963165283203
y: 317.682861328125
z: -0.12273155152797699
visibility: 0.9998530149459839
","x: 221.6572265625
y: 354.4471740722656
z: -0.15540650486946106
visibility: 0.8626217842102051
","x: 168.57470703125
y: 370.5684814453125
z: -0.22223520278930664
visibility: 0.9800549149513245
","x: 233.74813842773438
y: 334.561767578125
z: -0.3674720823764801
visibility: 0.9716069102287292
","x: 157.0323944091797
y: 360.7265625
z: -0.4257466793060303
visibility: 0.9791203141212463
","x: 240.7315673828125
y: 332.754638671875
z: -0.40984630584716797
visibility: 0.9596303105354309
","x: 152.64718627929688
y: 358.35321044921875
z: -0.4675711691379547
visibility: 0.9638466238975525
","x: 239.7831573486328
y: 328.1663513183594
z: -0.4247306287288666
visibility: 0.9629167914390564
","x: 152.326904296875
y: 351.6809387207031
z: -0.47945600748062134
visibility: 0.9631586074829102
","x: 237.02542114257812
y: 328.5928039550781
z: -0.3791099488735199
visibility: 0.9534137845039368
","x: 154.20431518554688
y: 351.7729187011719
z: -0.43614354729652405
visibility: 0.950115442276001
","x: 210.89620971679688
y: 409.56109619140625
z: 0.014634139835834503
visibility: 0.9998610019683838
","x: 188.92881774902344
y: 413.4989929199219
z: -0.014677338302135468
visibility: 0.9997925758361816
","x: 219.31837463378906
y: 470.88739013671875
z: 0.02061339095234871
visibility: 0.9798115491867065
","x: 185.51910400390625
y: 471.76397705078125
z: 0.07942260056734085
visibility: 0.9904264211654663
","x: 222.45663452148438
y: 527.8382568359375
z: 0.21223454177379608
visibility: 0.9803372025489807
","x: 182.52413940429688
y: 524.6943359375
z: 0.3145461678504944
visibility: 0.9867703914642334
","x: 218.52117919921875
y: 539.8200073242188
z: 0.22549135982990265
visibility: 0.9441375136375427
","x: 182.64862060546875
y: 528.4326782226562
z: 0.33308273553848267
visibility: 0.8963969349861145
","x: 234.35592651367188
y: 549.0136108398438
