uscmakers/ReverseChoreography/data/6_slow_dancing_in_the_dark_joji.csv
,NOSE,LEFT_EYE_INNER,LEFT_EYE,LEFT_EYE_OUTER,RIGHT_EYE_INNER,RIGHT_EYE,RIGHT_EYE_OUTER,LEFT_EAR,RIGHT_EAR,MOUTH_LEFT,MOUTH_RIGHT,LEFT_SHOULDER,RIGHT_SHOULDER,LEFT_ELBOW,RIGHT_ELBOW,LEFT_WRIST,RIGHT_WRIST,LEFT_PINKY,RIGHT_PINKY,LEFT_INDEX,RIGHT_INDEX,LEFT_THUMB,RIGHT_THUMB,LEFT_HIP,RIGHT_HIP,LEFT_KNEE,RIGHT_KNEE,LEFT_ANKLE,RIGHT_ANKLE,LEFT_HEEL,RIGHT_HEEL,LEFT_FOOT_INDEX,RIGHT_FOOT_INDEX,WRIST,THUMB_CPC,THUMB_MCP,THUMB_IP,THUMB_TIP,INDEX_FINGER_MCP,INDEX_FINGER_PIP,INDEX_FINGER_DIP,INDEX_FINGER_TIP,MIDDLE_FINGER_MCP,MIDDLE_FINGER_PIP,MIDDLE_FINGER_DIP,MIDDLE_FINGER_TIP,RING_FINGER_PIP,RING_FINGER_DIP,RING_FINGER_TIP,RING_FINGER_MCP,PINKY_MCP,PINKY_PIP,PINKY_DIP,PINKY_TIP,WRIST2,THUMB_CPC2,THUMB_MCP2,THUMB_IP2,THUMB_TIP2,INDEX_FINGER_MCP2,INDEX_FINGER_PIP2,INDEX_FINGER_DIP2,INDEX_FINGER_TIP2,MIDDLE_FINGER_MCP2,MIDDLE_FINGER_PIP2,MIDDLE_FINGER_DIP2,MIDDLE_FINGER_TIP2,RING_FINGER_PIP2,RING_FINGER_DIP2,RING_FINGER_TIP2,RING_FINGER_MCP2,PINKY_MCP2,PINKY_PIP2,PINKY_DIP2,PINKY_TIP2
0,"x: 179.8289794921875
y: 285.3236999511719
z: -0.2416403740644455
visibility: 0.9999384880065918
","x: 182.12744140625
y: 278.6196594238281
z: -0.2252747118473053
visibility: 0.999850869178772
","x: 183.4678192138672
y: 278.74139404296875
z: -0.2253400981426239
visibility: 0.9998412132263184
","x: 184.8043975830078
y: 278.74993896484375
z: -0.2253938615322113
visibility: 0.9998395442962646
","x: 178.45028686523438
y: 277.031982421875
z: -0.22837336361408234
visibility: 0.9997573494911194
","x: 177.0342254638672
y: 276.1471862792969
z: -0.228384330868721
visibility: 0.9997137188911438
","x: 175.49220275878906
y: 275.2639465332031
z: -0.2283823937177658
visibility: 0.9996500015258789
","x: 186.4044647216797
y: 280.08966064453125
z: -0.1187596470117569
visibility: 0.9997645020484924
","x: 171.6613311767578
y: 276.45526123046875
z: -0.1352645307779312
visibility: 0.9994115829467773
","x: 181.75311279296875
y: 292.0975036621094
z: -0.20085600018501282
visibility: 0.9999115467071533
","x: 176.75778198242188
y: 291.36822509765625
z: -0.20548132061958313
visibility: 0.9998921155929565
","x: 193.12033081054688
y: 321.6556396484375
z: -0.04382629320025444
visibility: 0.9999614953994751
","x: 159.74533081054688
y: 306.9208068847656
z: -0.08350937813520432
visibility: 0.9998070597648621
","x: 201.4771270751953
y: 359.0148620605469
z: -0.07473096996545792
visibility: 0.9591490030288696
","x: 143.8623809814453
y: 339.965576171875
z: -0.16387853026390076
visibility: 0.9909362196922302
","x: 224.08580017089844
y: 361.8292236328125
z: -0.25656479597091675
visibility: 0.9933475852012634
","x: 130.9415740966797
y: 338.895751953125
z: -0.365018367767334
visibility: 0.9916663765907288
","x: 228.5508270263672
y: 363.1011962890625
z: -0.2947530150413513
visibility: 0.9888753890991211
","x: 121.69670104980469
y: 340.88238525390625
z: -0.4066963791847229
visibility: 0.9837040305137634
","x: 229.00588989257812
y: 358.6263427734375
z: -0.31966155767440796
visibility: 0.9909776449203491
","x: 123.86557006835938
y: 337.36944580078125
z: -0.42403873801231384
visibility: 0.9857967495918274
","x: 227.2303466796875
y: 358.47003173828125
z: -0.27259042859077454
visibility: 0.9884299039840698
","x: 127.54334259033203
y: 337.4800109863281
z: -0.3784448206424713
visibility: 0.9830003976821899
","x: 185.4495391845703
y: 406.166259765625
z: 0.023249711841344833
visibility: 0.9997203946113586
","x: 166.00717163085938
y: 404.9516296386719
z: -0.0232001431286335
visibility: 0.9994407296180725
","x: 186.60116577148438
y: 461.3753662109375
z: -0.03145992383360863
visibility: 0.9807339906692505
","x: 166.2593536376953
y: 463.713623046875
z: -0.005595280788838863
visibility: 0.9824051260948181
","x: 168.8297576904297
y: 508.2125244140625
z: 0.1833215057849884
visibility: 0.9431295394897461
","x: 162.0200958251953
y: 520.9348754882812
z: 0.18829818069934845
visibility: 0.9697412252426147
","x: 163.43736267089844
y: 514.462890625
z: 0.20183329284191132
visibility: 0.8608365654945374
","x: 159.5008087158203
y: 528.3133544921875
z: 0.2035292685031891
visibility: 0.7990226745605469
","x: 173.40562438964844
y: 534.120361328125
z: 0.12278678268194199
visibility: 0.963959276676178
","x: 168.58641052246094
y: 540.8966064453125
z: 0.10489453375339508
visibility: 0.9699004888534546
","x: 129.5982208251953
y: 336.1295166015625
z: 0.0
","x: 128.39572143554688
y: 341.6763916015625
z: -0.002480229828506708
","x: 126.14691162109375
y: 346.9332580566406
z: -0.005318940617144108
","x: 124.19110107421875
y: 350.9252624511719
z: -0.007846047170460224
","x: 122.3682861328125
y: 354.48126220703125
z: -0.01036278810352087
","x: 124.20948028564453
y: 340.87158203125
z: -0.008333559148013592
","x: 120.30200958251953
y: 344.0391540527344
z: -0.011157975532114506
","x: 117.94705200195312
y: 346.3016052246094
z: -0.011602381244301796
","x: 116.39826965332031
y: 348.6616516113281
z: -0.01150865200906992
","x: 123.66300964355469
y: 335.7854919433594
z: -0.008458727039396763
","x: 119.20892333984375
y: 338.8261413574219
z: -0.010907760821282864
","x: 117.0653076171875
y: 341.3973693847656
z: -0.010178308002650738
","x: 115.68801879882812
y: 343.7998962402344
z: -0.009575163014233112
","x: 123.71206665039062
y: 331.5498352050781
z: -0.008396224118769169
","x: 119.3647689819336
y: 332.2261962890625
z: -0.011229251511394978
","x: 116.38520812988281
y: 333.17694091796875
z: -0.011138364672660828
","x: 114.27682495117188
y: 334.54412841796875
z: -0.010857668705284595
","x: 124.01802062988281
y: 328.1148681640625
z: -0.00837007723748684
","x: 121.55472564697266
y: 325.7790832519531
z: -0.010428804904222488
","x: 119.92204284667969
y: 325.0948486328125
z: -0.010480028577148914
","x: 118.75434112548828
y: 325.07196044921875
z: -0.010333368554711342
",,,,,,,,,,,,,,,,,,,,,
1,"x: 179.8289794921875
y: 285.3236999511719
z: -0.2416403740644455
visibility: 0.9999384880065918
","x: 182.12744140625
y: 278.6196594238281
z: -0.2252747118473053
visibility: 0.999850869178772
","x: 183.4678192138672
y: 278.74139404296875
z: -0.2253400981426239
visibility: 0.9998412132263184
","x: 184.8043975830078
y: 278.74993896484375
z: -0.2253938615322113
visibility: 0.9998395442962646
","x: 178.45028686523438
y: 277.031982421875
z: -0.22837336361408234
visibility: 0.9997573494911194
","x: 177.0342254638672
y: 276.1471862792969
z: -0.228384330868721
visibility: 0.9997137188911438
","x: 175.49220275878906
y: 275.2639465332031
z: -0.2283823937177658
visibility: 0.9996500015258789
","x: 186.4044647216797
y: 280.08966064453125
z: -0.1187596470117569
visibility: 0.9997645020484924
","x: 171.6613311767578
y: 276.45526123046875
z: -0.1352645307779312
visibility: 0.9994115829467773
","x: 181.75311279296875
y: 292.0975036621094
z: -0.20085600018501282
visibility: 0.9999115467071533
","x: 176.75778198242188
y: 291.36822509765625
z: -0.20548132061958313
visibility: 0.9998921155929565
","x: 193.12033081054688
y: 321.6556396484375
z: -0.04382629320025444
visibility: 0.9999614953994751
","x: 159.74533081054688
y: 306.9208068847656
z: -0.08350937813520432
visibility: 0.9998070597648621
","x: 201.4771270751953
y: 359.0148620605469
z: -0.07473096996545792
visibility: 0.9591490030288696
","x: 143.8623809814453
y: 339.965576171875
z: -0.16387853026390076
visibility: 0.9909362196922302
","x: 224.08580017089844
y: 361.8292236328125
z: -0.25656479597091675
visibility: 0.9933475852012634
","x: 130.9415740966797
y: 338.895751953125
z: -0.365018367767334
visibility: 0.9916663765907288
","x: 228.5508270263672
y: 363.1011962890625
z: -0.2947530150413513
visibility: 0.9888753890991211
","x: 121.69670104980469
y: 340.88238525390625
z: -0.4066963791847229
visibility: 0.9837040305137634
","x: 229.00588989257812
y: 358.6263427734375
z: -0.31966155767440796
visibility: 0.9909776449203491
","x: 123.86557006835938
y: 337.36944580078125
z: -0.42403873801231384
visibility: 0.9857967495918274
","x: 227.2303466796875
y: 358.47003173828125
z: -0.27259042859077454
visibility: 0.9884299039840698
","x: 127.54334259033203
y: 337.4800109863281
z: -0.3784448206424713
visibility: 0.9830003976821899
","x: 185.4495391845703
y: 406.166259765625
z: 0.023249711841344833
visibility: 0.9997203946113586
","x: 166.00717163085938
y: 404.9516296386719
z: -0.0232001431286335
visibility: 0.9994407296180725
","x: 186.60116577148438
y: 461.3753662109375
z: -0.03145992383360863
visibility: 0.9807339906692505
","x: 166.2593536376953
y: 463.713623046875
z: -0.005595280788838863
visibility: 0.9824051260948181
","x: 168.8297576904297
y: 508.2125244140625
z: 0.1833215057849884
visibility: 0.9431295394897461
","x: 162.0200958251953
y: 520.9348754882812
z: 0.18829818069934845
visibility: 0.9697412252426147
","x: 163.43736267089844
y: 514.462890625
z: 0.20183329284191132
visibility: 0.8608365654945374
","x: 159.5008087158203
y: 528.3133544921875
z: 0.2035292685031891
visibility: 0.7990226745605469
","x: 173.40562438964844
y: 534.120361328125
z: 0.12278678268194199
visibility: 0.963959276676178
","x: 168.58641052246094
y: 540.8966064453125
z: 0.10489453375339508
visibility: 0.9699004888534546
","x: 129.5982208251953
y: 336.1295166015625
z: 0.0
","x: 128.39572143554688
y: 341.6763916015625
z: -0.002480229828506708
","x: 126.14691162109375
y: 346.9332580566406
z: -0.005318940617144108
","x: 124.19110107421875
y: 350.9252624511719
z: -0.007846047170460224
","x: 122.3682861328125
y: 354.48126220703125
z: -0.01036278810352087
","x: 124.20948028564453
y: 340.87158203125
z: -0.008333559148013592
","x: 120.30200958251953
y: 344.0391540527344
z: -0.011157975532114506
","x: 117.94705200195312
y: 346.3016052246094
z: -0.011602381244301796
","x: 116.39826965332031
y: 348.6616516113281
z: -0.01150865200906992
","x: 123.66300964355469
y: 335.7854919433594
z: -0.008458727039396763
","x: 119.20892333984375
y: 338.8261413574219
z: -0.010907760821282864
","x: 117.0653076171875
y: 341.3973693847656
z: -0.010178308002650738
","x: 115.68801879882812
y: 343.7998962402344
z: -0.009575163014233112
","x: 123.71206665039062
y: 331.5498352050781
z: -0.008396224118769169
","x: 119.3647689819336
y: 332.2261962890625
z: -0.011229251511394978
","x: 116.38520812988281
y: 333.17694091796875
z: -0.011138364672660828
","x: 114.27682495117188
y: 334.54412841796875
z: -0.010857668705284595
","x: 124.01802062988281
y: 328.1148681640625
z: -0.00837007723748684
","x: 121.55472564697266
y: 325.7790832519531
z: -0.010428804904222488
","x: 119.92204284667969
y: 325.0948486328125
z: -0.010480028577148914
","x: 118.75434112548828
y: 325.07196044921875
z: -0.010333368554711342
",,,,,,,,,,,,,,,,,,,,,
2,"x: 185.99362182617188
y: 279.32000732421875
z: -0.3258230984210968
visibility: 0.9999445676803589
","x: 187.69606018066406
y: 272.5036315917969
z: -0.3120642304420471
visibility: 0.9998656511306763
","x: 188.9649658203125
y: 272.3511962890625
z: -0.3120068311691284
visibility: 0.9998568892478943
","x: 190.17518615722656
y: 272.2948913574219
z: -0.31200653314590454
visibility: 0.9998553395271301
","x: 183.6922607421875
y: 272.68414306640625
z: -0.3136032223701477
visibility: 0.9997815489768982
","x: 182.18310546875
y: 272.64715576171875
z: -0.3136586844921112
visibility: 0.9997422695159912
","x: 180.6720428466797
y: 272.61553955078125
z: -0.31365343928337097
visibility: 0.9996849298477173
","x: 192.34478759765625
y: 274.78070068359375
z: -0.20954617857933044
visibility: 0.9997876286506653
","x: 178.0117950439453
y: 275.3573913574219
z: -0.2167169749736786
visibility: 0.9994704127311707
","x: 188.52183532714844
y: 285.4004211425781
z: -0.28567686676979065
visibility: 0.9999202489852905
","x: 183.77626037597656
y: 285.9182434082031
z: -0.28794482350349426
visibility: 0.9999028444290161
","x: 203.64976501464844
y: 309.955322265625
z: -0.12804226577281952
visibility: 0.9999518990516663
","x: 164.8367462158203
y: 304.7867431640625
z: -0.17992079257965088
visibility: 0.999825656414032
","x: 222.80804443359375
y: 306.94635009765625
z: -0.22761893272399902
visibility: 0.9623732566833496
","x: 146.86915588378906
y: 332.3699951171875
z: -0.3279358744621277
visibility: 0.9918087720870972
","x: 232.99630737304688
y: 266.6343994140625
z: -0.37901079654693604
visibility: 0.9926500916481018
","x: 152.4038543701172
y: 286.26934814453125
z: -0.5059880018234253
visibility: 0.9923675656318665
","x: 238.26026916503906
y: 259.6805725097656
z: -0.41269874572753906
visibility: 0.9855011105537415
","x: 150.38540649414062
y: 276.8190612792969
z: -0.5494767427444458
visibility: 0.9845948219299316
","x: 237.64877319335938
y: 257.345947265625
z: -0.4129147529602051
visibility: 0.9872768521308899
","x: 152.78546142578125
y: 274.6755065917969
z: -0.5376961827278137
visibility: 0.9863379001617432
","x: 235.31399536132812
y: 259.32232666015625
z: -0.38569962978363037
visibility: 0.9841741323471069
","x: 153.95907592773438
y: 278.4244079589844
z: -0.5066466331481934
visibility: 0.983390212059021
","x: 195.14183044433594
y: 405.15057373046875
z: 0.02143394947052002
visibility: 0.9997413754463196
","x: 173.82791137695312
y: 404.4925231933594
z: -0.021510329097509384
visibility: 0.999493420124054
","x: 198.66632080078125
y: 464.03009033203125
z: 0.08406678587198257
visibility: 0.9822374582290649
","x: 168.1608428955078
y: 463.71343994140625
z: 0.011809277348220348
visibility: 0.9840816855430603
","x: 207.0646209716797
y: 523.6719970703125
z: 0.25870996713638306
visibility: 0.9484363794326782
","x: 162.18264770507812
y: 521.8988647460938
z: 0.18997861444950104
visibility: 0.972580075263977
","x: 204.31915283203125
y: 534.45751953125
z: 0.2708979547023773
visibility: 0.8716815710067749
","x: 159.8148956298828
y: 531.9600830078125
z: 0.2041599303483963
visibility: 0.8144657611846924
","x: 216.00975036621094
y: 545.0809326171875
z: 0.1732756346464157
visibility: 0.9670763611793518
","x: 169.7676544189453
y: 540.9420166015625
z: 0.10135839879512787
visibility: 0.9725536704063416
",,,,,,,,,,,,,,,,,,,,,,,,,,,,,,,,,,,,,,,,,,
3,"x: 188.28955078125
y: 278.44036865234375
z: -0.3242810368537903
visibility: 0.9999500513076782
","x: 189.55601501464844
y: 271.1954040527344
z: -0.30906590819358826
visibility: 0.9998789429664612
","x: 190.77565002441406
y: 270.95587158203125
z: -0.3090117573738098
visibility: 0.9998709559440613
","x: 192.0075225830078
y: 270.8068542480469
z: -0.3090205192565918
visibility: 0.9998695850372314
","x: 185.85263061523438
y: 271.60009765625
z: -0.31350579857826233
visibility: 0.9998033046722412
","x: 184.43441772460938
y: 271.6838684082031
z: -0.3135446310043335
visibility: 0.9997679591178894
","x: 182.93984985351562
y: 271.7677001953125
z: -0.3135506212711334
visibility: 0.9997164011001587
","x: 193.83346557617188
y: 273.6163024902344
z: -0.20269310474395752
visibility: 0.9998084306716919
","x: 179.26473999023438
y: 274.8724060058594
z: -0.22242000699043274
visibility: 0.9995233416557312
","x: 190.45143127441406
y: 284.3179016113281
z: -0.2826745808124542
visibility: 0.9999280571937561
","x: 186.07315063476562
y: 285.0928955078125
z: -0.288553386926651
visibility: 0.9999125003814697
","x: 204.63092041015625
y: 307.2601623535156
z: -0.12363400310277939
visibility: 0.9999435544013977
","x: 166.54783630371094
y: 304.2958984375
z: -0.19027996063232422
visibility: 0.9998417496681213
","x: 223.5572509765625
y: 304.18902587890625
z: -0.24217334389686584
visibility: 0.9653611779212952
","x: 149.42713928222656
y: 330.4932861328125
z: -0.3471929430961609
visibility: 0.9925915002822876
","x: 230.96351623535156
y: 262.4588317871094
z: -0.4133397042751312
visibility: 0.9922871589660645
","x: 157.24102783203125
y: 281.09490966796875
z: -0.5254358649253845
visibility: 0.9930159449577332
","x: 235.74765014648438
y: 250.87484741210938
z: -0.45108431577682495
visibility: 0.9834763407707214
","x: 155.4922637939453
y: 270.57891845703125
z: -0.5716201066970825
visibility: 0.9855173230171204
","x: 235.47703552246094
y: 247.4614715576172
z: -0.4462800621986389
visibility: 0.9848247766494751
","x: 157.90426635742188
y: 266.9760437011719
z: -0.557194173336029
visibility: 0.9869406223297119
","x: 233.37005615234375
y: 252.54624938964844
z: -0.4185347557067871
visibility: 0.9810277819633484
","x: 159.00875854492188
y: 271.7273254394531
z: -0.5252043008804321
visibility: 0.9838366508483887
","x: 197.37567138671875
y: 405.0753173828125
z: 0.021402012556791306
visibility: 0.999763011932373
","x: 175.32518005371094
y: 404.4546813964844
z: -0.021486397832632065
visibility: 0.9995402693748474
","x: 201.894287109375
y: 465.7279968261719
z: 0.063573457300663
visibility: 0.9838051199913025
","x: 168.45379638671875
y: 464.1422119140625
z: 0.07359981536865234
visibility: 0.9855791926383972
","x: 209.56314086914062
y: 526.375244140625
z: 0.2332090586423874
visibility: 0.9533132314682007
","x: 162.5006561279297
y: 521.8864135742188
z: 0.29131463170051575
visibility: 0.9751001596450806
","x: 206.9857635498047
y: 536.7481079101562
z: 0.24588564038276672
visibility: 0.8821703195571899
","x: 159.92884826660156
y: 532.9773559570312
z: 0.3090589642524719
visibility: 0.8280651569366455
","x: 218.4592742919922
y: 547.8104248046875
z: 0.15193317830562592
visibility: 0.9700236320495605
","x: 170.33145141601562
y: 540.9383544921875
z: 0.21135208010673523
visibility: 0.9748483896255493
","x: 160.2001953125
y: 273.6963195800781
z: 0.0
","x: 162.10202026367188
y: 272.146484375
z: -0.0035451313015073538
","x: 163.90359497070312
y: 269.3572692871094
z: -0.006663626525551081
","x: 165.6302032470703
y: 267.78497314453125
z: -0.009840901009738445
","x: 167.87701416015625
y: 267.1465759277344
z: -0.012982037849724293
","x: 161.8677215576172
y: 259.26055908203125
z: -0.005757758393883705
","x: 161.593017578125
y: 251.32948303222656
z: -0.009377330541610718
","x: 161.1998748779297
y: 246.40908813476562
z: -0.01207002904266119
","x: 160.79067993164062
y: 242.4063262939453
z: -0.013953151181340218
","x: 159.98507690429688
y: 259.4402770996094
z: -0.006444326601922512
","x: 159.3258819580078
y: 254.518310546875
z: -0.010234777815639973
","x: 158.86073303222656
y: 254.467529296875
z: -0.011716150678694248
","x: 158.4724884033203
y: 255.23318481445312
z: -0.01239902712404728
","x: 158.2601318359375
y: 260.9655456542969
z: -0.007542275823652744
","x: 157.4744873046875
y: 256.9642333984375
z: -0.011003230698406696
","x: 157.3753204345703
y: 256.3736267089844
z: -0.0119759077206254
","x: 157.37889099121094
y: 256.478515625
z: -0.012348002754151821
","x: 156.6923828125
y: 263.4130554199219
z: -0.009107418358325958
","x: 154.77481079101562
y: 259.8420715332031
z: -0.01181065198034048
","x: 153.59085083007812
y: 257.7882080078125
z: -0.012833833694458008
","x: 152.74900817871094
y: 256.2703552246094
z: -0.013352619484066963
",,,,,,,,,,,,,,,,,,,,,
4,"x: 188.28955078125
y: 278.44036865234375
z: -0.3242810368537903
visibility: 0.9999500513076782
","x: 189.55601501464844
y: 271.1954040527344
z: -0.30906590819358826
visibility: 0.9998789429664612
","x: 190.77565002441406
y: 270.95587158203125
z: -0.3090117573738098
visibility: 0.9998709559440613
","x: 192.0075225830078
y: 270.8068542480469
z: -0.3090205192565918
visibility: 0.9998695850372314
","x: 185.85263061523438
y: 271.60009765625
z: -0.31350579857826233
visibility: 0.9998033046722412
","x: 184.43441772460938
y: 271.6838684082031
z: -0.3135446310043335
visibility: 0.9997679591178894
","x: 182.93984985351562
y: 271.7677001953125
z: -0.3135506212711334
visibility: 0.9997164011001587
","x: 193.83346557617188
y: 273.6163024902344
z: -0.20269310474395752
visibility: 0.9998084306716919
","x: 179.26473999023438
y: 274.8724060058594
z: -0.22242000699043274
visibility: 0.9995233416557312
","x: 190.45143127441406
y: 284.3179016113281
z: -0.2826745808124542
visibility: 0.9999280571937561
","x: 186.07315063476562
y: 285.0928955078125
z: -0.288553386926651
visibility: 0.9999125003814697
","x: 204.63092041015625
y: 307.2601623535156
z: -0.12363400310277939
visibility: 0.9999435544013977
","x: 166.54783630371094
y: 304.2958984375
z: -0.19027996063232422
visibility: 0.9998417496681213
","x: 223.5572509765625
y: 304.18902587890625
z: -0.24217334389686584
visibility: 0.9653611779212952
","x: 149.42713928222656
y: 330.4932861328125
z: -0.3471929430961609
visibility: 0.9925915002822876
","x: 230.96351623535156
y: 262.4588317871094
z: -0.4133397042751312
visibility: 0.9922871589660645
","x: 157.24102783203125
y: 281.09490966796875
z: -0.5254358649253845
visibility: 0.9930159449577332
","x: 235.74765014648438
y: 250.87484741210938
z: -0.45108431577682495
visibility: 0.9834763407707214
","x: 155.4922637939453
y: 270.57891845703125
z: -0.5716201066970825
visibility: 0.9855173230171204
","x: 235.47703552246094
y: 247.4614715576172
z: -0.4462800621986389
visibility: 0.9848247766494751
","x: 157.90426635742188
y: 266.9760437011719
z: -0.557194173336029
visibility: 0.9869406223297119
","x: 233.37005615234375
y: 252.54624938964844
z: -0.4185347557067871
visibility: 0.9810277819633484
","x: 159.00875854492188
y: 271.7273254394531
z: -0.5252043008804321
visibility: 0.9838366508483887
","x: 197.37567138671875
y: 405.0753173828125
z: 0.021402012556791306
visibility: 0.999763011932373
","x: 175.32518005371094
y: 404.4546813964844
z: -0.021486397832632065
visibility: 0.9995402693748474
","x: 201.894287109375
y: 465.7279968261719
z: 0.063573457300663
visibility: 0.9838051199913025
","x: 168.45379638671875
y: 464.1422119140625
z: 0.07359981536865234
visibility: 0.9855791926383972
","x: 209.56314086914062
y: 526.375244140625
z: 0.2332090586423874
visibility: 0.9533132314682007
","x: 162.5006561279297
y: 521.8864135742188
z: 0.29131463170051575
visibility: 0.9751001596450806
","x: 206.9857635498047
y: 536.7481079101562
z: 0.24588564038276672
visibility: 0.8821703195571899
","x: 159.92884826660156
y: 532.9773559570312
z: 0.3090589642524719
visibility: 0.8280651569366455
","x: 218.4592742919922
y: 547.8104248046875
z: 0.15193317830562592
visibility: 0.9700236320495605
","x: 170.33145141601562
y: 540.9383544921875
z: 0.21135208010673523
visibility: 0.9748483896255493
","x: 160.2001953125
y: 273.6963195800781
z: 0.0
","x: 162.10202026367188
y: 272.146484375
z: -0.0035451313015073538
","x: 163.90359497070312
y: 269.3572692871094
z: -0.006663626525551081
","x: 165.6302032470703
y: 267.78497314453125
z: -0.009840901009738445
","x: 167.87701416015625
y: 267.1465759277344
z: -0.012982037849724293
","x: 161.8677215576172
y: 259.26055908203125
z: -0.005757758393883705
","x: 161.593017578125
y: 251.32948303222656
z: -0.009377330541610718
","x: 161.1998748779297
y: 246.40908813476562
z: -0.01207002904266119
","x: 160.79067993164062
y: 242.4063262939453
z: -0.013953151181340218
","x: 159.98507690429688
y: 259.4402770996094
z: -0.006444326601922512
","x: 159.3258819580078
y: 254.518310546875
z: -0.010234777815639973
","x: 158.86073303222656
y: 254.467529296875
z: -0.011716150678694248
","x: 158.4724884033203
y: 255.23318481445312
z: -0.01239902712404728
","x: 158.2601318359375
y: 260.9655456542969
z: -0.007542275823652744
","x: 157.4744873046875
y: 256.9642333984375
z: -0.011003230698406696
","x: 157.3753204345703
y: 256.3736267089844
z: -0.0119759077206254
","x: 157.37889099121094
y: 256.478515625
z: -0.012348002754151821
","x: 156.6923828125
y: 263.4130554199219
z: -0.009107418358325958
","x: 154.77481079101562
y: 259.8420715332031
z: -0.01181065198034048
","x: 153.59085083007812
y: 257.7882080078125
z: -0.012833833694458008
","x: 152.74900817871094
y: 256.2703552246094
z: -0.013352619484066963
",,,,,,,,,,,,,,,,,,,,,
5,"x: 188.61874389648438
y: 278.7357482910156
z: -0.3291260302066803
visibility: 0.9999549388885498
","x: 190.067138671875
y: 271.2430114746094
z: -0.31226664781570435
visibility: 0.9998908638954163
","x: 191.35667419433594
y: 270.95758056640625
z: -0.3122066259384155
visibility: 0.9998835325241089
","x: 192.638671875
y: 270.7552185058594
z: -0.3122178018093109
visibility: 0.9998822808265686
","x: 186.3524932861328
y: 271.65435791015625
z: -0.31818151473999023
visibility: 0.9998228549957275
","x: 185.00660705566406
y: 271.6866149902344
z: -0.3182153105735779
visibility: 0.9997910261154175
","x: 183.56405639648438
y: 271.74346923828125
z: -0.3182331621646881
visibility: 0.9997446537017822
","x: 194.4947052001953
y: 273.51629638671875
z: -0.20145873725414276
visibility: 0.9998267889022827
","x: 180.13449096679688
y: 274.891845703125
z: -0.22834546864032745
visibility: 0.9995709657669067
","x: 190.85411071777344
y: 284.38055419921875
z: -0.28605422377586365
visibility: 0.99993497133255
","x: 186.5489044189453
y: 285.30950927734375
z: -0.2939940094947815
visibility: 0.9999212026596069
","x: 204.91619873046875
y: 307.17205810546875
z: -0.11674541234970093
visibility: 0.9999310970306396
","x: 167.58164978027344
y: 304.9787292480469
z: -0.1963583528995514
visibility: 0.9998559355735779
","x: 223.01687622070312
y: 311.6933898925781
z: -0.23272418975830078
visibility: 0.9677717685699463
","x: 148.7754364013672
y: 330.67547607421875
z: -0.346483051776886
visibility: 0.99330073595047
","x: 229.81292724609375
y: 265.75787353515625
z: -0.40817856788635254
visibility: 0.991513729095459
","x: 159.8756103515625
y: 285.4753723144531
z: -0.5110523104667664
visibility: 0.9935502409934998
","x: 234.98745727539062
y: 251.62313842773438
z: -0.44582241773605347
visibility: 0.9802489876747131
","x: 159.36593627929688
y: 274.14617919921875
z: -0.5547131299972534
visibility: 0.9859990477561951
","x: 232.6868438720703
y: 249.13796997070312
z: -0.4368574023246765
visibility: 0.9811044931411743
","x: 161.74603271484375
y: 271.7034606933594
z: -0.5368607640266418
visibility: 0.9870171546936035
","x: 231.34228515625
y: 255.45114135742188
z: -0.4116453528404236
visibility: 0.9762205481529236
","x: 162.46923828125
y: 276.09185791015625
z: -0.5085302591323853
visibility: 0.9834591746330261
","x: 197.98526000976562
y: 405.7879638671875
z: 0.02410837635397911
visibility: 0.9997833967208862
","x: 175.99986267089844
y: 405.5859680175781
z: -0.02423701249063015
visibility: 0.999582827091217
","x: 203.7729034423828
y: 467.93963623046875
z: 0.06812144815921783
visibility: 0.9849933981895447
","x: 169.11175537109375
y: 466.5509033203125
z: 0.09223099052906036
visibility: 0.9868337512016296
","x: 209.5767059326172
y: 527.96337890625
z: 0.24609379470348358
visibility: 0.957523763179779
","x: 162.51925659179688
y: 522.0415649414062
z: 0.3346860408782959
visibility: 0.9771712422370911
","x: 205.99655151367188
y: 539.3292846679688
z: 0.25995734333992004
visibility: 0.8911322355270386
","x: 159.36831665039062
y: 533.4739990234375
z: 0.3553158640861511
visibility: 0.8380736708641052
","x: 218.4816436767578
y: 548.6826782226562
z: 0.16421599686145782
visibility: 0.9725594520568848
","x: 171.1197509765625
y: 541.5635986328125
z: 0.26160797476768494
visibility: 0.9766225218772888
",,,,,,,,,,,,,,,,,,,,,,,,,,,,,,,,,,,,,,,,,,
6,"x: 188.00631713867188
y: 279.136474609375
z: -0.2847062945365906
visibility: 0.9999591708183289
","x: 189.55226135253906
y: 271.6576843261719
z: -0.26692530512809753
visibility: 0.999901294708252
","x: 190.8533172607422
y: 271.42938232421875
z: -0.266828715801239
visibility: 0.9998944997787476
","x: 192.16195678710938
y: 271.22607421875
z: -0.26678523421287537
visibility: 0.9998932480812073
","x: 185.97300720214844
y: 271.8851318359375
z: -0.26811638474464417
visibility: 0.9998401999473572
","x: 184.6757354736328
y: 272.14825439453125
z: -0.26816171407699585
visibility: 0.9998115301132202
","x: 183.28253173828125
y: 272.3701171875
z: -0.26817500591278076
visibility: 0.9997698664665222
","x: 194.1796112060547
y: 274.3416748046875
z: -0.16909554600715637
visibility: 0.99984210729599
","x: 179.9484100341797
y: 276.14166259765625
z: -0.17406561970710754
visibility: 0.9996135830879211
","x: 190.3304901123047
y: 284.96661376953125
z: -0.24974945187568665
visibility: 0.9999408721923828
","x: 186.2939453125
y: 285.378662109375
z: -0.2510574460029602
visibility: 0.9999288320541382
","x: 205.00360107421875
y: 307.79217529296875
z: -0.11201319843530655
visibility: 0.9999222159385681
","x: 168.47048950195312
y: 308.5931701660156
z: -0.17261001467704773
visibility: 0.9998670220375061
","x: 224.11990356445312
y: 315.39752197265625
z: -0.18968512117862701
visibility: 0.9702649712562561
","x: 149.24078369140625
y: 330.0849914550781
z: -0.2794017493724823
visibility: 0.993915855884552
","x: 229.3175811767578
y: 273.09228515625
z: -0.3557054102420807
visibility: 0.9914202690124512
","x: 159.50149536132812
y: 286.5782775878906
z: -0.4343363642692566
visibility: 0.9939895272254944
","x: 232.52392578125
y: 259.55633544921875
z: -0.39200109243392944
visibility: 0.9789518713951111
","x: 159.2336883544922
y: 276.7983703613281
z: -0.47197985649108887
visibility: 0.9862749576568604
","x: 230.08502197265625
y: 256.88385009765625
z: -0.42538055777549744
visibility: 0.9795032143592834
","x: 161.41693115234375
y: 275.14703369140625
z: -0.4494386613368988
visibility: 0.9869768619537354
","x: 228.9686737060547
y: 263.15802001953125
z: -0.3632890582084656
visibility: 0.9742450714111328
","x: 161.9598846435547
y: 279.48284912109375
z: -0.4273826479911804
visibility: 0.9832373261451721
","x: 198.6822967529297
y: 407.02520751953125
z: 0.022078437730669975
visibility: 0.9997985363006592
","x: 177.3258514404297
y: 406.908447265625
z: -0.02218988910317421
visibility: 0.9996185898780823
","x: 205.19618225097656
y: 468.0978698730469
z: 0.055918656289577484
visibility: 0.9859426617622375
","x: 169.69839477539062
y: 466.85784912109375
z: 0.054888706654310226
visibility: 0.9879793524742126
","x: 209.77798461914062
y: 527.9833984375
z: 0.21129262447357178
visibility: 0.9612525105476379
","x: 162.5194549560547
y: 522.5213012695312
z: 0.2949359118938446
visibility: 0.9790740013122559
","x: 205.6884765625
y: 539.5994873046875
z: 0.21796183288097382
visibility: 0.8982115983963013
","x: 159.37124633789062
y: 534.1295776367188
z: 0.2982119023799896
visibility: 0.846442461013794
","x: 218.43397521972656
y: 548.22314453125
z: 0.12004182487726212
visibility: 0.9746226072311401
","x: 170.99484252929688
y: 541.5648193359375
z: 0.2499314248561859
visibility: 0.9782432317733765
","x: 161.94223022460938
y: 287.8706970214844
z: 0.0
","x: 164.6725616455078
y: 285.7491760253906
z: -0.0024814209900796413
","x: 167.0102996826172
y: 281.96875
z: -0.005005132406949997
","x: 168.98849487304688
y: 279.35662841796875
z: -0.00778049323707819
","x: 170.97132873535156
y: 277.5809631347656
z: -0.010592864826321602
","x: 164.323486328125
y: 273.82354736328125
z: -0.004568502306938171
","x: 164.47544860839844
y: 267.3284606933594
z: -0.008577910251915455
","x: 165.22280883789062
y: 264.4628601074219
z: -0.01121834758669138
","x: 166.14727783203125
y: 263.14080810546875
z: -0.012781175784766674
","x: 162.0970916748047
y: 274.2733154296875
z: -0.005813115742057562
","x: 161.6658172607422
y: 268.90643310546875
z: -0.010026510804891586
","x: 162.12986755371094
y: 266.519287109375
z: -0.012044154107570648
","x: 162.74517822265625
y: 265.5887756347656
z: -0.013103384524583817
","x: 160.07489013671875
y: 275.8164367675781
z: -0.007458079140633345
","x: 159.16159057617188
y: 270.9673767089844
z: -0.011147711426019669
","x: 158.84197998046875
y: 267.83221435546875
z: -0.012643788941204548
","x: 158.77911376953125
y: 265.638916015625
z: -0.013437105342745781
","x: 158.4339141845703
y: 278.34002685546875
z: -0.009436534717679024
","x: 156.93386840820312
y: 275.06414794921875
z: -0.012308704666793346
","x: 155.92076110839844
y: 272.7324523925781
z: -0.013500789180397987
","x: 155.1827850341797
y: 270.70477294921875
z: -0.014192035421729088
",,,,,,,,,,,,,,,,,,,,,
7,"x: 188.00631713867188
y: 279.136474609375
z: -0.2847062945365906
visibility: 0.9999591708183289
","x: 189.55226135253906
y: 271.6576843261719
z: -0.26692530512809753
visibility: 0.999901294708252
","x: 190.8533172607422
y: 271.42938232421875
z: -0.266828715801239
visibility: 0.9998944997787476
","x: 192.16195678710938
y: 271.22607421875
z: -0.26678523421287537
visibility: 0.9998932480812073
","x: 185.97300720214844
y: 271.8851318359375
z: -0.26811638474464417
visibility: 0.9998401999473572
","x: 184.6757354736328
y: 272.14825439453125
z: -0.26816171407699585
visibility: 0.9998115301132202
","x: 183.28253173828125
y: 272.3701171875
z: -0.26817500591278076
visibility: 0.9997698664665222
","x: 194.1796112060547
y: 274.3416748046875
z: -0.16909554600715637
visibility: 0.99984210729599
","x: 179.9484100341797
y: 276.14166259765625
z: -0.17406561970710754
visibility: 0.9996135830879211
","x: 190.3304901123047
y: 284.96661376953125
z: -0.24974945187568665
visibility: 0.9999408721923828
","x: 186.2939453125
y: 285.378662109375
z: -0.2510574460029602
visibility: 0.9999288320541382
","x: 205.00360107421875
y: 307.79217529296875
z: -0.11201319843530655
visibility: 0.9999222159385681
","x: 168.47048950195312
y: 308.5931701660156
z: -0.17261001467704773
visibility: 0.9998670220375061
","x: 224.11990356445312
y: 315.39752197265625
z: -0.18968512117862701
visibility: 0.9702649712562561
","x: 149.24078369140625
y: 330.0849914550781
z: -0.2794017493724823
visibility: 0.993915855884552
","x: 229.3175811767578
y: 273.09228515625
z: -0.3557054102420807
visibility: 0.9914202690124512
","x: 159.50149536132812
y: 286.5782775878906
z: -0.4343363642692566
visibility: 0.9939895272254944
","x: 232.52392578125
y: 259.55633544921875
z: -0.39200109243392944
visibility: 0.9789518713951111
","x: 159.2336883544922
y: 276.7983703613281
z: -0.47197985649108887
visibility: 0.9862749576568604
","x: 230.08502197265625
y: 256.88385009765625
z: -0.42538055777549744
visibility: 0.9795032143592834
","x: 161.41693115234375
y: 275.14703369140625
z: -0.4494386613368988
visibility: 0.9869768619537354
","x: 228.9686737060547
y: 263.15802001953125
z: -0.3632890582084656
visibility: 0.9742450714111328
","x: 161.9598846435547
y: 279.48284912109375
z: -0.4273826479911804
visibility: 0.9832373261451721
","x: 198.6822967529297
y: 407.02520751953125
z: 0.022078437730669975
visibility: 0.9997985363006592
","x: 177.3258514404297
y: 406.908447265625
z: -0.02218988910317421
visibility: 0.9996185898780823
","x: 205.19618225097656
y: 468.0978698730469
z: 0.055918656289577484
visibility: 0.9859426617622375
","x: 169.69839477539062
y: 466.85784912109375
z: 0.054888706654310226
visibility: 0.9879793524742126
","x: 209.77798461914062
y: 527.9833984375
z: 0.21129262447357178
visibility: 0.9612525105476379
","x: 162.5194549560547
y: 522.5213012695312
z: 0.2949359118938446
visibility: 0.9790740013122559
","x: 205.6884765625
y: 539.5994873046875
z: 0.21796183288097382
visibility: 0.8982115983963013
","x: 159.37124633789062
y: 534.1295776367188
z: 0.2982119023799896
visibility: 0.846442461013794
","x: 218.43397521972656
y: 548.22314453125
z: 0.12004182487726212
visibility: 0.9746226072311401
","x: 170.99484252929688
y: 541.5648193359375
z: 0.2499314248561859
visibility: 0.9782432317733765
","x: 161.94223022460938
y: 287.8706970214844
z: 0.0
","x: 164.6725616455078
y: 285.7491760253906
z: -0.0024814209900796413
","x: 167.0102996826172
y: 281.96875
z: -0.005005132406949997
","x: 168.98849487304688
y: 279.35662841796875
z: -0.00778049323707819
","x: 170.97132873535156
y: 277.5809631347656
z: -0.010592864826321602
","x: 164.323486328125
y: 273.82354736328125
z: -0.004568502306938171
","x: 164.47544860839844
y: 267.3284606933594
z: -0.008577910251915455
","x: 165.22280883789062
y: 264.4628601074219
z: -0.01121834758669138
","x: 166.14727783203125
y: 263.14080810546875
z: -0.012781175784766674
","x: 162.0970916748047
y: 274.2733154296875
z: -0.005813115742057562
","x: 161.6658172607422
y: 268.90643310546875
z: -0.010026510804891586
","x: 162.12986755371094
y: 266.519287109375
z: -0.012044154107570648
","x: 162.74517822265625
y: 265.5887756347656
z: -0.013103384524583817
","x: 160.07489013671875
y: 275.8164367675781
z: -0.007458079140633345
","x: 159.16159057617188
y: 270.9673767089844
z: -0.011147711426019669
","x: 158.84197998046875
y: 267.83221435546875
z: -0.012643788941204548
","x: 158.77911376953125
y: 265.638916015625
z: -0.013437105342745781
","x: 158.4339141845703
y: 278.34002685546875
z: -0.009436534717679024
","x: 156.93386840820312
y: 275.06414794921875
z: -0.012308704666793346
","x: 155.92076110839844
y: 272.7324523925781
z: -0.013500789180397987
","x: 155.1827850341797
y: 270.70477294921875
z: -0.014192035421729088
",,,,,,,,,,,,,,,,,,,,,
8,"x: 187.45037841796875
y: 280.757568359375
z: -0.27171480655670166
visibility: 0.9999623894691467
","x: 189.01499938964844
y: 273.8565673828125
z: -0.2543333172798157
visibility: 0.9999094009399414
","x: 190.25685119628906
y: 273.5157470703125
z: -0.25427675247192383
visibility: 0.9999027848243713
","x: 191.5196990966797
y: 273.1979675292969
z: -0.2542611062526703
visibility: 0.9999013543128967
","x: 185.55908203125
y: 274.6219482421875
z: -0.25919458270072937
visibility: 0.9998548626899719
","x: 184.2808837890625
y: 274.9851379394531
z: -0.25923699140548706
visibility: 0.9998289942741394
","x: 182.89785766601562
y: 275.283203125
z: -0.2592676281929016
visibility: 0.9997916221618652
","x: 193.49295043945312
y: 276.55474853515625
z: -0.15060779452323914
visibility: 0.9998522996902466
","x: 179.15118408203125
y: 280.1999206542969
z: -0.17161469161510468
visibility: 0.9996512532234192
","x: 189.8317108154297
y: 286.2435302734375
z: -0.23293252289295197
visibility: 0.9999452829360962
","x: 185.64324951171875
y: 287.5357666015625
z: -0.23951205611228943
visibility: 0.9999352097511292
","x: 204.72781372070312
y: 308.9826354980469
z: -0.07414325326681137
visibility: 0.9999159574508667
","x: 168.25259399414062
y: 309.97344970703125
z: -0.1524994820356369
visibility: 0.9998756647109985
","x: 223.84864807128906
y: 316.9244689941406
z: -0.1739148497581482
visibility: 0.9719856977462769
","x: 151.61744689941406
y: 330.7721252441406
z: -0.28867536783218384
visibility: 0.994452953338623
","x: 228.9365692138672
y: 281.8406066894531
z: -0.35516712069511414
visibility: 0.9908062815666199
","x: 159.61923217773438
y: 290.3465881347656
z: -0.4529173970222473
visibility: 0.9943657517433167
","x: 231.36769104003906
y: 268.69775390625
z: -0.3919041156768799
visibility: 0.9768701791763306
","x: 158.51364135742188
y: 280.1862487792969
z: -0.49429917335510254
visibility: 0.98658287525177
","x: 229.1742706298828
y: 266.0218200683594
z: -0.39632776379585266
visibility: 0.9772647023200989
","x: 160.0541229248047
y: 278.4421691894531
z: -0.4783300459384918
visibility: 0.9870315194129944
","x: 228.0791778564453
y: 271.4168701171875
z: -0.3610374331474304
visibility: 0.9714345932006836
","x: 161.13360595703125
y: 282.678955078125
z: -0.45126479864120483
visibility: 0.9829602241516113
","x: 199.02745056152344
y: 408.9716796875
z: 0.02527250349521637
visibility: 0.9998149275779724
","x: 177.7998046875
y: 409.1025390625
z: -0.02535855397582054
visibility: 0.9996500015258789
","x: 206.88111877441406
y: 467.6924133300781
z: 0.007455187849700451
visibility: 0.9869358539581299
","x: 170.43910217285156
y: 467.60089111328125
z: 0.05336024612188339
visibility: 0.9889248013496399
","x: 209.36813354492188
y: 526.7906494140625
z: 0.13546618819236755
visibility: 0.9646926522254944
","x: 162.6858367919922
y: 522.7484130859375
z: 0.26580360531806946
visibility: 0.9805849194526672
","x: 204.44712829589844
y: 538.421142578125
z: 0.14365561306476593
visibility: 0.9054327607154846
","x: 159.5837860107422
y: 533.8087158203125
z: 0.2802770733833313
visibility: 0.8516512513160706
","x: 218.2375946044922
y: 548.080078125
z: 0.04089343175292015
visibility: 0.9766835570335388
","x: 170.87744140625
y: 541.5430908203125
z: 0.19158229231834412
visibility: 0.9794812798500061
",,,,,,,,,,,,,,,,,,,,,,,,,,,,,,,,,,,,,,,,,,
9,"x: 187.39341735839844
y: 281.63677978515625
z: -0.27231207489967346
visibility: 0.9999653697013855
","x: 188.8664093017578
y: 274.8764343261719
z: -0.2553269565105438
visibility: 0.9999170899391174
","x: 190.0592803955078
y: 274.4656066894531
z: -0.2552899718284607
visibility: 0.9999106526374817
","x: 191.28402709960938
y: 274.11065673828125
z: -0.25528648495674133
visibility: 0.9999091625213623
","x: 185.51263427734375
y: 275.99249267578125
z: -0.2602793872356415
visibility: 0.9998683333396912
","x: 184.25244140625
y: 276.37646484375
z: -0.2603302597999573
visibility: 0.9998449683189392
","x: 182.8920135498047
y: 276.6901550292969
z: -0.2603759169578552
visibility: 0.9998113512992859
","x: 193.40231323242188
y: 277.68353271484375
z: -0.1484994739294052
visibility: 0.9998624324798584
","x: 179.21298217773438
y: 280.9978942871094
z: -0.17434541881084442
visibility: 0.9996852278709412
","x: 189.88055419921875
y: 286.8216247558594
z: -0.23318901658058167
visibility: 0.9999493956565857
","x: 185.70901489257812
y: 288.79632568359375
z: -0.2409481257200241
visibility: 0.9999409317970276
","x: 205.2538604736328
y: 309.7213134765625
z: -0.06092109531164169
visibility: 0.9999076724052429
","x: 169.18295288085938
y: 312.44952392578125
z: -0.15702718496322632
visibility: 0.9998813271522522
","x: 224.46519470214844
y: 319.108642578125
z: -0.159820094704628
visibility: 0.9734241366386414
","x: 152.61376953125
y: 329.960693359375
z: -0.30441635847091675
visibility: 0.9949058890342712
","x: 228.72760009765625
y: 283.9578552246094
z: -0.33240777254104614
visibility: 0.9902357459068298
","x: 160.93771362304688
y: 291.8193664550781
z: -0.46784743666648865
visibility: 0.9946094751358032
","x: 230.95042419433594
y: 270.6540222167969
z: -0.36401695013046265
visibility: 0.9747288823127747
","x: 160.1737823486328
y: 283.646240234375
z: -0.5086985230445862
visibility: 0.9864771366119385
","x: 228.8372802734375
y: 267.939208984375
z: -0.3574008643627167
visibility: 0.9749814867973328
","x: 161.6534423828125
y: 281.7940673828125
z: -0.4957595467567444
visibility: 0.986615777015686
","x: 227.70062255859375
y: 273.91705322265625
z: -0.33481383323669434
visibility: 0.9685907363891602
","x: 162.47299194335938
y: 285.9072570800781
z: -0.4674413204193115
visibility: 0.9820001721382141
","x: 199.27577209472656
y: 410.1622009277344
z: 0.03241056576371193
visibility: 0.999830424785614
","x: 178.29364013671875
y: 409.99859619140625
z: -0.03248441591858864
visibility: 0.9996792078018188
","x: 208.68728637695312
y: 467.42498779296875
z: 0.0017788320546969771
visibility: 0.987705647945404
","x: 171.27049255371094
y: 468.1883239746094
z: 0.05154763534665108
visibility: 0.9897376298904419
","x: 208.79417419433594
y: 527.6435546875
z: 0.13122200965881348
visibility: 0.9677261710166931
","x: 162.78953552246094
y: 522.814208984375
z: 0.26465144753456116
visibility: 0.9819242358207703
","x: 204.25674438476562
y: 539.25390625
z: 0.1398109495639801
visibility: 0.9124557971954346
","x: 159.44833374023438
y: 533.6779174804688
z: 0.2811829149723053
visibility: 0.8562384247779846
","x: 219.27935791015625
y: 548.3851928710938
z: 0.04102674871683121
visibility: 0.9785058498382568
","x: 170.86859130859375
y: 542.03466796875
z: 0.18831484019756317
visibility: 0.9805432558059692
",,,,,,,,,,,,,,,,,,,,,,,,,,,,,,,,,,,,,,,,,,
10,"x: 187.3837890625
y: 284.7401123046875
z: -0.2590709328651428
visibility: 0.9999670386314392
","x: 188.84388732910156
y: 277.8121337890625
z: -0.24031689763069153
visibility: 0.9999220967292786
","x: 190.00404357910156
y: 277.26617431640625
z: -0.2402970790863037
visibility: 0.999915361404419
","x: 191.1793212890625
y: 276.78472900390625
z: -0.24030713737010956
visibility: 0.99991375207901
","x: 185.5507354736328
y: 279.29345703125
z: -0.24620148539543152
visibility: 0.9998784065246582
","x: 184.32366943359375
y: 279.8045654296875
z: -0.24624678492546082
visibility: 0.9998574256896973
","x: 183.03277587890625
y: 280.281005859375
z: -0.24629804491996765
visibility: 0.9998270273208618
","x: 193.31466674804688
y: 279.97454833984375
z: -0.1308707743883133
visibility: 0.9998655915260315
","x: 179.96923828125
y: 284.2147521972656
z: -0.15883103013038635
visibility: 0.9997137188911438
","x: 189.94581604003906
y: 289.9301452636719
z: -0.21841073036193848
visibility: 0.9999515414237976
","x: 185.88058471679688
y: 292.5719909667969
z: -0.22668322920799255
visibility: 0.9999447464942932
","x: 206.7473602294922
y: 309.9233703613281
z: -0.042276449501514435
visibility: 0.9998980760574341
","x: 171.4896240234375
y: 317.132568359375
z: -0.1498771756887436
visibility: 0.999879777431488
","x: 226.08326721191406
y: 320.7876281738281
z: -0.1368858516216278
visibility: 0.9745323657989502
","x: 159.92601013183594
y: 339.61505126953125
z: -0.29572051763534546
visibility: 0.995193362236023
","x: 228.70701599121094
y: 283.3388977050781
z: -0.3025532364845276
visibility: 0.9898136258125305
","x: 165.50213623046875
y: 294.9811096191406
z: -0.46107855439186096
visibility: 0.9947203397750854
","x: 230.81082153320312
y: 270.1227111816406
z: -0.33451199531555176
visibility: 0.9731357097625732
","x: 164.77572631835938
y: 288.4676818847656
z: -0.5022041201591492
visibility: 0.9861995577812195
","x: 228.8228302001953
y: 267.55548095703125
z: -0.32759055495262146
visibility: 0.9732145667076111
","x: 166.6915283203125
y: 286.1813659667969
z: -0.49236661195755005
visibility: 0.9860530495643616
","x: 227.65965270996094
y: 272.8231506347656
z: -0.30548664927482605
visibility: 0.9662851095199585
","x: 167.22332763671875
y: 289.11944580078125
z: -0.4619383215904236
visibility: 0.9807751774787903
","x: 200.9410858154297
y: 411.5669250488281
z: 0.03705915808677673
visibility: 0.9998443126678467
","x: 180.06903076171875
y: 410.9078369140625
z: -0.037113290280103683
visibility: 0.9997037053108215
","x: 210.98960876464844
y: 467.170166015625
z: -0.010702001862227917
visibility: 0.9880660772323608
","x: 172.54185485839844
y: 468.8783264160156
z: 0.03058512881398201
visibility: 0.990303099155426
","x: 209.12081909179688
y: 528.1324462890625
z: 0.12888973951339722
visibility: 0.9702255129814148
","x: 162.79539489746094
y: 522.8494873046875
z: 0.23738792538642883
visibility: 0.982934832572937
","x: 204.24920654296875
y: 539.4945068359375
z: 0.1386367529630661
visibility: 0.9182028770446777
","x: 159.04734802246094
y: 533.5411376953125
z: 0.25324544310569763
visibility: 0.857611358165741
","x: 220.40065002441406
y: 548.851806640625
z: 0.04305734112858772
visibility: 0.9799320697784424
","x: 171.21182250976562
y: 542.2340698242188
z: 0.1595662236213684
visibility: 0.9811826944351196
",,,,,,,,,,,,,,,,,,,,,,,,,,,,,,,,,,,,,,,,,,
11,"x: 187.2572021484375
y: 285.459716796875
z: -0.2557235658168793
visibility: 0.999968409538269
","x: 188.74453735351562
y: 278.75048828125
z: -0.23786601424217224
visibility: 0.9999263882637024
","x: 189.8944549560547
y: 278.404052734375
z: -0.23785161972045898
visibility: 0.9999196529388428
","x: 191.06094360351562
y: 278.11529541015625
z: -0.2378658801317215
visibility: 0.9999175071716309
","x: 185.48291015625
y: 279.68743896484375
z: -0.2414025068283081
visibility: 0.9998871088027954
","x: 184.30972290039062
y: 280.0137634277344
z: -0.24144713580608368
visibility: 0.9998684525489807
","x: 183.08795166015625
y: 280.33447265625
z: -0.2414814680814743
visibility: 0.9998409152030945
","x: 193.27357482910156
y: 281.2874450683594
z: -0.13245545327663422
visibility: 0.999868631362915
","x: 180.57089233398438
y: 284.16180419921875
z: -0.14923150837421417
visibility: 0.9997389316558838
","x: 189.86856079101562
y: 291.02716064453125
z: -0.21670711040496826
visibility: 0.9999534487724304
","x: 185.73635864257812
y: 293.0367736816406
z: -0.22172586619853973
visibility: 0.9999480247497559
","x: 207.90499877929688
y: 312.3056335449219
z: -0.04840433970093727
visibility: 0.9998923540115356
","x: 173.1391143798828
y: 320.2783508300781
z: -0.13430526852607727
visibility: 0.9998801350593567
","x: 227.77264404296875
y: 322.21435546875
z: -0.14139170944690704
visibility: 0.9757151007652283
","x: 163.3235626220703
y: 350.583251953125
z: -0.2739902138710022
visibility: 0.9953696131706238
","x: 228.87332153320312
y: 287.3904724121094
z: -0.31013691425323486
visibility: 0.9894293546676636
","x: 166.4778594970703
y: 308.2273254394531
z: -0.4359690248966217
visibility: 0.994759202003479
","x: 230.76275634765625
y: 275.1119079589844
z: -0.34355980157852173
visibility: 0.9714952111244202
","x: 165.2872772216797
y: 295.5782470703125
z: -0.47550004720687866
visibility: 0.9858735203742981
","x: 228.85617065429688
y: 272.5743408203125
z: -0.3370025157928467
visibility: 0.971317708492279
","x: 166.6460723876953
y: 292.01312255859375
z: -0.4663768708705902
visibility: 0.9854863882064819
","x: 227.66273498535156
y: 277.4231262207031
z: -0.3134920001029968
visibility: 0.9639235734939575
","x: 167.5362091064453
y: 296.5181579589844
z: -0.43675071001052856
visibility: 0.9796775579452515
","x: 203.3068084716797
y: 414.2782897949219
z: 0.03475445136427879
visibility: 0.9998552203178406
","x: 182.1768798828125
y: 412.8377990722656
z: -0.034801777452230453
visibility: 0.9997263550758362
","x: 212.92526245117188
y: 467.4466552734375
z: 0.021419193595647812
visibility: 0.9881625175476074
","x: 174.14071655273438
y: 470.43194580078125
z: 0.012516217306256294
visibility: 0.9909691214561462
","x: 209.65957641601562
y: 528.09228515625
z: 0.19483134150505066
visibility: 0.9723208546638489
","x: 162.79425048828125
y: 523.2135620117188
z: 0.20047740638256073
visibility: 0.984032392501831
","x: 204.5980682373047
y: 539.2350463867188
z: 0.20792727172374725
visibility: 0.9226318001747131
","x: 158.9821014404297
y: 533.3875122070312
z: 0.21521294116973877
visibility: 0.8605443835258484
","x: 220.62527465820312
y: 548.7513427734375
z: 0.12360568344593048
visibility: 0.980983316898346
","x: 171.36520385742188
y: 542.8958740234375
z: 0.12406182289123535
visibility: 0.9820137023925781
",,,,,,,,,,,,,,,,,,,,,,,,,,,,,,,,,,,,,,,,,,
12,"x: 187.44479370117188
y: 286.7322998046875
z: -0.25002947449684143
visibility: 0.9999684691429138
","x: 189.07774353027344
y: 280.1331787109375
z: -0.2342134714126587
visibility: 0.9999279975891113
","x: 190.2174835205078
y: 279.8889465332031
z: -0.23420429229736328
visibility: 0.999920666217804
","x: 191.36480712890625
y: 279.70050048828125
z: -0.23422932624816895
visibility: 0.9999176859855652
","x: 185.89317321777344
y: 280.9649353027344
z: -0.23546786606311798
visibility: 0.9998924136161804
","x: 184.794677734375
y: 281.3073425292969
z: -0.23551376163959503
visibility: 0.9998764395713806
","x: 183.66018676757812
y: 281.6737976074219
z: -0.2355366200208664
visibility: 0.9998519420623779
","x: 193.83624267578125
y: 283.22918701171875
z: -0.1363784521818161
visibility: 0.9998665452003479
","x: 181.94300842285156
y: 286.0242614746094
z: -0.14472797513008118
visibility: 0.9997606873512268
","x: 190.29559326171875
y: 292.6796875
z: -0.21455010771751404
visibility: 0.9999536871910095
","x: 186.2266845703125
y: 294.60894775390625
z: -0.21646761894226074
visibility: 0.9999502301216125
","x: 209.14883422851562
y: 314.3426208496094
z: -0.05526825785636902
visibility: 0.9998880624771118
","x: 175.06015014648438
y: 322.5328369140625
z: -0.1285283863544464
visibility: 0.9998862147331238
","x: 228.13229370117188
y: 327.914306640625
z: -0.1680178940296173
visibility: 0.9764901995658875
","x: 166.20059204101562
y: 354.22991943359375
z: -0.2643132507801056
visibility: 0.9955025315284729
","x: 229.6215362548828
y: 290.17681884765625
z: -0.32709258794784546
visibility: 0.988582968711853
","x: 166.1923828125
y: 314.5030517578125
z: -0.42636188864707947
visibility: 0.9947113394737244
","x: 230.86334228515625
y: 278.66534423828125
z: -0.359169065952301
visibility: 0.9688481092453003
","x: 163.8183135986328
y: 302.238525390625
z: -0.4643959105014801
visibility: 0.985336184501648
","x: 229.38201904296875
y: 276.149169921875
z: -0.33862489461898804
visibility: 0.9684106707572937
","x: 165.61866760253906
y: 300.122314453125
z: -0.4566665291786194
visibility: 0.9847490787506104
","x: 228.3116455078125
y: 280.7748718261719
z: -0.3280092775821686
visibility: 0.9606261849403381
","x: 166.35565185546875
y: 302.468017578125
z: -0.42816346883773804
visibility: 0.9785920977592468
","x: 206.7388916015625
y: 414.5683288574219
z: 0.034390415996313095
visibility: 0.9998607039451599
","x: 186.3193817138672
y: 413.13916015625
z: -0.0344124361872673
visibility: 0.9997459650039673
","x: 215.3939208984375
y: 469.9548645019531
z: 0.030897323042154312
visibility: 0.9870429635047913
","x: 176.3012237548828
y: 470.2450866699219
z: -0.06694793701171875
visibility: 0.9915986061096191
","x: 209.9493408203125
y: 529.7388305664062
z: 0.21419501304626465
visibility: 0.9735391736030579
","x: 162.82569885253906
y: 523.19970703125
z: 0.06994897127151489
visibility: 0.9851378798484802
","x: 205.22738647460938
y: 540.0353393554688
z: 0.22765812277793884
visibility: 0.9233170747756958
","x: 158.97366333007812
y: 532.7002563476562
z: 0.08000516146421432
visibility: 0.864659309387207
","x: 220.51795959472656
y: 549.2932739257812
z: 0.14995643496513367
visibility: 0.981056272983551
","x: 171.31906127929688
y: 543.1119384765625
z: -0.01271781511604786
visibility: 0.9830310344696045
",,,,,,,,,,,,,,,,,,,,,,,,,,,,,,,,,,,,,,,,,,
13,"x: 189.1007080078125
y: 290.01080322265625
z: -0.23319073021411896
visibility: 0.9999709129333496
","x: 190.79232788085938
y: 282.6928405761719
z: -0.21800538897514343
visibility: 0.9999337196350098
","x: 192.08834838867188
y: 282.09326171875
z: -0.21800175309181213
visibility: 0.9999268651008606
","x: 193.32911682128906
y: 281.5683288574219
z: -0.21802282333374023
visibility: 0.9999239444732666
","x: 187.0663604736328
y: 284.3905029296875
z: -0.21770350635051727
visibility: 0.999901533126831
","x: 185.81207275390625
y: 284.96038818359375
z: -0.21774642169475555
visibility: 0.9998871088027954
","x: 184.6085662841797
y: 285.5013122558594
z: -0.21774449944496155
visibility: 0.9998648166656494
","x: 195.83763122558594
y: 284.26104736328125
z: -0.12407342344522476
visibility: 0.9998764991760254
","x: 182.55291748046875
y: 289.13970947265625
z: -0.12277586758136749
visibility: 0.999782383441925
","x: 192.4829559326172
y: 295.09332275390625
z: -0.19857624173164368
visibility: 0.9999575018882751
","x: 187.99749755859375
y: 298.34423828125
z: -0.19804298877716064
visibility: 0.999954342842102
","x: 211.3125
y: 315.2200012207031
z: -0.05338820070028305
visibility: 0.9998955130577087
","x: 177.27871704101562
y: 326.486572265625
z: -0.09025053679943085
visibility: 0.9998907446861267
","x: 228.25660705566406
y: 340.1436767578125
z: -0.16709284484386444
visibility: 0.9780611991882324
","x: 168.03700256347656
y: 366.8588562011719
z: -0.21185529232025146
visibility: 0.9958322644233704
","x: 232.94586181640625
y: 305.8809814453125
z: -0.3551729917526245
visibility: 0.9891432523727417
","x: 163.62451171875
y: 333.2943115234375
z: -0.3939940631389618
visibility: 0.9950529932975769
","x: 233.84716796875
y: 295.7120056152344
z: -0.3922481834888458
visibility: 0.9701513051986694
","x: 162.61817932128906
y: 325.442138671875
z: -0.4300132393836975
visibility: 0.9860437512397766
","x: 232.4838409423828
y: 290.43389892578125
z: -0.38240858912467957
visibility: 0.9697558283805847
","x: 163.9320068359375
y: 320.8088684082031
z: -0.4240981936454773
visibility: 0.9854578375816345
","x: 231.72225952148438
y: 294.97430419921875
z: -0.3573353886604309
visibility: 0.9621410369873047
","x: 165.7358856201172
y: 323.2960510253906
z: -0.39617350697517395
visibility: 0.9795265197753906
","x: 209.42161560058594
y: 417.0071716308594
z: 0.021219495683908463
visibility: 0.9998735189437866
","x: 188.9112091064453
y: 417.4756164550781
z: -0.021196652203798294
visibility: 0.9997652769088745
","x: 217.3612518310547
y: 472.732177734375
z: -0.12458536773920059
visibility: 0.9877984523773193
","x: 179.1756591796875
y: 473.9737243652344
z: 0.01753215864300728
visibility: 0.9918244481086731
","x: 210.11636352539062
y: 529.0506591796875
z: 0.03407573699951172
visibility: 0.9752906560897827
","x: 165.61114501953125
y: 522.2058715820312
z: 0.26814183592796326
visibility: 0.9845624566078186
","x: 205.70648193359375
y: 539.125244140625
z: 0.046830806881189346
visibility: 0.9270581603050232
","x: 163.5386962890625
y: 527.5504760742188
z: 0.29013270139694214
visibility: 0.8607856631278992
","x: 219.144287109375
y: 548.9190063476562
z: -0.04426684230566025
visibility: 0.9821531176567078
","x: 170.57022094726562
y: 542.9847412109375
z: 0.2197408676147461
visibility: 0.9822486639022827
",,,,,,,,,,,,,,,,,,,,,,,,,,,,,,,,,,,,,,,,,,
14,"x: 191.79441833496094
y: 289.27789306640625
z: -0.23674404621124268
visibility: 0.999973475933075
","x: 192.8825225830078
y: 282.10772705078125
z: -0.22623243927955627
visibility: 0.9999393820762634
","x: 194.08209228515625
y: 281.63604736328125
z: -0.2263384610414505
visibility: 0.9999333024024963
","x: 195.343017578125
y: 281.2036437988281
z: -0.22636577486991882
visibility: 0.9999303817749023
","x: 189.2112274169922
y: 283.3907775878906
z: -0.22154073417186737
visibility: 0.9999099373817444
","x: 187.86863708496094
y: 283.8067932128906
z: -0.22162601351737976
visibility: 0.9998969435691833
","x: 186.545166015625
y: 284.21533203125
z: -0.22175152599811554
visibility: 0.999876081943512
","x: 198.01853942871094
y: 284.00738525390625
z: -0.1331208348274231
visibility: 0.9998871088027954
","x: 184.38034057617188
y: 287.7896423339844
z: -0.1377602517604828
visibility: 0.999801754951477
","x: 195.0947265625
y: 294.57757568359375
z: -0.20451641082763672
visibility: 0.9999611377716064
","x: 190.8303680419922
y: 297.296630859375
z: -0.20596590638160706
visibility: 0.9999578595161438
","x: 212.58883666992188
y: 314.1034851074219
z: -0.056567829102277756
visibility: 0.9999052286148071
","x: 178.33880615234375
y: 326.30938720703125
z: -0.09032512456178665
visibility: 0.9998925924301147
","x: 228.0919189453125
y: 348.8590087890625
z: -0.1318768411874771
visibility: 0.9796881079673767
","x: 172.60610961914062
y: 375.0484619140625
z: -0.17642292380332947
visibility: 0.9954743981361389
","x: 240.6959991455078
y: 321.87200927734375
z: -0.3183095157146454
visibility: 0.9901285767555237
","x: 159.7062225341797
y: 363.92767333984375
z: -0.3766660988330841
visibility: 0.9952287673950195
","x: 246.40199279785156
y: 313.5037841796875
z: -0.35435789823532104
visibility: 0.9728568196296692
","x: 153.44485473632812
y: 361.5014953613281
z: -0.4125056266784668
visibility: 0.9867222309112549
","x: 244.75221252441406
y: 307.5854797363281
z: -0.37105903029441833
visibility: 0.9725415110588074
","x: 152.4109649658203
y: 356.2008361816406
z: -0.42721667885780334
visibility: 0.9862461090087891
","x: 242.2879638671875
y: 310.1009521484375
z: -0.32884693145751953
visibility: 0.965597927570343
","x: 154.46034240722656
y: 355.37554931640625
z: -0.388030469417572
visibility: 0.9806821942329407
","x: 210.85098266601562
y: 416.75189208984375
z: 0.015852127224206924
visibility: 0.9998847842216492
","x: 189.19729614257812
y: 416.411865234375
z: -0.01585179939866066
visibility: 0.9997825026512146
","x: 215.5477294921875
y: 472.3826904296875
z: -0.0605158805847168
visibility: 0.9885159730911255
","x: 181.15277099609375
y: 473.1607666015625
z: 0.00034163283999077976
visibility: 0.9922259449958801
","x: 210.33642578125
y: 528.8514404296875
z: 0.10202240943908691
visibility: 0.9770261645317078
","x: 171.52842712402344
y: 518.3289794921875
z: 0.24130932986736298
visibility: 0.9841520190238953
","x: 206.4671173095703
y: 539.4202880859375
z: 0.11397278308868408
visibility: 0.9307982325553894
","x: 171.59503173828125
y: 520.2227783203125
z: 0.2602395713329315
visibility: 0.8568342328071594
","x: 219.13165283203125
y: 549.0282592773438
z: 0.02384479157626629
visibility: 0.9831081628799438
","x: 170.3302459716797
y: 542.9107055664062
z: 0.18499554693698883
visibility: 0.9815368056297302
",,,,,,,,,,,,,,,,,,,,,,,,,,,,,,,,,,,,,,,,,,
15,"x: 194.7662353515625
y: 288.98541259765625
z: -0.27880939841270447
visibility: 0.9999731779098511
","x: 195.9708709716797
y: 281.7886047363281
z: -0.27054983377456665
visibility: 0.9999333620071411
","x: 197.24224853515625
y: 281.1227722167969
z: -0.27064549922943115
visibility: 0.9999298453330994
","x: 198.54092407226562
y: 280.54876708984375
z: -0.2707013785839081
visibility: 0.9999247193336487
","x: 192.31443786621094
y: 283.1106872558594
z: -0.26653575897216797
visibility: 0.999898374080658
","x: 190.9530029296875
y: 283.4223327636719
z: -0.2665644586086273
visibility: 0.9998849630355835
","x: 189.5370330810547
y: 283.7242431640625
z: -0.26657354831695557
visibility: 0.9998567700386047
","x: 201.10476684570312
y: 281.8056640625
z: -0.18006058037281036
visibility: 0.999877393245697
","x: 187.36572265625
y: 286.633056640625
z: -0.16588518023490906
visibility: 0.9997820258140564
","x: 197.77786254882812
y: 294.43084716796875
z: -0.2430296391248703
visibility: 0.9999594688415527
","x: 193.64547729492188
y: 296.8163757324219
z: -0.23836565017700195
visibility: 0.9999515414237976
","x: 215.34251403808594
y: 311.65216064453125
z: -0.09778837859630585
visibility: 0.9999139904975891
","x: 180.73439025878906
y: 324.39630126953125
z: -0.09445886313915253
visibility: 0.9998976588249207
","x: 228.09768676757812
y: 349.85205078125
z: -0.12581968307495117
visibility: 0.9807131886482239
","x: 173.6295166015625
y: 368.9149475097656
z: -0.12839753925800323
visibility: 0.9927839040756226
","x: 244.9454803466797
y: 355.4813232421875
z: -0.2936437129974365
visibility: 0.990714967250824
","x: 160.7698974609375
y: 391.5257263183594
z: -0.3009294867515564
visibility: 0.9940869808197021
","x: 251.23391723632812
y: 355.37213134765625
z: -0.3298713266849518
visibility: 0.9746895432472229
","x: 154.41314697265625
y: 399.2132873535156
z: -0.33669549226760864
visibility: 0.9850757718086243
","x: 250.92970275878906
y: 349.12091064453125
z: -0.3606831431388855
visibility: 0.9746031761169434
","x: 152.8260498046875
y: 397.4184875488281
z: -0.3643088638782501
visibility: 0.9849811792373657
","x: 248.3226318359375
y: 349.2863464355469
z: -0.30945685505867004
visibility: 0.9681312441825867
","x: 155.05860900878906
y: 395.27105712890625
z: -0.31716540455818176
visibility: 0.9794504046440125
","x: 208.6739959716797
y: 412.07696533203125
z: 0.00558010907843709
visibility: 0.9998881816864014
","x: 186.9413299560547
y: 409.6492004394531
z: -0.0055482517927885056
visibility: 0.9997913837432861
","x: 213.8331298828125
y: 472.1067810058594
z: -0.04466221481561661
visibility: 0.9878005981445312
","x: 179.0382537841797
y: 467.8003234863281
z: -0.06174543499946594
visibility: 0.9925007224082947
","x: 210.23904418945312
y: 528.456298828125
z: 0.11486001312732697
visibility: 0.977973461151123
","x: 172.96214294433594
y: 518.6906127929688
z: 0.12077971547842026
visibility: 0.9849761128425598
","x: 206.9928741455078
y: 539.1692504882812
z: 0.11609204858541489
visibility: 0.9303362369537354
","x: 175.47203063964844
y: 522.15380859375
z: 0.13353654742240906
visibility: 0.8626152276992798
","x: 218.62144470214844
y: 548.8734130859375
z: 0.04941616579890251
visibility: 0.9828504920005798
","x: 167.87554931640625
y: 543.3483276367188
z: 0.033383436501026154
visibility: 0.9823440909385681
","x: 162.79925537109375
y: 395.368408203125
z: 0.0
","x: 160.62545776367188
y: 400.35821533203125
z: -0.001349861966446042
","x: 157.5387725830078
y: 403.22412109375
z: -0.003166802227497101
","x: 155.02810668945312
y: 402.29937744140625
z: -0.00556159159168601
","x: 153.1970977783203
y: 399.78704833984375
z: -0.007783799897879362
","x: 152.7603302001953
y: 398.787109375
z: -0.0010332162491977215
","x: 149.07460021972656
y: 398.42730712890625
z: -0.004052994307130575
","x: 147.45358276367188
y: 398.96771240234375
z: -0.006042100489139557
","x: 146.7417449951172
y: 399.6092224121094
z: -0.007254194468259811
","x: 153.22364807128906
y: 394.68896484375
z: -0.002844712696969509
","x: 149.70082092285156
y: 394.0709228515625
z: -0.006339472718536854
","x: 149.91856384277344
y: 395.97259521484375
z: -0.0076247020624578
","x: 151.08383178710938
y: 397.6264953613281
z: -0.007972793653607368
","x: 154.5500946044922
y: 391.1247253417969
z: -0.005137341096997261
","x: 151.64915466308594
y: 390.9491271972656
z: -0.008160905912518501
","x: 151.7315673828125
y: 393.396728515625
z: -0.008234662003815174
","x: 152.66075134277344
y: 395.3875427246094
z: -0.00783957727253437
","x: 156.5767822265625
y: 387.99163818359375
z: -0.007856186479330063
","x: 154.7215118408203
y: 389.2767639160156
z: -0.0099862115457654
","x: 154.5547332763672
y: 392.24591064453125
z: -0.01010843738913536
","x: 155.1387481689453
y: 394.7283935546875
z: -0.009831157512962818
",,,,,,,,,,,,,,,,,,,,,
16,"x: 194.7662353515625
y: 288.98541259765625
z: -0.27880939841270447
visibility: 0.9999731779098511
","x: 195.9708709716797
y: 281.7886047363281
z: -0.27054983377456665
visibility: 0.9999333620071411
","x: 197.24224853515625
y: 281.1227722167969
z: -0.27064549922943115
visibility: 0.9999298453330994
","x: 198.54092407226562
y: 280.54876708984375
z: -0.2707013785839081
visibility: 0.9999247193336487
","x: 192.31443786621094
y: 283.1106872558594
z: -0.26653575897216797
visibility: 0.999898374080658
","x: 190.9530029296875
y: 283.4223327636719
z: -0.2665644586086273
visibility: 0.9998849630355835
","x: 189.5370330810547
y: 283.7242431640625
z: -0.26657354831695557
visibility: 0.9998567700386047
","x: 201.10476684570312
y: 281.8056640625
z: -0.18006058037281036
visibility: 0.999877393245697
","x: 187.36572265625
y: 286.633056640625
z: -0.16588518023490906
visibility: 0.9997820258140564
","x: 197.77786254882812
y: 294.43084716796875
z: -0.2430296391248703
visibility: 0.9999594688415527
","x: 193.64547729492188
y: 296.8163757324219
z: -0.23836565017700195
visibility: 0.9999515414237976
","x: 215.34251403808594
y: 311.65216064453125
z: -0.09778837859630585
visibility: 0.9999139904975891
","x: 180.73439025878906
y: 324.39630126953125
z: -0.09445886313915253
visibility: 0.9998976588249207
","x: 228.09768676757812
y: 349.85205078125
z: -0.12581968307495117
visibility: 0.9807131886482239
","x: 173.6295166015625
y: 368.9149475097656
z: -0.12839753925800323
visibility: 0.9927839040756226
","x: 244.9454803466797
y: 355.4813232421875
z: -0.2936437129974365
visibility: 0.990714967250824
","x: 160.7698974609375
y: 391.5257263183594
z: -0.3009294867515564
visibility: 0.9940869808197021
","x: 251.23391723632812
y: 355.37213134765625
z: -0.3298713266849518
visibility: 0.9746895432472229
","x: 154.41314697265625
y: 399.2132873535156
z: -0.33669549226760864
visibility: 0.9850757718086243
","x: 250.92970275878906
y: 349.12091064453125
z: -0.3606831431388855
visibility: 0.9746031761169434
","x: 152.8260498046875
y: 397.4184875488281
z: -0.3643088638782501
visibility: 0.9849811792373657
","x: 248.3226318359375
y: 349.2863464355469
z: -0.30945685505867004
visibility: 0.9681312441825867
","x: 155.05860900878906
y: 395.27105712890625
z: -0.31716540455818176
visibility: 0.9794504046440125
","x: 208.6739959716797
y: 412.07696533203125
z: 0.00558010907843709
visibility: 0.9998881816864014
","x: 186.9413299560547
y: 409.6492004394531
z: -0.0055482517927885056
visibility: 0.9997913837432861
","x: 213.8331298828125
y: 472.1067810058594
z: -0.04466221481561661
visibility: 0.9878005981445312
","x: 179.0382537841797
y: 467.8003234863281
z: -0.06174543499946594
visibility: 0.9925007224082947
","x: 210.23904418945312
y: 528.456298828125
z: 0.11486001312732697
visibility: 0.977973461151123
","x: 172.96214294433594
y: 518.6906127929688
z: 0.12077971547842026
visibility: 0.9849761128425598
","x: 206.9928741455078
y: 539.1692504882812
z: 0.11609204858541489
visibility: 0.9303362369537354
","x: 175.47203063964844
y: 522.15380859375
z: 0.13353654742240906
visibility: 0.8626152276992798
","x: 218.62144470214844
y: 548.8734130859375
z: 0.04941616579890251
visibility: 0.9828504920005798
","x: 167.87554931640625
y: 543.3483276367188
z: 0.033383436501026154
visibility: 0.9823440909385681
","x: 162.79925537109375
y: 395.368408203125
z: 0.0
","x: 160.62545776367188
y: 400.35821533203125
z: -0.001349861966446042
","x: 157.5387725830078
y: 403.22412109375
z: -0.003166802227497101
","x: 155.02810668945312
y: 402.29937744140625
z: -0.00556159159168601
","x: 153.1970977783203
y: 399.78704833984375
z: -0.007783799897879362
","x: 152.7603302001953
y: 398.787109375
z: -0.0010332162491977215
","x: 149.07460021972656
y: 398.42730712890625
z: -0.004052994307130575
","x: 147.45358276367188
y: 398.96771240234375
z: -0.006042100489139557
","x: 146.7417449951172
y: 399.6092224121094
z: -0.007254194468259811
","x: 153.22364807128906
y: 394.68896484375
z: -0.002844712696969509
","x: 149.70082092285156
y: 394.0709228515625
z: -0.006339472718536854
","x: 149.91856384277344
y: 395.97259521484375
z: -0.0076247020624578
","x: 151.08383178710938
y: 397.6264953613281
z: -0.007972793653607368
","x: 154.5500946044922
y: 391.1247253417969
z: -0.005137341096997261
","x: 151.64915466308594
y: 390.9491271972656
z: -0.008160905912518501
","x: 151.7315673828125
y: 393.396728515625
z: -0.008234662003815174
","x: 152.66075134277344
y: 395.3875427246094
z: -0.00783957727253437
","x: 156.5767822265625
y: 387.99163818359375
z: -0.007856186479330063
","x: 154.7215118408203
y: 389.2767639160156
z: -0.0099862115457654
","x: 154.5547332763672
y: 392.24591064453125
z: -0.01010843738913536
","x: 155.1387481689453
y: 394.7283935546875
z: -0.009831157512962818
",,,,,,,,,,,,,,,,,,,,,
17,"x: 193.42355346679688
y: 283.787353515625
z: -0.27852490544319153
visibility: 0.9999745488166809
","x: 194.89804077148438
y: 276.48846435546875
z: -0.2614077031612396
visibility: 0.9999350309371948
","x: 196.3494415283203
y: 276.0281066894531
z: -0.26146143674850464
visibility: 0.999932587146759
","x: 197.69912719726562
y: 275.5808410644531
z: -0.2614995539188385
visibility: 0.999927282333374
","x: 190.96343994140625
y: 277.5400085449219
z: -0.2628321051597595
visibility: 0.9998999238014221
","x: 189.65335083007812
y: 277.86199951171875
z: -0.2628982663154602
visibility: 0.9998862147331238
","x: 188.3791046142578
y: 278.1805725097656
z: -0.2629351317882538
visibility: 0.999855637550354
","x: 200.33729553222656
y: 276.2572021484375
z: -0.1751076728105545
visibility: 0.9998827576637268
","x: 187.02215576171875
y: 280.9341125488281
z: -0.15909190475940704
visibility: 0.9997760653495789
","x: 196.98646545410156
y: 289.2995300292969
z: -0.23635844886302948
visibility: 0.9999614953994751
","x: 191.95108032226562
y: 291.08380126953125
z: -0.23119445145130157
visibility: 0.9999508857727051
","x: 214.8108673095703
y: 307.089599609375
z: -0.10810045897960663
visibility: 0.9999221563339233
","x: 180.64822387695312
y: 324.0232849121094
z: -0.07306588441133499
visibility: 0.9998992085456848
","x: 227.224609375
y: 348.0479736328125
z: -0.125253826379776
visibility: 0.9820122718811035
","x: 172.16798400878906
y: 366.3321228027344
z: -0.08385349810123444
visibility: 0.9864243268966675
","x: 240.4334716796875
y: 374.8756103515625
z: -0.26997262239456177
visibility: 0.9911854267120361
","x: 160.6060333251953
y: 393.2016296386719
z: -0.2389194518327713
visibility: 0.9913848042488098
","x: 244.85252380371094
y: 380.5837707519531
z: -0.30289462208747864
visibility: 0.9762182831764221
","x: 154.40379333496094
y: 400.0609130859375
z: -0.27158448100090027
visibility: 0.9813597202301025
","x: 244.23997497558594
y: 378.56890869140625
z: -0.3343188762664795
visibility: 0.9763228893280029
","x: 153.22605895996094
y: 398.77252197265625
z: -0.3007814884185791
visibility: 0.9818297028541565
","x: 242.2789764404297
y: 376.84063720703125
z: -0.28492236137390137
visibility: 0.9702585935592651
","x: 155.22564697265625
y: 397.0827941894531
z: -0.25555330514907837
visibility: 0.976245105266571
","x: 207.53379821777344
y: 410.41510009765625
z: -0.0046267881989479065
visibility: 0.9998947978019714
","x: 185.79954528808594
y: 408.0581970214844
z: 0.004614377394318581
visibility: 0.9998013377189636
","x: 210.76913452148438
y: 471.27276611328125
z: 0.006277622189372778
visibility: 0.988097071647644
","x: 178.09796142578125
y: 468.2220458984375
z: 0.05317780375480652
visibility: 0.9926250576972961
","x: 209.84744262695312
y: 528.314697265625
z: 0.16781046986579895
visibility: 0.9792122840881348
","x: 172.95883178710938
y: 520.7232055664062
z: 0.25316083431243896
visibility: 0.9857842326164246
","x: 207.02247619628906
y: 538.84912109375
z: 0.17686520516872406
visibility: 0.9307740330696106
","x: 176.2429656982422
y: 526.4320068359375
z: 0.26764151453971863
visibility: 0.8692490458488464
","x: 218.2544403076172
y: 548.7459716796875
z: 0.08247146755456924
visibility: 0.9832120537757874
","x: 166.23033142089844
y: 544.310302734375
z: 0.1785481870174408
visibility: 0.983046293258667
",,,,,,,,,,,,,,,,,,,,,,,,,,,,,,,,,,,,,,,,,,
18,"x: 191.4184112548828
y: 283.6707763671875
z: -0.2815685570240021
visibility: 0.9999696016311646
","x: 193.80889892578125
y: 276.32574462890625
z: -0.2761135399341583
visibility: 0.9999116063117981
","x: 195.93406677246094
y: 275.97222900390625
z: -0.27617204189300537
visibility: 0.9999141097068787
","x: 197.27442932128906
y: 275.595947265625
z: -0.2762056887149811
visibility: 0.9999051690101624
","x: 189.78103637695312
y: 276.9060974121094
z: -0.2683038115501404
visibility: 0.9998674988746643
","x: 188.83255004882812
y: 277.0226135253906
z: -0.268333375453949
visibility: 0.9998472332954407
","x: 187.975341796875
y: 277.1447448730469
z: -0.2683414816856384
visibility: 0.9998005032539368
","x: 199.28292846679688
y: 276.20709228515625
z: -0.20404645800590515
visibility: 0.9998583793640137
","x: 186.05892944335938
y: 278.85302734375
z: -0.16238179802894592
visibility: 0.9996742606163025
","x: 195.58021545410156
y: 289.18682861328125
z: -0.24947044253349304
visibility: 0.9999556541442871
","x: 189.83767700195312
y: 290.4645690917969
z: -0.23735995590686798
visibility: 0.9999333620071411
","x: 213.693115234375
y: 306.1188049316406
z: -0.14296633005142212
visibility: 0.9999286532402039
","x: 178.9135284423828
y: 319.7445373535156
z: -0.0718575119972229
visibility: 0.9999026656150818
","x: 226.8413848876953
y: 347.4599609375
z: -0.16928178071975708
visibility: 0.9831344485282898
","x: 169.30088806152344
y: 363.26239013671875
z: -0.06267213821411133
visibility: 0.9800167083740234
","x: 235.34359741210938
y: 379.8955078125
z: -0.2743692994117737
visibility: 0.9908537268638611
","x: 159.77561950683594
y: 386.0383605957031
z: -0.1993453949689865
visibility: 0.9893643856048584
","x: 236.7245635986328
y: 387.99176025390625
z: -0.32033997774124146
visibility: 0.9760467410087585
","x: 152.91519165039062
y: 393.88995361328125
z: -0.22681164741516113
visibility: 0.9781895875930786
","x: 234.34442138671875
y: 385.44580078125
z: -0.35889777541160583
visibility: 0.9765166640281677
","x: 152.44642639160156
y: 392.9409484863281
z: -0.2564167380332947
visibility: 0.979119598865509
","x: 233.41659545898438
y: 382.79132080078125
z: -0.29873570799827576
visibility: 0.9704404473304749
","x: 154.7126007080078
y: 391.3661193847656
z: -0.21538443863391876
visibility: 0.9736114144325256
","x: 207.0496826171875
y: 407.9620361328125
z: -0.016041841357946396
visibility: 0.9998961091041565
","x: 185.7532958984375
y: 406.372314453125
z: 0.016003752127289772
visibility: 0.9998074173927307
","x: 207.37889099121094
y: 471.1917724609375
z: 0.009578029625117779
visibility: 0.9875126481056213
","x: 177.664306640625
y: 465.8844299316406
z: 0.05428103730082512
visibility: 0.9922640919685364
","x: 210.11749267578125
y: 528.08740234375
z: 0.16288264095783234
visibility: 0.9798469543457031
","x: 174.0005340576172
y: 520.7837524414062
z: 0.23869967460632324
visibility: 0.9863718152046204
","x: 207.54183959960938
y: 538.882568359375
z: 0.1748868227005005
visibility: 0.9271835684776306
","x: 177.49606323242188
y: 527.1258544921875
z: 0.25249427556991577
visibility: 0.876304030418396
","x: 218.04165649414062
y: 548.6558837890625
z: 0.07487159967422485
visibility: 0.9827720522880554
","x: 165.52793884277344
y: 544.2803955078125
z: 0.16467991471290588
visibility: 0.9835821390151978
",,,,,,,,,,,,,,,,,,,,,,,,,,,,,,,,,,,,,,,,,,
19,"x: 188.99365234375
y: 283.7350158691406
z: -0.2931613326072693
visibility: 0.9999692440032959
","x: 191.4619140625
y: 276.388916015625
z: -0.2900325655937195
visibility: 0.9999101758003235
","x: 193.58120727539062
y: 276.0445861816406
z: -0.290077269077301
visibility: 0.9999129772186279
","x: 195.3838348388672
y: 275.6783752441406
z: -0.2901110351085663
visibility: 0.9999037981033325
","x: 187.5861358642578
y: 276.9033508300781
z: -0.279939204454422
visibility: 0.9998654723167419
","x: 186.69842529296875
y: 276.95806884765625
z: -0.2799660861492157
visibility: 0.9998432397842407
","x: 185.84361267089844
y: 277.0070495605469
z: -0.27996087074279785
visibility: 0.9997937679290771
","x: 198.93763732910156
y: 276.2798767089844
z: -0.2180986851453781
visibility: 0.9998605847358704
","x: 185.52012634277344
y: 278.63494873046875
z: -0.17026838660240173
visibility: 0.9996545314788818
","x: 192.73060607910156
y: 289.2921142578125
z: -0.26237738132476807
visibility: 0.9999573230743408
","x: 187.65940856933594
y: 290.46710205078125
z: -0.24837782979011536
visibility: 0.9999326467514038
","x: 213.09298706054688
y: 305.9065856933594
z: -0.1552390456199646
visibility: 0.9999352097511292
","x: 178.1206512451172
y: 318.631591796875
z: -0.07661790400743484
visibility: 0.9999076128005981
","x: 226.50497436523438
y: 348.91741943359375
z: -0.17107495665550232
visibility: 0.984559178352356
","x: 168.04295349121094
y: 361.9114685058594
z: -0.07034481316804886
visibility: 0.9753407835960388
","x: 229.82737731933594
y: 384.74737548828125
z: -0.2875877618789673
visibility: 0.9912109971046448
","x: 157.87733459472656
y: 384.5898742675781
z: -0.222703218460083
visibility: 0.9873666167259216
","x: 229.37928771972656
y: 393.7126159667969
z: -0.32326358556747437
visibility: 0.9770388007164001
","x: 151.86106872558594
y: 392.9272766113281
z: -0.25422829389572144
visibility: 0.9753339886665344
","x: 226.64013671875
y: 389.96099853515625
z: -0.3511123061180115
visibility: 0.9776229858398438
","x: 151.76364135742188
y: 391.4062194824219
z: -0.28307944536209106
visibility: 0.976588785648346
","x: 226.02691650390625
y: 386.8943786621094
z: -0.30066388845443726
visibility: 0.9716994166374207
","x: 153.9674530029297
y: 389.2499084472656
z: -0.23884518444538116
visibility: 0.9709345102310181
","x: 206.93408203125
y: 408.1844787597656
z: -0.019039377570152283
visibility: 0.9999018907546997
","x: 184.72921752929688
y: 406.7957763671875
z: 0.019004106521606445
visibility: 0.9998185634613037
","x: 205.78115844726562
y: 472.7183837890625
z: 0.018510153517127037
visibility: 0.9878526926040649
","x: 177.62217712402344
y: 466.5885009765625
z: 0.10123580694198608
visibility: 0.992242157459259
","x: 209.83731079101562
y: 527.9500732421875
z: 0.185506671667099
visibility: 0.9808799028396606
","x: 173.95677185058594
y: 521.2464599609375
z: 0.30719470977783203
visibility: 0.9870325326919556
","x: 207.02670288085938
y: 538.8483276367188
z: 0.19713345170021057
visibility: 0.9275177121162415
","x: 177.3512420654297
y: 528.9415283203125
z: 0.32315248250961304
visibility: 0.8836896419525146
","x: 218.2506866455078
y: 548.7059326171875
z: 0.09926532208919525
visibility: 0.9830141663551331
","x: 165.75006103515625
y: 544.2144775390625
z: 0.2382027804851532
visibility: 0.9841525554656982
",,,,,,,,,,,,,,,,,,,,,,,,,,,,,,,,,,,,,,,,,,
20,"x: 186.11253356933594
y: 283.686279296875
z: -0.2882879674434662
visibility: 0.9999603033065796
","x: 188.62564086914062
y: 276.4236755371094
z: -0.2911267578601837
visibility: 0.9998934864997864
","x: 190.32666015625
y: 276.10797119140625
z: -0.29115068912506104
visibility: 0.9998962879180908
","x: 192.1090850830078
y: 275.76397705078125
z: -0.2911999821662903
visibility: 0.9998871684074402
","x: 185.3354034423828
y: 276.7589416503906
z: -0.27608639001846313
visibility: 0.9998418092727661
","x: 184.57151794433594
y: 276.67120361328125
z: -0.2761242985725403
visibility: 0.9998137950897217
","x: 183.83689880371094
y: 276.55316162109375
z: -0.27613121271133423
visibility: 0.9997586607933044
","x: 197.697509765625
y: 276.49395751953125
z: -0.246364027261734
visibility: 0.9998509883880615
","x: 185.1284942626953
y: 277.6649169921875
z: -0.17253157496452332
visibility: 0.9995943307876587
","x: 189.45172119140625
y: 289.3677978515625
z: -0.26549506187438965
visibility: 0.9999537467956543
","x: 185.34393310546875
y: 290.3592224121094
z: -0.24556879699230194
visibility: 0.999919056892395
","x: 212.60482788085938
y: 306.42236328125
z: -0.19286397099494934
visibility: 0.9999393820762634
","x: 177.59959411621094
y: 314.9462585449219
z: -0.07825804501771927
visibility: 0.999908447265625
","x: 226.17245483398438
y: 353.9351806640625
z: -0.20050081610679626
visibility: 0.9856153726577759
","x: 167.6214141845703
y: 355.815673828125
z: -0.05611562728881836
visibility: 0.9642240405082703
","x: 224.6334686279297
y: 388.7584228515625
z: -0.2798822820186615
visibility: 0.9900363087654114
","x: 155.74160766601562
y: 379.7396240234375
z: -0.19364282488822937
visibility: 0.9780129790306091
","x: 222.86087036132812
y: 401.01788330078125
z: -0.3103363513946533
visibility: 0.9745095372200012
","x: 151.00338745117188
y: 390.0130920410156
z: -0.22125490009784698
visibility: 0.9617401361465454
","x: 219.71905517578125
y: 396.1279296875
z: -0.3313360810279846
visibility: 0.9752594828605652
","x: 151.2488250732422
y: 390.0390319824219
z: -0.2502315044403076
visibility: 0.9639939665794373
","x: 219.11953735351562
y: 391.8915100097656
z: -0.28821229934692383
visibility: 0.9682328701019287
","x: 153.31703186035156
y: 386.821044921875
z: -0.20995786786079407
visibility: 0.9580087661743164
","x: 206.07322692871094
y: 408.2562255859375
z: -0.028805512934923172
visibility: 0.9999006390571594
","x: 183.91734313964844
y: 407.0608215332031
z: 0.02878652513027191
visibility: 0.9998255968093872
","x: 205.06024169921875
y: 472.70733642578125
z: 0.022056911140680313
visibility: 0.9882637858390808
","x: 177.65834045410156
y: 467.6762390136719
z: 0.12186165153980255
visibility: 0.9921823143959045
","x: 209.6956329345703
y: 527.9283447265625
z: 0.1889762580394745
visibility: 0.9818975329399109
","x: 173.91900634765625
y: 522.1343383789062
z: 0.32551199197769165
visibility: 0.9876629710197449
","x: 206.95355224609375
y: 538.7366943359375
z: 0.2000863254070282
visibility: 0.9270046949386597
","x: 177.389404296875
y: 531.2833862304688
z: 0.3414314389228821
visibility: 0.8909446001052856
","x: 218.04299926757812
y: 548.67529296875
z: 0.1040208712220192
visibility: 0.9832438826560974
","x: 165.10972595214844
y: 544.40966796875
z: 0.26149165630340576
visibility: 0.9847632050514221
",,,,,,,,,,,,,,,,,,,,,,,,,,,,,,,,,,,,,,,,,,
21,"x: 185.23081970214844
y: 283.64764404296875
z: -0.3181825876235962
visibility: 0.9999585151672363
","x: 187.70640563964844
y: 276.40887451171875
z: -0.32029610872268677
visibility: 0.9998932480812073
","x: 189.27125549316406
y: 276.1423034667969
z: -0.32032567262649536
visibility: 0.9998949766159058
","x: 190.9774932861328
y: 275.828369140625
z: -0.3203940987586975
visibility: 0.9998881220817566
","x: 184.42898559570312
y: 276.5115051269531
z: -0.3039788007736206
visibility: 0.9998416304588318
","x: 183.58396911621094
y: 276.3125915527344
z: -0.30401748418807983
visibility: 0.9998100996017456
","x: 182.78482055664062
y: 276.093994140625
z: -0.3040265738964081
visibility: 0.999756395816803
","x: 196.52833557128906
y: 276.5611877441406
z: -0.2680804133415222
visibility: 0.9998553991317749
","x: 185.0097198486328
y: 277.5104675292969
z: -0.19415149092674255
visibility: 0.999584972858429
","x: 188.40525817871094
y: 289.3963317871094
z: -0.29491764307022095
visibility: 0.9999548196792603
","x: 184.37188720703125
y: 290.31011962890625
z: -0.2734519839286804
visibility: 0.9999180436134338
","x: 212.24444580078125
y: 308.58905029296875
z: -0.22342757880687714
visibility: 0.9999437928199768
","x: 176.7586669921875
y: 315.0426330566406
z: -0.08141665160655975
visibility: 0.9999107122421265
","x: 223.36386108398438
y: 364.17498779296875
z: -0.25101667642593384
visibility: 0.9864998459815979
","x: 167.2428741455078
y: 354.67767333984375
z: -0.08712517470121384
visibility: 0.9533170461654663
","x: 217.4213104248047
y: 398.5216979980469
z: -0.3374842405319214
visibility: 0.9884783625602722
","x: 155.41502380371094
y: 377.78179931640625
z: -0.24494513869285583
visibility: 0.9666747450828552
","x: 214.700927734375
y: 413.0439758300781
z: -0.3748154938220978
visibility: 0.9713982343673706
","x: 150.93133544921875
y: 388.59686279296875
z: -0.2765085697174072
visibility: 0.9471516013145447
","x: 210.33734130859375
y: 408.2547302246094
z: -0.39271077513694763
visibility: 0.9722181558609009
","x: 151.26263427734375
y: 388.57550048828125
z: -0.3034779131412506
visibility: 0.950215220451355
","x: 210.0200653076172
y: 403.58770751953125
z: -0.34467852115631104
visibility: 0.9632633924484253
","x: 153.31727600097656
y: 385.49859619140625
z: -0.2612491250038147
visibility: 0.9433016180992126
","x: 205.80029296875
y: 410.8097839355469
z: -0.029924605041742325
visibility: 0.9999053478240967
","x: 183.7575225830078
y: 410.47247314453125
z: 0.02994447387754917
visibility: 0.9998371601104736
","x: 205.09234619140625
y: 472.580810546875
z: 0.01988612487912178
visibility: 0.9885966777801514
","x: 178.20901489257812
y: 470.3441162109375
z: 0.15294215083122253
visibility: 0.9919281005859375
","x: 210.104248046875
y: 527.8839111328125
z: 0.201994389295578
visibility: 0.9827675819396973
","x: 174.1280975341797
y: 522.5567626953125
z: 0.3934275805950165
visibility: 0.9880322813987732
","x: 207.1925048828125
y: 538.6632690429688
z: 0.21460945904254913
visibility: 0.9278063774108887
","x: 177.58656311035156
y: 531.7359619140625
z: 0.4128434658050537
visibility: 0.8968640565872192
","x: 218.0357666015625
y: 548.62939453125
z: 0.11538641154766083
visibility: 0.983537495136261
","x: 165.1558074951172
y: 544.5930786132812
z: 0.3323008418083191
visibility: 0.9850383400917053
",,,,,,,,,,,,,,,,,,,,,,,,,,,,,,,,,,,,,,,,,,
22,"x: 184.68106079101562
y: 282.9647521972656
z: -0.3030523657798767
visibility: 0.99994295835495
","x: 187.77767944335938
y: 276.218017578125
z: -0.29809945821762085
visibility: 0.9998500943183899
","x: 189.30921936035156
y: 276.176025390625
z: -0.29812631011009216
visibility: 0.9998466372489929
","x: 190.9439239501953
y: 275.9636535644531
z: -0.2981725335121155
visibility: 0.9998389482498169
","x: 184.44960021972656
y: 275.1716003417969
z: -0.28846031427383423
visibility: 0.9998065233230591
","x: 183.52110290527344
y: 274.614501953125
z: -0.2884989380836487
visibility: 0.9997722506523132
","x: 182.63121032714844
y: 274.0326843261719
z: -0.2885182201862335
visibility: 0.999718427658081
","x: 196.03665161132812
y: 278.7244873046875
z: -0.22803013026714325
visibility: 0.9997515082359314
","x: 184.9257354736328
y: 276.58709716796875
z: -0.18537622690200806
visibility: 0.9994723200798035
","x: 187.51177978515625
y: 289.42523193359375
z: -0.2747189998626709
visibility: 0.9999290704727173
","x: 183.15647888183594
y: 289.64227294921875
z: -0.2625311017036438
visibility: 0.9998927116394043
","x: 208.88851928710938
y: 313.9837341308594
z: -0.18085028231143951
visibility: 0.9999285936355591
","x: 174.79510498046875
y: 316.91241455078125
z: -0.08594105392694473
visibility: 0.9999130964279175
","x: 214.708740234375
y: 366.0284118652344
z: -0.2088741958141327
visibility: 0.9820346236228943
","x: 165.86729431152344
y: 356.5030212402344
z: -0.07417384535074234
visibility: 0.9491856694221497
","x: 212.41612243652344
y: 404.1230773925781
z: -0.32078319787979126
visibility: 0.9677402973175049
","x: 152.84739685058594
y: 383.97265625
z: -0.1916266679763794
visibility: 0.9612604379653931
","x: 211.51853942871094
y: 417.95428466796875
z: -0.35461071133613586
visibility: 0.9420901536941528
","x: 149.01280212402344
y: 393.2789611816406
z: -0.21568813920021057
visibility: 0.9387409090995789
","x: 207.9490966796875
y: 416.1423034667969
z: -0.3763875663280487
visibility: 0.9440933465957642
","x: 148.8605499267578
y: 392.7232666015625
z: -0.2427116334438324
visibility: 0.9425342679023743
","x: 207.56698608398438
y: 411.22198486328125
z: -0.32945555448532104
visibility: 0.9310994148254395
","x: 150.4713897705078
y: 390.05072021484375
z: -0.2061791718006134
visibility: 0.9351333975791931
","x: 206.22531127929688
y: 410.80810546875
z: -0.022046733647584915
visibility: 0.9999011754989624
","x: 185.0535125732422
y: 411.8329162597656
z: 0.022018950432538986
visibility: 0.9998429417610168
","x: 207.62744140625
y: 469.7226257324219
z: -0.01119142584502697
visibility: 0.9887397885322571
","x: 181.9243927001953
y: 470.9922790527344
z: 0.10416077077388763
visibility: 0.991183876991272
","x: 210.49044799804688
y: 527.6515502929688
z: 0.15946270525455475
visibility: 0.9833061099052429
","x: 174.017333984375
y: 523.2196655273438
z: 0.31600257754325867
visibility: 0.9881551265716553
","x: 207.3849334716797
y: 538.6055297851562
z: 0.17128466069698334
visibility: 0.9270312786102295
","x: 176.70716857910156
y: 532.4005126953125
z: 0.33334285020828247
visibility: 0.8989545702934265
","x: 217.90567016601562
y: 548.6622924804688
z: 0.07666726410388947
visibility: 0.9835982322692871
","x: 165.04708862304688
y: 544.7033081054688
z: 0.24874866008758545
visibility: 0.9849107265472412
",,,,,,,,,,,,,,,,,,,,,,,,,,,,,,,,,,,,,,,,,,
23,"x: 183.7601318359375
y: 279.09576416015625
z: -0.26993799209594727
visibility: 0.9998300075531006
","x: 187.32315063476562
y: 273.15673828125
z: -0.2669394314289093
visibility: 0.999569296836853
","x: 188.79798889160156
y: 273.4146423339844
z: -0.26696962118148804
visibility: 0.9995796084403992
","x: 190.42771911621094
y: 273.66973876953125
z: -0.2669832110404968
visibility: 0.9995880722999573
","x: 184.39427185058594
y: 272.13323974609375
z: -0.2545313537120819
visibility: 0.9994803071022034
","x: 183.59811401367188
y: 271.78363037109375
z: -0.2545495331287384
visibility: 0.9994187355041504
","x: 182.69564819335938
y: 271.40203857421875
z: -0.2546005845069885
visibility: 0.9993407130241394
","x: 195.5198974609375
y: 278.4482727050781
z: -0.21805794537067413
visibility: 0.9992207288742065
","x: 185.1883087158203
y: 275.32440185546875
z: -0.16396017372608185
visibility: 0.9984673857688904
","x: 186.1794891357422
y: 287.2898254394531
z: -0.25110727548599243
visibility: 0.9997810125350952
","x: 182.4434814453125
y: 286.91424560546875
z: -0.23481793701648712
visibility: 0.9997187256813049
","x: 205.41488647460938
y: 313.6322021484375
z: -0.18625466525554657
visibility: 0.9999052286148071
","x: 175.44656372070312
y: 318.1148986816406
z: -0.059208113700151443
visibility: 0.9998900294303894
","x: 208.93360900878906
y: 362.17779541015625
z: -0.2015797644853592
visibility: 0.9802972674369812
","x: 165.83738708496094
y: 357.7880554199219
z: 0.010333333164453506
visibility: 0.9378879070281982
","x: 200.84613037109375
y: 405.66583251953125
z: -0.2798750698566437
visibility: 0.9652249813079834
","x: 150.627685546875
y: 383.2218933105469
z: -0.0563005693256855
visibility: 0.9526375532150269
","x: 200.56546020507812
y: 419.1907043457031
z: -0.3076452910900116
visibility: 0.9377684593200684
","x: 146.28086853027344
y: 393.9091796875
z: -0.06841716170310974
visibility: 0.9264162182807922
","x: 196.4149169921875
y: 418.2938232421875
z: -0.32304590940475464
visibility: 0.9394803643226624
","x: 146.0484161376953
y: 393.2635498046875
z: -0.09981125593185425
visibility: 0.9312157034873962
","x: 196.34307861328125
y: 413.4545593261719
z: -0.2859276533126831
visibility: 0.9236244559288025
","x: 147.71446228027344
y: 390.22747802734375
z: -0.07152900099754333
visibility: 0.9236041903495789
","x: 208.09471130371094
y: 409.88763427734375
z: -0.022751862183213234
visibility: 0.9998760223388672
","x: 187.25291442871094
y: 411.7138366699219
z: 0.022729702293872833
visibility: 0.9998438954353333
","x: 208.93246459960938
y: 469.7191162109375
z: 0.025403236970305443
visibility: 0.988507091999054
","x: 183.57962036132812
y: 468.5473327636719
z: 0.01639397069811821
visibility: 0.9908307790756226
","x: 210.37869262695312
y: 527.2386474609375
z: 0.19360731542110443
visibility: 0.9836167693138123
","x: 174.3189239501953
y: 523.962890625
z: 0.15605655312538147
visibility: 0.9884468913078308
","x: 207.18215942382812
y: 538.4313354492188
z: 0.20454199612140656
visibility: 0.9256849884986877
","x: 177.09095764160156
y: 532.898681640625
z: 0.16450557112693787
visibility: 0.9000531435012817
","x: 217.77987670898438
y: 548.6531982421875
z: 0.11429329961538315
visibility: 0.9831601977348328
","x: 165.15554809570312
y: 544.674560546875
z: 0.07032829523086548
visibility: 0.9851303696632385
",,,,,,,,,,,,,,,,,,,,,,,,,,,,,,,,,,,,,,,,,,
24,"x: 183.76199340820312
y: 277.9507141113281
z: -0.2914406955242157
visibility: 0.9996988773345947
","x: 187.40701293945312
y: 272.16705322265625
z: -0.28947681188583374
visibility: 0.9992138147354126
","x: 188.91494750976562
y: 272.561767578125
z: -0.28951510787010193
visibility: 0.999247670173645
","x: 190.5655975341797
y: 273.062744140625
z: -0.28954747319221497
visibility: 0.9992891550064087
","x: 184.49581909179688
y: 271.1526184082031
z: -0.2766532003879547
visibility: 0.9990456104278564
","x: 183.64183044433594
y: 270.8968505859375
z: -0.2766757607460022
visibility: 0.9989520907402039
","x: 182.90065002441406
y: 270.6020202636719
z: -0.2767336964607239
visibility: 0.9988828301429749
","x: 195.2010955810547
y: 278.4516296386719
z: -0.242518812417984
visibility: 0.9985296130180359
","x: 185.22540283203125
y: 274.8424377441406
z: -0.18968066573143005
visibility: 0.9971517324447632
","x: 186.13233947753906
y: 286.929443359375
z: -0.27323660254478455
visibility: 0.999503493309021
","x: 182.52259826660156
y: 285.77276611328125
z: -0.25737425684928894
visibility: 0.9994092583656311
","x: 203.7269287109375
y: 313.4899597167969
z: -0.22978481650352478
visibility: 0.9998849630355835
","x: 175.71519470214844
y: 319.9230651855469
z: -0.06975559890270233
visibility: 0.9998570680618286
","x: 202.78656005859375
y: 363.65972900390625
z: -0.2502041757106781
visibility: 0.9796150922775269
","x: 166.11456298828125
y: 362.54510498046875
z: -0.013804269023239613
visibility: 0.9289010167121887
","x: 193.01048278808594
y: 408.7154846191406
z: -0.31223466992378235
visibility: 0.9652044177055359
","x: 147.6204071044922
y: 384.7854919433594
z: -0.0761820524930954
visibility: 0.9491692781448364
","x: 192.14122009277344
y: 421.59503173828125
z: -0.3406181037425995
visibility: 0.9373300075531006
","x: 141.39208984375
y: 394.5107727050781
z: -0.08750888705253601
visibility: 0.920962929725647
","x: 189.17466735839844
y: 419.9667663574219
z: -0.3501097559928894
visibility: 0.9386674761772156
","x: 140.90957641601562
y: 393.67047119140625
z: -0.12027265876531601
visibility: 0.9262951016426086
","x: 189.111572265625
y: 415.4429931640625
z: -0.31547605991363525
visibility: 0.9207195043563843
","x: 143.32083129882812
y: 390.8797607421875
z: -0.09204298257827759
visibility: 0.9183593988418579
","x: 208.09506225585938
y: 406.63671875
z: -0.0273615512996912
visibility: 0.9998511075973511
","x: 187.34738159179688
y: 410.5289306640625
z: 0.02730688452720642
visibility: 0.999843955039978
","x: 209.1303253173828
y: 468.88720703125
z: 0.018038148060441017
visibility: 0.9880287647247314
","x: 182.9140167236328
y: 464.7186279296875
z: -0.006267428398132324
visibility: 0.9898073673248291
","x: 210.2196502685547
y: 527.2029418945312
z: 0.18798492848873138
visibility: 0.9838169813156128
","x: 174.91029357910156
y: 523.640625
z: 0.14342504739761353
visibility: 0.9885160326957703
","x: 207.04986572265625
y: 538.7175903320312
z: 0.20093563199043274
visibility: 0.923312246799469
","x: 178.04139709472656
y: 532.8511962890625
z: 0.15305450558662415
visibility: 0.9008294939994812
","x: 217.53140258789062
y: 548.6348876953125
z: 0.10494929552078247
visibility: 0.9826740026473999
","x: 165.176513671875
y: 544.6856079101562
z: 0.0618005208671093
visibility: 0.9851964116096497
",,,,,,,,,,,,,,,,,,,,,,,,,,,,,,,,,,,,,,,,,,
25,"x: 184.0731658935547
y: 276.7059020996094
z: -0.28977030515670776
visibility: 0.9996277689933777
","x: 187.4980010986328
y: 271.34881591796875
z: -0.28678590059280396
visibility: 0.9990386366844177
","x: 188.95936584472656
y: 271.93853759765625
z: -0.28683656454086304
visibility: 0.9990991353988647
","x: 190.58438110351562
y: 272.6419372558594
z: -0.28688180446624756
visibility: 0.9991560578346252
","x: 184.54859924316406
y: 270.0241394042969
z: -0.27620524168014526
visibility: 0.9987793564796448
","x: 183.6687469482422
y: 269.7207336425781
z: -0.2762739062309265
visibility: 0.9986520409584045
","x: 183.03672790527344
y: 269.3905944824219
z: -0.2763247787952423
visibility: 0.9985751509666443
","x: 195.0037841796875
y: 278.315673828125
z: -0.23548288643360138
visibility: 0.9983745813369751
","x: 185.08181762695312
y: 273.50543212890625
z: -0.18694093823432922
visibility: 0.9963067173957825
","x: 186.43951416015625
y: 285.79315185546875
z: -0.26873597502708435
visibility: 0.9994102120399475
","x: 182.67318725585938
y: 283.9511413574219
z: -0.25392991304397583
visibility: 0.999231219291687
","x: 203.17454528808594
y: 313.75775146484375
z: -0.23427589237689972
visibility: 0.9998869895935059
","x: 175.74371337890625
y: 319.27325439453125
z: -0.04808951914310455
visibility: 0.9997905492782593
","x: 201.53897094726562
y: 363.54498291015625
z: -0.2602356970310211
visibility: 0.9809918999671936
","x: 168.52040100097656
y: 364.3591613769531
z: 0.03271832317113876
visibility: 0.9062084555625916
","x: 188.67724609375
y: 404.85552978515625
z: -0.3309929370880127
visibility: 0.9678698778152466
","x: 148.73388671875
y: 386.9070739746094
z: -0.03469306603074074
visibility: 0.9434275031089783
","x: 185.0263671875
y: 415.5969543457031
z: -0.3665695786476135
visibility: 0.9415609836578369
","x: 142.5275421142578
y: 394.9969787597656
z: -0.045883871614933014
visibility: 0.9131432175636292
","x: 182.85861206054688
y: 410.82269287109375
z: -0.3773076832294464
visibility: 0.9427395462989807
","x: 141.8015899658203
y: 393.70703125
z: -0.07878437638282776
visibility: 0.9189870953559875
","x: 183.59754943847656
y: 407.16802978515625
z: -0.33511626720428467
visibility: 0.9249193072319031
","x: 143.94479370117188
y: 391.6078186035156
z: -0.050798553973436356
visibility: 0.910061240196228
","x: 206.39743041992188
y: 406.9708251953125
z: -0.0382755845785141
visibility: 0.9998288154602051
","x: 185.92193603515625
y: 410.42041015625
z: 0.03823511675000191
visibility: 0.9998356103897095
","x: 208.74850463867188
y: 469.4394226074219
z: 0.00985301099717617
visibility: 0.9881812930107117
","x: 182.62220764160156
y: 465.0036926269531
z: 0.010924026370048523
visibility: 0.9891241192817688
","x: 210.3981170654297
y: 527.4210815429688
z: 0.19106188416481018
visibility: 0.9841083288192749
","x: 174.84030151367188
y: 523.6219482421875
z: 0.1984201967716217
visibility: 0.9887375235557556
","x: 207.61212158203125
y: 538.7686767578125
z: 0.20411591231822968
visibility: 0.9220842719078064
","x: 178.58050537109375
y: 532.79248046875
z: 0.21349532902240753
visibility: 0.9048742651939392
","x: 217.27963256835938
y: 548.6163330078125
z: 0.11579511314630508
visibility: 0.9825384020805359
","x: 165.23226928710938
y: 545.0623779296875
z: 0.09285754710435867
visibility: 0.9854593276977539
",,,,,,,,,,,,,,,,,,,,,,,,,,,,,,,,,,,,,,,,,,
26,"x: 184.27964782714844
y: 277.26953125
z: -0.261119544506073
visibility: 0.999058187007904
","x: 187.56842041015625
y: 271.78399658203125
z: -0.2522525489330292
visibility: 0.997180700302124
","x: 189.02833557128906
y: 272.2476501464844
z: -0.25232747197151184
visibility: 0.997183084487915
","x: 190.61041259765625
y: 272.68304443359375
z: -0.25236016511917114
visibility: 0.9973400831222534
","x: 184.6079559326172
y: 270.27337646484375
z: -0.24437172710895538
visibility: 0.9969081282615662
","x: 183.72943115234375
y: 269.8338928222656
z: -0.2443917989730835
visibility: 0.9961578845977783
","x: 183.06280517578125
y: 269.396728515625
z: -0.2444588840007782
visibility: 0.996222972869873
","x: 194.43685913085938
y: 278.42425537109375
