uscmakers/ReverseChoreography/data/6_thats_what_i_like_bruno_mars.csv
,NOSE,LEFT_EYE_INNER,LEFT_EYE,LEFT_EYE_OUTER,RIGHT_EYE_INNER,RIGHT_EYE,RIGHT_EYE_OUTER,LEFT_EAR,RIGHT_EAR,MOUTH_LEFT,MOUTH_RIGHT,LEFT_SHOULDER,RIGHT_SHOULDER,LEFT_ELBOW,RIGHT_ELBOW,LEFT_WRIST,RIGHT_WRIST,LEFT_PINKY,RIGHT_PINKY,LEFT_INDEX,RIGHT_INDEX,LEFT_THUMB,RIGHT_THUMB,LEFT_HIP,RIGHT_HIP,LEFT_KNEE,RIGHT_KNEE,LEFT_ANKLE,RIGHT_ANKLE,LEFT_HEEL,RIGHT_HEEL,LEFT_FOOT_INDEX,RIGHT_FOOT_INDEX,WRIST,THUMB_CPC,THUMB_MCP,THUMB_IP,THUMB_TIP,INDEX_FINGER_MCP,INDEX_FINGER_PIP,INDEX_FINGER_DIP,INDEX_FINGER_TIP,MIDDLE_FINGER_MCP,MIDDLE_FINGER_PIP,MIDDLE_FINGER_DIP,MIDDLE_FINGER_TIP,RING_FINGER_PIP,RING_FINGER_DIP,RING_FINGER_TIP,RING_FINGER_MCP,PINKY_MCP,PINKY_PIP,PINKY_DIP,PINKY_TIP,WRIST2,THUMB_CPC2,THUMB_MCP2,THUMB_IP2,THUMB_TIP2,INDEX_FINGER_MCP2,INDEX_FINGER_PIP2,INDEX_FINGER_DIP2,INDEX_FINGER_TIP2,MIDDLE_FINGER_MCP2,MIDDLE_FINGER_PIP2,MIDDLE_FINGER_DIP2,MIDDLE_FINGER_TIP2,RING_FINGER_PIP2,RING_FINGER_DIP2,RING_FINGER_TIP2,RING_FINGER_MCP2,PINKY_MCP2,PINKY_PIP2,PINKY_DIP2,PINKY_TIP2
0,"x: 183.76988220214844
y: 279.77239990234375
z: -0.18298396468162537
visibility: 0.9992546439170837
","x: 184.65570068359375
y: 273.4183654785156
z: -0.16806843876838684
visibility: 0.9990220069885254
","x: 185.7820281982422
y: 273.37994384765625
z: -0.1680724173784256
visibility: 0.9985771179199219
","x: 186.8784942626953
y: 273.3546142578125
z: -0.1680690348148346
visibility: 0.9986009001731873
","x: 181.32174682617188
y: 274.0540771484375
z: -0.16949744522571564
visibility: 0.9991427659988403
","x: 179.99693298339844
y: 274.57867431640625
z: -0.16953441500663757
visibility: 0.9990621209144592
","x: 178.7005157470703
y: 275.311279296875
z: -0.1696028709411621
visibility: 0.9991519451141357
","x: 188.73526000976562
y: 276.5404052734375
z: -0.08848818391561508
visibility: 0.9984544515609741
","x: 175.95480346679688
y: 280.2752990722656
z: -0.09257126599550247
visibility: 0.9993313550949097
","x: 186.480224609375
y: 286.9415283203125
z: -0.15353259444236755
visibility: 0.9994107484817505
","x: 182.3484344482422
y: 287.26092529296875
z: -0.1548285335302353
visibility: 0.9993927478790283
","x: 199.30099487304688
y: 314.12579345703125
z: -0.05104715749621391
visibility: 0.9975862503051758
","x: 169.7340850830078
y: 312.85186767578125
z: -0.08231832087039948
visibility: 0.9991303086280823
","x: 216.66851806640625
y: 315.61907958984375
z: -0.17472410202026367
visibility: 0.9869541525840759
","x: 160.7543182373047
y: 331.71356201171875
z: -0.20022650063037872
visibility: 0.9951601624488831
","x: 203.34483337402344
y: 286.5527648925781
z: -0.27977561950683594
visibility: 0.9558625817298889
","x: 166.85235595703125
y: 292.04876708984375
z: -0.31042996048927307
visibility: 0.9931722283363342
","x: 199.62057495117188
y: 281.7254638671875
z: -0.3052200973033905
visibility: 0.8421427011489868
","x: 166.78408813476562
y: 280.32415771484375
z: -0.3362593948841095
visibility: 0.9718610644340515
","x: 197.244384765625
y: 280.70458984375
z: -0.28102871775627136
visibility: 0.8148148059844971
","x: 167.0316925048828
y: 279.171630859375
z: -0.3281711935997009
visibility: 0.963991105556488
","x: 197.64149475097656
y: 282.5455322265625
z: -0.27351072430610657
visibility: 0.7769942879676819
","x: 167.4915771484375
y: 282.50421142578125
z: -0.310479074716568
visibility: 0.9537934064865112
","x: 196.4399871826172
y: 398.5433349609375
z: 0.015843190252780914
visibility: 0.9986509680747986
","x: 180.77342224121094
y: 397.9402160644531
z: -0.015947146341204643
visibility: 0.9990571141242981
","x: 194.82614135742188
y: 456.834716796875
z: -0.008498583920300007
visibility: 0.5595445036888123
","x: 187.7506561279297
y: 456.513427734375
z: -0.035600874572992325
visibility: 0.6453078985214233
","x: 184.6831512451172
y: 508.6656494140625
z: 0.08465716242790222
visibility: 0.49957263469696045
","x: 184.41912841796875
y: 510.2131652832031
z: 0.0674198567867279
visibility: 0.6946757435798645
","x: 181.1643829345703
y: 512.500244140625
z: 0.0895920917391777
visibility: 0.4050162732601166
","x: 182.02816772460938
y: 514.0873413085938
z: 0.07353530824184418
visibility: 0.4186420142650604
","x: 190.37330627441406
y: 516.3395385742188
z: 0.010710543021559715
visibility: 0.600607693195343
","x: 187.34518432617188
y: 516.6861572265625
z: -0.012581845745444298
visibility: 0.7312443256378174
",,,,,,,,,,,,,,,,,,,,,,,,,,,,,,,,,,,,,,,,,,
1,"x: 183.77059936523438
y: 286.96038818359375
z: -0.10707630217075348
visibility: 0.9993202686309814
","x: 184.55487060546875
y: 280.6521911621094
z: -0.08677267283201218
visibility: 0.9991082549095154
","x: 185.52972412109375
y: 280.255859375
z: -0.0867839902639389
visibility: 0.9987013936042786
","x: 186.39749145507812
y: 279.83685302734375
z: -0.08676378428936005
visibility: 0.9987256526947021
","x: 181.31700134277344
y: 281.7177734375
z: -0.09712840616703033
visibility: 0.9992215633392334
","x: 179.99188232421875
y: 282.163330078125
z: -0.09717528522014618
visibility: 0.9991493821144104
","x: 178.67520141601562
y: 282.6540832519531
z: -0.09726792573928833
visibility: 0.9992321729660034
","x: 187.1547088623047
y: 282.9169616699219
z: 0.014660718850791454
visibility: 0.9985659122467041
","x: 175.611083984375
y: 287.65509033203125
z: -0.03269742429256439
visibility: 0.9993962049484253
","x: 186.3328399658203
y: 292.98406982421875
z: -0.06904838979244232
visibility: 0.9994620680809021
","x: 182.3370361328125
y: 294.29339599609375
z: -0.08292108029127121
visibility: 0.9994516372680664
","x: 196.55282592773438
y: 320.7676696777344
z: 0.0751805305480957
visibility: 0.9978115558624268
","x: 167.39974975585938
y: 316.5273742675781
z: -0.05035875365138054
visibility: 0.9992156624794006
","x: 212.7558135986328
y: 337.9676818847656
z: -0.048817578703165054
visibility: 0.9830300211906433
","x: 151.01287841796875
y: 334.49932861328125
z: -0.17322006821632385
visibility: 0.9954628348350525
","x: 202.9571533203125
y: 325.2098388671875
z: -0.22244353592395782
visibility: 0.9550282955169678
","x: 172.4257354736328
y: 337.1883850097656
z: -0.26693251729011536
visibility: 0.9928737878799438
","x: 200.17730712890625
y: 328.10797119140625
z: -0.2543370723724365
visibility: 0.848455011844635
","x: 175.95315551757812
y: 346.7763977050781
z: -0.2917337119579315
visibility: 0.971763551235199
","x: 196.84608459472656
y: 326.56103515625
z: -0.23955699801445007
visibility: 0.8228673338890076
","x: 180.05841064453125
y: 345.8236389160156
z: -0.284076452255249
visibility: 0.9642544984817505
","x: 196.30694580078125
y: 326.8191223144531
z: -0.22118988633155823
visibility: 0.7858026623725891
","x: 179.20883178710938
y: 342.4822998046875
z: -0.2632341980934143
visibility: 0.9535608291625977
","x: 196.20098876953125
y: 406.4921569824219
z: 0.05509272217750549
visibility: 0.9987514615058899
","x: 180.7754364013672
y: 403.78912353515625
z: -0.055152975022792816
visibility: 0.999137818813324
","x: 194.639892578125
y: 471.0531311035156
z: 0.03368501737713814
visibility: 0.5708040595054626
","x: 196.03111267089844
y: 445.19415283203125
z: -0.2307291328907013
visibility: 0.6787015795707703
","x: 185.32069396972656
y: 533.6265869140625
z: 0.11988157033920288
visibility: 0.526150107383728
","x: 183.296630859375
y: 516.662353515625
z: -0.1851494014263153
visibility: 0.7221157550811768
","x: 179.58352661132812
y: 539.6233520507812
z: 0.1232442855834961
visibility: 0.4368472099304199
","x: 178.08155822753906
y: 527.452880859375
z: -0.18356071412563324
visibility: 0.4642315208911896
","x: 197.59226989746094
y: 548.478271484375
z: 0.05087920278310776
visibility: 0.6241649389266968
","x: 190.11119079589844
y: 540.2294311523438
z: -0.27649903297424316
visibility: 0.7556172013282776
","x: 178.9612579345703
y: 340.2515869140625
z: 0.0
","x: 181.90882873535156
y: 338.25946044921875
z: -0.0029458305798470974
","x: 185.4503631591797
y: 339.5752258300781
z: -0.005422284826636314
","x: 188.32823181152344
y: 340.02197265625
z: -0.0079492861405015
","x: 190.42041015625
y: 338.262939453125
z: -0.01058185938745737
","x: 185.5883331298828
y: 352.88409423828125
z: -0.0035095291677862406
","x: 186.57647705078125
y: 359.815673828125
z: -0.006458245683461428
","x: 186.8167724609375
y: 364.30487060546875
z: -0.00843167956918478
","x: 186.6998748779297
y: 367.91632080078125
z: -0.009765789844095707
","x: 184.01080322265625
y: 356.2373352050781
z: -0.004384168423712254
","x: 185.41439819335938
y: 364.85699462890625
z: -0.007046612910926342
","x: 185.64776611328125
y: 370.8018493652344
z: -0.008983197622001171
","x: 185.42213439941406
y: 375.6784362792969
z: -0.010633761994540691
","x: 182.16639709472656
y: 357.4273986816406
z: -0.005647727288305759
","x: 183.3496551513672
y: 365.7027893066406
z: -0.009019189514219761
","x: 183.28909301757812
y: 371.33642578125
z: -0.011210722848773003
","x: 183.11351013183594
y: 376.15283203125
z: -0.012610228732228279
","x: 180.07528686523438
y: 356.9326171875
z: -0.007161424960941076
","x: 179.86903381347656
y: 363.577880859375
z: -0.010292144492268562
","x: 179.06150817871094
y: 368.0799865722656
z: -0.011876529082655907
","x: 178.34243774414062
y: 371.9623107910156
z: -0.01284643355756998
","x: 203.9062957763672
y: 324.8570556640625
z: 0.0
","x: 201.0496063232422
y: 322.17840576171875
z: -0.0018650853307917714
","x: 197.5952606201172
y: 322.1365661621094
z: -0.0037879960145801306
","x: 194.9165496826172
y: 320.8294372558594
z: -0.005619820207357407
","x: 193.1787109375
y: 317.2928161621094
z: -0.007598246913403273
","x: 197.2443084716797
y: 329.77154541015625
z: -0.00569611880928278
","x: 194.96078491210938
y: 335.7493591308594
z: -0.008150107227265835
","x: 194.13677978515625
y: 339.7982177734375
z: -0.009353899396955967
","x: 193.77175903320312
y: 343.2586975097656
z: -0.010130821727216244
","x: 199.05633544921875
y: 332.81353759765625
z: -0.006435072515159845
","x: 197.35020446777344
y: 339.7882080078125
z: -0.008365006186068058
","x: 196.6670379638672
y: 344.4393310546875
z: -0.00897996500134468
","x: 196.52423095703125
y: 348.5740966796875
z: -0.009717865847051144
","x: 201.0377960205078
y: 334.6310119628906
z: -0.007153044920414686
","x: 200.0223388671875
y: 341.42926025390625
z: -0.009466487914323807
","x: 199.6785125732422
y: 345.9281921386719
z: -0.010427230037748814
","x: 199.6576690673828
y: 349.8190002441406
z: -0.011153973639011383
","x: 202.9840850830078
y: 335.47796630859375
z: -0.00799042172729969
","x: 203.19561767578125
y: 341.106689453125
z: -0.01042854506522417
","x: 203.62335205078125
y: 344.6643371582031
z: -0.011333968490362167
","x: 204.10496520996094
y: 347.7961730957031
z: -0.011869397014379501
"
2,"x: 183.77059936523438
y: 286.96038818359375
z: -0.10707630217075348
visibility: 0.9993202686309814
","x: 184.55487060546875
y: 280.6521911621094
z: -0.08677267283201218
visibility: 0.9991082549095154
","x: 185.52972412109375
y: 280.255859375
z: -0.0867839902639389
visibility: 0.9987013936042786
","x: 186.39749145507812
y: 279.83685302734375
z: -0.08676378428936005
visibility: 0.9987256526947021
","x: 181.31700134277344
y: 281.7177734375
z: -0.09712840616703033
visibility: 0.9992215633392334
","x: 179.99188232421875
y: 282.163330078125
z: -0.09717528522014618
visibility: 0.9991493821144104
","x: 178.67520141601562
y: 282.6540832519531
z: -0.09726792573928833
visibility: 0.9992321729660034
","x: 187.1547088623047
y: 282.9169616699219
z: 0.014660718850791454
visibility: 0.9985659122467041
","x: 175.611083984375
y: 287.65509033203125
z: -0.03269742429256439
visibility: 0.9993962049484253
","x: 186.3328399658203
y: 292.98406982421875
z: -0.06904838979244232
visibility: 0.9994620680809021
","x: 182.3370361328125
y: 294.29339599609375
z: -0.08292108029127121
visibility: 0.9994516372680664
","x: 196.55282592773438
y: 320.7676696777344
z: 0.0751805305480957
visibility: 0.9978115558624268
","x: 167.39974975585938
y: 316.5273742675781
z: -0.05035875365138054
visibility: 0.9992156624794006
","x: 212.7558135986328
y: 337.9676818847656
z: -0.048817578703165054
visibility: 0.9830300211906433
","x: 151.01287841796875
y: 334.49932861328125
z: -0.17322006821632385
visibility: 0.9954628348350525
","x: 202.9571533203125
y: 325.2098388671875
z: -0.22244353592395782
visibility: 0.9550282955169678
","x: 172.4257354736328
y: 337.1883850097656
z: -0.26693251729011536
visibility: 0.9928737878799438
","x: 200.17730712890625
y: 328.10797119140625
z: -0.2543370723724365
visibility: 0.848455011844635
","x: 175.95315551757812
y: 346.7763977050781
z: -0.2917337119579315
visibility: 0.971763551235199
","x: 196.84608459472656
y: 326.56103515625
z: -0.23955699801445007
visibility: 0.8228673338890076
","x: 180.05841064453125
y: 345.8236389160156
z: -0.284076452255249
visibility: 0.9642544984817505
","x: 196.30694580078125
y: 326.8191223144531
z: -0.22118988633155823
visibility: 0.7858026623725891
","x: 179.20883178710938
y: 342.4822998046875
z: -0.2632341980934143
visibility: 0.9535608291625977
","x: 196.20098876953125
y: 406.4921569824219
z: 0.05509272217750549
visibility: 0.9987514615058899
","x: 180.7754364013672
y: 403.78912353515625
z: -0.055152975022792816
visibility: 0.999137818813324
","x: 194.639892578125
y: 471.0531311035156
z: 0.03368501737713814
visibility: 0.5708040595054626
","x: 196.03111267089844
y: 445.19415283203125
z: -0.2307291328907013
visibility: 0.6787015795707703
","x: 185.32069396972656
y: 533.6265869140625
z: 0.11988157033920288
visibility: 0.526150107383728
","x: 183.296630859375
y: 516.662353515625
z: -0.1851494014263153
visibility: 0.7221157550811768
","x: 179.58352661132812
y: 539.6233520507812
z: 0.1232442855834961
visibility: 0.4368472099304199
","x: 178.08155822753906
y: 527.452880859375
z: -0.18356071412563324
visibility: 0.4642315208911896
","x: 197.59226989746094
y: 548.478271484375
z: 0.05087920278310776
visibility: 0.6241649389266968
","x: 190.11119079589844
y: 540.2294311523438
z: -0.27649903297424316
visibility: 0.7556172013282776
","x: 178.9612579345703
y: 340.2515869140625
z: 0.0
","x: 181.90882873535156
y: 338.25946044921875
z: -0.0029458305798470974
","x: 185.4503631591797
y: 339.5752258300781
z: -0.005422284826636314
","x: 188.32823181152344
y: 340.02197265625
z: -0.0079492861405015
","x: 190.42041015625
y: 338.262939453125
z: -0.01058185938745737
","x: 185.5883331298828
y: 352.88409423828125
z: -0.0035095291677862406
","x: 186.57647705078125
y: 359.815673828125
z: -0.006458245683461428
","x: 186.8167724609375
y: 364.30487060546875
z: -0.00843167956918478
","x: 186.6998748779297
y: 367.91632080078125
z: -0.009765789844095707
","x: 184.01080322265625
y: 356.2373352050781
z: -0.004384168423712254
","x: 185.41439819335938
y: 364.85699462890625
z: -0.007046612910926342
","x: 185.64776611328125
y: 370.8018493652344
z: -0.008983197622001171
","x: 185.42213439941406
y: 375.6784362792969
z: -0.010633761994540691
","x: 182.16639709472656
y: 357.4273986816406
z: -0.005647727288305759
","x: 183.3496551513672
y: 365.7027893066406
z: -0.009019189514219761
","x: 183.28909301757812
y: 371.33642578125
z: -0.011210722848773003
","x: 183.11351013183594
y: 376.15283203125
z: -0.012610228732228279
","x: 180.07528686523438
y: 356.9326171875
z: -0.007161424960941076
","x: 179.86903381347656
y: 363.577880859375
z: -0.010292144492268562
","x: 179.06150817871094
y: 368.0799865722656
z: -0.011876529082655907
","x: 178.34243774414062
y: 371.9623107910156
z: -0.01284643355756998
","x: 203.9062957763672
y: 324.8570556640625
z: 0.0
","x: 201.0496063232422
y: 322.17840576171875
z: -0.0018650853307917714
","x: 197.5952606201172
y: 322.1365661621094
z: -0.0037879960145801306
","x: 194.9165496826172
y: 320.8294372558594
z: -0.005619820207357407
","x: 193.1787109375
y: 317.2928161621094
z: -0.007598246913403273
","x: 197.2443084716797
y: 329.77154541015625
z: -0.00569611880928278
","x: 194.96078491210938
y: 335.7493591308594
z: -0.008150107227265835
","x: 194.13677978515625
y: 339.7982177734375
z: -0.009353899396955967
","x: 193.77175903320312
y: 343.2586975097656
z: -0.010130821727216244
","x: 199.05633544921875
y: 332.81353759765625
z: -0.006435072515159845
","x: 197.35020446777344
y: 339.7882080078125
z: -0.008365006186068058
","x: 196.6670379638672
y: 344.4393310546875
z: -0.00897996500134468
","x: 196.52423095703125
y: 348.5740966796875
z: -0.009717865847051144
","x: 201.0377960205078
y: 334.6310119628906
z: -0.007153044920414686
","x: 200.0223388671875
y: 341.42926025390625
z: -0.009466487914323807
","x: 199.6785125732422
y: 345.9281921386719
z: -0.010427230037748814
","x: 199.6576690673828
y: 349.8190002441406
z: -0.011153973639011383
","x: 202.9840850830078
y: 335.47796630859375
z: -0.00799042172729969
","x: 203.19561767578125
y: 341.106689453125
z: -0.01042854506522417
","x: 203.62335205078125
y: 344.6643371582031
z: -0.011333968490362167
","x: 204.10496520996094
y: 347.7961730957031
z: -0.011869397014379501
"
3,"x: 183.77059936523438
y: 286.96038818359375
z: -0.10707630217075348
visibility: 0.9993202686309814
","x: 184.55487060546875
y: 280.6521911621094
z: -0.08677267283201218
visibility: 0.9991082549095154
","x: 185.52972412109375
y: 280.255859375
z: -0.0867839902639389
visibility: 0.9987013936042786
","x: 186.39749145507812
y: 279.83685302734375
z: -0.08676378428936005
visibility: 0.9987256526947021
","x: 181.31700134277344
y: 281.7177734375
z: -0.09712840616703033
visibility: 0.9992215633392334
","x: 179.99188232421875
y: 282.163330078125
z: -0.09717528522014618
visibility: 0.9991493821144104
","x: 178.67520141601562
y: 282.6540832519531
z: -0.09726792573928833
visibility: 0.9992321729660034
","x: 187.1547088623047
y: 282.9169616699219
z: 0.014660718850791454
visibility: 0.9985659122467041
","x: 175.611083984375
y: 287.65509033203125
z: -0.03269742429256439
visibility: 0.9993962049484253
","x: 186.3328399658203
y: 292.98406982421875
z: -0.06904838979244232
visibility: 0.9994620680809021
","x: 182.3370361328125
y: 294.29339599609375
z: -0.08292108029127121
visibility: 0.9994516372680664
","x: 196.55282592773438
y: 320.7676696777344
z: 0.0751805305480957
visibility: 0.9978115558624268
","x: 167.39974975585938
y: 316.5273742675781
z: -0.05035875365138054
visibility: 0.9992156624794006
","x: 212.7558135986328
y: 337.9676818847656
z: -0.048817578703165054
visibility: 0.9830300211906433
","x: 151.01287841796875
y: 334.49932861328125
z: -0.17322006821632385
visibility: 0.9954628348350525
","x: 202.9571533203125
y: 325.2098388671875
z: -0.22244353592395782
visibility: 0.9550282955169678
","x: 172.4257354736328
y: 337.1883850097656
z: -0.26693251729011536
visibility: 0.9928737878799438
","x: 200.17730712890625
y: 328.10797119140625
z: -0.2543370723724365
visibility: 0.848455011844635
","x: 175.95315551757812
y: 346.7763977050781
z: -0.2917337119579315
visibility: 0.971763551235199
","x: 196.84608459472656
y: 326.56103515625
z: -0.23955699801445007
visibility: 0.8228673338890076
","x: 180.05841064453125
y: 345.8236389160156
z: -0.284076452255249
visibility: 0.9642544984817505
","x: 196.30694580078125
y: 326.8191223144531
z: -0.22118988633155823
visibility: 0.7858026623725891
","x: 179.20883178710938
y: 342.4822998046875
z: -0.2632341980934143
visibility: 0.9535608291625977
","x: 196.20098876953125
y: 406.4921569824219
z: 0.05509272217750549
visibility: 0.9987514615058899
","x: 180.7754364013672
y: 403.78912353515625
z: -0.055152975022792816
visibility: 0.999137818813324
","x: 194.639892578125
y: 471.0531311035156
z: 0.03368501737713814
visibility: 0.5708040595054626
","x: 196.03111267089844
y: 445.19415283203125
z: -0.2307291328907013
visibility: 0.6787015795707703
","x: 185.32069396972656
y: 533.6265869140625
z: 0.11988157033920288
visibility: 0.526150107383728
","x: 183.296630859375
y: 516.662353515625
z: -0.1851494014263153
visibility: 0.7221157550811768
","x: 179.58352661132812
y: 539.6233520507812
z: 0.1232442855834961
visibility: 0.4368472099304199
","x: 178.08155822753906
y: 527.452880859375
z: -0.18356071412563324
visibility: 0.4642315208911896
","x: 197.59226989746094
y: 548.478271484375
z: 0.05087920278310776
visibility: 0.6241649389266968
","x: 190.11119079589844
y: 540.2294311523438
z: -0.27649903297424316
visibility: 0.7556172013282776
","x: 178.9612579345703
y: 340.2515869140625
z: 0.0
","x: 181.90882873535156
y: 338.25946044921875
z: -0.0029458305798470974
","x: 185.4503631591797
y: 339.5752258300781
z: -0.005422284826636314
","x: 188.32823181152344
y: 340.02197265625
z: -0.0079492861405015
","x: 190.42041015625
y: 338.262939453125
z: -0.01058185938745737
","x: 185.5883331298828
y: 352.88409423828125
z: -0.0035095291677862406
","x: 186.57647705078125
y: 359.815673828125
z: -0.006458245683461428
","x: 186.8167724609375
y: 364.30487060546875
z: -0.00843167956918478
","x: 186.6998748779297
y: 367.91632080078125
z: -0.009765789844095707
","x: 184.01080322265625
y: 356.2373352050781
z: -0.004384168423712254
","x: 185.41439819335938
y: 364.85699462890625
z: -0.007046612910926342
","x: 185.64776611328125
y: 370.8018493652344
z: -0.008983197622001171
","x: 185.42213439941406
y: 375.6784362792969
z: -0.010633761994540691
","x: 182.16639709472656
y: 357.4273986816406
z: -0.005647727288305759
","x: 183.3496551513672
y: 365.7027893066406
z: -0.009019189514219761
","x: 183.28909301757812
y: 371.33642578125
z: -0.011210722848773003
","x: 183.11351013183594
y: 376.15283203125
z: -0.012610228732228279
","x: 180.07528686523438
y: 356.9326171875
z: -0.007161424960941076
","x: 179.86903381347656
y: 363.577880859375
z: -0.010292144492268562
","x: 179.06150817871094
y: 368.0799865722656
z: -0.011876529082655907
","x: 178.34243774414062
y: 371.9623107910156
z: -0.01284643355756998
","x: 203.9062957763672
y: 324.8570556640625
z: 0.0
","x: 201.0496063232422
y: 322.17840576171875
z: -0.0018650853307917714
","x: 197.5952606201172
y: 322.1365661621094
z: -0.0037879960145801306
","x: 194.9165496826172
y: 320.8294372558594
z: -0.005619820207357407
","x: 193.1787109375
y: 317.2928161621094
z: -0.007598246913403273
","x: 197.2443084716797
y: 329.77154541015625
z: -0.00569611880928278
","x: 194.96078491210938
y: 335.7493591308594
z: -0.008150107227265835
","x: 194.13677978515625
y: 339.7982177734375
z: -0.009353899396955967
","x: 193.77175903320312
y: 343.2586975097656
z: -0.010130821727216244
","x: 199.05633544921875
y: 332.81353759765625
z: -0.006435072515159845
","x: 197.35020446777344
y: 339.7882080078125
z: -0.008365006186068058
","x: 196.6670379638672
y: 344.4393310546875
z: -0.00897996500134468
","x: 196.52423095703125
y: 348.5740966796875
z: -0.009717865847051144
","x: 201.0377960205078
y: 334.6310119628906
z: -0.007153044920414686
","x: 200.0223388671875
y: 341.42926025390625
z: -0.009466487914323807
","x: 199.6785125732422
y: 345.9281921386719
z: -0.010427230037748814
","x: 199.6576690673828
y: 349.8190002441406
z: -0.011153973639011383
","x: 202.9840850830078
y: 335.47796630859375
z: -0.00799042172729969
","x: 203.19561767578125
y: 341.106689453125
z: -0.01042854506522417
","x: 203.62335205078125
y: 344.6643371582031
z: -0.011333968490362167
","x: 204.10496520996094
y: 347.7961730957031
z: -0.011869397014379501
"
4,"x: 183.2004852294922
y: 285.9500732421875
z: -0.29148024320602417
visibility: 0.9993769526481628
","x: 183.88876342773438
y: 279.4912414550781
z: -0.2751256227493286
visibility: 0.9991832375526428
","x: 184.78070068359375
y: 279.1983337402344
z: -0.2751062512397766
visibility: 0.9988111257553101
","x: 185.61993408203125
y: 278.8749084472656
z: -0.27511245012283325
visibility: 0.9988358616828918
","x: 180.8073272705078
y: 280.3883056640625
z: -0.2836225926876068
visibility: 0.9992879629135132
","x: 179.47897338867188
y: 280.8592834472656
z: -0.2836645841598511
visibility: 0.999221920967102
","x: 178.05458068847656
y: 281.4108581542969
z: -0.28374171257019043
visibility: 0.9992983937263489
","x: 186.5095672607422
y: 282.0107421875
z: -0.1696370542049408
visibility: 0.9986825585365295
","x: 174.90969848632812
y: 286.43353271484375
z: -0.2095269411802292
visibility: 0.9994506239891052
","x: 185.51295471191406
y: 292.224365234375
z: -0.25007814168930054
visibility: 0.9995108842849731
","x: 181.63685607910156
y: 294.0545959472656
z: -0.26173609495162964
visibility: 0.999504029750824
","x: 196.93199157714844
y: 320.7376403808594
z: -0.10459370911121368
visibility: 0.9980223774909973
","x: 166.04147338867188
y: 317.8882751464844
z: -0.18485252559185028
visibility: 0.9992896318435669
","x: 212.9150390625
y: 337.1904296875
z: -0.24286341667175293
visibility: 0.9841522574424744
","x: 148.0419464111328
y: 336.61785888671875
z: -0.31346768140792847
visibility: 0.9956116676330566
","x: 202.5550537109375
y: 324.0727233886719
z: -0.4450932443141937
visibility: 0.9584131240844727
","x: 171.20269775390625
y: 346.19024658203125
z: -0.4538232684135437
visibility: 0.99239581823349
","x: 198.82095336914062
y: 326.94537353515625
z: -0.4942053258419037
visibility: 0.8609716296195984
","x: 173.4036102294922
y: 357.44561767578125
z: -0.49381929636001587
visibility: 0.9712110757827759
","x: 195.07583618164062
y: 324.9093933105469
z: -0.47989916801452637
visibility: 0.837767481803894
","x: 176.2493438720703
y: 354.0115661621094
z: -0.4905221462249756
visibility: 0.963887631893158
","x: 195.02659606933594
y: 324.68072509765625
z: -0.4448682367801666
visibility: 0.8029178380966187
","x: 175.41494750976562
y: 349.3143005371094
z: -0.4544493556022644
visibility: 0.9519815444946289
","x: 195.374267578125
y: 406.4170837402344
z: 0.040138158947229385
visibility: 0.9988429546356201
","x: 177.68724060058594
y: 404.6191101074219
z: -0.04013443738222122
visibility: 0.9991723299026489
","x: 193.45806884765625
y: 469.0491027832031
z: 0.04326493293046951
visibility: 0.5652694702148438
","x: 188.7309112548828
y: 461.55706787109375
z: 0.006080056540668011
visibility: 0.674801230430603
","x: 186.04234313964844
y: 530.018798828125
z: 0.17848840355873108
visibility: 0.5314946174621582
","x: 183.27493286132812
y: 522.3592529296875
z: 0.19539420306682587
visibility: 0.7204182744026184
","x: 180.24603271484375
y: 540.229248046875
z: 0.1874755322933197
visibility: 0.4453045725822449
","x: 178.77764892578125
y: 534.05419921875
z: 0.20951934158802032
visibility: 0.46555739641189575
","x: 196.85086059570312
y: 548.3117065429688
z: 0.10095616430044174
visibility: 0.6344128251075745
","x: 190.55303955078125
y: 542.7181396484375
z: 0.11752166599035263
visibility: 0.7571766376495361
","x: 175.42160034179688
y: 347.3395080566406
z: 0.0
","x: 177.73626708984375
y: 349.2694396972656
z: -0.0014980946434661746
","x: 179.35421752929688
y: 353.07666015625
z: -0.002931730356067419
","x: 180.04937744140625
y: 356.52874755859375
z: -0.00445620296522975
","x: 180.5198974609375
y: 358.478515625
z: -0.006070955190807581
","x: 178.82473754882812
y: 359.18243408203125
z: -0.0038599034305661917
","x: 179.62501525878906
y: 365.27716064453125
z: -0.00621398538351059
","x: 179.6009979248047
y: 368.8323974609375
z: -0.007303500082343817
","x: 179.41513061523438
y: 371.7172546386719
z: -0.007901186123490334
","x: 177.05723571777344
y: 361.0244445800781
z: -0.004747519735246897
","x: 177.86158752441406
y: 368.1278076171875
z: -0.007036447525024414
","x: 177.86952209472656
y: 372.6036071777344
z: -0.008031799457967281
","x: 177.70762634277344
y: 376.180908203125
z: -0.008851013146340847
","x: 175.20046997070312
y: 361.7765808105469
z: -0.00571671687066555
","x: 175.37921142578125
y: 368.80535888671875
z: -0.008294505998492241
","x: 175.03387451171875
y: 373.271484375
z: -0.009554078802466393
","x: 174.65016174316406
y: 376.86590576171875
z: -0.010380360297858715
","x: 173.3516082763672
y: 361.515869140625
z: -0.006782876793295145
","x: 172.40185546875
y: 366.98583984375
z: -0.008955658413469791
","x: 171.48699951171875
y: 370.6275939941406
z: -0.009973854757845402
","x: 170.65927124023438
y: 373.72467041015625
z: -0.010654972866177559
","x: 200.11984252929688
y: 319.738525390625
z: 0.0
","x: 196.83193969726562
y: 317.19976806640625
z: -0.0016673068748787045
","x: 192.90609741210938
y: 317.72991943359375
z: -0.0034606026019901037
","x: 189.78916931152344
y: 317.0022277832031
z: -0.005059237591922283
","x: 187.99269104003906
y: 313.2195739746094
z: -0.006878611631691456
","x: 192.72703552246094
y: 324.10345458984375
z: -0.00619514798745513
","x: 189.98257446289062
y: 330.4745788574219
z: -0.008714985102415085
","x: 188.7092742919922
y: 334.8651428222656
z: -0.009894685819745064
","x: 187.7951202392578
y: 338.6297912597656
z: -0.010770351625978947
","x: 194.57662963867188
y: 327.3747253417969
z: -0.007177464198321104
","x: 192.15377807617188
y: 335.27655029296875
z: -0.009465482085943222
","x: 191.00131225585938
y: 340.52825927734375
z: -0.010236877016723156
","x: 190.3951873779297
y: 344.984375
z: -0.011109777726233006
","x: 196.62161254882812
y: 329.5362548828125
z: -0.008054501377046108
","x: 194.98419189453125
y: 337.4226379394531
z: -0.010887229815125465
","x: 194.31283569335938
y: 342.75018310546875
z: -0.012117051519453526
","x: 193.99159240722656
y: 347.24029541015625
z: -0.012974563986063004
","x: 198.707763671875
y: 330.7359313964844
z: -0.008976719342172146
","x: 198.74317932128906
y: 336.98797607421875
z: -0.011870449408888817
","x: 199.2396697998047
y: 341.0432434082031
z: -0.012944797053933144
","x: 199.6707305908203
y: 344.71893310546875
z: -0.013569273985922337
"
5,"x: 183.2004852294922
y: 285.9500732421875
z: -0.29148024320602417
visibility: 0.9993769526481628
","x: 183.88876342773438
y: 279.4912414550781
z: -0.2751256227493286
visibility: 0.9991832375526428
","x: 184.78070068359375
y: 279.1983337402344
z: -0.2751062512397766
visibility: 0.9988111257553101
","x: 185.61993408203125
y: 278.8749084472656
z: -0.27511245012283325
visibility: 0.9988358616828918
","x: 180.8073272705078
y: 280.3883056640625
z: -0.2836225926876068
visibility: 0.9992879629135132
","x: 179.47897338867188
y: 280.8592834472656
z: -0.2836645841598511
visibility: 0.999221920967102
","x: 178.05458068847656
y: 281.4108581542969
z: -0.28374171257019043
visibility: 0.9992983937263489
","x: 186.5095672607422
y: 282.0107421875
z: -0.1696370542049408
visibility: 0.9986825585365295
","x: 174.90969848632812
y: 286.43353271484375
z: -0.2095269411802292
visibility: 0.9994506239891052
","x: 185.51295471191406
y: 292.224365234375
z: -0.25007814168930054
visibility: 0.9995108842849731
","x: 181.63685607910156
y: 294.0545959472656
z: -0.26173609495162964
visibility: 0.999504029750824
","x: 196.93199157714844
y: 320.7376403808594
z: -0.10459370911121368
visibility: 0.9980223774909973
","x: 166.04147338867188
y: 317.8882751464844
z: -0.18485252559185028
visibility: 0.9992896318435669
","x: 212.9150390625
y: 337.1904296875
z: -0.24286341667175293
visibility: 0.9841522574424744
","x: 148.0419464111328
y: 336.61785888671875
z: -0.31346768140792847
visibility: 0.9956116676330566
","x: 202.5550537109375
y: 324.0727233886719
z: -0.4450932443141937
visibility: 0.9584131240844727
","x: 171.20269775390625
y: 346.19024658203125
z: -0.4538232684135437
visibility: 0.99239581823349
","x: 198.82095336914062
y: 326.94537353515625
z: -0.4942053258419037
visibility: 0.8609716296195984
","x: 173.4036102294922
y: 357.44561767578125
z: -0.49381929636001587
visibility: 0.9712110757827759
","x: 195.07583618164062
y: 324.9093933105469
z: -0.47989916801452637
visibility: 0.837767481803894
","x: 176.2493438720703
y: 354.0115661621094
z: -0.4905221462249756
visibility: 0.963887631893158
","x: 195.02659606933594
y: 324.68072509765625
z: -0.4448682367801666
visibility: 0.8029178380966187
","x: 175.41494750976562
y: 349.3143005371094
z: -0.4544493556022644
visibility: 0.9519815444946289
","x: 195.374267578125
y: 406.4170837402344
z: 0.040138158947229385
visibility: 0.9988429546356201
","x: 177.68724060058594
y: 404.6191101074219
z: -0.04013443738222122
visibility: 0.9991723299026489
","x: 193.45806884765625
y: 469.0491027832031
z: 0.04326493293046951
visibility: 0.5652694702148438
","x: 188.7309112548828
y: 461.55706787109375
z: 0.006080056540668011
visibility: 0.674801230430603
","x: 186.04234313964844
y: 530.018798828125
z: 0.17848840355873108
visibility: 0.5314946174621582
","x: 183.27493286132812
y: 522.3592529296875
z: 0.19539420306682587
visibility: 0.7204182744026184
","x: 180.24603271484375
y: 540.229248046875
z: 0.1874755322933197
visibility: 0.4453045725822449
","x: 178.77764892578125
y: 534.05419921875
z: 0.20951934158802032
visibility: 0.46555739641189575
","x: 196.85086059570312
y: 548.3117065429688
z: 0.10095616430044174
visibility: 0.6344128251075745
","x: 190.55303955078125
y: 542.7181396484375
z: 0.11752166599035263
visibility: 0.7571766376495361
","x: 175.42160034179688
y: 347.3395080566406
z: 0.0
","x: 177.73626708984375
y: 349.2694396972656
z: -0.0014980946434661746
","x: 179.35421752929688
y: 353.07666015625
z: -0.002931730356067419
","x: 180.04937744140625
y: 356.52874755859375
z: -0.00445620296522975
","x: 180.5198974609375
y: 358.478515625
z: -0.006070955190807581
","x: 178.82473754882812
y: 359.18243408203125
z: -0.0038599034305661917
","x: 179.62501525878906
y: 365.27716064453125
z: -0.00621398538351059
","x: 179.6009979248047
y: 368.8323974609375
z: -0.007303500082343817
","x: 179.41513061523438
y: 371.7172546386719
z: -0.007901186123490334
","x: 177.05723571777344
y: 361.0244445800781
z: -0.004747519735246897
","x: 177.86158752441406
y: 368.1278076171875
z: -0.007036447525024414
","x: 177.86952209472656
y: 372.6036071777344
z: -0.008031799457967281
","x: 177.70762634277344
y: 376.180908203125
z: -0.008851013146340847
","x: 175.20046997070312
y: 361.7765808105469
z: -0.00571671687066555
","x: 175.37921142578125
y: 368.80535888671875
z: -0.008294505998492241
","x: 175.03387451171875
y: 373.271484375
z: -0.009554078802466393
","x: 174.65016174316406
y: 376.86590576171875
z: -0.010380360297858715
","x: 173.3516082763672
y: 361.515869140625
z: -0.006782876793295145
","x: 172.40185546875
y: 366.98583984375
z: -0.008955658413469791
","x: 171.48699951171875
y: 370.6275939941406
z: -0.009973854757845402
","x: 170.65927124023438
y: 373.72467041015625
z: -0.010654972866177559
","x: 200.11984252929688
y: 319.738525390625
z: 0.0
","x: 196.83193969726562
y: 317.19976806640625
z: -0.0016673068748787045
","x: 192.90609741210938
y: 317.72991943359375
z: -0.0034606026019901037
","x: 189.78916931152344
y: 317.0022277832031
z: -0.005059237591922283
","x: 187.99269104003906
y: 313.2195739746094
z: -0.006878611631691456
","x: 192.72703552246094
y: 324.10345458984375
z: -0.00619514798745513
","x: 189.98257446289062
y: 330.4745788574219
z: -0.008714985102415085
","x: 188.7092742919922
y: 334.8651428222656
z: -0.009894685819745064
","x: 187.7951202392578
y: 338.6297912597656
z: -0.010770351625978947
","x: 194.57662963867188
y: 327.3747253417969
z: -0.007177464198321104
","x: 192.15377807617188
y: 335.27655029296875
z: -0.009465482085943222
","x: 191.00131225585938
y: 340.52825927734375
z: -0.010236877016723156
","x: 190.3951873779297
y: 344.984375
z: -0.011109777726233006
","x: 196.62161254882812
y: 329.5362548828125
z: -0.008054501377046108
","x: 194.98419189453125
y: 337.4226379394531
z: -0.010887229815125465
","x: 194.31283569335938
y: 342.75018310546875
z: -0.012117051519453526
","x: 193.99159240722656
y: 347.24029541015625
z: -0.012974563986063004
","x: 198.707763671875
y: 330.7359313964844
z: -0.008976719342172146
","x: 198.74317932128906
y: 336.98797607421875
z: -0.011870449408888817
","x: 199.2396697998047
y: 341.0432434082031
z: -0.012944797053933144
","x: 199.6707305908203
y: 344.71893310546875
z: -0.013569273985922337
"
6,"x: 183.2004852294922
y: 285.9500732421875
z: -0.29148024320602417
visibility: 0.9993769526481628
","x: 183.88876342773438
y: 279.4912414550781
z: -0.2751256227493286
visibility: 0.9991832375526428
","x: 184.78070068359375
y: 279.1983337402344
z: -0.2751062512397766
visibility: 0.9988111257553101
","x: 185.61993408203125
y: 278.8749084472656
z: -0.27511245012283325
visibility: 0.9988358616828918
","x: 180.8073272705078
y: 280.3883056640625
z: -0.2836225926876068
visibility: 0.9992879629135132
","x: 179.47897338867188
y: 280.8592834472656
z: -0.2836645841598511
visibility: 0.999221920967102
","x: 178.05458068847656
y: 281.4108581542969
z: -0.28374171257019043
visibility: 0.9992983937263489
","x: 186.5095672607422
y: 282.0107421875
z: -0.1696370542049408
visibility: 0.9986825585365295
","x: 174.90969848632812
y: 286.43353271484375
z: -0.2095269411802292
visibility: 0.9994506239891052
","x: 185.51295471191406
y: 292.224365234375
z: -0.25007814168930054
visibility: 0.9995108842849731
","x: 181.63685607910156
y: 294.0545959472656
z: -0.26173609495162964
visibility: 0.999504029750824
","x: 196.93199157714844
y: 320.7376403808594
z: -0.10459370911121368
visibility: 0.9980223774909973
","x: 166.04147338867188
y: 317.8882751464844
z: -0.18485252559185028
visibility: 0.9992896318435669
","x: 212.9150390625
y: 337.1904296875
z: -0.24286341667175293
visibility: 0.9841522574424744
","x: 148.0419464111328
y: 336.61785888671875
z: -0.31346768140792847
visibility: 0.9956116676330566
","x: 202.5550537109375
y: 324.0727233886719
z: -0.4450932443141937
visibility: 0.9584131240844727
","x: 171.20269775390625
y: 346.19024658203125
z: -0.4538232684135437
visibility: 0.99239581823349
","x: 198.82095336914062
y: 326.94537353515625
z: -0.4942053258419037
visibility: 0.8609716296195984
","x: 173.4036102294922
y: 357.44561767578125
z: -0.49381929636001587
visibility: 0.9712110757827759
","x: 195.07583618164062
y: 324.9093933105469
z: -0.47989916801452637
visibility: 0.837767481803894
","x: 176.2493438720703
y: 354.0115661621094
z: -0.4905221462249756
visibility: 0.963887631893158
","x: 195.02659606933594
y: 324.68072509765625
z: -0.4448682367801666
visibility: 0.8029178380966187
","x: 175.41494750976562
y: 349.3143005371094
z: -0.4544493556022644
visibility: 0.9519815444946289
","x: 195.374267578125
y: 406.4170837402344
z: 0.040138158947229385
visibility: 0.9988429546356201
","x: 177.68724060058594
y: 404.6191101074219
z: -0.04013443738222122
visibility: 0.9991723299026489
","x: 193.45806884765625
y: 469.0491027832031
z: 0.04326493293046951
visibility: 0.5652694702148438
","x: 188.7309112548828
y: 461.55706787109375
z: 0.006080056540668011
visibility: 0.674801230430603
","x: 186.04234313964844
y: 530.018798828125
z: 0.17848840355873108
visibility: 0.5314946174621582
","x: 183.27493286132812
y: 522.3592529296875
z: 0.19539420306682587
visibility: 0.7204182744026184
","x: 180.24603271484375
y: 540.229248046875
z: 0.1874755322933197
visibility: 0.4453045725822449
","x: 178.77764892578125
y: 534.05419921875
z: 0.20951934158802032
visibility: 0.46555739641189575
","x: 196.85086059570312
y: 548.3117065429688
z: 0.10095616430044174
visibility: 0.6344128251075745
","x: 190.55303955078125
y: 542.7181396484375
z: 0.11752166599035263
visibility: 0.7571766376495361
","x: 175.42160034179688
y: 347.3395080566406
z: 0.0
","x: 177.73626708984375
y: 349.2694396972656
z: -0.0014980946434661746
","x: 179.35421752929688
y: 353.07666015625
z: -0.002931730356067419
","x: 180.04937744140625
y: 356.52874755859375
z: -0.00445620296522975
","x: 180.5198974609375
y: 358.478515625
z: -0.006070955190807581
","x: 178.82473754882812
y: 359.18243408203125
z: -0.0038599034305661917
","x: 179.62501525878906
y: 365.27716064453125
z: -0.00621398538351059
","x: 179.6009979248047
y: 368.8323974609375
z: -0.007303500082343817
","x: 179.41513061523438
y: 371.7172546386719
z: -0.007901186123490334
","x: 177.05723571777344
y: 361.0244445800781
z: -0.004747519735246897
","x: 177.86158752441406
y: 368.1278076171875
z: -0.007036447525024414
","x: 177.86952209472656
y: 372.6036071777344
z: -0.008031799457967281
","x: 177.70762634277344
y: 376.180908203125
z: -0.008851013146340847
","x: 175.20046997070312
y: 361.7765808105469
z: -0.00571671687066555
","x: 175.37921142578125
y: 368.80535888671875
z: -0.008294505998492241
","x: 175.03387451171875
y: 373.271484375
z: -0.009554078802466393
","x: 174.65016174316406
y: 376.86590576171875
z: -0.010380360297858715
","x: 173.3516082763672
y: 361.515869140625
z: -0.006782876793295145
","x: 172.40185546875
y: 366.98583984375
z: -0.008955658413469791
","x: 171.48699951171875
y: 370.6275939941406
z: -0.009973854757845402
","x: 170.65927124023438
y: 373.72467041015625
z: -0.010654972866177559
","x: 200.11984252929688
y: 319.738525390625
z: 0.0
","x: 196.83193969726562
y: 317.19976806640625
z: -0.0016673068748787045
","x: 192.90609741210938
y: 317.72991943359375
z: -0.0034606026019901037
","x: 189.78916931152344
y: 317.0022277832031
z: -0.005059237591922283
","x: 187.99269104003906
y: 313.2195739746094
z: -0.006878611631691456
","x: 192.72703552246094
y: 324.10345458984375
z: -0.00619514798745513
","x: 189.98257446289062
y: 330.4745788574219
z: -0.008714985102415085
","x: 188.7092742919922
y: 334.8651428222656
z: -0.009894685819745064
","x: 187.7951202392578
y: 338.6297912597656
z: -0.010770351625978947
","x: 194.57662963867188
y: 327.3747253417969
z: -0.007177464198321104
","x: 192.15377807617188
y: 335.27655029296875
z: -0.009465482085943222
","x: 191.00131225585938
y: 340.52825927734375
z: -0.010236877016723156
","x: 190.3951873779297
y: 344.984375
z: -0.011109777726233006
","x: 196.62161254882812
y: 329.5362548828125
z: -0.008054501377046108
","x: 194.98419189453125
y: 337.4226379394531
z: -0.010887229815125465
","x: 194.31283569335938
y: 342.75018310546875
z: -0.012117051519453526
","x: 193.99159240722656
y: 347.24029541015625
z: -0.012974563986063004
","x: 198.707763671875
y: 330.7359313964844
z: -0.008976719342172146
","x: 198.74317932128906
y: 336.98797607421875
z: -0.011870449408888817
","x: 199.2396697998047
y: 341.0432434082031
z: -0.012944797053933144
","x: 199.6707305908203
y: 344.71893310546875
z: -0.013569273985922337
"
7,"x: 183.08787536621094
y: 280.71051025390625
z: -0.2305041253566742
visibility: 0.9994384050369263
","x: 183.82566833496094
y: 274.80828857421875
z: -0.21297290921211243
visibility: 0.9992632865905762
","x: 184.7313690185547
y: 274.7705383300781
z: -0.21298840641975403
visibility: 0.9989280700683594
","x: 185.61831665039062
y: 274.81640625
z: -0.2129935324192047
visibility: 0.998950183391571
","x: 180.4847869873047
y: 274.9945068359375
z: -0.21934160590171814
visibility: 0.9993576407432556
","x: 179.0134735107422
y: 275.2569580078125
z: -0.21937501430511475
visibility: 0.9992981553077698
","x: 177.52134704589844
y: 275.65814208984375
z: -0.21942439675331116
visibility: 0.9993668794631958
","x: 186.6361083984375
y: 278.27197265625
z: -0.16246765851974487
visibility: 0.998807966709137
","x: 174.47178649902344
y: 280.4915771484375
z: -0.14051610231399536
visibility: 0.9995040893554688
","x: 185.42189025878906
y: 287.3061828613281
z: -0.1922285258769989
visibility: 0.9995591044425964
","x: 181.27450561523438
y: 288.86187744140625
z: -0.2000429332256317
visibility: 0.9995532631874084
","x: 197.44937133789062
y: 314.0857849121094
z: -0.012626606039702892
visibility: 0.9982193112373352
","x: 164.7252655029297
y: 315.4082946777344
z: -0.1267339140176773
visibility: 0.9993599653244019
","x: 212.58575439453125
y: 344.7604064941406
z: -0.0710502490401268
visibility: 0.9850221872329712
","x: 149.95465087890625
y: 344.1555480957031
z: -0.14293000102043152
visibility: 0.9954532980918884
","x: 202.14976501464844
y: 344.54296875
z: -0.2849292457103729
visibility: 0.9621009230613708
","x: 166.62710571289062
y: 360.8297119140625
z: -0.27652865648269653
visibility: 0.9911224842071533
","x: 198.67706298828125
y: 352.116455078125
z: -0.3381234407424927
visibility: 0.8738675117492676
","x: 170.3673553466797
y: 370.2724914550781
z: -0.3141636848449707
visibility: 0.9699209332466125
","x: 195.19932556152344
y: 346.0789489746094
z: -0.43435153365135193
visibility: 0.8530170917510986
","x: 176.00694274902344
y: 365.2161865234375
z: -0.32790181040763855
visibility: 0.9631940126419067
","x: 195.25900268554688
y: 343.4199523925781
z: -0.295639306306839
visibility: 0.8208925724029541
","x: 173.8817596435547
y: 361.3766174316406
z: -0.28202900290489197
visibility: 0.9499631524085999
","x: 193.37008666992188
y: 406.2965393066406
z: 0.04763401672244072
visibility: 0.9989414811134338
","x: 174.96829223632812
y: 403.9518737792969
z: -0.047752223908901215
visibility: 0.9992467164993286
","x: 189.26431274414062
y: 466.9311218261719
z: 0.1007782369852066
visibility: 0.5885269641876221
","x: 182.40945434570312
y: 460.88031005859375
z: -0.1210833415389061
visibility: 0.7058952450752258
","x: 185.1600341796875
y: 527.2994384765625
z: 0.2488696128129959
visibility: 0.5675609707832336
","x: 172.27392578125
y: 524.725830078125
z: -0.024613481014966965
visibility: 0.7467604279518127
","x: 180.50523376464844
y: 537.5545654296875
z: 0.25893333554267883
visibility: 0.4838554859161377
","x: 168.13055419921875
y: 534.3671264648438
z: -0.01998252421617508
visibility: 0.5031712055206299
","x: 196.22752380371094
y: 542.3140258789062
z: 0.18446564674377441
visibility: 0.6640741229057312
","x: 180.91485595703125
y: 549.4598999023438
z: -0.12561330199241638
visibility: 0.7798339128494263
",,,,,,,,,,,,,,,,,,,,,,"x: 201.2069091796875
y: 345.56182861328125
z: 0.0
","x: 198.37548828125
y: 342.4882507324219
z: -0.002538010710850358
","x: 194.5740509033203
y: 341.9305725097656
z: -0.004684372805058956
","x: 191.323486328125
y: 340.69439697265625
z: -0.006747609935700893
","x: 189.4862518310547
y: 337.2247009277344
z: -0.008796313777565956
","x: 193.16934204101562
y: 350.1464538574219
z: -0.005325894337147474
","x: 189.3131866455078
y: 354.5326232910156
z: -0.008180880919098854
","x: 187.5640869140625
y: 357.494873046875
z: -0.009423019364476204
","x: 186.7590789794922
y: 359.6082763671875
z: -0.010031132958829403
","x: 194.02098083496094
y: 354.135009765625
z: -0.005982256960123777
","x: 189.52410888671875
y: 359.4813537597656
z: -0.008627701550722122
","x: 187.66030883789062
y: 362.0557861328125
z: -0.009550311602652073
","x: 186.99429321289062
y: 363.6119384765625
z: -0.010058946907520294
","x: 195.3416748046875
y: 357.1945495605469
z: -0.006810200400650501
","x: 191.7652130126953
y: 362.78155517578125
z: -0.009270650334656239
","x: 189.53514099121094
y: 365.537841796875
z: -0.010379304178059101
","x: 188.1474151611328
y: 367.35791015625
z: -0.011045340448617935
","x: 197.06138610839844
y: 359.2742919921875
z: -0.007922330871224403
","x: 195.238037109375
y: 364.81585693359375
z: -0.009979487396776676
","x: 193.931884765625
y: 367.6382141113281
z: -0.010966718196868896
","x: 192.86293029785156
y: 369.42706298828125
z: -0.011569785885512829
"
8,"x: 183.08787536621094
y: 280.71051025390625
z: -0.2305041253566742
visibility: 0.9994384050369263
","x: 183.82566833496094
y: 274.80828857421875
z: -0.21297290921211243
visibility: 0.9992632865905762
","x: 184.7313690185547
y: 274.7705383300781
z: -0.21298840641975403
visibility: 0.9989280700683594
","x: 185.61831665039062
y: 274.81640625
z: -0.2129935324192047
visibility: 0.998950183391571
","x: 180.4847869873047
y: 274.9945068359375
z: -0.21934160590171814
visibility: 0.9993576407432556
","x: 179.0134735107422
y: 275.2569580078125
z: -0.21937501430511475
visibility: 0.9992981553077698
","x: 177.52134704589844
y: 275.65814208984375
z: -0.21942439675331116
visibility: 0.9993668794631958
","x: 186.6361083984375
y: 278.27197265625
z: -0.16246765851974487
visibility: 0.998807966709137
","x: 174.47178649902344
y: 280.4915771484375
z: -0.14051610231399536
visibility: 0.9995040893554688
","x: 185.42189025878906
y: 287.3061828613281
z: -0.1922285258769989
visibility: 0.9995591044425964
","x: 181.27450561523438
y: 288.86187744140625
z: -0.2000429332256317
visibility: 0.9995532631874084
","x: 197.44937133789062
y: 314.0857849121094
z: -0.012626606039702892
visibility: 0.9982193112373352
","x: 164.7252655029297
y: 315.4082946777344
z: -0.1267339140176773
visibility: 0.9993599653244019
","x: 212.58575439453125
y: 344.7604064941406
z: -0.0710502490401268
visibility: 0.9850221872329712
","x: 149.95465087890625
y: 344.1555480957031
z: -0.14293000102043152
visibility: 0.9954532980918884
","x: 202.14976501464844
y: 344.54296875
z: -0.2849292457103729
visibility: 0.9621009230613708
","x: 166.62710571289062
y: 360.8297119140625
z: -0.27652865648269653
visibility: 0.9911224842071533
","x: 198.67706298828125
y: 352.116455078125
z: -0.3381234407424927
visibility: 0.8738675117492676
","x: 170.3673553466797
y: 370.2724914550781
z: -0.3141636848449707
visibility: 0.9699209332466125
","x: 195.19932556152344
y: 346.0789489746094
z: -0.43435153365135193
visibility: 0.8530170917510986
","x: 176.00694274902344
y: 365.2161865234375
z: -0.32790181040763855
visibility: 0.9631940126419067
","x: 195.25900268554688
y: 343.4199523925781
z: -0.295639306306839
visibility: 0.8208925724029541
","x: 173.8817596435547
y: 361.3766174316406
z: -0.28202900290489197
visibility: 0.9499631524085999
","x: 193.37008666992188
y: 406.2965393066406
z: 0.04763401672244072
visibility: 0.9989414811134338
","x: 174.96829223632812
y: 403.9518737792969
z: -0.047752223908901215
visibility: 0.9992467164993286
","x: 189.26431274414062
y: 466.9311218261719
z: 0.1007782369852066
visibility: 0.5885269641876221
","x: 182.40945434570312
y: 460.88031005859375
z: -0.1210833415389061
visibility: 0.7058952450752258
","x: 185.1600341796875
y: 527.2994384765625
z: 0.2488696128129959
visibility: 0.5675609707832336
","x: 172.27392578125
y: 524.725830078125
z: -0.024613481014966965
visibility: 0.7467604279518127
","x: 180.50523376464844
y: 537.5545654296875
z: 0.25893333554267883
visibility: 0.4838554859161377
","x: 168.13055419921875
y: 534.3671264648438
z: -0.01998252421617508
visibility: 0.5031712055206299
","x: 196.22752380371094
y: 542.3140258789062
z: 0.18446564674377441
visibility: 0.6640741229057312
","x: 180.91485595703125
y: 549.4598999023438
z: -0.12561330199241638
visibility: 0.7798339128494263
",,,,,,,,,,,,,,,,,,,,,,"x: 201.2069091796875
y: 345.56182861328125
z: 0.0
","x: 198.37548828125
y: 342.4882507324219
z: -0.002538010710850358
","x: 194.5740509033203
y: 341.9305725097656
z: -0.004684372805058956
","x: 191.323486328125
y: 340.69439697265625
z: -0.006747609935700893
","x: 189.4862518310547
y: 337.2247009277344
z: -0.008796313777565956
","x: 193.16934204101562
y: 350.1464538574219
z: -0.005325894337147474
","x: 189.3131866455078
y: 354.5326232910156
z: -0.008180880919098854
","x: 187.5640869140625
y: 357.494873046875
z: -0.009423019364476204
","x: 186.7590789794922
y: 359.6082763671875
z: -0.010031132958829403
","x: 194.02098083496094
y: 354.135009765625
z: -0.005982256960123777
","x: 189.52410888671875
y: 359.4813537597656
z: -0.008627701550722122
","x: 187.66030883789062
y: 362.0557861328125
z: -0.009550311602652073
","x: 186.99429321289062
y: 363.6119384765625
z: -0.010058946907520294
","x: 195.3416748046875
y: 357.1945495605469
z: -0.006810200400650501
","x: 191.7652130126953
y: 362.78155517578125
z: -0.009270650334656239
","x: 189.53514099121094
y: 365.537841796875
z: -0.010379304178059101
","x: 188.1474151611328
y: 367.35791015625
z: -0.011045340448617935
","x: 197.06138610839844
y: 359.2742919921875
z: -0.007922330871224403
","x: 195.238037109375
y: 364.81585693359375
z: -0.009979487396776676
","x: 193.931884765625
y: 367.6382141113281
z: -0.010966718196868896
","x: 192.86293029785156
y: 369.42706298828125
z: -0.011569785885512829
"
9,"x: 178.94375610351562
y: 280.42730712890625
z: -0.2149740755558014
visibility: 0.9994916915893555
","x: 180.644287109375
y: 274.5565490722656
z: -0.1978517472743988
visibility: 0.999331533908844
","x: 181.9133758544922
y: 274.6117248535156
z: -0.19784539937973022
visibility: 0.999028205871582
","x: 183.08509826660156
y: 274.7396545410156
z: -0.19784455001354218
visibility: 0.9990466833114624
","x: 176.6855926513672
y: 274.6596374511719
z: -0.2049364298582077
visibility: 0.9994156956672668
","x: 175.31959533691406
y: 274.9371337890625
z: -0.20499444007873535
visibility: 0.9993616342544556
","x: 173.9503936767578
y: 275.35052490234375
z: -0.20508499443531036
visibility: 0.9994232058525085
","x: 184.4168701171875
y: 278.1689453125
z: -0.14092320203781128
visibility: 0.998908519744873
","x: 171.63265991210938
y: 279.7127990722656
z: -0.11617795377969742
visibility: 0.999545156955719
","x: 181.50936889648438
y: 286.8423767089844
z: -0.1822551190853119
visibility: 0.99959796667099
","x: 176.47073364257812
y: 288.52801513671875
z: -0.1950245350599289
visibility: 0.9995945692062378
","x: 194.9384765625
y: 314.1463928222656
z: -0.01327370572835207
visibility: 0.9983779788017273
","x: 160.93905639648438
y: 316.1609191894531
z: -0.06824295222759247
visibility: 0.999416172504425
","x: 197.94479370117188
y: 353.14471435546875
z: -0.003693600418046117
visibility: 0.957831859588623
","x: 151.1253662109375
y: 351.8185119628906
z: -0.12613297998905182
visibility: 0.9930994510650635
","x: 203.52069091796875
y: 372.0996398925781
z: -0.12557488679885864
visibility: 0.9531511068344116
","x: 153.19122314453125
y: 362.313232421875
z: -0.29784566164016724
visibility: 0.9888066649436951
","x: 206.47457885742188
y: 378.84051513671875
z: -0.15199728310108185
visibility: 0.8716781735420227
","x: 154.14151000976562
y: 367.876220703125
z: -0.33148887753486633
visibility: 0.9681706428527832
","x: 206.751220703125
y: 375.8338623046875
z: -0.17943400144577026
visibility: 0.8541392087936401
","x: 155.78793334960938
y: 361.2342834472656
z: -0.34631675481796265
visibility: 0.9622964859008789
","x: 204.75619506835938
y: 373.447998046875
z: -0.1388133019208908
visibility: 0.8229380249977112
","x: 155.29708862304688
y: 357.94427490234375
z: -0.3009167015552521
visibility: 0.9491710662841797
","x: 190.84596252441406
y: 406.06402587890625
z: 0.03913143649697304
visibility: 0.9990121722221375
","x: 171.56654357910156
y: 406.01605224609375
z: -0.03901781514286995
visibility: 0.9992828369140625
","x: 190.18492126464844
y: 466.5609436035156
z: 0.048201896250247955
visibility: 0.6253377199172974
","x: 172.5076904296875
y: 463.82159423828125
z: -0.03640066459774971
visibility: 0.7337643504142761
","x: 183.9869842529297
y: 525.251220703125
z: 0.16715940833091736
visibility: 0.6072998046875
","x: 170.6665496826172
y: 525.217041015625
z: 0.09770934283733368
visibility: 0.7702741622924805
","x: 180.36895751953125
y: 533.6949462890625
z: 0.17426462471485138
visibility: 0.528261661529541
","x: 169.0458526611328
y: 533.3722534179688
z: 0.10574084520339966
visibility: 0.53761225938797
","x: 195.51438903808594
y: 540.7808837890625
z: 0.09643687307834625
visibility: 0.6949374675750732
","x: 174.41844177246094
y: 546.2899169921875
z: 0.005351671949028969
visibility: 0.7997029423713684
",,,,,,,,,,,,,,,,,,,,,,,,,,,,,,,,,,,,,,,,,,
10,"x: 176.984375
y: 279.4579772949219
z: -0.23362520337104797
visibility: 0.9995409846305847
","x: 178.9545440673828
y: 273.5767822265625
z: -0.21864719688892365
visibility: 0.9993951916694641
","x: 180.4300079345703
y: 273.68963623046875
z: -0.21866640448570251
visibility: 0.9991217851638794
","x: 181.77789306640625
y: 273.8882751464844
z: -0.2186858355998993
visibility: 0.9991374611854553
","x: 174.5486602783203
y: 273.64862060546875
z: -0.2184569388628006
visibility: 0.9994686245918274
","x: 173.12184143066406
y: 273.9369812011719
z: -0.21850092709064484
visibility: 0.9994195103645325
","x: 171.7882080078125
y: 274.3517761230469
z: -0.21849489212036133
visibility: 0.999474048614502
","x: 183.2318572998047
y: 277.2554931640625
z: -0.13104335963726044
visibility: 0.9990130662918091
","x: 169.23800659179688
y: 278.4179382324219
z: -0.12693709135055542
visibility: 0.9995766878128052
","x: 179.8248748779297
y: 285.7126159667969
z: -0.19994410872459412
visibility: 0.9996358752250671
","x: 174.25486755371094
y: 287.28778076171875
z: -0.2009124755859375
visibility: 0.9996325373649597
","x: 194.15992736816406
y: 314.1138000488281
z: -0.06366860866546631
visibility: 0.9985359311103821
","x: 158.4215545654297
y: 318.25390625
z: -0.06944595277309418
visibility: 0.9994580745697021
","x: 200.1257781982422
y: 357.78082275390625
z: -0.06879459321498871
visibility: 0.9593662023544312
","x: 145.93624877929688
y: 363.40447998046875
z: -0.16007110476493835
visibility: 0.9933486580848694
","x: 210.26573181152344
y: 385.1173400878906
z: -0.18359260261058807
visibility: 0.9565219283103943
","x: 143.23411560058594
y: 341.9388427734375
z: -0.36004117131233215
visibility: 0.9897180795669556
","x: 214.3763427734375
y: 390.52191162109375
z: -0.20587952435016632
visibility: 0.8816792964935303
","x: 141.73541259765625
y: 347.92822265625
z: -0.39517953991889954
visibility: 0.9708020687103271
","x: 214.1776885986328
y: 388.1309814453125
z: -0.22368092834949493
visibility: 0.8659692406654358
","x: 143.58786010742188
y: 337.3310852050781
z: -0.39505067467689514
visibility: 0.9654787182807922
","x: 212.4583282470703
y: 386.4291687011719
z: -0.19251468777656555
visibility: 0.8372217416763306
","x: 144.762939453125
y: 354.3045349121094
z: -0.36417654156684875
visibility: 0.9532788991928101
","x: 189.754150390625
y: 405.3885498046875
z: 0.01795501448214054
visibility: 0.9991072416305542
","x: 168.42494201660156
y: 407.6216125488281
z: -0.018002398312091827
visibility: 0.9993433356285095
","x: 202.84324645996094
y: 458.93328857421875
z: -0.19776651263237
visibility: 0.6621036529541016
","x: 167.72560119628906
y: 464.0177001953125
z: -0.1287926584482193
visibility: 0.7593845725059509
","x: 193.4978790283203
y: 521.3843383789062
z: -0.01754496619105339
visibility: 0.6453105211257935
","x: 170.60130310058594
y: 525.1412353515625
z: 0.03744370490312576
visibility: 0.79225093126297
","x: 189.39564514160156
y: 531.2540283203125
z: -0.004204439464956522
visibility: 0.5717117786407471
","x: 170.30313110351562
y: 532.3629150390625
z: 0.05009857937693596
visibility: 0.5733702778816223
","x: 207.29873657226562
y: 540.1875610351562
z: -0.09480230510234833
visibility: 0.7239760160446167
","x: 174.1769256591797
y: 547.6383056640625
z: -0.05427675321698189
visibility: 0.8183373808860779
",,,,,,,,,,,,,,,,,,,,,,,,,,,,,,,,,,,,,,,,,,
11,"x: 178.87110900878906
y: 277.583740234375
z: -0.2478848695755005
visibility: 0.999586820602417
","x: 181.25674438476562
y: 271.7206115722656
z: -0.23005111515522003
visibility: 0.9994555115699768
","x: 182.64894104003906
y: 271.9843444824219
z: -0.23005270957946777
visibility: 0.9992094039916992
","x: 184.00836181640625
y: 272.3260192871094
z: -0.23004670441150665
visibility: 0.9992234110832214
","x: 177.15182495117188
y: 271.1744079589844
z: -0.23543667793273926
visibility: 0.9995215535163879
","x: 175.45262145996094
y: 271.169189453125
z: -0.23544280230998993
visibility: 0.9994772672653198
","x: 173.62733459472656
y: 271.2811584472656
z: -0.23540249466896057
visibility: 0.9995262622833252
","x: 184.40048217773438
y: 276.25946044921875
z: -0.12020263820886612
visibility: 0.9991112351417542
","x: 169.7494354248047
y: 275.08489990234375
z: -0.14646975696086884
visibility: 0.9996184706687927
","x: 179.91348266601562
y: 284.6265869140625
z: -0.20520322024822235
visibility: 0.9996718764305115
","x: 174.431640625
y: 284.9848327636719
z: -0.21345825493335724
visibility: 0.9996688961982727
","x: 193.56582641601562
y: 316.34539794921875
z: -0.03306163102388382
visibility: 0.9986813068389893
","x: 160.66383361816406
y: 310.9934387207031
z: -0.09848778694868088
visibility: 0.9995087385177612
","x: 194.7491912841797
y: 362.24420166015625
z: 0.01787196472287178
visibility: 0.9490453600883484
","x: 148.70758056640625
y: 356.30181884765625
z: -0.21781718730926514
visibility: 0.9912319183349609
","x: 210.6885223388672
y: 378.96429443359375
z: -0.06552892923355103
visibility: 0.959408700466156
","x: 146.84266662597656
y: 335.9666442871094
z: -0.44297799468040466
visibility: 0.9896175861358643
","x: 215.41690063476562
y: 382.7534484863281
z: -0.0817297101020813
visibility: 0.8912118077278137
","x: 146.218505859375
y: 336.82916259765625
z: -0.4879232943058014
visibility: 0.9718818068504333
","x: 216.28329467773438
y: 379.60552978515625
z: -0.11041481792926788
visibility: 0.8772302269935608
","x: 148.4607391357422
y: 330.3240661621094
z: -0.4934592843055725
visibility: 0.9670329093933105
","x: 214.248779296875
y: 378.47064208984375
z: -0.07916359603404999
visibility: 0.8507227897644043
","x: 148.9868927001953
y: 336.2955017089844
z: -0.4512348771095276
visibility: 0.955208957195282
","x: 189.7032470703125
y: 405.2416687011719
z: 0.02728685736656189
visibility: 0.9991943836212158
","x: 168.61813354492188
y: 406.5409851074219
z: -0.027401510626077652
visibility: 0.9994051456451416
","x: 202.3162078857422
y: 463.692138671875
z: 0.013071161694824696
visibility: 0.6956745386123657
","x: 168.69235229492188
y: 464.64495849609375
z: -0.04951637238264084
visibility: 0.783277153968811
","x: 205.211669921875
y: 523.9771728515625
z: 0.17341125011444092
visibility: 0.6805939078330994
","x: 170.92510986328125
y: 525.3367919921875
z: 0.11512710899114609
visibility: 0.8128899335861206
","x: 200.82833862304688
y: 534.3638916015625
z: 0.18340659141540527
visibility: 0.6126359105110168
","x: 169.62149047851562
y: 531.1053466796875
z: 0.12695303559303284
visibility: 0.6121043562889099
","x: 218.31353759765625
y: 545.3021850585938
z: 0.09572166204452515
visibility: 0.7513049840927124
","x: 175.4610595703125
y: 549.4779052734375
z: 0.028052067384123802
visibility: 0.836300790309906
",,,,,,,,,,,,,,,,,,,,,,,,,,,,,,,,,,,,,,,,,,
12,"x: 179.1280975341797
y: 276.8909606933594
z: -0.20296064019203186
visibility: 0.9996271729469299
","x: 181.8336944580078
y: 270.9002380371094
z: -0.18538692593574524
visibility: 0.9995083808898926
","x: 183.05789184570312
y: 271.1545104980469
z: -0.18542924523353577
visibility: 0.9992863535881042
","x: 184.29811096191406
y: 271.4686279296875
z: -0.18544606864452362
visibility: 0.9992986917495728
","x: 178.08993530273438
y: 270.2222595214844
z: -0.19633807241916656
visibility: 0.9995673894882202
","x: 176.4039764404297
y: 270.072265625
z: -0.19632461667060852
visibility: 0.9995271563529968
","x: 174.3892364501953
y: 270.0265197753906
z: -0.19632090628147125
visibility: 0.9995704889297485
","x: 184.661376953125
y: 275.5787353515625
z: -0.07116460800170898
visibility: 0.9991952180862427
","x: 170.61868286132812
y: 273.3557434082031
z: -0.12131120264530182
visibility: 0.9996536374092102
","x: 180.8324737548828
y: 284.0793151855469
z: -0.15770921111106873
visibility: 0.9997029900550842
","x: 175.7510986328125
y: 284.023681640625
z: -0.1723109781742096
visibility: 0.9997006058692932
","x: 192.596923828125
y: 314.98388671875
z: 0.023130357265472412
visibility: 0.9988090991973877
","x: 161.4033966064453
y: 305.0748291015625
z: -0.0968189463019371
visibility: 0.9995535016059875
","x: 196.57009887695312
y: 353.302734375
z: 0.04016861319541931
visibility: 0.9328142404556274
","x: 155.44839477539062
y: 346.3970947265625
z: -0.21163292229175568
visibility: 0.9890363812446594
","x: 212.35414123535156
y: 375.20635986328125
z: -0.0686817318201065
visibility: 0.9595088362693787
","x: 158.8310546875
y: 338.9454345703125
z: -0.4045506417751312
visibility: 0.9890391826629639
","x: 216.80453491210938
y: 379.0037841796875
z: -0.08982078731060028
visibility: 0.8967614769935608
","x: 158.05975341796875
y: 339.99737548828125
z: -0.4464264512062073
visibility: 0.9724916219711304
","x: 217.54290771484375
y: 375.0860595703125
z: -0.11329919099807739
visibility: 0.8846006989479065
","x: 159.98458862304688
y: 332.34991455078125
z: -0.45197367668151855
visibility: 0.9680942296981812
","x: 215.81695556640625
y: 374.34320068359375
z: -0.08080707490444183
visibility: 0.8593248128890991
","x: 161.1265411376953
y: 333.3548278808594
z: -0.4109577536582947
visibility: 0.9562205076217651
","x: 189.60650634765625
y: 405.0561218261719
z: 0.03971315175294876
visibility: 0.9992677569389343
","x: 168.52537536621094
y: 406.2269592285156
z: -0.03976485878229141
visibility: 0.9994563460350037
","x: 200.2494354248047
y: 463.6156921386719
z: 0.044025447219610214
visibility: 0.7251188158988953
","x: 170.79974365234375
y: 463.87457275390625
z: -0.039564505219459534
visibility: 0.8046396970748901
","x: 204.47190856933594
y: 524.4761962890625
z: 0.16855096817016602
visibility: 0.7119030356407166
","x: 170.83775329589844
y: 526.2227172851562
z: 0.10097865760326385
visibility: 0.8313605785369873
","x: 200.43511962890625
y: 535.0797119140625
z: 0.17538033425807953
visibility: 0.648908257484436
","x: 169.27056884765625
y: 532.0511474609375
z: 0.10977629572153091
visibility: 0.6460679769515991
","x: 219.66856384277344
y: 545.9693603515625
z: 0.08905157446861267
visibility: 0.7754073143005371
","x: 175.72857666015625
y: 550.32421875
z: 0.007945472374558449
visibility: 0.8522599935531616
",,,,,,,,,,,,,,,,,,,,,,,,,,,,,,,,,,,,,,,,,,
13,"x: 179.56613159179688
y: 276.1544494628906
z: -0.22300854325294495
visibility: 0.9996640682220459
","x: 181.9282989501953
y: 270.34490966796875
z: -0.2037169635295868
visibility: 0.9995564818382263
","x: 183.09666442871094
y: 270.6988525390625
z: -0.20371007919311523
visibility: 0.9993563294410706
","x: 184.24240112304688
y: 271.08209228515625
z: -0.20371098816394806
visibility: 0.9993669390678406
","x: 178.18882751464844
y: 269.2165832519531
z: -0.21531327068805695
visibility: 0.9996097683906555
","x: 176.52903747558594
y: 268.8570251464844
z: -0.21531498432159424
visibility: 0.9995734691619873
","x: 174.59527587890625
y: 268.5812072753906
z: -0.21531426906585693
visibility: 0.9996119737625122
","x: 184.09197998046875
y: 275.15582275390625
z: -0.07435373961925507
visibility: 0.9992722272872925
","x: 170.87057495117188
y: 271.6684265136719
z: -0.14365702867507935
visibility: 0.9996867179870605
","x: 181.32286071777344
y: 283.6272277832031
z: -0.1772051602602005
visibility: 0.999731183052063
","x: 176.48309326171875
y: 282.9797668457031
z: -0.19452336430549622
visibility: 0.9997296929359436
","x: 190.83099365234375
y: 316.9320068359375
z: 0.0021681489888578653
visibility: 0.9989259243011475
","x: 159.28994750976562
y: 300.8826599121094
z: -0.11665793508291245
visibility: 0.9995954036712646
","x: 198.37326049804688
y: 358.48876953125
z: 0.06057580187916756
visibility: 0.9287521839141846
","x: 148.67788696289062
y: 339.0660095214844
z: -0.25103941559791565
visibility: 0.9894585609436035
","x: 218.82855224609375
y: 372.02569580078125
z: -0.007267342414706945
visibility: 0.9626371264457703
","x: 155.44284057617188
y: 338.74053955078125
z: -0.43881410360336304
visibility: 0.9895411133766174
","x: 223.5865478515625
y: 373.3634948730469
z: -0.019603323191404343
visibility: 0.9054362177848816
","x: 156.84226989746094
y: 336.23297119140625
z: -0.48042425513267517
visibility: 0.9737597703933716
","x: 223.70877075195312
y: 369.00860595703125
z: -0.05043027922511101
visibility: 0.8947129845619202
","x: 159.3409881591797
y: 328.81036376953125
z: -0.4776676297187805
visibility: 0.969643235206604
","x: 221.96331787109375
y: 368.8914794921875
z: -0.021534841507673264
visibility: 0.8715969324111938
","x: 159.5261993408203
y: 330.6134338378906
z: -0.44194307923316956
visibility: 0.9579643607139587
","x: 189.8502960205078
y: 404.70843505859375
z: 0.04315105453133583
visibility: 0.9993370771408081
","x: 169.38543701171875
y: 405.79180908203125
z: -0.04319128021597862
visibility: 0.999504566192627
","x: 199.77455139160156
y: 463.08148193359375
z: 0.05049712583422661
visibility: 0.751697301864624
","x: 171.81744384765625
y: 463.50018310546875
z: 0.022663738578557968
visibility: 0.8237982988357544
","x: 203.00201416015625
y: 524.4439086914062
z: 0.18474622070789337
visibility: 0.7399353981018066
","x: 169.9948272705078
y: 526.1334228515625
z: 0.20611730217933655
visibility: 0.8479202389717102
","x: 198.82896423339844
y: 534.7177734375
z: 0.19372177124023438
visibility: 0.6817619204521179
","x: 167.92803955078125
y: 531.8792114257812
z: 0.22003011405467987
visibility: 0.6777411699295044
","x: 218.33763122558594
y: 544.6832275390625
z: 0.11166520416736603
visibility: 0.7971622943878174
","x: 175.68698120117188
y: 550.636962890625
z: 0.12800228595733643
visibility: 0.8665030002593994
",,,,,,,,,,,,,,,,,,,,,,,,,,,,,,,,,,,,,,,,,,
14,"x: 179.8751678466797
y: 275.9254150390625
z: -0.22528329491615295
visibility: 0.9996909499168396
","x: 182.11895751953125
y: 269.5881042480469
z: -0.2094482183456421
visibility: 0.9995885491371155
","x: 183.38665771484375
y: 269.9100036621094
z: -0.20949392020702362
visibility: 0.9994082450866699
","x: 184.619384765625
y: 270.2590637207031
z: -0.209541916847229
visibility: 0.9994163513183594
","x: 178.34814453125
y: 268.7405090332031
z: -0.21525752544403076
visibility: 0.9996291995048523
","x: 176.74884033203125
y: 268.5251159667969
z: -0.21525926887989044
visibility: 0.9995915293693542
","x: 174.83297729492188
y: 268.39654541015625
z: -0.215256929397583
visibility: 0.9996151328086853
","x: 184.9472198486328
y: 274.4472961425781
z: -0.10489758104085922
visibility: 0.999323308467865
","x: 171.15126037597656
y: 272.056396484375
z: -0.13667353987693787
visibility: 0.9996702075004578
","x: 182.0288848876953
y: 283.6658630371094
z: -0.18576842546463013
visibility: 0.9997521042823792
","x: 177.0924835205078
y: 283.1860046386719
z: -0.19459208846092224
visibility: 0.9997494220733643
","x: 191.55575561523438
y: 317.290283203125
z: -0.042539797723293304
visibility: 0.9990305304527283
","x: 159.20806884765625
y: 303.62994384765625
z: -0.08900099247694016
visibility: 0.9996111392974854
","x: 200.0659942626953
y: 356.2882995605469
z: -0.10266117006540298
visibility: 0.9326677918434143
","x: 147.042724609375
y: 343.7064208984375
z: -0.1841496080160141
visibility: 0.9891126751899719
","x: 220.69309997558594
y: 363.33111572265625
z: -0.30175095796585083
visibility: 0.9656293392181396
","x: 140.36846923828125
y: 344.0
z: -0.43542852997779846
visibility: 0.9888215661048889
","x: 224.49168395996094
y: 363.24993896484375
z: -0.34213748574256897
visibility: 0.9135007262229919
","x: 136.41226196289062
y: 341.41729736328125
z: -0.46378105878829956
visibility: 0.9732183218002319
","x: 223.72894287109375
y: 353.2003173828125
z: -0.35918405652046204
visibility: 0.904056966304779
","x: 138.4888153076172
y: 337.1163635253906
z: -0.43371716141700745
visibility: 0.9696788787841797
","x: 222.18765258789062
y: 356.4022216796875
z: -0.3140386641025543
visibility: 0.8827620148658752
","x: 140.890380859375
y: 338.1318359375
z: -0.40690040588378906
visibility: 0.9581206440925598
","x: 189.48336791992188
y: 405.94317626953125
z: 0.0248285960406065
visibility: 0.9993976950645447
","x: 169.09205627441406
y: 407.3226318359375
z: -0.02477387525141239
visibility: 0.9995318651199341
","x: 197.14541625976562
y: 463.5317687988281
z: -0.07219494879245758
visibility: 0.7754449844360352
","x: 172.38284301757812
y: 466.1558532714844
z: 0.04383566603064537
visibility: 0.8400293588638306
","x: 199.57891845703125
y: 526.1809692382812
z: 0.05468647927045822
visibility: 0.7645041346549988
","x: 170.36721801757812
y: 525.4071655273438
z: 0.2371034175157547
visibility: 0.8607705235481262
","x: 198.5720672607422
y: 535.4710693359375
z: 0.06327620893716812
visibility: 0.7090069651603699
","x: 169.08099365234375
y: 531.5319213867188
z: 0.2514740526676178
visibility: 0.6920907497406006
","x: 208.93142700195312
y: 547.5933227539062
z: -0.0337243378162384
visibility: 0.8162246942520142
","x: 174.74313354492188
y: 548.597900390625
z: 0.1639193743467331
visibility: 0.8768436312675476
",,,,,,,,,,,,,,,,,,,,,,,,,,,,,,,,,,,,,,,,,,
15,"x: 183.1173858642578
y: 276.4970703125
z: -0.3151305913925171
visibility: 0.9997214078903198
","x: 185.20729064941406
y: 269.697509765625
z: -0.2984837293624878
visibility: 0.9996275901794434
","x: 186.6134796142578
y: 270.0914611816406
z: -0.29855677485466003
visibility: 0.999465823173523
","x: 187.8617706298828
y: 270.42987060546875
z: -0.2986172139644623
visibility: 0.9994719624519348
","x: 180.9701690673828
y: 269.34698486328125
z: -0.29944244027137756
visibility: 0.9996634125709534
","x: 179.46066284179688
y: 269.3944396972656
z: -0.2994857430458069
visibility: 0.9996296167373657
","x: 177.813232421875
y: 269.5035400390625
z: -0.2995169758796692
visibility: 0.999649703502655
","x: 189.7202606201172
y: 274.3935852050781
z: -0.18841540813446045
visibility: 0.999386727809906
","x: 175.1822052001953
y: 272.40545654296875
z: -0.1935429722070694
visibility: 0.999701976776123
","x: 185.86241149902344
y: 283.7301940917969
z: -0.2732236087322235
visibility: 0.9997758269309998
","x: 180.7833251953125
y: 284.171875
z: -0.2746555209159851
visibility: 0.9997737407684326
","x: 198.8166046142578
y: 314.61651611328125
z: -0.10727604478597641
visibility: 0.9991263151168823
","x: 163.7921142578125
y: 309.4591979980469
z: -0.10777727514505386
visibility: 0.9996481537818909
","x: 210.4210205078125
y: 350.02874755859375
z: -0.21302247047424316
visibility: 0.9385490417480469
","x: 151.6957550048828
y: 360.7379150390625
z: -0.0875110775232315
visibility: 0.9886537790298462
","x: 221.60215759277344
y: 318.6488037109375
z: -0.4297052323818207
visibility: 0.96834397315979
","x: 137.36231994628906
y: 376.1130065917969
z: -0.15240362286567688
visibility: 0.9879509210586548
","x: 222.48046875
y: 308.0715637207031
z: -0.47040706872940063
visibility: 0.920074462890625
","x: 131.7889862060547
y: 380.29498291015625
z: -0.16910985112190247
visibility: 0.9711769223213196
","x: 220.60446166992188
y: 302.4073486328125
z: -0.47190332412719727
visibility: 0.9116427898406982
","x: 130.8581085205078
y: 376.5237731933594
z: -0.19405649602413177
visibility: 0.9683553576469421
","x: 219.59751892089844
y: 306.95330810546875
z: -0.43651682138442993
visibility: 0.8915391564369202
","x: 133.14100646972656
y: 375.64739990234375
z: -0.16361072659492493
visibility: 0.9571245908737183
","x: 189.1894073486328
y: 405.74835205078125
z: 0.007345070596784353
visibility: 0.9994500279426575
","x: 168.14712524414062
y: 406.12738037109375
z: -0.007221974432468414
visibility: 0.9995749592781067
","x: 192.2193145751953
y: 463.5281982421875
z: -0.04586593806743622
visibility: 0.7950131893157959
","x: 161.60850524902344
y: 462.27349853515625
z: -0.21784214675426483
visibility: 0.8558427095413208
","x: 196.56289672851562
y: 526.274169921875
z: 0.14029212296009064
visibility: 0.7869912981987
","x: 168.10501098632812
y: 523.4752807617188
z: -0.029461581259965897
visibility: 0.874379575252533
","x: 196.68914794921875
y: 535.40625
z: 0.15452268719673157
visibility: 0.7331941723823547
","x: 169.2666778564453
y: 529.85400390625
z: -0.016492662951350212
visibility: 0.7193394899368286
","x: 203.27313232421875
y: 546.7432861328125
z: 0.03328188136219978
visibility: 0.8333379626274109
","x: 171.6941375732422
y: 547.2822875976562
z: -0.13925500214099884
visibility: 0.8887097239494324
",,,,,,,,,,,,,,,,,,,,,,,,,,,,,,,,,,,,,,,,,,
16,"x: 180.35043334960938
y: 276.2195739746094
z: -0.3075769245624542
visibility: 0.9997400045394897
","x: 183.55531311035156
y: 269.6968688964844
z: -0.27448490262031555
visibility: 0.999643087387085
","x: 184.8005828857422
y: 270.1326904296875
z: -0.27414262294769287
visibility: 0.9994922876358032
","x: 185.95858764648438
y: 270.5080871582031
z: -0.2736431956291199
visibility: 0.9994983077049255
","x: 179.2737579345703
y: 268.68524169921875
z: -0.26342907547950745
visibility: 0.9996573328971863
","x: 177.7998046875
y: 268.3936767578125
z: -0.2634357213973999
visibility: 0.9996064901351929
","x: 176.40408325195312
y: 268.1487731933594
z: -0.26341989636421204
visibility: 0.9996061325073242
","x: 188.3529510498047
y: 274.1864318847656
z: -0.15460824966430664
visibility: 0.9994103312492371
","x: 175.06654357910156
y: 270.29412841796875
z: -0.13118687272071838
visibility: 0.99962317943573
","x: 182.87974548339844
y: 283.283203125
z: -0.2570924758911133
visibility: 0.999780535697937
","x: 177.21018981933594
y: 282.6637878417969
z: -0.23000021278858185
visibility: 0.9997583031654358
","x: 197.86773681640625
y: 312.5167541503906
z: -0.06855984032154083
visibility: 0.9992058873176575
","x: 162.94358825683594
y: 304.21307373046875
z: -0.058951906859874725
visibility: 0.9996238350868225
","x: 205.71224975585938
y: 350.38372802734375
z: -0.1251344382762909
visibility: 0.9409981369972229
","x: 142.7708740234375
y: 286.1828918457031
z: -0.11761917918920517
visibility: 0.9850805401802063
","x: 221.6798095703125
y: 338.1390380859375
z: -0.2787724435329437
visibility: 0.9697970151901245
","x: 116.42709350585938
y: 276.01446533203125
z: -0.2641025185585022
visibility: 0.9794360399246216
","x: 226.66201782226562
y: 336.97552490234375
z: -0.30932798981666565
visibility: 0.9245886206626892
","x: 110.8179702758789
y: 276.9315185546875
z: -0.29386115074157715
visibility: 0.9556031823158264
","x: 226.31210327148438
y: 330.708984375
z: -0.32119616866111755
visibility: 0.9175697565078735
","x: 110.68002319335938
y: 275.69476318359375
z: -0.3117591142654419
visibility: 0.954844057559967
","x: 224.15438842773438
y: 330.8788757324219
z: -0.28762638568878174
visibility: 0.8985331654548645
","x: 112.49647521972656
y: 276.18206787109375
z: -0.27764075994491577
visibility: 0.9459343552589417
","x: 188.1283416748047
y: 405.2408447265625
z: 0.004132880829274654
visibility: 0.9994791746139526
","x: 166.4182891845703
y: 404.52740478515625
z: -0.004129451233893633
visibility: 0.999595582485199
","x: 190.86326599121094
y: 466.0168151855469
z: -0.018125835806131363
visibility: 0.8150116801261902
","x: 157.7601318359375
y: 462.392578125
z: -0.06863555312156677
visibility: 0.8699740767478943
","x: 196.05848693847656
y: 527.0778198242188
z: 0.14688187837600708
visibility: 0.8076791763305664
","x: 154.5690460205078
y: 523.4002075195312
z: 0.10656609386205673
visibility: 0.8865688443183899
","x: 195.62567138671875
y: 535.9955444335938
z: 0.157272070646286
visibility: 0.7544571161270142
","x: 157.00872802734375
y: 529.6390991210938
z: 0.11729894578456879
visibility: 0.7414640784263611
","x: 201.5797119140625
y: 546.8375854492188
z: 0.0500008761882782
visibility: 0.8489403128623962
","x: 151.7740936279297
y: 546.6861572265625
z: 0.0026077283546328545
visibility: 0.8992224335670471
",,,,,,,,,,,,,,,,,,,,,,,,,,,,,,,,,,,,,,,,,,
17,"x: 173.80722045898438
y: 268.8333435058594
z: -0.2664250135421753
visibility: 0.9997634291648865
","x: 176.762939453125
y: 263.9919128417969
z: -0.24997511506080627
visibility: 0.9996733069419861
","x: 178.37420654296875
y: 264.43365478515625
z: -0.2499692738056183
visibility: 0.9995368719100952
","x: 179.81600952148438
y: 265.01287841796875
z: -0.2499268352985382
visibility: 0.999542236328125
","x: 172.44427490234375
y: 263.1958312988281
z: -0.2465762346982956
visibility: 0.999683678150177
","x: 171.30136108398438
y: 263.0234069824219
z: -0.24658337235450745
visibility: 0.9996358752250671
","x: 170.2864990234375
y: 262.89434814453125
z: -0.24658718705177307
visibility: 0.999633252620697
","x: 182.63165283203125
y: 270.0475158691406
z: -0.15077558159828186
visibility: 0.9994605779647827
","x: 170.1623992919922
y: 266.35650634765625
z: -0.13661111891269684
visibility: 0.9996381998062134
","x: 176.27523803710938
y: 276.830322265625
z: -0.22763875126838684
visibility: 0.9998001456260681
","x: 171.17857360839844
y: 275.7986145019531
z: -0.2219771146774292
visibility: 0.9997785091400146
","x: 193.65814208984375
y: 306.82244873046875
z: -0.08944229036569595
visibility: 0.999284029006958
","x: 159.52273559570312
y: 305.0855407714844
z: -0.060376208275556564
visibility: 0.9996452927589417
","x: 200.68565368652344
y: 350.0452880859375
z: -0.09412313997745514
visibility: 0.9452744126319885
","x: 143.35153198242188
y: 325.8185119628906
z: -0.09503132849931717
visibility: 0.9527565240859985
","x: 195.66708374023438
y: 375.2293701171875
z: -0.17502212524414062
visibility: 0.9705293774604797
","x: 136.09225463867188
y: 362.32122802734375
z: -0.27890893816947937
visibility: 0.9425656795501709
","x: 195.12185668945312
y: 388.52703857421875
z: -0.20356221497058868
visibility: 0.9276131391525269
","x: 126.89118957519531
y: 373.6758117675781
z: -0.3172774910926819
visibility: 0.9207444190979004
","x: 191.2890625
y: 384.652099609375
z: -0.2266933023929596
visibility: 0.9214047193527222
","x: 116.42059326171875
y: 379.6297912597656
z: -0.33814865350723267
visibility: 0.9213925004005432
","x: 190.8665313720703
y: 380.00390625
z: -0.1844167411327362
visibility: 0.9021837115287781
","x: 115.91093444824219
y: 367.9774475097656
z: -0.2934328615665436
visibility: 0.9114713668823242
","x: 186.70758056640625
y: 404.206298828125
z: 0.00027522051823325455
visibility: 0.9995265007019043
","x: 164.7123260498047
y: 404.0505676269531
z: -0.000295449688564986
visibility: 0.9996313452720642
","x: 190.03506469726562
y: 467.7703552246094
z: 0.03298730403184891
visibility: 0.8330327272415161
","x: 156.82858276367188
y: 464.29010009765625
z: -0.03645334020256996
visibility: 0.8826634287834167
","x: 195.10427856445312
y: 526.6934814453125
z: 0.21784524619579315
visibility: 0.8263840079307556
","x: 153.64561462402344
y: 523.591552734375
z: 0.13745971024036407
visibility: 0.8975985050201416
","x: 195.21510314941406
y: 535.421875
z: 0.22948189079761505
visibility: 0.77217698097229
","x: 156.1222686767578
y: 530.189697265625
z: 0.14829093217849731
visibility: 0.7611073851585388
","x: 200.88134765625
y: 546.6759643554688
z: 0.12312436103820801
visibility: 0.8631381392478943
","x: 150.77127075195312
y: 547.089111328125
z: 0.0385843925178051
visibility: 0.9087719321250916
",,,,,,,,,,,,,,,,,,,,,,,,,,,,,,,,,,,,,,,,,,
18,"x: 172.85267639160156
y: 267.62396240234375
z: -0.19389566779136658
visibility: 0.9995909333229065
","x: 176.16058349609375
y: 263.2682189941406
z: -0.18531163036823273
visibility: 0.9993423223495483
","x: 177.7021026611328
y: 263.8840026855469
z: -0.18533971905708313
visibility: 0.9992239475250244
","x: 179.21192932128906
y: 264.65069580078125
z: -0.18534454703330994
visibility: 0.9992073774337769
","x: 172.42169189453125
y: 262.3035583496094
z: -0.17516228556632996
visibility: 0.9993281960487366
","x: 171.439697265625
y: 262.2051696777344
z: -0.17517180740833282
visibility: 0.9992537498474121
","x: 170.50408935546875
y: 262.1571044921875
z: -0.17519724369049072
visibility: 0.9992320537567139
","x: 182.03927612304688
y: 269.86572265625
z: -0.12591227889060974
visibility: 0.9990025162696838
","x: 170.32183837890625
y: 266.62530517578125
z: -0.07345046103000641
visibility: 0.9984953999519348
","x: 175.07994079589844
y: 275.52911376953125
z: -0.16923314332962036
visibility: 0.9996529817581177
","x: 170.59652709960938
y: 274.56024169921875
z: -0.1557566225528717
visibility: 0.9995779991149902
","x: 192.73724365234375
y: 302.7919616699219
z: -0.10143283754587173
visibility: 0.9992605447769165
","x: 159.81105041503906
y: 305.5849609375
z: -0.0041227322071790695
visibility: 0.9995712041854858
","x: 196.53343200683594
y: 343.79681396484375
z: -0.23034703731536865
visibility: 0.948984682559967
","x: 145.02719116210938
y: 329.5465393066406
z: -0.09339708089828491
visibility: 0.9408271312713623
","x: 175.47994995117188
y: 329.3706970214844
z: -0.3678310513496399
visibility: 0.9703171849250793
","x: 140.1363067626953
y: 333.6273498535156
z: -0.2958013415336609
visibility: 0.9392628073692322
","x: 171.19996643066406
y: 328.60955810546875
z: -0.401146799325943
visibility: 0.9283880591392517
","x: 135.36619567871094
y: 330.7735595703125
z: -0.3326779305934906
visibility: 0.9148494005203247
","x: 169.62757873535156
y: 323.2568054199219
z: -0.39095339179039
visibility: 0.9220435619354248
","x: 133.43087768554688
y: 329.2767639160156
z: -0.33784639835357666
visibility: 0.9147365093231201
","x: 169.6386260986328
y: 324.09674072265625
z: -0.36517593264579773
visibility: 0.9000584483146667
","x: 133.13174438476562
y: 328.7379455566406
z: -0.3042704164981842
visibility: 0.9028922915458679
","x: 185.42813110351562
y: 403.8482971191406
z: -0.01905485987663269
visibility: 0.9995530843734741
","x: 163.27525329589844
y: 403.8856506347656
z: 0.018868640065193176
visibility: 0.9996501207351685
","x: 190.97158813476562
y: 467.5718688964844
z: 0.020706428214907646
visibility: 0.8494523763656616
","x: 158.01727294921875
y: 465.0953369140625
z: 0.030585061758756638
visibility: 0.8940275311470032
","x: 200.8604278564453
y: 526.3939819335938
z: 0.18313735723495483
visibility: 0.8433949947357178
","x: 152.71058654785156
y: 524.0778198242188
z: 0.18611368536949158
visibility: 0.9074963331222534
","x: 201.02174377441406
y: 533.365478515625
z: 0.19350990653038025
visibility: 0.7802608609199524
","x: 154.2968292236328
y: 530.8439331054688
z: 0.19683051109313965
visibility: 0.7782695293426514
","x: 202.34840393066406
y: 547.0511474609375
z: 0.08951664716005325
visibility: 0.8760536313056946
","x: 149.3883819580078
y: 546.6983642578125
z: 0.09997318685054779
visibility: 0.9173161387443542
",,,,,,,,,,,,,,,,,,,,,,,,,,,,,,,,,,,,,,,,,,
19,"x: 173.9085693359375
y: 272.806640625
z: -0.18429769575595856
visibility: 0.999567985534668
","x: 177.48147583007812
y: 266.8021545410156
z: -0.17905005812644958
visibility: 0.9993001818656921
","x: 178.9893798828125
y: 266.738525390625
z: -0.17912104725837708
visibility: 0.9992066025733948
","x: 180.59764099121094
y: 266.8486328125
z: -0.17915193736553192
visibility: 0.9991884231567383
","x: 174.58224487304688
y: 267.2533874511719
z: -0.16654454171657562
visibility: 0.999221682548523
","x: 174.0110321044922
y: 267.3987121582031
z: -0.16654706001281738
visibility: 0.999131977558136
","x: 173.4696044921875
y: 267.4917907714844
z: -0.16657516360282898
visibility: 0.9990900754928589
","x: 186.09396362304688
y: 271.6138610839844
z: -0.124034084379673
visibility: 0.9989819526672363
","x: 175.9676971435547
y: 270.73370361328125
z: -0.06235424801707268
visibility: 0.9982051253318787
","x: 178.0844268798828
y: 279.6343078613281
z: -0.1619834005832672
visibility: 0.9996362328529358
","x: 174.44540405273438
y: 279.33587646484375
z: -0.14493629336357117
visibility: 0.9995214939117432
","x: 199.90187072753906
y: 305.042724609375
z: -0.09669218957424164
visibility: 0.999306321144104
","x: 169.8606719970703
y: 312.7456970214844
z: 0.0068175592459738255
visibility: 0.9994966983795166
","x: 205.40524291992188
y: 346.0522155761719
z: -0.19578072428703308
visibility: 0.9459962248802185
","x: 153.18858337402344
y: 342.5046081542969
z: -0.03875553607940674
visibility: 0.9112222194671631
","x: 188.8016815185547
y: 349.22418212890625
z: -0.3661927878856659
visibility: 0.9627019166946411
","x: 141.9098663330078
y: 347.6759338378906
z: -0.23417480289936066
visibility: 0.9236997365951538
","x: 190.4658203125
y: 351.34832763671875
z: -0.40539687871932983
visibility: 0.9228783249855042
","x: 137.7545166015625
y: 347.29315185546875
z: -0.2721122205257416
visibility: 0.898247480392456
","x: 193.49952697753906
y: 345.0730895996094
z: -0.419243723154068
visibility: 0.9178723692893982
","x: 138.0362091064453
y: 343.3267822265625
z: -0.2886291742324829
visibility: 0.9000183343887329
","x: 188.49034118652344
y: 344.3037414550781
z: -0.375386118888855
visibility: 0.893767774105072
","x: 138.80758666992188
y: 342.7223205566406
z: -0.24810966849327087
visibility: 0.8884901404380798
","x: 186.81228637695312
y: 409.4027099609375
z: -0.021560585126280785
visibility: 0.9995672106742859
","x: 164.36489868164062
y: 405.6828308105469
z: 0.021528147161006927
visibility: 0.9996566772460938
","x: 194.0915985107422
y: 472.6708984375
z: 0.02358933910727501
visibility: 0.8641019463539124
","x: 158.9343719482422
y: 465.3896484375
z: 0.01532831322401762
visibility: 0.9044421911239624
","x: 203.6619873046875
y: 526.6817626953125
z: 0.20056411623954773
visibility: 0.8586683869361877
","x: 153.47659301757812
y: 524.1309814453125
z: 0.16439855098724365
visibility: 0.9165320992469788
","x: 204.271728515625
y: 533.7813720703125
z: 0.21221677958965302
visibility: 0.7913893461227417
","x: 156.0009307861328
y: 531.7944946289062
z: 0.1745212823152542
visibility: 0.796346127986908
","x: 203.44400024414062
y: 547.6911010742188
z: 0.10508998483419418
visibility: 0.8874772191047668
","x: 148.48849487304688
y: 546.5452880859375
z: 0.0760367214679718
visibility: 0.9251310229301453
",,,,,,,,,,,,,,,,,,,,,,,,,,,,,,,,,,,,,,,,,,
20,"x: 181.50106811523438
y: 272.9486389160156
z: -0.185770183801651
visibility: 0.9996107220649719
","x: 184.590576171875
y: 266.84039306640625
z: -0.1706238090991974
visibility: 0.9993686676025391
","x: 185.9199676513672
y: 266.8506774902344
z: -0.170681893825531
visibility: 0.9992846846580505
","x: 187.2957305908203
y: 267.06707763671875
z: -0.17070379853248596
visibility: 0.9992683529853821
","x: 181.06358337402344
y: 267.27410888671875
z: -0.16522318124771118
visibility: 0.9992971420288086
","x: 179.92918395996094
y: 267.4439697265625
z: -0.16523264348506927
visibility: 0.9992159008979797
","x: 178.9527587890625
y: 267.5744323730469
z: -0.16523262858390808
visibility: 0.9991776943206787
","x: 190.7548370361328
y: 272.42828369140625
z: -0.08552190661430359
visibility: 0.9990822672843933
","x: 179.36929321289062
y: 271.2237854003906
z: -0.05952732637524605
visibility: 0.9983773827552795
","x: 184.51564025878906
y: 279.98211669921875
z: -0.15496604144573212
visibility: 0.9996716976165771
","x: 179.81932067871094
y: 279.3945007324219
z: -0.14759136736392975
visibility: 0.9995673298835754
","x: 202.24037170410156
y: 312.82708740234375
z: -0.06341375410556793
visibility: 0.9993743300437927
","x: 170.54037475585938
y: 315.6435241699219
z: 0.014505349099636078
visibility: 0.9995145201683044
","x: 211.70994567871094
y: 357.70977783203125
z: -0.1766354739665985
visibility: 0.9505282044410706
","x: 160.49282836914062
y: 352.80511474609375
z: -0.045194171369075775
visibility: 0.8921237587928772
","x: 222.80914306640625
y: 358.935302734375
z: -0.30377987027168274
visibility: 0.965778112411499
","x: 145.8543701171875
y: 346.837646484375
z: -0.24706871807575226
visibility: 0.915785014629364
","x: 228.06121826171875
y: 358.5895080566406
z: -0.3378390073776245
visibility: 0.9292103052139282
","x: 141.30667114257812
y: 347.493896484375
z: -0.28494974970817566
visibility: 0.8866177201271057
","x: 227.2862548828125
y: 352.4779968261719
z: -0.351485013961792
visibility: 0.924837052822113
","x: 141.00379943847656
y: 343.21954345703125
z: -0.3003232777118683
visibility: 0.8897905945777893
","x: 224.61756896972656
y: 352.117431640625
z: -0.3127978444099426
visibility: 0.9024378061294556
","x: 143.44444274902344
y: 343.1228332519531
z: -0.26072677969932556
visibility: 0.8787405490875244
","x: 194.3066864013672
y: 412.3473815917969
z: -0.0233906339854002
visibility: 0.9995840191841125
","x: 171.39207458496094
y: 410.16668701171875
z: 0.023396017029881477
visibility: 0.9996802806854248
","x: 200.19679260253906
y: 474.646240234375
z: -0.048735905438661575
visibility: 0.8775819540023804
","x: 159.71409606933594
y: 465.3541564941406
z: -0.1344749480485916
visibility: 0.9139417409896851
","x: 205.15008544921875
y: 526.7720947265625
z: 0.1672821193933487
visibility: 0.872621476650238
","x: 154.94056701660156
y: 524.0965576171875
z: 0.03668661788105965
visibility: 0.9248006343841553
","x: 205.10533142089844
y: 533.80712890625
z: 0.18407359719276428
visibility: 0.8011869788169861
","x: 157.67369079589844
y: 532.37158203125
z: 0.047360919415950775
visibility: 0.8152332901954651
","x: 204.42080688476562
y: 548.6486206054688
z: 0.054518409073352814
visibility: 0.8982970118522644
","x: 147.74859619140625
y: 546.5423583984375
z: -0.06068763881921768
visibility: 0.9324774742126465
",,,,,,,,,,,,,,,,,,,,,,"x: 221.06997680664062
y: 346.70721435546875
z: 0.0
","x: 225.477294921875
y: 350.9716796875
z: 0.0022973348386585712
","x: 229.09413146972656
y: 352.6927185058594
z: 0.0010713633382692933
","x: 231.4442596435547
y: 355.0455017089844
z: -0.0016277747927233577
","x: 233.04693603515625
y: 357.75238037109375
z: -0.004283188376575708
","x: 232.10385131835938
y: 344.0167541503906
z: -0.0011604288592934608
","x: 234.94073486328125
y: 352.12115478515625
z: -0.00478710513561964
","x: 234.517578125
y: 358.3341064453125
z: -0.006896258797496557
","x: 234.15257263183594
y: 362.4881591796875
z: -0.008094008080661297
","x: 231.51243591308594
y: 343.8783264160156
z: -0.004825456067919731
","x: 234.1407012939453
y: 352.9359436035156
z: -0.00853416696190834
","x: 233.50680541992188
y: 359.2787170410156
z: -0.009550726972520351
","x: 232.98045349121094
y: 363.6962890625
z: -0.010242193937301636
","x: 230.26593017578125
y: 344.8367004394531
z: -0.008412915281951427
","x: 232.52828979492188
y: 354.0615539550781
z: -0.011719775386154652
","x: 231.88351440429688
y: 360.440185546875
z: -0.011308235116302967
","x: 231.12530517578125
y: 364.89764404296875
z: -0.01096644438803196
","x: 228.71389770507812
y: 346.85040283203125
z: -0.012003280222415924
","x: 230.28652954101562
y: 353.8917236328125
z: -0.014075861312448978
","x: 230.11300659179688
y: 358.5478210449219
z: -0.013269218616187572
","x: 229.67575073242188
y: 362.057861328125
z: -0.012560436502099037
"
21,"x: 181.50106811523438
y: 272.9486389160156
z: -0.185770183801651
visibility: 0.9996107220649719
","x: 184.590576171875
y: 266.84039306640625
z: -0.1706238090991974
visibility: 0.9993686676025391
","x: 185.9199676513672
y: 266.8506774902344
z: -0.170681893825531
visibility: 0.9992846846580505
","x: 187.2957305908203
y: 267.06707763671875
z: -0.17070379853248596
visibility: 0.9992683529853821
","x: 181.06358337402344
y: 267.27410888671875
z: -0.16522318124771118
visibility: 0.9992971420288086
","x: 179.92918395996094
y: 267.4439697265625
z: -0.16523264348506927
visibility: 0.9992159008979797
","x: 178.9527587890625
y: 267.5744323730469
z: -0.16523262858390808
visibility: 0.9991776943206787
","x: 190.7548370361328
y: 272.42828369140625
z: -0.08552190661430359
visibility: 0.9990822672843933
","x: 179.36929321289062
y: 271.2237854003906
z: -0.05952732637524605
visibility: 0.9983773827552795
","x: 184.51564025878906
y: 279.98211669921875
z: -0.15496604144573212
visibility: 0.9996716976165771
","x: 179.81932067871094
y: 279.3945007324219
z: -0.14759136736392975
visibility: 0.9995673298835754
","x: 202.24037170410156
y: 312.82708740234375
z: -0.06341375410556793
visibility: 0.9993743300437927
","x: 170.54037475585938
y: 315.6435241699219
z: 0.014505349099636078
visibility: 0.9995145201683044
","x: 211.70994567871094
y: 357.70977783203125
z: -0.1766354739665985
visibility: 0.9505282044410706
","x: 160.49282836914062
y: 352.80511474609375
z: -0.045194171369075775
visibility: 0.8921237587928772
","x: 222.80914306640625
y: 358.935302734375
z: -0.30377987027168274
visibility: 0.965778112411499
","x: 145.8543701171875
y: 346.837646484375
z: -0.24706871807575226
visibility: 0.915785014629364
","x: 228.06121826171875
y: 358.5895080566406
z: -0.3378390073776245
visibility: 0.9292103052139282
","x: 141.30667114257812
y: 347.493896484375
z: -0.28494974970817566
visibility: 0.8866177201271057
","x: 227.2862548828125
y: 352.4779968261719
z: -0.351485013961792
visibility: 0.924837052822113
","x: 141.00379943847656
y: 343.21954345703125
z: -0.3003232777118683
visibility: 0.8897905945777893
","x: 224.61756896972656
y: 352.117431640625
z: -0.3127978444099426
visibility: 0.9024378061294556
","x: 143.44444274902344
y: 343.1228332519531
z: -0.26072677969932556
visibility: 0.8787405490875244
","x: 194.3066864013672
y: 412.3473815917969
z: -0.0233906339854002
visibility: 0.9995840191841125
","x: 171.39207458496094
y: 410.16668701171875
z: 0.023396017029881477
visibility: 0.9996802806854248
","x: 200.19679260253906
y: 474.646240234375
z: -0.048735905438661575
visibility: 0.8775819540023804
","x: 159.71409606933594
y: 465.3541564941406
z: -0.1344749480485916
visibility: 0.9139417409896851
","x: 205.15008544921875
y: 526.7720947265625
z: 0.1672821193933487
visibility: 0.872621476650238
","x: 154.94056701660156
y: 524.0965576171875
z: 0.03668661788105965
visibility: 0.9248006343841553
","x: 205.10533142089844
y: 533.80712890625
z: 0.18407359719276428
visibility: 0.8011869788169861
","x: 157.67369079589844
y: 532.37158203125
z: 0.047360919415950775
visibility: 0.8152332901954651
","x: 204.42080688476562
y: 548.6486206054688
z: 0.054518409073352814
visibility: 0.8982970118522644
","x: 147.74859619140625
y: 546.5423583984375
z: -0.06068763881921768
visibility: 0.9324774742126465
",,,,,,,,,,,,,,,,,,,,,,"x: 221.06997680664062
y: 346.70721435546875
z: 0.0
","x: 225.477294921875
y: 350.9716796875
z: 0.0022973348386585712
","x: 229.09413146972656
y: 352.6927185058594
z: 0.0010713633382692933
","x: 231.4442596435547
y: 355.0455017089844
z: -0.0016277747927233577
","x: 233.04693603515625
y: 357.75238037109375
z: -0.004283188376575708
","x: 232.10385131835938
y: 344.0167541503906
z: -0.0011604288592934608
","x: 234.94073486328125
y: 352.12115478515625
z: -0.00478710513561964
","x: 234.517578125
y: 358.3341064453125
z: -0.006896258797496557
","x: 234.15257263183594
y: 362.4881591796875
z: -0.008094008080661297
","x: 231.51243591308594
y: 343.8783264160156
z: -0.004825456067919731
","x: 234.1407012939453
y: 352.9359436035156
z: -0.00853416696190834
","x: 233.50680541992188
y: 359.2787170410156
z: -0.009550726972520351
","x: 232.98045349121094
y: 363.6962890625
z: -0.010242193937301636
","x: 230.26593017578125
y: 344.8367004394531
z: -0.008412915281951427
","x: 232.52828979492188
y: 354.0615539550781
z: -0.011719775386154652
","x: 231.88351440429688
y: 360.440185546875
z: -0.011308235116302967
","x: 231.12530517578125
y: 364.89764404296875
z: -0.01096644438803196
","x: 228.71389770507812
y: 346.85040283203125
z: -0.012003280222415924
","x: 230.28652954101562
y: 353.8917236328125
z: -0.014075861312448978
","x: 230.11300659179688
y: 358.5478210449219
z: -0.013269218616187572
","x: 229.67575073242188
y: 362.057861328125
z: -0.012560436502099037
"
22,"x: 183.05531311035156
y: 272.9165954589844
z: -0.17900002002716064
visibility: 0.9996480345726013
","x: 186.30661010742188
y: 267.0583801269531
z: -0.16373470425605774
visibility: 0.9994279146194458
","x: 187.42996215820312
y: 266.8957214355469
z: -0.1637340486049652
visibility: 0.9993520975112915
","x: 188.55271911621094
y: 267.3277893066406
z: -0.16371193528175354
visibility: 0.9993367791175842
","x: 182.59486389160156
y: 266.90679931640625
z: -0.16283133625984192
visibility: 0.9993627667427063
","x: 181.21620178222656
y: 266.66259765625
z: -0.16284243762493134
visibility: 0.999289333820343
","x: 179.9860076904297
y: 266.4116516113281
z: -0.16284319758415222
visibility: 0.9992550015449524
","x: 190.75616455078125
y: 272.947998046875
z: -0.07859686017036438
visibility: 0.9991644620895386
","x: 178.9081573486328
y: 269.9383544921875
z: -0.07317104190587997
visibility: 0.9985291957855225
","x: 185.3172149658203
y: 280.14569091796875
z: -0.1479329764842987
visibility: 0.9997014403343201
","x: 180.12655639648438
y: 279.0734558105469
z: -0.1467219591140747
visibility: 0.9996076226234436
","x: 200.6934356689453
y: 312.6150207519531
z: -0.056252628564834595
visibility: 0.9994298815727234
","x: 167.2877197265625
y: 311.584228515625
z: -0.01832570508122444
visibility: 0.9995466470718384
","x: 209.93812561035156
y: 353.7945556640625
z: -0.1755957454442978
visibility: 0.952864944934845
","x: 154.11361694335938
y: 343.31561279296875
z: -0.11843953281641006
visibility: 0.9022919535636902
","x: 216.38885498046875
y: 328.1820983886719
z: -0.3616797626018524
visibility: 0.9676722884178162
","x: 143.62747192382812
y: 296.33782958984375
z: -0.2940116226673126
visibility: 0.9238200783729553
","x: 220.8058319091797
y: 320.44024658203125
z: -0.3985341191291809
visibility: 0.9332614541053772
","x: 140.48300170898438
y: 287.6775817871094
z: -0.33054661750793457
visibility: 0.8967084288597107
","x: 220.1343536376953
y: 315.7664794921875
z: -0.39972802996635437
visibility: 0.9292692542076111
","x: 141.27166748046875
y: 282.8088073730469
z: -0.3123410940170288
visibility: 0.8995213508605957
","x: 217.5838165283203
y: 318.95294189453125
z: -0.36788827180862427
visibility: 0.9081317186355591
","x: 143.7869110107422
y: 290.5221862792969
z: -0.295983225107193
visibility: 0.8892560005187988
","x: 194.30393981933594
y: 407.83074951171875
z: -0.015619250945746899
visibility: 0.9996081590652466
","x: 171.46363830566406
y: 409.7441101074219
z: 0.015560997650027275
