uscmakers/ReverseChoreography/data/6_throwin_elbows_excision.csv
,NOSE,LEFT_EYE_INNER,LEFT_EYE,LEFT_EYE_OUTER,RIGHT_EYE_INNER,RIGHT_EYE,RIGHT_EYE_OUTER,LEFT_EAR,RIGHT_EAR,MOUTH_LEFT,MOUTH_RIGHT,LEFT_SHOULDER,RIGHT_SHOULDER,LEFT_ELBOW,RIGHT_ELBOW,LEFT_WRIST,RIGHT_WRIST,LEFT_PINKY,RIGHT_PINKY,LEFT_INDEX,RIGHT_INDEX,LEFT_THUMB,RIGHT_THUMB,LEFT_HIP,RIGHT_HIP,LEFT_KNEE,RIGHT_KNEE,LEFT_ANKLE,RIGHT_ANKLE,LEFT_HEEL,RIGHT_HEEL,LEFT_FOOT_INDEX,RIGHT_FOOT_INDEX,WRIST,THUMB_CPC,THUMB_MCP,THUMB_IP,THUMB_TIP,INDEX_FINGER_MCP,INDEX_FINGER_PIP,INDEX_FINGER_DIP,INDEX_FINGER_TIP,MIDDLE_FINGER_MCP,MIDDLE_FINGER_PIP,MIDDLE_FINGER_DIP,MIDDLE_FINGER_TIP,RING_FINGER_PIP,RING_FINGER_DIP,RING_FINGER_TIP,RING_FINGER_MCP,PINKY_MCP,PINKY_PIP,PINKY_DIP,PINKY_TIP,WRIST2,THUMB_CPC2,THUMB_MCP2,THUMB_IP2,THUMB_TIP2,INDEX_FINGER_MCP2,INDEX_FINGER_PIP2,INDEX_FINGER_DIP2,INDEX_FINGER_TIP2,MIDDLE_FINGER_MCP2,MIDDLE_FINGER_PIP2,MIDDLE_FINGER_DIP2,MIDDLE_FINGER_TIP2,RING_FINGER_PIP2,RING_FINGER_DIP2,RING_FINGER_TIP2,RING_FINGER_MCP2,PINKY_MCP2,PINKY_PIP2,PINKY_DIP2,PINKY_TIP2
0,"x: 193.68910217285156
y: 279.41802978515625
z: -0.3258492946624756
visibility: 0.9999896287918091
","x: 195.82290649414062
y: 273.50775146484375
z: -0.3134072422981262
visibility: 0.9999600648880005
","x: 197.09170532226562
y: 273.65496826171875
z: -0.3134368062019348
visibility: 0.9999611377716064
","x: 198.3896026611328
y: 273.85418701171875
z: -0.31347429752349854
visibility: 0.9999544620513916
","x: 192.04930114746094
y: 273.1384582519531
z: -0.313515841960907
visibility: 0.9999535083770752
","x: 190.70950317382812
y: 273.03851318359375
z: -0.3135846257209778
visibility: 0.999954104423523
","x: 189.45787048339844
y: 272.99078369140625
z: -0.3136026859283447
visibility: 0.9999438524246216
","x: 201.00262451171875
y: 277.1895751953125
z: -0.22257570922374725
visibility: 0.9999113082885742
","x: 187.82603454589844
y: 276.21905517578125
z: -0.22386685013771057
visibility: 0.9998912811279297
","x: 196.334228515625
y: 286.1523132324219
z: -0.29072853922843933
visibility: 0.9999691247940063
","x: 191.534423828125
y: 286.0061950683594
z: -0.29107555747032166
visibility: 0.9999597072601318
","x: 213.4086456298828
y: 315.5411682128906
z: -0.148712158203125
visibility: 0.9999727010726929
","x: 175.26451110839844
y: 318.51141357421875
z: -0.14849808812141418
visibility: 0.999962568283081
","x: 222.796142578125
y: 362.1770935058594
z: -0.12407143414020538
visibility: 0.9934584498405457
","x: 166.79200744628906
y: 368.291015625
z: -0.11455710232257843
visibility: 0.9907666444778442
","x: 236.74700927734375
y: 396.4602355957031
z: -0.22321362793445587
visibility: 0.9855696558952332
","x: 149.7818603515625
y: 390.9254455566406
z: -0.19979117810726166
visibility: 0.9900013208389282
","x: 239.75953674316406
y: 406.868896484375
z: -0.24891498684883118
visibility: 0.9599803686141968
","x: 144.63272094726562
y: 400.8318786621094
z: -0.2257647067308426
visibility: 0.9766269326210022
","x: 238.76243591308594
y: 405.09136962890625
z: -0.2779900133609772
visibility: 0.9654738903045654
","x: 144.50523376464844
y: 398.9849853515625
z: -0.2591400444507599
visibility: 0.9799686670303345
","x: 237.479736328125
y: 402.41082763671875
z: -0.23771710693836212
visibility: 0.9622127413749695
","x: 146.60231018066406
y: 395.8287353515625
z: -0.21637007594108582
visibility: 0.9760595560073853
","x: 205.0014190673828
y: 407.7856750488281
z: 0.0018153224373236299
visibility: 0.9999451637268066
","x: 182.7253875732422
y: 407.03851318359375
z: -0.0018834320362657309
visibility: 0.9999415874481201
","x: 211.0659942626953
y: 465.759033203125
z: -0.010010306723415852
visibility: 0.9955833554267883
","x: 174.50819396972656
y: 466.2259216308594
z: 0.02302870899438858
visibility: 0.997456967830658
","x: 218.336669921875
y: 522.2650756835938
z: 0.15346406400203705
visibility: 0.9958034157752991
","x: 167.18222045898438
y: 520.8244018554688
z: 0.21392755210399628
visibility: 0.9973475933074951
","x: 216.20289611816406
y: 531.2511596679688
z: 0.16440483927726746
visibility: 0.9612502455711365
","x: 169.97872924804688
y: 529.4632568359375
z: 0.22704312205314636
visibility: 0.9453381299972534
","x: 226.8291778564453
y: 544.1697998046875
z: 0.06952495872974396
visibility: 0.9935791492462158
","x: 160.14712524414062
y: 541.9660034179688
z: 0.13225843012332916
visibility: 0.9944449067115784
",,,,,,,,,,,,,,,,,,,,,,,,,,,,,,,,,,,,,,,,,,
1,"x: 194.47726440429688
y: 284.137451171875
z: -0.3243029713630676
visibility: 0.9999801516532898
","x: 196.2121124267578
y: 277.8154296875
z: -0.30731603503227234
visibility: 0.9999458193778992
","x: 197.48374938964844
y: 277.8421325683594
z: -0.3073076009750366
visibility: 0.9999451637268066
","x: 198.6954345703125
y: 277.96185302734375
z: -0.3073420822620392
visibility: 0.9999396204948425
","x: 192.65428161621094
y: 277.890869140625
z: -0.30768415331840515
visibility: 0.9999382495880127
","x: 191.4468994140625
y: 277.8948669433594
z: -0.3077731132507324
visibility: 0.9999388456344604
","x: 190.28565979003906
y: 277.9781799316406
z: -0.307770699262619
visibility: 0.9999316930770874
","x: 201.2847137451172
y: 281.87054443359375
z: -0.19915302097797394
visibility: 0.9998950362205505
","x: 188.224365234375
y: 281.9234924316406
z: -0.19955511391162872
visibility: 0.9998697638511658
","x: 197.3926544189453
y: 290.8389587402344
z: -0.28444430232048035
visibility: 0.9999554753303528
","x: 192.57774353027344
y: 290.8372802734375
z: -0.28477174043655396
visibility: 0.9999440312385559
","x: 213.4052734375
y: 316.7529602050781
z: -0.13929510116577148
visibility: 0.9999452829360962
","x: 176.7864532470703
y: 318.45550537109375
z: -0.14326559007167816
visibility: 0.9998999238014221
","x: 225.09129333496094
y: 356.1233215332031
z: -0.2354014366865158
visibility: 0.9915052056312561
","x: 166.60397338867188
y: 353.2044982910156
z: -0.29096519947052
visibility: 0.9903125762939453
","x: 212.57752990722656
y: 380.0960693359375
z: -0.39065009355545044
visibility: 0.9723973870277405
","x: 182.05979919433594
y: 326.5094299316406
z: -0.49298638105392456
visibility: 0.9865231513977051
","x: 209.2394256591797
y: 388.01251220703125
z: -0.426300585269928
visibility: 0.9358646273612976
","x: 184.9384765625
y: 317.489501953125
z: -0.5380458831787109
visibility: 0.9689027070999146
","x: 206.00723266601562
y: 384.13812255859375
z: -0.4280056953430176
visibility: 0.9393484592437744
","x: 187.24276733398438
y: 311.4828796386719
z: -0.5259283781051636
visibility: 0.9702499508857727
","x: 206.57778930664062
y: 381.0294189453125
z: -0.39438799023628235
visibility: 0.9273799061775208
","x: 186.4190673828125
y: 315.32159423828125
z: -0.49323010444641113
visibility: 0.9599649906158447
","x: 204.62673950195312
y: 405.3271484375
z: 0.0016740935388952494
visibility: 0.9999334216117859
","x: 182.68106079101562
y: 405.07769775390625
z: -0.0017490055179223418
visibility: 0.9999334216117859
","x: 214.23001098632812
y: 459.91461181640625
z: -0.1900591105222702
visibility: 0.9954527020454407
","x: 169.11228942871094
y: 457.6595458984375
z: -0.20372769236564636
visibility: 0.9974254965782166
","x: 218.80992126464844
y: 522.1939697265625
z: -0.0629701018333435
visibility: 0.9955712556838989
","x: 167.1509246826172
y: 520.5425415039062
z: -0.06257687509059906
visibility: 0.9973108768463135
","x: 216.1984405517578
y: 531.9721069335938
z: -0.05767623707652092
visibility: 0.9581924080848694
","x: 170.02447509765625
y: 529.46337890625
z: -0.05512304976582527
visibility: 0.9459086656570435
","x: 226.8115692138672
y: 544.3231811523438
z: -0.18306384980678558
visibility: 0.9928396940231323
","x: 160.34474182128906
y: 541.916748046875
z: -0.17430755496025085
visibility: 0.994277834892273
",,,,,,,,,,,,,,,,,,,,,,,,,,,,,,,,,,,,,,,,,,
2,"x: 194.45945739746094
y: 327.0243835449219
z: -0.5223678350448608
visibility: 0.9999820590019226
","x: 196.2084197998047
y: 318.932861328125
z: -0.5065951347351074
visibility: 0.9999510645866394
","x: 197.49659729003906
y: 318.5882873535156
z: -0.5064679980278015
visibility: 0.9999504685401917
","x: 198.70628356933594
y: 318.2454833984375
z: -0.5065587759017944
visibility: 0.9999454021453857
","x: 192.337646484375
y: 319.4613342285156
z: -0.5091541409492493
visibility: 0.999944269657135
","x: 190.93357849121094
y: 319.4193420410156
z: -0.5092967748641968
visibility: 0.9999448657035828
","x: 189.61038208007812
y: 319.4336242675781
z: -0.5092727541923523
visibility: 0.999938428401947
","x: 201.28326416015625
y: 319.3655700683594
z: -0.38839370012283325
visibility: 0.9999052286148071
","x: 187.7017822265625
y: 321.2453918457031
z: -0.399760365486145
visibility: 0.999882698059082
","x: 197.43603515625
y: 333.9167785644531
z: -0.47586965560913086
visibility: 0.9999597668647766
","x: 192.55767822265625
y: 334.7589111328125
z: -0.47954893112182617
visibility: 0.9999495148658752
","x: 215.4753875732422
y: 356.2725524902344
z: -0.23919419944286346
visibility: 0.9999476075172424
","x: 172.6293487548828
y: 356.21405029296875
z: -0.28018829226493835
visibility: 0.9999093413352966
","x: 225.04425048828125
y: 394.4683837890625
z: -0.06266960501670837
visibility: 0.9890215992927551
","x: 159.79176330566406
y: 386.97833251953125
z: -0.20550259947776794
visibility: 0.9909061789512634
","x: 212.5733642578125
y: 422.20159912109375
z: 0.07031773030757904
visibility: 0.9536774754524231
","x: 170.521484375
y: 418.4794616699219
z: -0.1655339002609253
visibility: 0.9834807515144348
","x: 208.82351684570312
y: 430.43536376953125
z: 0.09080682694911957
visibility: 0.9110316634178162
","x: 171.90345764160156
y: 426.2784423828125
z: -0.16652534902095795
visibility: 0.9592817425727844
","x: 208.3765869140625
y: 426.8911437988281
z: 0.07508215308189392
visibility: 0.914338231086731
","x: 174.74330139160156
y: 421.88055419921875
z: -0.17783614993095398
visibility: 0.9596772193908691
","x: 207.98556518554688
y: 422.87359619140625
z: 0.07071700692176819
visibility: 0.896950900554657
","x: 174.54283142089844
y: 418.39288330078125
z: -0.1657000482082367
visibility: 0.9457219243049622
","x: 204.66891479492188
y: 416.90185546875
z: 0.0024392216000705957
visibility: 0.9999363422393799
","x: 181.24269104003906
y: 415.468017578125
z: -0.0024781981483101845
visibility: 0.9999357461929321
","x: 219.10675048828125
y: 460.7010192871094
z: -0.2661041021347046
visibility: 0.9952876567840576
","x: 163.473876953125
y: 457.8700256347656
z: -0.28158503770828247
visibility: 0.9971341490745544
","x: 219.09481811523438
y: 522.1900024414062
z: -0.05723708122968674
visibility: 0.9952530860900879
","x: 167.02940368652344
y: 520.2149658203125
z: -0.06158265471458435
visibility: 0.9968284368515015
","x: 216.18701171875
y: 531.917236328125
z: -0.04330260306596756
visibility: 0.9565079808235168
","x: 170.20323181152344
y: 528.4248657226562
z: -0.04637276381254196
visibility: 0.945776104927063
","x: 226.77113342285156
y: 544.5791015625
z: -0.16693085432052612
visibility: 0.9922889471054077
","x: 160.74237060546875
y: 541.9755249023438
z: -0.17170771956443787
visibility: 0.9937344193458557
",,,,,,,,,,,,,,,,,,,,,,,,,,,,,,,,,,,,,,,,,,
3,"x: 192.0571746826172
y: 320.2698974609375
z: -0.48948901891708374
visibility: 0.9999831318855286
","x: 194.0502166748047
y: 313.3138122558594
z: -0.47843194007873535
visibility: 0.9999546408653259
","x: 195.39669799804688
y: 313.1948547363281
z: -0.4784024655818939
visibility: 0.9999542236328125
","x: 196.634033203125
y: 313.10260009765625
z: -0.4785045087337494
visibility: 0.9999492168426514
","x: 190.1314239501953
y: 313.2635803222656
z: -0.47980135679244995
visibility: 0.9999480843544006
","x: 188.82350158691406
y: 313.143798828125
z: -0.47988852858543396
visibility: 0.9999485015869141
","x: 187.47508239746094
y: 313.0618591308594
z: -0.47986167669296265
visibility: 0.9999419450759888
","x: 198.71873474121094
y: 313.8534851074219
z: -0.3728535771369934
visibility: 0.9999135732650757
","x: 184.98941040039062
y: 314.0867919921875
z: -0.38003960251808167
visibility: 0.9998934268951416
","x: 194.46678161621094
y: 325.68548583984375
z: -0.44713449478149414
visibility: 0.9999630451202393
","x: 189.8054656982422
y: 325.8349609375
z: -0.4494013786315918
visibility: 0.9999537467956543
","x: 210.51890563964844
y: 345.5508117675781
z: -0.29305678606033325
visibility: 0.9999505281448364
","x: 170.88343811035156
y: 342.4877624511719
z: -0.2979273796081543
visibility: 0.9999162554740906
","x: 220.48724365234375
y: 387.9079895019531
z: -0.46934574842453003
visibility: 0.9870555996894836
","x: 153.68421936035156
y: 351.63037109375
z: -0.47594285011291504
visibility: 0.9894147515296936
","x: 217.6826171875
y: 379.2972106933594
z: -0.7008094787597656
visibility: 0.9479773044586182
","x: 164.12661743164062
y: 370.779052734375
z: -0.6894820928573608
visibility: 0.9671229124069214
","x: 216.20765686035156
y: 381.3082580566406
z: -0.7492137551307678
visibility: 0.905555248260498
","x: 167.98687744140625
y: 374.0794372558594
z: -0.7333129644393921
visibility: 0.9376378655433655
","x: 214.40036010742188
y: 375.4306640625
z: -0.7424325346946716
visibility: 0.907551646232605
","x: 166.658935546875
y: 370.2452087402344
z: -0.7274736762046814
visibility: 0.9353485107421875
","x: 214.21151733398438
y: 375.4125671386719
z: -0.7040084600448608
visibility: 0.8816118240356445
","x: 167.2266082763672
y: 369.4239501953125
z: -0.6930978894233704
visibility: 0.9123608469963074
","x: 197.24559020996094
y: 409.95068359375
z: 0.0034803920425474644
visibility: 0.9999255537986755
","x: 173.66075134277344
y: 410.2078857421875
z: -0.003566111670807004
visibility: 0.9999248385429382
","x: 212.12738037109375
y: 453.94024658203125
z: -0.24816302955150604
visibility: 0.993405282497406
","x: 163.37399291992188
y: 456.80548095703125
z: -0.2635103166103363
visibility: 0.9959905743598938
","x: 218.1858673095703
y: 521.7213134765625
z: -0.14814744889736176
visibility: 0.9943850040435791
","x: 166.4176025390625
y: 520.22314453125
z: -0.11533527076244354
visibility: 0.9961150288581848
","x: 214.83859252929688
y: 531.9103393554688
z: -0.14692910015583038
visibility: 0.9509322643280029
","x: 169.59957885742188
y: 528.4472045898438
z: -0.10943665355443954
visibility: 0.9400931596755981
","x: 226.25660705566406
y: 543.0463256835938
z: -0.2836437225341797
visibility: 0.9908042550086975
","x: 160.82139587402344
y: 541.9893798828125
z: -0.2386031150817871
visibility: 0.9920837879180908
",,,,,,,,,,,,,,,,,,,,,,,,,,,,,,,,,,,,,,,,,,
4,"x: 191.11920166015625
y: 313.3922119140625
z: -0.4956745505332947
visibility: 0.999984622001648
","x: 193.0094451904297
y: 307.106689453125
z: -0.48552870750427246
visibility: 0.999958872795105
","x: 194.24114990234375
y: 306.90142822265625
z: -0.485451877117157
visibility: 0.9999583959579468
","x: 195.45726013183594
y: 306.6839904785156
z: -0.4855741858482361
visibility: 0.9999538064002991
","x: 189.29371643066406
y: 307.3858337402344
z: -0.49001631140708923
visibility: 0.9999529719352722
","x: 187.96104431152344
y: 307.36322021484375
z: -0.49010181427001953
visibility: 0.9999533295631409
","x: 186.58953857421875
y: 307.2643737792969
z: -0.49000734090805054
visibility: 0.9999473094940186
","x: 197.17025756835938
y: 306.4273376464844
z: -0.3746604025363922
visibility: 0.9999215602874756
","x: 183.7873077392578
y: 306.8230895996094
z: -0.393285870552063
visibility: 0.9999037981033325
","x: 193.2488555908203
y: 318.52978515625
z: -0.44889721274375916
visibility: 0.999965488910675
","x: 188.60574340820312
y: 319.13726806640625
z: -0.4544517397880554
visibility: 0.999956488609314
","x: 207.25607299804688
y: 345.14794921875
z: -0.22125427424907684
visibility: 0.9999532699584961
","x: 169.56153869628906
y: 338.8609619140625
z: -0.264810174703598
visibility: 0.9999204277992249
","x: 211.65609741210938
y: 357.1036071777344
z: -0.014324838295578957
visibility: 0.9847266674041748
","x: 157.3733367919922
y: 352.3981018066406
z: -0.11844756454229355
visibility: 0.9781864285469055
","x: 216.018310546875
y: 378.1285095214844
z: 0.12890015542507172
visibility: 0.9448534250259399
","x: 163.1800994873047
y: 379.0014953613281
z: 0.025628333911299706
visibility: 0.9355477690696716
","x: 218.5215301513672
y: 386.20281982421875
z: 0.15668871998786926
visibility: 0.9000905752182007
","x: 163.3042755126953
y: 386.2605285644531
z: 0.042726363986730576
visibility: 0.8940339684486389
","x: 217.5037078857422
y: 385.2170104980469
z: 0.12963640689849854
visibility: 0.9034410715103149
","x: 165.65138244628906
y: 387.61041259765625
z: 0.017070738598704338
visibility: 0.8927432298660278
","x: 216.15206909179688
y: 382.61529541015625
z: 0.12378779798746109
visibility: 0.8785737156867981
","x: 166.7239532470703
y: 385.05865478515625
z: 0.021103499457240105
visibility: 0.8721078634262085
","x: 191.79689025878906
y: 406.62847900390625
z: 0.0036275137681514025
visibility: 0.9999248385429382
","x: 169.0406494140625
y: 403.887939453125
z: -0.0036742701195180416
visibility: 0.9999188184738159
","x: 203.93106079101562
y: 456.1553955078125
z: -0.17775115370750427
visibility: 0.9938907623291016
","x: 151.39663696289062
y: 453.9189147949219
z: -0.21480345726013184
visibility: 0.9963058829307556
","x: 207.28744506835938
y: 522.041259765625
z: -0.06616613268852234
visibility: 0.9948285222053528
","x: 155.28549194335938
y: 513.7651977539062
z: -0.07408416271209717
visibility: 0.9964193105697632
","x: 203.442626953125
y: 532.3966064453125
z: -0.06307696551084518
visibility: 0.9541071057319641
","x: 159.24484252929688
y: 523.1224975585938
z: -0.06725431233644485
visibility: 0.9449170231819153
","x: 217.34951782226562
y: 542.4817504882812
z: -0.17631390690803528
visibility: 0.9914785623550415
","x: 146.01434326171875
y: 535.0929565429688
z: -0.17647574841976166
visibility: 0.99272221326828
",,,,,,,,,,,,,,,,,,,,,,,,,,,,,,,,,,,,,,,,,,
5,"x: 177.8987274169922
y: 303.69085693359375
z: -0.40156063437461853
visibility: 0.9999843239784241
","x: 179.60171508789062
y: 296.7798156738281
z: -0.39023739099502563
visibility: 0.9999569058418274
","x: 180.6912078857422
y: 296.969482421875
z: -0.3902333080768585
visibility: 0.999956488609314
","x: 181.7357177734375
y: 297.1038513183594
z: -0.39033976197242737
visibility: 0.9999520778656006
","x: 176.33935546875
y: 296.3311462402344
z: -0.39825496077537537
visibility: 0.9999512434005737
","x: 175.14578247070312
y: 296.4478759765625
z: -0.39832884073257446
visibility: 0.9999517798423767
","x: 173.96743774414062
y: 296.6473388671875
z: -0.39843103289604187
visibility: 0.9999452829360962
","x: 183.48529052734375
y: 301.3359680175781
z: -0.28646230697631836
visibility: 0.9999164342880249
","x: 172.35227966308594
y: 298.5382080078125
z: -0.34738126397132874
visibility: 0.9999016523361206
","x: 179.81407165527344
y: 310.8507385253906
z: -0.3587206304073334
visibility: 0.999966025352478
","x: 175.83895874023438
y: 310.3134460449219
z: -0.36959972977638245
visibility: 0.9999579191207886
","x: 193.4542236328125
y: 340.82562255859375
z: -0.17283928394317627
visibility: 0.9999549388885498
","x: 159.23231506347656
y: 327.102294921875
z: -0.2271353304386139
visibility: 0.9999231696128845
","x: 196.2305145263672
y: 370.55096435546875
z: -0.10904918611049652
visibility: 0.9820042252540588
","x: 152.5832977294922
y: 357.0001525878906
z: -0.22851309180259705
visibility: 0.9753677845001221
","x: 205.67684936523438
y: 405.18084716796875
z: -0.14106827974319458
visibility: 0.9416362047195435
","x: 158.5329132080078
y: 396.2430419921875
z: -0.32740145921707153
visibility: 0.9284412264823914
","x: 210.41107177734375
y: 413.73583984375
z: -0.13561192154884338
visibility: 0.8954113125801086
","x: 159.68267822265625
y: 408.923583984375
z: -0.3608737289905548
visibility: 0.8851794004440308
","x: 211.65988159179688
y: 414.08148193359375
z: -0.05187560245394707
visibility: 0.8998260498046875
","x: 164.57325744628906
y: 408.6177978515625
z: -0.3801417052745819
visibility: 0.8841951489448547
","x: 208.58853149414062
y: 410.59466552734375
z: -0.13877643644809723
visibility: 0.8744027018547058
","x: 163.2125701904297
y: 402.8548583984375
z: -0.3370855152606964
visibility: 0.858841061592102
","x: 183.59678649902344
y: 406.7123718261719
z: 0.00960754044353962
visibility: 0.9999256730079651
","x: 161.20455932617188
y: 405.24969482421875
z: -0.009674045257270336
visibility: 0.9999170899391174
","x: 195.69483947753906
y: 457.287109375
z: -0.11742619425058365
visibility: 0.9944108724594116
","x: 145.01646423339844
y: 459.124267578125
z: -0.06173829361796379
visibility: 0.9965335130691528
","x: 205.83370971679688
y: 522.1185913085938
z: 0.03750278428196907
visibility: 0.9952215552330017
","x: 133.87037658691406
y: 514.908935546875
z: 0.11626122146844864
visibility: 0.9966649413108826
","x: 202.2351531982422
y: 532.4627075195312
z: 0.047223128378391266
visibility: 0.9562302827835083
","x: 134.2902374267578
y: 523.1697998046875
z: 0.12814848124980927
visibility: 0.9452632069587708
","x: 215.0408172607422
y: 542.4767456054688
z: -0.0707625225186348
visibility: 0.9919908046722412
","x: 129.65867614746094
y: 536.29736328125
z: 0.01139544602483511
visibility: 0.9930429458618164
",,,,,,,,,,,,,,,,,,,,,,,,,,,,,,,,,,,,,,,,,,
6,"x: 166.97482299804688
y: 293.7765197753906
z: -0.3117385804653168
visibility: 0.9999823570251465
","x: 168.78326416015625
y: 286.8450622558594
z: -0.3018680214881897
visibility: 0.9999470710754395
","x: 170.0867462158203
y: 286.9644775390625
z: -0.3018803894519806
visibility: 0.9999469518661499
","x: 171.3603515625
y: 287.12005615234375
z: -0.3019465506076813
visibility: 0.9999415874481201
","x: 164.91189575195312
y: 286.8097229003906
z: -0.30064651370048523
visibility: 0.9999423623085022
","x: 163.55445861816406
y: 287.09857177734375
z: -0.30069416761398315
visibility: 0.9999417066574097
","x: 162.2427520751953
y: 287.49530029296875
z: -0.30073630809783936
visibility: 0.9999319314956665
","x: 173.9759979248047
y: 290.48883056640625
z: -0.21632330119609833
visibility: 0.9998878836631775
","x: 161.00575256347656
y: 290.7565002441406
z: -0.21200795471668243
visibility: 0.999880850315094
","x: 169.80307006835938
y: 301.14337158203125
z: -0.27748140692710876
visibility: 0.999962329864502
","x: 164.99183654785156
y: 301.9917907714844
z: -0.27609890699386597
visibility: 0.9999544024467468
","x: 186.03814697265625
y: 332.89886474609375
z: -0.13209162652492523
visibility: 0.9999526143074036
","x: 151.5415496826172
y: 321.4985656738281
z: -0.14642448723316193
visibility: 0.9999265074729919
","x: 192.48150634765625
y: 369.7346496582031
z: -0.10656337440013885
visibility: 0.9785805940628052
","x: 146.51568603515625
y: 358.8460998535156
z: -0.12485422939062119
visibility: 0.9684610962867737
","x: 203.59646606445312
y: 402.6994323730469
z: -0.1809564232826233
visibility: 0.9287033677101135
","x: 148.8145751953125
y: 400.7992248535156
z: -0.19138778746128082
visibility: 0.9095312356948853
","x: 209.79270935058594
y: 411.4570617675781
z: -0.1962299644947052
visibility: 0.8759078979492188
","x: 147.9989776611328
y: 411.6387634277344
z: -0.21493129432201385
visibility: 0.8598148226737976
","x: 210.41384887695312
y: 411.1346740722656
z: -0.1931007206439972
visibility: 0.8825650215148926
","x: 150.82057189941406
y: 411.4176025390625
z: -0.2385025918483734
visibility: 0.859851062297821
","x: 207.5596923828125
y: 408.3544616699219
z: -0.1900106966495514
visibility: 0.8568469285964966
","x: 151.6000213623047
y: 407.6497802734375
z: -0.20217831432819366
visibility: 0.8332362771034241
","x: 178.72076416015625
y: 405.53240966796875
z: 0.00909390114247799
visibility: 0.9999262094497681
","x: 156.3117218017578
y: 404.92926025390625
z: -0.009169365279376507
visibility: 0.9999178647994995
","x: 191.336181640625
y: 457.7254638671875
z: -0.060106854885816574
visibility: 0.9946861863136292
","x: 144.0559539794922
y: 459.3352966308594
z: -0.012870900332927704
visibility: 0.9966487884521484
","x: 203.02597045898438
y: 522.2381591796875
z: 0.0643128752708435
visibility: 0.9954648613929749
","x: 132.4873046875
y: 515.0457763671875
z: 0.1730264276266098
visibility: 0.9967899918556213
","x: 200.10169982910156
y: 532.5238037109375
z: 0.07118692249059677
visibility: 0.956943690776825
","x: 132.92337036132812
y: 522.9530029296875
z: 0.18600192666053772
visibility: 0.944837749004364
","x: 213.77407836914062
y: 542.5057373046875
z: -0.03787994384765625
visibility: 0.9922195076942444
","x: 128.49440002441406
y: 535.2412109375
z: 0.08396271616220474
visibility: 0.993131697177887
",,,,,,,,,,,,,,,,,,,,,,,,,,,,,,,,,,,,,,,,,,
7,"x: 172.47254943847656
y: 293.7811584472656
z: -0.40787473320961
visibility: 0.9999839663505554
","x: 173.72235107421875
y: 286.85540771484375
z: -0.3947032690048218
visibility: 0.9999516606330872
","x: 174.78810119628906
y: 286.901123046875
z: -0.39469411969184875
visibility: 0.9999516010284424
","x: 175.7952423095703
y: 286.9933166503906
z: -0.39474162459373474
visibility: 0.9999462962150574
","x: 170.256591796875
y: 286.796630859375
z: -0.39748549461364746
visibility: 0.9999474883079529
","x: 168.8813934326172
y: 286.938720703125
z: -0.39757680892944336
visibility: 0.9999470114707947
","x: 167.45761108398438
y: 287.15362548828125
z: -0.3976065218448639
visibility: 0.9999380707740784
","x: 177.2667694091797
y: 290.2157287597656
z: -0.2837058901786804
visibility: 0.9998969435691833
","x: 164.75804138183594
y: 290.0918273925781
z: -0.2984772324562073
visibility: 0.9998924136161804
","x: 174.55943298339844
y: 301.07354736328125
z: -0.3638870418071747
visibility: 0.9999657273292542
","x: 169.95449829101562
y: 301.8313293457031
z: -0.3683587908744812
visibility: 0.9999588131904602
","x: 187.78648376464844
y: 331.5611267089844
z: -0.17773975431919098
visibility: 0.9999566674232483
","x: 151.96371459960938
y: 318.7939758300781
z: -0.220231294631958
visibility: 0.9999335408210754
","x: 195.62454223632812
y: 366.7243957519531
z: -0.19293628633022308
visibility: 0.9790602922439575
","x: 137.98927307128906
y: 354.0539855957031
z: -0.27125394344329834
visibility: 0.9712212681770325
","x: 206.25477600097656
y: 393.13409423828125
z: -0.3365684449672699
visibility: 0.9335411787033081
","x: 145.20431518554688
y: 397.6961975097656
z: -0.41385355591773987
visibility: 0.9170466661453247
","x: 211.6867218017578
y: 400.16741943359375
z: -0.37079834938049316
visibility: 0.8844343423843384
","x: 145.6136474609375
y: 407.0454406738281
z: -0.4522338807582855
visibility: 0.8704878687858582
","x: 211.77511596679688
y: 399.17852783203125
z: -0.39640918374061584
visibility: 0.8907754421234131
","x: 148.9808349609375
y: 408.1627197265625
z: -0.46849340200424194
visibility: 0.8704506158828735
","x: 209.03826904296875
y: 396.6720886230469
z: -0.3509320020675659
visibility: 0.866070568561554
","x: 149.51016235351562
y: 405.72021484375
z: -0.42301639914512634
visibility: 0.844848096370697
","x: 177.3506317138672
y: 405.7093811035156
z: 0.008981211110949516
visibility: 0.9999282360076904
","x: 155.03001403808594
y: 405.50067138671875
z: -0.009034717455506325
visibility: 0.9999216794967651
","x: 189.8660430908203
y: 460.6517333984375
z: -0.07210322469472885
visibility: 0.994983434677124
","x: 142.01463317871094
y: 459.48468017578125
z: -0.09571899473667145
visibility: 0.9968814849853516
","x: 201.92555236816406
y: 522.9913940429688
z: 0.08707615733146667
visibility: 0.9957520365715027
","x: 132.77902221679688
y: 515.4732055664062
z: 0.12200573831796646
visibility: 0.9970011711120605
","x: 199.40457153320312
y: 532.7955322265625
z: 0.09506672620773315
visibility: 0.9583516716957092
","x: 134.03512573242188
y: 522.8836669921875
z: 0.13977615535259247
visibility: 0.9472112655639648
","x: 212.85018920898438
y: 542.45751953125
z: -0.021715108305215836
visibility: 0.9924559593200684
","x: 128.4784698486328
y: 535.9644775390625
z: 0.0029889526776969433
visibility: 0.9934815168380737
","x: 144.1144256591797
y: 393.4889221191406
z: 0.0
","x: 147.82391357421875
y: 392.54779052734375
z: -0.001958782086148858
","x: 151.58706665039062
y: 393.65740966796875
z: -0.0050538103096187115
","x: 154.6434783935547
y: 394.8277587890625
z: -0.008769364096224308
","x: 157.87355041503906
y: 393.7435607910156
z: -0.012492730282247066
","x: 149.05494689941406
y: 398.53216552734375
z: -0.005773788783699274
","x: 149.50697326660156
y: 399.5765686035156
z: -0.009368219412863255
","x: 149.5714874267578
y: 399.251953125
z: -0.010376175865530968
","x: 149.51287841796875
y: 398.8414001464844
z: -0.010682209394872189
","x: 145.92369079589844
y: 399.4454650878906
z: -0.007113018538802862
","x: 146.07086181640625
y: 400.1370849609375
z: -0.010292395949363708
","x: 146.13233947753906
y: 398.46380615234375
z: -0.009620989672839642
","x: 145.9078826904297
y: 396.8476867675781
z: -0.008888541720807552
","x: 142.9865264892578
y: 399.5851135253906
z: -0.008475263603031635
","x: 142.86431884765625
y: 400.3555603027344
z: -0.011990925297141075
","x: 143.27886962890625
y: 398.6854553222656
z: -0.01050134189426899
","x: 143.24049377441406
y: 396.8949890136719
z: -0.008895283564925194
","x: 140.330078125
y: 399.5053405761719
z: -0.01007806695997715
","x: 139.89901733398438
y: 400.49871826171875
z: -0.012296818196773529
","x: 140.1560516357422
y: 399.2340087890625
z: -0.011315692216157913
","x: 140.0927734375
y: 397.56109619140625
z: -0.010099668055772781
",,,,,,,,,,,,,,,,,,,,,
8,"x: 172.47254943847656
y: 293.7811584472656
z: -0.40787473320961
visibility: 0.9999839663505554
","x: 173.72235107421875
y: 286.85540771484375
z: -0.3947032690048218
visibility: 0.9999516606330872
","x: 174.78810119628906
y: 286.901123046875
z: -0.39469411969184875
visibility: 0.9999516010284424
","x: 175.7952423095703
y: 286.9933166503906
z: -0.39474162459373474
visibility: 0.9999462962150574
","x: 170.256591796875
y: 286.796630859375
z: -0.39748549461364746
visibility: 0.9999474883079529
","x: 168.8813934326172
y: 286.938720703125
z: -0.39757680892944336
visibility: 0.9999470114707947
","x: 167.45761108398438
y: 287.15362548828125
z: -0.3976065218448639
visibility: 0.9999380707740784
","x: 177.2667694091797
y: 290.2157287597656
z: -0.2837058901786804
visibility: 0.9998969435691833
","x: 164.75804138183594
y: 290.0918273925781
z: -0.2984772324562073
visibility: 0.9998924136161804
","x: 174.55943298339844
y: 301.07354736328125
z: -0.3638870418071747
visibility: 0.9999657273292542
","x: 169.95449829101562
y: 301.8313293457031
z: -0.3683587908744812
visibility: 0.9999588131904602
","x: 187.78648376464844
y: 331.5611267089844
z: -0.17773975431919098
visibility: 0.9999566674232483
","x: 151.96371459960938
y: 318.7939758300781
z: -0.220231294631958
visibility: 0.9999335408210754
","x: 195.62454223632812
y: 366.7243957519531
z: -0.19293628633022308
visibility: 0.9790602922439575
","x: 137.98927307128906
y: 354.0539855957031
z: -0.27125394344329834
visibility: 0.9712212681770325
","x: 206.25477600097656
y: 393.13409423828125
z: -0.3365684449672699
visibility: 0.9335411787033081
","x: 145.20431518554688
y: 397.6961975097656
z: -0.41385355591773987
visibility: 0.9170466661453247
","x: 211.6867218017578
y: 400.16741943359375
z: -0.37079834938049316
visibility: 0.8844343423843384
","x: 145.6136474609375
y: 407.0454406738281
z: -0.4522338807582855
visibility: 0.8704878687858582
","x: 211.77511596679688
y: 399.17852783203125
z: -0.39640918374061584
visibility: 0.8907754421234131
","x: 148.9808349609375
y: 408.1627197265625
z: -0.46849340200424194
visibility: 0.8704506158828735
","x: 209.03826904296875
y: 396.6720886230469
z: -0.3509320020675659
visibility: 0.866070568561554
","x: 149.51016235351562
y: 405.72021484375
z: -0.42301639914512634
visibility: 0.844848096370697
","x: 177.3506317138672
y: 405.7093811035156
z: 0.008981211110949516
visibility: 0.9999282360076904
","x: 155.03001403808594
y: 405.50067138671875
z: -0.009034717455506325
visibility: 0.9999216794967651
","x: 189.8660430908203
y: 460.6517333984375
z: -0.07210322469472885
visibility: 0.994983434677124
","x: 142.01463317871094
y: 459.48468017578125
z: -0.09571899473667145
visibility: 0.9968814849853516
","x: 201.92555236816406
y: 522.9913940429688
z: 0.08707615733146667
visibility: 0.9957520365715027
","x: 132.77902221679688
y: 515.4732055664062
z: 0.12200573831796646
visibility: 0.9970011711120605
","x: 199.40457153320312
y: 532.7955322265625
z: 0.09506672620773315
visibility: 0.9583516716957092
","x: 134.03512573242188
y: 522.8836669921875
z: 0.13977615535259247
visibility: 0.9472112655639648
","x: 212.85018920898438
y: 542.45751953125
z: -0.021715108305215836
visibility: 0.9924559593200684
","x: 128.4784698486328
y: 535.9644775390625
z: 0.0029889526776969433
visibility: 0.9934815168380737
","x: 144.1144256591797
y: 393.4889221191406
z: 0.0
","x: 147.82391357421875
y: 392.54779052734375
z: -0.001958782086148858
","x: 151.58706665039062
y: 393.65740966796875
z: -0.0050538103096187115
","x: 154.6434783935547
y: 394.8277587890625
z: -0.008769364096224308
","x: 157.87355041503906
y: 393.7435607910156
z: -0.012492730282247066
","x: 149.05494689941406
y: 398.53216552734375
z: -0.005773788783699274
","x: 149.50697326660156
y: 399.5765686035156
z: -0.009368219412863255
","x: 149.5714874267578
y: 399.251953125
z: -0.010376175865530968
","x: 149.51287841796875
y: 398.8414001464844
z: -0.010682209394872189
","x: 145.92369079589844
y: 399.4454650878906
z: -0.007113018538802862
","x: 146.07086181640625
y: 400.1370849609375
z: -0.010292395949363708
","x: 146.13233947753906
y: 398.46380615234375
z: -0.009620989672839642
","x: 145.9078826904297
y: 396.8476867675781
z: -0.008888541720807552
","x: 142.9865264892578
y: 399.5851135253906
z: -0.008475263603031635
","x: 142.86431884765625
y: 400.3555603027344
z: -0.011990925297141075
","x: 143.27886962890625
y: 398.6854553222656
z: -0.01050134189426899
","x: 143.24049377441406
y: 396.8949890136719
z: -0.008895283564925194
","x: 140.330078125
y: 399.5053405761719
z: -0.01007806695997715
","x: 139.89901733398438
y: 400.49871826171875
z: -0.012296818196773529
","x: 140.1560516357422
y: 399.2340087890625
z: -0.011315692216157913
","x: 140.0927734375
y: 397.56109619140625
z: -0.010099668055772781
",,,,,,,,,,,,,,,,,,,,,
9,"x: 175.35089111328125
y: 303.16119384765625
z: -0.4943704605102539
visibility: 0.9999855756759644
","x: 177.0300750732422
y: 296.61236572265625
z: -0.4832130968570709
visibility: 0.999956488609314
","x: 178.1943359375
y: 296.452880859375
z: -0.4831673502922058
visibility: 0.9999564290046692
","x: 179.3902130126953
y: 296.36871337890625
z: -0.48325029015541077
visibility: 0.9999516010284424
","x: 173.67295837402344
y: 297.0639953613281
z: -0.4864857792854309
visibility: 0.9999526739120483
","x: 172.26803588867188
y: 297.18133544921875
z: -0.48657360672950745
visibility: 0.9999523162841797
","x: 170.6931610107422
y: 297.20928955078125
z: -0.48649072647094727
visibility: 0.9999442100524902
","x: 181.23126220703125
y: 298.0882873535156
z: -0.36749815940856934
visibility: 0.9999072551727295
","x: 166.80316162109375
y: 297.86407470703125
z: -0.38377508521080017
visibility: 0.99990314245224
","x: 177.2016143798828
y: 309.6646728515625
z: -0.44775885343551636
visibility: 0.9999691247940063
","x: 172.98916625976562
y: 310.36993408203125
z: -0.45273423194885254
visibility: 0.9999629259109497
","x: 191.2628631591797
y: 330.78521728515625
z: -0.2788597047328949
visibility: 0.9999608993530273
","x: 153.49075317382812
y: 319.6483154296875
z: -0.29308590292930603
visibility: 0.9999399185180664
","x: 202.27955627441406
y: 347.91156005859375
z: -0.43879207968711853
visibility: 0.9807775616645813
","x: 134.77064514160156
y: 338.2675476074219
z: -0.44837039709091187
visibility: 0.9737511873245239
","x: 210.3371124267578
y: 369.6341247558594
z: -0.6855372190475464
visibility: 0.9397516846656799
","x: 140.2659454345703
y: 372.84442138671875
z: -0.6610066890716553
visibility: 0.920643150806427
","x: 213.9155731201172
y: 378.6217956542969
z: -0.7372466325759888
visibility: 0.8954141139984131
","x: 141.35525512695312
y: 386.04107666015625
z: -0.7011831402778625
visibility: 0.8760291337966919
","x: 213.38584899902344
y: 378.97021484375
z: -0.7426186203956604
visibility: 0.9011304974555969
","x: 145.43235778808594
y: 386.3320617675781
z: -0.7020021080970764
visibility: 0.8753136992454529
","x: 211.20205688476562
y: 376.51190185546875
z: -0.6927770972251892
visibility: 0.8782002329826355
","x: 146.07275390625
y: 382.106201171875
z: -0.6652520895004272
visibility: 0.8475862145423889
","x: 179.2581329345703
y: 408.3094482421875
z: 0.008489007130265236
visibility: 0.9999319314956665
","x: 156.2101593017578
y: 407.7962646484375
z: -0.008547081612050533
visibility: 0.9999216794967651
","x: 195.79238891601562
y: 458.8818359375
z: -0.24998065829277039
visibility: 0.9950768947601318
","x: 141.39073181152344
y: 461.53485107421875
z: -0.22241811454296112
visibility: 0.9969438314437866
","x: 201.98757934570312
y: 522.9119262695312
z: -0.04660800099372864
visibility: 0.9958886504173279
","x: 132.54080200195312
y: 515.276123046875
z: -0.011544928885996342
visibility: 0.9971055388450623
","x: 198.94146728515625
y: 532.7899780273438
z: -0.03618632256984711
visibility: 0.9603123068809509
","x: 133.45912170410156
y: 521.7835693359375
z: 0.0004169383901171386
visibility: 0.9491752982139587
","x: 213.91419982910156
y: 541.8348999023438
z: -0.16142429411411285
visibility: 0.992055356502533
","x: 128.05520629882812
y: 536.420166015625
z: -0.12780794501304626
visibility: 0.993313193321228
",,,,,,,,,,,,,,,,,,,,,,,,,,,,,,,,,,,,,,,,,,
10,"x: 177.84324645996094
y: 309.47381591796875
z: -0.43755847215652466
visibility: 0.9999869465827942
","x: 179.56503295898438
y: 302.7212829589844
z: -0.42551955580711365
visibility: 0.9999606609344482
","x: 180.79087829589844
y: 302.13238525390625
z: -0.4254991412162781
visibility: 0.9999606013298035
","x: 182.01341247558594
y: 301.9183044433594
z: -0.4255703389644623
visibility: 0.9999561309814453
","x: 176.0502166748047
y: 302.94976806640625
z: -0.4281926155090332
visibility: 0.9999572038650513
","x: 174.68289184570312
y: 302.85198974609375
z: -0.42827272415161133
visibility: 0.9999569058418274
","x: 173.2269287109375
y: 302.6607971191406
z: -0.42824476957321167
visibility: 0.9999495148658752
","x: 184.00535583496094
y: 303.0691223144531
z: -0.3193798363208771
visibility: 0.9999163746833801
","x: 170.17779541015625
y: 302.4935302734375
z: -0.34736162424087524
visibility: 0.9999127984046936
","x: 179.8705596923828
y: 314.1544494628906
z: -0.3952251374721527
visibility: 0.9999721050262451
","x: 175.6409149169922
y: 314.70684814453125
z: -0.3990175127983093
visibility: 0.999966561794281
","x: 194.7026824951172
y: 331.7339782714844
z: -0.24544617533683777
visibility: 0.9999626874923706
","x: 157.25424194335938
y: 320.0903625488281
z: -0.2578110098838806
visibility: 0.9999449849128723
","x: 214.1541748046875
y: 343.0558776855469
z: -0.44185787439346313
visibility: 0.9821425080299377
","x: 139.82716369628906
y: 327.8582763671875
z: -0.47136983275413513
visibility: 0.9761627316474915
","x: 215.2236328125
y: 339.83905029296875
z: -0.6625633835792542
visibility: 0.9444740414619446
","x: 144.6710968017578
y: 329.9533386230469
z: -0.6900723576545715
visibility: 0.9256462454795837
","x: 215.35386657714844
y: 339.22589111328125
z: -0.7085432410240173
visibility: 0.902881383895874
","x: 145.08389282226562
y: 331.8835144042969
z: -0.7329107522964478
visibility: 0.8801199197769165
","x: 214.2923126220703
y: 335.5810852050781
z: -0.6987031698226929
visibility: 0.9076977372169495
","x: 148.1784210205078
y: 331.521484375
z: -0.7195218801498413
visibility: 0.8778529167175293
","x: 212.04080200195312
y: 336.1883239746094
z: -0.6647489666938782
visibility: 0.8843080401420593
","x: 149.0313262939453
y: 332.76708984375
z: -0.6911190748214722
visibility: 0.8481432795524597
","x: 181.0928497314453
y: 411.39154052734375
z: 0.008619111962616444
visibility: 0.9999323487281799
","x: 159.8152618408203
y: 409.74407958984375
z: -0.008722705766558647
visibility: 0.9999248385429382
","x: 207.00076293945312
y: 461.0599365234375
z: -0.2266588658094406
visibility: 0.9952476024627686
","x: 145.15628051757812
y: 461.3490295410156
z: -0.22338807582855225
visibility: 0.9970093369483948
","x: 203.66693115234375
y: 523.887939453125
z: -0.02134879119694233
visibility: 0.9957066774368286
","x: 137.39031982421875
y: 513.7006225585938
z: -0.006702913902699947
visibility: 0.9971477389335632
","x: 199.60464477539062
y: 533.9171752929688
z: -0.009048066101968288
visibility: 0.9617754817008972
","x: 139.781982421875
y: 521.5038452148438
z: 0.006958371959626675
visibility: 0.9506980776786804
","x: 215.07862854003906
y: 541.9273071289062
z: -0.12230877578258514
visibility: 0.9910781383514404
","x: 130.51182556152344
y: 534.7186279296875
z: -0.11077399551868439
visibility: 0.9930619597434998
",,,,,,,,,,,,,,,,,,,,,,,,,,,,,,,,,,,,,,,,,,
11,"x: 178.9403076171875
y: 306.2865295410156
z: -0.27291595935821533
visibility: 0.9999880790710449
","x: 180.6568145751953
y: 299.95526123046875
z: -0.2590334713459015
visibility: 0.9999642372131348
","x: 181.8829803466797
y: 299.78240966796875
z: -0.2589697539806366
visibility: 0.9999640583992004
","x: 183.08364868164062
y: 299.7872619628906
z: -0.25902435183525085
visibility: 0.9999600648880005
","x: 177.1068878173828
y: 299.9898986816406
z: -0.26005926728248596
visibility: 0.9999610781669617
","x: 175.7549591064453
y: 299.99359130859375
z: -0.26009732484817505
visibility: 0.999960720539093
","x: 174.3653106689453
y: 299.95404052734375
z: -0.2600840926170349
visibility: 0.999954104423523
","x: 185.2014617919922
y: 302.4636535644531
z: -0.16973751783370972
visibility: 0.9999242424964905
","x: 171.3682861328125
y: 301.7901916503906
z: -0.17522357404232025
visibility: 0.9999212026596069
","x: 181.1280517578125
y: 312.4344787597656
z: -0.23857352137565613
visibility: 0.9999746680259705
","x: 176.7989044189453
y: 312.74945068359375
z: -0.24020549654960632
visibility: 0.9999697208404541
","x: 194.9388885498047
y: 332.3704528808594
z: -0.12885557115077972
visibility: 0.9999626874923706
","x: 158.3345184326172
y: 328.111083984375
z: -0.13316679000854492
visibility: 0.9999487996101379
","x: 210.55186462402344
y: 354.6470642089844
z: -0.29678526520729065
visibility: 0.9835537672042847
","x: 143.57763671875
y: 338.8316345214844
z: -0.33386772871017456
visibility: 0.9782874584197998
","x: 206.125
y: 327.3023681640625
z: -0.4466112554073334
visibility: 0.9495065808296204
","x: 146.58409118652344
y: 325.85345458984375
z: -0.47548574209213257
visibility: 0.9323452711105347
","x: 206.4405059814453
y: 315.7351989746094
z: -0.4795822501182556
visibility: 0.9106829762458801
","x: 146.5117645263672
y: 324.1630859375
z: -0.5079303979873657
visibility: 0.8893340826034546
","x: 202.89996337890625
y: 312.1939392089844
z: -0.48235955834388733
visibility: 0.9146843552589417
","x: 148.41285705566406
y: 322.2390441894531
z: -0.5794802904129028
visibility: 0.8867900371551514
","x: 201.8066864013672
y: 316.0489196777344
z: -0.4477096199989319
visibility: 0.8918960094451904
","x: 149.4267578125
y: 324.2359924316406
z: -0.4850320816040039
visibility: 0.8585261702537537
","x: 187.85650634765625
y: 412.038330078125
z: 0.008348764851689339
visibility: 0.9999299049377441
","x: 165.11907958984375
y: 414.506591796875
z: -0.008438351564109325
visibility: 0.9999274015426636
","x: 213.74176025390625
y: 458.16650390625
z: -0.2059074342250824
visibility: 0.9956467747688293
","x: 149.65977478027344
y: 466.9934387207031
z: -0.21263659000396729
visibility: 0.9971848130226135
","x: 207.4822998046875
y: 518.4148559570312
z: -0.0021562466863542795
visibility: 0.9959133863449097
","x: 152.62112426757812
y: 516.4547119140625
z: -0.007845977321267128
visibility: 0.9973067045211792
","x: 200.389892578125
y: 525.63134765625
z: 0.010826660320162773
visibility: 0.9628271460533142
","x: 156.36143493652344
y: 524.4110717773438
z: 0.00752564612776041
visibility: 0.9530587196350098
","x: 215.87026977539062
y: 541.3326416015625
z: -0.08283133059740067
visibility: 0.9914096593856812
","x: 146.37705993652344
y: 538.7318115234375
z: -0.08829564601182938
visibility: 0.9934054017066956
",,,,,,,,,,,,,,,,,,,,,,,,,,,,,,,,,,,,,,,,,,
12,"x: 178.56890869140625
y: 303.7911376953125
z: -0.2147730588912964
visibility: 0.9999882578849792
","x: 180.4444580078125
y: 297.873046875
z: -0.20872318744659424
visibility: 0.9999648928642273
","x: 181.58807373046875
y: 297.4660949707031
z: -0.20873859524726868
visibility: 0.999965488910675
","x: 182.73997497558594
y: 297.06201171875
z: -0.2087583988904953
visibility: 0.9999616742134094
","x: 177.34048461914062
y: 299.3343811035156
z: -0.1989150494337082
visibility: 0.9999591708183289
","x: 176.20404052734375
y: 299.7370300292969
z: -0.19892588257789612
visibility: 0.9999575018882751
","x: 174.94017028808594
y: 299.18243408203125
z: -0.19895434379577637
visibility: 0.9999498128890991
","x: 185.7514190673828
y: 300.80963134765625
z: -0.147792249917984
visibility: 0.9999293088912964
","x: 171.75259399414062
y: 300.2738037109375
z: -0.0999690368771553
visibility: 0.9999219179153442
","x: 181.3704071044922
y: 310.0240783691406
z: -0.18995362520217896
visibility: 0.999976396560669
","x: 177.15359497070312
y: 310.75634765625
z: -0.1765851080417633
visibility: 0.9999712705612183
","x: 196.2187957763672
y: 331.77978515625
z: -0.11915403604507446
visibility: 0.9999661445617676
","x: 165.60650634765625
y: 328.8406677246094
z: -0.012067240662872791
visibility: 0.9999520182609558
","x: 208.6194305419922
y: 360.86651611328125
z: -0.27751296758651733
visibility: 0.9850780367851257
","x: 157.66751098632812
y: 356.44775390625
z: 0.053056228905916214
visibility: 0.9669144749641418
","x: 194.84893798828125
y: 324.4938659667969
z: -0.42373520135879517
visibility: 0.9544888138771057
","x: 146.7520751953125
y: 363.4361572265625
z: -0.0015515300910919905
visibility: 0.9335172772407532
","x: 193.13079833984375
y: 312.0721740722656
z: -0.46127432584762573
visibility: 0.9193994998931885
","x: 143.3883819580078
y: 368.0434875488281
z: -0.016332250088453293
visibility: 0.8909616470336914
","x: 192.76828002929688
y: 307.98956298828125
z: -0.4555319845676422
visibility: 0.9229729771614075
","x: 143.763916015625
y: 366.0671691894531
z: -0.040323540568351746
visibility: 0.8892078399658203
","x: 192.46376037597656
y: 312.5558166503906
z: -0.42432326078414917
visibility: 0.9021046757698059
","x: 145.544189453125
y: 365.4501953125
z: -0.0134425088763237
visibility: 0.8624905943870544
","x: 194.8972625732422
y: 412.601806640625
z: -0.02336750738322735
visibility: 0.999932587146759
","x: 171.3577880859375
y: 414.864990234375
z: 0.02330445684492588
visibility: 0.9999330639839172
","x: 215.4905548095703
y: 464.8243713378906
z: -0.044937193393707275
visibility: 0.9960035681724548
","x: 156.7008056640625
y: 467.9532470703125
z: -0.13594672083854675
visibility: 0.9974051713943481
","x: 227.73458862304688
y: 518.1029052734375
z: 0.15854331851005554
visibility: 0.996215283870697
","x: 157.08163452148438
y: 517.9276123046875
z: -0.0010294526582583785
visibility: 0.997494637966156
","x: 227.76058959960938
y: 524.0606079101562
z: 0.17380377650260925
visibility: 0.957594633102417
","x: 160.90576171875
y: 526.2967529296875
z: 0.01036318950355053
visibility: 0.9559502005577087
","x: 228.1197509765625
y: 542.2138061523438
z: 0.06325281411409378
visibility: 0.9919410347938538
","x: 149.4578094482422
y: 540.0343017578125
z: -0.06384537369012833
visibility: 0.9938917756080627
",,,,,,,,,,,,,,,,,,,,,,,,,,,,,,,,,,,,,,,,,,
13,"x: 185.66189575195312
y: 296.1506042480469
z: -0.22115862369537354
visibility: 0.9999803900718689
","x: 188.0789794921875
y: 289.8949890136719
z: -0.22066685557365417
visibility: 0.9999393224716187
","x: 189.41806030273438
y: 289.544921875
z: -0.22070486843585968
visibility: 0.9999470710754395
","x: 190.81349182128906
y: 289.2020263671875
z: -0.2207144945859909
visibility: 0.9999329447746277
","x: 185.36941528320312
y: 290.7806091308594
z: -0.20748357474803925
visibility: 0.9999212622642517
","x: 184.68576049804688
y: 290.8829040527344
z: -0.2075006514787674
visibility: 0.9999174475669861
","x: 183.9569549560547
y: 290.66241455078125
z: -0.2075634002685547
visibility: 0.9998980760574341
","x: 194.8328857421875
y: 291.305908203125
z: -0.17005284130573273
visibility: 0.9998952150344849
","x: 184.60604858398438
y: 291.38360595703125
z: -0.10741786658763885
visibility: 0.999889075756073
","x: 189.43304443359375
y: 301.4188232421875
z: -0.1986551582813263
visibility: 0.9999643564224243
","x: 185.8224639892578
y: 301.59368896484375
z: -0.18096821010112762
visibility: 0.9999608397483826
","x: 207.70858764648438
y: 320.3388977050781
z: -0.1394905149936676
visibility: 0.9999634027481079
","x: 179.60208129882812
y: 320.488525390625
z: -0.016087355092167854
visibility: 0.999954879283905
","x: 207.7646942138672
y: 357.1202392578125
z: -0.2734913229942322
visibility: 0.9850951433181763
","x: 173.85488891601562
y: 358.4513854980469
z: 0.05350450426340103
visibility: 0.9393975734710693
","x: 194.36546325683594
y: 315.26605224609375
z: -0.43328842520713806
visibility: 0.95722496509552
","x: 161.62294006347656
y: 399.7930603027344
z: -0.005666382145136595
visibility: 0.9160673022270203
","x: 193.17929077148438
y: 300.1318054199219
z: -0.47040075063705444
visibility: 0.9235974550247192
","x: 157.97044372558594
y: 407.90087890625
z: -0.017424961552023888
visibility: 0.869314968585968
","x: 194.97520446777344
y: 295.60870361328125
z: -0.4652940332889557
visibility: 0.9265082478523254
","x: 157.01536560058594
y: 407.70587158203125
z: -0.04629690200090408
visibility: 0.8693017363548279
","x: 195.06715393066406
y: 301.13873291015625
z: -0.43513545393943787
visibility: 0.9039216637611389
","x: 159.16314697265625
y: 405.903564453125
z: -0.019349774345755577
visibility: 0.8422448635101318
","x: 198.67459106445312
y: 411.5704650878906
z: -0.02814421057701111
visibility: 0.9999355673789978
","x: 176.9408416748047
y: 411.15374755859375
z: 0.028031084686517715
visibility: 0.9999385476112366
","x: 215.04257202148438
y: 468.57037353515625
z: -0.007900292053818703
visibility: 0.9962392449378967
","x: 161.2884063720703
y: 464.25103759765625
z: -0.0634046196937561
visibility: 0.9976131916046143
","x: 228.92440795898438
y: 518.2601318359375
z: 0.20258013904094696
visibility: 0.9964314103126526
","x: 158.12652587890625
y: 517.811767578125
z: 0.09823177754878998
visibility: 0.9976751804351807
","x: 229.05075073242188
y: 525.4500732421875
z: 0.21878504753112793
visibility: 0.9539688229560852
","x: 161.36717224121094
y: 526.9251098632812
z: 0.10993126779794693
visibility: 0.9585883617401123
","x: 230.84109497070312
y: 543.2091674804688
z: 0.11348980665206909
visibility: 0.9923083186149597
","x: 150.45433044433594
y: 539.9743041992188
z: 0.007513366639614105
visibility: 0.9943435192108154
",,,,,,,,,,,,,,,,,,,,,,,,,,,,,,,,,,,,,,,,,,
14,"x: 184.42202758789062
y: 291.89404296875
z: -0.18286274373531342
visibility: 0.99996018409729
","x: 186.726318359375
y: 285.0842590332031
z: -0.18788209557533264
visibility: 0.9999210238456726
","x: 187.96322631835938
y: 284.57598876953125
z: -0.18791648745536804
visibility: 0.9999315738677979
","x: 189.51174926757812
y: 284.076171875
z: -0.1879485845565796
visibility: 0.9999175071716309
","x: 184.5048065185547
y: 286.2890930175781
z: -0.1689768135547638
visibility: 0.9998732209205627
","x: 183.3093719482422
y: 286.5535888671875
z: -0.16899679601192474
visibility: 0.9998540878295898
","x: 182.45004272460938
y: 286.71673583984375
z: -0.16902941465377808
visibility: 0.9998214840888977
","x: 193.6189727783203
y: 285.8623962402344
z: -0.16645148396492004
visibility: 0.9998880624771118
","x: 185.12779235839844
y: 288.45697021484375
z: -0.07757676392793655
visibility: 0.9998283386230469
","x: 188.27322387695312
y: 298.3414001464844
z: -0.17150254547595978
visibility: 0.9999552965164185
","x: 184.45938110351562
y: 298.6673278808594
z: -0.14613768458366394
visibility: 0.9999322295188904
","x: 209.54489135742188
y: 317.60662841796875
z: -0.14910265803337097
visibility: 0.9999637603759766
","x: 180.69497680664062
y: 321.062744140625
z: 0.0055109052918851376
visibility: 0.9999309182167053
","x: 211.8318328857422
y: 348.3204650878906
z: -0.29289883375167847
visibility: 0.9861468076705933
","x: 171.01361083984375
y: 350.0123596191406
z: 0.09529227018356323
visibility: 0.8836797475814819
","x: 196.13241577148438
y: 312.4002990722656
z: -0.4452578127384186
visibility: 0.9610082507133484
","x: 161.0729217529297
y: 349.03662109375
z: 0.06719154119491577
visibility: 0.8857473134994507
","x: 193.2753448486328
y: 302.1902770996094
z: -0.4845117926597595
visibility: 0.9301251173019409
","x: 151.73716735839844
y: 345.806640625
z: 0.05860521271824837
visibility: 0.8398590087890625
","x: 193.82798767089844
y: 298.4573059082031
z: -0.4754734933376312
visibility: 0.9326261878013611
","x: 154.27511596679688
y: 352.54931640625
z: 0.03446654975414276
visibility: 0.8422234654426575
","x: 194.08103942871094
y: 302.2767333984375
z: -0.4443191885948181
visibility: 0.9106566905975342
","x: 153.2825164794922
y: 344.59759521484375
z: 0.05506120249629021
visibility: 0.8170140981674194
","x: 201.70156860351562
y: 406.7914123535156
z: -0.036668844521045685
visibility: 0.9999338388442993
","x: 179.43699645996094
y: 407.3289794921875
z: 0.036665428429841995
visibility: 0.9999361038208008
","x: 213.3722686767578
y: 468.973388671875
z: -0.03427280858159065
visibility: 0.9963929057121277
","x: 165.73086547851562
y: 465.298583984375
z: -0.009124035015702248
visibility: 0.9974481463432312
","x: 227.95513916015625
y: 518.964599609375
z: 0.14894576370716095
visibility: 0.9965264797210693
","x: 159.3118133544922
y: 517.9834594726562
z: 0.1430877298116684
visibility: 0.9976396560668945
","x: 227.80136108398438
y: 526.125732421875
z: 0.16317610442638397
visibility: 0.9496905207633972
","x: 162.23524475097656
y: 527.8899536132812
z: 0.1542411893606186
visibility: 0.9586806893348694
","x: 230.611083984375
y: 545.0458374023438
z: 0.061563558876514435
visibility: 0.9924962520599365
","x: 150.4186553955078
y: 539.9126586914062
z: 0.056423068046569824
visibility: 0.9943852424621582
",,,,,,,,,,,,,,,,,,,,,,,,,,,,,,,,,,,,,,,,,,
15,"x: 185.7407989501953
y: 289.3848876953125
z: -0.2448381632566452
visibility: 0.9996449947357178
","x: 187.8900146484375
y: 282.3680419921875
z: -0.24439354240894318
visibility: 0.9992340803146362
","x: 189.52415466308594
y: 281.8319091796875
z: -0.24445156753063202
visibility: 0.9993053078651428
","x: 191.26751708984375
y: 281.3763122558594
z: -0.24452213943004608
visibility: 0.9993094205856323
","x: 184.66632080078125
y: 283.83306884765625
z: -0.23062825202941895
visibility: 0.9989225268363953
","x: 183.659912109375
y: 284.2452697753906
z: -0.23063182830810547
visibility: 0.9985681772232056
","x: 182.81239318847656
y: 284.6527404785156
z: -0.2306409776210785
visibility: 0.9984421133995056
","x: 195.48260498046875
y: 282.9907531738281
z: -0.19580066204071045
visibility: 0.9993265271186829
","x: 184.0820770263672
y: 286.95782470703125
z: -0.12747952342033386
visibility: 0.9966704249382019
","x: 190.45437622070312
y: 295.4378662109375
z: -0.22303053736686707
visibility: 0.9996938705444336
","x: 185.15928649902344
y: 296.6717224121094
z: -0.20346102118492126
visibility: 0.999255895614624
","x: 210.52883911132812
y: 311.3330383300781
z: -0.15673956274986267
visibility: 0.9999606013298035
","x: 180.79421997070312
y: 320.7730407714844
z: -0.03849921375513077
visibility: 0.9998177886009216
","x: 222.44960021972656
y: 334.0820007324219
z: -0.21521444618701935
visibility: 0.9843604564666748
","x: 173.68365478515625
y: 357.10986328125
z: 0.0221417136490345
visibility: 0.8241700530052185
","x: 208.07510375976562
y: 348.0560607910156
z: -0.2883863151073456
visibility: 0.9458900094032288
","x: 171.31019592285156
y: 395.2734375
z: -0.03620538115501404
visibility: 0.8212354183197021
","x: 204.65072631835938
y: 363.5746765136719
z: -0.3176248073577881
visibility: 0.905066192150116
","x: 169.42726135253906
y: 408.38201904296875
z: -0.052048712968826294
visibility: 0.7762899398803711
","x: 201.38821411132812
y: 362.6192626953125
z: -0.32411253452301025
visibility: 0.9073325991630554
","x: 170.4564208984375
y: 408.1534118652344
z: -0.07850553095340729
visibility: 0.7794199585914612
","x: 202.6997833251953
y: 357.1084289550781
z: -0.29169538617134094
visibility: 0.8784689903259277
","x: 171.37559509277344
y: 402.7745056152344
z: -0.048599973320961
visibility: 0.7571480870246887
","x: 204.156005859375
y: 405.75701904296875
z: -0.035816945135593414
visibility: 0.9999139308929443
","x: 181.00424194335938
y: 406.9648742675781
z: 0.035802289843559265
visibility: 0.9999089241027832
","x: 213.99993896484375
y: 468.4773254394531
z: -0.022137487307190895
visibility: 0.9960547089576721
","x: 170.77659606933594
y: 465.3229064941406
z: 0.0285814069211483
visibility: 0.9968345165252686
","x: 227.92843627929688
y: 519.0919799804688
z: 0.12920722365379333
visibility: 0.9962772130966187
","x: 160.13841247558594
y: 518.1993408203125
z: 0.1685015857219696
visibility: 0.9974369406700134
","x: 228.26580810546875
y: 525.80224609375
z: 0.13945874571800232
visibility: 0.9399228096008301
","x: 162.9283447265625
y: 528.1966552734375
z: 0.17847780883312225
visibility: 0.9579071998596191
","x: 231.06747436523438
y: 544.948486328125
z: 0.037979595363140106
visibility: 0.9917978048324585
","x: 149.97056579589844
y: 539.5729370117188
z: 0.08872798085212708
visibility: 0.9942057132720947
",,,,,,,,,,,,,,,,,,,,,,,,,,,,,,,,,,,,,,,,,,
16,"x: 182.41798400878906
y: 290.826904296875
z: -0.20952799916267395
visibility: 0.9996721744537354
","x: 184.64016723632812
y: 283.7294616699219
z: -0.21113070845603943
visibility: 0.9992791414260864
","x: 185.8949737548828
y: 283.4293518066406
z: -0.21117134392261505
visibility: 0.9993537068367004
","x: 187.2342529296875
y: 283.2067565917969
z: -0.21121859550476074
visibility: 0.9993543028831482
","x: 183.0172119140625
y: 284.83203125
z: -0.1967872679233551
visibility: 0.9989769458770752
","x: 182.9271697998047
y: 285.2621765136719
z: -0.19683998823165894
visibility: 0.9986661076545715
","x: 182.47848510742188
y: 285.6836242675781
z: -0.19685226678848267
visibility: 0.9985455274581909
","x: 193.9712677001953
y: 284.8656921386719
z: -0.17625565826892853
visibility: 0.9993743896484375
","x: 183.98239135742188
y: 287.661865234375
z: -0.10690321773290634
visibility: 0.9969390630722046
","x: 186.13526916503906
y: 296.8954772949219
z: -0.19376015663146973
visibility: 0.9997129440307617
","x: 183.86154174804688
y: 297.90325927734375
z: -0.17385032773017883
visibility: 0.9993001222610474
","x: 208.80734252929688
y: 313.5988464355469
z: -0.12423384189605713
visibility: 0.999963104724884
","x: 179.5898895263672
y: 321.09918212890625
z: -0.04296870157122612
visibility: 0.9998186230659485
","x: 224.75804138183594
y: 340.5775451660156
z: -0.1744755506515503
visibility: 0.9853249788284302
","x: 168.63491821289062
y: 356.6514892578125
z: -0.05674031376838684
visibility: 0.8301500082015991
","x: 239.61573791503906
y: 361.7156982421875
z: -0.29048675298690796
visibility: 0.9498963356018066
","x: 159.37875366210938
y: 367.0469970703125
z: -0.1617899388074875
visibility: 0.8348563313484192
","x: 244.126220703125
y: 371.60076904296875
z: -0.3161488175392151
visibility: 0.9112810492515564
","x: 154.45252990722656
y: 369.0914611816406
z: -0.20124122500419617
visibility: 0.7906484603881836
","x: 242.36624145507812
y: 371.9811706542969
z: -0.3365803360939026
visibility: 0.913931131362915
","x: 154.59356689453125
y: 368.1593322753906
z: -0.2243620902299881
visibility: 0.7944494485855103
","x: 240.1902618408203
y: 369.099365234375
z: -0.30134648084640503
visibility: 0.8870722651481628
","x: 156.2144317626953
y: 365.69866943359375
z: -0.1833711564540863
visibility: 0.7732877135276794
","x: 203.77513122558594
y: 400.89068603515625
z: -0.027127781882882118
visibility: 0.9998975992202759
","x: 182.21527099609375
y: 401.9139404296875
z: 0.027064135298132896
visibility: 0.9998939037322998
","x: 214.98788452148438
y: 467.3852844238281
z: -0.10902036726474762
visibility: 0.9963186979293823
","x: 168.8186798095703
y: 455.996826171875
z: -0.1265583634376526
visibility: 0.9970219135284424
","x: 228.88760375976562
y: 519.937255859375
z: -0.01162021141499281
visibility: 0.9965445399284363
","x: 160.786865234375
y: 517.0400390625
z: -0.026531260460615158
visibility: 0.9975560307502747
","x: 229.87005615234375
y: 526.8489990234375
z: -0.008001966401934624
visibility: 0.9382193088531494
","x: 163.1174774169922
y: 526.0713500976562
z: -0.021036017686128616
visibility: 0.9579942226409912
","x: 230.34068298339844
y: 544.8448486328125
z: -0.1295524686574936
visibility: 0.9922568202018738
","x: 155.78475952148438
y: 539.420654296875
z: -0.1266915500164032
visibility: 0.9945023655891418
",,,,,,,,,,,,,,,,,,,,,,"x: 238.91058349609375
y: 359.91070556640625
z: 0.0
","x: 243.3768310546875
y: 361.57421875
z: -0.00032261910382658243
","x: 246.99884033203125
y: 366.1608581542969
z: -0.0003653807216323912
","x: 248.31495666503906
y: 371.0635986328125
z: -0.0012596556916832924
","x: 247.96694946289062
y: 374.482177734375
z: -0.0020222757011651993
","x: 246.74620056152344
y: 374.72784423828125
z: 0.0038881769869476557
","x: 248.55894470214844
y: 381.40167236328125
z: 0.0023761289194226265
","x: 249.75640869140625
y: 385.5713195800781
z: 0.0007284096209332347
","x: 250.5050506591797
y: 388.88525390625
z: -0.0003576616873033345
","x: 244.80233764648438
y: 375.9881286621094
z: 0.002355458214879036
","x: 246.0989532470703
y: 381.840576171875
z: 0.00021067133639007807
","x: 246.04417419433594
y: 381.8504638671875
z: -0.0013760292204096913
","x: 245.24331665039062
y: 380.9347229003906
z: -0.001939100562594831
","x: 242.74000549316406
y: 375.8782958984375
z: 0.00020770385162904859
","x: 244.13919067382812
y: 380.9234313964844
z: -0.002242332324385643
","x: 244.1388397216797
y: 380.05029296875
z: -0.003125618677586317
","x: 243.40078735351562
y: 378.3559875488281
z: -0.0030460276175290346
","x: 240.4244842529297
y: 374.8963928222656
z: -0.002306537702679634
","x: 241.48793029785156
y: 378.5339050292969
z: -0.004089817870408297
","x: 241.6505584716797
y: 378.33721923828125
z: -0.004635967314243317
","x: 241.08624267578125
y: 377.2461242675781
z: -0.00451640272513032
"
17,"x: 182.41798400878906
y: 290.826904296875
z: -0.20952799916267395
visibility: 0.9996721744537354
","x: 184.64016723632812
y: 283.7294616699219
z: -0.21113070845603943
visibility: 0.9992791414260864
","x: 185.8949737548828
y: 283.4293518066406
z: -0.21117134392261505
visibility: 0.9993537068367004
","x: 187.2342529296875
y: 283.2067565917969
z: -0.21121859550476074
visibility: 0.9993543028831482
","x: 183.0172119140625
y: 284.83203125
z: -0.1967872679233551
visibility: 0.9989769458770752
","x: 182.9271697998047
y: 285.2621765136719
z: -0.19683998823165894
visibility: 0.9986661076545715
","x: 182.47848510742188
y: 285.6836242675781
z: -0.19685226678848267
visibility: 0.9985455274581909
","x: 193.9712677001953
y: 284.8656921386719
z: -0.17625565826892853
visibility: 0.9993743896484375
","x: 183.98239135742188
y: 287.661865234375
z: -0.10690321773290634
visibility: 0.9969390630722046
","x: 186.13526916503906
y: 296.8954772949219
z: -0.19376015663146973
visibility: 0.9997129440307617
","x: 183.86154174804688
y: 297.90325927734375
z: -0.17385032773017883
visibility: 0.9993001222610474
","x: 208.80734252929688
y: 313.5988464355469
z: -0.12423384189605713
visibility: 0.999963104724884
","x: 179.5898895263672
y: 321.09918212890625
z: -0.04296870157122612
visibility: 0.9998186230659485
","x: 224.75804138183594
y: 340.5775451660156
z: -0.1744755506515503
visibility: 0.9853249788284302
","x: 168.63491821289062
y: 356.6514892578125
z: -0.05674031376838684
visibility: 0.8301500082015991
","x: 239.61573791503906
y: 361.7156982421875
z: -0.29048675298690796
visibility: 0.9498963356018066
","x: 159.37875366210938
y: 367.0469970703125
z: -0.1617899388074875
visibility: 0.8348563313484192
","x: 244.126220703125
y: 371.60076904296875
z: -0.3161488175392151
visibility: 0.9112810492515564
","x: 154.45252990722656
y: 369.0914611816406
z: -0.20124122500419617
visibility: 0.7906484603881836
","x: 242.36624145507812
y: 371.9811706542969
z: -0.3365803360939026
visibility: 0.913931131362915
","x: 154.59356689453125
y: 368.1593322753906
z: -0.2243620902299881
visibility: 0.7944494485855103
","x: 240.1902618408203
y: 369.099365234375
z: -0.30134648084640503
visibility: 0.8870722651481628
","x: 156.2144317626953
y: 365.69866943359375
z: -0.1833711564540863
visibility: 0.7732877135276794
","x: 203.77513122558594
y: 400.89068603515625
z: -0.027127781882882118
visibility: 0.9998975992202759
","x: 182.21527099609375
y: 401.9139404296875
z: 0.027064135298132896
visibility: 0.9998939037322998
","x: 214.98788452148438
y: 467.3852844238281
z: -0.10902036726474762
visibility: 0.9963186979293823
","x: 168.8186798095703
y: 455.996826171875
z: -0.1265583634376526
visibility: 0.9970219135284424
","x: 228.88760375976562
y: 519.937255859375
z: -0.01162021141499281
visibility: 0.9965445399284363
","x: 160.786865234375
y: 517.0400390625
z: -0.026531260460615158
visibility: 0.9975560307502747
","x: 229.87005615234375
y: 526.8489990234375
z: -0.008001966401934624
visibility: 0.9382193088531494
","x: 163.1174774169922
y: 526.0713500976562
z: -0.021036017686128616
visibility: 0.9579942226409912
","x: 230.34068298339844
y: 544.8448486328125
z: -0.1295524686574936
visibility: 0.9922568202018738
","x: 155.78475952148438
y: 539.420654296875
z: -0.1266915500164032
visibility: 0.9945023655891418
",,,,,,,,,,,,,,,,,,,,,,"x: 238.91058349609375
y: 359.91070556640625
z: 0.0
","x: 243.3768310546875
y: 361.57421875
z: -0.00032261910382658243
","x: 246.99884033203125
y: 366.1608581542969
z: -0.0003653807216323912
","x: 248.31495666503906
y: 371.0635986328125
z: -0.0012596556916832924
","x: 247.96694946289062
y: 374.482177734375
z: -0.0020222757011651993
","x: 246.74620056152344
y: 374.72784423828125
z: 0.0038881769869476557
","x: 248.55894470214844
y: 381.40167236328125
z: 0.0023761289194226265
","x: 249.75640869140625
y: 385.5713195800781
z: 0.0007284096209332347
","x: 250.5050506591797
y: 388.88525390625
z: -0.0003576616873033345
","x: 244.80233764648438
y: 375.9881286621094
z: 0.002355458214879036
","x: 246.0989532470703
y: 381.840576171875
z: 0.00021067133639007807
","x: 246.04417419433594
y: 381.8504638671875
z: -0.0013760292204096913
","x: 245.24331665039062
y: 380.9347229003906
z: -0.001939100562594831
","x: 242.74000549316406
y: 375.8782958984375
z: 0.00020770385162904859
","x: 244.13919067382812
y: 380.9234313964844
z: -0.002242332324385643
","x: 244.1388397216797
y: 380.05029296875
z: -0.003125618677586317
","x: 243.40078735351562
y: 378.3559875488281
z: -0.0030460276175290346
","x: 240.4244842529297
y: 374.8963928222656
z: -0.002306537702679634
","x: 241.48793029785156
y: 378.5339050292969
z: -0.004089817870408297
","x: 241.6505584716797
y: 378.33721923828125
z: -0.004635967314243317
","x: 241.08624267578125
y: 377.2461242675781
z: -0.00451640272513032
"
18,"x: 182.43556213378906
y: 293.83404541015625
z: -0.3774964213371277
visibility: 0.9997045993804932
","x: 184.6387176513672
y: 285.7491455078125
z: -0.3666946589946747
visibility: 0.9993502497673035
","x: 185.89779663085938
y: 285.60797119140625
z: -0.3666899502277374
visibility: 0.9994173645973206
","x: 187.29148864746094
y: 285.66217041015625
z: -0.36677151918411255
visibility: 0.9994175434112549
","x: 182.54278564453125
y: 286.54473876953125
z: -0.36232978105545044
visibility: 0.9990783333778381
","x: 182.00927734375
y: 286.85382080078125
z: -0.36241909861564636
visibility: 0.9987986087799072
","x: 181.104736328125
y: 287.2475891113281
z: -0.3624008893966675
visibility: 0.9986899495124817
","x: 193.70701599121094
y: 287.6132507324219
z: -0.2704240083694458
visibility: 0.9994356036186218
","x: 180.91639709472656
y: 289.24017333984375
z: -0.24843502044677734
visibility: 0.9972444176673889
","x: 185.85122680664062
y: 300.37249755859375
z: -0.33949750661849976
visibility: 0.9997411370277405
","x: 183.27882385253906
y: 302.52032470703125
z: -0.3331893980503082
visibility: 0.9993695616722107
","x: 207.85507202148438
y: 315.4706115722656
z: -0.18609902262687683
visibility: 0.9999632835388184
","x: 173.29440307617188
y: 327.5948486328125
z: -0.1718391329050064
visibility: 0.9998353123664856
","x: 222.4092559814453
y: 340.73388671875
z: -0.30894383788108826
visibility: 0.9855229258537292
","x: 164.86453247070312
y: 362.0711975097656
z: -0.3014768362045288
visibility: 0.846796989440918
","x: 227.73037719726562
y: 357.0048828125
z: -0.5150765180587769
visibility: 0.950971245765686
","x: 154.75465393066406
y: 350.0606689453125
z: -0.5209633708000183
visibility: 0.8505815267562866
","x: 229.69766235351562
y: 358.31170654296875
z: -0.5578582286834717
visibility: 0.9119609594345093
","x: 152.39015197753906
y: 346.9306945800781
z: -0.5642136335372925
visibility: 0.8093754053115845
","x: 228.55731201171875
y: 358.2774658203125
z: -0.5619175434112549
visibility: 0.9145355224609375
","x: 153.1842498779297
y: 341.68408203125
z: -0.5649052858352661
visibility: 0.8125641345977783
","x: 225.8979034423828
y: 356.7767639160156
z: -0.5225182771682739
visibility: 0.8858634829521179
","x: 154.6769561767578
y: 343.7828369140625
z: -0.5275711417198181
visibility: 0.7918729782104492
","x: 204.158447265625
y: 401.38037109375
z: -0.005600152537226677
visibility: 0.9998983144760132
","x: 181.24285888671875
y: 403.02435302734375
z: 0.005545167718082666
visibility: 0.9998965859413147
","x: 217.69989013671875
y: 460.10888671875
z: -0.2296667844057083
visibility: 0.9963778853416443
","x: 168.85057067871094
y: 455.6739807128906
z: -0.2032381296157837
visibility: 0.997075080871582
","x: 226.80087280273438
y: 521.0550537109375
z: -0.07648144662380219
visibility: 0.9964608550071716
","x: 161.2827606201172
y: 516.7333984375
z: -0.046338699758052826
visibility: 0.9975858330726624
","x: 224.40365600585938
y: 530.65625
z: -0.06897123157978058
visibility: 0.9416221976280212
","x: 163.50833129882812
y: 524.17529296875
z: -0.03812611848115921
visibility: 0.9585089683532715
","x: 231.2879638671875
y: 544.7623291015625
z: -0.19196352362632751
visibility: 0.9921117424964905
","x: 156.7843780517578
y: 539.549072265625
z: -0.15942279994487762
visibility: 0.9944740533828735
",,,,,,,,,,,,,,,,,,,,,,,,,,,,,,,,,,,,,,,,,,
19,"x: 191.82020568847656
y: 291.1046142578125
z: -0.2954108417034149
visibility: 0.9997249245643616
","x: 192.5872039794922
y: 284.1814880371094
z: -0.27490538358688354
visibility: 0.999398946762085
","x: 193.3824920654297
y: 284.13104248046875
z: -0.27490073442459106
visibility: 0.999455988407135
","x: 194.22720336914062
y: 284.2157287597656
z: -0.2749530076980591
visibility: 0.9994527101516724
","x: 190.1700439453125
y: 284.50506591796875
z: -0.2922022044658661
visibility: 0.9991564154624939
","x: 189.08416748046875
y: 284.7320251464844
z: -0.29226261377334595
visibility: 0.998905599117279
","x: 187.8218994140625
y: 285.06597900390625
z: -0.2923501133918762
visibility: 0.9988049268722534
","x: 195.74195861816406
y: 287.33233642578125
z: -0.15792356431484222
visibility: 0.9994626641273499
","x: 183.8587646484375
y: 288.9211120605469
z: -0.21475405991077423
visibility: 0.997502863407135
","x: 193.42529296875
y: 298.014892578125
z: -0.245746448636055
visibility: 0.9997469186782837
","x: 189.8092041015625
y: 299.0298156738281
z: -0.2682773768901825
visibility: 0.9994134902954102
","x: 207.1800994873047
y: 316.1244812011719
z: -0.05310012772679329
visibility: 0.9999454617500305
","x: 173.4303741455078
y: 321.4320068359375
z: -0.1593971699476242
visibility: 0.9998208284378052
","x: 213.26502990722656
y: 350.5845947265625
z: -0.014065762050449848
visibility: 0.9434356093406677
","x: 169.59751892089844
y: 359.3482971191406
z: -0.29045191407203674
visibility: 0.8590812683105469
","x: 222.24102783203125
y: 372.288818359375
z: -0.10346810519695282
visibility: 0.9214406609535217
","x: 181.99069213867188
y: 345.2812194824219
z: -0.4764360785484314
visibility: 0.8603421449661255
","x: 224.5883331298828
y: 377.9351806640625
z: -0.12050560861825943
visibility: 0.8814142942428589
","x: 185.60008239746094
y: 344.671630859375
z: -0.5181264281272888
visibility: 0.8189581036567688
","x: 224.3660888671875
y: 375.4112548828125
z: -0.1475149244070053
visibility: 0.8861750960350037
","x: 186.3827362060547
y: 338.787109375
z: -0.5154396295547485
visibility: 0.8209219574928284
","x: 222.4664764404297
y: 373.8554382324219
z: -0.11681939661502838
visibility: 0.8566365242004395
","x: 185.808837890625
y: 339.2961120605469
z: -0.4792869985103607
visibility: 0.7954504489898682
","x: 204.47100830078125
y: 402.45159912109375
z: 0.023484138771891594
visibility: 0.9999043345451355
","x: 181.42147827148438
y: 403.1107177734375
z: -0.023490095511078835
visibility: 0.9998984932899475
","x: 218.26455688476562
y: 460.5856018066406
z: -0.09865371882915497
visibility: 0.9966611862182617
","x: 170.8289031982422
y: 460.4130859375
z: -0.028269220143556595
visibility: 0.9972396492958069
","x: 226.39700317382812
y: 523.08642578125
z: 0.0557175949215889
visibility: 0.9966769218444824
","x: 160.37953186035156
y: 517.0476684570312
z: 0.1621818095445633
visibility: 0.9976862668991089
","x: 220.66360473632812
y: 533.193115234375
z: 0.06491134315729141
visibility: 0.9458854794502258
","x: 162.12098693847656
y: 524.2960205078125
z: 0.17541943490505219
visibility: 0.9576220512390137
","x: 231.67835998535156
y: 545.0450439453125
z: -0.04813531041145325
visibility: 0.9925731420516968
","x: 156.78814697265625
y: 540.1508178710938
z: 0.06767956912517548
visibility: 0.9946213364601135
",,,,,,,,,,,,,,,,,,,,,,,,,,,,,,,,,,,,,,,,,,
20,"x: 197.18235778808594
y: 290.70880126953125
z: -0.26822561025619507
visibility: 0.9997514486312866
","x: 198.78829956054688
y: 283.85406494140625
z: -0.25359654426574707
visibility: 0.9994574189186096
","x: 199.9025115966797
y: 283.747314453125
z: -0.2536190152168274
visibility: 0.9995086789131165
","x: 201.00416564941406
y: 283.7051086425781
z: -0.2536448836326599
visibility: 0.9995049834251404
","x: 195.38983154296875
y: 283.86785888671875
z: -0.257596492767334
visibility: 0.9992378354072571
","x: 193.9904022216797
y: 283.77276611328125
z: -0.2576267123222351
visibility: 0.9990113973617554
","x: 192.444580078125
y: 283.7050476074219
z: -0.25763368606567383
visibility: 0.9989187717437744
","x: 201.8140106201172
y: 286.3464660644531
z: -0.14908556640148163
visibility: 0.9995138049125671
","x: 189.03060913085938
y: 286.43084716796875
z: -0.166287362575531
visibility: 0.9977476000785828
","x: 198.6368408203125
y: 297.4473876953125
z: -0.22628465294837952
visibility: 0.9997711181640625
","x: 194.83673095703125
y: 297.5406188964844
z: -0.23249319195747375
visibility: 0.9994708895683289
","x: 209.1387481689453
y: 320.0590515136719
z: -0.08673305809497833
visibility: 0.9999500513076782
","x: 174.79640197753906
y: 313.1728515625
z: -0.10380874574184418
visibility: 0.9998323321342468
","x: 214.2450408935547
y: 360.751953125
z: -0.1460084319114685
visibility: 0.9436782598495483
","x: 159.9914093017578
y: 335.8389892578125
z: -0.21116574108600616
visibility: 0.8710188269615173
","x: 226.93057250976562
y: 371.2609558105469
z: -0.2674137055873871
visibility: 0.9276851415634155
","x: 171.4486083984375
y: 333.0572509765625
z: -0.40675774216651917
visibility: 0.8701375722885132
","x: 230.70068359375
y: 373.27508544921875
z: -0.2093798816204071
visibility: 0.8907871246337891
","x: 174.34913635253906
y: 334.29864501953125
z: -0.4445992410182953
visibility: 0.8294273018836975
","x: 229.9839324951172
y: 369.73138427734375
z: -0.3139125108718872
visibility: 0.8953472971916199
","x: 176.4780731201172
y: 329.0487060546875
z: -0.45023220777511597
visibility: 0.831292450428009
","x: 228.08352661132812
y: 368.92828369140625
z: -0.2339291274547577
visibility: 0.8678203821182251
","x: 182.4090118408203
y: 331.4864501953125
z: -0.4141407907009125
visibility: 0.8067085146903992
","x: 203.30543518066406
y: 402.49957275390625
z: 0.011079223826527596
visibility: 0.9999091625213623
","x: 180.43954467773438
y: 403.2835693359375
z: -0.01111058983951807
visibility: 0.9998986721038818
","x: 217.29286193847656
y: 462.08624267578125
z: -0.07697590440511703
visibility: 0.9968328475952148
","x: 169.50704956054688
y: 461.827880859375
z: -0.041151151061058044
visibility: 0.9973426461219788
","x: 224.37901306152344
y: 523.7800903320312
z: 0.09465889632701874
visibility: 0.9967637658119202
","x: 160.0069580078125
y: 517.154541015625
z: 0.14712902903556824
visibility: 0.997684895992279
","x: 219.13192749023438
y: 534.0721435546875
z: 0.1060740128159523
visibility: 0.948395848274231
","x: 161.58990478515625
y: 524.442626953125
z: 0.1606455147266388
visibility: 0.9558720588684082
","x: 230.8226776123047
y: 544.9907836914062
z: 0.005777711048722267
visibility: 0.9927812814712524
","x: 156.4342041015625
y: 540.29345703125
z: 0.0596388503909111
visibility: 0.9946312308311462
",,,,,,,,,,,,,,,,,,,,,,,,,,,,,,,,,,,,,,,,,,
21,"x: 195.54881286621094
y: 290.05908203125
z: -0.25517481565475464
visibility: 0.9997748136520386
","x: 197.2705078125
y: 283.1219787597656
z: -0.24323666095733643
visibility: 0.9995064735412598
","x: 198.40985107421875
y: 282.9836120605469
z: -0.2432909905910492
visibility: 0.9995527267456055
","x: 199.522705078125
y: 282.88739013671875
z: -0.24335584044456482
visibility: 0.9995483756065369
","x: 193.79306030273438
y: 282.9471435546875
z: -0.24248476326465607
visibility: 0.9993062615394592
","x: 192.376220703125
y: 282.71063232421875
z: -0.24251732230186462
visibility: 0.9991008043289185
","x: 190.8714599609375
y: 282.5293273925781
z: -0.24251294136047363
visibility: 0.9990149736404419
","x: 201.0496826171875
y: 285.202880859375
z: -0.15026547014713287
visibility: 0.9995554685592651
","x: 187.49905395507812
y: 284.9850769042969
z: -0.1474408507347107
visibility: 0.9979631304740906
","x: 197.499267578125
y: 296.6369323730469
z: -0.2184523344039917
visibility: 0.9997912645339966
","x: 193.13571166992188
y: 296.3742370605469
z: -0.21788613498210907
visibility: 0.999521017074585
","x: 209.42901611328125
y: 320.083740234375
z: -0.08745941519737244
visibility: 0.9999534487724304
","x: 174.56338500976562
y: 313.20477294921875
z: -0.0763624906539917
visibility: 0.9998453259468079
","x: 217.88873291015625
y: 360.0517578125
z: -0.1223352774977684
visibility: 0.9469907879829407
","x: 158.34527587890625
y: 341.2274169921875
z: -0.14398422837257385
visibility: 0.8813695907592773
","x: 237.18002319335938
y: 369.4293212890625
z: -0.2664741575717926
visibility: 0.9333005547523499
","x: 145.55328369140625
y: 342.63555908203125
z: -0.3417884111404419
visibility: 0.8808697462081909
","x: 243.3313446044922
y: 371.8860168457031
z: -0.2927868962287903
visibility: 0.8987472057342529
","x: 135.68313598632812
y: 347.60919189453125
z: -0.3712408244609833
visibility: 0.8423560857772827
","x: 243.1720733642578
y: 367.5332336425781
z: -0.32132068276405334
visibility: 0.9034048318862915
","x: 138.28564453125
y: 343.5968017578125
z: -0.3827272057533264
visibility: 0.8446065187454224
","x: 240.5737762451172
y: 366.7091064453125
z: -0.27816030383110046
visibility: 0.8779969215393066
","x: 141.7611846923828
y: 344.1734619140625
z: -0.3475112318992615
visibility: 0.8221516609191895
","x: 202.75340270996094
y: 402.9134826660156
z: 0.0054685757495462894
visibility: 0.9998985528945923
","x: 180.1352996826172
y: 403.81781005859375
z: -0.005495120771229267
visibility: 0.9998927116394043
","x: 214.7541046142578
y: 462.2113342285156
z: -0.11523507535457611
visibility: 0.9968557953834534
","x: 168.65150451660156
y: 460.48272705078125
z: -0.15185657143592834
visibility: 0.9974720478057861
","x: 224.1350860595703
y: 523.78857421875
z: 0.022988449782133102
visibility: 0.9968119859695435
","x: 168.72227478027344
y: 517.1068115234375
z: 0.0203965213149786
visibility: 0.9977311491966248
","x: 218.48056030273438
y: 534.447265625
z: 0.030047297477722168
visibility: 0.949669361114502
","x: 171.95895385742188
y: 524.493896484375
z: 0.031763870269060135
visibility: 0.957499623298645
","x: 230.9209442138672
y: 544.9779052734375
z: -0.07551870495080948
visibility: 0.9927994012832642
","x: 162.9330596923828
y: 540.2552490234375
z: -0.06962595880031586
visibility: 0.9947839975357056
",,,,,,,,,,,,,,,,,,,,,,,,,,,,,,,,,,,,,,,,,,
22,"x: 187.9234619140625
y: 300.34228515625
z: -0.49723824858665466
visibility: 0.9997967481613159
","x: 190.06390380859375
y: 293.3937683105469
z: -0.4838634431362152
visibility: 0.9995534420013428
","x: 191.6368865966797
y: 292.95635986328125
z: -0.48387470841407776
visibility: 0.9995951652526855
","x: 193.1458282470703
y: 292.4161071777344
z: -0.4839857220649719
visibility: 0.9995903968811035
","x: 185.67323303222656
y: 293.29901123046875
z: -0.4837227463722229
visibility: 0.999372661113739
","x: 184.026611328125
y: 292.673095703125
z: -0.48381105065345764
visibility: 0.999187707901001
","x: 182.3099822998047
y: 291.94598388671875
z: -0.4837796688079834
visibility: 0.9991093873977661
","x: 194.7081756591797
y: 290.9241943359375
z: -0.3708110451698303
visibility: 0.9995973110198975
","x: 178.79559326171875
y: 291.3328857421875
z: -0.36977893114089966
visibility: 0.9981628656387329
","x: 189.7733917236328
y: 305.28387451171875
z: -0.4527622163295746
visibility: 0.999811053276062
","x: 184.6514434814453
y: 307.1863098144531
z: -0.4523929953575134
visibility: 0.9995676875114441
","x: 206.41746520996094
y: 321.6702880859375
z: -0.28222453594207764
visibility: 0.9999569058418274
","x: 162.78753662109375
y: 320.09759521484375
z: -0.2657303810119629
visibility: 0.999855101108551
","x: 224.68685913085938
y: 350.7140808105469
z: -0.387394517660141
visibility: 0.9517366886138916
","x: 137.51748657226562
y: 347.3143310546875
z: -0.40028756856918335
visibility: 0.8927311897277832
","x: 244.8018798828125
y: 368.6289978027344
z: -0.5662957429885864
visibility: 0.9380791783332825
","x: 124.78881072998047
y: 347.7888488769531
z: -0.6038211584091187
visibility: 0.8904963731765747
","x: 251.70489501953125
y: 371.7413024902344
z: -0.6010406613349915
visibility: 0.905231237411499
","x: 120.08807373046875
y: 350.2813720703125
z: -0.640245795249939
visibility: 0.8527126908302307
","x: 250.72848510742188
y: 371.2955017089844
z: -0.6178991198539734
visibility: 0.9098021984100342
","x: 121.39393615722656
y: 346.3577880859375
z: -0.6491578817367554
visibility: 0.8546589612960815
","x: 247.64727783203125
y: 371.52349853515625
z: -0.5774310827255249
visibility: 0.8856790065765381
","x: 123.88101959228516
y: 347.40057373046875
z: -0.6129324436187744
visibility: 0.83250892162323
","x: 197.96896362304688
y: 403.112548828125
z: 0.002962831873446703
visibility: 0.9998802542686462
","x: 175.06222534179688
y: 404.0869445800781
z: -0.0029921666719019413
visibility: 0.999864399433136
","x: 207.56121826171875
y: 456.5499572753906
z: -0.2812969982624054
visibility: 0.9964785575866699
","x: 168.47911071777344
y: 460.485595703125
z: -0.266666442155838
visibility: 0.9968836307525635
","x: 212.77613830566406
y: 520.5999755859375
z: -0.09549666196107864
visibility: 0.9964725375175476
","x: 169.41441345214844
y: 518.2598876953125
z: -0.0702061653137207
visibility: 0.9975586533546448
","x: 210.09930419921875
y: 530.0460205078125
z: -0.08627313375473022
visibility: 0.9462077021598816
","x: 172.9967041015625
y: 526.855712890625
z: -0.05931258946657181
visibility: 0.9568108320236206
","x: 214.1117706298828
y: 543.540283203125
z: -0.22827570140361786
visibility: 0.9920673966407776
","x: 163.6090087890625
y: 540.381103515625
z: -0.1938534677028656
visibility: 0.9944417476654053
",,,,,,,,,,,,,,,,,,,,,,,,,,,,,,,,,,,,,,,,,,
23,"x: 178.711669921875
y: 303.0593566894531
z: -0.39646047353744507
visibility: 0.9998158812522888
","x: 180.98545837402344
y: 295.5596618652344
z: -0.3865770101547241
visibility: 0.9995949864387512
","x: 182.7470703125
y: 295.11260986328125
z: -0.38660603761672974
visibility: 0.9996326565742493
","x: 184.50047302246094
y: 294.65911865234375
z: -0.3867100775241852
visibility: 0.9996281862258911
","x: 176.3163604736328
y: 296.232421875
z: -0.3854103088378906
visibility: 0.9994304776191711
","x: 174.80873107910156
y: 296.3003234863281
z: -0.3854562044143677
visibility: 0.999262273311615
","x: 173.2240447998047
y: 296.41009521484375
z: -0.385414183139801
visibility: 0.9991884827613831
","x: 187.4813995361328
y: 294.4881591796875
z: -0.2945728600025177
visibility: 0.9996346235275269
","x: 171.41000366210938
y: 297.8215637207031
z: -0.2889162003993988
visibility: 0.9983335733413696
","x: 181.3439483642578
y: 308.6423645019531
z: -0.3597644567489624
visibility: 0.9998275637626648
","x: 176.20269775390625
y: 310.4031066894531
z: -0.35782021284103394
visibility: 0.9996049404144287
","x: 199.72508239746094
y: 326.6542053222656
z: -0.21875926852226257
visibility: 0.9999603033065796
","x: 159.6155242919922
y: 331.095703125
z: -0.20884296298027039
visibility: 0.9998563528060913
","x: 222.90611267089844
y: 351.7410888671875
z: -0.30479151010513306
visibility: 0.9561691284179688
","x: 137.1976776123047
y: 352.3414306640625
z: -0.3134503662586212
visibility: 0.9031310081481934
","x: 240.5554962158203
y: 367.5512390136719
z: -0.4743698537349701
visibility: 0.9436284899711609
","x: 114.56312561035156
y: 348.3428955078125
z: -0.494798481464386
visibility: 0.9006349444389343
","x: 247.2769317626953
y: 369.6570129394531
z: -0.5069867372512817
visibility: 0.9130426049232483
","x: 105.46552276611328
y: 346.3567810058594
z: -0.5263989567756653
visibility: 0.8652486205101013
","x: 246.8562469482422
y: 368.5873107910156
z: -0.5296927690505981
visibility: 0.9174946546554565
","x: 106.48857879638672
y: 341.90478515625
z: -0.5414463877677917
visibility: 0.8671311140060425
","x: 244.24935913085938
y: 369.2248229980469
z: -0.48821115493774414
visibility: 0.8956412076950073
","x: 110.74430847167969
y: 342.351806640625
z: -0.5066619515419006
visibility: 0.8467274308204651
","x: 192.62652587890625
y: 407.6414794921875
z: 0.004399219993501902
visibility: 0.9998862743377686
","x: 169.84938049316406
y: 409.6812438964844
z: -0.004358056467026472
visibility: 0.999853789806366
","x: 197.21217346191406
y: 462.5716857910156
z: -0.18035319447517395
visibility: 0.9953859448432922
","x: 168.06861877441406
y: 467.80133056640625
z: -0.017463739961385727
visibility: 0.9958853125572205
","x: 195.33265686035156
y: 526.0132446289062
z: -0.05556405335664749
visibility: 0.9954683184623718
","x: 169.35545349121094
y: 518.4391479492188
z: 0.1571563333272934
visibility: 0.9962427020072937
","x: 189.7294464111328
y: 535.9812622070312
z: -0.05035402253270149
visibility: 0.9484416842460632
","x: 172.16302490234375
y: 526.8140869140625
z: 0.1681530475616455
visibility: 0.9505488872528076
","x: 205.39955139160156
y: 549.211669921875
z: -0.16293582320213318
visibility: 0.991462767124176
","x: 164.4630889892578
y: 540.4180297851562
z: 0.0773414894938469
visibility: 0.9926500916481018
",,,,,,,,,,,,,,,,,,,,,,,,,,,,,,,,,,,,,,,,,,
24,"x: 174.0125732421875
y: 311.7040710449219
z: -0.4937826991081238
visibility: 0.9998337626457214
","x: 176.4061279296875
y: 304.4698791503906
z: -0.4848945736885071
visibility: 0.9996337890625
","x: 178.22447204589844
y: 304.5864562988281
z: -0.4848659634590149
visibility: 0.9996680021286011
","x: 180.0153045654297
y: 304.712890625
z: -0.48496875166893005
visibility: 0.999663233757019
","x: 171.76046752929688
y: 304.5106201171875
z: -0.4820944368839264
visibility: 0.9994847774505615
","x: 170.331298828125
y: 304.628173828125
z: -0.4821757674217224
visibility: 0.999333381652832
","x: 168.81033325195312
y: 304.6761474609375
z: -0.4821207523345947
visibility: 0.9992648363113403
","x: 183.1053466796875
y: 305.46392822265625
z: -0.3840687870979309
visibility: 0.9996696710586548
","x: 166.74302673339844
y: 304.83404541015625
z: -0.373351126909256
visibility: 0.9984965920448303
","x: 177.3428192138672
y: 318.6239013671875
z: -0.452801376581192
visibility: 0.9998435974121094
","x: 171.60498046875
y: 318.8892822265625
z: -0.44968438148498535
visibility: 0.9996428489685059
","x: 196.44552612304688
y: 335.0492858886719
z: -0.2956730127334595
visibility: 0.9999622702598572
","x: 153.80690002441406
y: 332.4166564941406
z: -0.269767165184021
visibility: 0.9998643398284912
","x: 220.17796325683594
y: 351.92010498046875
z: -0.41532421112060547
visibility: 0.9597643613815308
","x: 129.83041381835938
y: 352.5244445800781
z: -0.4108394682407379
visibility: 0.911990225315094
","x: 237.8179931640625
y: 362.9364318847656
z: -0.5954570770263672
visibility: 0.9484390616416931
","x: 112.99940490722656
y: 349.54974365234375
z: -0.6139670610427856
visibility: 0.9082198739051819
","x: 244.2165985107422
y: 359.61175537109375
z: -0.6294437646865845
visibility: 0.920144259929657
","x: 109.28754425048828
y: 349.43341064453125
z: -0.6480006575584412
visibility: 0.8731282353401184
","x: 243.99293518066406
y: 357.64971923828125
z: -0.6435478925704956
visibility: 0.9243483543395996
","x: 111.33295440673828
y: 342.2566223144531
z: -0.653060257434845
visibility: 0.8748293519020081
","x: 241.5435791015625
y: 360.74072265625
z: -0.6056310534477234
visibility: 0.9041459560394287
","x: 111.32122039794922
y: 345.3692626953125
z: -0.6218788623809814
visibility: 0.855043888092041
","x: 190.28172302246094
y: 403.11285400390625
z: 0.0032259009312838316
visibility: 0.9998838305473328
","x: 166.88607788085938
y: 406.00396728515625
z: -0.003214669181033969
visibility: 0.9998447895050049
","x: 200.27926635742188
y: 449.154541015625
z: -0.29995355010032654
visibility: 0.994530200958252
","x: 163.44345092773438
y: 460.8898620605469
z: -0.27708905935287476
visibility: 0.9951997995376587
","x: 200.50086975097656
y: 522.9013671875
z: -0.15429511666297913
visibility: 0.9948998689651489
","x: 168.18328857421875
y: 518.810546875
z: -0.12123171240091324
visibility: 0.9961564540863037
","x: 196.38893127441406
y: 532.8369140625
z: -0.1484891176223755
visibility: 0.9469342231750488
","x: 171.33558654785156
y: 527.3135986328125
z: -0.11407695710659027
visibility: 0.9510827660560608
","x: 206.41346740722656
y: 544.9012451171875
z: -0.2832644581794739
visibility: 0.9907304048538208
","x: 164.0680389404297
y: 540.3827514648438
z: -0.24201545119285583
visibility: 0.9925329089164734
",,,,,,,,,,,,,,,,,,,,,,,,,,,,,,,,,,,,,,,,,,
25,"x: 170.75404357910156
y: 314.38983154296875
z: -0.48910659551620483
visibility: 0.999850332736969
","x: 172.91192626953125
y: 305.96490478515625
z: -0.48643946647644043
visibility: 0.9996700882911682
","x: 174.6804962158203
y: 306.02655029296875
z: -0.4863792061805725
visibility: 0.9997009038925171
","x: 176.4650115966797
y: 306.14398193359375
z: -0.4864482879638672
visibility: 0.9996965527534485
","x: 168.7068634033203
y: 305.81414794921875
z: -0.48221367597579956
visibility: 0.9995359182357788
","x: 167.41299438476562
y: 305.73809814453125
z: -0.4822940230369568
visibility: 0.9993996024131775
","x: 166.09251403808594
y: 305.61505126953125
z: -0.4822486937046051
visibility: 0.9993377923965454
","x: 180.0570831298828
y: 307.2549743652344
z: -0.40716806054115295
visibility: 0.9997023940086365
","x: 164.73350524902344
y: 305.6347351074219
z: -0.3873234987258911
visibility: 0.9986463785171509
","x: 173.44322204589844
y: 320.476318359375
z: -0.45472994446754456
visibility: 0.9998590350151062
","x: 168.92495727539062
y: 320.47198486328125
z: -0.4490264356136322
visibility: 0.9996783137321472
","x: 194.3002166748047
y: 335.14727783203125
z: -0.3202478587627411
visibility: 0.9999656081199646
","x: 151.7158203125
y: 331.55438232421875
z: -0.2966170608997345
visibility: 0.999876856803894
","x: 217.1312713623047
y: 348.9031982421875
z: -0.4109499454498291
visibility: 0.9635893106460571
","x: 130.02671813964844
y: 353.3175964355469
z: -0.4065294861793518
visibility: 0.9201925992965698
","x: 235.84988403320312
y: 360.6917724609375
z: -0.5619136095046997
visibility: 0.9527047872543335
","x: 118.34278106689453
y: 370.537353515625
z: -0.5778566598892212
visibility: 0.9145361185073853
","x: 241.80970764160156
y: 359.8358154296875
z: -0.5957046747207642
visibility: 0.9258819222450256
","x: 113.82205963134766
y: 373.2131652832031
z: -0.6127794981002808
visibility: 0.8779624700546265
","x: 241.16403198242188
y: 358.139892578125
z: -0.6123303174972534
visibility: 0.9300404191017151
","x: 115.80801391601562
y: 370.6023864746094
z: -0.6225067973136902
visibility: 0.8799558877944946
","x: 238.69679260253906
y: 360.7666015625
z: -0.5732164978981018
visibility: 0.9114778637886047
","x: 117.8216323852539
y: 370.3912353515625
z: -0.5873204469680786
visibility: 0.8616833090782166
","x: 187.7056427001953
y: 395.8113098144531
z: -0.0006797324167564511
visibility: 0.9998845458030701
","x: 163.95599365234375
y: 399.2422180175781
z: 0.0005737256142310798
visibility: 0.9998490810394287
","x: 199.10992431640625
y: 451.4621276855469
z: -0.08625798672437668
visibility: 0.9947959184646606
","x: 162.4441375732422
y: 461.0843200683594
z: -0.07377131283283234
visibility: 0.9953514337539673
","x: 205.26980590820312
y: 505.1870422363281
z: 0.11778503656387329
visibility: 0.9951739311218262
","x: 167.99838256835938
y: 518.962890625
z: 0.12716512382030487
visibility: 0.9963322281837463
","x: 201.5147705078125
y: 509.35345458984375
z: 0.13113394379615784
visibility: 0.9442849159240723
","x: 171.25204467773438
y: 527.2716674804688
z: 0.14052680134773254
visibility: 0.9516566395759583
","x: 209.42601013183594
y: 533.1052856445312
z: 0.01677609048783779
visibility: 0.991178572177887
","x: 163.90074157714844
y: 540.4285278320312
z: 0.03517768532037735
visibility: 0.9928659796714783
",,,,,,,,,,,,,,,,,,,,,,,,,,,,,,,,,,,,,,,,,,
26,"x: 167.91566467285156
y: 314.03125
z: -0.4649103283882141
visibility: 0.999864935874939
","x: 169.71163940429688
y: 304.1416015625
z: -0.4550396502017975
visibility: 0.9997018575668335
","x: 171.30931091308594
y: 303.9449462890625
z: -0.4550672173500061
visibility: 0.9997298717498779
","x: 172.91098022460938
y: 303.9725036621094
z: -0.45511627197265625
visibility: 0.9997251629829407
","x: 165.97303771972656
y: 305.5521240234375
z: -0.4525357186794281
visibility: 0.9995809197425842
","x: 164.79396057128906
y: 304.4546203613281
z: -0.4526250958442688
visibility: 0.9994586110115051
","x: 163.55157470703125
y: 303.6809387207031
z: -0.452627569437027
visibility: 0.9994024634361267
","x: 176.19064331054688
y: 305.2724914550781
z: -0.3595959544181824
visibility: 0.99973064661026
","x: 161.97764587402344
y: 303.64715576171875
z: -0.34738829731941223
visibility: 0.9987800121307373
","x: 170.87124633789062
y: 319.73553466796875
z: -0.426812082529068
visibility: 0.9998723864555359
","x: 166.55250549316406
y: 319.983154296875
z: -0.4234556257724762
visibility: 0.9997098445892334
","x: 190.33042907714844
y: 333.52276611328125
z: -0.2764134109020233
visibility: 0.9999681711196899
","x: 149.85548400878906
y: 334.41973876953125
z: -0.2591964602470398
visibility: 0.9998872876167297
","x: 207.54428100585938
y: 363.9665222167969
z: -0.3336714804172516
visibility: 0.9663771390914917
","x: 131.8225555419922
y: 372.57366943359375
z: -0.36914849281311035
visibility: 0.9268124103546143
","x: 230.1013946533203
y: 367.0016784667969
z: -0.4899047017097473
visibility: 0.9558280110359192
","x: 115.44035339355469
y: 367.8854675292969
z: -0.5889507532119751
visibility: 0.921377420425415
","x: 238.558837890625
y: 362.50390625
z: -0.526334285736084
visibility: 0.9302900433540344
","x: 110.36308288574219
y: 357.6429748535156
z: -0.6319912075996399
visibility: 0.8872113823890686
","x: 240.65806579589844
y: 358.3944091796875
z: -0.536025881767273
visibility: 0.9343904852867126
","x: 110.8136978149414
y: 356.3095397949219
z: -0.6401007771492004
visibility: 0.8890879154205322
","x: 237.1368865966797
y: 361.540283203125
z: -0.4982007145881653
visibility: 0.9168399572372437
","x: 112.81633758544922
y: 358.8751525878906
z: -0.5991562604904175
visibility: 0.8722577095031738
","x: 184.99545288085938
y: 407.9603271484375
z: -0.005159991793334484
visibility: 0.9998723268508911
","x: 163.09295654296875
y: 411.321533203125
z: 0.005005425773561001
visibility: 0.9998485445976257
","x: 195.05712890625
y: 469.0457458496094
z: 0.03464483097195625
visibility: 0.994803786277771
","x: 163.56082153320312
y: 466.318115234375
z: 0.014452757313847542
visibility: 0.9945840239524841
","x: 207.1494598388672
y: 508.9598083496094
z: 0.28287380933761597
visibility: 0.9952066540718079
","x: 167.95826721191406
y: 518.818115234375
z: 0.2637163996696472
visibility: 0.9961543679237366
","x: 204.26998901367188
y: 512.193115234375
z: 0.3014955222606659
visibility: 0.9409275650978088
","x: 168.3633270263672
y: 524.8817138671875
z: 0.2838720679283142
visibility: 0.9519743323326111
","x: 211.30636596679688
y: 532.7001342773438
z: 0.18999925255775452
visibility: 0.9914469122886658
","x: 164.3653106689453
y: 540.5054321289062
z: 0.1731257140636444
visibility: 0.9928863048553467
",,,,,,,,,,,,,,,,,,,,,,,,,,,,,,,,,,,,,,,,,,
27,"x: 166.70138549804688
y: 311.48291015625
z: -0.4372848570346832
visibility: 0.9998772740364075
","x: 168.6367950439453
y: 301.4410705566406
z: -0.4304352402687073
visibility: 0.9997272491455078
","x: 170.12197875976562
y: 301.149658203125
z: -0.43062958121299744
visibility: 0.9997531771659851
","x: 171.50384521484375
y: 301.02239990234375
z: -0.431109756231308
visibility: 0.9997475147247314
","x: 164.451171875
y: 302.4430236816406
z: -0.4344852864742279
visibility: 0.9996158480644226
","x: 163.14935302734375
y: 301.67852783203125
z: -0.4344554841518402
visibility: 0.9995064735412598
","x: 161.8285675048828
y: 301.1837158203125
z: -0.4343513548374176
visibility: 0.9994527101516724
","x: 173.33609008789062
y: 302.3609619140625
z: -0.3010401129722595
visibility: 0.999753475189209
","x: 159.4227294921875
y: 301.8948974609375
z: -0.31901782751083374
visibility: 0.9988940954208374
","x: 169.1931610107422
y: 317.3815612792969
z: -0.4259743094444275
visibility: 0.9998831748962402
","x: 164.5983428955078
y: 317.2972412109375
z: -0.3899576961994171
visibility: 0.999735951423645
","x: 186.2056427001953
y: 332.443603515625
z: -0.23673172295093536
visibility: 0.9999697208404541
","x: 147.1366729736328
y: 335.02447509765625
z: -0.23777107894420624
visibility: 0.9998860359191895
","x: 203.33721923828125
y: 361.6320495605469
z: -0.2683079242706299
visibility: 0.9689419269561768
","x: 130.1959686279297
y: 370.3502197265625
z: -0.2764896750450134
visibility: 0.9325061440467834
","x: 226.1707763671875
y: 367.7607421875
z: -0.41005373001098633
visibility: 0.959342360496521
","x: 111.24842834472656
y: 372.92706298828125
z: -0.4415687918663025
visibility: 0.9266690611839294
","x: 232.4996795654297
y: 363.151123046875
z: -0.43952813744544983
visibility: 0.9356459379196167
","x: 105.31352996826172
y: 370.1988525390625
z: -0.4717743396759033
visibility: 0.8941439986228943
","x: 233.73318481445312
y: 358.76763916015625
z: -0.4620988368988037
visibility: 0.9396014213562012
","x: 104.4441146850586
y: 366.00506591796875
z: -0.4925815165042877
visibility: 0.896105945110321
","x: 231.2335968017578
y: 362.4921875
z: -0.4233868718147278
visibility: 0.9234058260917664
","x: 106.63391876220703
y: 367.1560974121094
z: -0.45528513193130493
visibility: 0.8798428177833557
","x: 184.11260986328125
y: 408.60528564453125
z: -0.004859304521232843
visibility: 0.999850332736969
","x: 161.4727020263672
y: 414.5919494628906
z: 0.0047280737198889256
visibility: 0.9998239874839783
","x: 198.50001525878906
y: 466.9261474609375
z: -0.26865291595458984
visibility: 0.9947835206985474
","x: 151.3626708984375
y: 470.9783630371094
z: -0.26549357175827026
visibility: 0.9947714805603027
","x: 198.83822631835938
y: 507.6567077636719
z: -0.022443218156695366
visibility: 0.9949162006378174
","x: 168.02001953125
y: 517.83056640625
z: -0.015649523586034775
visibility: 0.9958652257919312
","x: 195.6296844482422
y: 511.9095153808594
z: -0.0038736294955015182
visibility: 0.9404797554016113
","x: 172.13084411621094
y: 522.547119140625
z: 0.0038951090537011623
visibility: 0.9522923827171326
