uscmakers/ReverseChoreography/data/6_tik_tok_kesha.csv
,NOSE,LEFT_EYE_INNER,LEFT_EYE,LEFT_EYE_OUTER,RIGHT_EYE_INNER,RIGHT_EYE,RIGHT_EYE_OUTER,LEFT_EAR,RIGHT_EAR,MOUTH_LEFT,MOUTH_RIGHT,LEFT_SHOULDER,RIGHT_SHOULDER,LEFT_ELBOW,RIGHT_ELBOW,LEFT_WRIST,RIGHT_WRIST,LEFT_PINKY,RIGHT_PINKY,LEFT_INDEX,RIGHT_INDEX,LEFT_THUMB,RIGHT_THUMB,LEFT_HIP,RIGHT_HIP,LEFT_KNEE,RIGHT_KNEE,LEFT_ANKLE,RIGHT_ANKLE,LEFT_HEEL,RIGHT_HEEL,LEFT_FOOT_INDEX,RIGHT_FOOT_INDEX,WRIST2,THUMB_CPC2,THUMB_MCP2,THUMB_IP2,THUMB_TIP2,INDEX_FINGER_MCP2,INDEX_FINGER_PIP2,INDEX_FINGER_DIP2,INDEX_FINGER_TIP2,MIDDLE_FINGER_MCP2,MIDDLE_FINGER_PIP2,MIDDLE_FINGER_DIP2,MIDDLE_FINGER_TIP2,RING_FINGER_PIP2,RING_FINGER_DIP2,RING_FINGER_TIP2,RING_FINGER_MCP2,PINKY_MCP2,PINKY_PIP2,PINKY_DIP2,PINKY_TIP2,WRIST,THUMB_CPC,THUMB_MCP,THUMB_IP,THUMB_TIP,INDEX_FINGER_MCP,INDEX_FINGER_PIP,INDEX_FINGER_DIP,INDEX_FINGER_TIP,MIDDLE_FINGER_MCP,MIDDLE_FINGER_PIP,MIDDLE_FINGER_DIP,MIDDLE_FINGER_TIP,RING_FINGER_PIP,RING_FINGER_DIP,RING_FINGER_TIP,RING_FINGER_MCP,PINKY_MCP,PINKY_PIP,PINKY_DIP,PINKY_TIP
0,"x: 178.30776977539062
y: 281.4000244140625
z: -0.35009387135505676
visibility: 0.9999949932098389
","x: 179.90054321289062
y: 274.98638916015625
z: -0.3369368314743042
visibility: 0.9999825954437256
","x: 181.17916870117188
y: 274.6737060546875
z: -0.33692196011543274
visibility: 0.9999817609786987
","x: 182.46726989746094
y: 274.3161926269531
z: -0.3369343876838684
visibility: 0.9999767541885376
","x: 176.1847686767578
y: 275.75848388671875
z: -0.33725062012672424
visibility: 0.9999880790710449
","x: 174.88204956054688
y: 276.0769958496094
z: -0.3372894823551178
visibility: 0.9999877214431763
","x: 173.5427703857422
y: 276.3843994140625
z: -0.3372889459133148
visibility: 0.9999856948852539
","x: 183.9767303466797
y: 277.038330078125
z: -0.2380981147289276
visibility: 0.9999632835388184
","x: 171.2281494140625
y: 278.8894348144531
z: -0.24021323025226593
visibility: 0.9999889135360718
","x: 180.6410675048828
y: 287.11865234375
z: -0.31156983971595764
visibility: 0.9999815225601196
","x: 176.1193389892578
y: 288.47161865234375
z: -0.31228014826774597
visibility: 0.9999892711639404
","x: 193.80801391601562
y: 304.7225646972656
z: -0.1936650574207306
visibility: 0.9999377727508545
","x: 161.34938049316406
y: 311.9363098144531
z: -0.15703123807907104
visibility: 0.9999210834503174
","x: 208.18492126464844
y: 273.30859375
z: -0.3224546015262604
visibility: 0.9989262223243713
","x: 151.46014404296875
y: 353.0941467285156
z: -0.1694122701883316
visibility: 0.9234063029289246
","x: 199.4962921142578
y: 233.3895263671875
z: -0.46238642930984497
visibility: 0.9953513145446777
","x: 142.5060272216797
y: 394.5137023925781
z: -0.2698194086551666
visibility: 0.7805947065353394
","x: 195.02146911621094
y: 218.6866912841797
z: -0.5051935911178589
visibility: 0.977758526802063
","x: 141.56214904785156
y: 407.3591613769531
z: -0.29513588547706604
visibility: 0.6749403476715088
","x: 192.59425354003906
y: 218.2806396484375
z: -0.5008233189582825
visibility: 0.9749176502227783
","x: 141.56271362304688
y: 407.9936218261719
z: -0.31819063425064087
visibility: 0.6793380975723267
","x: 193.1318359375
y: 222.61752319335938
z: -0.4666432738304138
visibility: 0.9682755470275879
","x: 143.882568359375
y: 403.84588623046875
z: -0.2822972536087036
visibility: 0.653502345085144
","x: 185.97027587890625
y: 402.6771240234375
z: -0.001321739167906344
visibility: 0.9999622106552124
","x: 164.02987670898438
y: 401.94189453125
z: 0.001115030492655933
visibility: 0.9999613761901855
","x: 194.33322143554688
y: 465.4000244140625
z: 0.015509861521422863
visibility: 0.995681643486023
","x: 156.44305419921875
y: 463.7080383300781
z: -0.00966938678175211
visibility: 0.9976722598075867
","x: 202.7473907470703
y: 522.5435791015625
z: 0.2076336145401001
visibility: 0.9932181239128113
","x: 148.36178588867188
y: 517.8228149414062
z: 0.1781267374753952
visibility: 0.9975342750549316
","x: 200.77981567382812
y: 531.7317504882812
z: 0.2206975668668747
visibility: 0.942552387714386
","x: 151.19007873535156
y: 525.8147583007812
z: 0.19076542556285858
visibility: 0.9484860897064209
","x: 210.06761169433594
y: 543.0142822265625
z: 0.11807314306497574
visibility: 0.9890069961547852
","x: 140.23768615722656
y: 536.650390625
z: 0.08060140907764435
visibility: 0.9948257803916931
",,,,,,,,,,,,,,,,,,,,,,,,,,,,,,,,,,,,,,,,,,
1,"x: 178.43023681640625
y: 281.2928161621094
z: -0.2833249568939209
visibility: 0.999990701675415
","x: 180.34580993652344
y: 274.98681640625
z: -0.2709720730781555
visibility: 0.9999673366546631
","x: 181.65399169921875
y: 274.720458984375
z: -0.2709594666957855
visibility: 0.9999663233757019
","x: 182.87046813964844
y: 274.49566650390625
z: -0.2709500193595886
visibility: 0.9999576210975647
","x: 176.5575408935547
y: 275.6891174316406
z: -0.2704017460346222
visibility: 0.9999772906303406
","x: 175.2686004638672
y: 276.00762939453125
z: -0.27042216062545776
visibility: 0.9999769330024719
","x: 173.9504852294922
y: 276.33038330078125
z: -0.27040737867355347
visibility: 0.9999732971191406
","x: 184.54864501953125
y: 277.2878723144531
z: -0.17897041141986847
visibility: 0.9999278783798218
","x: 171.71441650390625
y: 278.86724853515625
z: -0.17729200422763824
visibility: 0.999971866607666
","x: 181.01773071289062
y: 287.07623291015625
z: -0.24771615862846375
visibility: 0.9999664425849915
","x: 176.25656127929688
y: 288.3275146484375
z: -0.24732491374015808
visibility: 0.999979555606842
","x: 194.44235229492188
y: 303.7213134765625
z: -0.14543700218200684
visibility: 0.999931812286377
","x: 161.94638061523438
y: 312.1685485839844
z: -0.10160453617572784
visibility: 0.9999134540557861
","x: 208.72393798828125
y: 273.50115966796875
z: -0.2572389245033264
visibility: 0.9988420605659485
","x: 151.46424865722656
y: 351.0101013183594
z: -0.11501318216323853
visibility: 0.9206134676933289
","x: 201.0455322265625
y: 234.00491333007812
z: -0.3792242407798767
visibility: 0.9951047301292419
","x: 144.75701904296875
y: 394.5143127441406
z: -0.2183268815279007
visibility: 0.775281548500061
","x: 196.9129180908203
y: 219.1885223388672
z: -0.42001914978027344
visibility: 0.976802408695221
","x: 141.5667266845703
y: 407.56854248046875
z: -0.24324309825897217
visibility: 0.6695581078529358
","x: 194.5204620361328
y: 218.60797119140625
z: -0.4151364266872406
visibility: 0.9738738536834717
","x: 142.07859802246094
y: 408.4092712402344
z: -0.26662304997444153
visibility: 0.6746795773506165
","x: 195.46633911132812
y: 223.5089874267578
z: -0.38303330540657043
visibility: 0.9675061702728271
","x: 144.10540771484375
y: 404.0871887207031
z: -0.2310543954372406
visibility: 0.6505845189094543
","x: 186.60325622558594
y: 402.7701416015625
z: -0.0021974968258291483
visibility: 0.999957799911499
","x: 164.53871154785156
y: 402.2430419921875
z: 0.002023745561018586
visibility: 0.9999575018882751
","x: 194.44859313964844
y: 465.1577453613281
z: 0.01559457741677761
visibility: 0.9955765604972839
","x: 156.94232177734375
y: 464.34954833984375
z: 0.001234065624885261
visibility: 0.9974858164787292
","x: 202.72750854492188
y: 522.6221923828125
z: 0.1721266359090805
visibility: 0.9929057359695435
","x: 148.55197143554688
y: 517.531005859375
z: 0.15862663090229034
visibility: 0.9972138404846191
","x: 200.7427215576172
y: 531.7432250976562
z: 0.18199077248573303
visibility: 0.9396427273750305
","x: 151.18600463867188
y: 524.8462524414062
z: 0.16781994700431824
visibility: 0.9459051489830017
","x: 210.05154418945312
y: 544.4939575195312
z: 0.07853255420923233
visibility: 0.9886779189109802
","x: 140.23779296875
y: 537.58447265625
z: 0.060292281210422516
visibility: 0.9942581653594971
",,,,,,,,,,,,,,,,,,,,,,,,,,,,,,,,,,,,,,,,,,
2,"x: 178.28221130371094
y: 281.1188049316406
z: -0.26074573397636414
visibility: 0.9999863505363464
","x: 180.3616485595703
y: 274.9904479980469
z: -0.24824924767017365
visibility: 0.9999520182609558
","x: 181.69151306152344
y: 274.76708984375
z: -0.24824075400829315
visibility: 0.999950647354126
","x: 182.91867065429688
y: 274.62640380859375
z: -0.24822187423706055
visibility: 0.999937891960144
","x: 176.57562255859375
y: 275.65106201171875
z: -0.24683471024036407
visibility: 0.9999669790267944
","x: 175.29837036132812
y: 275.9569396972656
z: -0.24685588479042053
visibility: 0.9999667406082153
","x: 173.9961700439453
y: 276.26531982421875
z: -0.2468472421169281
visibility: 0.9999614953994751
","x: 184.76612854003906
y: 277.46575927734375
z: -0.15824760496616364
visibility: 0.9998906850814819
","x: 172.08392333984375
y: 278.7095947265625
z: -0.1528458148241043
visibility: 0.9999551177024841
","x: 181.0047607421875
y: 286.8507080078125
z: -0.22626617550849915
visibility: 0.9999508857727051
","x: 176.0991973876953
y: 287.8729553222656
z: -0.22481676936149597
visibility: 0.9999698400497437
","x: 194.88787841796875
y: 302.7269287109375
z: -0.12891750037670135
visibility: 0.9999234080314636
","x: 162.25531005859375
y: 312.15185546875
z: -0.07943172752857208
visibility: 0.9999067783355713
","x: 209.09744262695312
y: 273.65155029296875
z: -0.24935908615589142
visibility: 0.9987794160842896
","x: 151.40447998046875
y: 349.4543762207031
z: -0.10131988674402237
visibility: 0.9180943369865417
","x: 201.33238220214844
y: 235.26548767089844
z: -0.37418311834335327
visibility: 0.9949684739112854
","x: 145.9486083984375
y: 394.2828063964844
z: -0.21832995116710663
visibility: 0.7766435742378235
","x: 197.02427673339844
y: 220.30844116210938
z: -0.4143950343132019
visibility: 0.9763239622116089
","x: 141.65185546875
y: 407.61468505859375
z: -0.24398191273212433
visibility: 0.6726046800613403
","x: 194.6620330810547
y: 219.91607666015625
z: -0.407848984003067
visibility: 0.9733300805091858
","x: 142.14244079589844
y: 408.4131164550781
z: -0.2664870321750641
visibility: 0.6782233715057373
","x: 195.71456909179688
y: 225.29014587402344
z: -0.3771213889122009
visibility: 0.96719890832901
","x: 144.55511474609375
y: 404.08673095703125
z: -0.23090052604675293
visibility: 0.6554487943649292
","x: 186.9217529296875
y: 402.8139953613281
z: -0.0034658510703593493
visibility: 0.9999526143074036
","x: 164.84286499023438
y: 402.3907775878906
z: 0.0033099125139415264
visibility: 0.9999532103538513
","x: 194.43397521972656
y: 464.4964599609375
z: 0.015582738444209099
visibility: 0.9954755902290344
","x: 157.14974975585938
y: 464.8266296386719
z: 0.0019173405598849058
visibility: 0.9973112344741821
","x: 202.7281036376953
y: 522.8204956054688
z: 0.15855899453163147
visibility: 0.9926058650016785
","x: 148.74827575683594
y: 517.5402221679688
z: 0.1437336504459381
visibility: 0.9969264268875122
","x: 200.74581909179688
y: 532.010009765625
z: 0.16729959845542908
visibility: 0.9367929100990295
","x: 151.18655395507812
y: 524.7374877929688
z: 0.15161889791488647
visibility: 0.9435917735099792
","x: 210.0500946044922
y: 545.1941528320312
z: 0.06510467827320099
visibility: 0.9883403778076172
","x: 140.19540405273438
y: 538.5547485351562
z: 0.045461393892765045
visibility: 0.9937388300895691
",,,,,,,,,,,,,,,,,,,,,,,,,,,,,,,,,,,,,,,,,,
3,"x: 178.27593994140625
y: 280.8880310058594
z: -0.26621213555336
visibility: 0.9999837875366211
","x: 180.57691955566406
y: 274.96929931640625
z: -0.2532517910003662
visibility: 0.9999433159828186
","x: 181.94253540039062
y: 274.77032470703125
z: -0.25324225425720215
visibility: 0.9999416470527649
","x: 183.16481018066406
y: 274.68341064453125
z: -0.2532264292240143
visibility: 0.9999265670776367
","x: 176.67941284179688
y: 275.4835205078125
z: -0.25256457924842834
visibility: 0.9999610185623169
","x: 175.36949157714844
y: 275.7572021484375
z: -0.2525923550128937
visibility: 0.9999609589576721
","x: 174.0433349609375
y: 276.0370178222656
z: -0.25258320569992065
visibility: 0.9999548196792603
","x: 185.0634765625
y: 277.67431640625
z: -0.16175618767738342
visibility: 0.999868631362915
","x: 172.13919067382812
y: 278.41851806640625
z: -0.15996545553207397
visibility: 0.9999456405639648
","x: 181.00779724121094
y: 286.75848388671875
z: -0.2312397062778473
visibility: 0.9999412894248962
","x: 175.9739990234375
y: 287.580322265625
z: -0.23081934452056885
visibility: 0.9999638199806213
","x: 195.04116821289062
y: 302.60247802734375
z: -0.13240692019462585
visibility: 0.999916672706604
","x: 162.3477325439453
y: 312.150146484375
z: -0.0866861343383789
visibility: 0.9999009370803833
","x: 209.35414123535156
y: 274.3711242675781
z: -0.2533667981624603
visibility: 0.9987135529518127
","x: 151.30007934570312
y: 349.605224609375
z: -0.10908393561840057
visibility: 0.9153926372528076
","x: 201.39666748046875
y: 236.01080322265625
z: -0.3780106008052826
visibility: 0.9947546720504761
","x: 146.35069274902344
y: 394.7561340332031
z: -0.22310790419578552
visibility: 0.7749212384223938
","x: 196.96499633789062
y: 220.92660522460938
z: -0.4179902672767639
visibility: 0.9754436016082764
","x: 141.36415100097656
y: 408.51116943359375
z: -0.24860629439353943
visibility: 0.6715371012687683
","x: 194.68821716308594
y: 220.59365844726562
z: -0.4106469750404358
visibility: 0.9723398089408875
","x: 142.26708984375
y: 409.173583984375
z: -0.2710215449333191
visibility: 0.6776975393295288
","x: 195.7484130859375
y: 226.04917907714844
z: -0.38063323497772217
visibility: 0.9663854837417603
","x: 144.849609375
y: 405.181640625
z: -0.23564977943897247
visibility: 0.656375527381897
","x: 187.303955078125
y: 402.83978271484375
z: -0.003544190200045705
visibility: 0.9999482035636902
","x: 165.09097290039062
y: 402.5992431640625
z: 0.0033874488435685635
visibility: 0.9999493956565857
","x: 194.3787384033203
y: 464.3524169921875
z: 0.018044838681817055
visibility: 0.9953283667564392
","x: 157.35231018066406
y: 465.774169921875
z: 0.0011604626197367907
visibility: 0.9970961809158325
","x: 202.74203491210938
y: 523.0068359375
z: 0.16759957373142242
visibility: 0.9922679662704468
","x: 148.99888610839844
y: 517.4885864257812
z: 0.1443553864955902
visibility: 0.9966168403625488
","x: 200.7806396484375
y: 532.0797119140625
z: 0.17724646627902985
visibility: 0.9337448477745056
","x: 151.3379364013672
y: 524.306640625
z: 0.15283462405204773
visibility: 0.9405880570411682
","x: 210.1165771484375
y: 545.5639038085938
z: 0.07607937604188919
visibility: 0.9879180192947388
","x: 140.19332885742188
y: 538.8762817382812
z: 0.04609574377536774
visibility: 0.9931516647338867
",,,,,,,,,,,,,,,,,,,,,,,,,,,,,,,,,,,,,,,,,,
4,"x: 177.7683563232422
y: 280.8938293457031
z: -0.2815537750720978
visibility: 0.9999790787696838
","x: 180.45606994628906
y: 275.1648254394531
z: -0.2695671319961548
visibility: 0.9999241232872009
","x: 181.8699493408203
y: 275.0859375
z: -0.2695457935333252
visibility: 0.9999224543571472
","x: 183.1241912841797
y: 275.114990234375
z: -0.26952436566352844
visibility: 0.9999019503593445
","x: 176.52757263183594
y: 275.5709533691406
z: -0.26800820231437683
visibility: 0.9999491572380066
","x: 175.2091827392578
y: 275.83209228515625
z: -0.26804119348526
visibility: 0.9999503493309021
","x: 173.89476013183594
y: 276.091796875
z: -0.2680407166481018
visibility: 0.9999432563781738
","x: 185.05636596679688
y: 278.18634033203125
z: -0.17989006638526917
visibility: 0.9998136162757874
","x: 172.13824462890625
y: 278.42559814453125
z: -0.17403295636177063
visibility: 0.9999285340309143
","x: 180.7123565673828
y: 286.775146484375
z: -0.24708013236522675
visibility: 0.9999176263809204
","x: 175.3024139404297
y: 287.56982421875
z: -0.2453833520412445
visibility: 0.99994957447052
","x: 195.1121063232422
y: 302.5184326171875
z: -0.1466449648141861
visibility: 0.9999009966850281
","x: 162.6670684814453
y: 312.5055236816406
z: -0.09702941030263901
visibility: 0.9998946785926819
","x: 209.5548553466797
y: 274.2806701660156
z: -0.2666107714176178
visibility: 0.9986326694488525
","x: 151.43064880371094
y: 349.8824768066406
z: -0.10343579947948456
visibility: 0.915542721748352
","x: 201.29885864257812
y: 236.1585235595703
z: -0.39124050736427307
visibility: 0.994349479675293
","x: 148.02423095703125
y: 396.47039794921875
z: -0.19591408967971802
visibility: 0.7798368334770203
","x: 196.7061767578125
y: 222.29159545898438
z: -0.43093690276145935
visibility: 0.9737651348114014
","x: 143.21986389160156
y: 410.729736328125
z: -0.2178870141506195
visibility: 0.6767722368240356
","x: 194.5491485595703
y: 222.45297241210938
z: -0.42253580689430237
visibility: 0.9704261422157288
","x: 143.98446655273438
y: 411.6336669921875
z: -0.2400335967540741
visibility: 0.6830384731292725
","x: 195.65052795410156
y: 227.8109588623047
z: -0.3934672772884369
visibility: 0.9645437002182007
","x: 146.325927734375
y: 407.54766845703125
z: -0.2073477804660797
visibility: 0.662253201007843
","x: 187.99620056152344
y: 402.51593017578125
z: -0.007143452763557434
visibility: 0.9999396800994873
","x: 165.98313903808594
y: 402.3268127441406
z: 0.0069738589227199554
visibility: 0.9999428391456604
","x: 194.3810577392578
y: 464.34649658203125
z: 0.01505861897021532
visibility: 0.9950467348098755
","x: 157.79991149902344
y: 465.1372985839844
z: 0.00975478533655405
visibility: 0.9968241453170776
","x: 202.79270935058594
y: 523.0133666992188
z: 0.15426865220069885
visibility: 0.9919003844261169
","x: 149.28843688964844
y: 517.1135864257812
z: 0.15123316645622253
visibility: 0.9963000416755676
","x: 200.83740234375
y: 532.0765991210938
z: 0.16290445625782013
visibility: 0.9305829405784607
","x: 151.3892822265625
y: 524.0630493164062
z: 0.1603786051273346
visibility: 0.9381922483444214
","x: 210.1429443359375
y: 545.5711669921875
z: 0.0612519197165966
visibility: 0.9873785972595215
","x: 140.5919189453125
y: 538.9055786132812
z: 0.05378051847219467
visibility: 0.9925761222839355
",,,,,,,,,,,,,,,,,,,,,,,,,,,,,,,,,,,,,,,,,,
5,"x: 177.8290557861328
y: 280.8944091796875
z: -0.2804095149040222
visibility: 0.9999726414680481
","x: 180.63064575195312
y: 275.2803649902344
z: -0.26852092146873474
visibility: 0.9999069571495056
","x: 182.0500030517578
y: 275.2721862792969
z: -0.2685035467147827
visibility: 0.999904453754425
","x: 183.29661560058594
y: 275.3626708984375
z: -0.2684955894947052
visibility: 0.9998823404312134
","x: 176.64060974121094
y: 275.5997314453125
z: -0.2669254243373871
visibility: 0.9999362826347351
","x: 175.30706787109375
y: 275.8498229980469
z: -0.26695314049720764
visibility: 0.9999369978904724
","x: 173.97332763671875
y: 276.09857177734375
z: -0.26694124937057495
visibility: 0.9999286532402039
","x: 185.35768127441406
y: 278.454833984375
z: -0.1788736879825592
visibility: 0.9997799396514893
","x: 172.27069091796875
y: 278.42327880859375
z: -0.1726454198360443
visibility: 0.9999051094055176
","x: 180.9060516357422
y: 286.746337890625
z: -0.24581268429756165
visibility: 0.9998959302902222
","x: 175.3425750732422
y: 287.52099609375
z: -0.24411126971244812
visibility: 0.9999330639839172
","x: 195.3486785888672
y: 302.27093505859375
z: -0.14899678528308868
visibility: 0.9998854398727417
","x: 162.82298278808594
y: 312.5351257324219
z: -0.09639900177717209
visibility: 0.9998706579208374
","x: 209.61605834960938
y: 273.7746887207031
z: -0.27138787508010864
visibility: 0.9985588788986206
","x: 151.41261291503906
y: 347.93463134765625
z: -0.11748071759939194
visibility: 0.9100239276885986
","x: 200.73826599121094
y: 236.0941925048828
z: -0.3925277292728424
visibility: 0.9940534234046936
","x: 149.88735961914062
y: 390.4206848144531
z: -0.2415037453174591
visibility: 0.7748345136642456
","x: 195.7078399658203
y: 223.19749450683594
z: -0.43294066190719604
visibility: 0.9727040529251099
","x: 145.9337158203125
y: 402.142333984375
z: -0.26917460560798645
visibility: 0.6731455326080322
","x: 193.59080505371094
y: 223.79966735839844
z: -0.4244418740272522
visibility: 0.9692014455795288
","x: 146.3757781982422
y: 408.6387634277344
z: -0.28799402713775635
visibility: 0.6798084378242493
","x: 194.8473663330078
y: 228.49978637695312
z: -0.39449742436408997
visibility: 0.9632941484451294
","x: 149.03013610839844
y: 400.95745849609375
z: -0.2531251609325409
visibility: 0.6595694422721863
","x: 188.298828125
y: 402.47552490234375
z: -0.007461018860340118
visibility: 0.9999325275421143
","x: 166.2535400390625
y: 402.32537841796875
z: 0.007295223418623209
visibility: 0.999935507774353
","x: 194.3792724609375
y: 463.7982482910156
z: 0.014670638367533684
visibility: 0.9950405359268188
","x: 157.91343688964844
y: 465.4111022949219
z: 0.011969873681664467
visibility: 0.9967012405395508
","x: 202.79217529296875
y: 522.9813232421875
z: 0.15454664826393127
visibility: 0.9917992949485779
","x: 149.29104614257812
y: 517.1064453125
z: 0.15258847177028656
visibility: 0.996134340763092
","x: 200.83790588378906
y: 532.0596923828125
z: 0.16307857632637024
visibility: 0.9286723732948303
","x: 151.4119110107422
y: 523.9826049804688
z: 0.16126766800880432
visibility: 0.9369379281997681
","x: 209.9984893798828
y: 545.5230102539062
z: 0.05942213535308838
visibility: 0.9872228503227234
","x: 140.621826171875
y: 539.3330078125
z: 0.055343322455883026
visibility: 0.9922614693641663
",,,,,,,,,,,,,,,,,,,,,,,,,,,,,,,,,,,,,,,,,,
6,"x: 178.97116088867188
y: 280.69586181640625
z: -0.253118097782135
visibility: 0.9999653100967407
","x: 181.6859130859375
y: 275.24346923828125
z: -0.23983760178089142
visibility: 0.9998942613601685
","x: 182.9635772705078
y: 275.263671875
z: -0.23982539772987366
visibility: 0.9998894929885864
","x: 184.1138153076172
y: 275.36053466796875
z: -0.23984308540821075
visibility: 0.9998689889907837
","x: 177.68682861328125
y: 275.4613952636719
z: -0.23930907249450684
visibility: 0.999923586845398
","x: 176.23388671875
y: 275.6971130371094
z: -0.23933735489845276
visibility: 0.9999226331710815
","x: 174.7933807373047
y: 275.94512939453125
z: -0.239314004778862
visibility: 0.9999136328697205
","x: 186.06753540039062
y: 278.5461120605469
z: -0.14823970198631287
visibility: 0.9997667074203491
","x: 172.73365783691406
y: 278.4532470703125
z: -0.14819282293319702
visibility: 0.9998794198036194
","x: 181.89584350585938
y: 286.631591796875
z: -0.21820203959941864
visibility: 0.999877393245697
","x: 176.482177734375
y: 287.35479736328125
z: -0.21830372512340546
visibility: 0.9999133348464966
","x: 195.6370849609375
y: 302.30133056640625
z: -0.12166565656661987
visibility: 0.9998696446418762
","x: 162.94239807128906
y: 312.5332946777344
z: -0.08174361288547516
visibility: 0.9997942447662354
","x: 209.86904907226562
y: 273.429931640625
z: -0.21953114867210388
visibility: 0.9983035326004028
","x: 151.2234649658203
y: 343.83477783203125
z: -0.14326389133930206
visibility: 0.8996133804321289
","x: 199.7778778076172
y: 237.0198211669922
z: -0.3003309369087219
visibility: 0.9931361079216003
","x: 148.4330596923828
y: 356.345703125
z: -0.30374008417129517
visibility: 0.7656639814376831
","x: 194.16790771484375
y: 226.44891357421875
z: -0.33297044038772583
visibility: 0.9694532752037048
","x: 144.09242248535156
y: 359.6310119628906
z: -0.3362095355987549
visibility: 0.6658295392990112
","x: 192.02410888671875
y: 227.3091278076172
z: -0.3229317367076874
visibility: 0.9654813408851624
","x: 146.34490966796875
y: 358.3501892089844
z: -0.34778186678886414
visibility: 0.6725600957870483
","x: 193.24386596679688
y: 231.47315979003906
z: -0.30017223954200745
visibility: 0.9593849182128906
","x: 148.61065673828125
y: 357.46337890625
z: -0.31377238035202026
visibility: 0.653039813041687
","x: 188.6492919921875
y: 402.4595642089844
z: -0.004650433547794819
visibility: 0.9999268651008606
","x: 166.50413513183594
y: 402.5135803222656
z: 0.004515564069151878
visibility: 0.9999228119850159
","x: 195.21908569335938
y: 462.12646484375
z: 0.01827232912182808
visibility: 0.9950945377349854
","x: 158.00802612304688
y: 465.2969055175781
z: 0.022905131801962852
visibility: 0.9964847564697266
","x: 202.7928466796875
y: 522.902099609375
z: 0.16370859742164612
visibility: 0.9917489886283875
","x: 149.59121704101562
y: 515.6536254882812
z: 0.17740580439567566
visibility: 0.9959403276443481
","x: 200.7911376953125
y: 532.0575561523438
z: 0.173272505402565
visibility: 0.9261631369590759
","x: 151.57325744628906
y: 521.9451293945312
z: 0.18804970383644104
visibility: 0.9345896244049072
","x: 209.84153747558594
y: 545.4852905273438
z: 0.0707995817065239
visibility: 0.9870208501815796
","x: 140.68231201171875
y: 539.3101806640625
z: 0.08841483294963837
visibility: 0.991882860660553
",,,,,,,,,,,,,,,,,,,,,,,,,,,,,,,,,,,,,,,,,,
7,"x: 180.70143127441406
y: 280.6215515136719
z: -0.24608249962329865
visibility: 0.9999502897262573
","x: 183.42063903808594
y: 275.2764892578125
z: -0.2319430112838745
visibility: 0.9998380541801453
","x: 184.60153198242188
y: 275.4190673828125
z: -0.23192782700061798
visibility: 0.9998275637626648
","x: 185.753662109375
y: 275.6854248046875
z: -0.23192210495471954
visibility: 0.999801516532898
","x: 179.701171875
y: 275.342529296875
z: -0.2322464883327484
visibility: 0.9998874664306641
","x: 178.2913055419922
y: 275.5037841796875
z: -0.2322656363248825
visibility: 0.9998885989189148
","x: 176.88099670410156
y: 275.6671447753906
z: -0.23226115107536316
visibility: 0.9998797178268433
","x: 187.84832763671875
y: 279.7018127441406
z: -0.1425292193889618
visibility: 0.9996246099472046
","x: 174.61924743652344
y: 278.45037841796875
z: -0.1464482843875885
visibility: 0.9998153448104858
","x: 183.45059204101562
y: 286.866943359375
z: -0.21271303296089172
visibility: 0.9998048543930054
","x: 178.1535186767578
y: 287.3326416015625
z: -0.2138984203338623
visibility: 0.9998703598976135
","x: 196.01356506347656
y: 306.6945495605469
z: -0.11698262393474579
visibility: 0.9998407959938049
","x: 163.8992919921875
y: 312.5320129394531
z: -0.08075541257858276
visibility: 0.9997617602348328
","x: 211.47682189941406
y: 277.26678466796875
z: -0.19348041713237762
visibility: 0.9980936646461487
","x: 152.89398193359375
y: 344.5869445800781
z: -0.0997253879904747
visibility: 0.889937162399292
","x: 199.02442932128906
y: 245.40594482421875
z: -0.25393223762512207
visibility: 0.9919146299362183
","x: 151.61029052734375
y: 385.1172180175781
z: -0.18354551494121552
visibility: 0.7425753474235535
","x: 193.2508544921875
y: 236.68997192382812
z: -0.28243327140808105
visibility: 0.9637838006019592
","x: 148.59085083007812
y: 400.2142028808594
z: -0.20413994789123535
visibility: 0.6404686570167542
","x: 191.33651733398438
y: 237.6353759765625
z: -0.2717302143573761
visibility: 0.9589326977729797
","x: 150.6695556640625
y: 399.1189880371094
z: -0.22150126099586487
visibility: 0.6467714905738831
","x: 192.6431121826172
y: 241.86807250976562
z: -0.25302010774612427
visibility: 0.9523709416389465
","x: 151.53515625
y: 397.92950439453125
z: -0.19317220151424408
visibility: 0.6286826133728027
","x: 189.91400146484375
y: 403.37237548828125
z: -0.002794656902551651
visibility: 0.9999154806137085
","x: 167.54849243164062
y: 403.87689208984375
z: 0.0026662000454962254
visibility: 0.9999138712882996
","x: 197.56546020507812
y: 461.0966796875
z: 0.03363778442144394
visibility: 0.9946327805519104
","x: 158.08518981933594
y: 461.38690185546875
z: -0.008384558372199535
visibility: 0.996188759803772
","x: 202.8189697265625
y: 521.9881591796875
z: 0.17468814551830292
visibility: 0.9910910129547119
","x: 149.44412231445312
y: 515.6864013671875
z: 0.11431999504566193
visibility: 0.9956095814704895
","x: 200.7056427001953
y: 531.0419311523438
z: 0.183565154671669
visibility: 0.9211063385009766
","x: 151.353271484375
y: 522.0802001953125
z: 0.12138930708169937
visibility: 0.9306706786155701
","x: 209.81918334960938
y: 545.3551025390625
z: 0.08950504660606384
visibility: 0.985937237739563
","x: 140.72525024414062
y: 539.2824096679688
z: 0.018915003165602684
visibility: 0.9913278818130493
",,,,,,,,,,,,,,,,,,,,,,,,,,,,,,,,,,,,,,,,,,
8,"x: 181.74205017089844
y: 281.70294189453125
z: -0.2529589533805847
visibility: 0.9999487996101379
","x: 184.54576110839844
y: 276.76275634765625
z: -0.2467193603515625
visibility: 0.9998264312744141
","x: 185.7161865234375
y: 277.1595458984375
z: -0.24673083424568176
visibility: 0.9998159408569336
","x: 186.91673278808594
y: 277.640869140625
z: -0.24672217667102814
visibility: 0.9997872114181519
","x: 180.7628631591797
y: 276.1416320800781
z: -0.23453287780284882
visibility: 0.9998818635940552
","x: 179.29747009277344
y: 276.14215087890625
z: -0.23458388447761536
visibility: 0.9998844265937805
","x: 177.79132080078125
y: 276.18310546875
z: -0.23462626338005066
visibility: 0.9998763203620911
","x: 189.0734405517578
y: 281.9488830566406
z: -0.1602436602115631
visibility: 0.9995893239974976
","x: 175.0824737548828
y: 279.2358093261719
z: -0.16644379496574402
visibility: 0.9998164176940918
","x: 184.34933471679688
y: 289.0936584472656
z: -0.22368331253528595
visibility: 0.9998010396957397
","x: 178.9764404296875
y: 288.899169921875
z: -0.22276942431926727
visibility: 0.9998717904090881
","x: 197.23507690429688
y: 308.83367919921875
z: -0.1298486888408661
visibility: 0.9998403191566467
","x: 164.15493774414062
y: 313.6427001953125
z: -0.10117784887552261
visibility: 0.9997743368148804
","x: 214.61227416992188
y: 287.4388732910156
z: -0.22258934378623962
visibility: 0.9981057047843933
","x: 153.15272521972656
y: 348.7869873046875
z: -0.11299239099025726
visibility: 0.8973696827888489
","x: 206.0155029296875
y: 255.8108673095703
z: -0.3560419976711273
visibility: 0.9917675852775574
","x: 152.7066192626953
y: 401.82574462890625
z: -0.19967469573020935
visibility: 0.752403736114502
","x: 201.62261962890625
y: 247.8358612060547
z: -0.39504218101501465
visibility: 0.9628377556800842
","x: 151.08172607421875
y: 414.989501953125
z: -0.2213393747806549
visibility: 0.6471564769744873
","x: 199.90451049804688
y: 247.40553283691406
z: -0.38282838463783264
visibility: 0.9579145908355713
","x: 153.1404571533203
y: 413.6021423339844
z: -0.23943622410297394
visibility: 0.6533389687538147
","x: 200.99932861328125
y: 251.95989990234375
z: -0.35805901885032654
visibility: 0.9514766931533813
","x: 154.16041564941406
y: 410.3382568359375
z: -0.20917069911956787
visibility: 0.6350646615028381
","x: 191.92974853515625
y: 404.71923828125
z: -0.0023879441432654858
visibility: 0.9999072551727295
","x: 168.95260620117188
y: 404.69097900390625
z: 0.002264470560476184
visibility: 0.9999068379402161
","x: 200.06387329101562
y: 461.227783203125
z: -0.024591201916337013
visibility: 0.9944204092025757
","x: 158.4092559814453
y: 459.3780212402344
z: -0.04764659330248833
visibility: 0.9961047768592834
","x: 202.97320556640625
y: 521.9891357421875
z: 0.11343128979206085
visibility: 0.9907383322715759
","x: 149.12782287597656
y: 516.6267700195312
z: 0.0918879359960556
visibility: 0.9954635500907898
","x: 200.71311950683594
y: 531.0341796875
z: 0.1214563399553299
visibility: 0.9181885123252869
","x: 151.09246826171875
y: 523.6678466796875
z: 0.099690742790699
visibility: 0.9286943674087524
","x: 209.8052215576172
y: 545.3295288085938
z: 0.018445011228322983
visibility: 0.9856141209602356
","x: 140.72962951660156
y: 539.2298583984375
z: -0.00597649859264493
visibility: 0.991205096244812
",,,,,,,,,,,,,,,,,,,,,,,,,,,,,,,,,,,,,,,,,,
9,"x: 181.60653686523438
y: 282.362060546875
z: -0.2854478657245636
visibility: 0.9999457597732544
","x: 184.19996643066406
y: 277.1558837890625
z: -0.27355697751045227
visibility: 0.9998027086257935
","x: 185.3895263671875
y: 277.530029296875
z: -0.2735721468925476
visibility: 0.9997988939285278
","x: 186.62498474121094
y: 277.99688720703125
z: -0.2735896706581116
visibility: 0.9997655153274536
","x: 180.5552978515625
y: 276.5904541015625
z: -0.2700297236442566
visibility: 0.9998667240142822
","x: 179.10293579101562
y: 276.61700439453125
z: -0.2700493037700653
visibility: 0.9998704195022583
","x: 177.60018920898438
y: 276.7367248535156
z: -0.27006709575653076
visibility: 0.9998601078987122
","x: 188.702392578125
y: 282.03076171875
z: -0.18395555019378662
visibility: 0.9995351433753967
","x: 174.85670471191406
y: 279.9898681640625
z: -0.1840580403804779
visibility: 0.9998072385787964
","x: 184.0424346923828
y: 289.5727233886719
z: -0.2523688077926636
visibility: 0.9997774958610535
","x: 178.7244873046875
y: 289.19097900390625
z: -0.25163859128952026
visibility: 0.9998653531074524
","x: 197.1563720703125
y: 308.7635498046875
z: -0.154402494430542
visibility: 0.999841570854187
","x: 164.23561096191406
y: 314.63726806640625
z: -0.11200515925884247
visibility: 0.999784529209137
","x: 213.80825805664062
y: 284.9640197753906
z: -0.26075616478919983
visibility: 0.9978905916213989
","x: 155.190673828125
y: 353.5174255371094
z: -0.10100194066762924
visibility: 0.9013223648071289
","x: 216.3279266357422
y: 253.05154418945312
z: -0.4149203300476074
visibility: 0.9916643500328064
","x: 152.60458374023438
y: 402.7265625
z: -0.16279378533363342
visibility: 0.7544570565223694
","x: 220.34962463378906
y: 240.5174102783203
z: -0.4582008421421051
visibility: 0.9636931419372559
","x: 150.63406372070312
y: 416.626708984375
z: -0.18241991102695465
visibility: 0.6443115472793579
","x: 219.14039611816406
y: 240.32061767578125
z: -0.4672832489013672
visibility: 0.9592505693435669
","x: 152.0719451904297
y: 416.17132568359375
z: -0.20696409046649933
visibility: 0.6518344879150391
","x: 217.45867919921875
y: 245.63279724121094
z: -0.4263734817504883
visibility: 0.9531238675117493
","x: 153.09559631347656
y: 412.61334228515625
z: -0.17502793669700623
visibility: 0.6350250244140625
","x: 191.9903564453125
y: 404.6531677246094
z: -0.0040647974237799644
visibility: 0.9999055862426758
","x: 168.69166564941406
y: 404.54022216796875
z: 0.004006989300251007
visibility: 0.9999077916145325
","x: 200.07443237304688
y: 462.4835205078125
z: -0.03643188998103142
visibility: 0.9939649105072021
","x: 158.44131469726562
y: 456.5299072265625
z: -0.09011265635490417
visibility: 0.9961100220680237
","x: 203.49472045898438
y: 522.5107421875
z: 0.11283551156520844
visibility: 0.9903168678283691
","x: 149.11895751953125
y: 516.9129028320312
z: 0.06391222774982452
visibility: 0.9953768253326416
","x: 200.7738037109375
y: 531.6722412109375
z: 0.12103374302387238
visibility: 0.9123499989509583
","x: 151.1593780517578
y: 524.4705810546875
z: 0.07258378714323044
visibility: 0.9283649325370789
","x: 209.82272338867188
y: 545.3199462890625
z: 0.005335076712071896
visibility: 0.9850387573242188
","x: 140.9112548828125
y: 538.4942016601562
z: -0.042359352111816406
visibility: 0.9912694692611694
",,,,,,,,,,,,,,,,,,,,,,,,,,,,,,,,,,,,,,,,,,
10,"x: 179.1817169189453
y: 282.4403991699219
z: -0.3841889202594757
visibility: 0.9999439716339111
","x: 181.55076599121094
y: 277.43603515625
z: -0.3732270896434784
visibility: 0.9997867941856384
","x: 182.9755859375
y: 277.7391662597656
z: -0.3732061982154846
visibility: 0.9997854828834534
","x: 184.42840576171875
y: 278.1372985839844
z: -0.37323135137557983
visibility: 0.9997445940971375
","x: 177.48928833007812
y: 277.35296630859375
z: -0.372852623462677
visibility: 0.9998610019683838
","x: 176.0186004638672
y: 277.64605712890625
z: -0.3728935122489929
visibility: 0.9998665452003479
","x: 174.60211181640625
y: 278.02557373046875
z: -0.3729178011417389
visibility: 0.9998555183410645
","x: 186.8046112060547
y: 281.8442687988281
z: -0.2759517431259155
visibility: 0.999488115310669
","x: 172.69346618652344
y: 281.367431640625
z: -0.27558663487434387
visibility: 0.9998073577880859
","x: 181.89700317382812
y: 289.41241455078125
z: -0.34509652853012085
visibility: 0.999741792678833
","x: 176.48768615722656
y: 289.23565673828125
z: -0.34512537717819214
visibility: 0.9998570680618286
","x: 195.0442657470703
y: 308.29736328125
z: -0.2141907960176468
visibility: 0.9998360872268677
","x: 163.11207580566406
y: 315.4886169433594
z: -0.18480123579502106
visibility: 0.9997923374176025
","x: 209.25341796875
y: 269.2801513671875
z: -0.27326542139053345
visibility: 0.9977609515190125
","x: 153.08949279785156
y: 355.8254699707031
z: -0.17851009964942932
visibility: 0.9037627577781677
","x: 214.62908935546875
y: 234.66970825195312
z: -0.3953523635864258
visibility: 0.9918752908706665
","x: 149.24632263183594
y: 405.10784912109375
z: -0.2681156396865845
visibility: 0.7613645195960999
","x: 218.70883178710938
y: 219.89642333984375
z: -0.4347595274448395
visibility: 0.9652569890022278
","x: 148.51486206054688
y: 417.1065979003906
z: -0.29154881834983826
visibility: 0.6507924199104309
","x: 218.03118896484375
y: 217.242919921875
z: -0.4436820149421692
visibility: 0.961298942565918
","x: 149.31973266601562
y: 416.8573303222656
z: -0.31758564710617065
visibility: 0.6592022180557251
","x: 216.5113067626953
y: 222.62359619140625
z: -0.40527456998825073
visibility: 0.955622136592865
","x: 150.08982849121094
y: 413.31005859375
z: -0.28110501170158386
visibility: 0.6420238614082336
","x: 189.84423828125
y: 403.0842590332031
z: -0.0038532062899321318
visibility: 0.999904453754425
","x: 166.33847045898438
y: 403.15557861328125
z: 0.0037471954710781574
visibility: 0.9999088644981384
","x: 198.88827514648438
y: 462.32110595703125
z: -0.014495220966637135
visibility: 0.9939094185829163
","x: 157.85467529296875
y: 457.02264404296875
z: -0.04999447613954544
visibility: 0.9959565997123718
","x: 203.4785614013672
y: 522.493896484375
z: 0.13612625002861023
visibility: 0.9904071092605591
","x: 149.01956176757812
y: 516.9874267578125
z: 0.10465161502361298
visibility: 0.9953105449676514
","x: 200.7249755859375
y: 531.6840209960938
z: 0.14600582420825958
visibility: 0.912303626537323
","x: 151.14552307128906
y: 524.7872314453125
z: 0.11688639223575592
visibility: 0.9285115003585815
","x: 209.80384826660156
y: 545.306640625
z: 0.036155857145786285
visibility: 0.9850447177886963
","x: 141.2428436279297
y: 538.2576904296875
z: 0.0009988645324483514
visibility: 0.9913108944892883
",,,,,,,,,,,,,,,,,,,,,,,,,,,,,,,,,,,,,,,,,,
11,"x: 176.5807647705078
y: 285.1110534667969
z: -0.26145243644714355
visibility: 0.9998489022254944
","x: 179.19338989257812
y: 278.7506408691406
z: -0.25221017003059387
visibility: 0.9996090531349182
","x: 180.7477569580078
y: 278.72149658203125
z: -0.25219017267227173
visibility: 0.9995641112327576
","x: 182.34088134765625
y: 278.82720947265625
z: -0.2521861493587494
visibility: 0.9995099306106567
","x: 175.18557739257812
y: 279.2877502441406
z: -0.24679593741893768
visibility: 0.9997325539588928
","x: 173.94444274902344
y: 279.4779052734375
z: -0.2468309849500656
visibility: 0.9997215270996094
","x: 172.73648071289062
y: 279.6488037109375
z: -0.2468554675579071
visibility: 0.9997100830078125
","x: 185.1957550048828
y: 281.8234558105469
z: -0.17286542057991028
visibility: 0.999163806438446
","x: 171.69256591796875
y: 281.5050048828125
z: -0.14923764765262604
visibility: 0.9995254278182983
","x: 179.3228759765625
y: 291.5099182128906
z: -0.22954845428466797
visibility: 0.9993295669555664
","x: 174.28756713867188
y: 292.0287170410156
z: -0.2232036143541336
visibility: 0.9995493292808533
","x: 193.54408264160156
y: 306.84295654296875
z: -0.13854804635047913
visibility: 0.9996145367622375
","x: 163.3701629638672
y: 314.5106201171875
z: -0.11329744011163712
visibility: 0.9996342658996582
","x: 198.71104431152344
y: 255.714111328125
z: -0.19985279440879822
visibility: 0.9971075654029846
","x: 152.25567626953125
y: 345.8776550292969
z: -0.235728457570076
visibility: 0.9031941890716553
","x: 187.42160034179688
y: 221.56724548339844
z: -0.21964211761951447
visibility: 0.9911724328994751
","x: 159.73574829101562
y: 333.9915771484375
z: -0.4178929924964905
visibility: 0.7727029323577881
","x: 182.8003692626953
y: 215.30419921875
z: -0.24153831601142883
visibility: 0.9637566208839417
","x: 161.4590301513672
y: 331.54736328125
z: -0.45620283484458923
visibility: 0.6637612581253052
","x: 181.2598419189453
y: 214.57705688476562
z: -0.23562152683734894
visibility: 0.959572970867157
","x: 163.67083740234375
y: 328.5251159667969
z: -0.44782814383506775
visibility: 0.6695308685302734
","x: 182.3798065185547
y: 216.99679565429688
z: -0.21934941411018372
visibility: 0.9536206722259521
","x: 163.74021911621094
y: 330.4185791015625
z: -0.4195931851863861
visibility: 0.6498638391494751
","x: 185.17904663085938
y: 403.6256103515625
z: -0.0024348313454538584
visibility: 0.9998960494995117
","x: 163.20376586914062
y: 403.442138671875
z: 0.002306030597537756
visibility: 0.9998963475227356
","x: 195.38548278808594
y: 462.7840576171875
z: 0.01066864375025034
visibility: 0.9940400123596191
","x: 156.11566162109375
y: 457.49365234375
z: 0.016474904492497444
visibility: 0.9957669377326965
","x: 203.31866455078125
y: 522.5628051757812
z: 0.13638006150722504
visibility: 0.9906411170959473
","x: 148.705810546875
y: 517.0372924804688
z: 0.1606428474187851
visibility: 0.9952617287635803
","x: 200.68202209472656
y: 531.7490844726562
z: 0.14306677877902985
visibility: 0.9142095446586609
","x: 150.965576171875
y: 525.23779296875
z: 0.1713239997625351
visibility: 0.9293259382247925
","x: 209.7765350341797
y: 545.2781982421875
z: 0.040898606181144714
visibility: 0.9851681590080261
","x: 141.306884765625
y: 538.2664184570312
z: 0.07557715475559235
visibility: 0.9911920428276062
",,,,,,,,,,,,,,,,,,,,,,,,,,,,,,,,,,,,,,,,,,
12,"x: 176.6085968017578
y: 284.925537109375
z: -0.30467554926872253
visibility: 0.9998520612716675
","x: 179.16368103027344
y: 278.646240234375
z: -0.2957132160663605
visibility: 0.999625027179718
","x: 180.69125366210938
y: 278.6501770019531
z: -0.29565057158470154
visibility: 0.9995740056037903
","x: 182.24000549316406
y: 278.7827453613281
z: -0.29562586545944214
visibility: 0.9995234608650208
","x: 175.2001953125
y: 279.0993957519531
z: -0.29208603501319885
visibility: 0.9997445344924927
","x: 173.94911193847656
y: 279.3032531738281
z: -0.292144238948822
visibility: 0.9997338056564331
","x: 172.72874450683594
y: 279.5095520019531
z: -0.29214662313461304
visibility: 0.999727189540863
","x: 184.90713500976562
y: 281.828125
z: -0.2077319622039795
visibility: 0.9991923570632935
","x: 171.55043029785156
y: 281.4511413574219
z: -0.19147959351539612
visibility: 0.9995564818382263
","x: 179.25596618652344
y: 291.4418640136719
z: -0.26920372247695923
visibility: 0.9993493556976318
","x: 174.2655029296875
y: 291.76556396484375
z: -0.26451417803764343
visibility: 0.9995673298835754
","x: 193.28684997558594
y: 301.28643798828125
z: -0.1534036099910736
visibility: 0.9996084570884705
","x: 163.62112426757812
y: 312.37744140625
z: -0.1574954241514206
visibility: 0.9996539354324341
","x: 196.77703857421875
y: 254.22589111328125
z: -0.21975426375865936
visibility: 0.9966927766799927
","x: 152.10659790039062
y: 345.9783630371094
z: -0.3001024127006531
visibility: 0.91136234998703
","x: 177.72608947753906
y: 225.95166015625
z: -0.23419634997844696
visibility: 0.9903129935264587
","x: 160.45352172851562
y: 349.64666748046875
z: -0.4833429753780365
visibility: 0.7919986844062805
","x: 171.88214111328125
y: 225.69589233398438
z: -0.2588414251804352
visibility: 0.9609456062316895
","x: 161.74154663085938
y: 351.82489013671875
z: -0.5263537168502808
visibility: 0.6898845434188843
","x: 170.7321319580078
y: 226.5410614013672
z: -0.2514529228210449
visibility: 0.9564955234527588
","x: 167.48655700683594
y: 326.00299072265625
z: -0.522262692451477
visibility: 0.6947337985038757
","x: 171.84124755859375
y: 226.87130737304688
z: -0.234227254986763
visibility: 0.9501117467880249
","x: 167.26168823242188
y: 326.8818664550781
z: -0.4864443242549896
visibility: 0.6745525598526001
","x: 185.59608459472656
y: 403.57733154296875
z: 0.0025190343149006367
visibility: 0.9998998045921326
","x: 163.50022888183594
y: 402.5260009765625
z: -0.00272689969278872
visibility: 0.9999000430107117
","x: 195.3040008544922
y: 462.72052001953125
z: 0.011953744105994701
visibility: 0.994291365146637
","x: 156.99600219726562
y: 458.000732421875
z: 0.006877238862216473
visibility: 0.9958487153053284
","x: 203.31101989746094
y: 523.1445922851562
z: 0.12742598354816437
visibility: 0.9909818172454834
","x: 148.6827850341797
y: 516.5953979492188
z: 0.1370721459388733
visibility: 0.9952547550201416
","x: 200.65676879882812
y: 532.207763671875
z: 0.1330634504556656
visibility: 0.9166132807731628
","x: 150.94476318359375
y: 524.8056640625
z: 0.14563509821891785
visibility: 0.9291060566902161
","x: 210.03848266601562
y: 545.3276977539062
z: 0.02786090597510338
visibility: 0.985571563243866
","x: 141.30056762695312
y: 538.2329711914062
z: 0.04559258371591568
visibility: 0.9912123084068298
",,,,,,,,,,,,,,,,,,,,,,,,,,,,,,,,,,,,,,,,,,
13,"x: 177.29696655273438
y: 282.6717834472656
z: -0.25099408626556396
visibility: 0.9998558759689331
","x: 180.77008056640625
y: 276.9341735839844
z: -0.23882770538330078
visibility: 0.9996352195739746
","x: 182.20416259765625
y: 277.380615234375
z: -0.23880967497825623
visibility: 0.9995825886726379
","x: 183.5607147216797
y: 277.82513427734375
z: -0.2387930154800415
visibility: 0.9995328187942505
","x: 176.5617218017578
y: 275.88909912109375
z: -0.2374272346496582
visibility: 0.9997517466545105
","x: 175.22470092773438
y: 275.6771545410156
z: -0.23745450377464294
visibility: 0.999741792678833
","x: 173.95718383789062
y: 275.45806884765625
z: -0.23743033409118652
visibility: 0.9997382164001465
","x: 185.9001007080078
y: 281.20770263671875
z: -0.15179255604743958
visibility: 0.9992010593414307
","x: 172.79473876953125
y: 278.1971435546875
z: -0.1468224972486496
visibility: 0.9995771050453186
","x: 179.963134765625
y: 290.6623229980469
z: -0.2178858071565628
visibility: 0.999377429485321
","x: 174.37649536132812
y: 289.5528564453125
z: -0.21646590530872345
visibility: 0.9995917081832886
","x: 193.57489013671875
y: 301.57098388671875
z: -0.12393011152744293
visibility: 0.9996024370193481
","x: 163.47901916503906
y: 312.3044128417969
z: -0.09157969057559967
visibility: 0.9996662735939026
","x: 201.03529357910156
y: 261.6122131347656
z: -0.22652125358581543
visibility: 0.9962974190711975
","x: 151.09310913085938
y: 346.014404296875
z: -0.15713056921958923
visibility: 0.9144916534423828
","x: 186.69932556152344
y: 243.17523193359375
z: -0.27094611525535583
visibility: 0.9878231287002563
","x: 158.21299743652344
y: 380.6865234375
z: -0.2921154797077179
visibility: 0.7980296611785889
","x: 181.43173217773438
y: 242.3720703125
z: -0.27896565198898315
visibility: 0.9527138471603394
","x: 154.6697540283203
y: 401.0185546875
z: -0.3226870894432068
visibility: 0.697113037109375
","x: 179.9003448486328
y: 242.84690856933594
z: -0.3088169991970062
visibility: 0.9471752643585205
","x: 159.55723571777344
y: 391.26153564453125
z: -0.3315386474132538
visibility: 0.7015547156333923
","x: 181.3124237060547
y: 244.5304718017578
z: -0.2821199297904968
visibility: 0.9404571056365967
","x: 161.00588989257812
y: 390.492919921875
z: -0.29893410205841064
visibility: 0.6804316639900208
","x: 186.57562255859375
y: 403.8311462402344
z: 0.002042934764176607
visibility: 0.9998990893363953
","x: 164.0479736328125
y: 403.06329345703125
z: -0.0022433162666857243
visibility: 0.9998978972434998
","x: 196.60011291503906
y: 462.09039306640625
z: 0.006632278207689524
visibility: 0.9943321347236633
","x: 156.95477294921875
y: 458.23297119140625
z: 0.0032145243603736162
visibility: 0.9958910346031189
","x: 203.330810546875
y: 523.1229248046875
z: 0.13241273164749146
visibility: 0.9909862279891968
","x: 148.65223693847656
y: 516.4752807617188
z: 0.13681603968143463
visibility: 0.9952147006988525
","x: 200.64198303222656
y: 532.1622314453125
z: 0.13989824056625366
visibility: 0.9174776077270508
","x: 150.90777587890625
y: 524.4454345703125
z: 0.14550341665744781
visibility: 0.9283441305160522
","x: 210.09043884277344
y: 545.316650390625
z: 0.03823883458971977
visibility: 0.9854784607887268
","x: 141.1332244873047
y: 538.2530517578125
z: 0.04600971192121506
visibility: 0.9910513758659363
",,,,,,,,,,,,,,,,,,,,,,,,,,,,,,,,,,,,,,,,,,
14,"x: 178.86328125
y: 282.6812438964844
z: -0.2687990367412567
visibility: 0.9998653531074524
","x: 182.06593322753906
y: 277.2784729003906
z: -0.2559777796268463
visibility: 0.9996577501296997
","x: 183.1868133544922
y: 277.89654541015625
z: -0.25595900416374207
visibility: 0.9996058344841003
","x: 184.32476806640625
y: 278.5205383300781
z: -0.25596415996551514
visibility: 0.9995611906051636
","x: 177.944580078125
y: 275.9137268066406
z: -0.2540670335292816
visibility: 0.9997691512107849
","x: 176.30685424804688
y: 275.63787841796875
z: -0.25410082936286926
visibility: 0.999760091304779
","x: 174.7449493408203
y: 275.3629150390625
z: -0.2541138827800751
visibility: 0.9997581839561462
","x: 186.12744140625
y: 282.02142333984375
z: -0.1593664139509201
visibility: 0.999241054058075
","x: 172.87374877929688
y: 278.1319885253906
z: -0.17692628502845764
visibility: 0.9996128678321838
","x: 180.83709716796875
y: 290.54925537109375
z: -0.2338554561138153
visibility: 0.9994227290153503
","x: 175.07217407226562
y: 289.2860107421875
z: -0.22647126019001007
visibility: 0.9996265172958374
","x: 193.59840393066406
y: 304.01373291015625
z: -0.12601658701896667
visibility: 0.9996086359024048
","x: 161.8846435546875
y: 313.2840576171875
z: -0.13570134341716766
visibility: 0.9996880888938904
","x: 209.39410400390625
y: 281.8347473144531
z: -0.25068673491477966
visibility: 0.996161937713623
","x: 150.5711669921875
y: 345.5702209472656
z: -0.2515593469142914
visibility: 0.9202660322189331
","x: 208.1182861328125
y: 249.47610473632812
z: -0.39195457100868225
visibility: 0.9869199395179749
","x: 156.63636779785156
y: 371.32147216796875
z: -0.41206592321395874
visibility: 0.8079208135604858
","x: 207.76431274414062
y: 239.85986328125
z: -0.43456536531448364
visibility: 0.9503149390220642
","x: 154.2584991455078
y: 379.6593017578125
z: -0.44977226853370667
visibility: 0.708482027053833
","x: 205.4791259765625
y: 238.90542602539062
z: -0.4305315911769867
visibility: 0.944908618927002
","x: 158.00706481933594
y: 375.8222961425781
z: -0.4569512903690338
visibility: 0.712990939617157
","x: 205.36056518554688
y: 243.71519470214844
z: -0.3979993760585785
visibility: 0.9387511014938354
","x: 159.19679260253906
y: 374.2154235839844
z: -0.4198674261569977
visibility: 0.691587507724762
","x: 189.6175994873047
y: 403.5091552734375
z: 0.004382328130304813
visibility: 0.9998807311058044
","x: 166.17266845703125
y: 402.9457092285156
z: -0.004480017349123955
visibility: 0.9998903870582581
","x: 198.40631103515625
y: 461.3281555175781
z: -0.024821218103170395
visibility: 0.99429851770401
","x: 157.45062255859375
y: 455.49273681640625
z: -0.08892317861318588
visibility: 0.9958688020706177
","x: 203.35731506347656
y: 522.9486694335938
z: 0.09085770696401596
visibility: 0.9907827973365784
","x: 148.52349853515625
y: 516.5404663085938
z: 0.02910931408405304
visibility: 0.9951972961425781
","x: 200.6768798828125
y: 531.9789428710938
z: 0.09595337510108948
visibility: 0.9168452024459839
","x: 150.67117309570312
y: 524.5143432617188
z: 0.03459510952234268
visibility: 0.9277436137199402
","x: 210.1036376953125
y: 545.0817260742188
z: -0.010229906998574734
visibility: 0.9852559566497803
","x: 141.24998474121094
y: 538.3063354492188
z: -0.0782066136598587
visibility: 0.9910746812820435
",,,,,,,,,,,,,,,,,,,,,,,,,,,,,,,,,,,,,,,,,,
15,"x: 179.06619262695312
y: 282.78582763671875
z: -0.2722803056240082
visibility: 0.9998669028282166
","x: 182.43902587890625
y: 277.6858825683594
z: -0.2581513226032257
visibility: 0.9996544122695923
","x: 183.5503692626953
y: 278.42138671875
z: -0.25811681151390076
visibility: 0.9995928406715393
","x: 184.64405822753906
y: 279.1329650878906
z: -0.25812679529190063
visibility: 0.9995505809783936
","x: 178.2751007080078
y: 275.9389953613281
z: -0.2611244320869446
visibility: 0.9997746348381042
","x: 176.60336303710938
y: 275.6662292480469
z: -0.26116183400154114
visibility: 0.9997677206993103
","x: 175.03604125976562
y: 275.3567199707031
z: -0.26116684079170227
visibility: 0.9997678995132446
","x: 186.19790649414062
y: 282.70330810546875
z: -0.16215191781520844
visibility: 0.9992144107818604
","x: 173.26242065429688
y: 278.0884094238281
z: -0.1920909881591797
visibility: 0.9996325969696045
","x: 180.90243530273438
y: 290.50714111328125
z: -0.23596492409706116
visibility: 0.9994144439697266
","x: 175.10638427734375
y: 289.0287170410156
z: -0.23557314276695251
visibility: 0.9996383786201477
","x: 193.5673370361328
y: 306.9639892578125
z: -0.11942579597234726
visibility: 0.9995497465133667
","x: 160.6217498779297
y: 313.71453857421875
z: -0.16128632426261902
visibility: 0.9996896982192993
","x: 210.71792602539062
y: 285.1700134277344
z: -0.17449767887592316
visibility: 0.9949132204055786
","x: 147.495849609375
y: 341.31402587890625
z: -0.3247390389442444
visibility: 0.9244697690010071
","x: 220.32398986816406
y: 250.6591796875
z: -0.24657419323921204
visibility: 0.9860110878944397
","x: 151.08445739746094
y: 335.81732177734375
z: -0.5297493934631348
visibility: 0.8184233903884888
","x: 224.37289428710938
y: 238.1430206298828
z: -0.2709020674228668
visibility: 0.9493343234062195
","x: 149.09884643554688
y: 335.1061706542969
z: -0.5713909864425659
visibility: 0.7213943004608154
","x: 223.49642944335938
y: 237.27439880371094
z: -0.2781516909599304
visibility: 0.944587767124176
","x: 152.159423828125
y: 331.3020324707031
z: -0.571245551109314
visibility: 0.7252596616744995
","x: 221.66676330566406
y: 243.1291961669922
z: -0.25511497259140015
visibility: 0.9384796619415283
","x: 153.46286010742188
y: 332.1150207519531
z: -0.5364149212837219
visibility: 0.7033247947692871
","x: 190.21192932128906
y: 404.3127136230469
z: 0.007585043553262949
visibility: 0.9998548030853271
","x: 166.6062469482422
y: 404.6925354003906
z: -0.007706346455961466
visibility: 0.9998810291290283
","x: 198.4600372314453
y: 461.6707763671875
z: 0.015388108789920807
visibility: 0.9942704439163208
","x: 158.19874572753906
y: 455.88189697265625
z: -0.06122352555394173
visibility: 0.9957508444786072
","x: 203.3698272705078
y: 522.9534301757812
z: 0.1525752991437912
visibility: 0.9908175468444824
","x: 148.5095977783203
y: 516.9071044921875
z: 0.06937354058027267
visibility: 0.9951707124710083
","x: 200.67630004882812
y: 531.9962768554688
z: 0.1594291627407074
visibility: 0.9163739085197449
","x: 150.6633758544922
y: 524.98291015625
z: 0.07671945542097092
visibility: 0.9284350275993347
","x: 210.10348510742188
y: 545.0774536132812
z: 0.058095164597034454
visibility: 0.9851832985877991
","x: 141.274169921875
y: 538.29931640625
z: -0.029872367158532143
visibility: 0.9910975694656372
",,,,,,,,,,,,,,,,,,,,,,,,,,,,,,,,,,,,,,,,,,
16,"x: 179.0400390625
y: 282.9176025390625
z: -0.3141757845878601
visibility: 0.99986732006073
","x: 182.16925048828125
y: 277.76611328125
z: -0.30252915620803833
visibility: 0.9996602535247803
","x: 183.3240203857422
y: 278.40777587890625
z: -0.302501380443573
visibility: 0.9995965361595154
","x: 184.42042541503906
y: 279.0630798339844
z: -0.30252590775489807
visibility: 0.9995545744895935
","x: 178.00106811523438
y: 276.4412841796875
z: -0.30474355816841125
visibility: 0.9997797608375549
","x: 176.4148712158203
y: 276.3348693847656
z: -0.30480238795280457
visibility: 0.9997735023498535
","x: 174.91371154785156
y: 276.256591796875
z: -0.3048427700996399
visibility: 0.9997740983963013
","x: 186.036865234375
y: 282.3547668457031
z: -0.20464619994163513
visibility: 0.9992296099662781
","x: 173.04141235351562
y: 278.6632995605469
z: -0.21829597651958466
visibility: 0.9996517300605774
","x: 180.98526000976562
y: 290.4815368652344
z: -0.27466410398483276
visibility: 0.9994000196456909
","x: 175.43463134765625
y: 289.0546569824219
z: -0.27770179510116577
visibility: 0.9996404051780701
","x: 193.5975341796875
y: 306.9404296875
z: -0.1356430947780609
visibility: 0.9995178580284119
","x: 160.8466033935547
y: 314.3146057128906
z: -0.17903175950050354
visibility: 0.9996762275695801
","x: 210.6675567626953
y: 276.6327819824219
z: -0.2058933973312378
visibility: 0.9939759373664856
","x: 148.05784606933594
y: 341.9227600097656
z: -0.35231876373291016
visibility: 0.9279217720031738
","x: 217.62974548339844
y: 240.155517578125
z: -0.29086726903915405
visibility: 0.9858701229095459
","x: 155.1026153564453
y: 327.339599609375
z: -0.5670847296714783
visibility: 0.8292499780654907
","x: 222.4815673828125
y: 227.62306213378906
z: -0.32029837369918823
visibility: 0.9505231976509094
","x: 158.21580505371094
y: 324.6809387207031
z: -0.6112750768661499
visibility: 0.7342471480369568
","x: 221.4382781982422
y: 227.0078887939453
z: -0.3213975429534912
visibility: 0.9463663101196289
","x: 159.6998291015625
y: 321.06536865234375
z: -0.6069490313529968
visibility: 0.7370729446411133
","x: 219.49246215820312
y: 230.730224609375
z: -0.29670581221580505
visibility: 0.9403573870658875
","x: 159.29920959472656
y: 322.37896728515625
z: -0.5715251564979553
visibility: 0.7140334248542786
","x: 189.22596740722656
y: 403.26397705078125
z: 0.006950548384338617
visibility: 0.9998522400856018
","x: 165.41619873046875
y: 403.8059997558594
z: -0.007080250885337591
visibility: 0.9998773336410522
","x: 197.1470947265625
y: 461.3160705566406
z: 0.01383221335709095
visibility: 0.9943807125091553
","x: 158.17938232421875
y: 455.4972839355469
z: -0.03009691834449768
visibility: 0.995673418045044
","x: 203.08917236328125
y: 523.0468139648438
z: 0.12718914449214935
visibility: 0.9910669922828674
","x: 148.4915771484375
y: 516.9188232421875
z: 0.09900915622711182
visibility: 0.9951623678207397
","x: 200.5455780029297
y: 532.5753173828125
z: 0.13134945929050446
visibility: 0.9180032014846802
","x: 150.6210174560547
y: 525.0847778320312
z: 0.10639341175556183
visibility: 0.929034948348999
","x: 210.0365447998047
y: 544.8270874023438
z: 0.02015453763306141
visibility: 0.9854008555412292
","x: 141.26377868652344
y: 538.233154296875
z: -0.0058365268632769585
visibility: 0.9911095499992371
",,,,,,,,,,,,,,,,,,,,,,,,,,,,,,,,,,,,,,,,,,
17,"x: 177.4677734375
y: 284.4336242675781
z: -0.32210034132003784
visibility: 0.9997593760490417
","x: 179.67608642578125
y: 278.76513671875
z: -0.31324028968811035
visibility: 0.999358057975769
","x: 180.94766235351562
y: 278.949462890625
z: -0.3132334351539612
visibility: 0.9992955923080444
","x: 182.1760711669922
y: 279.26617431640625
z: -0.3132588267326355
visibility: 0.9992406964302063
","x: 175.79779052734375
y: 279.3034973144531
z: -0.3082490563392639
visibility: 0.9995372295379639
","x: 174.361328125
y: 279.8016662597656
z: -0.30828285217285156
visibility: 0.9995061755180359
","x: 172.96917724609375
y: 280.2510986328125
z: -0.3083053231239319
visibility: 0.9995112419128418
","x: 184.4126739501953
y: 282.287841796875
z: -0.2279864251613617
visibility: 0.9987608790397644
","x: 171.66905212402344
y: 282.03125
z: -0.20729872584342957
visibility: 0.999286413192749
","x: 180.1027069091797
y: 290.6695251464844
z: -0.2872552275657654
visibility: 0.9989269375801086
","x: 174.68836975097656
y: 291.6018371582031
z: -0.2808989882469177
visibility: 0.9992990493774414
","x: 193.6314697265625
y: 305.5793151855469
z: -0.18881791830062866
visibility: 0.9994472861289978
","x: 162.23294067382812
y: 314.4872741699219
z: -0.14061665534973145
visibility: 0.999612033367157
","x: 200.13427734375
y: 255.85914611816406
z: -0.2713265120983124
visibility: 0.9941797256469727
","x: 151.34974670410156
y: 342.4119567871094
z: -0.175995334982872
visibility: 0.919064462184906
","x: 190.07894897460938
y: 218.9530029296875
z: -0.332671195268631
visibility: 0.985842764377594
","x: 154.82986450195312
y: 340.3108215332031
z: -0.3056030869483948
visibility: 0.8192048668861389
","x: 187.4681854248047
y: 209.4425048828125
z: -0.3681500554084778
visibility: 0.9506702423095703
","x: 156.748779296875
y: 339.5170593261719
z: -0.3350723087787628
visibility: 0.7232800722122192
","x: 185.98117065429688
y: 208.8128662109375
z: -0.3655572533607483
visibility: 0.9464485049247742
","x: 158.5716094970703
y: 330.13665771484375
z: -0.35024741291999817
visibility: 0.7262924909591675
","x: 186.41162109375
y: 211.80899047851562
z: -0.33590981364250183
visibility: 0.9400136470794678
","x: 158.6840362548828
y: 323.66839599609375
z: -0.3158564269542694
visibility: 0.7022027969360352
","x: 187.0458221435547
y: 402.9728698730469
z: -0.007624106947332621
visibility: 0.9998487830162048
","x: 163.91925048828125
y: 403.44171142578125
z: 0.007448082324117422
visibility: 0.9998738765716553
","x: 194.78866577148438
y: 461.3431091308594
z: 0.010683250613510609
visibility: 0.9943950772285461
","x: 157.23858642578125
y: 455.669189453125
z: -0.013332988135516644
visibility: 0.995642900466919
","x: 203.0899200439453
y: 523.1697387695312
z: 0.12911562621593475
visibility: 0.9913467168807983
","x: 148.4606170654297
y: 516.9393310546875
z: 0.12947353720664978
visibility: 0.9952224493026733
","x: 200.5553741455078
y: 532.6409301757812
z: 0.13448606431484222
visibility: 0.9180119037628174
","x: 150.6275634765625
y: 525.2667846679688
z: 0.13804228603839874
visibility: 0.9306977987289429
","x: 210.09811401367188
y: 545.0346069335938
z: 0.01830887608230114
visibility: 0.9857031106948853
","x: 141.26979064941406
y: 538.2446899414062
z: 0.022825634106993675
visibility: 0.9912962317466736
",,,,,,,,,,,,,,,,,,,,,,,,,,,,,,,,,,,,,,,,,,
18,"x: 176.7694091796875
y: 287.78125
z: -0.28405967354774475
visibility: 0.9997020959854126
","x: 178.72698974609375
y: 280.35040283203125
z: -0.2793676257133484
visibility: 0.9992836117744446
","x: 180.14268493652344
y: 279.9456787109375
z: -0.2792894244194031
visibility: 0.9991773962974548
","x: 181.5001220703125
y: 279.77557373046875
z: -0.2792447805404663
visibility: 0.9991147518157959
","x: 174.58157348632812
y: 282.34698486328125
z: -0.27174219489097595
visibility: 0.9994837641716003
","x: 173.1427001953125
y: 282.9856262207031
z: -0.2718031108379364
visibility: 0.9994392395019531
","x: 171.76646423339844
y: 283.51751708984375
z: -0.2718213200569153
visibility: 0.999468207359314
","x: 184.16183471679688
y: 282.3802795410156
z: -0.22098791599273682
visibility: 0.998624861240387
","x: 170.74984741210938
y: 284.99542236328125
z: -0.1735924482345581
visibility: 0.9991995692253113
","x: 179.8058624267578
y: 293.3203430175781
z: -0.2538166642189026
visibility: 0.9987714290618896
","x: 174.36044311523438
y: 295.23095703125
z: -0.24436096847057343
visibility: 0.9991683959960938
","x: 193.4435272216797
y: 304.4823303222656
z: -0.1570403277873993
visibility: 0.9994189739227295
","x: 162.61622619628906
y: 314.0106201171875
z: -0.130290687084198
visibility: 0.9995956420898438
","x: 193.82247924804688
y: 251.96388244628906
z: -0.17518433928489685
visibility: 0.9940627813339233
","x: 149.9209442138672
y: 342.7764587402344
z: -0.25541117787361145
visibility: 0.9254547357559204
","x: 172.04373168945312
y: 223.6608123779297
z: -0.11908320337533951
visibility: 0.984951913356781
","x: 158.99000549316406
y: 326.60369873046875
z: -0.43127718567848206
visibility: 0.8333141207695007
","x: 167.42556762695312
y: 228.03363037109375
z: -0.13067084550857544
visibility: 0.9459365010261536
","x: 163.2935791015625
y: 321.6049499511719
z: -0.4708942770957947
visibility: 0.7404876351356506
","x: 165.8025360107422
y: 230.37020874023438
z: -0.12284345924854279
visibility: 0.941105306148529
","x: 163.53787231445312
y: 318.6099548339844
z: -0.455034077167511
visibility: 0.7420574426651001
","x: 167.09324645996094
y: 231.31365966796875
z: -0.11651650816202164
visibility: 0.9340893626213074
","x: 163.1856689453125
y: 318.64483642578125
z: -0.4296618402004242
visibility: 0.7172073721885681
","x: 184.72677612304688
y: 405.2921142578125
z: -0.006158825941383839
visibility: 0.9998530149459839
","x: 162.4489288330078
y: 404.2931823730469
z: 0.005934230051934719
visibility: 0.9998766779899597
","x: 193.9035186767578
y: 463.96160888671875
z: 0.031967028975486755
visibility: 0.994632363319397
","x: 155.21029663085938
y: 455.91485595703125
z: 0.029833335429430008
visibility: 0.9957350492477417
","x: 203.10665893554688
y: 523.084716796875
z: 0.1338886022567749
visibility: 0.9917588829994202
","x: 148.4253692626953
y: 516.4324340820312
z: 0.1566670835018158
visibility: 0.9952673316001892
","x: 200.6564483642578
y: 532.394775390625
z: 0.13847316801548004
visibility: 0.9213417768478394
","x: 150.63168334960938
y: 524.8316040039062
z: 0.16650888323783875
visibility: 0.9329444766044617
","x: 210.10546875
y: 544.730224609375
z: 0.041242774575948715
visibility: 0.9862220883369446
","x: 141.24330139160156
y: 538.0263671875
z: 0.07739857584238052
visibility: 0.9914029836654663
",,,,,,,,,,,,,,,,,,,,,,,,,,,,,,,,,,,,,,,,,,
19,"x: 176.59523010253906
y: 284.021484375
z: -0.22754645347595215
visibility: 0.9996614456176758
","x: 178.8577880859375
y: 278.27752685546875
z: -0.2170019894838333
visibility: 0.999226450920105
","x: 180.2690887451172
y: 278.5086669921875
z: -0.2169448584318161
visibility: 0.9990625977516174
","x: 181.61830139160156
y: 278.8084716796875
z: -0.21693742275238037
visibility: 0.9990247488021851
","x: 174.77243041992188
y: 278.281494140625
z: -0.21200458705425262
visibility: 0.9994309544563293
","x: 173.33773803710938
y: 278.5035400390625
z: -0.2120698243379593
visibility: 0.9993755221366882
","x: 171.9547119140625
y: 278.7807312011719
z: -0.212092787027359
visibility: 0.9994449615478516
","x: 184.02938842773438
y: 281.8448791503906
z: -0.13771234452724457
visibility: 0.9985178112983704
","x: 170.81265258789062
y: 282.0473937988281
z: -0.11402259767055511
visibility: 0.9991196990013123
","x: 179.25582885742188
y: 290.5284729003906
z: -0.19707000255584717
visibility: 0.9986504912376404
","x: 174.0166015625
y: 290.5599670410156
z: -0.19082359969615936
visibility: 0.9989938735961914
","x: 191.78549194335938
y: 304.4808654785156
z: -0.07901264727115631
visibility: 0.9993019700050354
","x: 162.28839111328125
y: 312.842041015625
z: -0.08165408670902252
visibility: 0.9995609521865845
","x: 196.71920776367188
y: 256.1527099609375
z: -0.03953081741929054
visibility: 0.9885768294334412
","x: 150.3330535888672
y: 338.7295227050781
z: -0.1777106523513794
visibility: 0.9261113405227661
","x: 180.7686767578125
y: 258.82257080078125
z: 0.08531177788972855
visibility: 0.9542925357818604
","x: 158.61395263671875
y: 321.7911071777344
z: -0.30288180708885193
visibility: 0.831028163433075
","x: 173.16513061523438
y: 258.7783203125
z: 0.09067431092262268
visibility: 0.8895403742790222
","x: 160.4956817626953
y: 318.4290771484375
z: -0.3318716883659363
visibility: 0.7331348657608032
","x: 172.9471435546875
y: 264.2477722167969
z: 0.09309221804141998
visibility: 0.8842082619667053
","x: 161.76583862304688
y: 317.4257507324219
z: -0.3248597979545593
visibility: 0.7337993383407593
","x: 176.20626831054688
y: 265.04656982421875
z: 0.08708276599645615
visibility: 0.8768957257270813
","x: 162.03872680664062
y: 319.318603515625
z: -0.30437126755714417
visibility: 0.7073619365692139
","x: 184.90579223632812
y: 405.9808349609375
z: -0.003971662372350693
visibility: 0.9998534321784973
","x: 162.49472045898438
y: 404.6731872558594
z: 0.0037886411882936954
visibility: 0.9998812675476074
","x: 194.07591247558594
y: 463.9508361816406
z: 0.03585188835859299
visibility: 0.9945394992828369
","x: 154.39707946777344
y: 455.3982238769531
z: -0.006256206892430782
visibility: 0.995719850063324
","x: 203.09547424316406
y: 523.3511962890625
z: 0.1407412588596344
visibility: 0.991962730884552
","x: 148.42965698242188
y: 516.3260498046875
z: 0.09211228787899017
visibility: 0.9952807426452637
","x: 200.64358520507812
y: 532.4547729492188
z: 0.14592145383358002
visibility: 0.9210452437400818
","x: 150.72555541992188
y: 524.754150390625
z: 0.09962596744298935
visibility: 0.9336350560188293
","x: 210.17306518554688
y: 545.131591796875
z: 0.05257362127304077
visibility: 0.9863401651382446
","x: 141.15878295898438
y: 538.0216064453125
z: 0.011104917153716087
visibility: 0.9915309548377991
",,,,,,,,,,,,,,,,,,,,,,,,,,,,,,,,,,,,,,,,,,
20,"x: 176.61380004882812
y: 281.19012451171875
z: -0.25578904151916504
visibility: 0.9996938109397888
","x: 178.87828063964844
y: 276.1190490722656
z: -0.2266637086868286
visibility: 0.9992992877960205
","x: 180.3433837890625
y: 276.45440673828125
z: -0.2266540229320526
visibility: 0.9991511702537537
","x: 181.63465881347656
y: 276.83453369140625
z: -0.2267008125782013
visibility: 0.9991165995597839
","x: 174.8874969482422
y: 275.64019775390625
z: -0.2420056313276291
visibility: 0.9994844794273376
","x: 173.42660522460938
y: 275.74267578125
z: -0.24194017052650452
visibility: 0.9994344711303711
","x: 172.007080078125
y: 276.00140380859375
z: -0.24176731705665588
visibility: 0.9994968175888062
","x: 184.07083129882812
y: 279.8852844238281
z: -0.16047891974449158
visibility: 0.9986537098884583
","x: 170.4644775390625
y: 278.9663391113281
z: -0.15959922969341278
visibility: 0.9992028474807739
","x: 179.2715606689453
y: 288.0071105957031
z: -0.2135908156633377
visibility: 0.9987812042236328
","x: 173.7007598876953
y: 288.0218200683594
z: -0.22716966271400452
visibility: 0.9990917444229126
","x: 191.88861083984375
y: 304.6261291503906
z: -0.10937707126140594
visibility: 0.9993651509284973
","x: 160.60546875
y: 312.986083984375
z: -0.09583784639835358
visibility: 0.9995942115783691
","x: 213.27410888671875
y: 295.6289978027344
z: -0.2387785166501999
visibility: 0.9896212816238403
","x: 149.69525146484375
y: 346.0028381347656
z: -0.17090407013893127
visibility: 0.9293546080589294
","x: 200.62342834472656
y: 259.4128723144531
z: -0.3801720440387726
visibility: 0.9583905935287476
","x: 150.65638732910156
y: 391.44219970703125
z: -0.29360413551330566
visibility: 0.8366010785102844
","x: 196.19078063964844
y: 252.1588897705078
z: -0.41994708776474
visibility: 0.8980062007904053
","x: 147.39437866210938
y: 404.8171691894531
z: -0.32244032621383667
visibility: 0.7388789057731628
","x: 194.45584106445312
y: 253.06375122070312
z: -0.4038577675819397
visibility: 0.8929045796394348
","x: 147.1857147216797
y: 406.7093505859375
z: -0.3327676057815552
visibility: 0.7394014000892639
","x: 195.5852813720703
y: 256.40130615234375
z: -0.3791288435459137
visibility: 0.8856699466705322
","x: 149.7239990234375
y: 400.3553771972656
z: -0.3010457158088684
visibility: 0.7132213115692139
","x: 185.51686096191406
y: 405.41363525390625
z: -0.0035703047178685665
visibility: 0.9998550415039062
","x: 162.6097869873047
y: 404.4556884765625
z: 0.0033698410261422396
visibility: 0.9998774528503418
","x: 194.14828491210938
y: 463.3963623046875
z: 0.030233239755034447
visibility: 0.9942663908004761
","x: 154.5229949951172
y: 456.8447570800781
z: -0.0020642613526433706
visibility: 0.9953901171684265
","x: 203.09715270996094
y: 523.4462890625
z: 0.15201883018016815
visibility: 0.9915795922279358
","x: 148.20765686035156
y: 516.739013671875
z: 0.13328132033348083
visibility: 0.9949913024902344
","x: 200.7227325439453
y: 532.530029296875
z: 0.1602877676486969
visibility: 0.9190990924835205
","x: 150.40306091308594
y: 525.022705078125
z: 0.14205925166606903
visibility: 0.9300190210342407
","x: 210.11224365234375
y: 545.1343994140625
z: 0.06445508450269699
visibility: 0.9859752655029297
","x: 141.1567840576172
y: 538.0253295898438
z: 0.045971620827913284
visibility: 0.9910116791725159
","x: 203.80673217773438
y: 257.2431640625
z: 0.0
","x: 200.76382446289062
y: 250.92050170898438
z: 0.0009816805832087994
","x: 197.37820434570312
y: 246.39706420898438
z: -0.0010432739509269595
","x: 193.99810791015625
y: 245.7180938720703
z: -0.003536487463861704
","x: 191.7735595703125
y: 246.39990234375
z: -0.005504219327121973
","x: 200.55735778808594
y: 240.15953063964844
z: -0.005002074409276247
","x: 194.32687377929688
y: 241.29287719726562
z: -0.008166439831256866
","x: 193.64788818359375
y: 244.98023986816406
z: -0.008531748317182064
","x: 194.03440856933594
y: 246.67581176757812
z: -0.008490568026900291
","x: 200.93359375
y: 243.4639892578125
z: -0.007746214512735605
","x: 194.38833618164062
y: 246.05972290039062
z: -0.01077647227793932
","x: 195.1513671875
y: 248.6915283203125
z: -0.009384063072502613
","x: 196.80064392089844
y: 248.919921875
z: -0.00835864432156086
","x: 200.98780822753906
y: 247.3531951904297
z: -0.010359168983995914
","x: 195.128173828125
y: 249.43768310546875
z: -0.012453123927116394
","x: 196.1196746826172
y: 251.58937072753906
z: -0.009793511591851711
","x: 197.86221313476562
y: 251.6006317138672
z: -0.008094052784144878
","x: 200.78480529785156
y: 251.26422119140625
z: -0.01292820181697607
","x: 196.34986877441406
y: 252.69509887695312
z: -0.013926589861512184
","x: 197.14340209960938
y: 254.146484375
z: -0.011977235786616802
","x: 198.78518676757812
y: 254.3649139404297
z: -0.010583789087831974
",,,,,,,,,,,,,,,,,,,,,
21,"x: 176.61380004882812
y: 281.19012451171875
z: -0.25578904151916504
visibility: 0.9996938109397888
","x: 178.87828063964844
y: 276.1190490722656
z: -0.2266637086868286
visibility: 0.9992992877960205
","x: 180.3433837890625
y: 276.45440673828125
z: -0.2266540229320526
visibility: 0.9991511702537537
","x: 181.63465881347656
y: 276.83453369140625
z: -0.2267008125782013
visibility: 0.9991165995597839
","x: 174.8874969482422
y: 275.64019775390625
z: -0.2420056313276291
visibility: 0.9994844794273376
","x: 173.42660522460938
y: 275.74267578125
z: -0.24194017052650452
visibility: 0.9994344711303711
","x: 172.007080078125
y: 276.00140380859375
z: -0.24176731705665588
visibility: 0.9994968175888062
","x: 184.07083129882812
y: 279.8852844238281
z: -0.16047891974449158
visibility: 0.9986537098884583
","x: 170.4644775390625
y: 278.9663391113281
z: -0.15959922969341278
visibility: 0.9992028474807739
","x: 179.2715606689453
y: 288.0071105957031
z: -0.2135908156633377
visibility: 0.9987812042236328
","x: 173.7007598876953
y: 288.0218200683594
z: -0.22716966271400452
visibility: 0.9990917444229126
","x: 191.88861083984375
y: 304.6261291503906
z: -0.10937707126140594
visibility: 0.9993651509284973
","x: 160.60546875
y: 312.986083984375
z: -0.09583784639835358
visibility: 0.9995942115783691
","x: 213.27410888671875
y: 295.6289978027344
z: -0.2387785166501999
visibility: 0.9896212816238403
","x: 149.69525146484375
y: 346.0028381347656
z: -0.17090407013893127
visibility: 0.9293546080589294
","x: 200.62342834472656
y: 259.4128723144531
z: -0.3801720440387726
visibility: 0.9583905935287476
","x: 150.65638732910156
y: 391.44219970703125
z: -0.29360413551330566
visibility: 0.8366010785102844
","x: 196.19078063964844
y: 252.1588897705078
z: -0.41994708776474
visibility: 0.8980062007904053
","x: 147.39437866210938
y: 404.8171691894531
z: -0.32244032621383667
visibility: 0.7388789057731628
","x: 194.45584106445312
y: 253.06375122070312
z: -0.4038577675819397
visibility: 0.8929045796394348
","x: 147.1857147216797
y: 406.7093505859375
z: -0.3327676057815552
visibility: 0.7394014000892639
","x: 195.5852813720703
y: 256.40130615234375
z: -0.3791288435459137
visibility: 0.8856699466705322
","x: 149.7239990234375
y: 400.3553771972656
z: -0.3010457158088684
visibility: 0.7132213115692139
","x: 185.51686096191406
y: 405.41363525390625
z: -0.0035703047178685665
visibility: 0.9998550415039062
","x: 162.6097869873047
y: 404.4556884765625
z: 0.0033698410261422396
visibility: 0.9998774528503418
","x: 194.14828491210938
y: 463.3963623046875
z: 0.030233239755034447
visibility: 0.9942663908004761
","x: 154.5229949951172
y: 456.8447570800781
z: -0.0020642613526433706
visibility: 0.9953901171684265
","x: 203.09715270996094
y: 523.4462890625
z: 0.15201883018016815
visibility: 0.9915795922279358
","x: 148.20765686035156
y: 516.739013671875
z: 0.13328132033348083
visibility: 0.9949913024902344
","x: 200.7227325439453
y: 532.530029296875
z: 0.1602877676486969
visibility: 0.9190990924835205
","x: 150.40306091308594
y: 525.022705078125
z: 0.14205925166606903
visibility: 0.9300190210342407
","x: 210.11224365234375
y: 545.1343994140625
z: 0.06445508450269699
visibility: 0.9859752655029297
","x: 141.1567840576172
y: 538.0253295898438
z: 0.045971620827913284
visibility: 0.9910116791725159
","x: 203.80673217773438
y: 257.2431640625
z: 0.0
","x: 200.76382446289062
y: 250.92050170898438
z: 0.0009816805832087994
","x: 197.37820434570312
y: 246.39706420898438
z: -0.0010432739509269595
","x: 193.99810791015625
y: 245.7180938720703
z: -0.003536487463861704
","x: 191.7735595703125
y: 246.39990234375
z: -0.005504219327121973
","x: 200.55735778808594
y: 240.15953063964844
z: -0.005002074409276247
","x: 194.32687377929688
y: 241.29287719726562
z: -0.008166439831256866
","x: 193.64788818359375
y: 244.98023986816406
z: -0.008531748317182064
","x: 194.03440856933594
y: 246.67581176757812
z: -0.008490568026900291
","x: 200.93359375
y: 243.4639892578125
z: -0.007746214512735605
","x: 194.38833618164062
y: 246.05972290039062
z: -0.01077647227793932
","x: 195.1513671875
y: 248.6915283203125
z: -0.009384063072502613
","x: 196.80064392089844
y: 248.919921875
z: -0.00835864432156086
","x: 200.98780822753906
y: 247.3531951904297
z: -0.010359168983995914
","x: 195.128173828125
y: 249.43768310546875
z: -0.012453123927116394
","x: 196.1196746826172
y: 251.58937072753906
z: -0.009793511591851711
","x: 197.86221313476562
y: 251.6006317138672
z: -0.008094052784144878
","x: 200.78480529785156
y: 251.26422119140625
z: -0.01292820181697607
","x: 196.34986877441406
y: 252.69509887695312
z: -0.013926589861512184
","x: 197.14340209960938
y: 254.146484375
z: -0.011977235786616802
","x: 198.78518676757812
y: 254.3649139404297
z: -0.010583789087831974
",,,,,,,,,,,,,,,,,,,,,
22,"x: 175.7714080810547
y: 280.28912353515625
z: -0.26061099767684937
visibility: 0.9997237920761108
","x: 178.51968383789062
y: 275.35394287109375
z: -0.2445811927318573
visibility: 0.9993659853935242
","x: 180.0108184814453
y: 275.76739501953125
z: -0.24458816647529602
visibility: 0.9992333054542542
","x: 181.3590545654297
y: 276.2259826660156
z: -0.24458909034729004
visibility: 0.9992011785507202
","x: 174.2722625732422
y: 274.53741455078125
z: -0.24692705273628235
visibility: 0.9995323419570923
","x: 172.7844696044922
y: 274.4681701660156
z: -0.24691271781921387
visibility: 0.9994873404502869
","x: 171.37147521972656
y: 274.53912353515625
z: -0.24682798981666565
visibility: 0.9995420575141907
","x: 183.535888671875
y: 279.4017333984375
z: -0.1593141108751297
visibility: 0.9987814426422119
","x: 169.5919952392578
y: 277.3059997558594
z: -0.15435662865638733
visibility: 0.9992749691009521
","x: 178.15609741210938
y: 287.40826416015625
z: -0.22492018342018127
visibility: 0.9989015460014343
","x: 172.63607788085938
y: 287.17333984375
z: -0.22634634375572205
visibility: 0.999180793762207
","x: 192.01626586914062
y: 306.0586853027344
z: -0.1205749660730362
visibility: 0.9994279146194458
","x: 159.0743865966797
y: 315.2950439453125
z: -0.08905753493309021
visibility: 0.9996308088302612
","x: 210.90408325195312
y: 316.8450622558594
z: -0.2554844319820404
visibility: 0.9903697371482849
","x: 149.6654510498047
y: 362.629150390625
z: -0.1410491168498993
visibility: 0.9355490207672119
","x: 218.0065460205078
y: 314.91424560546875
z: -0.4591054916381836
visibility: 0.9622026085853577
","x: 136.52749633789062
y: 397.2178649902344
z: -0.27875611186027527
visibility: 0.8520711660385132
","x: 221.9683074951172
y: 317.0716552734375
z: -0.5067951083183289
visibility: 0.9072697758674622
","x: 130.13833618164062
y: 405.22393798828125
z: -0.3118111491203308
visibility: 0.7627909183502197
","x: 219.95526123046875
y: 315.82470703125
z: -0.5188425779342651
visibility: 0.9027836322784424
","x: 130.0799560546875
y: 403.9187927246094
z: -0.33571720123291016
visibility: 0.7634598612785339
","x: 217.6974334716797
y: 315.92425537109375
z: -0.4707629084587097
visibility: 0.896151602268219
","x: 132.5608367919922
y: 401.8190002441406
z: -0.2930946350097656
visibility: 0.73969966173172
","x: 186.8726043701172
y: 406.5050048828125
z: -0.008315500803291798
visibility: 0.9998659491539001
","x: 163.73898315429688
y: 407.0118408203125
z: 0.008220963180065155
visibility: 0.9998833537101746
","x: 194.28001403808594
y: 467.352783203125
z: 0.02744450606405735
visibility: 0.9942949414253235
","x: 155.1486053466797
y: 458.44366455078125
z: 0.02880527637898922
visibility: 0.995290219783783
","x: 203.58462524414062
y: 523.915283203125
z: 0.212397500872612
visibility: 0.9916427135467529
","x: 148.2081756591797
y: 518.6033935546875
z: 0.21827790141105652
visibility: 0.9949473738670349
","x: 201.74066162109375
y: 533.1226806640625
z: 0.22597043216228485
visibility: 0.9161436557769775
","x: 150.5514678955078
y: 526.95068359375
z: 0.23164856433868408
visibility: 0.9296820759773254
","x: 210.1112823486328
y: 545.1903686523438
z: 0.12444840371608734
visibility: 0.9862588047981262
","x: 140.51666259765625
y: 539.0784301757812
z: 0.13344742357730865
visibility: 0.9910592436790466
",,,,,,,,,,,,,,,,,,,,,,,,,,,,,,,,,,,,,,,,,,
23,"x: 175.5644989013672
y: 281.7345275878906
z: -0.2623273432254791
visibility: 0.9997499585151672
","x: 178.51699829101562
y: 276.7196044921875
z: -0.24808669090270996
visibility: 0.9994262456893921
","x: 179.9839324951172
y: 277.250244140625
z: -0.24811995029449463
visibility: 0.9993067979812622
","x: 181.22378540039062
y: 277.7950744628906
z: -0.24815049767494202
visibility: 0.9992778897285461
","x: 174.3009490966797
y: 275.5652770996094
z: -0.24730989336967468
visibility: 0.9995740056037903
","x: 172.85055541992188
y: 275.34185791015625
z: -0.24732749164104462
visibility: 0.9995323419570923
","x: 171.44964599609375
y: 275.2933349609375
z: -0.24728944897651672
visibility: 0.9995808005332947
","x: 183.08604431152344
y: 280.9152526855469
z: -0.1501869261264801
visibility: 0.9988976120948792
","x: 169.6549835205078
y: 277.82452392578125
z: -0.14370162785053253
visibility: 0.9993349313735962
","x: 177.8818359375
y: 288.71917724609375
z: -0.2245851457118988
visibility: 0.9990094900131226
","x: 172.55308532714844
y: 287.9208068847656
z: -0.22349214553833008
visibility: 0.999259889125824
","x: 192.10055541992188
y: 311.910400390625
z: -0.09422247111797333
visibility: 0.9994837045669556
","x: 159.1389923095703
y: 315.47039794921875
z: -0.06064782291650772
visibility: 0.9996593594551086
","x: 209.45175170898438
y: 355.2508239746094
z: -0.18490837514400482
visibility: 0.9908834099769592
","x: 151.51683044433594
y: 362.08245849609375
z: -0.11339821666479111
visibility: 0.937487781047821
","x: 208.358642578125
y: 351.52581787109375
z: -0.37054193019866943
visibility: 0.9654649496078491
","x: 139.58102416992188
y: 367.4415283203125
z: -0.30799415707588196
visibility: 0.8633607625961304
","x: 208.54080200195312
y: 350.5198669433594
z: -0.4140501618385315
visibility: 0.9150856137275696
","x: 133.93893432617188
y: 368.89404296875
z: -0.3428797125816345
visibility: 0.7804773449897766
","x: 206.5989532470703
y: 343.9976501464844
z: -0.4187910556793213
visibility: 0.9110952615737915
","x: 134.41236877441406
y: 365.6451721191406
z: -0.342306911945343
visibility: 0.7815667390823364
","x: 205.9387664794922
y: 344.1299133300781
z: -0.37707310914993286
visibility: 0.9043837785720825
","x: 138.7658233642578
y: 364.940185546875
z: -0.3194670081138611
visibility: 0.7592654228210449
","x: 188.39071655273438
y: 408.4986877441406
z: -0.007409189827740192
visibility: 0.9998587369918823
","x: 164.81039428710938
y: 409.5140075683594
z: 0.007351892534643412
visibility: 0.9998824596405029
","x: 196.55836486816406
y: 468.0298156738281
z: 0.006819739006459713
visibility: 0.9945091009140015
","x: 154.6103973388672
y: 459.10443115234375
z: -0.08546756207942963
visibility: 0.9955868124961853
","x: 204.00180053710938
y: 524.1681518554688
z: 0.19164125621318817
visibility: 0.991845428943634
","x: 148.23275756835938
y: 518.5490112304688
z: 0.08621008694171906
visibility: 0.9951633214950562
","x: 201.8755340576172
y: 533.209228515625
z: 0.2042587250471115
visibility: 0.9145581722259521
","x: 151.11997985839844
y: 526.9312133789062
z: 0.09780066460371017
visibility: 0.9310758113861084
","x: 210.09146118164062
y: 545.1251831054688
z: 0.0980510413646698
visibility: 0.9864366054534912
","x: 140.56866455078125
y: 539.0184326171875
z: -0.012458286248147488
visibility: 0.9913851618766785
",,,,,,,,,,,,,,,,,,,,,,,,,,,,,,,,,,,,,,,,,,
24,"x: 173.91110229492188
y: 290.3665771484375
z: -0.2091379165649414
visibility: 0.9997722506523132
","x: 177.1074676513672
y: 286.10638427734375
z: -0.19347350299358368
visibility: 0.999476969242096
","x: 178.5890350341797
y: 286.6672668457031
z: -0.19350816309452057
visibility: 0.9993696212768555
","x: 179.92587280273438
y: 287.1983947753906
z: -0.19355183839797974
visibility: 0.9993436932563782
","x: 173.21913146972656
y: 284.9273376464844
z: -0.19237519800662994
visibility: 0.9996052980422974
","x: 171.9755859375
y: 284.7127685546875
z: -0.19239124655723572
visibility: 0.9995656609535217
","x: 170.74880981445312
y: 284.5464782714844
z: -0.19239968061447144
visibility: 0.9996078610420227
","x: 181.94671630859375
y: 289.98309326171875
z: -0.09696061909198761
visibility: 0.9989943504333496
","x: 169.51605224609375
y: 286.1925354003906
z: -0.09385038912296295
visibility: 0.999377965927124
","x: 176.15762329101562
y: 296.9644470214844
z: -0.17327433824539185
visibility: 0.9991039037704468
","x: 171.3459930419922
y: 295.42376708984375
z: -0.1727021336555481
visibility: 0.9993280172348022
","x: 192.0302276611328
y: 321.7658996582031
z: -0.05320234224200249
visibility: 0.9995301961898804
","x: 158.2720184326172
y: 320.0074462890625
z: -0.03193392604589462
visibility: 0.9996713995933533
","x: 200.53753662109375
y: 371.52587890625
z: -0.16416461765766144
visibility: 0.9906318187713623
","x: 150.7344970703125
y: 358.64990234375
z: -0.13336296379566193
visibility: 0.9334751963615417
","x: 206.55844116210938
y: 346.2159729003906
z: -0.33955785632133484
visibility: 0.9681406021118164
","x: 142.8336181640625
y: 343.1750183105469
z: -0.33244335651397705
visibility: 0.8667315244674683
","x: 204.57485961914062
y: 336.20062255859375
z: -0.3768959045410156
visibility: 0.9214749336242676
","x: 138.59988403320312
y: 338.97320556640625
z: -0.37444746494293213
visibility: 0.7852281928062439
","x: 202.5701141357422
y: 330.7702331542969
z: -0.37322235107421875
visibility: 0.9178422093391418
","x: 138.90289306640625
y: 337.16790771484375
z: -0.3713953197002411
visibility: 0.7858989238739014
","x: 202.6494903564453
y: 333.9271545410156
z: -0.34254032373428345
visibility: 0.9104674458503723
","x: 141.3026885986328
y: 339.1632080078125
z: -0.3405373692512512
visibility: 0.7638083100318909
","x: 188.2028045654297
y: 414.5110778808594
z: -0.006769256200641394
visibility: 0.9998418092727661
","x: 164.45053100585938
y: 415.38165283203125
z: 0.006719763390719891
visibility: 0.9998807311058044
","x: 198.93667602539062
y: 469.66546630859375
z: -0.033246077597141266
visibility: 0.9947130084037781
","x: 149.95223999023438
y: 461.6015319824219
z: -0.16919347643852234
visibility: 0.9959276914596558
","x: 204.53048706054688
y: 523.962890625
z: 0.1753426194190979
visibility: 0.9921615123748779
","x: 147.14846801757812
y: 519.0241088867188
z: 0.016811592504382133
visibility: 0.9954360127449036
","x: 202.08514404296875
y: 533.0252685546875
z: 0.20305976271629333
visibility: 0.9126120805740356
","x: 150.6581268310547
y: 527.1468505859375
z: 0.030670270323753357
visibility: 0.9338415265083313
","x: 210.11798095703125
y: 544.9942626953125
z: 0.09175461530685425
visibility: 0.9866744875907898
","x: 140.6028289794922
y: 538.998779296875
z: -0.07327862083911896
visibility: 0.9918293356895447
","x: 196.0838623046875
y: 342.28387451171875
z: 0.0
","x: 194.36196899414062
y: 335.2516174316406
z: 0.0014549765037372708
","x: 194.2416534423828
y: 328.4853515625
z: 0.00055804563453421
","x: 194.3460235595703
y: 324.04815673828125
z: -0.0016160222003236413
","x: 193.45591735839844
y: 321.069091796875
z: -0.003355693304911256
","x: 197.1481475830078
y: 322.8553771972656
z: 0.000517168315127492
","x: 197.4730682373047
y: 315.42071533203125
z: -0.0027670820709317923
","x: 196.4158172607422
y: 315.4876403808594
z: -0.003918927628546953
","x: 195.7103271484375
y: 317.56732177734375
z: -0.004253070335835218
","x: 198.7307891845703
y: 324.8008728027344
z: -0.0025032188277691603
","x: 197.52223205566406
y: 319.6012268066406
z: -0.006172806955873966
","x: 196.25489807128906
y: 323.16705322265625
z: -0.005974404979497194
","x: 196.01138305664062
y: 326.1740417480469
z: -0.005013497546315193
","x: 200.128662109375
y: 327.5999450683594
z: -0.005895002745091915
","x: 198.75746154785156
y: 323.1734619140625
z: -0.008842062205076218
","x: 197.55908203125
y: 326.31573486328125
z: -0.007066113408654928
","x: 197.29428100585938
y: 329.0789489746094
z: -0.005297061521559954
","x: 201.39117431640625
y: 331.0278015136719
z: -0.00947321392595768
","x: 200.40182495117188
y: 326.8173522949219
z: -0.010870028287172318
","x: 199.16696166992188
y: 328.4547119140625
z: -0.009484772570431232
","x: 198.76783752441406
y: 330.5888671875
z: -0.008078277111053467
",,,,,,,,,,,,,,,,,,,,,
25,"x: 173.91110229492188
y: 290.3665771484375
z: -0.2091379165649414
visibility: 0.9997722506523132
","x: 177.1074676513672
y: 286.10638427734375
z: -0.19347350299358368
visibility: 0.999476969242096
","x: 178.5890350341797
y: 286.6672668457031
z: -0.19350816309452057
visibility: 0.9993696212768555
","x: 179.92587280273438
y: 287.1983947753906
z: -0.19355183839797974
visibility: 0.9993436932563782
","x: 173.21913146972656
y: 284.9273376464844
z: -0.19237519800662994
visibility: 0.9996052980422974
","x: 171.9755859375
y: 284.7127685546875
z: -0.19239124655723572
visibility: 0.9995656609535217
","x: 170.74880981445312
y: 284.5464782714844
z: -0.19239968061447144
visibility: 0.9996078610420227
","x: 181.94671630859375
y: 289.98309326171875
z: -0.09696061909198761
visibility: 0.9989943504333496
","x: 169.51605224609375
y: 286.1925354003906
z: -0.09385038912296295
visibility: 0.999377965927124
","x: 176.15762329101562
y: 296.9644470214844
z: -0.17327433824539185
visibility: 0.9991039037704468
","x: 171.3459930419922
y: 295.42376708984375
z: -0.1727021336555481
visibility: 0.9993280172348022
","x: 192.0302276611328
y: 321.7658996582031
z: -0.05320234224200249
visibility: 0.9995301961898804
","x: 158.2720184326172
y: 320.0074462890625
z: -0.03193392604589462
visibility: 0.9996713995933533
","x: 200.53753662109375
y: 371.52587890625
z: -0.16416461765766144
visibility: 0.9906318187713623
","x: 150.7344970703125
y: 358.64990234375
z: -0.13336296379566193
visibility: 0.9334751963615417
","x: 206.55844116210938
y: 346.2159729003906
z: -0.33955785632133484
visibility: 0.9681406021118164
","x: 142.8336181640625
y: 343.1750183105469
z: -0.33244335651397705
visibility: 0.8667315244674683
","x: 204.57485961914062
y: 336.20062255859375
z: -0.3768959045410156
visibility: 0.9214749336242676
","x: 138.59988403320312
y: 338.97320556640625
z: -0.37444746494293213
visibility: 0.7852281928062439
","x: 202.5701141357422
y: 330.7702331542969
z: -0.37322235107421875
visibility: 0.9178422093391418
","x: 138.90289306640625
y: 337.16790771484375
z: -0.3713953197002411
visibility: 0.7858989238739014
","x: 202.6494903564453
y: 333.9271545410156
z: -0.34254032373428345
visibility: 0.9104674458503723
","x: 141.3026885986328
y: 339.1632080078125
z: -0.3405373692512512
visibility: 0.7638083100318909
","x: 188.2028045654297
y: 414.5110778808594
z: -0.006769256200641394
visibility: 0.9998418092727661
","x: 164.45053100585938
y: 415.38165283203125
z: 0.006719763390719891
visibility: 0.9998807311058044
","x: 198.93667602539062
y: 469.66546630859375
z: -0.033246077597141266
visibility: 0.9947130084037781
","x: 149.95223999023438
y: 461.6015319824219
z: -0.16919347643852234
visibility: 0.9959276914596558
","x: 204.53048706054688
y: 523.962890625
z: 0.1753426194190979
visibility: 0.9921615123748779
","x: 147.14846801757812
y: 519.0241088867188
z: 0.016811592504382133
visibility: 0.9954360127449036
","x: 202.08514404296875
y: 533.0252685546875
z: 0.20305976271629333
visibility: 0.9126120805740356
","x: 150.6581268310547
y: 527.1468505859375
z: 0.030670270323753357
visibility: 0.9338415265083313
","x: 210.11798095703125
y: 544.9942626953125
z: 0.09175461530685425
visibility: 0.9866744875907898
","x: 140.6028289794922
y: 538.998779296875
z: -0.07327862083911896
visibility: 0.9918293356895447
","x: 196.0838623046875
y: 342.28387451171875
z: 0.0
","x: 194.36196899414062
y: 335.2516174316406
z: 0.0014549765037372708
","x: 194.2416534423828
y: 328.4853515625
z: 0.00055804563453421
","x: 194.3460235595703
y: 324.04815673828125
z: -0.0016160222003236413
","x: 193.45591735839844
y: 321.069091796875
z: -0.003355693304911256
","x: 197.1481475830078
y: 322.8553771972656
z: 0.000517168315127492
","x: 197.4730682373047
y: 315.42071533203125
z: -0.0027670820709317923
","x: 196.4158172607422
y: 315.4876403808594
z: -0.003918927628546953
","x: 195.7103271484375
y: 317.56732177734375
z: -0.004253070335835218
","x: 198.7307891845703
y: 324.8008728027344
z: -0.0025032188277691603
","x: 197.52223205566406
y: 319.6012268066406
z: -0.006172806955873966
","x: 196.25489807128906
y: 323.16705322265625
z: -0.005974404979497194
","x: 196.01138305664062
y: 326.1740417480469
z: -0.005013497546315193
","x: 200.128662109375
y: 327.5999450683594
z: -0.005895002745091915
","x: 198.75746154785156
y: 323.1734619140625
z: -0.008842062205076218
","x: 197.55908203125
y: 326.31573486328125
z: -0.007066113408654928
","x: 197.29428100585938
y: 329.0789489746094
z: -0.005297061521559954
","x: 201.39117431640625
y: 331.0278015136719
z: -0.00947321392595768
","x: 200.40182495117188
y: 326.8173522949219
z: -0.010870028287172318
","x: 199.16696166992188
y: 328.4547119140625
z: -0.009484772570431232
","x: 198.76783752441406
y: 330.5888671875
z: -0.008078277111053467
",,,,,,,,,,,,,,,,,,,,,
26,"x: 172.00296020507812
y: 273.0109558105469
z: -0.21205970644950867
visibility: 0.9997942447662354
","x: 174.46595764160156
y: 267.10125732421875
z: -0.19719812273979187
visibility: 0.9995279908180237
","x: 176.004150390625
y: 267.33392333984375
z: -0.19722771644592285
visibility: 0.9994312524795532
","x: 177.3375244140625
y: 267.54583740234375
z: -0.1972828507423401
visibility: 0.999407947063446
","x: 170.28599548339844
y: 266.3011779785156
z: -0.19723781943321228
visibility: 0.9996428489685059
","x: 169.02536010742188
y: 266.09576416015625
z: -0.19724002480506897
visibility: 0.9996064305305481
","x: 167.82192993164062
y: 266.0364990234375
z: -0.1972225457429886
visibility: 0.9996440410614014
","x: 179.08482360839844
y: 269.6996765136719
z: -0.10289834439754486
visibility: 0.9990922808647156
","x: 165.79672241210938
y: 269.2462463378906
z: -0.10440897941589355
visibility: 0.999435544013977
","x: 174.3711395263672
y: 279.20709228515625
z: -0.17681613564491272
visibility: 0.9991922378540039
","x: 169.68043518066406
y: 278.8443603515625
z: -0.17758072912693024
visibility: 0.9993933439254761
","x: 187.90049743652344
y: 307.12091064453125
z: -0.04938492923974991
visibility: 0.9995703101158142
","x: 154.1326141357422
y: 299.4342346191406
z: -0.05747367814183235
visibility: 0.9996771812438965
","x: 200.57586669921875
y: 336.3528747558594
z: -0.15703214704990387
visibility: 0.9907483458518982
","x: 141.58993530273438
y: 313.6539306640625
z: -0.16247209906578064
visibility: 0.9380308389663696
","x: 205.23895263671875
y: 311.5890808105469
z: -0.32779544591903687
visibility: 0.9700822234153748
","x: 138.8639678955078
y: 283.85662841796875
z: -0.3590533137321472
visibility: 0.8766751289367676
","x: 205.20675659179688
y: 306.6296691894531
z: -0.36224788427352905
visibility: 0.9252540469169617
","x: 136.895263671875
y: 273.6524353027344
z: -0.39830780029296875
visibility: 0.7984241247177124
","x: 203.52818298339844
y: 308.60003662109375
z: -0.359283983707428
visibility: 0.9220348596572876
","x: 138.86282348632812
y: 272.2955627441406
z: -0.39480024576187134
visibility: 0.7985866069793701
","x: 202.77383422851562
y: 306.0503845214844
z: -0.33126595616340637
visibility: 0.9138461351394653
","x: 139.49256896972656
y: 275.97296142578125
z: -0.364517480134964
visibility: 0.7766331434249878
","x: 178.470703125
y: 394.8666076660156
z: 0.001276171999052167
visibility: 0.9998502135276794
","x: 156.2057647705078
y: 394.3232727050781
z: -0.0013252224307507277
visibility: 0.9998800754547119
","x: 188.7604522705078
y: 457.47430419921875
z: -0.026496246457099915
visibility: 0.9949499368667603
","x: 146.64678955078125
y: 455.3334045410156
z: -0.006197274662554264
visibility: 0.9961372017860413
","x: 200.02029418945312
y: 520.6834716796875
z: 0.06649918854236603
visibility: 0.9926942586898804
","x: 142.99510192871094
y: 514.6693115234375
z: 0.1606399416923523
visibility: 0.9954962730407715
","x: 197.12684631347656
y: 530.1151733398438
z: 0.07086054235696793
visibility: 0.9180346727371216
","x: 143.9180145263672
y: 520.0492553710938
z: 0.17234490811824799
visibility: 0.9313473701477051
","x: 208.58837890625
y: 541.8993530273438
z: -0.03697792440652847
visibility: 0.9875234365463257
","x: 140.51991271972656
y: 538.8746948242188
z: 0.07915864139795303
visibility: 0.9917200803756714
",,,,,,,,,,,,,,,,,,,,,,,,,,,,,,,,,,,,,,,,,,
27,"x: 167.2731475830078
y: 272.3983459472656
z: -0.28307634592056274
visibility: 0.9998143911361694
","x: 168.05029296875
y: 268.4527282714844
z: -0.2682245373725891
visibility: 0.9995741248130798
","x: 169.04229736328125
y: 268.7090759277344
z: -0.26821646094322205
visibility: 0.9994869232177734
","x: 170.07366943359375
y: 269.0005798339844
z: -0.26828786730766296
visibility: 0.9994657039642334
","x: 165.2596893310547
y: 268.12945556640625
z: -0.27250659465789795
visibility: 0.9996775984764099
","x: 164.19187927246094
y: 268.2154541015625
z: -0.2725461721420288
visibility: 0.9996447563171387
","x: 163.01051330566406
y: 268.3691101074219
z: -0.2725611627101898
visibility: 0.9996784925460815
","x: 171.26956176757812
y: 272.5069274902344
z: -0.17962850630283356
visibility: 0.9991815686225891
","x: 160.3308563232422
y: 271.9115905761719
z: -0.19795382022857666
visibility: 0.999491274356842
","x: 169.01815795898438
y: 279.2865905761719
z: -0.249607652425766
visibility: 0.999271810054779
","x: 165.28807067871094
y: 278.9500732421875
z: -0.25511810183525085
visibility: 0.9994531273841858
","x: 181.1559295654297
y: 306.314697265625
z: -0.12054449319839478
visibility: 0.9996025562286377
","x: 146.0323028564453
y: 296.6210632324219
z: -0.16356946527957916
visibility: 0.9997032284736633
","x: 201.2993621826172
y: 315.9331970214844
z: -0.17983373999595642
visibility: 0.9914606809616089
","x: 124.02207946777344
y: 286.9564514160156
z: -0.2280302792787552
visibility: 0.944157063961029
","x: 214.1839599609375
y: 288.1563720703125
z: -0.3225303888320923
visibility: 0.9724498987197876
","x: 113.0372314453125
y: 263.6868896484375
z: -0.33696526288986206
visibility: 0.8886187672615051
","x: 217.76893615722656
y: 277.223388671875
z: -0.3550325334072113
visibility: 0.9300073981285095
","x: 108.11477661132812
y: 253.18338012695312
z: -0.36536887288093567
visibility: 0.8166903257369995
","x: 216.67222595214844
y: 273.81689453125
z: -0.36040163040161133
visibility: 0.9273099303245544
","x: 109.41412353515625
y: 249.48922729492188
z: -0.37529391050338745
visibility: 0.8168567419052124
","x: 215.1068878173828
y: 277.59130859375
z: -0.33140799403190613
visibility: 0.919918417930603
","x: 110.38116455078125
y: 254.2050018310547
z: -0.34691864252090454
visibility: 0.7968742251396179
","x: 168.10406494140625
y: 396.74847412109375
z: 0.007064107805490494
visibility: 0.9998557567596436
","x: 146.36045837402344
y: 394.33050537109375
z: -0.007130440324544907
visibility: 0.9998868107795715
","x: 179.53341674804688
y: 458.20068359375
z: -0.016378864645957947
visibility: 0.9952749609947205
","x: 132.28111267089844
y: 455.81549072265625
z: -0.0078026787377893925
visibility: 0.996480405330658
","x: 183.8859100341797
y: 519.2235107421875
z: 0.11701242625713348
visibility: 0.9932308793067932
","x: 123.58641052246094
y: 513.9044189453125
z: 0.1036379337310791
visibility: 0.9958621859550476
","x: 180.46739196777344
y: 529.6062622070312
z: 0.1249581128358841
visibility: 0.9241352081298828
","x: 125.07805633544922
y: 520.0934448242188
z: 0.10996662080287933
