uscmakers/ReverseChoreography/data/6_woman_doja_cat.csv
,NOSE,LEFT_EYE_INNER,LEFT_EYE,LEFT_EYE_OUTER,RIGHT_EYE_INNER,RIGHT_EYE,RIGHT_EYE_OUTER,LEFT_EAR,RIGHT_EAR,MOUTH_LEFT,MOUTH_RIGHT,LEFT_SHOULDER,RIGHT_SHOULDER,LEFT_ELBOW,RIGHT_ELBOW,LEFT_WRIST,RIGHT_WRIST,LEFT_PINKY,RIGHT_PINKY,LEFT_INDEX,RIGHT_INDEX,LEFT_THUMB,RIGHT_THUMB,LEFT_HIP,RIGHT_HIP,LEFT_KNEE,RIGHT_KNEE,LEFT_ANKLE,RIGHT_ANKLE,LEFT_HEEL,RIGHT_HEEL,LEFT_FOOT_INDEX,RIGHT_FOOT_INDEX,WRIST,THUMB_CPC,THUMB_MCP,THUMB_IP,THUMB_TIP,INDEX_FINGER_MCP,INDEX_FINGER_PIP,INDEX_FINGER_DIP,INDEX_FINGER_TIP,MIDDLE_FINGER_MCP,MIDDLE_FINGER_PIP,MIDDLE_FINGER_DIP,MIDDLE_FINGER_TIP,RING_FINGER_PIP,RING_FINGER_DIP,RING_FINGER_TIP,RING_FINGER_MCP,PINKY_MCP,PINKY_PIP,PINKY_DIP,PINKY_TIP,WRIST2,THUMB_CPC2,THUMB_MCP2,THUMB_IP2,THUMB_TIP2,INDEX_FINGER_MCP2,INDEX_FINGER_PIP2,INDEX_FINGER_DIP2,INDEX_FINGER_TIP2,MIDDLE_FINGER_MCP2,MIDDLE_FINGER_PIP2,MIDDLE_FINGER_DIP2,MIDDLE_FINGER_TIP2,RING_FINGER_PIP2,RING_FINGER_DIP2,RING_FINGER_TIP2,RING_FINGER_MCP2,PINKY_MCP2,PINKY_PIP2,PINKY_DIP2,PINKY_TIP2
0,"x: 190.24063110351562
y: 276.9462890625
z: -0.3649076819419861
visibility: 0.9999552965164185
","x: 192.83767700195312
y: 271.93170166015625
z: -0.3529461920261383
visibility: 0.9998459815979004
","x: 194.03981018066406
y: 272.43463134765625
z: -0.35292917490005493
visibility: 0.9998264908790588
","x: 195.25523376464844
y: 273.047119140625
z: -0.3529494106769562
visibility: 0.9998010993003845
","x: 188.94384765625
y: 270.67974853515625
z: -0.3550812900066376
visibility: 0.9998594522476196
","x: 187.5294647216797
y: 270.3884582519531
z: -0.35514333844184875
visibility: 0.9998694658279419
","x: 186.2153778076172
y: 270.21807861328125
z: -0.3551764488220215
visibility: 0.9998626708984375
","x: 196.9237518310547
y: 276.6866760253906
z: -0.2541956603527069
visibility: 0.9993044137954712
","x: 184.1553955078125
y: 273.639892578125
z: -0.2673363983631134
visibility: 0.9996875524520874
","x: 192.51260375976562
y: 284.4453125
z: -0.32587456703186035
visibility: 0.9998612403869629
","x: 187.33837890625
y: 283.1937255859375
z: -0.3297809958457947
visibility: 0.9999014139175415
","x: 207.40704345703125
y: 316.30810546875
z: -0.16582638025283813
visibility: 0.9998990297317505
","x: 171.58169555664062
y: 313.99090576171875
z: -0.18918390572071075
visibility: 0.9999679327011108
","x: 212.81639099121094
y: 366.6288757324219
z: -0.10670699179172516
visibility: 0.9564672708511353
","x: 165.0679168701172
y: 364.8489990234375
z: -0.15383067727088928
visibility: 0.969527542591095
","x: 218.57098388671875
y: 413.4971923828125
z: -0.16285006701946259
visibility: 0.8877427577972412
","x: 161.6654052734375
y: 407.9172058105469
z: -0.21591930091381073
visibility: 0.8837343454360962
","x: 220.10137939453125
y: 427.5692138671875
z: -0.18194253742694855
visibility: 0.7805744409561157
","x: 161.0189666748047
y: 420.6722717285156
z: -0.23845639824867249
visibility: 0.7935485243797302
","x: 217.85499572753906
y: 426.73260498046875
z: -0.2072112262248993
visibility: 0.7933306097984314
","x: 162.19723510742188
y: 419.9722900390625
z: -0.26733529567718506
visibility: 0.8019127249717712
","x: 216.4564971923828
y: 422.8170166015625
z: -0.17386619746685028
visibility: 0.7624346613883972
","x: 162.81588745117188
y: 416.2115173339844
z: -0.22839589416980743
visibility: 0.7762235403060913
","x: 198.8944549560547
y: 411.2386779785156
z: 0.005230306647717953
visibility: 0.9999490976333618
","x: 176.66136169433594
y: 409.9501953125
z: -0.005366879049688578
visibility: 0.9999697208404541
","x: 201.95350646972656
y: 470.7825012207031
z: 0.08248550444841385
visibility: 0.9833548665046692
","x: 168.4737091064453
y: 471.1266784667969
z: 0.03068121336400509
visibility: 0.9920997023582458
","x: 209.61898803710938
y: 527.7354736328125
z: 0.27289795875549316
visibility: 0.9884371161460876
","x: 159.23651123046875
y: 519.17041015625
z: 0.22171998023986816
visibility: 0.9927264451980591
","x: 207.1431884765625
y: 537.2855224609375
z: 0.2868223488330841
visibility: 0.9135461449623108
","x: 161.84976196289062
y: 528.6925659179688
z: 0.23552003502845764
visibility: 0.891812801361084
","x: 219.7056427001953
y: 546.36767578125
z: 0.19326268136501312
visibility: 0.9840017557144165
","x: 152.9379119873047
y: 543.5643920898438
z: 0.13196250796318054
visibility: 0.9884552955627441
",,,,,,,,,,,,,,,,,,,,,,,,,,,,,,,,,,,,,,,,,,
1,"x: 188.5201416015625
y: 277.4168701171875
z: -0.32785117626190186
visibility: 0.9999584555625916
","x: 190.48886108398438
y: 272.167236328125
z: -0.316650927066803
visibility: 0.999856173992157
","x: 191.83447265625
y: 272.5595703125
z: -0.3166327476501465
visibility: 0.9998383522033691
","x: 193.1748046875
y: 273.0884094238281
z: -0.31664177775382996
visibility: 0.9998143911361694
","x: 186.7274169921875
y: 271.5230712890625
z: -0.3172541558742523
visibility: 0.9998688697814941
","x: 185.53233337402344
y: 271.4766540527344
z: -0.31731826066970825
visibility: 0.9998784065246582
","x: 184.47474670410156
y: 271.5193786621094
z: -0.31734007596969604
visibility: 0.9998714923858643
","x: 195.28561401367188
y: 276.6873474121094
z: -0.2268371880054474
visibility: 0.9993548393249512
","x: 183.2003173828125
y: 274.820068359375
z: -0.23149804770946503
visibility: 0.9997091889381409
","x: 191.55250549316406
y: 284.714599609375
z: -0.2927226126194
visibility: 0.9998714923858643
","x: 186.19468688964844
y: 283.9538269042969
z: -0.29416853189468384
visibility: 0.9999077320098877
","x: 207.22262573242188
y: 318.0569152832031
z: -0.14241966605186462
visibility: 0.9999030828475952
","x: 170.80958557128906
y: 313.97259521484375
z: -0.17079848051071167
visibility: 0.9999687671661377
","x: 212.9120635986328
y: 366.9970703125
z: -0.08289729058742523
visibility: 0.9577990174293518
","x: 165.51156616210938
y: 365.0958557128906
z: -0.14191769063472748
visibility: 0.969137966632843
","x: 218.55491638183594
y: 413.48931884765625
z: -0.13474364578723907
visibility: 0.8902971148490906
","x: 162.9538116455078
y: 409.11199951171875
z: -0.1978178173303604
visibility: 0.883194625377655
","x: 219.91587829589844
y: 427.1826477050781
z: -0.15047895908355713
visibility: 0.7847317457199097
","x: 162.17550659179688
y: 421.63104248046875
z: -0.2217620313167572
visibility: 0.7925542593002319
","x: 217.85403442382812
y: 426.54364013671875
z: -0.17788323760032654
visibility: 0.7975701689720154
","x: 163.36489868164062
y: 421.2145690917969
z: -0.2457861453294754
visibility: 0.800683319568634
","x: 216.5569305419922
y: 422.6051330566406
z: -0.14668215811252594
visibility: 0.7680721879005432
","x: 164.21792602539062
y: 417.31640625
z: -0.2088501900434494
visibility: 0.7756611704826355
","x: 198.49810791015625
y: 411.8631591796875
z: 0.006472330540418625
visibility: 0.9999449849128723
","x: 176.30825805664062
y: 410.5099182128906
z: -0.006618807557970285
visibility: 0.9999668002128601
","x: 201.97845458984375
y: 471.46124267578125
z: 0.0754249319434166
visibility: 0.9841610789299011
","x: 168.411376953125
y: 470.9991455078125
z: 0.03174969553947449
visibility: 0.9925073385238647
","x: 209.6472625732422
y: 527.6196899414062
z: 0.25400543212890625
visibility: 0.9886914491653442
","x: 159.22515869140625
y: 519.802734375
z: 0.2177366316318512
visibility: 0.9929980039596558
","x: 207.08721923828125
y: 537.41552734375
z: 0.2665524482727051
visibility: 0.9136306047439575
","x: 161.73023986816406
y: 528.76171875
z: 0.230770543217659
visibility: 0.8930606245994568
","x: 219.24945068359375
y: 546.5341796875
z: 0.17327135801315308
visibility: 0.9840682148933411
","x: 152.9510498046875
y: 543.2529296875
z: 0.13041846454143524
visibility: 0.9886903166770935
",,,,,,,,,,,,,,,,,,,,,,,,,,,,,,,,,,,,,,,,,,
2,"x: 184.2635955810547
y: 278.8193664550781
z: -0.3284100294113159
visibility: 0.99996018409729
","x: 185.84237670898438
y: 272.7135314941406
z: -0.3175264298915863
visibility: 0.999860942363739
","x: 187.1172637939453
y: 272.80389404296875
z: -0.3175152838230133
visibility: 0.9998447299003601
","x: 188.41378784179688
y: 273.13140869140625
z: -0.31753480434417725
visibility: 0.9998213648796082
","x: 182.26626586914062
y: 272.84588623046875
z: -0.31787559390068054
visibility: 0.9998733997344971
","x: 181.07594299316406
y: 272.96624755859375
z: -0.31793397665023804
visibility: 0.999882161617279
","x: 179.9384002685547
y: 273.1576232910156
z: -0.3179666996002197
visibility: 0.9998738765716553
","x: 190.5074462890625
y: 276.29766845703125
z: -0.22632291913032532
visibility: 0.9993890523910522
","x: 178.4048309326172
y: 275.976318359375
z: -0.22888962924480438
visibility: 0.9997175931930542
","x: 187.03271484375
y: 285.15130615234375
z: -0.29228007793426514
visibility: 0.9998785257339478
","x: 182.19720458984375
y: 285.235595703125
z: -0.29315146803855896
visibility: 0.9999105334281921
","x: 203.6444549560547
y: 318.1360778808594
z: -0.14081749320030212
visibility: 0.9999060034751892
","x: 167.15296936035156
y: 313.8436584472656
z: -0.16685564815998077
visibility: 0.9999675750732422
","x: 210.03211975097656
y: 367.0804443359375
z: -0.08598102629184723
visibility: 0.959385871887207
","x: 162.77102661132812
y: 364.9406433105469
z: -0.14094538986682892
visibility: 0.9674367904663086
","x: 214.9970245361328
y: 413.5032958984375
z: -0.1416936069726944
visibility: 0.8934019804000854
","x: 161.36874389648438
y: 409.0559387207031
z: -0.1988581269979477
visibility: 0.8798877596855164
","x: 216.75399780273438
y: 427.1539306640625
z: -0.15922972559928894
visibility: 0.7900705933570862
","x: 160.93331909179688
y: 421.6090393066406
z: -0.22375056147575378
visibility: 0.7880793213844299
","x: 214.93629455566406
y: 426.58026123046875
z: -0.18671882152557373
visibility: 0.8029078245162964
","x: 161.98696899414062
y: 421.17779541015625
z: -0.24806980788707733
visibility: 0.7958223223686218
","x: 213.41961669921875
y: 422.65576171875
z: -0.15379206836223602
visibility: 0.7746669054031372
","x: 163.0045928955078
y: 417.3031921386719
z: -0.21006043255329132
visibility: 0.7709051370620728
","x: 195.6409149169922
y: 412.22052001953125
z: 0.00633573904633522
visibility: 0.9999418258666992
","x: 173.34872436523438
y: 411.93316650390625
z: -0.006465212441980839
visibility: 0.9999628663063049
","x: 200.80258178710938
y: 472.987060546875
z: 0.06827394664287567
visibility: 0.9851452112197876
","x: 166.06488037109375
y: 471.0974426269531
z: 0.07342500239610672
visibility: 0.992831826210022
","x: 209.64463806152344
y: 527.559814453125
z: 0.23245210945606232
visibility: 0.9891985654830933
","x: 159.05718994140625
y: 520.7398681640625
z: 0.27817851305007935
visibility: 0.9932551980018616
","x: 207.0143280029297
y: 537.4157104492188
z: 0.24361708760261536
visibility: 0.9167783260345459
","x: 161.63619995117188
y: 529.1052856445312
z: 0.2933860421180725
visibility: 0.8968859314918518
","x: 219.15390014648438
y: 546.8016967773438
z: 0.14527276158332825
visibility: 0.9846670627593994
","x: 152.9423828125
y: 543.2498779296875
z: 0.1966893970966339
visibility: 0.9888955354690552
",,,,,,,,,,,,,,,,,,,,,,,,,,,,,,,,,,,,,,,,,,
3,"x: 179.45407104492188
y: 279.1208190917969
z: -0.3146008849143982
visibility: 0.9999610781669617
","x: 181.2049102783203
y: 272.8603820800781
z: -0.3048930764198303
visibility: 0.9998621940612793
","x: 182.5948028564453
y: 272.8585510253906
z: -0.3048791289329529
visibility: 0.9998467564582825
","x: 184.00791931152344
y: 273.13201904296875
z: -0.30488598346710205
visibility: 0.9998222589492798
","x: 177.6953125
y: 273.25909423828125
z: -0.3042578101158142
visibility: 0.9998762607574463
","x: 176.54714965820312
y: 273.42547607421875
z: -0.304318368434906
visibility: 0.9998849630355835
","x: 175.3506317138672
y: 273.6236267089844
z: -0.3043581545352936
visibility: 0.9998767375946045
","x: 186.52598571777344
y: 276.2330322265625
z: -0.2183184176683426
visibility: 0.9994031190872192
","x: 174.1080322265625
y: 276.3199157714844
z: -0.21643519401550293
visibility: 0.9997289180755615
","x: 182.0491180419922
y: 285.2901916503906
z: -0.2801143229007721
visibility: 0.999882698059082
","x: 177.74090576171875
y: 285.6749267578125
z: -0.27968335151672363
visibility: 0.9999133944511414
","x: 199.6451873779297
y: 318.10589599609375
z: -0.13265091180801392
visibility: 0.9999014139175415
","x: 163.20445251464844
y: 313.6693115234375
z: -0.15396203100681305
visibility: 0.9999687075614929
","x: 204.50523376464844
y: 366.3403625488281
z: -0.07211609929800034
visibility: 0.9579130411148071
","x: 158.19561767578125
y: 364.94366455078125
z: -0.12165536731481552
visibility: 0.968433141708374
","x: 208.92662048339844
y: 412.93353271484375
z: -0.12314138561487198
visibility: 0.8842421770095825
","x: 155.90225219726562
y: 409.212890625
z: -0.17323724925518036
visibility: 0.8845701813697815
","x: 211.0448760986328
y: 426.1095886230469
z: -0.13790038228034973
visibility: 0.7780039310455322
","x: 155.23655700683594
y: 421.5887756347656
z: -0.19575901329517365
visibility: 0.794294536113739
","x: 209.78970336914062
y: 425.400390625
z: -0.1644759327173233
visibility: 0.7915248870849609
","x: 156.63119506835938
y: 421.1778564453125
z: -0.21753279864788055
visibility: 0.8016214370727539
","x: 208.38015747070312
y: 421.6141052246094
z: -0.1349303275346756
visibility: 0.7649532556533813
","x: 157.7791290283203
y: 417.3684387207031
z: -0.18317581713199615
visibility: 0.7775048613548279
","x: 192.1068878173828
y: 411.9813232421875
z: 0.0062661259435117245
visibility: 0.9999340772628784
","x: 169.72317504882812
y: 411.86163330078125
z: -0.006399744190275669
visibility: 0.9999572038650513
","x: 199.36546325683594
y: 472.9052734375
z: 0.05873358994722366
visibility: 0.9858253598213196
","x: 163.92416381835938
y: 471.09454345703125
z: 0.06269346922636032
visibility: 0.9930776357650757
","x: 209.647705078125
y: 527.5595703125
z: 0.21010026335716248
visibility: 0.9895528554916382
","x: 158.8376007080078
y: 520.939208984375
z: 0.25465887784957886
visibility: 0.9933903813362122
","x: 206.98184204101562
y: 537.45751953125
z: 0.22009038925170898
visibility: 0.9185139536857605
","x: 161.4710235595703
y: 529.1184692382812
z: 0.26885300874710083
visibility: 0.8989210724830627
","x: 219.11004638671875
y: 547.0286865234375
z: 0.12281082570552826
visibility: 0.9850186705589294
","x: 152.97372436523438
y: 543.2428588867188
z: 0.17135845124721527
visibility: 0.9889199137687683
",,,,,,,,,,,,,,,,,,,,,,,,,,,,,,,,,,,,,,,,,,
4,"x: 176.63233947753906
y: 279.09228515625
z: -0.32224041223526
visibility: 0.999962329864502
","x: 178.21649169921875
y: 272.7326354980469
z: -0.31206077337265015
visibility: 0.9998660087585449
","x: 179.62747192382812
y: 272.60064697265625
z: -0.3120521903038025
visibility: 0.999851644039154
","x: 181.06161499023438
y: 272.6490478515625
z: -0.31207138299942017
visibility: 0.9998270869255066
","x: 174.7428741455078
y: 273.19378662109375
z: -0.3119087815284729
visibility: 0.9998803734779358
","x: 173.60284423828125
y: 273.4024658203125
z: -0.3119661509990692
visibility: 0.9998883605003357
","x: 172.3651580810547
y: 273.68304443359375
z: -0.31200110912323
visibility: 0.9998793601989746
","x: 183.69822692871094
y: 275.5166320800781
z: -0.22292573750019073
visibility: 0.999428927898407
","x: 171.18447875976562
y: 276.615234375
z: -0.22320035099983215
visibility: 0.9997400045394897
","x: 179.45738220214844
y: 285.1552734375
z: -0.2867019474506378
visibility: 0.9998874068260193
","x: 175.1147918701172
y: 285.5997314453125
z: -0.2869107127189636
visibility: 0.9999160170555115
","x: 197.21502685546875
y: 317.2665710449219
z: -0.13505704700946808
visibility: 0.9999004602432251
","x: 160.21044921875
y: 312.7889099121094
z: -0.1589537411928177
visibility: 0.9999686479568481
","x: 202.16099548339844
y: 365.02557373046875
z: -0.07525534927845001
visibility: 0.9576331377029419
","x: 153.4484100341797
y: 361.1947326660156
z: -0.12969903647899628
visibility: 0.9687868356704712
","x: 206.36790466308594
y: 410.5563659667969
z: -0.12499632686376572
visibility: 0.8802192211151123
","x: 152.19772338867188
y: 408.08160400390625
z: -0.18291544914245605
visibility: 0.8851987719535828
","x: 208.97315979003906
y: 423.9233703613281
z: -0.13940569758415222
visibility: 0.7716240882873535
","x: 151.83897399902344
y: 419.9476623535156
z: -0.2049872875213623
visibility: 0.7932886481285095
","x: 207.82896423339844
y: 423.49603271484375
z: -0.16638144850730896
visibility: 0.7858994603157043
","x: 152.8804473876953
y: 420.10443115234375
z: -0.22711870074272156
visibility: 0.8002687692642212
","x: 206.15536499023438
y: 419.8344421386719
z: -0.13688352704048157
visibility: 0.7607215642929077
","x: 154.0631866455078
y: 416.1921691894531
z: -0.19306926429271698
visibility: 0.7766425609588623
","x: 189.57821655273438
y: 410.7729797363281
z: 0.006374380085617304
visibility: 0.9999306797981262
","x: 167.41989135742188
y: 411.2713928222656
z: -0.006499281618744135
visibility: 0.9999529719352722
","x: 198.36932373046875
y: 472.8465576171875
z: 0.04767421633005142
visibility: 0.9865162372589111
","x: 162.6508026123047
y: 470.62298583984375
z: 0.06680245697498322
visibility: 0.9932630658149719
","x: 209.6215057373047
y: 527.48681640625
z: 0.18716582655906677
visibility: 0.9899834394454956
","x: 158.81314086914062
y: 521.289794921875
z: 0.2622942328453064
visibility: 0.9935410618782043
","x: 206.89158630371094
y: 537.504638671875
z: 0.1958637237548828
visibility: 0.9218395948410034
","x: 161.4575653076172
y: 529.2247924804688
z: 0.27676793932914734
visibility: 0.9011260271072388
","x: 219.3810272216797
y: 547.063720703125
z: 0.09614372998476028
visibility: 0.9854903817176819
","x: 152.90928649902344
y: 543.4827270507812
z: 0.17944671213626862
visibility: 0.9889364838600159
",,,,,,,,,,,,,,,,,,,,,,,,,,,,,,,,,,,,,,,,,,
5,"x: 175.01771545410156
y: 279.03375244140625
z: -0.32984957098960876
visibility: 0.9999648332595825
","x: 176.65501403808594
y: 272.44219970703125
z: -0.3194430470466614
visibility: 0.9998743534088135
","x: 178.12213134765625
y: 272.22894287109375
z: -0.31943145394325256
visibility: 0.9998611211776733
","x: 179.4893341064453
y: 272.1660461425781
z: -0.3194498121738434
visibility: 0.9998377561569214
","x: 172.94073486328125
y: 273.1666259765625
z: -0.31972554326057434
visibility: 0.9998883008956909
","x: 171.64915466308594
y: 273.31396484375
z: -0.3197852671146393
visibility: 0.9998952746391296
","x: 170.21585083007812
y: 273.6036071777344
z: -0.31981709599494934
visibility: 0.9998864531517029
","x: 181.90061950683594
y: 274.89227294921875
z: -0.22372844815254211
visibility: 0.9994713068008423
","x: 168.56918334960938
y: 276.82562255859375
z: -0.2304706871509552
visibility: 0.9997586011886597
","x: 178.0526885986328
y: 285.0897521972656
z: -0.29368168115615845
visibility: 0.9998956918716431
","x: 173.3660888671875
y: 285.578369140625
z: -0.29416853189468384
visibility: 0.9999215602874756
","x: 195.97679138183594
y: 316.732177734375
z: -0.14025484025478363
visibility: 0.9999064207077026
","x: 158.11959838867188
y: 312.80487060546875
z: -0.16303850710391998
visibility: 0.9999709129333496
","x: 199.3561248779297
y: 364.4955139160156
z: -0.07814174890518188
visibility: 0.9587249159812927
","x: 150.11483764648438
y: 360.15087890625
z: -0.1246967762708664
visibility: 0.9703578352928162
","x: 206.01849365234375
y: 406.50042724609375
z: -0.12628082931041718
visibility: 0.8806813359260559
","x: 144.86050415039062
y: 407.346923828125
z: -0.16841831803321838
visibility: 0.8901574015617371
","x: 208.6010284423828
y: 419.9825439453125
z: -0.13903966546058655
visibility: 0.7718847393989563
","x: 142.76171875
y: 419.20599365234375
z: -0.1878049075603485
visibility: 0.7988465428352356
","x: 207.68649291992188
y: 419.168701171875
z: -0.1663525253534317
visibility: 0.7864420413970947
","x: 143.9274444580078
y: 419.64788818359375
z: -0.21146976947784424
visibility: 0.805679202079773
","x: 206.1089324951172
y: 415.34912109375
z: -0.13807901740074158
visibility: 0.7623935341835022
","x: 145.06246948242188
y: 415.8834533691406
z: -0.1793074905872345
visibility: 0.7833221554756165
","x: 188.70274353027344
y: 409.6353759765625
z: 0.0074380142614245415
visibility: 0.9999312162399292
","x: 166.22076416015625
y: 410.21044921875
z: -0.007590492721647024
visibility: 0.9999529719352722
","x: 198.53533935546875
y: 473.2823486328125
z: 0.05535528063774109
visibility: 0.9870867729187012
","x: 161.72586059570312
y: 470.56634521484375
z: 0.06241832301020622
visibility: 0.9934766888618469
","x: 209.5896453857422
y: 527.4810791015625
z: 0.2053210437297821
visibility: 0.9903201460838318
","x: 158.80728149414062
y: 521.0670166015625
z: 0.26449358463287354
visibility: 0.993610680103302
","x: 206.80714416503906
y: 537.7138671875
z: 0.21506516635417938
visibility: 0.9243054986000061
","x: 161.50454711914062
y: 528.244140625
z: 0.27976369857788086
visibility: 0.9028014540672302
","x: 219.84820556640625
y: 547.071044921875
z: 0.11695156991481781
visibility: 0.9859521985054016
","x: 152.8013153076172
y: 543.5389404296875
z: 0.18460021913051605
visibility: 0.989008903503418
",,,,,,,,,,,,,,,,,,,,,,,,,,,,,,,,,,,,,,,,,,
6,"x: 177.19134521484375
y: 279.13720703125
z: -0.3111426830291748
visibility: 0.9999648928642273
","x: 178.59774780273438
y: 272.4604187011719
z: -0.3002934455871582
visibility: 0.999872088432312
","x: 179.81431579589844
y: 272.25531005859375
z: -0.3002793788909912
visibility: 0.9998611211776733
","x: 180.96151733398438
y: 272.1805419921875
z: -0.3002910614013672
visibility: 0.9998371601104736
","x: 175.15902709960938
y: 273.127197265625
z: -0.30118298530578613
visibility: 0.9998850226402283
","x: 173.96092224121094
y: 273.2910461425781
z: -0.30123886466026306
visibility: 0.9998931288719177
","x: 172.70977783203125
y: 273.6040344238281
z: -0.3012591600418091
visibility: 0.9998826384544373
","x: 182.97561645507812
y: 274.9187927246094
z: -0.21135306358337402
visibility: 0.9994910359382629
","x: 170.54202270507812
y: 277.081298828125
z: -0.21548564732074738
visibility: 0.9997542500495911
","x: 179.8550262451172
y: 285.37725830078125
z: -0.27625125646591187
visibility: 0.99989914894104
","x: 175.12057495117188
y: 286.8447570800781
z: -0.27741357684135437
visibility: 0.9999216198921204
","x: 196.58834838867188
y: 316.6018981933594
z: -0.1307392567396164
visibility: 0.9999122619628906
","x: 159.9747314453125
y: 312.81298828125
z: -0.15203632414340973
visibility: 0.9999707937240601
","x: 201.6277618408203
y: 362.32550048828125
z: -0.07009825110435486
visibility: 0.9600731730461121
","x: 151.51760864257812
y: 359.58294677734375
z: -0.11884412914514542
visibility: 0.9712953567504883
","x: 207.90353393554688
y: 400.0059509277344
z: -0.12387967109680176
visibility: 0.8858466148376465
","x: 145.79713439941406
y: 403.466552734375
z: -0.17076030373573303
visibility: 0.8947755098342896
","x: 210.26234436035156
y: 410.9427490234375
z: -0.13819843530654907
visibility: 0.780782163143158
","x: 144.33509826660156
y: 415.823486328125
z: -0.1931150257587433
visibility: 0.8050709366798401
","x: 209.17318725585938
y: 409.9411315917969
z: -0.16636249423027039
visibility: 0.7951022982597351
","x: 145.57618713378906
y: 415.2309875488281
z: -0.21706631779670715
visibility: 0.8118468523025513
","x: 207.62252807617188
y: 406.3038330078125
z: -0.13635355234146118
visibility: 0.7718327641487122
","x: 146.7120819091797
y: 411.43670654296875
z: -0.18228843808174133
visibility: 0.7903140187263489
","x: 189.8986053466797
y: 409.7027282714844
z: 0.007410044316202402
visibility: 0.9999274611473083
","x: 167.69998168945312
y: 410.58917236328125
z: -0.0075612664222717285
visibility: 0.9999476671218872
","x: 200.3759307861328
y: 471.60662841796875
z: 0.04818568378686905
visibility: 0.9880401492118835
","x: 162.45494079589844
y: 470.8505859375
z: 0.04534299671649933
visibility: 0.9938267469406128
","x: 209.73411560058594
y: 526.3780517578125
z: 0.2150859534740448
visibility: 0.9908572435379028
","x: 158.86129760742188
y: 521.2798461914062
z: 0.2336464822292328
visibility: 0.9938931465148926
","x: 207.79483032226562
y: 536.075439453125
z: 0.22621294856071472
visibility: 0.9231196641921997
","x: 161.46730041503906
y: 528.25830078125
z: 0.24721701443195343
visibility: 0.9045293927192688
","x: 217.05152893066406
y: 546.8794555664062
z: 0.12478248029947281
visibility: 0.9865555763244629
","x: 152.82907104492188
y: 543.5381469726562
z: 0.148507222533226
visibility: 0.9894714951515198
",,,,,,,,,,,,,,,,,,,,,,,,,,,,,,,,,,,,,,,,,,
7,"x: 178.568359375
y: 279.7309265136719
z: -0.28753501176834106
visibility: 0.9999663829803467
","x: 180.30496215820312
y: 273.3618469238281
z: -0.27422767877578735
visibility: 0.9998774528503418
","x: 181.55335998535156
y: 273.2773132324219
z: -0.2742342948913574
visibility: 0.9998672008514404
","x: 182.73471069335938
y: 273.2813720703125
z: -0.2742641568183899
visibility: 0.999843955039978
","x: 176.70509338378906
y: 273.84246826171875
z: -0.2770833671092987
visibility: 0.9998886585235596
","x: 175.40985107421875
y: 274.0252990722656
z: -0.2771226465702057
visibility: 0.9998963475227356
","x: 174.09619140625
y: 274.3131103515625
z: -0.27713197469711304
visibility: 0.9998844265937805
","x: 184.68638610839844
y: 276.7672119140625
z: -0.17760322988033295
visibility: 0.999518096446991
","x: 172.27786254882812
y: 278.3182067871094
z: -0.1919981837272644
visibility: 0.9997615814208984
","x: 181.24813842773438
y: 286.2267761230469
z: -0.24995458126068115
visibility: 0.9999020099639893
","x: 176.2821807861328
y: 287.2850646972656
z: -0.2540932595729828
visibility: 0.9999207258224487
","x: 197.61512756347656
y: 318.09271240234375
z: -0.09123419970273972
visibility: 0.99991774559021
","x: 161.25912475585938
y: 311.9744567871094
z: -0.1450718343257904
visibility: 0.9999682307243347
","x: 202.95346069335938
y: 362.28387451171875
z: -0.04087226837873459
visibility: 0.9582368731498718
","x: 152.80804443359375
y: 358.74169921875
z: -0.15191057324409485
visibility: 0.9703957438468933
","x: 213.01052856445312
y: 396.6334228515625
z: -0.1076008528470993
visibility: 0.8929094672203064
","x: 148.76779174804688
y: 399.756591796875
z: -0.2442331612110138
visibility: 0.8969702124595642
","x: 217.47348022460938
y: 408.1092529296875
z: -0.1235358715057373
visibility: 0.7940921187400818
","x: 147.09727478027344
y: 411.614501953125
z: -0.274016797542572
visibility: 0.8094497323036194
","x: 217.58018493652344
y: 406.69378662109375
z: -0.1550493836402893
visibility: 0.8081820011138916
","x: 148.37632751464844
y: 411.001708984375
z: -0.2957622706890106
visibility: 0.816394031047821
","x: 215.79881286621094
y: 402.8204650878906
z: -0.12238772958517075
visibility: 0.7861422896385193
","x: 149.64984130859375
y: 407.4384765625
z: -0.256300151348114
visibility: 0.7955331802368164
","x: 190.39990234375
y: 409.8251647949219
z: 0.014766359701752663
visibility: 0.9999272227287292
","x: 170.22215270996094
y: 410.75030517578125
z: -0.014838123694062233
visibility: 0.9999439716339111
","x: 202.10467529296875
y: 470.91796875
z: 0.045055557042360306
visibility: 0.9884408712387085
","x: 164.08734130859375
y: 471.0769348144531
z: 0.023574326187372208
visibility: 0.9938973188400269
","x: 209.7366943359375
y: 526.4798583984375
z: 0.20102958381175995
visibility: 0.9908378720283508
","x: 158.85264587402344
y: 521.3060302734375
z: 0.20999304950237274
visibility: 0.9939661026000977
","x: 207.83665466308594
y: 537.0823974609375
z: 0.2111530601978302
visibility: 0.9229705333709717
","x: 160.48941040039062
y: 528.1771240234375
z: 0.223882794380188
visibility: 0.9016977548599243
","x: 217.2742919921875
y: 546.9159545898438
z: 0.11613526195287704
visibility: 0.9864296317100525
","x: 152.85446166992188
y: 543.5589599609375
z: 0.12680532038211823
visibility: 0.9895520806312561
",,,,,,,,,,,,,,,,,,,,,,,,,,,,,,,,,,,,,,,,,,
8,"x: 185.1630401611328
y: 283.67108154296875
z: -0.2844715416431427
visibility: 0.9999687075614929
","x: 186.5855255126953
y: 277.6071472167969
z: -0.2713050842285156
visibility: 0.9998857975006104
","x: 187.681884765625
y: 277.6928405761719
z: -0.27126914262771606
visibility: 0.9998756647109985
","x: 188.7317352294922
y: 277.8219299316406
z: -0.2712857127189636
visibility: 0.9998531341552734
","x: 183.28762817382812
y: 277.9864196777344
z: -0.2739146053791046
visibility: 0.9998968243598938
","x: 182.0965118408203
y: 278.3011169433594
z: -0.27395421266555786
visibility: 0.9999039769172668
","x: 180.89007568359375
y: 278.7121276855469
z: -0.27396348118782043
visibility: 0.9998921751976013
","x: 190.22451782226562
y: 281.9427795410156
z: -0.1731964647769928
visibility: 0.9995492696762085
","x: 179.18772888183594
y: 282.2449645996094
z: -0.18929485976696014
visibility: 0.9997803568840027
","x: 187.5148468017578
y: 290.15936279296875
z: -0.24617800116539001
visibility: 0.999906063079834
","x: 183.3423614501953
y: 290.77130126953125
z: -0.2508280575275421
visibility: 0.9999244809150696
","x: 200.51902770996094
y: 325.2806091308594
z: -0.07471822202205658
visibility: 0.999920666217804
","x: 170.0347900390625
y: 309.83331298828125
z: -0.14973832666873932
visibility: 0.9999698400497437
","x: 211.56825256347656
y: 367.1834716796875
z: -0.010240763425827026
visibility: 0.9534304141998291
","x: 159.44888305664062
y: 344.09100341796875
z: -0.20702877640724182
visibility: 0.9708071351051331
","x: 227.22900390625
y: 397.95330810546875
z: -0.061395008116960526
visibility: 0.9007449150085449
","x: 161.3155517578125
y: 395.635009765625
z: -0.33587846159935
visibility: 0.9010516405105591
","x: 232.45455932617188
y: 407.8405456542969
z: -0.0728001520037651
visibility: 0.8092024922370911
","x: 160.1338348388672
y: 406.3731384277344
z: -0.3696407675743103
visibility: 0.8170048594474792
","x: 232.39537048339844
y: 406.10467529296875
z: -0.10796258598566055
visibility: 0.8226956725120544
","x: 162.58348083496094
y: 405.8291931152344
z: -0.3836212456226349
visibility: 0.8233327269554138
","x: 230.4529571533203
y: 402.9599304199219
z: -0.0772891491651535
visibility: 0.8020058870315552
","x: 163.6527862548828
y: 402.00146484375
z: -0.3453262746334076
visibility: 0.8026167154312134
","x: 200.31626892089844
y: 409.978271484375
z: 0.025397654622793198
visibility: 0.9999284148216248
","x: 181.0265655517578
y: 410.7498779296875
z: -0.02544107474386692
visibility: 0.9999464750289917
","x: 210.3493194580078
y: 470.8741760253906
z: 0.07880847901105881
visibility: 0.9889315962791443
","x: 173.2731170654297
y: 470.56353759765625
z: -0.002537472639232874
visibility: 0.994371771812439
","x: 210.00389099121094
y: 526.429931640625
z: 0.22807545959949493
visibility: 0.9909899830818176
","x: 159.0267791748047
y: 521.566650390625
z: 0.14670686423778534
visibility: 0.9943956732749939
","x: 207.8221893310547
y: 537.2242431640625
z: 0.236846923828125
visibility: 0.9260525703430176
","x: 159.8680419921875
y: 528.081787109375
z: 0.15685556828975677
visibility: 0.9053586721420288
","x: 217.5745849609375
y: 546.9164428710938
z: 0.15912580490112305
visibility: 0.9865359663963318
","x: 152.8549346923828
y: 543.80810546875
z: 0.06184317544102669
visibility: 0.9901665449142456
",,,,,,,,,,,,,,,,,,,,,,,,,,,,,,,,,,,,,,,,,,
9,"x: 191.5054473876953
y: 283.1252136230469
z: -0.3479364514350891
visibility: 0.9999698400497437
","x: 193.14796447753906
y: 277.2659606933594
z: -0.3361402750015259
visibility: 0.9998885989189148
","x: 194.16128540039062
y: 277.3526611328125
z: -0.3360993266105652
visibility: 0.9998798966407776
","x: 195.16030883789062
y: 277.48492431640625
z: -0.33612170815467834
visibility: 0.9998591542243958
","x: 189.77841186523438
y: 277.54876708984375
z: -0.3364504277706146
visibility: 0.9998970031738281
","x: 188.4764862060547
y: 277.8173522949219
z: -0.3365044891834259
visibility: 0.9999035596847534
","x: 187.22171020507812
y: 278.1677551269531
z: -0.33653268218040466
visibility: 0.9998894929885864
","x: 196.83558654785156
y: 281.55242919921875
z: -0.24054770171642303
visibility: 0.9995743632316589
","x: 185.77340698242188
y: 281.6896667480469
z: -0.24472057819366455
visibility: 0.9997745156288147
","x: 193.648681640625
y: 289.6922607421875
z: -0.31035473942756653
visibility: 0.9999105930328369
","x: 189.0400390625
y: 290.4043884277344
z: -0.3117533326148987
visibility: 0.9999265670776367
","x: 207.67333984375
y: 325.5006103515625
z: -0.15164422988891602
visibility: 0.9999268054962158
","x: 173.34036254882812
y: 309.9944763183594
z: -0.1719685196876526
visibility: 0.999969482421875
","x: 219.78627014160156
y: 370.92138671875
z: -0.10254780203104019
visibility: 0.9571467041969299
","x: 166.8100128173828
y: 349.0418701171875
z: -0.17841359972953796
visibility: 0.9719865918159485
","x: 235.5567169189453
y: 404.70758056640625
z: -0.1680777370929718
visibility: 0.9096921682357788
","x: 167.86090087890625
y: 395.0265197753906
z: -0.2624410092830658
visibility: 0.9071369767189026
","x: 240.06326293945312
y: 413.0335998535156
z: -0.18848638236522675
visibility: 0.8257139921188354
","x: 167.4061737060547
y: 407.200439453125
z: -0.289599746465683
visibility: 0.8273823261260986
","x: 239.2896728515625
y: 411.6595153808594
z: -0.22243328392505646
visibility: 0.8381971120834351
","x: 169.66493225097656
y: 406.719970703125
z: -0.31165027618408203
visibility: 0.8335718512535095
","x: 237.5541229248047
y: 409.8602600097656
z: -0.1831766664981842
visibility: 0.8187853693962097
","x: 170.5821990966797
y: 402.73248291015625
z: -0.2733548581600189
visibility: 0.8132473826408386
","x: 203.84823608398438
y: 410.0777893066406
z: 0.017054574564099312
visibility: 0.9999328851699829
","x: 183.52987670898438
y: 410.7359313964844
z: -0.017003258690238
visibility: 0.9999468326568604
","x: 210.8990936279297
y: 465.25775146484375
z: -0.017039069905877113
visibility: 0.9897860884666443
","x: 176.6569061279297
y: 468.0404968261719
z: 0.050213225185871124
visibility: 0.9946396946907043
","x: 210.05450439453125
y: 525.568603515625
z: 0.13256604969501495
visibility: 0.9915261268615723
","x: 161.50714111328125
y: 521.5503540039062
z: 0.258348286151886
visibility: 0.9945573806762695
","x: 207.7899627685547
y: 536.626220703125
z: 0.1415143758058548
visibility: 0.9286867380142212
","x: 163.41355895996094
y: 527.5549926757812
z: 0.2725927233695984
visibility: 0.9051541090011597
","x: 216.9145965576172
y: 546.37939453125
z: 0.030507227405905724
visibility: 0.9873485565185547
","x: 153.3187255859375
y: 543.6725463867188
z: 0.1725693643093109
visibility: 0.99045729637146
",,,,,,,,,,,,,,,,,,,,,,,,,,,,,,,,,,,,,,,,,,
10,"x: 193.96600341796875
y: 278.6314697265625
z: -0.3629890978336334
visibility: 0.9999645948410034
","x: 195.9082489013672
y: 273.6193542480469
z: -0.3504939675331116
visibility: 0.9998734593391418
","x: 197.05357360839844
y: 273.7960205078125
z: -0.3504963517189026
visibility: 0.9998701214790344
","x: 198.17898559570312
y: 274.0684814453125
z: -0.3505672812461853
visibility: 0.9998508095741272
","x: 192.577880859375
y: 273.58221435546875
z: -0.34926873445510864
visibility: 0.9998644590377808
","x: 191.45101928710938
y: 273.6690673828125
z: -0.34934937953948975
visibility: 0.9998707175254822
","x: 190.35650634765625
y: 273.7767333984375
z: -0.349375456571579
visibility: 0.9998401403427124
","x: 200.33724975585938
y: 277.78265380859375
z: -0.2530755400657654
visibility: 0.9995768070220947
","x: 189.65570068359375
y: 276.2038879394531
z: -0.25226324796676636
visibility: 0.9996963143348694
","x: 196.2285614013672
y: 285.1721496582031
z: -0.32537922263145447
visibility: 0.9998993873596191
","x: 191.71438598632812
y: 285.2688903808594
z: -0.32532915472984314
visibility: 0.9998966455459595
","x: 212.12249755859375
y: 322.0345458984375
z: -0.17752304673194885
visibility: 0.9999291300773621
","x: 175.32196044921875
y: 306.82666015625
z: -0.1706545054912567
visibility: 0.9999464750289917
","x: 222.4805450439453
y: 370.19537353515625
z: -0.15614600479602814
visibility: 0.9606613516807556
","x: 164.83151245117188
y: 337.3699645996094
z: -0.18834711611270905
visibility: 0.9605438709259033
","x: 233.40682983398438
y: 414.0238952636719
z: -0.21758989989757538
visibility: 0.9171226620674133
","x: 157.85165405273438
y: 356.52264404296875
z: -0.31987231969833374
visibility: 0.8926395773887634
","x: 236.64720153808594
y: 425.1123046875
z: -0.23620851337909698
visibility: 0.8389624953269958
","x: 152.6528778076172
y: 362.2294921875
z: -0.34803512692451477
visibility: 0.8150583505630493
","x: 235.3374481201172
y: 426.86328125
z: -0.26402828097343445
visibility: 0.850736677646637
","x: 154.64768981933594
y: 362.6887512207031
z: -0.371521919965744
visibility: 0.8225018978118896
","x: 233.68263244628906
y: 422.6446838378906
z: -0.22951264679431915
visibility: 0.8324956893920898
","x: 157.04278564453125
y: 361.6070251464844
z: -0.33390510082244873
visibility: 0.8023300170898438
","x: 202.1104736328125
y: 405.865234375
z: 0.007826020941138268
visibility: 0.9999327659606934
","x: 180.74365234375
y: 402.34234619140625
z: -0.007892734371125698
visibility: 0.9999475479125977
","x: 208.85948181152344
y: 459.6671142578125
z: -0.010052124038338661
visibility: 0.9898530840873718
","x: 174.973876953125
y: 462.0580749511719
z: -0.0886416882276535
visibility: 0.9949687719345093
","x: 209.479248046875
y: 524.9564208984375
z: 0.15474551916122437
visibility: 0.9917902946472168
","x: 161.26358032226562
y: 520.4542846679688
z: 0.0599076971411705
visibility: 0.9948408603668213
","x: 207.24169921875
y: 535.6697387695312
z: 0.16453972458839417
visibility: 0.9292045831680298
","x: 163.25790405273438
y: 527.54833984375
z: 0.06825509667396545
visibility: 0.9073985815048218
","x: 216.73011779785156
y: 546.1348266601562
z: 0.05641248822212219
visibility: 0.9875720143318176
","x: 153.34799194335938
y: 543.779541015625
z: -0.045616649091243744
visibility: 0.990940511226654
",,,,,,,,,,,,,,,,,,,,,,,,,,,,,,,,,,,,,,,,,,
11,"x: 193.5480499267578
y: 276.40936279296875
z: -0.3543683886528015
visibility: 0.9999673962593079
","x: 195.90603637695312
y: 271.169921875
z: -0.3417705297470093
visibility: 0.9998835325241089
","x: 197.2426300048828
y: 271.4385070800781
z: -0.3417755961418152
visibility: 0.999880850315094
","x: 198.64491271972656
y: 271.7732849121094
z: -0.3418043851852417
visibility: 0.99986332654953
","x: 192.3895721435547
y: 270.70770263671875
z: -0.34079188108444214
visibility: 0.9998741149902344
","x: 191.18138122558594
y: 270.6159362792969
z: -0.3408355116844177
visibility: 0.9998793601989746
","x: 189.9397430419922
y: 270.5572204589844
z: -0.3408491909503937
visibility: 0.999850332736969
","x: 201.09474182128906
y: 275.715087890625
z: -0.24534210562705994
visibility: 0.9996138215065002
","x: 189.16583251953125
y: 273.62493896484375
z: -0.24432368576526642
visibility: 0.9997117519378662
","x: 195.67474365234375
y: 283.46563720703125
z: -0.31700170040130615
visibility: 0.9999080896377563
","x: 191.36135864257812
y: 282.76654052734375
z: -0.31649813055992126
visibility: 0.9999045729637146
","x: 210.91094970703125
y: 320.4649658203125
z: -0.168644517660141
visibility: 0.9999353289604187
","x: 176.9599609375
y: 310.5887451171875
z: -0.15532176196575165
visibility: 0.9999440908432007
","x: 219.26271057128906
y: 369.8449401855469
z: -0.13275644183158875
visibility: 0.9642373919487
","x: 167.57276916503906
y: 351.5472106933594
z: -0.11162861436605453
visibility: 0.9595298767089844
","x: 228.78567504882812
y: 414.83935546875
z: -0.212013840675354
visibility: 0.9246456623077393
","x: 158.01620483398438
y: 380.41497802734375
z: -0.20375685393810272
visibility: 0.897196888923645
","x: 231.886474609375
y: 426.86907958984375
z: -0.23626890778541565
visibility: 0.8527648448944092
","x: 154.09739685058594
y: 391.9122314453125
z: -0.23117908835411072
visibility: 0.8230533599853516
","x: 231.3324737548828
y: 428.2531433105469
z: -0.2653893232345581
visibility: 0.8636041283607483
","x: 154.9693145751953
y: 388.869140625
z: -0.26354530453681946
visibility: 0.8305269479751587
","x: 229.67030334472656
y: 424.03192138671875
z: -0.22467121481895447
visibility: 0.8466087579727173
","x: 157.24835205078125
y: 386.9933776855469
z: -0.21943750977516174
visibility: 0.8107250928878784
","x: 199.64804077148438
y: 408.314208984375
z: 0.0013097237097099423
visibility: 0.9999374151229858
","x: 178.23265075683594
y: 403.9231872558594
z: -0.0014024256961420178
visibility: 0.9999489784240723
","x: 204.0567169189453
y: 470.2576904296875
z: 0.03621590882539749
visibility: 0.9905145764350891
","x: 169.57749938964844
y: 463.1601257324219
z: 0.07076317816972733
visibility: 0.9951877593994141
","x: 209.2510528564453
y: 524.869873046875
z: 0.22708666324615479
visibility: 0.9923261404037476
","x: 161.34959411621094
y: 519.741455078125
z: 0.3055287301540375
visibility: 0.9950417280197144
","x: 207.24868774414062
y: 533.93212890625
z: 0.2401992529630661
visibility: 0.9322085380554199
","x: 163.49034118652344
y: 527.2527465820312
z: 0.32320907711982727
visibility: 0.9104816913604736
","x: 216.25543212890625
y: 546.139892578125
z: 0.12713882327079773
visibility: 0.9884002804756165
","x: 156.3712615966797
y: 543.2808227539062
z: 0.2202373743057251
visibility: 0.9913041591644287
",,,,,,,,,,,,,,,,,,,,,,,,,,,,,,,,,,,,,,,,,,
12,"x: 185.75311279296875
y: 276.6795654296875
z: -0.21254244446754456
visibility: 0.9998100996017456
","x: 189.54859924316406
y: 271.35980224609375
z: -0.21302025020122528
visibility: 0.999578058719635
","x: 191.35470581054688
y: 271.6331787109375
z: -0.21310797333717346
visibility: 0.9995806217193604
","x: 193.4095458984375
y: 271.91876220703125
z: -0.21317021548748016
visibility: 0.999583899974823
","x: 186.6919708251953
y: 270.8194580078125
z: -0.19587567448616028
visibility: 0.9994921684265137
","x: 186.14883422851562
y: 270.7037658691406
z: -0.1958693414926529
visibility: 0.999351441860199
","x: 185.6471405029297
y: 270.60345458984375
z: -0.19590917229652405
visibility: 0.9993178844451904
","x: 200.39080810546875
y: 277.10906982421875
z: -0.17780527472496033
visibility: 0.9992882013320923
","x: 186.94252014160156
y: 274.0318603515625
z: -0.09934721887111664
visibility: 0.9983980655670166
","x: 187.85861206054688
y: 283.6993103027344
z: -0.19712524116039276
visibility: 0.999733030796051
","x: 184.3282470703125
y: 283.1655578613281
z: -0.1747928410768509
visibility: 0.9996485114097595
","x: 202.99588012695312
y: 319.4333190917969
z: -0.18350812792778015
visibility: 0.9999097585678101
","x: 175.28689575195312
y: 311.3364562988281
z: 0.006149115040898323
visibility: 0.9998944401741028
","x: 182.78561401367188
y: 360.761962890625
z: -0.2045838087797165
visibility: 0.9640747308731079
","x: 166.56884765625
y: 352.90350341796875
z: 0.04394412413239479
visibility: 0.8787719011306763
","x: 166.3042755126953
y: 376.544677734375
z: -0.22503483295440674
visibility: 0.9221585988998413
","x: 158.3173065185547
y: 382.80267333984375
z: -0.05594593286514282
visibility: 0.8325476050376892
","x: 162.1089324951172
y: 383.4278869628906
z: -0.2524412274360657
visibility: 0.8520059585571289
","x: 154.15977478027344
y: 395.30987548828125
z: -0.07529693841934204
visibility: 0.7671764492988586
","x: 162.75369262695312
y: 378.50872802734375
z: -0.2595495581626892
visibility: 0.8617162704467773
","x: 155.2351837158203
y: 393.1701354980469
z: -0.09937329590320587
visibility: 0.7746934294700623
","x: 164.3240966796875
y: 376.42840576171875
z: -0.22712142765522003
visibility: 0.8393765687942505
","x: 157.50181579589844
y: 390.0945739746094
z: -0.06987296044826508
visibility: 0.7559943795204163
","x: 189.7670440673828
y: 413.1344299316406
z: -0.04059787467122078
visibility: 0.9999149441719055
","x: 168.89662170410156
y: 407.18804931640625
z: 0.040511418133974075
visibility: 0.9999398589134216
","x: 194.92236328125
y: 473.5087585449219
z: 0.02003067173063755
visibility: 0.9904056787490845
","x: 163.67340087890625
y: 463.5834045410156
z: 0.06133798882365227
visibility: 0.9950125813484192
","x: 209.14776611328125
y: 524.916748046875
z: 0.22061863541603088
visibility: 0.9923550486564636
","x: 161.36740112304688
y: 520.2052001953125
z: 0.25029176473617554
visibility: 0.9950399398803711
","x: 207.56253051757812
y: 533.44091796875
z: 0.23540954291820526
visibility: 0.928647518157959
","x: 164.50839233398438
y: 529.29541015625
z: 0.2644783556461334
visibility: 0.915441632270813
","x: 215.72145080566406
y: 546.1453857421875
z: 0.12863892316818237
visibility: 0.9883846044540405
","x: 156.27310180664062
y: 543.0400390625
z: 0.17647472023963928
visibility: 0.9914082884788513
",,,,,,,,,,,,,,,,,,,,,,,,,,,,,,,,,,,,,,,,,,
13,"x: 176.80960083007812
y: 276.29376220703125
z: -0.19082733988761902
visibility: 0.9996699094772339
","x: 180.03952026367188
y: 270.8117370605469
z: -0.18692746758460999
visibility: 0.9992552995681763
","x: 181.66845703125
y: 271.0351867675781
z: -0.18699972331523895
visibility: 0.9993168115615845
","x: 183.26223754882812
y: 271.3275451660156
z: -0.1870339959859848
visibility: 0.9993036985397339
","x: 176.4717254638672
y: 270.67041015625
z: -0.1743737757205963
visibility: 0.9990745782852173
","x: 175.55575561523438
y: 270.7213134765625
z: -0.17439638078212738
visibility: 0.9988473653793335
","x: 174.69947814941406
y: 270.7641906738281
z: -0.17442260682582855
visibility: 0.9987320303916931
","x: 187.6370086669922
y: 275.9692077636719
z: -0.1362384855747223
visibility: 0.9990711212158203
","x: 176.43365478515625
y: 274.096435546875
z: -0.077133908867836
visibility: 0.9967361688613892
","x: 179.7838592529297
y: 283.2294006347656
z: -0.17028868198394775
visibility: 0.9996214509010315
","x: 175.51771545410156
y: 283.1017761230469
z: -0.15365341305732727
visibility: 0.9993487596511841
","x: 196.39007568359375
y: 310.96063232421875
z: -0.13944002985954285
visibility: 0.9998977780342102
","x: 169.94564819335938
y: 312.50408935546875
z: 0.00013222255802247673
visibility: 0.9997843503952026
","x: 182.3353271484375
y: 354.58795166015625
z: -0.17994748055934906
visibility: 0.964673638343811
","x: 160.5764923095703
y: 352.51947021484375
z: -0.06113436073064804
visibility: 0.8329336047172546
","x: 155.4418182373047
y: 354.76397705078125
z: -0.2302955687046051
visibility: 0.9244652390480042
","x: 147.43869018554688
y: 340.19720458984375
z: -0.26730257272720337
visibility: 0.8112022876739502
","x: 145.82806396484375
y: 342.61541748046875
z: -0.2568649351596832
visibility: 0.8561963438987732
","x: 144.4139404296875
y: 337.2742919921875
z: -0.3066139221191406
visibility: 0.7490595579147339
","x: 146.80612182617188
y: 335.84417724609375
z: -0.25928857922554016
visibility: 0.8645463585853577
","x: 145.89898681640625
y: 332.0599060058594
z: -0.31029099225997925
visibility: 0.7547840476036072
","x: 149.37686157226562
y: 337.646728515625
z: -0.23018555343151093
visibility: 0.8373553156852722
","x: 147.43087768554688
y: 333.20965576171875
z: -0.2767934501171112
visibility: 0.734185516834259
","x: 187.4775848388672
y: 408.5354309082031
z: -0.02378932014107704
visibility: 0.9998634457588196
","x: 166.73008728027344
y: 405.3660888671875
z: 0.02367154322564602
visibility: 0.9999018907546997
","x: 196.79371643066406
y: 471.10791015625
z: -0.032029684633016586
visibility: 0.991091251373291
","x: 161.2088165283203
y: 464.143798828125
z: -0.014947118237614632
visibility: 0.9951589107513428
","x: 209.1866455078125
y: 524.9854736328125
z: 0.12143577635288239
visibility: 0.992801308631897
","x: 161.71414184570312
y: 519.7621459960938
z: 0.15584558248519897
visibility: 0.9950864911079407
","x: 208.1987762451172
y: 533.62744140625
z: 0.1307687908411026
visibility: 0.9258732795715332
","x: 164.83924865722656
y: 529.031005859375
z: 0.16836774349212646
visibility: 0.9172667860984802
","x: 215.24716186523438
y: 546.2224731445312
z: 0.019357219338417053
visibility: 0.988773763179779
","x: 156.78048706054688
y: 542.729736328125
z: 0.07491348683834076
visibility: 0.9913952946662903
",,,,,,,,,,,,,,,,,,,,,,,,,,,,,,,,,,,,,,,,,,
14,"x: 179.60183715820312
y: 276.4771423339844
z: -0.29361146688461304
visibility: 0.9997019171714783
","x: 182.0678253173828
y: 270.871337890625
z: -0.28237786889076233
visibility: 0.9993266463279724
","x: 183.51039123535156
y: 271.0323791503906
z: -0.2823777496814728
visibility: 0.9993817210197449
","x: 184.92991638183594
y: 271.27349853515625
z: -0.2823936343193054
visibility: 0.9993693828582764
","x: 178.66607666015625
y: 270.82989501953125
z: -0.2785953879356384
visibility: 0.9991641640663147
","x: 177.66046142578125
y: 270.88653564453125
z: -0.2786640524864197
visibility: 0.9989593625068665
","x: 176.67562866210938
y: 270.9228515625
z: -0.2786962389945984
visibility: 0.9988550543785095
","x: 188.1925048828125
y: 275.1688232421875
z: -0.16983924806118011
visibility: 0.9991570115089417
","x: 176.99191284179688
y: 274.3043212890625
z: -0.14961722493171692
visibility: 0.9970554709434509
","x: 182.33901977539062
y: 283.31414794921875
z: -0.25334006547927856
visibility: 0.9996580481529236
","x: 177.98904418945312
y: 283.3058776855469
z: -0.24784591794013977
visibility: 0.9994123578071594
","x: 198.05020141601562
y: 311.5494384765625
z: -0.13193173706531525
visibility: 0.9999058246612549
","x: 168.35147094726562
y: 312.48028564453125
z: -0.11072848737239838
visibility: 0.9998040795326233
","x: 198.66329956054688
y: 354.8823547363281
z: -0.16558334231376648
visibility: 0.9648380875587463
","x: 159.17880249023438
y: 348.01287841796875
z: -0.2146892249584198
visibility: 0.845425009727478
","x: 189.9479522705078
y: 374.85699462890625
z: -0.3065091371536255
visibility: 0.9254561066627502
","x: 156.33827209472656
y: 361.78106689453125
z: -0.4283164143562317
visibility: 0.8253580927848816
","x: 179.86459350585938
y: 355.69512939453125
z: -0.34400421380996704
visibility: 0.860168993473053
","x: 156.30125427246094
y: 369.81689453125
z: -0.4780493676662445
visibility: 0.7674446702003479
","x: 171.675537109375
y: 367.2921447753906
z: -0.36599940061569214
visibility: 0.868229329586029
","x: 158.78614807128906
y: 367.353759765625
z: -0.489889532327652
visibility: 0.7724461555480957
","x: 173.4639129638672
y: 369.84503173828125
z: -0.3185659646987915
visibility: 0.8400912284851074
","x: 159.57113647460938
y: 365.10638427734375
z: -0.43880027532577515
visibility: 0.7515162825584412
","x: 190.3659210205078
y: 407.86480712890625
z: -0.014254565350711346
visibility: 0.9998740553855896
","x: 168.60389709472656
y: 405.7698059082031
z: 0.014209357090294361
visibility: 0.9999088644981384
","x: 201.76971435546875
y: 469.09893798828125
z: -0.006414561532437801
visibility: 0.9917747378349304
","x: 163.62640380859375
y: 464.4622802734375
z: 0.07183139771223068
visibility: 0.9953010082244873
","x: 216.37078857421875
y: 525.243896484375
z: 0.13512693345546722
visibility: 0.993248462677002
","x: 163.5716094970703
y: 519.708984375
z: 0.29066649079322815
visibility: 0.995250940322876
","x: 214.5497589111328
y: 534.5411376953125
z: 0.14285127818584442
visibility: 0.9294819235801697
","x: 166.6141815185547
y: 528.7169799804688
z: 0.30687257647514343
visibility: 0.9202180504798889
","x: 225.57994079589844
y: 546.225341796875
z: 0.023884514346718788
visibility: 0.989481508731842
","x: 157.31484985351562
y: 541.7137451171875
z: 0.2046385556459427
visibility: 0.9916036128997803
",,,,,,,,,,,,,,,,,,,,,,,,,,,,,,,,,,,,,,,,,,
15,"x: 186.46929931640625
y: 276.6046447753906
z: -0.2830091118812561
visibility: 0.9997307062149048
","x: 188.91329956054688
y: 270.9781188964844
z: -0.26939424872398376
visibility: 0.9993901252746582
","x: 190.06805419921875
y: 271.1253662109375
z: -0.2694261074066162
visibility: 0.9994396567344666
","x: 191.07379150390625
y: 271.35174560546875
z: -0.2694553732872009
visibility: 0.9994280934333801
","x: 185.01625061035156
y: 270.8525390625
z: -0.2695082128047943
visibility: 0.9992434978485107
","x: 183.5979461669922
y: 270.88153076171875
z: -0.2695468068122864
visibility: 0.9990584850311279
","x: 182.23422241210938
y: 270.9372863769531
z: -0.26954615116119385
visibility: 0.9989625811576843
","x: 193.07308959960938
y: 275.2688903808594
z: -0.17108947038650513
visibility: 0.9992333650588989
","x: 180.3900604248047
y: 274.4257507324219
z: -0.16709895431995392
visibility: 0.9973337054252625
","x: 188.85394287109375
y: 283.33355712890625
z: -0.24517197906970978
visibility: 0.9996896982192993
","x: 183.69351196289062
y: 283.4222412109375
z: -0.24478402733802795
visibility: 0.9994667172431946
","x: 204.53782653808594
y: 311.9855651855469
z: -0.11052882671356201
visibility: 0.9999138712882996
","x: 170.29818725585938
y: 313.39886474609375
z: -0.11081048101186752
visibility: 0.999815821647644
","x: 210.7872314453125
y: 355.3964538574219
z: -0.1451723575592041
visibility: 0.9671974182128906
","x: 167.70030212402344
y: 353.2001037597656
z: -0.16670584678649902
visibility: 0.8521378040313721
","x: 216.02516174316406
y: 381.19281005859375
z: -0.2660785913467407
visibility: 0.931544303894043
","x: 168.5158233642578
y: 384.3720703125
z: -0.3229491412639618
visibility: 0.8331276774406433
","x: 214.85687255859375
y: 367.94024658203125
z: -0.29961639642715454
visibility: 0.871229887008667
","x: 164.69898986816406
y: 391.727783203125
z: -0.3611077070236206
visibility: 0.7769978642463684
","x: 211.88754272460938
y: 371.59075927734375
z: -0.32372501492500305
visibility: 0.8788307905197144
","x: 165.78955078125
y: 391.0296325683594
z: -0.3817940056324005
visibility: 0.782153844833374
","x: 211.6526641845703
y: 375.6275634765625
z: -0.2788395285606384
visibility: 0.8525529503822327
","x: 167.83856201171875
y: 387.90753173828125
z: -0.3356913924217224
visibility: 0.7609899044036865
","x: 199.64186096191406
y: 407.4755859375
z: -0.004661343991756439
visibility: 0.9998818635940552
","x: 178.43881225585938
y: 406.0486145019531
z: 0.00467388890683651
visibility: 0.9999126195907593
","x: 208.76075744628906
y: 465.47247314453125
z: -0.0016476077726110816
visibility: 0.9921637773513794
","x: 169.2093048095703
y: 464.1323547363281
z: 0.06655365973711014
visibility: 0.9951424598693848
","x: 217.67445373535156
y: 524.7717895507812
z: 0.12497971951961517
visibility: 0.9933594465255737
","x: 164.2621612548828
y: 519.720703125
z: 0.24447867274284363
visibility: 0.9952529668807983
","x: 215.3997039794922
y: 534.20751953125
z: 0.13145998120307922
visibility: 0.9316065907478333
","x: 167.12091064453125
y: 528.7015380859375
z: 0.253997266292572
visibility: 0.921334981918335
","x: 226.3256072998047
y: 546.042724609375
z: 0.02416359633207321
visibility: 0.989723801612854
","x: 157.0565948486328
y: 541.8155517578125
z: 0.1529737412929535
visibility: 0.9914591312408447
",,,,,,,,,,,,,,,,,,,,,,,,,,,,,,,,,,,,,,,,,,
16,"x: 191.79891967773438
y: 279.5151672363281
z: -0.2806003987789154
visibility: 0.9997549653053284
","x: 193.58978271484375
y: 272.6539306640625
z: -0.27002328634262085
visibility: 0.9994387030601501
","x: 194.84976196289062
y: 272.5021667480469
z: -0.2700459659099579
visibility: 0.9994831085205078
","x: 196.11328125
y: 272.4618225097656
z: -0.2700675427913666
visibility: 0.9994689226150513
","x: 190.07688903808594
y: 273.1116027832031
z: -0.26845866441726685
visibility: 0.9993079900741577
","x: 188.73374938964844
y: 273.09649658203125
z: -0.26850569248199463
visibility: 0.9991413354873657
","x: 187.37574768066406
y: 273.019287109375
z: -0.2685183882713318
visibility: 0.999052882194519
","x: 198.93638610839844
y: 275.65203857421875
z: -0.18142598867416382
visibility: 0.9992799162864685
","x: 185.9124298095703
y: 275.1721496582031
z: -0.17182154953479767
visibility: 0.9975798726081848
","x: 194.29336547851562
y: 285.6988220214844
z: -0.2455073595046997
visibility: 0.9997138977050781
","x: 190.07272338867188
y: 285.9869384765625
z: -0.24310043454170227
visibility: 0.9995131492614746
","x: 211.87925720214844
y: 312.502197265625
z: -0.11303658783435822
visibility: 0.9999181628227234
","x: 175.46873474121094
y: 313.40142822265625
z: -0.10855487734079361
visibility: 0.999832808971405
","x: 218.17813110351562
y: 355.75701904296875
z: -0.12783126533031464
visibility: 0.9665646553039551
","x: 167.7630157470703
y: 353.5176086425781
z: -0.11203087866306305
visibility: 0.8648447394371033
","x: 224.88575744628906
y: 383.08966064453125
z: -0.25398069620132446
visibility: 0.9323659539222717
","x: 165.2069091796875
y: 390.8572998046875
z: -0.21472689509391785
visibility: 0.8460018038749695
","x: 226.002685546875
y: 384.65338134765625
z: -0.2844536304473877
visibility: 0.8738211989402771
","x: 161.87982177734375
y: 400.1620178222656
z: -0.24283185601234436
visibility: 0.7913448810577393
","x: 224.9453887939453
y: 384.1551513671875
z: -0.3091183304786682
visibility: 0.8819266557693481
","x: 163.58151245117188
y: 400.4466552734375
z: -0.2693018317222595
visibility: 0.7965447902679443
","x: 223.56007385253906
y: 383.349609375
z: -0.2673575282096863
visibility: 0.8565592169761658
","x: 164.85159301757812
y: 397.88623046875
z: -0.2284759283065796
visibility: 0.7768450975418091
","x: 204.89956665039062
y: 407.6443176269531
z: -0.001962887356057763
visibility: 0.9998838901519775
","x: 183.48471069335938
y: 406.23480224609375
z: 0.001973799429833889
visibility: 0.999916672706604
","x: 212.87742614746094
y: 465.1452331542969
z: 0.013253733515739441
visibility: 0.9923186302185059
","x: 173.65960693359375
y: 463.6736755371094
z: 0.0018378505483269691
visibility: 0.9953190684318542
","x: 218.31576538085938
y: 523.2908325195312
z: 0.18094787001609802
visibility: 0.9932869672775269
","x: 164.58447265625
y: 519.6954956054688
z: 0.16853134334087372
visibility: 0.995435893535614
","x: 215.78567504882812
y: 533.2792358398438
z: 0.19187739491462708
visibility: 0.9313303828239441
","x: 166.99966430664062
y: 528.7491455078125
z: 0.17898745834827423
visibility: 0.9240700006484985
","x: 226.36428833007812
y: 545.8701171875
z: 0.09544187039136887
visibility: 0.9895634651184082
","x: 156.99468994140625
y: 542.2413330078125
z: 0.07609755545854568
visibility: 0.991745114326477
",,,,,,,,,,,,,,,,,,,,,,,,,,,,,,,,,,,,,,,,,,
17,"x: 194.9541015625
y: 279.5429382324219
z: -0.2856626510620117
visibility: 0.9997787475585938
","x: 196.9449462890625
y: 272.87030029296875
z: -0.27124083042144775
visibility: 0.9994924664497375
","x: 198.17799377441406
y: 272.8512878417969
z: -0.27122604846954346
visibility: 0.9995319843292236
","x: 199.451416015625
y: 272.95892333984375
z: -0.27119046449661255
visibility: 0.9995185136795044
","x: 193.61546325683594
y: 273.1031494140625
z: -0.2738742530345917
visibility: 0.99937504529953
","x: 192.29869079589844
y: 273.08465576171875
z: -0.2739095091819763
visibility: 0.9992246627807617
","x: 190.91542053222656
y: 272.9990234375
z: -0.27390336990356445
visibility: 0.999144434928894
","x: 201.7156982421875
y: 276.0391540527344
z: -0.18253681063652039
visibility: 0.9993458986282349
","x: 188.87022399902344
y: 275.1991882324219
z: -0.1723395138978958
visibility: 0.9978169798851013
","x: 197.12982177734375
y: 285.87255859375
z: -0.2490500956773758
visibility: 0.9997407793998718
","x: 193.12881469726562
y: 285.984619140625
z: -0.24542060494422913
visibility: 0.9995602369308472
","x: 212.7550048828125
y: 312.5818176269531
z: -0.10686276853084564
visibility: 0.9999244809150696
","x: 176.81117248535156
y: 310.3970642089844
z: -0.1085503101348877
visibility: 0.999847412109375
","x: 219.72976684570312
y: 355.975830078125
z: -0.10837646573781967
visibility: 0.968193769454956
","x: 167.5552520751953
y: 349.3768005371094
z: -0.1214885488152504
visibility: 0.8748432397842407
","x: 223.4288330078125
y: 385.2413635253906
z: -0.23911547660827637
visibility: 0.9365994930267334
","x: 169.75572204589844
y: 385.56201171875
z: -0.27413177490234375
visibility: 0.8559678792953491
","x: 223.11358642578125
y: 386.5550231933594
z: -0.27034345269203186
visibility: 0.8814851641654968
","x: 169.8699188232422
y: 397.65460205078125
z: -0.31093961000442505
visibility: 0.8032445311546326
","x: 221.19618225097656
y: 387.10992431640625
z: -0.2953868508338928
visibility: 0.8891971111297607
","x: 172.57797241210938
y: 397.61346435546875
z: -0.3335983157157898
visibility: 0.8083789944648743
","x: 220.5197296142578
y: 386.1303405761719
z: -0.2516229748725891
visibility: 0.8647772669792175
","x: 173.13365173339844
y: 392.1300048828125
z: -0.2866159677505493
visibility: 0.7890995740890503
","x: 204.86019897460938
y: 407.6171569824219
z: -0.0005588668282143772
visibility: 0.9998910427093506
","x: 183.29632568359375
y: 405.8437805175781
z: 0.0005628388607874513
visibility: 0.9999223351478577
","x: 211.90615844726562
y: 465.3683166503906
z: 0.0332631841301918
visibility: 0.9927968382835388
","x: 173.2319793701172
y: 463.8663024902344
z: 0.027917254716157913
visibility: 0.9955765604972839
","x: 218.39263916015625
y: 523.3391723632812
z: 0.19319525361061096
visibility: 0.993577241897583
","x: 166.00982666015625
y: 519.6201171875
z: 0.2095153033733368
visibility: 0.9956895709037781
","x: 216.0684356689453
y: 533.5599975585938
z: 0.20296403765678406
visibility: 0.9337828755378723
","x: 169.07383728027344
y: 528.8087158203125
z: 0.2205227166414261
visibility: 0.9281930327415466
","x: 226.3647918701172
y: 545.8673706054688
z: 0.10118204355239868
visibility: 0.9899677038192749
","x: 157.13873291015625
y: 542.2515258789062
z: 0.12055577337741852
visibility: 0.9921275973320007
",,,,,,,,,,,,,,,,,,,,,,,,,,,,,,,,,,,,,,,,,,
18,"x: 194.37872314453125
y: 278.7342224121094
z: -0.2594795525074005
visibility: 0.9997997283935547
","x: 196.3303985595703
y: 272.3279724121094
z: -0.24688327312469482
visibility: 0.9995399713516235
","x: 197.4293212890625
y: 272.3363952636719
z: -0.24689610302448273
visibility: 0.9995753169059753
","x: 198.5753173828125
y: 272.428466796875
z: -0.2468913495540619
visibility: 0.9995623826980591
","x: 192.80540466308594
y: 272.3192138671875
z: -0.2449050396680832
visibility: 0.999433696269989
","x: 191.43284606933594
y: 272.25225830078125
z: -0.24493665993213654
visibility: 0.9992978572845459
","x: 190.05149841308594
y: 272.1869812011719
z: -0.24493758380413055
visibility: 0.9992243647575378
","x: 200.62496948242188
y: 275.4690246582031
z: -0.15597298741340637
visibility: 0.9994045495986938
","x: 188.31666564941406
y: 274.7958679199219
z: -0.14639803767204285
visibility: 0.9980236291885376
","x: 196.7078857421875
y: 285.279296875
z: -0.22457894682884216
visibility: 0.9997640252113342
","x: 192.18844604492188
y: 285.4068298339844
z: -0.22185666859149933
visibility: 0.999600887298584
","x: 211.89404296875
y: 312.6266174316406
z: -0.09586356580257416
visibility: 0.9999282956123352
","x: 177.58834838867188
y: 310.37310791015625
z: -0.08371327817440033
visibility: 0.9998567700386047
","x: 218.55426025390625
y: 356.8823547363281
z: -0.11102346330881119
visibility: 0.969136118888855
","x: 167.49319458007812
y: 346.30609130859375
z: -0.13455745577812195
visibility: 0.8796142339706421
","x: 220.1239471435547
y: 388.39544677734375
z: -0.23453184962272644
visibility: 0.9399445056915283
","x: 167.0136260986328
y: 366.7349853515625
z: -0.3271573483943939
visibility: 0.8631225824356079
","x: 219.6990966796875
y: 397.44525146484375
z: -0.26532673835754395
visibility: 0.8875654935836792
","x: 165.86575317382812
y: 381.04241943359375
z: -0.36850741505622864
visibility: 0.8129615187644958
","x: 217.5782012939453
y: 394.4582824707031
z: -0.289429247379303
visibility: 0.8948810696601868
","x: 167.8505859375
y: 377.06109619140625
z: -0.3871520757675171
visibility: 0.8181965947151184
","x: 216.7622833251953
y: 391.33953857421875
z: -0.24650652706623077
visibility: 0.8711346387863159
","x: 168.83917236328125
y: 373.625244140625
z: -0.3401032090187073
visibility: 0.7994217872619629
","x: 203.65745544433594
y: 407.63385009765625
z: -0.0006422671140171587
visibility: 0.9998964667320251
","x: 182.32110595703125
y: 405.9278564453125
z: 0.0006358061800710857
visibility: 0.9999276995658875
","x: 211.02169799804688
y: 465.5888366699219
z: 0.04733797907829285
visibility: 0.9931315779685974
","x: 173.2962188720703
y: 463.8062744140625
z: 0.010359290055930614
visibility: 0.9958085417747498
","x: 218.2708282470703
y: 523.4324340820312
z: 0.20657384395599365
visibility: 0.9937790036201477
","x: 165.74008178710938
y: 521.217529296875
z: 0.16369321942329407
visibility: 0.9959271550178528
","x: 215.80276489257812
y: 533.8653564453125
z: 0.2162763625383377
visibility: 0.9349766373634338
","x: 168.61447143554688
y: 530.98046875
z: 0.17265532910823822
visibility: 0.9315013289451599
","x: 226.9287872314453
y: 545.879150390625
z: 0.11622296273708344
visibility: 0.9902083277702332
","x: 157.14129638671875
y: 542.4611206054688
z: 0.07212130725383759
visibility: 0.992473304271698
",,,,,,,,,,,,,,,,,,,,,,,,,,,,,,,,,,,,,,,,,,
19,"x: 194.1246337890625
y: 278.7094421386719
z: -0.24323777854442596
visibility: 0.9998186826705933
","x: 196.01463317871094
y: 272.326171875
z: -0.22881118953227997
visibility: 0.9995829463005066
","x: 197.16494750976562
y: 272.34307861328125
z: -0.2288467139005661
visibility: 0.9996147155761719
","x: 198.25204467773438
y: 272.4405212402344
z: -0.2288566529750824
visibility: 0.999602735042572
","x: 192.34103393554688
y: 272.30108642578125
z: -0.22859303653240204
visibility: 0.9994859099388123
","x: 190.97479248046875
y: 272.24749755859375
z: -0.22862055897712708
visibility: 0.9993627667427063
","x: 189.66783142089844
y: 272.1912841796875
z: -0.22860005497932434
visibility: 0.9992945194244385
","x: 200.1484375
y: 275.50335693359375
z: -0.1322505921125412
visibility: 0.9994598627090454
","x: 187.76589965820312
y: 274.8181457519531
z: -0.13203378021717072
visibility: 0.9982048869132996
","x: 196.68185424804688
y: 285.2745666503906
z: -0.2067120373249054
visibility: 0.9997848272323608
","x: 191.81149291992188
y: 285.3371887207031
z: -0.20672647655010223
visibility: 0.9996351599693298
","x: 211.29046630859375
y: 312.99639892578125
z: -0.07860226929187775
visibility: 0.9999330043792725
","x: 176.796142578125
y: 311.02197265625
z: -0.066839799284935
visibility: 0.9998490214347839
","x: 217.3522186279297
y: 356.65472412109375
z: -0.10638642311096191
visibility: 0.9709120988845825
","x: 166.99815368652344
y: 346.9638671875
z: -0.13870279490947723
visibility: 0.881905198097229
","x: 221.0870361328125
y: 387.27099609375
z: -0.2420174777507782
visibility: 0.9446107149124146
","x: 161.7190704345703
y: 352.95941162109375
z: -0.3518367111682892
visibility: 0.8704839944839478
","x: 222.30441284179688
y: 396.6636962890625
z: -0.27494198083877563
visibility: 0.8960456252098083
","x: 156.99671936035156
y: 356.444580078125
z: -0.3942984342575073
visibility: 0.8232876658439636
","x: 221.06057739257812
y: 393.72552490234375
z: -0.2988567054271698
visibility: 0.90291827917099
","x: 155.9956512451172
y: 352.8193664550781
z: -0.4142143130302429
visibility: 0.8288252353668213
","x: 219.63995361328125
y: 390.5389099121094
z: -0.2546752989292145
visibility: 0.8807316422462463
","x: 158.4699249267578
y: 352.0176696777344
z: -0.36650198698043823
visibility: 0.8108479380607605
","x: 203.6351776123047
y: 407.0407409667969
z: -0.0007027594256214797
visibility: 0.9998969435691833
","x: 182.05548095703125
y: 405.73431396484375
z: 0.0006906550261192024
visibility: 0.9999257922172546
","x: 211.10203552246094
y: 464.0370178222656
z: -0.0104076461866498
visibility: 0.993567943572998
","x: 173.2945098876953
y: 462.6043395996094
z: -0.014773311093449593
visibility: 0.9959740042686462
","x: 218.29669189453125
y: 523.5418090820312
z: 0.12672390043735504
visibility: 0.9940550327301025
","x: 165.97879028320312
y: 521.5630493164062
z: 0.13736821711063385
visibility: 0.996114194393158
","x: 215.7967071533203
y: 533.930908203125
z: 0.13371869921684265
visibility: 0.9364628195762634
","x: 168.82864379882812
y: 531.37255859375
z: 0.14596262574195862
visibility: 0.934374213218689
","x: 226.924560546875
y: 545.8500366210938
z: 0.029142912477254868
visibility: 0.9906128644943237
","x: 157.43408203125
y: 542.5433349609375
z: 0.046330876648426056
visibility: 0.9927473664283752
",,,,,,,,,,,,,,,,,,,,,,,,,,,,,,,,,,,,,,,,,,
20,"x: 193.4676055908203
y: 278.6365966796875
z: -0.24239787459373474
visibility: 0.9998352527618408
","x: 195.44956970214844
y: 272.2953186035156
z: -0.22743186354637146
visibility: 0.9996212124824524
","x: 196.7140655517578
y: 272.3456115722656
z: -0.2274555265903473
visibility: 0.9996496438980103
","x: 197.86358642578125
y: 272.4503173828125
z: -0.22747381031513214
visibility: 0.999638020992279
","x: 191.62274169921875
y: 272.19830322265625
z: -0.22661812603473663
visibility: 0.9995332956314087
","x: 190.25180053710938
y: 272.1902770996094
z: -0.22664973139762878
visibility: 0.9994218349456787
","x: 188.93072509765625
y: 272.1808166503906
z: -0.2266395390033722
visibility: 0.9993595480918884
","x: 199.85293579101562
y: 275.5487365722656
z: -0.13136336207389832
visibility: 0.9995083212852478
","x: 187.10366821289062
y: 275.06634521484375
z: -0.12815015017986298
visibility: 0.9983764290809631
","x: 196.19529724121094
y: 285.27532958984375
z: -0.20635835826396942
visibility: 0.9998041987419128
","x: 190.9576416015625
y: 285.333740234375
z: -0.20552432537078857
visibility: 0.9996692538261414
","x: 211.11294555664062
y: 314.3136291503906
z: -0.07768134772777557
visibility: 0.9999353885650635
","x: 176.43931579589844
y: 311.81890869140625
z: -0.06453190743923187
visibility: 0.9998575448989868
","x: 220.03143310546875
y: 359.29766845703125
z: -0.15234890580177307
visibility: 0.9724323749542236
","x: 160.7278289794922
y: 347.3843078613281
z: -0.15438690781593323
visibility: 0.8924269676208496
","x: 223.2721405029297
y: 361.89776611328125
z: -0.34679949283599854
visibility: 0.948971152305603
","x: 160.27931213378906
y: 339.11138916015625
z: -0.3632155656814575
visibility: 0.8822848796844482
","x: 224.54592895507812
y: 358.8023376464844
z: -0.38800960779190063
visibility: 0.9038715362548828
","x: 159.4948272705078
y: 339.1180419921875
z: -0.4043647348880768
visibility: 0.8382556438446045
","x: 222.9732208251953
y: 353.0257568359375
z: -0.3977711796760559
visibility: 0.910203218460083
","x: 161.25039672851562
y: 332.2713928222656
z: -0.40866127610206604
visibility: 0.8432022929191589
","x: 221.96522521972656
y: 353.786865234375
z: -0.35542717576026917
visibility: 0.8890387415885925
","x: 160.900634765625
y: 332.7447814941406
z: -0.37026453018188477
visibility: 0.8261162638664246
","x: 203.5297393798828
y: 407.12451171875
z: -0.0018236536998301744
visibility: 0.9998926520347595
","x: 181.5483856201172
y: 406.1929626464844
z: 0.0018161541083827615
visibility: 0.9999229907989502
","x: 211.12213134765625
y: 463.5938720703125
z: -0.06061425805091858
visibility: 0.9938984513282776
","x: 172.76759338378906
y: 462.59271240234375
z: -0.03501787409186363
visibility: 0.9961183071136475
","x: 218.4783935546875
y: 523.1516723632812
z: 0.10609160363674164
visibility: 0.994204044342041
","x: 166.28981018066406
y: 521.6290893554688
z: 0.14053228497505188
visibility: 0.9962455034255981
","x: 215.9154052734375
y: 533.7109985351562
z: 0.11652427911758423
visibility: 0.9376794695854187
","x: 169.34678649902344
y: 531.499267578125
z: 0.1519394963979721
visibility: 0.9374832510948181
","x: 227.04949951171875
y: 545.8283081054688
z: 0.013443213887512684
visibility: 0.9907975196838379
","x: 157.3491973876953
y: 542.578857421875
z: 0.05197681114077568
visibility: 0.9929324984550476
",,,,,,,,,,,,,,,,,,,,,,,,,,,,,,,,,,,,,,,,,,
21,"x: 193.19053649902344
y: 279.3802185058594
z: -0.24388882517814636
visibility: 0.9998509883880615
","x: 195.128173828125
y: 272.9433898925781
z: -0.22901062667369843
visibility: 0.9996572732925415
","x: 196.45211791992188
y: 273.01495361328125
z: -0.22902396321296692
visibility: 0.9996828436851501
","x: 197.66537475585938
y: 273.1650085449219
z: -0.22903943061828613
visibility: 0.999671995639801
","x: 191.2416229248047
y: 273.098388671875
z: -0.22786493599414825
visibility: 0.9995778203010559
","x: 189.89971923828125
y: 273.29168701171875
z: -0.22788798809051514
visibility: 0.9994770884513855
","x: 188.6015167236328
y: 273.5220031738281
z: -0.22786960005760193
visibility: 0.9994205832481384
","x: 199.7677459716797
y: 276.9176025390625
z: -0.13226784765720367
visibility: 0.9995546936988831
","x: 186.72589111328125
y: 277.33734130859375
z: -0.12711159884929657
visibility: 0.9985354542732239
","x: 196.12109375
y: 286.1172790527344
z: -0.2076057493686676
visibility: 0.9998224973678589
","x: 190.70350646972656
y: 286.37518310546875
z: -0.20622117817401886
visibility: 0.9997010827064514
","x: 211.0154571533203
y: 314.333740234375
z: -0.07622602581977844
visibility: 0.9999390244483948
","x: 175.9772491455078
y: 313.80670166015625
z: -0.06840460002422333
visibility: 0.9998666048049927
","x: 221.32241821289062
y: 355.7470397949219
z: -0.1840500384569168
visibility: 0.9745045900344849
","x: 156.42019653320312
y: 343.55816650390625
z: -0.18346509337425232
visibility: 0.9027079939842224
","x: 227.64674377441406
y: 338.7576599121094
z: -0.3840123116970062
visibility: 0.9535596966743469
","x: 155.34556579589844
y: 329.8428955078125
z: -0.39202848076820374
visibility: 0.8934934735298157
","x: 229.04617309570312
y: 333.74261474609375
z: -0.4248135983943939
visibility: 0.9121391773223877
","x: 155.86317443847656
y: 329.6102600097656
z: -0.4328983426094055
visibility: 0.8526543378829956
","x: 227.510986328125
y: 329.00946044921875
z: -0.43007931113243103
visibility: 0.9179002642631531
","x: 158.9829559326172
y: 323.9505615234375
z: -0.43273353576660156
visibility: 0.8570469617843628
","x: 226.37429809570312
y: 330.40789794921875
z: -0.39139506220817566
visibility: 0.8981716632843018
","x: 158.80519104003906
y: 324.583740234375
z: -0.3976561427116394
visibility: 0.8410735726356506
","x: 202.97378540039062
y: 406.7074890136719
z: -0.0016204860294237733
visibility: 0.999895453453064
","x: 180.9685516357422
y: 405.7183837890625
z: 0.0016116542974486947
visibility: 0.9999237656593323
","x: 211.5433807373047
y: 463.773681640625
z: -0.07550892978906631
visibility: 0.9942649006843567
","x: 170.31541442871094
y: 461.883056640625
z: -0.0747092217206955
visibility: 0.9963327050209045
","x: 218.9390869140625
y: 523.1763305664062
z: 0.06802384555339813
visibility: 0.9944754838943481
","x: 166.01295471191406
y: 521.7518920898438
z: 0.08583381026983261
visibility: 0.9964161515235901
","x: 216.0691680908203
y: 534.37158203125
z: 0.07582906633615494
visibility: 0.9392179250717163
","x: 168.99964904785156
y: 531.8445434570312
z: 0.09577144682407379
visibility: 0.9404899477958679
","x: 227.62570190429688
y: 545.8379516601562
z: -0.03387720137834549
visibility: 0.9911592602729797
","x: 157.31698608398438
y: 542.8463134765625
z: -0.008272713981568813
visibility: 0.993219792842865
",,,,,,,,,,,,,,,,,,,,,,,,,,,,,,,,,,,,,,,,,,
22,"x: 190.51156616210938
y: 281.509521484375
z: -0.23429255187511444
visibility: 0.9998648762702942
","x: 192.71095275878906
y: 275.9146423339844
z: -0.21872541308403015
visibility: 0.9996891021728516
","x: 194.32716369628906
y: 276.12225341796875
z: -0.21873095631599426
visibility: 0.9997121095657349
","x: 195.86944580078125
y: 276.3805236816406
z: -0.21875853836536407
visibility: 0.9997018575668335
","x: 188.4387664794922
y: 275.68963623046875
z: -0.21672721207141876
visibility: 0.9996169805526733
","x: 187.17276000976562
y: 275.7872314453125
z: -0.21675045788288116
visibility: 0.9995260834693909
","x: 185.99627685546875
y: 275.9396057128906
z: -0.2167310267686844
visibility: 0.9994745254516602
","x: 198.47996520996094
y: 280.0263671875
z: -0.1250845491886139
visibility: 0.9995955228805542
","x: 184.4204559326172
y: 279.67034912109375
z: -0.11618461459875107
visibility: 0.9986764788627625
","x: 193.9428253173828
y: 287.7403564453125
z: -0.19978156685829163
visibility: 0.999838650226593
","x: 188.0034637451172
y: 287.8402404785156
z: -0.19728121161460876
visibility: 0.9997292160987854
","x: 209.642333984375
y: 318.05389404296875
z: -0.06988240033388138
visibility: 0.9999419450759888
","x: 172.2555694580078
y: 315.9768981933594
z: -0.06315147131681442
visibility: 0.9998737573623657
","x: 220.36912536621094
y: 356.11700439453125
z: -0.17233164608478546
visibility: 0.9763420224189758
","x: 155.82022094726562
y: 343.6896057128906
z: -0.1791369915008545
visibility: 0.9119037389755249
","x: 229.20791625976562
y: 341.4358825683594
z: -0.35820236802101135
visibility: 0.9576102495193481
","x: 155.82052612304688
y: 334.0338134765625
z: -0.3810601234436035
visibility: 0.9036499261856079
","x: 231.07383728027344
y: 337.2725830078125
z: -0.3960401117801666
visibility: 0.9192230701446533
","x: 155.74571228027344
y: 328.5142517089844
z: -0.42007964849472046
visibility: 0.8658327460289001
","x: 229.06329345703125
y: 332.9537658691406
z: -0.399143785238266
visibility: 0.9244730472564697
","x: 158.1387176513672
y: 323.9600830078125
z: -0.41782665252685547
visibility: 0.8697207570075989
","x: 227.9254150390625
y: 334.02008056640625
z: -0.36449044942855835
visibility: 0.9059645533561707
","x: 158.2747802734375
y: 326.57293701171875
z: -0.3856745958328247
visibility: 0.8547223210334778
","x: 202.7036590576172
y: 406.7253112792969
z: -0.0009149351972155273
visibility: 0.9999006390571594
","x: 179.14114379882812
y: 407.345703125
z: 0.0008848130819387734
visibility: 0.9999251961708069
","x: 212.48336791992188
y: 462.52728271484375
z: -0.15114852786064148
visibility: 0.9946079254150391
","x: 168.08168029785156
y: 461.5302734375
z: -0.1090485230088234
visibility: 0.9964667558670044
","x: 219.20376586914062
y: 523.11474609375
z: -0.0003095665015280247
visibility: 0.9946936964988708
","x: 165.91531372070312
y: 521.628173828125
z: 0.05041627958416939
visibility: 0.9964954257011414
","x: 216.30345153808594
y: 534.3872680664062
z: 0.009026806801557541
visibility: 0.9413334131240845
","x: 168.8570098876953
y: 531.1805419921875
z: 0.060695745050907135
visibility: 0.9423688054084778
","x: 227.62664794921875
y: 545.872802734375
z: -0.10039889812469482
visibility: 0.991449236869812
","x: 157.36813354492188
y: 542.8468017578125
z: -0.04197563976049423
visibility: 0.9933471083641052
","x: 160.57579040527344
y: 328.3394775390625
z: 0.0
","x: 162.74501037597656
y: 324.69482421875
z: -0.0003191728610545397
","x: 164.64297485351562
y: 320.5858154296875
z: -0.0024728751741349697
","x: 166.83251953125
y: 318.4950256347656
z: -0.005221277475357056
","x: 168.90011596679688
y: 317.484130859375
z: -0.007529918570071459
","x: 160.41256713867188
y: 313.8905944824219
z: -0.0028349312487989664
","x: 161.7608184814453
y: 316.5600891113281
z: -0.005567583721131086
","x: 162.6326904296875
y: 320.15032958984375
z: -0.0066857417114079
","x: 162.7049102783203
y: 320.9002380371094
z: -0.00740069942548871
","x: 158.35317993164062
y: 315.7890625
z: -0.00514205452054739
","x: 160.27769470214844
y: 319.5116271972656
z: -0.007593151647597551
","x: 161.33871459960938
y: 322.29150390625
z: -0.006902818102389574
","x: 161.25299072265625
y: 322.61224365234375
z: -0.006628669332712889
","x: 156.74160766601562
y: 318.93389892578125
z: -0.0075350371189415455
","x: 158.71893310546875
y: 322.555908203125
z: -0.00904221273958683
","x: 159.91744995117188
y: 324.6552734375
z: -0.007396134547889233
","x: 160.02215576171875
y: 324.90350341796875
z: -0.006511906627565622
","x: 155.60794067382812
y: 322.42669677734375
z: -0.01021062582731247
","x: 157.28268432617188
y: 325.57025146484375
z: -0.010489827953279018
","x: 158.67396545410156
y: 327.0671081542969
z: -0.009333689697086811
","x: 159.09732055664062
y: 327.4142150878906
z: -0.008644805289804935
",,,,,,,,,,,,,,,,,,,,,
23,"x: 190.51156616210938
y: 281.509521484375
z: -0.23429255187511444
visibility: 0.9998648762702942
","x: 192.71095275878906
y: 275.9146423339844
z: -0.21872541308403015
visibility: 0.9996891021728516
","x: 194.32716369628906
y: 276.12225341796875
z: -0.21873095631599426
visibility: 0.9997121095657349
","x: 195.86944580078125
y: 276.3805236816406
z: -0.21875853836536407
visibility: 0.9997018575668335
","x: 188.4387664794922
y: 275.68963623046875
z: -0.21672721207141876
visibility: 0.9996169805526733
","x: 187.17276000976562
y: 275.7872314453125
z: -0.21675045788288116
visibility: 0.9995260834693909
","x: 185.99627685546875
y: 275.9396057128906
z: -0.2167310267686844
visibility: 0.9994745254516602
","x: 198.47996520996094
y: 280.0263671875
z: -0.1250845491886139
visibility: 0.9995955228805542
","x: 184.4204559326172
y: 279.67034912109375
z: -0.11618461459875107
visibility: 0.9986764788627625
","x: 193.9428253173828
y: 287.7403564453125
z: -0.19978156685829163
visibility: 0.999838650226593
","x: 188.0034637451172
y: 287.8402404785156
z: -0.19728121161460876
visibility: 0.9997292160987854
","x: 209.642333984375
y: 318.05389404296875
z: -0.06988240033388138
visibility: 0.9999419450759888
","x: 172.2555694580078
y: 315.9768981933594
z: -0.06315147131681442
visibility: 0.9998737573623657
","x: 220.36912536621094
y: 356.11700439453125
z: -0.17233164608478546
visibility: 0.9763420224189758
","x: 155.82022094726562
y: 343.6896057128906
z: -0.1791369915008545
visibility: 0.9119037389755249
","x: 229.20791625976562
y: 341.4358825683594
z: -0.35820236802101135
visibility: 0.9576102495193481
","x: 155.82052612304688
y: 334.0338134765625
z: -0.3810601234436035
visibility: 0.9036499261856079
","x: 231.07383728027344
y: 337.2725830078125
z: -0.3960401117801666
visibility: 0.9192230701446533
","x: 155.74571228027344
y: 328.5142517089844
z: -0.42007964849472046
visibility: 0.8658327460289001
","x: 229.06329345703125
y: 332.9537658691406
z: -0.399143785238266
visibility: 0.9244730472564697
","x: 158.1387176513672
y: 323.9600830078125
z: -0.41782665252685547
visibility: 0.8697207570075989
","x: 227.9254150390625
y: 334.02008056640625
z: -0.36449044942855835
visibility: 0.9059645533561707
","x: 158.2747802734375
y: 326.57293701171875
z: -0.3856745958328247
visibility: 0.8547223210334778
","x: 202.7036590576172
y: 406.7253112792969
z: -0.0009149351972155273
visibility: 0.9999006390571594
","x: 179.14114379882812
y: 407.345703125
z: 0.0008848130819387734
visibility: 0.9999251961708069
","x: 212.48336791992188
y: 462.52728271484375
z: -0.15114852786064148
visibility: 0.9946079254150391
","x: 168.08168029785156
y: 461.5302734375
z: -0.1090485230088234
visibility: 0.9964667558670044
","x: 219.20376586914062
y: 523.11474609375
z: -0.0003095665015280247
visibility: 0.9946936964988708
","x: 165.91531372070312
y: 521.628173828125
z: 0.05041627958416939
visibility: 0.9964954257011414
","x: 216.30345153808594
y: 534.3872680664062
z: 0.009026806801557541
visibility: 0.9413334131240845
","x: 168.8570098876953
y: 531.1805419921875
z: 0.060695745050907135
visibility: 0.9423688054084778
","x: 227.62664794921875
y: 545.872802734375
z: -0.10039889812469482
visibility: 0.991449236869812
","x: 157.36813354492188
y: 542.8468017578125
z: -0.04197563976049423
visibility: 0.9933471083641052
","x: 160.57579040527344
y: 328.3394775390625
z: 0.0
","x: 162.74501037597656
y: 324.69482421875
z: -0.0003191728610545397
","x: 164.64297485351562
y: 320.5858154296875
z: -0.0024728751741349697
","x: 166.83251953125
y: 318.4950256347656
z: -0.005221277475357056
","x: 168.90011596679688
y: 317.484130859375
z: -0.007529918570071459
","x: 160.41256713867188
y: 313.8905944824219
z: -0.0028349312487989664
","x: 161.7608184814453
y: 316.5600891113281
z: -0.005567583721131086
","x: 162.6326904296875
y: 320.15032958984375
z: -0.0066857417114079
","x: 162.7049102783203
y: 320.9002380371094
z: -0.00740069942548871
","x: 158.35317993164062
y: 315.7890625
z: -0.00514205452054739
","x: 160.27769470214844
y: 319.5116271972656
z: -0.007593151647597551
","x: 161.33871459960938
y: 322.29150390625
z: -0.006902818102389574
","x: 161.25299072265625
y: 322.61224365234375
z: -0.006628669332712889
","x: 156.74160766601562
y: 318.93389892578125
z: -0.0075350371189415455
","x: 158.71893310546875
y: 322.555908203125
z: -0.00904221273958683
","x: 159.91744995117188
y: 324.6552734375
z: -0.007396134547889233
","x: 160.02215576171875
y: 324.90350341796875
z: -0.006511906627565622
","x: 155.60794067382812
y: 322.42669677734375
z: -0.01021062582731247
","x: 157.28268432617188
y: 325.57025146484375
z: -0.010489827953279018
","x: 158.67396545410156
y: 327.0671081542969
z: -0.009333689697086811
","x: 159.09732055664062
y: 327.4142150878906
z: -0.008644805289804935
",,,,,,,,,,,,,,,,,,,,,
24,"x: 188.02413940429688
y: 283.11053466796875
z: -0.20480337738990784
visibility: 0.9998774528503418
","x: 190.25784301757812
y: 277.1233215332031
z: -0.187196284532547
visibility: 0.9997180104255676
","x: 191.86387634277344
y: 277.24267578125
z: -0.18720360100269318
visibility: 0.9997385144233704
","x: 193.318359375
y: 277.3929138183594
z: -0.18723519146442413
visibility: 0.9997288584709167
","x: 186.18373107910156
y: 277.0313415527344
z: -0.18721257150173187
visibility: 0.9996525645256042
","x: 185.00506591796875
y: 277.08502197265625
z: -0.18723154067993164
visibility: 0.999570369720459
","x: 183.87322998046875
y: 277.1805114746094
z: -0.18722490966320038
visibility: 0.9995235800743103
","x: 195.8498077392578
y: 280.894287109375
z: -0.09062406420707703
visibility: 0.9996321797370911
","x: 182.353271484375
y: 280.5697021484375
z: -0.09222310781478882
visibility: 0.9988054037094116
","x: 191.16566467285156
y: 288.9175109863281
z: -0.1696350872516632
visibility: 0.9998530149459839
","x: 185.82713317871094
y: 289.20220947265625
z: -0.17012886703014374
visibility: 0.9997549057006836
","x: 205.8521728515625
y: 319.9557189941406
z: -0.04093604162335396
visibility: 0.9999443292617798
","x: 169.20724487304688
y: 317.2671203613281
z: -0.043021541088819504
visibility: 0.9998816847801208
","x: 216.2581329345703
y: 359.1458435058594
z: -0.14289723336696625
visibility: 0.9776953458786011
","x: 152.27383422851562
y: 344.380859375
z: -0.16648593544960022
visibility: 0.9201111793518066
","x: 226.6887664794922
y: 343.53643798828125
z: -0.3180989623069763
visibility: 0.9613816738128662
","x: 156.5731201171875
y: 331.3873291015625
z: -0.35344329476356506
visibility: 0.912638247013092
","x: 229.57122802734375
y: 338.3611755371094
z: -0.35293450951576233
visibility: 0.925980806350708
","x: 158.47439575195312
y: 323.4137268066406
z: -0.38996246457099915
visibility: 0.877134382724762
","x: 228.14613342285156
y: 333.2372741699219
z: -0.3638637959957123
visibility: 0.9307467937469482
","x: 159.77224731445312
y: 319.30609130859375
z: -0.40688127279281616
visibility: 0.8804813027381897
","x: 226.5962677001953
y: 334.9783020019531
z: -0.3252118229866028
visibility: 0.9133500456809998
","x: 158.4550323486328
y: 323.5115966796875
z: -0.3590205907821655
visibility: 0.8661298751831055
","x: 202.43370056152344
y: 406.78155517578125
z: 0.0009040975128300488
visibility: 0.9998959302902222
","x: 179.05743408203125
y: 409.3822021484375
z: -0.0009036428527906537
visibility: 0.9999239444732666
","x: 215.05874633789062
y: 462.14697265625
z: -0.1713656336069107
visibility: 0.9947390556335449
","x: 167.9464874267578
y: 459.957763671875
z: -0.1880609691143036
visibility: 0.9965896010398865
","x: 221.17572021484375
y: 523.7230224609375
z: -0.023712720721960068
visibility: 0.9946302771568298
","x: 165.85064697265625
y: 521.6410522460938
z: -0.03255058452486992
visibility: 0.9965896010398865
","x: 217.4877166748047
y: 535.7603149414062
z: -0.015298767015337944
visibility: 0.9425206184387207
","x: 168.93995666503906
y: 531.1499633789062
z: -0.022800352424383163
visibility: 0.9449169635772705
","x: 231.88311767578125
y: 545.9264526367188
z: -0.11841487884521484
visibility: 0.9911000728607178
","x: 157.33631896972656
y: 543.1781005859375
z: -0.12595884501934052
visibility: 0.9934423565864563
","x: 162.18502807617188
y: 329.8588562011719
z: 0.0
","x: 161.69326782226562
y: 329.9774169921875
z: -0.0016094193561002612
","x: 160.83746337890625
y: 328.31353759765625
z: -0.003531620604917407
","x: 160.7292938232422
y: 325.81048583984375
z: -0.005788704846054316
","x: 161.260498046875
y: 323.7645263671875
z: -0.007642063312232494
","x: 159.48049926757812
y: 318.6988830566406
z: -0.002669395413249731
","x: 162.7500457763672
y: 319.1063232421875
z: -0.005603330209851265
","x: 163.86956787109375
y: 320.8868713378906
z: -0.006957997102290392
","x: 163.4951171875
y: 321.4060974121094
z: -0.0076651060953736305
","x: 160.27120971679688
y: 315.5416564941406
z: -0.003896834794431925
","x: 164.1705322265625
y: 316.6860656738281
z: -0.007129003293812275
","x: 165.20729064941406
y: 319.0965270996094
z: -0.007175163831561804
","x: 164.54173278808594
y: 319.7660217285156
z: -0.006966091692447662
","x: 161.45437622070312
y: 313.9791564941406
z: -0.00537503557279706
","x: 164.9451141357422
y: 314.8644714355469
z: -0.007805244997143745
","x: 165.59817504882812
y: 317.27130126953125
z: -0.006513088010251522
","x: 164.83285522460938
y: 317.99505615234375
z: -0.0054679568856954575
","x: 162.89462280273438
y: 313.2877197265625
z: -0.007260202895849943
","x: 165.6772918701172
y: 313.2931213378906
z: -0.008193730376660824
","x: 166.20738220214844
y: 314.9751892089844
z: -0.007202234119176865
","x: 165.56610107421875
y: 315.6046142578125
z: -0.006351714953780174
",,,,,,,,,,,,,,,,,,,,,
25,"x: 188.02413940429688
y: 283.11053466796875
z: -0.20480337738990784
visibility: 0.9998774528503418
","x: 190.25784301757812
y: 277.1233215332031
z: -0.187196284532547
visibility: 0.9997180104255676
","x: 191.86387634277344
y: 277.24267578125
z: -0.18720360100269318
visibility: 0.9997385144233704
","x: 193.318359375
y: 277.3929138183594
z: -0.18723519146442413
visibility: 0.9997288584709167
","x: 186.18373107910156
y: 277.0313415527344
z: -0.18721257150173187
visibility: 0.9996525645256042
","x: 185.00506591796875
y: 277.08502197265625
z: -0.18723154067993164
visibility: 0.999570369720459
","x: 183.87322998046875
y: 277.1805114746094
z: -0.18722490966320038
visibility: 0.9995235800743103
","x: 195.8498077392578
y: 280.894287109375
z: -0.09062406420707703
visibility: 0.9996321797370911
","x: 182.353271484375
y: 280.5697021484375
z: -0.09222310781478882
visibility: 0.9988054037094116
","x: 191.16566467285156
y: 288.9175109863281
z: -0.1696350872516632
visibility: 0.9998530149459839
","x: 185.82713317871094
y: 289.20220947265625
z: -0.17012886703014374
visibility: 0.9997549057006836
","x: 205.8521728515625
y: 319.9557189941406
z: -0.04093604162335396
visibility: 0.9999443292617798
","x: 169.20724487304688
y: 317.2671203613281
z: -0.043021541088819504
visibility: 0.9998816847801208
","x: 216.2581329345703
y: 359.1458435058594
z: -0.14289723336696625
visibility: 0.9776953458786011
","x: 152.27383422851562
y: 344.380859375
z: -0.16648593544960022
visibility: 0.9201111793518066
","x: 226.6887664794922
y: 343.53643798828125
z: -0.3180989623069763
visibility: 0.9613816738128662
","x: 156.5731201171875
y: 331.3873291015625
z: -0.35344329476356506
visibility: 0.912638247013092
","x: 229.57122802734375
y: 338.3611755371094
z: -0.35293450951576233
visibility: 0.925980806350708
","x: 158.47439575195312
y: 323.4137268066406
z: -0.38996246457099915
visibility: 0.877134382724762
","x: 228.14613342285156
y: 333.2372741699219
z: -0.3638637959957123
visibility: 0.9307467937469482
","x: 159.77224731445312
y: 319.30609130859375
z: -0.40688127279281616
visibility: 0.8804813027381897
","x: 226.5962677001953
y: 334.9783020019531
z: -0.3252118229866028
visibility: 0.9133500456809998
","x: 158.4550323486328
y: 323.5115966796875
z: -0.3590205907821655
visibility: 0.8661298751831055
","x: 202.43370056152344
y: 406.78155517578125
z: 0.0009040975128300488
visibility: 0.9998959302902222
","x: 179.05743408203125
y: 409.3822021484375
z: -0.0009036428527906537
visibility: 0.9999239444732666
","x: 215.05874633789062
y: 462.14697265625
z: -0.1713656336069107
visibility: 0.9947390556335449
","x: 167.9464874267578
y: 459.957763671875
z: -0.1880609691143036
visibility: 0.9965896010398865
","x: 221.17572021484375
y: 523.7230224609375
z: -0.023712720721960068
visibility: 0.9946302771568298
","x: 165.85064697265625
y: 521.6410522460938
z: -0.03255058452486992
visibility: 0.9965896010398865
","x: 217.4877166748047
y: 535.7603149414062
z: -0.015298767015337944
visibility: 0.9425206184387207
","x: 168.93995666503906
y: 531.1499633789062
z: -0.022800352424383163
visibility: 0.9449169635772705
","x: 231.88311767578125
y: 545.9264526367188
z: -0.11841487884521484
visibility: 0.9911000728607178
","x: 157.33631896972656
y: 543.1781005859375
z: -0.12595884501934052
visibility: 0.9934423565864563
","x: 162.18502807617188
y: 329.8588562011719
z: 0.0
","x: 161.69326782226562
y: 329.9774169921875
z: -0.0016094193561002612
","x: 160.83746337890625
y: 328.31353759765625
z: -0.003531620604917407
","x: 160.7292938232422
y: 325.81048583984375
z: -0.005788704846054316
","x: 161.260498046875
y: 323.7645263671875
z: -0.007642063312232494
","x: 159.48049926757812
y: 318.6988830566406
z: -0.002669395413249731
","x: 162.7500457763672
y: 319.1063232421875
z: -0.005603330209851265
","x: 163.86956787109375
y: 320.8868713378906
z: -0.006957997102290392
","x: 163.4951171875
y: 321.4060974121094
z: -0.0076651060953736305
","x: 160.27120971679688
y: 315.5416564941406
z: -0.003896834794431925
","x: 164.1705322265625
y: 316.6860656738281
z: -0.007129003293812275
","x: 165.20729064941406
y: 319.0965270996094
z: -0.007175163831561804
","x: 164.54173278808594
y: 319.7660217285156
z: -0.006966091692447662
","x: 161.45437622070312
y: 313.9791564941406
z: -0.00537503557279706
","x: 164.9451141357422
y: 314.8644714355469
z: -0.007805244997143745
","x: 165.59817504882812
y: 317.27130126953125
z: -0.006513088010251522
","x: 164.83285522460938
y: 317.99505615234375
z: -0.0054679568856954575
","x: 162.89462280273438
y: 313.2877197265625
z: -0.007260202895849943
","x: 165.6772918701172
y: 313.2931213378906
z: -0.008193730376660824
","x: 166.20738220214844
y: 314.9751892089844
z: -0.007202234119176865
","x: 165.56610107421875
y: 315.6046142578125
z: -0.006351714953780174
",,,,,,,,,,,,,,,,,,,,,
26,"x: 188.60438537597656
y: 282.7267761230469
z: -0.22790560126304626
visibility: 0.9998882412910461
","x: 190.57925415039062
y: 276.966796875
z: -0.21347148716449738
visibility: 0.9997429847717285
","x: 192.06646728515625
y: 277.144775390625
z: -0.21349367499351501
visibility: 0.9997613430023193
","x: 193.44912719726562
y: 277.3351745605469
z: -0.21352609992027283
visibility: 0.9997522234916687
","x: 186.34600830078125
y: 276.9722595214844
z: -0.21291014552116394
visibility: 0.9996830821037292
","x: 185.05892944335938
y: 276.9193115234375
z: -0.21293160319328308
visibility: 0.9996081590652466
","x: 184.055908203125
y: 276.93585205078125
z: -0.2129254788160324
visibility: 0.9995647668838501
","x: 195.93099975585938
y: 279.8993225097656
z: -0.1190178170800209
visibility: 0.9996630549430847
","x: 182.46751403808594
y: 280.05377197265625
z: -0.11698472499847412
visibility: 0.9989159107208252
","x: 191.5126190185547
y: 288.7056884765625
z: -0.1922452747821808
visibility: 0.9998648166656494
","x: 186.15798950195312
y: 288.95184326171875
z: -0.19202904403209686
visibility: 0.999775767326355
","x: 206.51287841796875
y: 316.6071472167969
z: -0.05607975646853447
visibility: 0.9999459981918335
","x: 169.8696746826172
y: 315.8182678222656
z: -0.059494566172361374
visibility: 0.9998823404312134
","x: 216.3419952392578
y: 358.74853515625
z: -0.13772937655448914
visibility: 0.978827178478241
","x: 160.5067901611328
y: 350.2137756347656
z: -0.17238810658454895
visibility: 0.9261656999588013
","x: 229.25697326660156
y: 341.13671875
z: -0.3173143267631531
visibility: 0.964715301990509
","x: 159.72189331054688
y: 330.85302734375
z: -0.3829270899295807
visibility: 0.9202917218208313
","x: 232.28594970703125
y: 335.7613525390625
z: -0.3534683287143707
visibility: 0.9320037364959717
","x: 161.36541748046875
y: 323.6243896484375
z: -0.4228978157043457
visibility: 0.8869227170944214
","x: 231.2533721923828
y: 329.6264953613281
z: -0.3633337616920471
visibility: 0.9364005327224731
","x: 161.51651000976562
y: 319.24615478515625
z: -0.4255147874355316
visibility: 0.8898733258247375
","x: 229.88064575195312
y: 331.20562744140625
z: -0.3258080780506134
visibility: 0.9200999140739441
","x: 160.5373992919922
y: 322.3059387207031
z: -0.3890548348426819
visibility: 0.8759588599205017
","x: 202.26451110839844
y: 405.4765319824219
z: 0.0016102135414257646
visibility: 0.9998930096626282
","x: 179.25784301757812
y: 406.77667236328125
z: -0.0015907414490357041
visibility: 0.9999195337295532
","x: 214.414306640625
y: 462.59881591796875
z: -0.05108492448925972
visibility: 0.9948997497558594
","x: 169.35560607910156
y: 460.11083984375
z: -0.03210805356502533
visibility: 0.9967163801193237
","x: 221.98184204101562
y: 523.8829956054688
z: 0.05327305942773819
visibility: 0.99479740858078
","x: 165.8126678466797
y: 521.6010131835938
z: 0.1265067458152771
visibility: 0.996654748916626
","x: 218.3733367919922
y: 536.274169921875
z: 0.06506244093179703
visibility: 0.9444904327392578
","x: 169.32899475097656
y: 530.7783203125
z: 0.1367557793855667
visibility: 0.9463192820549011
","x: 232.1263427734375
y: 545.9239501953125
z: -0.04220374673604965
visibility: 0.9913327097892761
","x: 157.43276977539062
y: 543.1499633789062
z: 0.04893673211336136
visibility: 0.993493378162384
",,,,,,,,,,,,,,,,,,,,,,,,,,,,,,,,,,,,,,,,,,
27,"x: 190.52383422851562
y: 282.80633544921875
z: -0.20560677349567413
visibility: 0.9998978972434998
","x: 192.25057983398438
y: 276.68804931640625
z: -0.19142891466617584
visibility: 0.9997649788856506
","x: 193.54049682617188
y: 276.83447265625
z: -0.19144824147224426
visibility: 0.9997808933258057
","x: 194.8107147216797
y: 277.01800537109375
z: -0.19146205484867096
visibility: 0.9997719526290894
","x: 188.3302459716797
y: 276.6498718261719
z: -0.19134357571601868
visibility: 0.9997103810310364
","x: 186.9554901123047
y: 276.60504150390625
z: -0.19134870171546936
visibility: 0.999642014503479
","x: 185.7643585205078
y: 276.6317138671875
z: -0.19134393334388733
visibility: 0.9996024966239929
","x: 197.48362731933594
y: 279.78155517578125
z: -0.09784387052059174
visibility: 0.9996880888938904
","x: 183.48223876953125
y: 279.80303955078125
z: -0.09884556382894516
visibility: 0.9990173578262329
","x: 193.20701599121094
y: 288.9950866699219
z: -0.1700827181339264
visibility: 0.9998744130134583
","x: 188.54539489746094
y: 289.04779052734375
z: -0.17042392492294312
visibility: 0.9997951984405518
","x: 208.1658172607422
y: 316.73406982421875
z: -0.0363965779542923
visibility: 0.9999458193778992
","x: 172.43075561523438
y: 313.6983947753906
z: -0.04720272868871689
visibility: 0.999887228012085
","x: 216.36561584472656
y: 358.4898376464844
z: -0.11649421602487564
visibility: 0.9794037938117981
","x: 160.50364685058594
y: 350.1645202636719
z: -0.16720964014530182
visibility: 0.9328092336654663
","x: 230.89382934570312
y: 342.32305908203125
z: -0.31097379326820374
visibility: 0.967628538608551
","x: 168.2334442138672
y: 325.2272033691406
z: -0.36803537607192993
visibility: 0.9276641607284546
","x: 234.40969848632812
y: 338.1717529296875
z: -0.35255178809165955
visibility: 0.93720942735672
","x: 170.09278869628906
y: 319.55450439453125
z: -0.41371145844459534
visibility: 0.8963971734046936
","x: 233.03257751464844
y: 331.85797119140625
z: -0.3486596345901489
visibility: 0.9412561655044556
","x: 172.04324340820312
y: 315.76409912109375
z: -0.38923829793930054
visibility: 0.8989386558532715
","x: 231.5462188720703
y: 333.2572021484375
z: -0.3165894150733948
visibility: 0.9258129596710205
","x: 172.29673767089844
y: 317.6790466308594
z: -0.37124648690223694
visibility: 0.8856101632118225
","x: 203.11859130859375
y: 405.37939453125
z: 0.0015106050996109843
visibility: 0.9998876452445984
","x: 181.204345703125
y: 406.6061706542969
z: -0.001496964250691235
visibility: 0.9999163746833801
","x: 215.03073120117188
y: 462.8393249511719
z: -0.05261855572462082
visibility: 0.9949110150337219
","x: 170.36785888671875
y: 459.9148864746094
z: -0.05551133677363396
visibility: 0.9968352913856506
","x: 221.96018981933594
y: 524.0059204101562
z: 0.06582514941692352
visibility: 0.994807779788971
","x: 165.75704956054688
y: 521.3756713867188
z: 0.09257103502750397
visibility: 0.9967069029808044
","x: 218.69288635253906
y: 536.2493286132812
z: 0.07306789606809616
visibility: 0.945245087146759
","x: 169.2090606689453
y: 530.2371826171875
z: 0.10215340554714203
visibility: 0.9481131434440613
","x: 231.39854431152344
