uscmakers/ReverseChoreography/data/6_ymca_village_people.csv
,NOSE,LEFT_EYE_INNER,LEFT_EYE,LEFT_EYE_OUTER,RIGHT_EYE_INNER,RIGHT_EYE,RIGHT_EYE_OUTER,LEFT_EAR,RIGHT_EAR,MOUTH_LEFT,MOUTH_RIGHT,LEFT_SHOULDER,RIGHT_SHOULDER,LEFT_ELBOW,RIGHT_ELBOW,LEFT_WRIST,RIGHT_WRIST,LEFT_PINKY,RIGHT_PINKY,LEFT_INDEX,RIGHT_INDEX,LEFT_THUMB,RIGHT_THUMB,LEFT_HIP,RIGHT_HIP,LEFT_KNEE,RIGHT_KNEE,LEFT_ANKLE,RIGHT_ANKLE,LEFT_HEEL,RIGHT_HEEL,LEFT_FOOT_INDEX,RIGHT_FOOT_INDEX,WRIST2,THUMB_CPC2,THUMB_MCP2,THUMB_IP2,THUMB_TIP2,INDEX_FINGER_MCP2,INDEX_FINGER_PIP2,INDEX_FINGER_DIP2,INDEX_FINGER_TIP2,MIDDLE_FINGER_MCP2,MIDDLE_FINGER_PIP2,MIDDLE_FINGER_DIP2,MIDDLE_FINGER_TIP2,RING_FINGER_PIP2,RING_FINGER_DIP2,RING_FINGER_TIP2,RING_FINGER_MCP2,PINKY_MCP2,PINKY_PIP2,PINKY_DIP2,PINKY_TIP2,WRIST,THUMB_CPC,THUMB_MCP,THUMB_IP,THUMB_TIP,INDEX_FINGER_MCP,INDEX_FINGER_PIP,INDEX_FINGER_DIP,INDEX_FINGER_TIP,MIDDLE_FINGER_MCP,MIDDLE_FINGER_PIP,MIDDLE_FINGER_DIP,MIDDLE_FINGER_TIP,RING_FINGER_PIP,RING_FINGER_DIP,RING_FINGER_TIP,RING_FINGER_MCP,PINKY_MCP,PINKY_PIP,PINKY_DIP,PINKY_TIP
0,"x: 163.71177673339844
y: 279.6499938964844
z: -0.14204369485378265
visibility: 0.9991729855537415
","x: 164.818359375
y: 273.4742126464844
z: -0.12576435506343842
visibility: 0.9988821148872375
","x: 165.89659118652344
y: 273.37261962890625
z: -0.12577058374881744
visibility: 0.9985835552215576
","x: 167.0413055419922
y: 273.344970703125
z: -0.12577418982982635
visibility: 0.9985511898994446
","x: 161.7048797607422
y: 274.27606201171875
z: -0.12972122430801392
visibility: 0.9989631175994873
","x: 160.4864501953125
y: 274.68878173828125
z: -0.12973318994045258
visibility: 0.9987573623657227
","x: 159.2676239013672
y: 275.266357421875
z: -0.1297427862882614
visibility: 0.9987427592277527
","x: 169.24623107910156
y: 276.22210693359375
z: -0.031087476760149002
visibility: 0.9976109266281128
","x: 156.6112060546875
y: 279.37860107421875
z: -0.04657016694545746
visibility: 0.9991161227226257
","x: 166.14144897460938
y: 285.68988037109375
z: -0.1060316413640976
visibility: 0.9984527826309204
","x: 162.11033630371094
y: 286.2978515625
z: -0.11052980273962021
visibility: 0.9987055063247681
","x: 179.8153533935547
y: 309.1917724609375
z: 0.017899084836244583
visibility: 0.9982799291610718
","x: 148.339111328125
y: 311.18157958984375
z: -0.049141786992549896
visibility: 0.9994294047355652
","x: 189.4977264404297
y: 335.07684326171875
z: -0.10844101756811142
visibility: 0.8531839847564697
","x: 149.3630828857422
y: 335.6201171875
z: -0.14135220646858215
visibility: 0.9866375923156738
","x: 179.48402404785156
y: 328.2671813964844
z: -0.26731860637664795
visibility: 0.7748121023178101
","x: 171.2346954345703
y: 324.9981384277344
z: -0.18314321339130402
visibility: 0.9413046836853027
","x: 176.29641723632812
y: 328.4454345703125
z: -0.30168280005455017
visibility: 0.6530385613441467
","x: 177.13876342773438
y: 323.1214599609375
z: -0.20452651381492615
visibility: 0.8507835865020752
","x: 172.72265625
y: 325.7388916015625
z: -0.2935742437839508
visibility: 0.6373884081840515
","x: 178.34156799316406
y: 322.1000671386719
z: -0.19706736505031586
visibility: 0.8335514068603516
","x: 175.53662109375
y: 326.3369445800781
z: -0.2692883610725403
visibility: 0.5958928465843201
","x: 175.87948608398438
y: 322.5632019042969
z: -0.18009130656719208
visibility: 0.7729250192642212
","x: 176.40545654296875
y: 399.12420654296875
z: 0.014912588521838188
visibility: 0.9996867179870605
","x: 155.73301696777344
y: 399.17413330078125
z: -0.0148139838129282
visibility: 0.9996905326843262
","x: 181.58836364746094
y: 462.4606018066406
z: -0.01665104180574417
visibility: 0.9866329431533813
","x: 152.82327270507812
y: 463.64208984375
z: -0.006923770997673273
visibility: 0.994927167892456
","x: 187.2176513671875
y: 523.1815185546875
z: 0.045498136430978775
visibility: 0.9895490407943726
","x: 148.99588012695312
y: 521.735595703125
z: 0.09236223250627518
visibility: 0.9930603504180908
","x: 184.10321044921875
y: 535.380126953125
z: 0.04572334885597229
visibility: 0.9380801320075989
","x: 150.35276794433594
y: 529.5755615234375
z: 0.09616680443286896
visibility: 0.8638461828231812
","x: 202.63461303710938
y: 540.93017578125
z: -0.05072971060872078
visibility: 0.9811422228813171
","x: 145.83689880371094
y: 543.7239990234375
z: 0.00157171708997339
visibility: 0.985484778881073
",,,,,,,,,,,,,,,,,,,,,,,,,,,,,,,,,,,,,,,,,,
1,"x: 164.15936279296875
y: 280.5001220703125
z: -0.16730982065200806
visibility: 0.9991804361343384
","x: 165.51358032226562
y: 274.00872802734375
z: -0.1528131067752838
visibility: 0.9988614320755005
","x: 166.67788696289062
y: 273.8037109375
z: -0.1528102457523346
visibility: 0.9985547065734863
","x: 167.86260986328125
y: 273.667724609375
z: -0.15280689299106598
visibility: 0.9985173940658569
","x: 161.9615020751953
y: 274.892578125
z: -0.15598423779010773
visibility: 0.9989580512046814
","x: 160.68301391601562
y: 275.28912353515625
z: -0.15600909292697906
visibility: 0.9987547993659973
","x: 159.38995361328125
y: 275.8099060058594
z: -0.15603186190128326
visibility: 0.9987443089485168
","x: 170.0364990234375
y: 276.31573486328125
z: -0.057327158749103546
visibility: 0.9975308775901794
","x: 156.6649932861328
y: 279.6322326660156
z: -0.06988929957151413
visibility: 0.9991042017936707
","x: 166.83612060546875
y: 286.3473205566406
z: -0.1300915628671646
visibility: 0.9984855651855469
","x: 162.31106567382812
y: 287.00677490234375
z: -0.13381162285804749
visibility: 0.9987383484840393
","x: 180.3078155517578
y: 309.2043151855469
z: -0.00029625516617670655
visibility: 0.9983407855033875
","x: 148.7191162109375
y: 311.015625
z: -0.0580829493701458
visibility: 0.9994572997093201
","x: 189.77259826660156
y: 335.6859130859375
z: -0.12411992251873016
visibility: 0.8611459136009216
","x: 148.75314331054688
y: 337.3934326171875
z: -0.1678229421377182
visibility: 0.9872266054153442
","x: 177.43284606933594
y: 329.8334045410156
z: -0.2812940180301666
visibility: 0.7830082178115845
","x: 170.095703125
y: 324.09368896484375
z: -0.2519574463367462
visibility: 0.9446166157722473
","x: 174.39474487304688
y: 328.80938720703125
z: -0.31456518173217773
visibility: 0.6598141193389893
","x: 175.37635803222656
y: 322.08148193359375
z: -0.2774106562137604
visibility: 0.8582170605659485
","x: 170.4150848388672
y: 325.37799072265625
z: -0.30334460735321045
visibility: 0.6438989043235779
","x: 176.76416015625
y: 319.7589416503906
z: -0.26730963587760925
visibility: 0.8415625691413879
","x: 172.8873748779297
y: 326.1075439453125
z: -0.2810964584350586
visibility: 0.6011249423027039
","x: 174.6445770263672
y: 320.0780944824219
z: -0.24851837754249573
visibility: 0.7826025485992432
","x: 176.50921630859375
y: 399.0719909667969
z: 0.014912903308868408
visibility: 0.9996935129165649
","x: 155.7718963623047
y: 399.20355224609375
z: -0.014815516769886017
visibility: 0.9996958374977112
","x: 181.22857666015625
y: 462.32891845703125
z: -0.021010946482419968
visibility: 0.9869112968444824
","x: 152.81851196289062
y: 463.4853515625
z: 0.016270076856017113
visibility: 0.9948466420173645
","x: 187.10757446289062
y: 523.1529541015625
z: 0.02973029948771
visibility: 0.9896860122680664
","x: 148.9996337890625
y: 520.1356201171875
z: 0.13881272077560425
visibility: 0.9928738474845886
","x: 183.73960876464844
y: 534.5062866210938
z: 0.028993885964155197
visibility: 0.9395546913146973
","x: 150.7809600830078
y: 526.1640625
z: 0.14533647894859314
visibility: 0.8642047047615051
","x: 201.79995727539062
y: 540.9063110351562
z: -0.07187945395708084
visibility: 0.981605052947998
","x: 146.38670349121094
y: 543.5759887695312
z: 0.05305459350347519
visibility: 0.9853463768959045
",,,,,,,,,,,,,,,,,,,,,,,,,,,,,,,,,,,,,,,,,,
2,"x: 164.24563598632812
y: 280.4717102050781
z: -0.1514393389225006
visibility: 0.9992204904556274
","x: 165.75196838378906
y: 273.9925842285156
z: -0.13829976320266724
visibility: 0.9988956451416016
","x: 166.92431640625
y: 273.79547119140625
z: -0.13829204440116882
visibility: 0.9985970854759216
","x: 168.11878967285156
y: 273.6578674316406
z: -0.13826832175254822
visibility: 0.9985622763633728
","x: 162.0998077392578
y: 274.80316162109375
z: -0.13898609578609467
visibility: 0.9989967346191406
","x: 160.83424377441406
y: 275.1632995605469
z: -0.13899444043636322
visibility: 0.9987968802452087
","x: 159.53237915039062
y: 275.6361083984375
z: -0.1390320360660553
visibility: 0.9987871646881104
","x: 170.22030639648438
y: 276.2915344238281
z: -0.051991693675518036
visibility: 0.9975721836090088
","x: 156.87767028808594
y: 279.5487365722656
z: -0.052643727511167526
visibility: 0.9991176724433899
","x: 166.8879852294922
y: 286.334228515625
z: -0.11659960448741913
visibility: 0.9985545873641968
","x: 162.3103790283203
y: 286.97088623046875
z: -0.11777426302433014
visibility: 0.9987953305244446
","x: 180.4200439453125
y: 309.1968078613281
z: 0.004094286821782589
visibility: 0.998431921005249
","x: 148.812255859375
y: 310.6798400878906
z: -0.035813651978969574
visibility: 0.9994919300079346
","x: 189.6947784423828
y: 337.67523193359375
z: -0.11488808691501617
visibility: 0.8704656958580017
","x: 148.4845733642578
y: 338.15301513671875
z: -0.13838812708854675
visibility: 0.9876428246498108
","x: 172.2798309326172
y: 329.77154541015625
z: -0.25602561235427856
visibility: 0.7966779470443726
","x: 170.15774536132812
y: 324.1083984375
z: -0.2195015847682953
visibility: 0.9474639296531677
","x: 167.6446990966797
y: 327.927001953125
z: -0.28661850094795227
visibility: 0.6759620308876038
","x: 175.51194763183594
y: 322.09686279296875
z: -0.24271373450756073
visibility: 0.8644208908081055
","x: 166.06137084960938
y: 324.2802429199219
z: -0.2746632695198059
visibility: 0.6601612567901611
","x: 176.8243408203125
y: 319.70281982421875
z: -0.2339836061000824
visibility: 0.8481334447860718
","x: 166.8573760986328
y: 323.6908264160156
z: -0.2544978857040405
visibility: 0.6164149641990662
","x: 174.70018005371094
y: 320.08428955078125
z: -0.2162826806306839
visibility: 0.7905905842781067
","x: 176.53623962402344
y: 398.6798400878906
z: 0.014021851122379303
visibility: 0.9997104406356812
","x: 155.7704620361328
y: 398.8461608886719
z: -0.013947783038020134
visibility: 0.9997117519378662
","x: 181.2326202392578
y: 462.0859375
z: -0.024049121886491776
visibility: 0.9873013496398926
","x: 152.5449981689453
y: 462.65130615234375
z: 0.021541502326726913
visibility: 0.9948670864105225
","x: 187.05990600585938
y: 523.1368408203125
z: 0.024751393124461174
visibility: 0.9899519085884094
","x: 149.06304931640625
y: 519.2633666992188
z: 0.14772334694862366
visibility: 0.992949903011322
","x: 183.44700622558594
y: 534.0975341796875
z: 0.023931439965963364
visibility: 0.9416549205780029
","x: 151.26710510253906
y: 525.0165405273438
z: 0.1544143706560135
visibility: 0.8677791357040405
","x: 201.80682373046875
y: 541.2562255859375
z: -0.07652902603149414
visibility: 0.9823583960533142
","x: 146.4716796875
y: 543.363525390625
z: 0.06404220312833786
visibility: 0.9857226014137268
",,,,,,,,,,,,,,,,,,,,,,,,,,,,,,,,,,,,,,,,,,
3,"x: 164.34625244140625
y: 280.45928955078125
z: -0.1513415277004242
visibility: 0.9992608428001404
","x: 165.9390411376953
y: 273.98748779296875
z: -0.1371111422777176
visibility: 0.9989428520202637
","x: 167.1154327392578
y: 273.7930603027344
z: -0.13711079955101013
visibility: 0.9986559152603149
","x: 168.3028564453125
y: 273.6572570800781
z: -0.13709869980812073
visibility: 0.9986259937286377
","x: 162.1667022705078
y: 274.7746887207031
z: -0.13883619010448456
visibility: 0.9990411996841431
","x: 160.90097045898438
y: 275.1141052246094
z: -0.1388435661792755
visibility: 0.998846709728241
","x: 159.58453369140625
y: 275.560546875
z: -0.1388716995716095
visibility: 0.9988383054733276
","x: 170.30032348632812
y: 276.29254150390625
z: -0.0466170459985733
visibility: 0.9976640343666077
","x: 156.94851684570312
y: 279.5234375
z: -0.05296335369348526
visibility: 0.9991422891616821
","x: 166.9891357421875
y: 286.3282165527344
z: -0.1161193996667862
visibility: 0.9986351132392883
","x: 162.32159423828125
y: 286.9642028808594
z: -0.11825764179229736
visibility: 0.998860239982605
","x: 180.46755981445312
y: 309.4498596191406
z: 0.004212033934891224
visibility: 0.9985077977180481
","x: 148.8761749267578
y: 310.6817932128906
z: -0.039469826966524124
visibility: 0.9995182752609253
","x: 189.65928649902344
y: 338.62744140625
z: -0.11436482518911362
visibility: 0.8772013783454895
","x: 148.3187713623047
y: 338.80731201171875
z: -0.1478561908006668
visibility: 0.987914502620697
","x: 172.9163360595703
y: 330.12176513671875
z: -0.2560509741306305
visibility: 0.8065075278282166
","x: 169.89862060546875
y: 324.1190185546875
z: -0.24115002155303955
visibility: 0.949859619140625
","x: 168.4288330078125
y: 327.592529296875
z: -0.2869817316532135
visibility: 0.6867613196372986
","x: 174.96310424804688
y: 322.1092529296875
z: -0.26696163415908813
visibility: 0.8698123097419739
","x: 167.43507385253906
y: 324.51031494140625
z: -0.27706390619277954
visibility: 0.6710676550865173
","x: 176.2198028564453
y: 319.58721923828125
z: -0.257058322429657
visibility: 0.8538885712623596
","x: 168.0011749267578
y: 323.8064270019531
z: -0.25560078024864197
visibility: 0.6265879273414612
","x: 174.21566772460938
y: 320.00054931640625
z: -0.23816928267478943
visibility: 0.7976941466331482
","x: 176.32171630859375
y: 398.9715270996094
z: 0.013884322717785835
visibility: 0.999725878238678
","x: 155.63856506347656
y: 398.9521789550781
z: -0.013819945976138115
visibility: 0.9997256398200989
","x: 180.86666870117188
y: 462.8144836425781
z: -0.023132866248488426
visibility: 0.9875674247741699
","x: 152.26658630371094
y: 463.0196838378906
z: 0.026515144854784012
visibility: 0.9948403835296631
","x: 186.89154052734375
y: 523.120849609375
z: 0.027746375650167465
visibility: 0.9901332855224609
","x: 149.07070922851562
y: 519.123046875
z: 0.15434236824512482
visibility: 0.9928733706474304
","x: 183.2047576904297
y: 533.8980712890625
z: 0.027049582451581955
visibility: 0.943294107913971
","x: 151.50018310546875
y: 524.5552368164062
z: 0.16131381690502167
visibility: 0.868851900100708
","x: 201.68064880371094
y: 541.2785034179688
z: -0.07398588210344315
visibility: 0.9829826951026917
","x: 146.8031005859375
y: 543.3093872070312
z: 0.0703321322798729
visibility: 0.985869288444519
",,,,,,,,,,,,,,,,,,,,,,,,,,,,,,,,,,,,,,,,,,
4,"x: 164.5250244140625
y: 280.4097900390625
z: -0.1380862295627594
visibility: 0.9993070960044861
","x: 166.16152954101562
y: 273.9638977050781
z: -0.12263121455907822
visibility: 0.9990047216415405
","x: 167.31861877441406
y: 273.7728271484375
z: -0.12263168394565582
visibility: 0.9987336993217468
","x: 168.49560546875
y: 273.63336181640625
z: -0.12262214720249176
visibility: 0.9987078309059143
","x: 162.40599060058594
y: 274.71978759765625
z: -0.12607978284358978
visibility: 0.9990991353988647
","x: 161.14637756347656
y: 275.04034423828125
z: -0.12609077990055084
visibility: 0.9989159107208252
","x: 159.8263702392578
y: 275.459716796875
z: -0.12611307203769684
visibility: 0.9989114999771118
","x: 170.3456268310547
y: 276.22515869140625
z: -0.027662057429552078
visibility: 0.9977844953536987
","x: 157.15269470214844
y: 279.3516845703125
z: -0.042393576353788376
visibility: 0.9991928935050964
","x: 167.08949279785156
y: 286.27593994140625
z: -0.10165037959814072
visibility: 0.9987286925315857
","x: 162.38197326660156
y: 286.80230712890625
z: -0.10599212348461151
visibility: 0.998943030834198
","x: 180.47032165527344
y: 309.36383056640625
z: 0.02519611082971096
visibility: 0.9986053705215454
","x: 148.99005126953125
y: 310.4630126953125
z: -0.02878148853778839
visibility: 0.9995529651641846
","x: 189.65760803222656
y: 339.41876220703125
z: -0.08572729676961899
visibility: 0.8838719129562378
","x: 148.31436157226562
y: 339.2319030761719
z: -0.11991307884454727
visibility: 0.9885022640228271
","x: 173.89129638671875
y: 330.7189636230469
z: -0.23790760338306427
visibility: 0.8158094882965088
","x: 169.90821838378906
y: 324.32354736328125
z: -0.19376525282859802
visibility: 0.9529386758804321
","x: 169.78994750976562
y: 327.6033020019531
z: -0.27129167318344116
visibility: 0.6965144276618958
","x: 175.0382537841797
y: 322.49688720703125
z: -0.2184789478778839
visibility: 0.8767091035842896
","x: 167.96311950683594
y: 324.2654724121094
z: -0.26242634654045105
visibility: 0.6811721920967102
","x: 176.28927612304688
y: 319.657470703125
z: -0.2109263688325882
visibility: 0.861423909664154
","x: 168.81924438476562
y: 323.9193115234375
z: -0.23848775029182434
visibility: 0.6359347105026245
","x: 174.25611877441406
y: 320.0892333984375
z: -0.19087745249271393
visibility: 0.8071521520614624
","x: 176.30970764160156
y: 398.03643798828125
z: 0.014211677014827728
visibility: 0.9997397661209106
","x: 155.6388702392578
y: 398.060302734375
z: -0.01413535512983799
visibility: 0.9997393488883972
","x: 180.6103973388672
y: 462.26727294921875
z: -0.02393420785665512
visibility: 0.9877101182937622
","x: 152.26077270507812
y: 462.14111328125
z: 0.0194750614464283
visibility: 0.9947509765625
","x: 186.892333984375
y: 523.116943359375
z: 0.029393326491117477
visibility: 0.9903188347816467
","x: 149.08538818359375
y: 519.1881713867188
z: 0.13886123895645142
visibility: 0.9928092360496521
","x: 183.21726989746094
y: 533.78662109375
z: 0.028889348730444908
visibility: 0.9452864527702332
","x: 151.5346221923828
y: 524.8829345703125
z: 0.14515474438667297
visibility: 0.8696364164352417
","x: 201.6865234375
y: 541.0257568359375
z: -0.0735720545053482
visibility: 0.9835410714149475
","x: 146.89532470703125
y: 543.2315673828125
z: 0.050174735486507416
visibility: 0.985978364944458
",,,,,,,,,,,,,,,,,,,,,,,,,,,,,,,,,,,,,,,,,,
5,"x: 164.51669311523438
y: 280.6151123046875
z: -0.1431301087141037
visibility: 0.9992976784706116
","x: 166.15484619140625
y: 274.0443115234375
z: -0.1290518045425415
visibility: 0.9989737272262573
","x: 167.33255004882812
y: 273.8196105957031
z: -0.12905649840831757
visibility: 0.9986876249313354
","x: 168.5204620361328
y: 273.65277099609375
z: -0.12905791401863098
visibility: 0.9986643195152283
","x: 162.4001007080078
y: 274.8817138671875
z: -0.13102160394191742
visibility: 0.9990859031677246
","x: 161.1414794921875
y: 275.2003173828125
z: -0.13103064894676208
visibility: 0.9988929033279419
","x: 159.8247528076172
y: 275.6190185546875
z: -0.1310584843158722
visibility: 0.9988939762115479
","x: 170.4248809814453
y: 276.1556396484375
z: -0.03820192813873291
visibility: 0.9976924657821655
","x: 157.1524200439453
y: 279.3520812988281
z: -0.04632033780217171
visibility: 0.9991616010665894
","x: 167.09542846679688
y: 286.33306884765625
z: -0.10811690986156464
visibility: 0.998711109161377
","x: 162.3816375732422
y: 286.8482666015625
z: -0.11051508039236069
visibility: 0.9989405870437622
","x: 180.5341796875
y: 309.15252685546875
z: 0.012675519101321697
visibility: 0.9986001253128052
","x: 149.05479431152344
y: 310.4059143066406
z: -0.03344018757343292
visibility: 0.9995641112327576
","x: 189.65576171875
y: 339.51898193359375
z: -0.09619317948818207
visibility: 0.8871731758117676
","x: 148.1170196533203
y: 339.1563415527344
z: -0.1431589126586914
visibility: 0.9884178042411804
","x: 173.98989868164062
y: 330.7152099609375
z: -0.2473592460155487
visibility: 0.8179975748062134
","x: 169.93482971191406
y: 324.23614501953125
z: -0.24051780998706818
visibility: 0.9537909626960754
","x: 169.53692626953125
y: 326.6885681152344
z: -0.28029054403305054
visibility: 0.697329044342041
","x: 175.10137939453125
y: 322.2811584472656
z: -0.2661443054676056
visibility: 0.8787798881530762
","x: 168.33399963378906
y: 322.51318359375
z: -0.27063077688217163
visibility: 0.6815328001976013
","x: 176.34141540527344
y: 319.2858581542969
z: -0.2555307149887085
visibility: 0.8635674715042114
","x: 169.26577758789062
y: 323.3337707519531
z: -0.24812552332878113
visibility: 0.6347669959068298
","x: 174.3057861328125
y: 319.77069091796875
z: -0.2373364418745041
visibility: 0.8093679547309875
","x: 176.3177490234375
y: 397.910888671875
z: 0.014130370691418648
visibility: 0.999743640422821
","x: 155.61195373535156
y: 397.8814392089844
z: -0.014059101231396198
visibility: 0.9997403621673584
","x: 183.1641082763672
y: 459.60162353515625
z: -0.04254927113652229
visibility: 0.9877652525901794
","x: 151.83363342285156
y: 461.8478088378906
z: 0.015617750585079193
visibility: 0.9945532083511353
","x: 187.2409210205078
y: 523.1382446289062
z: -0.009322627447545528
visibility: 0.9903087615966797
","x: 149.07861328125
y: 519.1519775390625
z: 0.13506640493869781
visibility: 0.9926111102104187
","x: 183.51171875
y: 533.7999877929688
z: -0.0118025504052639
visibility: 0.9458913803100586
","x: 151.57362365722656
y: 524.583251953125
z: 0.14113110303878784
visibility: 0.8698737025260925
","x: 201.79733276367188
y: 541.7288818359375
z: -0.11323481798171997
visibility: 0.983691930770874
","x: 146.8889617919922
y: 543.2108764648438
z: 0.04308156669139862
visibility: 0.9857009649276733
",,,,,,,,,,,,,,,,,,,,,,,,,,,,,,,,,,,,,,,,,,
6,"x: 165.8384246826172
y: 280.63909912109375
z: -0.17395368218421936
visibility: 0.9992125034332275
","x: 167.4266357421875
y: 274.18597412109375
z: -0.15802273154258728
visibility: 0.9988350868225098
","x: 168.61715698242188
y: 274.0109558105469
z: -0.1580350697040558
visibility: 0.9985150694847107
","x: 169.83778381347656
y: 273.89324951171875
z: -0.15805581212043762
visibility: 0.9985074400901794
","x: 163.6943817138672
y: 274.9022216796875
z: -0.16014213860034943
visibility: 0.9989525675773621
","x: 162.2951202392578
y: 275.2109375
z: -0.16014321148395538
visibility: 0.9987258911132812
","x: 160.8848876953125
y: 275.62152099609375
z: -0.16016726195812225
visibility: 0.9987161159515381
","x: 171.78370666503906
y: 276.48760986328125
z: -0.06576158851385117
visibility: 0.9974533319473267
","x: 157.86549377441406
y: 279.3588562011719
z: -0.07323446869850159
visibility: 0.9989752173423767
","x: 168.16310119628906
y: 286.3332214355469
z: -0.13913169503211975
visibility: 0.9986314177513123
","x: 163.57504272460938
y: 286.84332275390625
z: -0.1414525806903839
visibility: 0.9988311529159546
","x: 181.670654296875
y: 309.463623046875
z: -0.02327747642993927
visibility: 0.998511552810669
","x: 149.3475341796875
y: 312.34539794921875
z: -0.06685531884431839
visibility: 0.9994761943817139
","x: 191.69949340820312
y: 340.1062316894531
z: -0.16045254468917847
visibility: 0.8903128504753113
","x: 148.181884765625
y: 339.08154296875
z: -0.19641731679439545
visibility: 0.9871879816055298
","x: 174.28012084960938
y: 330.7017517089844
z: -0.3101574182510376
visibility: 0.8173388242721558
","x: 170.5958251953125
y: 325.0667724609375
z: -0.2938695251941681
visibility: 0.9495992660522461
","x: 169.1259307861328
y: 326.55731201171875
z: -0.3411295711994171
visibility: 0.6943729519844055
","x: 175.43533325195312
y: 323.0583190917969
z: -0.32057470083236694
visibility: 0.8718094825744629
","x: 168.06057739257812
y: 322.25286865234375
z: -0.326137900352478
visibility: 0.6775925159454346
","x: 176.53042602539062
y: 319.8935546875
z: -0.30743080377578735
visibility: 0.8557211756706238
","x: 169.04698181152344
y: 323.3768005371094
z: -0.3079964518547058
visibility: 0.6293246150016785
","x: 174.43101501464844
y: 320.9399108886719
z: -0.2903442084789276
visibility: 0.7993195652961731
","x: 176.8154296875
y: 399.2073059082031
z: 0.013495324179530144
visibility: 0.9997427463531494
","x: 155.5982208251953
y: 398.6896057128906
z: -0.013460412621498108
visibility: 0.9997238516807556
","x: 186.69435119628906
y: 459.4229431152344
z: -0.05576523020863533
visibility: 0.9883900284767151
","x: 151.38467407226562
y: 462.20709228515625
z: 0.011886488646268845
visibility: 0.9946847558021545
","x: 188.20761108398438
y: 523.1351318359375
z: 0.0014032067265361547
visibility: 0.9907186627388
","x: 149.09954833984375
y: 518.9392700195312
z: 0.13095584511756897
visibility: 0.992743968963623
","x: 184.24899291992188
y: 533.789306640625
z: 0.001337447902187705
visibility: 0.9464457631111145
","x: 151.56100463867188
y: 523.9470825195312
z: 0.13724200427532196
visibility: 0.8709032535552979
","x: 201.78712463378906
y: 542.263427734375
z: -0.1000138521194458
visibility: 0.9842697978019714
","x: 146.94659423828125
y: 543.2122802734375
z: 0.046361275017261505
visibility: 0.9858648180961609
",,,,,,,,,,,,,,,,,,,,,,,,,,,,,,,,,,,,,,,,,,
7,"x: 166.6885986328125
y: 279.36602783203125
z: -0.16392548382282257
visibility: 0.9992672204971313
","x: 168.3385467529297
y: 273.0196838378906
z: -0.14893478155136108
visibility: 0.9989131093025208
","x: 169.5528106689453
y: 272.88885498046875
z: -0.14894215762615204
visibility: 0.9986144304275513
","x: 170.8060760498047
y: 272.8045959472656
z: -0.14895260334014893
visibility: 0.998607337474823
","x: 164.80116271972656
y: 273.3615417480469
z: -0.15104103088378906
visibility: 0.9990227222442627
","x: 163.3678436279297
y: 273.4971923828125
z: -0.15104886889457703
visibility: 0.9988115429878235
","x: 161.86459350585938
y: 273.7465515136719
z: -0.15107564628124237
visibility: 0.99880450963974
","x: 172.893798828125
y: 275.0289306640625
z: -0.05652371048927307
visibility: 0.9976022839546204
","x: 158.8392791748047
y: 276.79351806640625
z: -0.06573615968227386
visibility: 0.9990459680557251
","x: 168.76197814941406
y: 285.09283447265625
z: -0.1285015195608139
visibility: 0.998728334903717
","x: 164.475830078125
y: 285.27252197265625
z: -0.13157211244106293
visibility: 0.9989178776741028
","x: 183.04742431640625
y: 308.36083984375
z: -0.005656702443957329
visibility: 0.9985860586166382
","x: 151.14878845214844
y: 308.57403564453125
z: -0.050724320113658905
visibility: 0.9995148777961731
","x: 192.83767700195312
y: 341.4276123046875
z: -0.10325852781534195
visibility: 0.8968566060066223
","x: 148.52748107910156
y: 338.9966125488281
z: -0.16701960563659668
visibility: 0.9877744317054749
","x: 179.8627471923828
y: 328.25787353515625
z: -0.25472909212112427
visibility: 0.829305112361908
","x: 171.0802764892578
y: 319.47027587890625
z: -0.25808289647102356
visibility: 0.9531787037849426
","x: 174.3092041015625
y: 322.96002197265625
z: -0.2852252721786499
visibility: 0.7099966406822205
","x: 176.1439971923828
y: 318.6292724609375
z: -0.28504109382629395
visibility: 0.8798922300338745
","x: 173.6176300048828
y: 317.39764404296875
z: -0.27531781792640686
visibility: 0.6938636898994446
","x: 176.8335418701172
y: 314.67828369140625
z: -0.2757360339164734
visibility: 0.8646058440208435
","x: 173.8017578125
y: 319.7222595214844
z: -0.2542113661766052
visibility: 0.6451333165168762
","x: 174.911376953125
y: 314.8711853027344
z: -0.2554165720939636
visibility: 0.8107834458351135
","x: 177.2838592529297
y: 397.5325012207031
z: 0.013662228360772133
visibility: 0.9997500777244568
","x: 156.03529357910156
y: 396.6587829589844
z: -0.01363704539835453
visibility: 0.9997371435165405
","x: 186.01654052734375
y: 459.5733947753906
z: -0.016244594007730484
visibility: 0.9888501167297363
","x: 151.4132080078125
y: 460.44366455078125
z: 0.011669646948575974
visibility: 0.9948732852935791
","x: 188.3874969482422
y: 523.337158203125
z: 0.04793036729097366
visibility: 0.991176962852478
","x: 149.1416778564453
y: 518.890869140625
z: 0.13427475094795227
visibility: 0.99306321144104
","x: 184.48245239257812
y: 534.159423828125
z: 0.048357024788856506
visibility: 0.9492577910423279
","x: 151.554443359375
y: 524.165771484375
z: 0.14074882864952087
visibility: 0.8753284811973572
","x: 201.77281188964844
y: 541.9806518554688
z: -0.053991030901670456
visibility: 0.9850577116012573
","x: 146.93426513671875
y: 543.05615234375
z: 0.044896308332681656
visibility: 0.9865047335624695
",,,,,,,,,,,,,,,,,,,,,,,,,,,,,,,,,,,,,,,,,,
8,"x: 167.35073852539062
y: 276.5636291503906
z: -0.1193932518362999
visibility: 0.9992848634719849
","x: 168.981201171875
y: 270.642578125
z: -0.10392431169748306
visibility: 0.9988901615142822
","x: 170.10464477539062
y: 270.63665771484375
z: -0.10393238067626953
visibility: 0.9985925555229187
","x: 171.21804809570312
y: 270.6959228515625
z: -0.10393233597278595
visibility: 0.9985758662223816
","x: 165.64927673339844
y: 270.6573791503906
z: -0.10598517954349518
visibility: 0.9990040063858032
","x: 164.25559997558594
y: 270.71514892578125
z: -0.10599522292613983
visibility: 0.9987996816635132
","x: 162.76026916503906
y: 270.8792724609375
z: -0.10601314157247543
visibility: 0.9987972378730774
","x: 173.00262451171875
y: 273.30438232421875
z: -0.01568157784640789
visibility: 0.9975607395172119
","x: 159.51025390625
y: 274.3554382324219
z: -0.024606775492429733
visibility: 0.9990353584289551
","x: 169.20790100097656
y: 282.9452819824219
z: -0.08587382733821869
visibility: 0.9987552165985107
","x: 164.93507385253906
y: 283.01812744140625
z: -0.08863954246044159
visibility: 0.9989446997642517
","x: 182.91427612304688
y: 306.6604309082031
z: 0.022209277376532555
visibility: 0.9986788034439087
","x: 150.99472045898438
y: 306.3267822265625
z: -0.011837763711810112
visibility: 0.9995493292808533
","x: 192.85446166992188
y: 341.16766357421875
z: -0.08714617788791656
visibility: 0.9058279395103455
","x: 147.11553955078125
y: 338.97314453125
z: -0.1039019450545311
visibility: 0.9882893562316895
","x: 171.88754272460938
y: 323.05859375
z: -0.20647406578063965
visibility: 0.8434174060821533
","x: 171.26661682128906
y: 318.52923583984375
z: -0.17166748642921448
visibility: 0.9559389352798462
","x: 163.4301300048828
y: 315.4088134765625
z: -0.23561692237854004
visibility: 0.72870272397995
","x: 176.18846130371094
y: 317.5519714355469
z: -0.19538769125938416
visibility: 0.8856678605079651
","x: 162.59605407714844
y: 312.29931640625
z: -0.21837052702903748
visibility: 0.7129695415496826
","x: 176.8502655029297
y: 313.7506408691406
z: -0.18413621187210083
visibility: 0.8708253502845764
","x: 167.55657958984375
y: 316.31756591796875
z: -0.20258554816246033
visibility: 0.6657105684280396
","x: 175.02671813964844
y: 313.8956298828125
z: -0.16801515221595764
visibility: 0.8190420269966125
","x: 177.12258911132812
y: 398.07000732421875
z: 0.012428324669599533
visibility: 0.9997491240501404
","x: 156.0243682861328
y: 397.004150390625
z: -0.012401597574353218
visibility: 0.9997441172599792
","x: 181.4886474609375
y: 459.59228515625
z: 0.009301764890551567
visibility: 0.9887996912002563
","x: 151.5452117919922
y: 460.550048828125
z: -0.0009723752737045288
visibility: 0.9949212670326233
","x: 188.19541931152344
y: 523.105712890625
z: 0.10037581622600555
visibility: 0.9910055994987488
","x: 149.2170867919922
y: 519.0074462890625
z: 0.11322172731161118
visibility: 0.9931105971336365
","x: 184.4755401611328
y: 533.9995727539062
z: 0.10446850955486298
visibility: 0.9488382339477539
","x: 151.56272888183594
y: 524.6205444335938
z: 0.11904766410589218
visibility: 0.8764029145240784
","x: 201.76727294921875
y: 537.7564086914062
z: 0.015221022069454193
visibility: 0.9849340915679932
","x: 146.9141082763672
y: 542.9834594726562
z: 0.024482108652591705
visibility: 0.9865688681602478
",,,,,,,,,,,,,,,,,,,,,,,,,,,,,,,,,,,,,,,,,,
9,"x: 167.055419921875
y: 276.76336669921875
z: -0.16618511080741882
visibility: 0.9992180466651917
","x: 168.95599365234375
y: 270.86663818359375
z: -0.15155598521232605
visibility: 0.9987001419067383
","x: 170.02212524414062
y: 270.8578186035156
z: -0.15155990421772003
visibility: 0.9983832240104675
","x: 171.18862915039062
y: 270.8897705078125
z: -0.15155501663684845
visibility: 0.9983274340629578
","x: 165.26223754882812
y: 270.8001403808594
z: -0.15271297097206116
visibility: 0.9988406300544739
","x: 163.85585021972656
y: 270.84088134765625
z: -0.15273591876029968
visibility: 0.9986297488212585
","x: 162.42153930664062
y: 271.0526123046875
z: -0.1527719646692276
visibility: 0.9985931515693665
","x: 172.76492309570312
y: 273.4688720703125
z: -0.06186589598655701
visibility: 0.9971728920936584
","x: 159.41390991210938
y: 274.6933288574219
z: -0.06539329141378403
visibility: 0.9988371729850769
","x: 169.15037536621094
y: 283.1054382324219
z: -0.1316383332014084
visibility: 0.9986457824707031
","x: 164.8104248046875
y: 283.22210693359375
z: -0.13289836049079895
visibility: 0.998809278011322
","x: 182.75103759765625
y: 306.3802185058594
z: -0.021178968250751495
visibility: 0.9986827373504639
","x: 150.9449462890625
y: 306.55035400390625
z: -0.05361325293779373
visibility: 0.9995489120483398
","x: 192.58349609375
y: 340.4106140136719
z: -0.14986082911491394
visibility: 0.9123753309249878
","x: 147.11016845703125
y: 338.3473205566406
z: -0.174653097987175
visibility: 0.9886186718940735
","x: 169.13766479492188
y: 321.3866882324219
z: -0.27275094389915466
visibility: 0.8524096012115479
","x: 171.25596618652344
y: 318.99200439453125
z: -0.2611461281776428
visibility: 0.9575135111808777
","x: 160.83035278320312
y: 315.2391662597656
z: -0.30094754695892334
visibility: 0.7377418279647827
","x: 176.16751098632812
y: 317.54547119140625
z: -0.28724732995033264
visibility: 0.888659656047821
","x: 159.30081176757812
y: 312.4224548339844
z: -0.28182727098464966
visibility: 0.7216459512710571
","x: 176.86502075195312
y: 314.26641845703125
z: -0.27256467938423157
visibility: 0.8737397789955139
","x: 162.93701171875
y: 314.8016052246094
z: -0.2679917812347412
visibility: 0.6741894483566284
","x: 175.02809143066406
y: 314.45758056640625
z: -0.2566533386707306
visibility: 0.8224923014640808
","x: 177.13143920898438
y: 399.9041442871094
z: 0.011815748177468777
visibility: 0.9997491240501404
","x: 155.95770263671875
y: 399.11602783203125
z: -0.011815145611763
visibility: 0.9997449517250061
","x: 182.14602661132812
y: 463.1844787597656
z: -0.0014801367651671171
visibility: 0.9890286326408386
","x: 151.50942993164062
y: 461.7835693359375
z: 0.019835080951452255
visibility: 0.9949457049369812
","x: 188.7244110107422
y: 523.9209594726562
z: 0.0765569806098938
visibility: 0.9909449815750122
","x: 149.21006774902344
y: 519.2809448242188
z: 0.15004760026931763
visibility: 0.9929578304290771
","x: 184.8456268310547
y: 534.6497802734375
z: 0.07918762415647507
visibility: 0.9477342367172241
","x: 151.5501251220703
y: 524.8090209960938
z: 0.15792341530323029
visibility: 0.8740537166595459
","x: 202.08462524414062
y: 539.146484375
z: -0.017282642424106598
visibility: 0.9848893284797668
","x: 146.90794372558594
y: 542.98486328125
z: 0.06682910770177841
visibility: 0.9862980842590332
",,,,,,,,,,,,,,,,,,,,,,,,,,,,,,,,,,,,,,,,,,
10,"x: 165.30801391601562
y: 277.0287170410156
z: -0.1440792828798294
visibility: 0.9992477297782898
","x: 167.32534790039062
y: 271.1160888671875
z: -0.12950342893600464
visibility: 0.998741090297699
","x: 168.6156768798828
y: 271.0592346191406
z: -0.12951460480690002
visibility: 0.9984318614006042
","x: 169.81903076171875
y: 271.0411376953125
z: -0.129519984126091
visibility: 0.9983819723129272
","x: 163.3997802734375
y: 270.9754638671875
z: -0.13155755400657654
visibility: 0.9988781213760376
","x: 162.125732421875
y: 270.90911865234375
z: -0.1315653771162033
visibility: 0.9986746907234192
","x: 160.90341186523438
y: 271.17559814453125
z: -0.13159462809562683
visibility: 0.998645007610321
","x: 171.2111358642578
y: 273.5283203125
z: -0.04082081839442253
visibility: 0.9972563982009888
","x: 158.74659729003906
y: 275.05108642578125
z: -0.048567917197942734
visibility: 0.9988732933998108
","x: 167.8244171142578
y: 283.2276611328125
z: -0.11013360321521759
visibility: 0.9987087845802307
","x: 163.01187133789062
y: 283.2757263183594
z: -0.11260519921779633
visibility: 0.9988653063774109
","x: 181.05076599121094
y: 306.4554138183594
z: 0.004361251834779978
visibility: 0.9987231492996216
","x: 149.70166015625
y: 306.6121826171875
z: -0.039686497300863266
visibility: 0.9995701313018799
","x: 191.6948699951172
y: 340.2596435546875
z: -0.09458513557910919
visibility: 0.914752721786499
","x: 147.07125854492188
y: 338.48736572265625
z: -0.13594697415828705
visibility: 0.9886407256126404
","x: 170.71327209472656
y: 326.793701171875
z: -0.21780197322368622
visibility: 0.8530775308609009
","x: 170.79673767089844
y: 319.5024719238281
z: -0.20553329586982727
visibility: 0.9582543969154358
","x: 161.4044647216797
y: 322.8900146484375
z: -0.2451702356338501
visibility: 0.7349128127098083
","x: 175.7001953125
y: 317.8998107910156
z: -0.2284548580646515
visibility: 0.8903400897979736
","x: 160.56382751464844
y: 319.4150695800781
z: -0.23356688022613525
visibility: 0.7184992432594299
","x: 176.6165008544922
y: 315.01519775390625
z: -0.21861009299755096
visibility: 0.8755393624305725
","x: 165.00225830078125
y: 318.3868713378906
z: -0.21613319218158722
visibility: 0.6703944802284241
","x: 174.87603759765625
y: 315.1440124511719
z: -0.20226486027240753
visibility: 0.8246781826019287
","x: 176.37522888183594
y: 399.71270751953125
z: 0.012070901691913605
visibility: 0.999751091003418
","x: 155.01861572265625
y: 398.9560241699219
z: -0.012065526098012924
visibility: 0.9997493028640747
","x: 182.14259338378906
y: 462.2007751464844
z: -0.01772215962409973
visibility: 0.9891161322593689
","x: 150.1331787109375
y: 461.79547119140625
z: 0.006205843295902014
visibility: 0.9950249195098877
","x: 188.6306915283203
y: 523.6072387695312
z: 0.06946943700313568
visibility: 0.9910335540771484
","x: 149.16297912597656
y: 519.0498046875
z: 0.14047110080718994
visibility: 0.9930753111839294
","x: 184.73680114746094
y: 534.4364013671875
z: 0.06802554428577423
visibility: 0.948988676071167
","x: 151.5495147705078
y: 524.577880859375
z: 0.15063190460205078
visibility: 0.8762335181236267
","x: 201.9067840576172
y: 539.1885986328125
z: -0.03250439092516899
visibility: 0.9852079153060913
","x: 146.88156127929688
y: 543.0711059570312
z: 0.06446351110935211
visibility: 0.9865458607673645
",,,,,,,,,,,,,,,,,,,,,,,,,,,,,,,,,,,,,,,,,,
11,"x: 164.63128662109375
y: 276.2457580566406
z: -0.12004750967025757
visibility: 0.9992013573646545
","x: 166.5147705078125
y: 270.5111389160156
z: -0.10471875965595245
visibility: 0.9985827207565308
","x: 167.77833557128906
y: 270.4968566894531
z: -0.10473082214593887
visibility: 0.9982458353042603
","x: 168.91636657714844
y: 270.4849548339844
z: -0.10473058372735977
visibility: 0.9982012510299683
","x: 162.75035095214844
y: 270.4882507324219
z: -0.1069544181227684
visibility: 0.9987457394599915
","x: 161.484619140625
y: 270.5483093261719
z: -0.10695932805538177
visibility: 0.9985340237617493
","x: 160.26002502441406
y: 270.7936706542969
z: -0.10698286443948746
visibility: 0.9985024929046631
","x: 170.07037353515625
y: 272.70697021484375
z: -0.018978293985128403
visibility: 0.996903121471405
","x: 158.17190551757812
y: 274.2681884765625
z: -0.027948956936597824
visibility: 0.9987046122550964
","x: 167.0440216064453
y: 282.3521728515625
z: -0.08758694678544998
visibility: 0.9986189603805542
","x: 162.29576110839844
y: 282.5033264160156
z: -0.09038637578487396
visibility: 0.9987712502479553
","x: 179.8693084716797
y: 306.0985412597656
z: 0.013201383873820305
visibility: 0.9987553954124451
","x: 148.2205047607422
y: 306.67987060546875
z: -0.026387294754385948
visibility: 0.999582827091217
","x: 191.28741455078125
y: 339.3226318359375
z: -0.10070671141147614
visibility: 0.9208949208259583
","x: 146.795166015625
y: 338.2340087890625
z: -0.1260635107755661
visibility: 0.9885740876197815
","x: 169.63311767578125
y: 323.40386962890625
z: -0.2207018882036209
visibility: 0.8618373870849609
","x: 170.63418579101562
y: 318.63970947265625
z: -0.18716228008270264
visibility: 0.9589987993240356
","x: 161.0869598388672
y: 319.5483703613281
z: -0.24846532940864563
visibility: 0.7442244291305542
","x: 175.5838165283203
y: 317.32696533203125
z: -0.20958681404590607
visibility: 0.891674816608429
","x: 159.62222290039062
y: 314.7248229980469
z: -0.23153150081634521
visibility: 0.7277051210403442
","x: 176.46023559570312
y: 314.3042907714844
z: -0.1981959044933319
visibility: 0.8768550753593445
","x: 163.09059143066406
y: 315.42730712890625
z: -0.21688206493854523
visibility: 0.6801433563232422
","x: 174.71881103515625
y: 314.5166015625
z: -0.1833849847316742
visibility: 0.8264923691749573
","x: 175.45025634765625
y: 399.4668273925781
z: 0.012107913382351398
visibility: 0.999743640422821
","x: 154.15682983398438
y: 398.72943115234375
z: -0.012100198306143284
visibility: 0.9997486472129822
","x: 179.32070922851562
y: 461.5292663574219
z: 0.00301563972607255
visibility: 0.9885675311088562
","x: 150.11648559570312
y: 461.3891906738281
z: 0.0038909893482923508
visibility: 0.9948703646659851
","x: 187.72512817382812
y: 523.2412109375
z: 0.0812373012304306
visibility: 0.9904541373252869
","x: 149.0526885986328
y: 518.8734130859375
z: 0.1205562949180603
visibility: 0.9928378462791443
","x: 184.72840881347656
y: 534.3944702148438
z: 0.0836886540055275
visibility: 0.9467329382896423
","x: 151.4542694091797
y: 524.4293823242188
z: 0.12728962302207947
visibility: 0.8732401132583618
","x: 201.5675048828125
y: 535.0264892578125
z: -0.005548393353819847
visibility: 0.9845635294914246
","x: 146.85525512695312
y: 543.16552734375
z: 0.04000545293092728
visibility: 0.9861096739768982
",,,,,,,,,,,,,,,,,,,,,,,,,,,,,,,,,,,,,,,,,,
12,"x: 163.5556640625
y: 277.0186462402344
z: -0.17461134493350983
visibility: 0.9991717338562012
","x: 165.3970947265625
y: 271.1755676269531
z: -0.16020488739013672
visibility: 0.9985049962997437
","x: 166.6612548828125
y: 271.1365051269531
z: -0.16021588444709778
visibility: 0.9981374144554138
","x: 167.8239288330078
y: 271.10028076171875
z: -0.16022716462612152
visibility: 0.9980922341346741
","x: 161.58383178710938
y: 271.2488098144531
z: -0.16135942935943604
visibility: 0.9986732006072998
","x: 160.3019561767578
y: 271.3403015136719
z: -0.16136619448661804
visibility: 0.9984393119812012
","x: 159.0734100341797
y: 271.5890197753906
z: -0.16139453649520874
visibility: 0.9984009265899658
","x: 168.96136474609375
y: 273.4323425292969
z: -0.07051153481006622
visibility: 0.9967829585075378
","x: 156.82431030273438
y: 275.12811279296875
z: -0.07406970113515854
visibility: 0.9985990524291992
","x: 165.9126434326172
y: 282.8929443359375
z: -0.14015419781208038
visibility: 0.998618483543396
","x: 160.8618927001953
y: 283.4580078125
z: -0.14141634106636047
visibility: 0.9987413287162781
","x: 179.00576782226562
y: 306.1560363769531
z: -0.029405226930975914
visibility: 0.9987685084342957
","x: 147.22882080078125
y: 306.7742614746094
z: -0.06920035928487778
visibility: 0.9995874762535095
","x: 190.90048217773438
y: 338.9490966796875
z: -0.16272369027137756
visibility: 0.9249284267425537
","x: 146.86459350585938
y: 337.9033203125
z: -0.1947515606880188
visibility: 0.9884663820266724
","x: 169.817138671875
y: 323.48187255859375
z: -0.3013998866081238
visibility: 0.8659377694129944
","x: 169.21083068847656
y: 319.02081298828125
z: -0.29025179147720337
visibility: 0.9595178961753845
","x: 163.234375
y: 319.7848815917969
z: -0.33207374811172485
visibility: 0.7481645941734314
","x: 174.5830535888672
y: 317.6229248046875
z: -0.3181009888648987
visibility: 0.8937516212463379
","x: 161.63819885253906
y: 315.1504821777344
z: -0.3163225054740906
visibility: 0.7312094569206238
","x: 175.3141326904297
y: 314.6738586425781
z: -0.30579549074172974
visibility: 0.8791118860244751
","x: 163.64561462402344
y: 316.23272705078125
z: -0.29853346943855286
visibility: 0.6835611462593079
","x: 173.4742889404297
y: 314.9087829589844
z: -0.28735867142677307
visibility: 0.8292444348335266
","x: 174.79359436035156
y: 399.9992370605469
z: 0.011787752620875835
visibility: 0.9997515678405762
","x: 152.98696899414062
y: 400.1120300292969
z: -0.011793145909905434
visibility: 0.999752402305603
","x: 179.85264587402344
y: 461.5759582519531
z: -0.02290637046098709
visibility: 0.9885367751121521
","x: 149.6755828857422
y: 463.38482666015625
z: 0.017221026122570038
visibility: 0.9947338104248047
","x: 188.17225646972656
y: 523.4418334960938
z: 0.05422447249293327
visibility: 0.9901289343833923
","x: 149.00640869140625
y: 518.9110717773438
z: 0.14848792552947998
visibility: 0.9925580620765686
","x: 185.01263427734375
y: 534.9049682617188
z: 0.05758104473352432
visibility: 0.9452353715896606
","x: 151.45062255859375
y: 524.4813842773438
z: 0.15676912665367126
visibility: 0.8717454075813293
","x: 202.2530059814453
y: 537.8313598632812
z: -0.033318888396024704
visibility: 0.984383761882782
","x: 146.82444763183594
y: 543.1739501953125
z: 0.07191966474056244
visibility: 0.9857192635536194
",,,,,,,,,,,,,,,,,,,,,,,,,,,,,,,,,,,,,,,,,,
13,"x: 162.47555541992188
y: 277.9310302734375
z: -0.18301622569561005
visibility: 0.9992006421089172
","x: 164.2532501220703
y: 272.2020263671875
z: -0.16735471785068512
visibility: 0.9985578656196594
","x: 165.50881958007812
y: 272.24969482421875
z: -0.1673632115125656
visibility: 0.9981994032859802
","x: 166.72401428222656
y: 272.3215026855469
z: -0.16737699508666992
visibility: 0.998163104057312
","x: 160.39974975585938
y: 272.08673095703125
z: -0.16910967230796814
visibility: 0.9987140893936157
","x: 159.08624267578125
y: 272.1817626953125
z: -0.16911379992961884
visibility: 0.9984843730926514
","x: 157.8510284423828
y: 272.43634033203125
z: -0.16912724077701569
visibility: 0.9984458088874817
","x: 168.05035400390625
y: 274.89544677734375
z: -0.07546527683734894
visibility: 0.9969223141670227
","x: 155.51133728027344
y: 276.3262634277344
z: -0.08172260224819183
visibility: 0.9986228942871094
","x: 164.71888732910156
y: 283.780029296875
z: -0.14840082824230194
visibility: 0.9986842274665833
","x: 159.6028289794922
y: 284.4793395996094
z: -0.15043914318084717
visibility: 0.9987829923629761
","x: 178.0169677734375
y: 307.1794738769531
z: -0.037284038960933685
visibility: 0.998773455619812
","x: 146.34359741210938
y: 309.7409362792969
z: -0.07985848933458328
visibility: 0.9995735883712769
","x: 189.6012725830078
y: 338.1164245605469
z: -0.17249518632888794
visibility: 0.9248012900352478
","x: 147.1278076171875
y: 337.73443603515625
z: -0.21866992115974426
visibility: 0.9882029294967651
","x: 170.00820922851562
y: 325.4745788574219
z: -0.3175641894340515
visibility: 0.8624275922775269
","x: 169.0162811279297
y: 319.0841979980469
z: -0.32456910610198975
visibility: 0.9585829377174377
","x: 163.9745635986328
y: 323.61431884765625
z: -0.3490174412727356
visibility: 0.7433399558067322
","x: 174.2431640625
y: 317.652099609375
z: -0.3541307747364044
visibility: 0.8933097720146179
","x: 162.46121215820312
y: 319.6384582519531
z: -0.3359981179237366
visibility: 0.725784420967102
","x: 175.31192016601562
y: 315.75885009765625
z: -0.3406895399093628
visibility: 0.8786134123802185
","x: 164.45309448242188
y: 319.22015380859375
z: -0.3161235749721527
visibility: 0.6777423024177551
","x: 173.4264678955078
y: 315.9206848144531
z: -0.32166343927383423
visibility: 0.8282649517059326
","x: 174.61355590820312
y: 400.0326843261719
z: 0.011555843986570835
visibility: 0.9997580051422119
","x: 152.638916015625
y: 400.2035827636719
z: -0.011574316769838333
visibility: 0.9997525811195374
","x: 181.7252197265625
y: 461.4047546386719
z: -0.043938178569078445
visibility: 0.9889716506004333
","x: 148.67039489746094
y: 463.7476806640625
z: 0.008697625249624252
visibility: 0.9948947429656982
","x: 188.34494018554688
y: 523.42333984375
z: 0.04007486253976822
visibility: 0.990359902381897
","x: 148.99337768554688
y: 518.6483154296875
z: 0.14150674641132355
visibility: 0.9926897883415222
","x: 184.99215698242188
y: 534.8310546875
z: 0.043664198368787766
visibility: 0.9456266760826111
","x: 151.44667053222656
y: 523.9684448242188
z: 0.1487904042005539
visibility: 0.872694194316864
","x: 202.49798583984375
y: 539.3123779296875
z: -0.05157862976193428
visibility: 0.9848131537437439
","x: 146.88746643066406
y: 543.262451171875
z: 0.06118691712617874
visibility: 0.9859040975570679
",,,,,,,,,,,,,,,,,,,,,,,,,,,,,,,,,,,,,,,,,,
14,"x: 161.6879425048828
y: 276.88470458984375
z: -0.13690225780010223
visibility: 0.9991878867149353
","x: 163.3666229248047
y: 271.4613037109375
z: -0.12175975739955902
visibility: 0.9985095858573914
","x: 164.6278076171875
y: 271.5174560546875
z: -0.12177232652902603
visibility: 0.9981459379196167
","x: 165.84359741210938
y: 271.5945129394531
z: -0.12177883088588715
visibility: 0.9981225728988647
","x: 159.5418243408203
y: 271.410400390625
z: -0.12435881048440933
visibility: 0.9986683130264282
","x: 158.2606658935547
y: 271.5382080078125
z: -0.1243642196059227
visibility: 0.9984333515167236
","x: 157.00750732421875
y: 271.7838439941406
z: -0.12439169734716415
visibility: 0.998394787311554
","x: 167.1399688720703
y: 274.16796875
z: -0.03536759316921234
visibility: 0.9968374371528625
","x: 154.81446838378906
y: 275.8714904785156
z: -0.045540109276771545
visibility: 0.9985589981079102
","x: 163.9816436767578
y: 282.8367004394531
z: -0.10409283638000488
visibility: 0.9986768960952759
","x: 158.92881774902344
y: 283.4781494140625
z: -0.10725138336420059
visibility: 0.9987537860870361
","x: 177.61785888671875
y: 306.066162109375
z: 0.00101331842597574
visibility: 0.9988077878952026
","x: 145.84800720214844
y: 308.9477844238281
z: -0.04451936110854149
visibility: 0.9995829463005066
","x: 189.44248962402344
y: 338.1048278808594
z: -0.10577529668807983
visibility: 0.9289593696594238
","x: 147.15621948242188
y: 337.66070556640625
z: -0.12975327670574188
visibility: 0.987936794757843
","x: 170.0771026611328
y: 325.9858703613281
z: -0.2200726717710495
visibility: 0.8668068647384644
","x: 168.36734008789062
y: 317.5783996582031
z: -0.17927631735801697
visibility: 0.9583971500396729
","x: 164.12513732910156
y: 323.66510009765625
z: -0.2471456229686737
visibility: 0.7456599473953247
","x: 173.43609619140625
y: 316.0628967285156
z: -0.20105917751789093
visibility: 0.8928790092468262
","x: 162.47274780273438
y: 319.63165283203125
z: -0.23362860083580017
visibility: 0.7279978394508362
","x: 173.95193481445312
y: 313.36431884765625
z: -0.19282524287700653
visibility: 0.8780821561813354
","x: 163.63526916503906
y: 318.9776611328125
z: -0.217371866106987
visibility: 0.6800601482391357
","x: 171.9888153076172
y: 313.6421813964844
z: -0.17666706442832947
visibility: 0.8276656866073608
","x: 174.28863525390625
y: 399.9351806640625
z: 0.011590025387704372
visibility: 0.9997556805610657
","x: 152.70217895507812
y: 399.96112060546875
z: -0.01160313282161951
visibility: 0.9997553825378418
","x: 179.65855407714844
y: 461.3236999511719
z: -0.00927188154309988
visibility: 0.9888018369674683
","x: 148.85923767089844
y: 462.9251708984375
z: 0.008786219172179699
visibility: 0.9949380159378052
","x: 187.77842712402344
y: 523.3416137695312
z: 0.06629976630210876
visibility: 0.9902022480964661
","x: 149.0442352294922
y: 518.5233154296875
z: 0.14042213559150696
visibility: 0.9927229881286621
","x: 184.88417053222656
y: 534.768310546875
z: 0.069015271961689
visibility: 0.9459354877471924
","x: 151.57342529296875
y: 523.6857299804688
z: 0.14760030806064606
visibility: 0.8736106753349304
","x: 202.2173309326172
y: 537.7762451171875
z: -0.022509608417749405
visibility: 0.984826922416687
","x: 146.88021850585938
y: 543.3878173828125
z: 0.05713032931089401
visibility: 0.985998272895813
",,,,,,,,,,,,,,,,,,,,,,,,,,,,,,,,,,,,,,,,,,
15,"x: 161.32713317871094
y: 276.586669921875
z: -0.12967273592948914
visibility: 0.9991196990013123
","x: 162.95901489257812
y: 271.16265869140625
z: -0.114598847925663
visibility: 0.998332679271698
","x: 164.16818237304688
y: 271.20404052734375
z: -0.11461064964532852
visibility: 0.9979329705238342
","x: 165.33726501464844
y: 271.27789306640625
z: -0.11462073028087616
visibility: 0.9979307651519775
","x: 159.34103393554688
y: 271.260009765625
z: -0.11738165467977524
visibility: 0.9985203146934509
","x: 158.08868408203125
y: 271.4505310058594
z: -0.11738689988851547
visibility: 0.9982659816741943
","x: 156.82403564453125
y: 271.74114990234375
z: -0.11741539090871811
visibility: 0.9982293844223022
","x: 166.6096954345703
y: 273.9597473144531
z: -0.02763429656624794
visibility: 0.9964255690574646
","x: 154.4605712890625
y: 275.86627197265625
z: -0.03883562237024307
visibility: 0.998363196849823
","x: 163.47496032714844
y: 282.5924987792969
z: -0.09649451076984406
visibility: 0.9985696077346802
","x: 158.6307830810547
y: 283.27490234375
z: -0.09992855042219162
visibility: 0.9986287951469421
","x: 177.28262329101562
y: 305.69207763671875
z: 0.007432152517139912
visibility: 0.9988158941268921
","x: 145.38539123535156
y: 308.74993896484375
z: -0.037288226187229156
visibility: 0.9995872378349304
","x: 189.12832641601562
y: 337.92803955078125
z: -0.10553709417581558
visibility: 0.931983232498169
","x: 146.9822998046875
y: 337.7038879394531
z: -0.13063302636146545
visibility: 0.9877486228942871
","x: 169.00540161132812
y: 326.20703125
z: -0.22442583739757538
visibility: 0.8696592450141907
","x: 168.30796813964844
y: 317.5481262207031
z: -0.18676280975341797
visibility: 0.9581714868545532
","x: 162.83511352539062
y: 323.70660400390625
z: -0.2523975968360901
visibility: 0.746238648891449
","x: 173.5188446044922
y: 316.1947021484375
z: -0.20929940044879913
visibility: 0.8922639489173889
","x: 161.0775604248047
y: 319.6576232910156
z: -0.23827394843101501
visibility: 0.7283982634544373
","x: 174.13406372070312
y: 313.50286865234375
z: -0.19944125413894653
visibility: 0.8773434162139893
","x: 162.42922973632812
y: 319.6988525390625
z: -0.22166630625724792
visibility: 0.6801133155822754
","x: 172.138427734375
y: 313.6292724609375
z: -0.18356135487556458
visibility: 0.8265143036842346
","x: 174.20361328125
y: 399.82977294921875
z: 0.011562882922589779
visibility: 0.9997566938400269
","x: 152.76531982421875
y: 399.9301452636719
z: -0.01156732626259327
visibility: 0.9997588992118835
","x: 179.41612243652344
y: 461.31524658203125
z: -0.010594499297440052
visibility: 0.9885063767433167
","x: 148.9553985595703
y: 462.6373291015625
z: 0.009908447973430157
visibility: 0.9947972893714905
","x: 187.57525634765625
y: 523.3368530273438
z: 0.06217414140701294
visibility: 0.9898524880409241
","x: 149.05050659179688
y: 518.5300903320312
z: 0.1383940875530243
visibility: 0.992566704750061
","x: 184.66554260253906
y: 534.758544921875
z: 0.06456019729375839
visibility: 0.945431649684906
","x: 151.58328247070312
y: 523.7297973632812
z: 0.14557138085365295
visibility: 0.8722405433654785
","x: 202.02310180664062
y: 537.9188232421875
z: -0.02755942940711975
visibility: 0.984606921672821
","x: 146.87521362304688
y: 543.355712890625
z: 0.05794208496809006
visibility: 0.9858158826828003
",,,,,,,,,,,,,,,,,,,,,,,,,,,,,,,,,,,,,,,,,,
16,"x: 161.33836364746094
y: 277.14801025390625
z: -0.1507492959499359
visibility: 0.9990291595458984
","x: 162.93617248535156
y: 271.6678161621094
z: -0.13483187556266785
visibility: 0.9981227517127991
","x: 164.155517578125
y: 271.69732666015625
z: -0.13484598696231842
visibility: 0.9976643919944763
","x: 165.3097686767578
y: 271.76312255859375
z: -0.13485541939735413
visibility: 0.9976442456245422
","x: 159.35107421875
y: 271.60089111328125
z: -0.13598065078258514
visibility: 0.9983276128768921
","x: 158.0947265625
y: 271.68194580078125
z: -0.1359783113002777
visibility: 0.9980300664901733
","x: 156.83016967773438
y: 271.9132080078125
z: -0.13598892092704773
visibility: 0.9979654550552368
","x: 166.54281616210938
y: 274.40606689453125
z: -0.04694155603647232
visibility: 0.9961220622062683
","x: 154.5032501220703
y: 275.9403076171875
z: -0.050445765256881714
visibility: 0.9980323910713196
","x: 163.52442932128906
y: 283.083984375
z: -0.11764302104711533
visibility: 0.9984391927719116
","x: 158.64657592773438
y: 283.69451904296875
z: -0.11885462701320648
visibility: 0.9984411001205444
","x: 177.1363983154297
y: 305.7811279296875
z: -0.01707976870238781
visibility: 0.9987812638282776
","x: 145.05967712402344
y: 309.7216796875
z: -0.0496622659265995
visibility: 0.9995508790016174
","x: 188.6365203857422
y: 337.84613037109375
z: -0.1396724134683609
visibility: 0.9339937567710876
","x: 146.89849853515625
y: 338.2198486328125
z: -0.17218627035617828
visibility: 0.9868898987770081
","x: 167.10214233398438
y: 325.5233459472656
z: -0.2591099739074707
visibility: 0.8713051080703735
","x: 168.1162567138672
y: 318.7933349609375
z: -0.2626914978027344
visibility: 0.9566110372543335
","x: 159.69598388671875
y: 321.3830871582031
z: -0.28682461380958557
visibility: 0.7474277019500732
","x: 173.56666564941406
y: 317.0985107421875
z: -0.2897210717201233
visibility: 0.8901854753494263
","x: 159.1363067626953
y: 319.3789367675781
z: -0.2713899612426758
visibility: 0.7290801405906677
","x: 174.19314575195312
y: 314.3940124511719
z: -0.2759672999382019
visibility: 0.8750091791152954
","x: 160.57920837402344
y: 319.7033386230469
z: -0.2557083070278168
visibility: 0.6805684566497803
","x: 172.05953979492188
y: 314.57037353515625
z: -0.2592763900756836
visibility: 0.8233214616775513
","x: 173.8265838623047
y: 400.0296325683594
z: 0.010912907309830189
visibility: 0.9997608065605164
","x: 152.03329467773438
y: 400.2200622558594
z: -0.010932271368801594
visibility: 0.9997545480728149
","x: 181.16317749023438
y: 461.0855407714844
z: -0.05388185381889343
visibility: 0.98868727684021
","x: 148.5037078857422
y: 463.156005859375
z: -0.0005533185903914273
visibility: 0.9947425723075867
","x: 188.14761352539062
y: 523.4300537109375
z: 0.029383186250925064
visibility: 0.9897120594978333
","x: 149.02210998535156
y: 518.5477294921875
z: 0.1277708113193512
visibility: 0.9924616813659668
","x: 184.81613159179688
y: 534.7534790039062
z: 0.03298279270529747
visibility: 0.944068431854248
","x: 151.58102416992188
y: 524.0128784179688
z: 0.1355268657207489
visibility: 0.8727012872695923
","x: 202.45460510253906
y: 540.3078002929688
z: -0.0601421482861042
visibility: 0.9844632148742676
","x: 146.86021423339844
y: 543.3626098632812
z: 0.05138508230447769
visibility: 0.9855959415435791
",,,,,,,,,,,,,,,,,,,,,,,,,,,,,,,,,,,,,,,,,,
17,"x: 161.38119506835938
y: 278.20391845703125
z: -0.15200035274028778
visibility: 0.9989430904388428
","x: 162.96023559570312
y: 272.50341796875
z: -0.13628560304641724
visibility: 0.9979020357131958
","x: 164.17262268066406
y: 272.4449768066406
z: -0.13629665970802307
visibility: 0.9973954558372498
","x: 165.3032989501953
y: 272.4266662597656
z: -0.13630500435829163
visibility: 0.9973797798156738
","x: 159.38906860351562
y: 272.7112121582031
z: -0.1379140019416809
visibility: 0.998145341873169
","x: 158.13299560546875
y: 272.901611328125
z: -0.13791760802268982
visibility: 0.9978256821632385
","x: 156.8756103515625
y: 273.2156066894531
z: -0.13793034851551056
visibility: 0.9977570176124573
","x: 166.496826171875
y: 275.03472900390625
z: -0.048458147794008255
visibility: 0.9957467913627625
","x: 154.48678588867188
y: 277.1671142578125
z: -0.05405383184552193
visibility: 0.9977611899375916
","x: 163.66986083984375
y: 283.73907470703125
z: -0.11880942434072495
visibility: 0.9982638359069824
","x: 158.76795959472656
y: 284.3695373535156
z: -0.12059835344552994
visibility: 0.9982162714004517
","x: 176.98765563964844
y: 306.1977233886719
z: -0.01658640429377556
visibility: 0.9987348318099976
","x: 145.2957000732422
y: 310.40533447265625
z: -0.05369020253419876
visibility: 0.999518632888794
","x: 188.5948486328125
y: 336.72064208984375
z: -0.14126496016979218
visibility: 0.9351156949996948
","x: 148.65634155273438
y: 338.5589904785156
z: -0.17993155121803284
visibility: 0.9867990612983704
","x: 167.17062377929688
y: 326.7474670410156
z: -0.26403725147247314
visibility: 0.8717340230941772
","x: 168.18087768554688
y: 318.89202880859375
z: -0.2702915668487549
visibility: 0.9574915170669556
","x: 160.49217224121094
y: 323.5804443359375
z: -0.29206326603889465
visibility: 0.7465343475341797
","x: 173.55056762695312
y: 317.2002868652344
z: -0.2974449396133423
visibility: 0.8928948640823364
","x: 159.05470275878906
y: 320.9119873046875
z: -0.27705174684524536
visibility: 0.727774441242218
","x: 174.1487579345703
y: 314.48358154296875
z: -0.28440821170806885
visibility: 0.87814861536026
","x: 160.51966857910156
y: 321.7724304199219
z: -0.26096537709236145
visibility: 0.6791043877601624
","x: 171.9857940673828
y: 314.68988037109375
z: -0.2669515013694763
visibility: 0.8270873427391052
","x: 173.89559936523438
y: 400.0203857421875
z: 0.010303108021616936
visibility: 0.9997606873512268
","x: 152.09698486328125
y: 400.22052001953125
z: -0.010328378528356552
visibility: 0.9997523427009583
","x: 181.3544464111328
y: 460.98590087890625
z: -0.044106461107730865
visibility: 0.9889362454414368
","x: 147.98362731933594
y: 463.1607360839844
z: 0.0011139060370624065
visibility: 0.9947944283485413
","x: 188.51377868652344
y: 523.4288940429688
z: 0.0287800170481205
visibility: 0.9898213744163513
","x: 149.0223388671875
y: 518.578125
z: 0.12647494673728943
visibility: 0.992514431476593
","x: 185.0218963623047
y: 534.74365234375
z: 0.031146973371505737
visibility: 0.9433127641677856
","x: 151.66043090820312
y: 524.1312255859375
z: 0.1339246928691864
visibility: 0.8734663724899292
","x: 202.48439025878906
y: 541.0149536132812
z: -0.062125515192747116
visibility: 0.9846764802932739
","x: 146.78460693359375
y: 543.3598022460938
z: 0.051354266703128815
visibility: 0.9856698513031006
",,,,,,,,,,,,,,,,,,,,,,,,,,,,,,,,,,,,,,,,,,
18,"x: 164.87240600585938
y: 276.3367919921875
z: -0.15349313616752625
visibility: 0.9989923238754272
","x: 166.20545959472656
y: 271.0238037109375
z: -0.13670048117637634
visibility: 0.9980257153511047
","x: 167.39344787597656
y: 271.09600830078125
z: -0.13670703768730164
visibility: 0.997559130191803
","x: 168.60264587402344
y: 271.19952392578125
z: -0.1367151290178299
visibility: 0.9975424408912659
","x: 162.66189575195312
y: 271.15771484375
z: -0.13915112614631653
visibility: 0.9982365369796753
","x: 161.2998046875
y: 271.39837646484375
z: -0.1391555666923523
visibility: 0.9979298114776611
","x: 159.84661865234375
y: 271.72161865234375
z: -0.13916368782520294
visibility: 0.9978576302528381
","x: 169.8251953125
y: 273.91827392578125
z: -0.04539865627884865
visibility: 0.9960181713104248
","x: 156.9086151123047
y: 275.662109375
z: -0.05405592918395996
visibility: 0.9978765249252319
","x: 166.9005584716797
y: 282.93743896484375
z: -0.11871633678674698
visibility: 0.9982853531837463
","x: 162.44839477539062
y: 283.3392028808594
z: -0.12136705964803696
visibility: 0.9982162117958069
","x: 179.8680419921875
y: 304.5718994140625
z: -0.013804629445075989
visibility: 0.9988011121749878
","x: 148.48915100097656
y: 308.8905029296875
z: -0.04401255398988724
visibility: 0.9994868040084839
","x: 189.67678833007812
y: 337.418701171875
z: -0.1373620629310608
visibility: 0.9378951191902161
","x: 148.86134338378906
y: 338.2698974609375
z: -0.1329561024904251
visibility: 0.9856045246124268
","x: 166.51614379882812
y: 319.7391662597656
z: -0.2596251368522644
visibility: 0.8788869380950928
","x: 174.18467712402344
y: 309.99737548828125
z: -0.17833948135375977
visibility: 0.9546741247177124
","x: 160.50318908691406
y: 316.6871032714844
z: -0.2887348234653473
visibility: 0.7568969130516052
","x: 177.21324157714844
y: 302.39483642578125
z: -0.19917802512645721
visibility: 0.885507345199585
","x: 159.510986328125
y: 312.3827209472656
z: -0.27231186628341675
visibility: 0.7387322187423706
","x: 178.41592407226562
y: 301.7722473144531
z: -0.18683108687400818
visibility: 0.8695334792137146
","x: 160.98011779785156
y: 314.22296142578125
z: -0.25602877140045166
visibility: 0.6895633339881897
","x: 175.70840454101562
y: 303.3197326660156
z: -0.17374762892723083
visibility: 0.8162657022476196
","x: 175.8651580810547
y: 394.91314697265625
z: 0.008653279393911362
visibility: 0.9997602105140686
","x: 154.0711212158203
y: 394.4819641113281
z: -0.008656969293951988
visibility: 0.9997531771659851
","x: 186.646484375
y: 460.734130859375
z: -0.04143933206796646
visibility: 0.9892741441726685
","x: 148.2838897705078
y: 459.0335388183594
z: -0.03522878885269165
visibility: 0.9949952960014343
","x: 195.37179565429688
y: 522.8386840820312
z: 0.0490761324763298
visibility: 0.9904309511184692
","x: 149.00111389160156
y: 518.8102416992188
z: 0.07689478993415833
visibility: 0.9929340481758118
","x: 193.17263793945312
y: 534.303955078125
z: 0.05156900733709335
visibility: 0.9444335699081421
","x: 151.5463409423828
y: 526.0490112304688
z: 0.08190472424030304
visibility: 0.8777638673782349
","x: 208.51206970214844
y: 540.783447265625
z: -0.05386466905474663
visibility: 0.9852614402770996
","x: 146.6901397705078
y: 543.1962280273438
z: -0.01628905162215233
visibility: 0.9862614274024963
",,,,,,,,,,,,,,,,,,,,,,,,,,,,,,,,,,,,,,,,,,
19,"x: 171.38414001464844
y: 282.6117248535156
z: -0.21419629454612732
visibility: 0.9990849494934082
","x: 172.75323486328125
y: 277.15863037109375
z: -0.19813629984855652
visibility: 0.9982109069824219
","x: 173.97540283203125
y: 277.1998291015625
z: -0.1981470137834549
visibility: 0.997788667678833
","x: 175.04962158203125
y: 277.24896240234375
z: -0.19818726181983948
visibility: 0.9977737069129944
","x: 168.82579040527344
y: 277.5164489746094
z: -0.20219247043132782
visibility: 0.998396098613739
","x: 167.45648193359375
y: 277.9009704589844
z: -0.20221133530139923
visibility: 0.9981184601783752
","x: 166.1702423095703
y: 278.39434814453125
z: -0.20224133133888245
visibility: 0.9980523586273193
","x: 176.28147888183594
y: 280.0942687988281
z: -0.1010979637503624
visibility: 0.9963964819908142
","x: 163.9386444091797
y: 282.1054992675781
z: -0.1192307248711586
visibility: 0.9980756044387817
","x: 173.94119262695312
y: 288.74896240234375
z: -0.17735536396503448
visibility: 0.9984468221664429
","x: 169.16123962402344
y: 289.5955505371094
z: -0.1828615963459015
visibility: 0.9983847141265869
","x: 187.85011291503906
y: 317.4567565917969
z: -0.035040829330682755
visibility: 0.9988904595375061
","x: 154.88174438476562
y: 314.025634765625
z: -0.1035362109541893
visibility: 0.9995250701904297
","x: 195.75050354003906
y: 359.3455505371094
z: -0.13907204568386078
visibility: 0.9391888380050659
","x: 155.17477416992188
y: 348.22808837890625
z: -0.23507878184318542
visibility: 0.9859240055084229
","x: 191.64068603515625
y: 328.1129150390625
z: -0.29361996054649353
visibility: 0.8865428566932678
","x: 176.1811065673828
y: 323.1846923828125
z: -0.36037716269493103
visibility: 0.9572315812110901
","x: 191.56236267089844
y: 319.51129150390625
z: -0.32138508558273315
visibility: 0.7708296775817871
","x: 179.7820587158203
y: 310.20843505859375
z: -0.3900618553161621
visibility: 0.8912582993507385
","x: 190.2257080078125
y: 312.8655090332031
z: -0.3112199306488037
visibility: 0.7534647583961487
","x: 179.8811798095703
y: 305.3891296386719
z: -0.3761962056159973
visibility: 0.875708281993866
","x: 189.5286865234375
y: 317.1520690917969
z: -0.29353660345077515
visibility: 0.705355167388916
","x: 178.321533203125
y: 310.41595458984375
z: -0.357308954000473
visibility: 0.8239578604698181
","x: 181.7679901123047
y: 405.07080078125
z: 0.015633821487426758
visibility: 0.9997686147689819
","x: 159.63226318359375
y: 403.6220703125
z: -0.015640869736671448
visibility: 0.9997648596763611
","x: 196.34686279296875
y: 461.0614013671875
z: -0.07909410446882248
visibility: 0.9896491765975952
","x: 151.46173095703125
y: 459.8121643066406
z: -0.12231975793838501
visibility: 0.9953482747077942
","x: 199.82994079589844
y: 522.95654296875
z: 0.04778679460287094
visibility: 0.9905446171760559
","x: 149.03257751464844
y: 519.106689453125
z: 0.011258106678724289
visibility: 0.9932722449302673
","x: 196.04246520996094
y: 534.519287109375
z: 0.05185963585972786
visibility: 0.9451759457588196
","x: 151.19708251953125
y: 526.427978515625
z: 0.01954621635377407
visibility: 0.882856547832489
","x: 211.93707275390625
y: 542.3576049804688
z: -0.04771694540977478
visibility: 0.9849933385848999
","x: 146.77491760253906
y: 543.292724609375
z: -0.07944537699222565
visibility: 0.9867717623710632
",,,,,,,,,,,,,,,,,,,,,,,,,,,,,,,,,,,,,,,,,,
20,"x: 175.37535095214844
y: 282.62677001953125
z: -0.23610718548297882
visibility: 0.9991741180419922
","x: 176.61203002929688
y: 276.59405517578125
z: -0.22123602032661438
visibility: 0.998387336730957
","x: 177.75938415527344
y: 276.5223388671875
z: -0.22125962376594543
visibility: 0.9980067014694214
","x: 178.846923828125
y: 276.4947814941406
z: -0.2213134467601776
visibility: 0.9979933500289917
","x: 173.2197265625
y: 277.0203857421875
z: -0.22563107311725616
visibility: 0.9985526204109192
","x: 172.04220581054688
y: 277.27484130859375
z: -0.22563311457633972
visibility: 0.9983020424842834
","x: 170.91152954101562
y: 277.6304931640625
z: -0.2256622016429901
visibility: 0.9982420802116394
","x: 180.9414825439453
y: 279.2578125
z: -0.12029113620519638
visibility: 0.9967528581619263
","x: 169.66375732421875
y: 281.32421875
z: -0.1396794617176056
visibility: 0.9982651472091675
","x: 177.970947265625
y: 288.4990234375
z: -0.19677963852882385
visibility: 0.9985995292663574
","x: 173.73297119140625
y: 289.1235656738281
z: -0.20276978611946106
visibility: 0.9985430240631104
","x: 190.30430603027344
y: 315.51934814453125
z: -0.041279569268226624
visibility: 0.9989877939224243
","x: 161.28057861328125
y: 312.3547058105469
z: -0.13330882787704468
visibility: 0.9995629787445068
","x: 198.4825897216797
y: 353.30633544921875
z: -0.15839120745658875
visibility: 0.9413274526596069
","x: 163.50750732421875
y: 347.8812255859375
z: -0.28759822249412537
visibility: 0.985978364944458
","x: 199.2180938720703
y: 315.77667236328125
z: -0.3256358504295349
visibility: 0.8949049711227417
","x: 183.47665405273438
y: 316.9967956542969
z: -0.4318625330924988
visibility: 0.95938640832901
","x: 199.84423828125
y: 304.1674499511719
z: -0.35550540685653687
visibility: 0.7865312695503235
","x: 185.27748107910156
y: 302.99456787109375
z: -0.4682166576385498
visibility: 0.8965646624565125
","x: 198.26084899902344
y: 300.53973388671875
z: -0.3472311198711395
visibility: 0.7703304886817932
","x: 185.49661254882812
y: 300.0986633300781
z: -0.455472856760025
visibility: 0.8815747499465942
","x: 197.90171813964844
y: 305.0513916015625
z: -0.3270876109600067
visibility: 0.724142849445343
","x: 185.131591796875
y: 305.8127746582031
z: -0.43054336309432983
visibility: 0.8311537504196167
","x: 181.62289428710938
y: 404.5939636230469
z: 0.02175053581595421
visibility: 0.9997862577438354
","x: 160.09349060058594
y: 403.0733947753906
z: -0.021808931604027748
visibility: 0.9997833967208862
","x: 192.8851776123047
y: 462.0596008300781
z: -0.008846025913953781
visibility: 0.9901466369628906
","x: 153.2818145751953
y: 459.81768798828125
z: -0.06650251150131226
visibility: 0.9957132339477539
","x: 199.5095672607422
y: 523.3007202148438
z: 0.11805804818868637
visibility: 0.9911189079284668
","x: 149.11279296875
y: 519.893798828125
z: 0.05888685584068298
visibility: 0.9938085079193115
","x: 196.31295776367188
y: 534.77978515625
z: 0.12480517476797104
visibility: 0.9482815265655518
","x: 151.0367431640625
y: 527.2823486328125
z: 0.06636661291122437
visibility: 0.8898804783821106
","x: 212.6056671142578
y: 542.4607543945312
z: 0.031149322167038918
visibility: 0.9857785105705261
","x: 146.88409423828125
y: 543.2948608398438
z: -0.03444892168045044
visibility: 0.9877586960792542
",,,,,,,,,,,,,,,,,,,,,,,,,,,,,,,,,,,,,,,,,,
21,"x: 178.4700164794922
y: 282.84869384765625
z: -0.252716600894928
visibility: 0.9992536902427673
","x: 179.33570861816406
y: 276.4758605957031
z: -0.23837554454803467
visibility: 0.9985449314117432
","x: 180.46141052246094
y: 276.3844909667969
z: -0.23839592933654785
visibility: 0.998201310634613
","x: 181.61099243164062
y: 276.3519592285156
z: -0.238458514213562
visibility: 0.9981895089149475
","x: 176.13677978515625
y: 276.85369873046875
z: -0.2429009974002838
visibility: 0.998692512512207
","x: 174.91746520996094
y: 277.018798828125
z: -0.24291570484638214
visibility: 0.9984660744667053
","x: 173.70086669921875
y: 277.2861633300781
z: -0.2429461032152176
visibility: 0.9984122514724731
","x: 183.42364501953125
y: 279.2275390625
z: -0.14144587516784668
visibility: 0.9970718622207642
","x: 171.67935180664062
y: 280.7973327636719
z: -0.15995097160339355
visibility: 0.9984355568885803
","x: 181.28860473632812
y: 289.10650634765625
z: -0.21458780765533447
visibility: 0.9987365007400513
","x: 177.11993408203125
y: 289.5710144042969
z: -0.22028771042823792
visibility: 0.9986855387687683
","x: 191.76060485839844
y: 314.3026123046875
z: -0.07081805169582367
visibility: 0.9990741014480591
","x: 161.71861267089844
y: 311.0677795410156
z: -0.15407055616378784
visibility: 0.9996001720428467
","x: 203.33859252929688
y: 351.1556701660156
z: -0.19988802075386047
visibility: 0.9445443153381348
","x: 166.48721313476562
y: 347.2062683105469
z: -0.2996901869773865
visibility: 0.9869033694267273
","x: 203.92698669433594
y: 313.8179931640625
z: -0.3620316982269287
visibility: 0.901465892791748
","x: 187.03790283203125
y: 310.421142578125
z: -0.4176592230796814
visibility: 0.9625027179718018
","x: 205.16506958007812
y: 303.79827880859375
z: -0.39348798990249634
visibility: 0.7980011105537415
","x: 190.42709350585938
y: 299.632568359375
z: -0.4521517753601074
visibility: 0.903897762298584
","x: 202.8314971923828
y: 299.38726806640625
z: -0.3822326958179474
visibility: 0.7821252346038818
","x: 190.1697998046875
y: 296.480224609375
z: -0.4377061724662781
visibility: 0.8897214531898499
","x: 201.70994567871094
y: 303.28485107421875
z: -0.3625500798225403
visibility: 0.7376379370689392
","x: 188.74871826171875
y: 301.15655517578125
z: -0.4151761531829834
visibility: 0.8419964909553528
","x: 182.5327606201172
y: 404.5456237792969
z: 0.019877254962921143
visibility: 0.9997962117195129
","x: 161.19866943359375
y: 402.53033447265625
z: -0.019911911338567734
visibility: 0.9997975826263428
","x: 194.83139038085938
y: 460.3330993652344
z: -0.024052733555436134
visibility: 0.9907000064849854
","x: 154.08497619628906
y: 459.7761535644531
z: -0.09076447039842606
visibility: 0.996043860912323
","x: 199.4901580810547
y: 523.3092041015625
z: 0.09657446295022964
visibility: 0.9915555715560913
","x: 149.20310974121094
y: 519.9232177734375
z: 0.03592834621667862
visibility: 0.9942603707313538
","x: 195.97874450683594
y: 534.7620239257812
z: 0.1037488728761673
visibility: 0.9504923224449158
","x: 151.03089904785156
y: 527.2840576171875
z: 0.04356658086180687
visibility: 0.8957923054695129
","x: 212.50950622558594
y: 542.404541015625
z: 0.012999376282095909
visibility: 0.9862611889839172
","x: 146.7041473388672
y: 543.302978515625
z: -0.0566415898501873
visibility: 0.9885606169700623
","x: 203.4862823486328
y: 312.4417724609375
z: 0.0
","x: 201.53189086914062
y: 306.38800048828125
z: 0.00034528179094195366
","x: 201.03199768066406
y: 299.9829406738281
z: -0.00019657790835481137
","x: 201.88084411621094
y: 295.3201599121094
z: -0.0015340413665398955
","x: 202.9566650390625
y: 292.47772216796875
z: -0.002592911943793297
","x: 202.8726043701172
y: 296.7461242675781
z: 0.0007701544091105461
","x: 203.05264282226562
y: 291.09033203125
z: -0.0014295922592282295
","x: 202.69236755371094
y: 290.221435546875
z: -0.0023975777439773083
","x: 202.3521270751953
y: 290.8697814941406
z: -0.002764225471764803
","x: 204.61566162109375
y: 297.9659423828125
z: -0.001097927801311016
","x: 204.54232788085938
y: 293.8222961425781
z: -0.0036341955419629812
","x: 203.76016235351562
y: 295.2161865234375
z: -0.003979466389864683
","x: 203.21522521972656
y: 297.1023254394531
z: -0.0036799204535782337
","x: 206.2375946044922
y: 300.0385437011719
z: -0.0033280584029853344
","x: 206.06610107421875
y: 296.5006408691406
z: -0.0055005899630486965
","x: 205.04107666015625
y: 297.53472900390625
z: -0.004843093920499086
","x: 204.2231903076172
y: 299.1722106933594
z: -0.003969013225287199
","x: 207.83607482910156
y: 302.7246398925781
z: -0.005808444693684578
","x: 207.78065490722656
y: 299.6383972167969
z: -0.00710576307028532
","x: 206.68443298339844
y: 299.6548767089844
z: -0.00664923619478941
","x: 205.72865295410156
y: 300.6213684082031
z: -0.005961549933999777
",,,,,,,,,,,,,,,,,,,,,
22,"x: 178.4700164794922
y: 282.84869384765625
z: -0.252716600894928
visibility: 0.9992536902427673
","x: 179.33570861816406
y: 276.4758605957031
z: -0.23837554454803467
visibility: 0.9985449314117432
","x: 180.46141052246094
y: 276.3844909667969
z: -0.23839592933654785
visibility: 0.998201310634613
","x: 181.61099243164062
y: 276.3519592285156
z: -0.238458514213562
visibility: 0.9981895089149475
","x: 176.13677978515625
y: 276.85369873046875
z: -0.2429009974002838
visibility: 0.998692512512207
","x: 174.91746520996094
y: 277.018798828125
z: -0.24291570484638214
visibility: 0.9984660744667053
","x: 173.70086669921875
y: 277.2861633300781
z: -0.2429461032152176
visibility: 0.9984122514724731
","x: 183.42364501953125
y: 279.2275390625
z: -0.14144587516784668
visibility: 0.9970718622207642
","x: 171.67935180664062
y: 280.7973327636719
z: -0.15995097160339355
visibility: 0.9984355568885803
","x: 181.28860473632812
y: 289.10650634765625
z: -0.21458780765533447
visibility: 0.9987365007400513
","x: 177.11993408203125
y: 289.5710144042969
z: -0.22028771042823792
visibility: 0.9986855387687683
","x: 191.76060485839844
y: 314.3026123046875
z: -0.07081805169582367
visibility: 0.9990741014480591
","x: 161.71861267089844
y: 311.0677795410156
z: -0.15407055616378784
visibility: 0.9996001720428467
","x: 203.33859252929688
y: 351.1556701660156
z: -0.19988802075386047
visibility: 0.9445443153381348
","x: 166.48721313476562
y: 347.2062683105469
z: -0.2996901869773865
visibility: 0.9869033694267273
","x: 203.92698669433594
y: 313.8179931640625
z: -0.3620316982269287
visibility: 0.901465892791748
","x: 187.03790283203125
y: 310.421142578125
z: -0.4176592230796814
visibility: 0.9625027179718018
","x: 205.16506958007812
y: 303.79827880859375
z: -0.39348798990249634
visibility: 0.7980011105537415
","x: 190.42709350585938
y: 299.632568359375
z: -0.4521517753601074
visibility: 0.903897762298584
","x: 202.8314971923828
y: 299.38726806640625
z: -0.3822326958179474
visibility: 0.7821252346038818
","x: 190.1697998046875
y: 296.480224609375
z: -0.4377061724662781
visibility: 0.8897214531898499
","x: 201.70994567871094
y: 303.28485107421875
z: -0.3625500798225403
visibility: 0.7376379370689392
","x: 188.74871826171875
y: 301.15655517578125
z: -0.4151761531829834
visibility: 0.8419964909553528
","x: 182.5327606201172
y: 404.5456237792969
z: 0.019877254962921143
visibility: 0.9997962117195129
","x: 161.19866943359375
y: 402.53033447265625
z: -0.019911911338567734
visibility: 0.9997975826263428
","x: 194.83139038085938
y: 460.3330993652344
z: -0.024052733555436134
visibility: 0.9907000064849854
","x: 154.08497619628906
y: 459.7761535644531
z: -0.09076447039842606
visibility: 0.996043860912323
","x: 199.4901580810547
y: 523.3092041015625
z: 0.09657446295022964
visibility: 0.9915555715560913
","x: 149.20310974121094
y: 519.9232177734375
z: 0.03592834621667862
visibility: 0.9942603707313538
","x: 195.97874450683594
y: 534.7620239257812
z: 0.1037488728761673
visibility: 0.9504923224449158
","x: 151.03089904785156
y: 527.2840576171875
z: 0.04356658086180687
visibility: 0.8957923054695129
","x: 212.50950622558594
y: 542.404541015625
z: 0.012999376282095909
visibility: 0.9862611889839172
","x: 146.7041473388672
y: 543.302978515625
z: -0.0566415898501873
visibility: 0.9885606169700623
","x: 203.4862823486328
y: 312.4417724609375
z: 0.0
","x: 201.53189086914062
y: 306.38800048828125
z: 0.00034528179094195366
","x: 201.03199768066406
y: 299.9829406738281
z: -0.00019657790835481137
","x: 201.88084411621094
y: 295.3201599121094
z: -0.0015340413665398955
","x: 202.9566650390625
y: 292.47772216796875
z: -0.002592911943793297
","x: 202.8726043701172
y: 296.7461242675781
z: 0.0007701544091105461
","x: 203.05264282226562
y: 291.09033203125
z: -0.0014295922592282295
","x: 202.69236755371094
y: 290.221435546875
z: -0.0023975777439773083
","x: 202.3521270751953
y: 290.8697814941406
z: -0.002764225471764803
","x: 204.61566162109375
y: 297.9659423828125
z: -0.001097927801311016
","x: 204.54232788085938
y: 293.8222961425781
z: -0.0036341955419629812
","x: 203.76016235351562
y: 295.2161865234375
z: -0.003979466389864683
","x: 203.21522521972656
y: 297.1023254394531
z: -0.0036799204535782337
","x: 206.2375946044922
y: 300.0385437011719
z: -0.0033280584029853344
","x: 206.06610107421875
y: 296.5006408691406
z: -0.0055005899630486965
","x: 205.04107666015625
y: 297.53472900390625
z: -0.004843093920499086
","x: 204.2231903076172
y: 299.1722106933594
z: -0.003969013225287199
","x: 207.83607482910156
y: 302.7246398925781
z: -0.005808444693684578
","x: 207.78065490722656
y: 299.6383972167969
z: -0.00710576307028532
","x: 206.68443298339844
y: 299.6548767089844
z: -0.00664923619478941
","x: 205.72865295410156
y: 300.6213684082031
z: -0.005961549933999777
",,,,,,,,,,,,,,,,,,,,,
23,"x: 178.69741821289062
y: 288.0679626464844
z: -0.22542770206928253
visibility: 0.9993225932121277
","x: 180.21493530273438
y: 282.0352783203125
z: -0.19948896765708923
visibility: 0.9986811876296997
","x: 181.36346435546875
y: 282.0848693847656
z: -0.19958606362342834
visibility: 0.9983711242675781
","x: 182.59439086914062
y: 282.2392883300781
z: -0.1997838169336319
visibility: 0.9983606338500977
","x: 176.86819458007812
y: 282.4924011230469
z: -0.21489500999450684
visibility: 0.9988094568252563
","x: 175.62632751464844
y: 282.81964111328125
z: -0.21497924625873566
visibility: 0.9986041784286499
","x: 174.28273010253906
y: 283.1952819824219
z: -0.21503937244415283
visibility: 0.9985545873641968
","x: 184.01670837402344
y: 285.5533142089844
z: -0.08689706027507782
visibility: 0.9973520636558533
","x: 171.6305389404297
y: 286.71923828125
z: -0.15586724877357483
visibility: 0.9985820651054382
","x: 181.21739196777344
y: 294.50653076171875
z: -0.17845730483531952
visibility: 0.9988569617271423
","x: 176.83859252929688
y: 295.4234924316406
z: -0.20295147597789764
visibility: 0.9988111853599548
","x: 193.28553771972656
y: 322.2897644042969
z: -0.008407508954405785
visibility: 0.9991521835327148
","x: 162.59889221191406
y: 316.95458984375
z: -0.14389467239379883
visibility: 0.9996305108070374
","x: 203.442626953125
y: 363.1226806640625
z: -0.11159880459308624
visibility: 0.9475730061531067
","x: 162.48675537109375
y: 353.3596496582031
z: -0.24332980811595917
visibility: 0.9876850247383118
","x: 205.40713500976562
y: 330.722412109375
z: -0.2778356671333313
visibility: 0.9097540378570557
","x: 182.53260803222656
y: 326.01422119140625
z: -0.352155864238739
visibility: 0.9655232429504395
","x: 206.94651794433594
y: 322.2945556640625
z: -0.3063041567802429
visibility: 0.8141201138496399
","x: 186.31382751464844
y: 315.6746826171875
z: -0.38212037086486816
visibility: 0.9110820293426514
","x: 205.32424926757812
y: 317.8641357421875
z: -0.29688864946365356
visibility: 0.7993306517601013
","x: 186.67538452148438
y: 311.6953430175781
z: -0.368711918592453
visibility: 0.8977906703948975
","x: 204.05133056640625
y: 320.7269592285156
z: -0.27865147590637207
visibility: 0.7570691704750061
","x: 184.8029327392578
y: 315.69342041015625
z: -0.3493160605430603
visibility: 0.8526238799095154
","x: 186.1223907470703
y: 408.7182312011719
z: 0.024520395323634148
visibility: 0.9997951984405518
","x: 164.3157196044922
y: 408.4814453125
z: -0.024461904540657997
visibility: 0.999799907207489
","x: 202.93605041503906
y: 460.3434753417969
z: -0.15213729441165924
visibility: 0.9910945892333984
","x: 155.9789581298828
y: 459.8501281738281
z: -0.22303922474384308
visibility: 0.996255099773407
","x: 199.87811279296875
y: 523.4301147460938
z: -0.02852918766438961
visibility: 0.9912105798721313
","x: 149.44285583496094
y: 520.239990234375
z: -0.09810924530029297
visibility: 0.9944376349449158
","x: 195.83424377441406
y: 534.8151245117188
z: -0.021516939625144005
visibility: 0.9516292810440063
","x: 151.03329467773438
y: 527.2364501953125
z: -0.09050558507442474
visibility: 0.9000834226608276
","x: 212.52784729003906
y: 542.4812622070312
z: -0.10954191535711288
visibility: 0.98536217212677
","x: 146.8677978515625
y: 544.0408935546875
z: -0.19601471722126007
visibility: 0.988762617111206
",,,,,,,,,,,,,,,,,,,,,,,,,,,,,,,,,,,,,,,,,,
24,"x: 179.97096252441406
y: 288.6734619140625
z: -0.23535749316215515
visibility: 0.9993867874145508
","x: 181.7488555908203
y: 283.0514831542969
z: -0.21816566586494446
visibility: 0.9988073110580444
","x: 183.03884887695312
y: 283.1963195800781
z: -0.21818196773529053
visibility: 0.998527467250824
","x: 184.32086181640625
y: 283.3935852050781
z: -0.21825595200061798
visibility: 0.9985178709030151
","x: 178.56259155273438
y: 283.26171875
z: -0.21947889029979706
visibility: 0.9989215135574341
","x: 177.47628784179688
y: 283.4788818359375
z: -0.2195320427417755
visibility: 0.9987362623214722
","x: 176.276123046875
y: 283.75048828125
z: -0.21953733265399933
visibility: 0.9986908435821533
","x: 186.2761688232422
y: 286.787353515625
z: -0.11824633926153183
visibility: 0.99760901927948
","x: 173.94818115234375
y: 286.9136962890625
z: -0.12653324007987976
visibility: 0.9987155795097351
","x: 182.2721710205078
y: 295.1058654785156
z: -0.1978151649236679
visibility: 0.9989678859710693
","x: 178.27203369140625
y: 295.5082092285156
z: -0.2003566026687622
visibility: 0.9989261627197266
","x: 197.27317810058594
y: 324.44805908203125
z: -0.061281442642211914
visibility: 0.9992128014564514
","x: 162.3045654296875
y: 318.8399963378906
z: -0.11642400175333023
visibility: 0.9996535778045654
","x: 204.74009704589844
y: 368.35400390625
z: -0.1753777712583542
visibility: 0.9510933756828308
","x: 159.07061767578125
y: 352.69183349609375
z: -0.22739319503307343
visibility: 0.9863672256469727
","x: 196.2402801513672
y: 344.2228698730469
z: -0.3454126715660095
visibility: 0.9158148169517517
","x: 164.43434143066406
y: 333.44610595703125
z: -0.38315680623054504
visibility: 0.9633467197418213
","x: 194.76141357421875
y: 335.786865234375
z: -0.37955063581466675
visibility: 0.824805498123169
","x: 166.2239227294922
y: 330.21142578125
z: -0.41862669587135315
visibility: 0.9080239534378052
","x: 193.35108947753906
y: 329.4061584472656
z: -0.3689943552017212
visibility: 0.8110281229019165
","x: 167.060302734375
y: 324.4930419921875
z: -0.4106687903404236
visibility: 0.8947903513908386
","x: 193.2232208251953
y: 332.82080078125
z: -0.3443746864795685
visibility: 0.7677842974662781
","x: 167.0540771484375
y: 327.2802429199219
z: -0.3842187523841858
visibility: 0.8487123847007751
","x: 190.01400756835938
y: 408.8209533691406
z: 0.01997721567749977
visibility: 0.9997930526733398
","x: 167.67576599121094
y: 408.460693359375
z: -0.02002069540321827
visibility: 0.9998031258583069
","x: 204.44454956054688
y: 463.00189208984375
z: -0.15841412544250488
visibility: 0.9916279911994934
","x: 157.0745391845703
y: 462.6134948730469
z: -0.1759842336177826
visibility: 0.996442973613739
","x: 200.3935546875
y: 523.9652099609375
z: -0.0005556921241804957
visibility: 0.9914936423301697
","x: 149.57774353027344
y: 520.4654541015625
z: -0.023055410012602806
visibility: 0.9947452545166016
","x: 196.86724853515625
y: 535.1111450195312
z: 0.00918958242982626
visibility: 0.9531546831130981
","x: 151.03379821777344
y: 527.3524169921875
z: -0.013557006604969501
visibility: 0.9041897654533386
","x: 212.67906188964844
y: 542.5284423828125
z: -0.08854417502880096
visibility: 0.9855861067771912
","x: 146.7629852294922
y: 544.0812377929688
z: -0.12171407788991928
visibility: 0.9891822934150696
",,,,,,,,,,,,,,,,,,,,,,,,,,,,,,,,,,,,,,,,,,
25,"x: 181.41830444335938
y: 285.5362854003906
z: -0.2233850210905075
visibility: 0.9994436502456665
","x: 183.0310516357422
y: 280.67266845703125
z: -0.20224685966968536
visibility: 0.9989171028137207
","x: 184.17950439453125
y: 281.3101806640625
z: -0.20224161446094513
visibility: 0.9986622333526611
","x: 185.3243408203125
y: 281.946044921875
z: -0.20235057175159454
visibility: 0.9986510276794434
","x: 179.63528442382812
y: 278.8276062011719
z: -0.2039881944656372
visibility: 0.9990218877792358
","x: 178.23008728027344
y: 278.13623046875
z: -0.20412008464336395
visibility: 0.9988532662391663
","x: 176.65057373046875
y: 277.560302734375
z: -0.20414212346076965
visibility: 0.998812735080719
","x: 186.4285125732422
y: 284.966064453125
z: -0.10510160028934479
visibility: 0.9978262782096863
","x: 172.98028564453125
y: 279.6805725097656
z: -0.10243485867977142
visibility: 0.9988332986831665
","x: 183.3460693359375
y: 293.5582275390625
z: -0.18250367045402527
visibility: 0.9990617036819458
","x: 179.02525329589844
y: 291.68475341796875
z: -0.17889049649238586
visibility: 0.9990265965461731
","x: 196.40658569335938
y: 313.1458435058594
z: -0.0681798905134201
visibility: 0.9992554783821106
","x: 161.87939453125
y: 314.9221496582031
z: -0.033195722848176956
visibility: 0.9996826648712158
","x: 203.1421661376953
y: 360.83154296875
z: -0.17061805725097656
visibility: 0.9547700881958008
","x: 154.39076232910156
y: 350.2193908691406
z: -0.10882983356714249
visibility: 0.9860175848007202
","x: 182.5885467529297
y: 319.45355224609375
z: -0.3186580538749695
visibility: 0.9234461784362793
","x: 146.64707946777344
y: 315.9060974121094
z: -0.2907795310020447
visibility: 0.9660062789916992
","x: 176.44625854492188
y: 308.4475402832031
z: -0.3506689667701721
visibility: 0.840295135974884
","x: 144.5048828125
y: 309.8026123046875
z: -0.3269011080265045
visibility: 0.9147892594337463
","x: 176.51377868652344
y: 303.1213073730469
z: -0.34178686141967773
visibility: 0.8276709914207458
","x: 145.8211669921875
y: 302.373291015625
z: -0.33361226320266724
visibility: 0.9027455449104309
","x: 177.7728729248047
y: 306.276611328125
z: -0.31793007254600525
visibility: 0.7870340943336487
","x: 146.87632751464844
y: 304.2880859375
z: -0.29866981506347656
visibility: 0.8603101968765259
","x: 191.65391540527344
y: 406.52288818359375
z: 0.0006332100601866841
visibility: 0.9997960925102234
","x: 169.31846618652344
y: 405.7011413574219
z: -0.0007333675166592002
visibility: 0.9998184442520142
","x: 200.37460327148438
y: 465.3051452636719
z: -0.021348822861909866
visibility: 0.9921962022781372
","x: 157.39566040039062
y: 462.383544921875
z: -0.11764232069253922
visibility: 0.996700644493103
","x: 200.57301330566406
y: 524.1118774414062
z: 0.1416340172290802
visibility: 0.991956889629364
","x: 150.16159057617188
y: 520.269775390625
z: 0.028626352548599243
visibility: 0.9951527118682861
","x: 197.21914672851562
y: 535.0775146484375
z: 0.15212473273277283
visibility: 0.9538151621818542
","x: 152.23355102539062
y: 527.468017578125
z: 0.0370122455060482
visibility: 0.9111981391906738
","x: 212.4459686279297
y: 542.609375
z: 0.06222783401608467
visibility: 0.9863331913948059
","x: 145.94876098632812
y: 543.0556030273438
z: -0.06349729001522064
visibility: 0.9899657368659973
",,,,,,,,,,,,,,,,,,,,,,,,,,,,,,,,,,,,,,,,,,
26,"x: 178.98342895507812
y: 280.8372802734375
z: -0.22191977500915527
visibility: 0.9994813203811646
","x: 181.21217346191406
y: 276.7624816894531
z: -0.21021457016468048
visibility: 0.9989927411079407
","x: 182.4103240966797
y: 277.5563659667969
z: -0.21023604273796082
visibility: 0.998754620552063
","x: 183.56629943847656
y: 278.36053466796875
z: -0.210253044962883
visibility: 0.9987366795539856
","x: 177.65892028808594
y: 274.6954345703125
z: -0.20620155334472656
visibility: 0.9990953207015991
","x: 176.36024475097656
y: 274.08502197265625
z: -0.20626242458820343
visibility: 0.998936116695404
","x: 174.97935485839844
y: 273.617431640625
z: -0.2063005268573761
visibility: 0.9988983273506165
","x: 185.48451232910156
y: 282.2699279785156
z: -0.132206529378891
visibility: 0.9979687929153442
","x: 172.45663452148438
y: 276.2716979980469
z: -0.11216771602630615
visibility: 0.998896062374115
","x: 181.19699096679688
y: 288.96148681640625
z: -0.1909252554178238
visibility: 0.999112069606781
","x: 176.50701904296875
y: 287.5683288574219
z: -0.1852862536907196
visibility: 0.9990898370742798
","x: 194.43850708007812
y: 309.4583740234375
z: -0.10951397567987442
visibility: 0.9991851449012756
","x: 162.13912963867188
y: 311.97906494140625
z: -0.04474269226193428
visibility: 0.9996878504753113
","x: 195.2362518310547
y: 346.81903076171875
z: -0.20666861534118652
visibility: 0.9584469795227051
","x: 151.20806884765625
y: 346.4079284667969
z: -0.11812931299209595
visibility: 0.9834317564964294
","x: 171.0123291015625
y: 308.5317687988281
z: -0.32650452852249146
visibility: 0.9304988384246826
","x: 141.08799743652344
y: 309.583740234375
z: -0.2934727370738983
visibility: 0.9668001532554626
","x: 165.39234924316406
y: 299.06719970703125
z: -0.3579348623752594
visibility: 0.8546284437179565
","x: 137.60476684570312
y: 303.04827880859375
z: -0.3275717496871948
visibility: 0.9176849722862244
","x: 165.1890869140625
y: 294.3935241699219
z: -0.35194918513298035
visibility: 0.8431134819984436
","x: 138.9190673828125
y: 298.54534912109375
z: -0.3329890966415405
visibility: 0.9066329002380371
","x: 166.44540405273438
y: 297.3404541015625
z: -0.32575172185897827
visibility: 0.8050673007965088
","x: 140.57928466796875
y: 300.9482421875
z: -0.3006440997123718
visibility: 0.8671107292175293
","x: 190.4615936279297
y: 402.760498046875
z: -0.004514194559305906
visibility: 0.9997806549072266
","x: 168.62332153320312
y: 403.9444580078125
z: 0.00439718971028924
visibility: 0.9998264908790588
","x: 198.49745178222656
y: 464.66851806640625
z: 0.009124524891376495
visibility: 0.9925975799560547
","x: 157.7096710205078
y: 460.4136962890625
z: -0.04504815489053726
visibility: 0.9968183040618896
","x: 200.62234497070312
y: 524.0667114257812
z: 0.1352115124464035
visibility: 0.9922913908958435
","x: 150.3273162841797
y: 520.1798095703125
z: 0.06687601655721664
visibility: 0.9954310059547424
","x: 196.8896942138672
y: 534.8079223632812
z: 0.14171363413333893
visibility: 0.9530329704284668
","x: 153.20077514648438
y: 527.8892822265625
z: 0.07165642082691193
visibility: 0.9161360263824463
","x: 211.8500518798828
y: 542.4738159179688
z: 0.04997500032186508
visibility: 0.9868607521057129
","x: 142.65440368652344
y: 541.0963745117188
z: -0.025481635704636574
visibility: 0.9904789924621582
",,,,,,,,,,,,,,,,,,,,,,"x: 139.75949096679688
y: 302.4141540527344
z: 0.0
","x: 141.67469787597656
y: 296.9471435546875
z: -0.0007004826329648495
","x: 142.6844024658203
y: 290.2711181640625
z: -0.0023322165943682194
","x: 143.55592346191406
y: 285.13568115234375
z: -0.004376850090920925
","x: 144.4899139404297
y: 281.34320068359375
z: -0.0059075066819787025
","x: 138.1626434326172
y: 289.16680908203125
z: -0.001978997839614749
","x: 140.3958740234375
y: 289.02764892578125
z: -0.004548932891339064
","x: 141.13241577148438
y: 292.015869140625
z: -0.00558549165725708
","x: 140.73878479003906
y: 293.4434814453125
z: -0.006109265144914389
","x: 136.5805206298828
y: 290.6449279785156
z: -0.0034756313543766737
","x: 139.6122589111328
y: 290.32989501953125
z: -0.005875431001186371
","x: 140.5091094970703
y: 293.5281982421875
z: -0.005389588885009289
","x: 140.23240661621094
y: 294.8500671386719
z: -0.005045128520578146
","x: 135.51690673828125
y: 292.8027038574219
z: -0.0051284004002809525
","x: 138.4077606201172
y: 292.3284912109375
z: -0.006649571005254984
","x: 139.26841735839844
y: 294.9184875488281
z: -0.005084986798465252
","x: 138.9798126220703
y: 295.8572692871094
z: -0.004122731275856495
","x: 134.80450439453125
y: 295.2435302734375
z: -0.007086599711328745
","x: 136.91213989257812
y: 294.2027587890625
z: -0.007312129717320204
","x: 137.7738494873047
y: 295.69439697265625
z: -0.006151992827653885
","x: 137.67813110351562
y: 296.2571716308594
z: -0.0053655607625842094
"
27,"x: 178.98342895507812
y: 280.8372802734375
z: -0.22191977500915527
visibility: 0.9994813203811646
","x: 181.21217346191406
y: 276.7624816894531
z: -0.21021457016468048
visibility: 0.9989927411079407
","x: 182.4103240966797
y: 277.5563659667969
z: -0.21023604273796082
visibility: 0.998754620552063
","x: 183.56629943847656
y: 278.36053466796875
z: -0.210253044962883
visibility: 0.9987366795539856
","x: 177.65892028808594
y: 274.6954345703125
z: -0.20620155334472656
visibility: 0.9990953207015991
","x: 176.36024475097656
y: 274.08502197265625
z: -0.20626242458820343
visibility: 0.998936116695404
","x: 174.97935485839844
y: 273.617431640625
z: -0.2063005268573761
visibility: 0.9988983273506165
","x: 185.48451232910156
y: 282.2699279785156
z: -0.132206529378891
visibility: 0.9979687929153442
","x: 172.45663452148438
y: 276.2716979980469
z: -0.11216771602630615
visibility: 0.998896062374115
","x: 181.19699096679688
y: 288.96148681640625
z: -0.1909252554178238
visibility: 0.999112069606781
","x: 176.50701904296875
y: 287.5683288574219
z: -0.1852862536907196
visibility: 0.9990898370742798
","x: 194.43850708007812
y: 309.4583740234375
z: -0.10951397567987442
visibility: 0.9991851449012756
","x: 162.13912963867188
y: 311.97906494140625
z: -0.04474269226193428
visibility: 0.9996878504753113
","x: 195.2362518310547
y: 346.81903076171875
z: -0.20666861534118652
visibility: 0.9584469795227051
","x: 151.20806884765625
y: 346.4079284667969
z: -0.11812931299209595
visibility: 0.9834317564964294
","x: 171.0123291015625
y: 308.5317687988281
z: -0.32650452852249146
visibility: 0.9304988384246826
","x: 141.08799743652344
y: 309.583740234375
z: -0.2934727370738983
visibility: 0.9668001532554626
","x: 165.39234924316406
y: 299.06719970703125
z: -0.3579348623752594
visibility: 0.8546284437179565
","x: 137.60476684570312
y: 303.04827880859375
z: -0.3275717496871948
visibility: 0.9176849722862244
","x: 165.1890869140625
y: 294.3935241699219
z: -0.35194918513298035
visibility: 0.8431134819984436
","x: 138.9190673828125
y: 298.54534912109375
z: -0.3329890966415405
visibility: 0.9066329002380371
","x: 166.44540405273438
y: 297.3404541015625
z: -0.32575172185897827
visibility: 0.8050673007965088
","x: 140.57928466796875
y: 300.9482421875
z: -0.3006440997123718
visibility: 0.8671107292175293
","x: 190.4615936279297
y: 402.760498046875
z: -0.004514194559305906
visibility: 0.9997806549072266
","x: 168.62332153320312
y: 403.9444580078125
z: 0.00439718971028924
visibility: 0.9998264908790588
","x: 198.49745178222656
y: 464.66851806640625
z: 0.009124524891376495
visibility: 0.9925975799560547
","x: 157.7096710205078
y: 460.4136962890625
z: -0.04504815489053726
visibility: 0.9968183040618896
","x: 200.62234497070312
y: 524.0667114257812
z: 0.1352115124464035
visibility: 0.9922913908958435
","x: 150.3273162841797
y: 520.1798095703125
z: 0.06687601655721664
visibility: 0.9954310059547424
","x: 196.8896942138672
y: 534.8079223632812
z: 0.14171363413333893
visibility: 0.9530329704284668
","x: 153.20077514648438
y: 527.8892822265625
z: 0.07165642082691193
visibility: 0.9161360263824463
","x: 211.8500518798828
y: 542.4738159179688
z: 0.04997500032186508
visibility: 0.9868607521057129
","x: 142.65440368652344
y: 541.0963745117188
z: -0.025481635704636574
visibility: 0.9904789924621582
",,,,,,,,,,,,,,,,,,,,,,"x: 139.75949096679688
y: 302.4141540527344
z: 0.0
","x: 141.67469787597656
y: 296.9471435546875
z: -0.0007004826329648495
","x: 142.6844024658203
y: 290.2711181640625
z: -0.0023322165943682194
","x: 143.55592346191406
y: 285.13568115234375
z: -0.004376850090920925
","x: 144.4899139404297
y: 281.34320068359375
z: -0.0059075066819787025
","x: 138.1626434326172
y: 289.16680908203125
z: -0.001978997839614749
","x: 140.3958740234375
y: 289.02764892578125
z: -0.004548932891339064
","x: 141.13241577148438
y: 292.015869140625
z: -0.00558549165725708
","x: 140.73878479003906
y: 293.4434814453125
z: -0.006109265144914389
","x: 136.5805206298828
y: 290.6449279785156
z: -0.0034756313543766737
","x: 139.6122589111328
y: 290.32989501953125
z: -0.005875431001186371
","x: 140.5091094970703
y: 293.5281982421875
z: -0.005389588885009289
","x: 140.23240661621094
y: 294.8500671386719
z: -0.005045128520578146
","x: 135.51690673828125
y: 292.8027038574219
z: -0.0051284004002809525
","x: 138.4077606201172
