uscmakers/ReverseChoreography/data/7_all_i_wanna_do_jay_park.csv
,NOSE,LEFT_EYE_INNER,LEFT_EYE,LEFT_EYE_OUTER,RIGHT_EYE_INNER,RIGHT_EYE,RIGHT_EYE_OUTER,LEFT_EAR,RIGHT_EAR,MOUTH_LEFT,MOUTH_RIGHT,LEFT_SHOULDER,RIGHT_SHOULDER,LEFT_ELBOW,RIGHT_ELBOW,LEFT_WRIST,RIGHT_WRIST,LEFT_PINKY,RIGHT_PINKY,LEFT_INDEX,RIGHT_INDEX,LEFT_THUMB,RIGHT_THUMB,LEFT_HIP,RIGHT_HIP,LEFT_KNEE,RIGHT_KNEE,LEFT_ANKLE,RIGHT_ANKLE,LEFT_HEEL,RIGHT_HEEL,LEFT_FOOT_INDEX,RIGHT_FOOT_INDEX,WRIST2,THUMB_CPC2,THUMB_MCP2,THUMB_IP2,THUMB_TIP2,INDEX_FINGER_MCP2,INDEX_FINGER_PIP2,INDEX_FINGER_DIP2,INDEX_FINGER_TIP2,MIDDLE_FINGER_MCP2,MIDDLE_FINGER_PIP2,MIDDLE_FINGER_DIP2,MIDDLE_FINGER_TIP2,RING_FINGER_PIP2,RING_FINGER_DIP2,RING_FINGER_TIP2,RING_FINGER_MCP2,PINKY_MCP2,PINKY_PIP2,PINKY_DIP2,PINKY_TIP2,WRIST,THUMB_CPC,THUMB_MCP,THUMB_IP,THUMB_TIP,INDEX_FINGER_MCP,INDEX_FINGER_PIP,INDEX_FINGER_DIP,INDEX_FINGER_TIP,MIDDLE_FINGER_MCP,MIDDLE_FINGER_PIP,MIDDLE_FINGER_DIP,MIDDLE_FINGER_TIP,RING_FINGER_PIP,RING_FINGER_DIP,RING_FINGER_TIP,RING_FINGER_MCP,PINKY_MCP,PINKY_PIP,PINKY_DIP,PINKY_TIP
0,"x: 252.56858825683594
y: 289.0340576171875
z: -0.1804460883140564
visibility: 0.9995036125183105
","x: 254.32411193847656
y: 284.8385009765625
z: -0.16266168653964996
visibility: 0.9986470341682434
","x: 255.41143798828125
y: 285.21539306640625
z: -0.16272643208503723
visibility: 0.998502254486084
","x: 256.514404296875
y: 285.60992431640625
z: -0.16276603937149048
visibility: 0.9984400868415833
","x: 251.59815979003906
y: 284.3328552246094
z: -0.16651247441768646
visibility: 0.9985947012901306
","x: 250.8470001220703
y: 284.30047607421875
z: -0.16650715470314026
visibility: 0.9984725117683411
","x: 250.0088653564453
y: 284.2920227050781
z: -0.16651536524295807
visibility: 0.9982921481132507
","x: 258.4919128417969
y: 288.9996643066406
z: -0.0641588643193245
visibility: 0.9952690005302429
","x: 248.5037841796875
y: 287.5570983886719
z: -0.08341772854328156
visibility: 0.9956113696098328
","x: 254.39254760742188
y: 294.1409606933594
z: -0.14414052665233612
visibility: 0.999000608921051
","x: 250.8767547607422
y: 293.74591064453125
z: -0.14964035153388977
visibility: 0.9990997314453125
","x: 265.60247802734375
y: 316.48876953125
z: -0.010766581632196903
visibility: 0.9996627569198608
","x: 236.9286651611328
y: 316.18731689453125
z: -0.04327836632728577
visibility: 0.9986432194709778
","x: 275.1240234375
y: 344.0395812988281
z: -0.05353454500436783
visibility: 0.9602113366127014
","x: 227.4356689453125
y: 346.6940002441406
z: -0.13347555696964264
visibility: 0.9886819124221802
","x: 281.8946533203125
y: 354.5906066894531
z: -0.21084293723106384
visibility: 0.9731608033180237
","x: 230.38677978515625
y: 340.8611755371094
z: -0.31250107288360596
visibility: 0.9883975386619568
","x: 284.4142761230469
y: 360.0150146484375
z: -0.24894008040428162
visibility: 0.9483605027198792
","x: 231.50942993164062
y: 339.9124450683594
z: -0.3509905934333801
visibility: 0.9750771522521973
","x: 282.66827392578125
y: 356.7129211425781
z: -0.2617813050746918
visibility: 0.9557785987854004
","x: 233.63009643554688
y: 334.015869140625
z: -0.3561209738254547
visibility: 0.9758411049842834
","x: 281.011474609375
y: 354.69677734375
z: -0.22094324231147766
visibility: 0.9441788792610168
","x: 234.9407501220703
y: 334.87896728515625
z: -0.3182678818702698
visibility: 0.9648963212966919
","x: 258.6134338378906
y: 395.4415588378906
z: 0.009353483095765114
visibility: 0.9993836879730225
","x: 244.61331176757812
y: 394.0865783691406
z: -0.009244412183761597
visibility: 0.9987383484840393
","x: 256.21746826171875
y: 445.37664794921875
z: -0.026613246649503708
visibility: 0.9015631675720215
","x: 250.72125244140625
y: 448.3062744140625
z: 0.006825795862823725
visibility: 0.8500391840934753
","x: 249.29322814941406
y: 490.1318359375
z: 0.1254175901412964
visibility: 0.802879810333252
","x: 248.09872436523438
y: 486.08770751953125
z: 0.1998777836561203
visibility: 0.741035521030426
","x: 245.8690185546875
y: 496.6236877441406
z: 0.13723768293857574
visibility: 0.7859472036361694
","x: 248.03663635253906
y: 494.1299133300781
z: 0.21589776873588562
visibility: 0.5466554760932922
","x: 254.1492462158203
y: 505.9271545410156
z: 0.06022126227617264
visibility: 0.8228409290313721
","x: 245.43260192871094
y: 499.6241760253906
z: 0.13579878211021423
visibility: 0.7286748290061951
",,,,,,,,,,,,,,,,,,,,,,,,,,,,,,,,,,,,,,,,,,
1,"x: 255.4945526123047
y: 293.01507568359375
z: -0.17457909882068634
visibility: 0.9995521903038025
","x: 257.2200927734375
y: 289.28411865234375
z: -0.15933139622211456
visibility: 0.9987807869911194
","x: 258.2626647949219
y: 289.686767578125
z: -0.15937158465385437
visibility: 0.998650312423706
","x: 259.34661865234375
y: 290.1536865234375
z: -0.15940417349338531
visibility: 0.9985944032669067
","x: 254.3155517578125
y: 289.10076904296875
z: -0.1583535373210907
visibility: 0.9987331628799438
","x: 253.2540283203125
y: 289.3520812988281
z: -0.15835295617580414
visibility: 0.9986222386360168
","x: 252.11477661132812
y: 289.60467529296875
z: -0.15838447213172913
visibility: 0.998460054397583
","x: 260.4944763183594
y: 294.5868835449219
z: -0.07330836355686188
visibility: 0.9957358241081238
","x: 250.08355712890625
y: 293.0533447265625
z: -0.07431840896606445
visibility: 0.9960458874702454
","x: 256.91845703125
y: 299.498779296875
z: -0.14368462562561035
visibility: 0.9991000294685364
","x: 253.38082885742188
y: 299.09039306640625
z: -0.1439352035522461
visibility: 0.9991890788078308
","x: 268.918212890625
y: 327.038330078125
z: -0.04119138419628143
visibility: 0.9996957778930664
","x: 238.4947509765625
y: 318.77984619140625
z: -0.01899656467139721
visibility: 0.9987770318984985
","x: 274.48553466796875
y: 368.52520751953125
z: -0.11857686191797256
visibility: 0.9632278680801392
","x: 228.55690002441406
y: 354.154296875
z: -0.0035938508808612823
visibility: 0.9890992641448975
","x: 265.6777038574219
y: 348.7048645019531
z: -0.2906063199043274
visibility: 0.9751561880111694
","x: 235.86740112304688
y: 384.75115966796875
z: -0.06834768503904343
visibility: 0.9853708744049072
","x: 261.2225036621094
y: 342.6562194824219
z: -0.32708391547203064
visibility: 0.9521847367286682
","x: 237.484130859375
y: 396.4443359375
z: -0.08465853333473206
visibility: 0.967019259929657
","x: 261.9122009277344
y: 337.3953552246094
z: -0.3252671957015991
visibility: 0.9588772654533386
","x: 239.78106689453125
y: 395.6550598144531
z: -0.09586680680513382
visibility: 0.9675244092941284
","x: 263.1048889160156
y: 339.22723388671875
z: -0.2928270399570465
visibility: 0.9469565153121948
","x: 239.5634765625
y: 391.27337646484375
z: -0.0727418065071106
visibility: 0.9539017081260681
","x: 261.1077575683594
y: 395.9130554199219
z: -0.004750692285597324
visibility: 0.9994447827339172
","x: 244.9770050048828
y: 396.97119140625
z: 0.004756642505526543
visibility: 0.998859167098999
","x: 256.3159484863281
y: 439.01568603515625
z: -0.1895778477191925
visibility: 0.9098824262619019
","x: 250.747802734375
y: 464.74957275390625
z: 0.005323645658791065
visibility: 0.8567419052124023
","x: 253.6192626953125
y: 502.0930480957031
z: -0.12089227139949799
visibility: 0.8199521899223328
","x: 253.27743530273438
y: 482.3109436035156
z: 0.2565978467464447
visibility: 0.6975589990615845
","x: 252.3585662841797
y: 509.0081787109375
z: -0.11586020886898041
visibility: 0.7926923036575317
","x: 253.7696990966797
y: 481.1705017089844
z: 0.28123149275779724
visibility: 0.5195091962814331
","x: 254.34439086914062
y: 519.458251953125
z: -0.21025903522968292
visibility: 0.837534487247467
","x: 255.24610900878906
y: 498.8016357421875
z: 0.23675909638404846
visibility: 0.6990184187889099
",,,,,,,,,,,,,,,,,,,,,,,,,,,,,,,,,,,,,,,,,,
2,"x: 253.5807342529297
y: 306.42071533203125
z: -0.17177268862724304
visibility: 0.9995940923690796
","x: 255.9705810546875
y: 302.1484375
z: -0.15871086716651917
visibility: 0.9988935589790344
","x: 257.0140686035156
y: 302.4979553222656
z: -0.15876509249210358
visibility: 0.9987753629684448
","x: 258.0175476074219
y: 302.8837890625
z: -0.15880140662193298
visibility: 0.9987251162528992
","x: 252.45394897460938
y: 301.5350646972656
z: -0.1573067456483841
visibility: 0.9988471269607544
","x: 251.21746826171875
y: 301.489013671875
z: -0.15731389820575714
visibility: 0.9987459182739258
","x: 250.0836181640625
y: 301.47076416015625
z: -0.15733784437179565
visibility: 0.9986029267311096
","x: 259.7779541015625
y: 305.47393798828125
z: -0.0782608613371849
visibility: 0.9961334466934204
","x: 248.5555419921875
y: 303.37274169921875
z: -0.07384039461612701
visibility: 0.996425986289978
","x: 255.52420043945312
y: 312.2354431152344
z: -0.1421511024236679
visibility: 0.9991862177848816
","x: 251.07843017578125
y: 311.9354248046875
z: -0.14029136300086975
visibility: 0.9992669820785522
","x: 267.8926086425781
y: 336.27142333984375
z: -0.043347783386707306
visibility: 0.999724268913269
","x: 238.15521240234375
y: 331.0252380371094
z: -0.009360834956169128
visibility: 0.9988976716995239
","x: 271.1899108886719
y: 370.78173828125
z: -0.10027831792831421
visibility: 0.9542818069458008
","x: 229.2016143798828
y: 364.37518310546875
z: 0.04706033319234848
visibility: 0.9871324300765991
","x: 270.70794677734375
y: 374.85040283203125
z: -0.26858973503112793
visibility: 0.9694325923919678
","x: 223.45767211914062
y: 385.836669921875
z: -0.008427216671407223
visibility: 0.9842094779014587
","x: 271.2557067871094
y: 375.56817626953125
z: -0.30203133821487427
visibility: 0.946933388710022
","x: 219.0483856201172
y: 392.247314453125
z: -0.025254985317587852
visibility: 0.9659485816955566
","x: 270.5763854980469
y: 372.3879699707031
z: -0.31430718302726746
visibility: 0.9536773562431335
","x: 219.37881469726562
y: 392.19891357421875
z: -0.047193493694067
visibility: 0.9669665694236755
","x: 269.6286926269531
y: 372.4071044921875
z: -0.2778947949409485
visibility: 0.9394739866256714
","x: 221.20895385742188
y: 390.676025390625
z: -0.018703753128647804
visibility: 0.9539765119552612
","x: 261.0413818359375
y: 408.7357177734375
z: -0.007039807736873627
visibility: 0.9994947910308838
","x: 242.96372985839844
y: 405.370361328125
z: 0.007043670862913132
visibility: 0.9989714026451111
","x: 256.10772705078125
y: 465.4010314941406
z: -0.05117310956120491
visibility: 0.9162395596504211
","x: 242.24974060058594
y: 458.5338134765625
z: -0.19708992540836334
visibility: 0.8707200288772583
","x: 253.1805877685547
y: 504.9349670410156
z: 0.18826749920845032
visibility: 0.8332051634788513
","x: 243.39797973632812
y: 484.5057373046875
z: 0.014590670354664326
visibility: 0.7247041463851929
","x: 252.58375549316406
y: 509.3191223144531
z: 0.2083311527967453
visibility: 0.7777948379516602
","x: 244.09730529785156
y: 484.25225830078125
z: 0.03419461101293564
visibility: 0.5475819110870361
","x: 250.32469177246094
y: 523.5692749023438
z: 0.13042640686035156
visibility: 0.8485749363899231
","x: 241.7031707763672
y: 509.09014892578125
z: -0.04042428359389305
visibility: 0.7270714640617371
",,,,,,,,,,,,,,,,,,,,,,,,,,,,,,,,,,,,,,,,,,
3,"x: 246.12997436523438
y: 312.3006591796875
z: -0.3471473157405853
visibility: 0.9996334910392761
","x: 247.60145568847656
y: 307.2747497558594
z: -0.33780768513679504
visibility: 0.998998761177063
","x: 248.59674072265625
y: 307.07574462890625
z: -0.3378061354160309
visibility: 0.9988934993743896
","x: 249.7395477294922
y: 306.9267883300781
z: -0.33784642815589905
visibility: 0.9988465905189514
","x: 245.14634704589844
y: 307.6925964355469
z: -0.33357685804367065
visibility: 0.998954176902771
","x: 244.36288452148438
y: 307.74945068359375
z: -0.33366721868515015
visibility: 0.9988647103309631
","x: 243.56951904296875
y: 307.735107421875
z: -0.3337087035179138
visibility: 0.9987343549728394
","x: 253.30364990234375
y: 308.40582275390625
z: -0.24960143864154816
visibility: 0.9965112805366516
","x: 243.6361846923828
y: 308.45257568359375
z: -0.23248104751110077
visibility: 0.9967674016952515
","x: 248.4963836669922
y: 317.100830078125
z: -0.3120420575141907
visibility: 0.9992657899856567
","x: 245.3950653076172
y: 317.1852722167969
z: -0.3072669506072998
visibility: 0.9993374347686768
","x: 264.00921630859375
y: 337.0362854003906
z: -0.1691812425851822
visibility: 0.9997510313987732
","x: 234.95166015625
y: 333.3703918457031
z: -0.13979585468769073
visibility: 0.9990050792694092
","x: 271.12860107421875
y: 369.7163391113281
z: -0.16874778270721436
visibility: 0.9583801627159119
","x: 227.95936584472656
y: 361.5845031738281
z: -0.14449021220207214
visibility: 0.9870784282684326
","x: 274.85235595703125
y: 394.4201354980469
z: -0.27155956625938416
visibility: 0.9718061089515686
","x: 216.9072265625
y: 379.4235534667969
z: -0.278238981962204
visibility: 0.9849691390991211
","x: 280.0986022949219
y: 402.03289794921875
z: -0.2949262261390686
visibility: 0.9505561590194702
","x: 211.68495178222656
y: 383.44195556640625
z: -0.30410605669021606
visibility: 0.967801034450531
","x: 280.0611267089844
y: 402.1159362792969
z: -0.3173268735408783
visibility: 0.9568265676498413
","x: 211.7515869140625
y: 382.89910888671875
z: -0.3264405131340027
visibility: 0.968889057636261
","x: 278.1163024902344
y: 400.50897216796875
z: -0.28219732642173767
visibility: 0.9434305429458618
","x: 213.61802673339844
y: 382.28271484375
z: -0.2904052138328552
visibility: 0.9567252993583679
","x: 258.8072814941406
y: 407.9215087890625
z: -0.005878254771232605
visibility: 0.9995304346084595
","x: 240.6974334716797
y: 404.93975830078125
z: 0.0058514392003417015
visibility: 0.9990627765655518
","x: 252.43649291992188
y: 461.3009033203125
z: -0.07573850452899933
visibility: 0.9221189618110657
","x: 241.31430053710938
y: 462.3330078125
z: -0.14374764263629913
visibility: 0.8816099166870117
","x: 252.9027557373047
y: 507.4591064453125
z: 0.13395890593528748
visibility: 0.8459189534187317
","x: 240.6724853515625
y: 509.24151611328125
z: 0.035420868545770645
visibility: 0.7476761937141418
","x: 251.31153869628906
y: 510.8437805175781
z: 0.14951352775096893
visibility: 0.7715799808502197
","x: 240.481201171875
y: 510.4639892578125
z: 0.04859062284231186
visibility: 0.5623890161514282
","x: 249.72329711914062
y: 531.298583984375
z: 0.06216958910226822
visibility: 0.8595371842384338
","x: 241.5670166015625
y: 537.3840942382812
z: -0.051688481122255325
visibility: 0.7498278021812439
","x: 278.5191345214844
y: 396.12213134765625
z: 0.0
","x: 281.8049011230469
y: 396.60614013671875
z: -0.0005125458119437099
","x: 284.6756286621094
y: 398.20550537109375
z: -0.001458534854464233
","x: 286.6746826171875
y: 399.6687316894531
z: -0.002918953076004982
","x: 288.20501708984375
y: 399.9134826660156
z: -0.004212906584143639
","x: 284.45367431640625
y: 404.2107849121094
z: -0.0006962924380786717
","x: 285.656005859375
y: 407.6336364746094
z: -0.0030375460628420115
","x: 286.1467590332031
y: 408.0722351074219
z: -0.0041902088560163975
","x: 286.4153137207031
y: 407.7137451171875
z: -0.004699323792010546
","x: 282.6880798339844
y: 405.7580871582031
z: -0.002017856342718005
","x: 283.6642761230469
y: 408.8085632324219
z: -0.004592507611960173
","x: 284.0019226074219
y: 408.5522766113281
z: -0.0051809074357151985
","x: 283.9731140136719
y: 407.8094482421875
z: -0.005232543218880892
","x: 280.77886962890625
y: 406.42156982421875
z: -0.003623049706220627
","x: 281.408447265625
y: 408.89892578125
z: -0.0060615455731749535
","x: 281.46478271484375
y: 407.58148193359375
z: -0.0055675506591796875
","x: 281.2026672363281
y: 405.9267578125
z: -0.0047712912783026695
","x: 278.70855712890625
y: 406.3106994628906
z: -0.005462293978780508
","x: 279.05841064453125
y: 408.5621337890625
z: -0.007093456573784351
","x: 279.13037109375
y: 407.4469299316406
z: -0.0066553037613630295
","x: 278.87091064453125
y: 405.8387451171875
z: -0.005946366582065821
",,,,,,,,,,,,,,,,,,,,,
4,"x: 246.12997436523438
y: 312.3006591796875
z: -0.3471473157405853
visibility: 0.9996334910392761
","x: 247.60145568847656
y: 307.2747497558594
z: -0.33780768513679504
visibility: 0.998998761177063
","x: 248.59674072265625
y: 307.07574462890625
z: -0.3378061354160309
visibility: 0.9988934993743896
","x: 249.7395477294922
y: 306.9267883300781
z: -0.33784642815589905
visibility: 0.9988465905189514
","x: 245.14634704589844
y: 307.6925964355469
z: -0.33357685804367065
visibility: 0.998954176902771
","x: 244.36288452148438
y: 307.74945068359375
z: -0.33366721868515015
visibility: 0.9988647103309631
","x: 243.56951904296875
y: 307.735107421875
z: -0.3337087035179138
visibility: 0.9987343549728394
","x: 253.30364990234375
y: 308.40582275390625
z: -0.24960143864154816
visibility: 0.9965112805366516
","x: 243.6361846923828
y: 308.45257568359375
z: -0.23248104751110077
visibility: 0.9967674016952515
","x: 248.4963836669922
y: 317.100830078125
z: -0.3120420575141907
visibility: 0.9992657899856567
","x: 245.3950653076172
y: 317.1852722167969
z: -0.3072669506072998
visibility: 0.9993374347686768
","x: 264.00921630859375
y: 337.0362854003906
z: -0.1691812425851822
visibility: 0.9997510313987732
","x: 234.95166015625
y: 333.3703918457031
z: -0.13979585468769073
visibility: 0.9990050792694092
","x: 271.12860107421875
y: 369.7163391113281
z: -0.16874778270721436
visibility: 0.9583801627159119
","x: 227.95936584472656
y: 361.5845031738281
z: -0.14449021220207214
visibility: 0.9870784282684326
","x: 274.85235595703125
y: 394.4201354980469
z: -0.27155956625938416
visibility: 0.9718061089515686
","x: 216.9072265625
y: 379.4235534667969
z: -0.278238981962204
visibility: 0.9849691390991211
","x: 280.0986022949219
y: 402.03289794921875
z: -0.2949262261390686
visibility: 0.9505561590194702
","x: 211.68495178222656
y: 383.44195556640625
z: -0.30410605669021606
visibility: 0.967801034450531
","x: 280.0611267089844
y: 402.1159362792969
z: -0.3173268735408783
visibility: 0.9568265676498413
","x: 211.7515869140625
y: 382.89910888671875
z: -0.3264405131340027
visibility: 0.968889057636261
","x: 278.1163024902344
y: 400.50897216796875
z: -0.28219732642173767
visibility: 0.9434305429458618
","x: 213.61802673339844
y: 382.28271484375
z: -0.2904052138328552
visibility: 0.9567252993583679
","x: 258.8072814941406
y: 407.9215087890625
z: -0.005878254771232605
visibility: 0.9995304346084595
","x: 240.6974334716797
y: 404.93975830078125
z: 0.0058514392003417015
visibility: 0.9990627765655518
","x: 252.43649291992188
y: 461.3009033203125
z: -0.07573850452899933
visibility: 0.9221189618110657
","x: 241.31430053710938
y: 462.3330078125
z: -0.14374764263629913
visibility: 0.8816099166870117
","x: 252.9027557373047
y: 507.4591064453125
z: 0.13395890593528748
visibility: 0.8459189534187317
","x: 240.6724853515625
y: 509.24151611328125
z: 0.035420868545770645
visibility: 0.7476761937141418
","x: 251.31153869628906
y: 510.8437805175781
z: 0.14951352775096893
visibility: 0.7715799808502197
","x: 240.481201171875
y: 510.4639892578125
z: 0.04859062284231186
visibility: 0.5623890161514282
","x: 249.72329711914062
y: 531.298583984375
z: 0.06216958910226822
visibility: 0.8595371842384338
","x: 241.5670166015625
y: 537.3840942382812
z: -0.051688481122255325
visibility: 0.7498278021812439
","x: 278.5191345214844
y: 396.12213134765625
z: 0.0
","x: 281.8049011230469
y: 396.60614013671875
z: -0.0005125458119437099
","x: 284.6756286621094
y: 398.20550537109375
z: -0.001458534854464233
","x: 286.6746826171875
y: 399.6687316894531
z: -0.002918953076004982
","x: 288.20501708984375
y: 399.9134826660156
z: -0.004212906584143639
","x: 284.45367431640625
y: 404.2107849121094
z: -0.0006962924380786717
","x: 285.656005859375
y: 407.6336364746094
z: -0.0030375460628420115
","x: 286.1467590332031
y: 408.0722351074219
z: -0.0041902088560163975
","x: 286.4153137207031
y: 407.7137451171875
z: -0.004699323792010546
","x: 282.6880798339844
y: 405.7580871582031
z: -0.002017856342718005
","x: 283.6642761230469
y: 408.8085632324219
z: -0.004592507611960173
","x: 284.0019226074219
y: 408.5522766113281
z: -0.0051809074357151985
","x: 283.9731140136719
y: 407.8094482421875
z: -0.005232543218880892
","x: 280.77886962890625
y: 406.42156982421875
z: -0.003623049706220627
","x: 281.408447265625
y: 408.89892578125
z: -0.0060615455731749535
","x: 281.46478271484375
y: 407.58148193359375
z: -0.0055675506591796875
","x: 281.2026672363281
y: 405.9267578125
z: -0.0047712912783026695
","x: 278.70855712890625
y: 406.3106994628906
z: -0.005462293978780508
","x: 279.05841064453125
y: 408.5621337890625
z: -0.007093456573784351
","x: 279.13037109375
y: 407.4469299316406
z: -0.0066553037613630295
","x: 278.87091064453125
y: 405.8387451171875
z: -0.005946366582065821
",,,,,,,,,,,,,,,,,,,,,
5,"x: 242.1585235595703
y: 324.324462890625
z: -0.27533337473869324
visibility: 0.9996687173843384
","x: 243.90992736816406
y: 318.8208312988281
z: -0.26720088720321655
visibility: 0.9990957975387573
","x: 245.12820434570312
y: 318.53594970703125
z: -0.26720207929611206
visibility: 0.999001145362854
","x: 246.574462890625
y: 318.356201171875
z: -0.26725858449935913
visibility: 0.9989584684371948
","x: 241.1099853515625
y: 319.19287109375
z: -0.26091209053993225
visibility: 0.9990543723106384
","x: 240.274169921875
y: 319.0826110839844
z: -0.26099205017089844
visibility: 0.9989734888076782
","x: 239.3982391357422
y: 318.962158203125
z: -0.2610408067703247
visibility: 0.9988564848899841
","x: 250.84141540527344
y: 319.2477111816406
z: -0.18237519264221191
visibility: 0.9968575835227966
","x: 239.87283325195312
y: 319.52587890625
z: -0.15646882355213165
visibility: 0.9970819354057312
","x: 244.57666015625
y: 329.0660400390625
z: -0.24096712470054626
visibility: 0.9993374347686768
","x: 241.42579650878906
y: 329.1829833984375
z: -0.2337086945772171
visibility: 0.9994001388549805
","x: 262.1363525390625
y: 344.614013671875
z: -0.10987307876348495
visibility: 0.9997739195823669
","x: 232.88906860351562
y: 340.8848571777344
z: -0.07974673062562943
visibility: 0.9991006255149841
","x: 268.1280517578125
y: 377.07537841796875
z: -0.15124642848968506
visibility: 0.9614964723587036
","x: 227.8179931640625
y: 366.1126403808594
z: -0.12479126453399658
visibility: 0.9827604293823242
","x: 274.2642822265625
y: 400.3182678222656
z: -0.15577825903892517
visibility: 0.972768247127533
","x: 219.74327087402344
y: 378.2524108886719
z: -0.25284436345100403
visibility: 0.9838936924934387
","x: 278.6289367675781
y: 406.7889099121094
z: -0.16842517256736755
visibility: 0.9507869482040405
","x: 216.1974334716797
y: 382.5973205566406
z: -0.28247398138046265
visibility: 0.9670929908752441
","x: 279.1005859375
y: 406.25177001953125
z: -0.19156798720359802
visibility: 0.9570571184158325
","x: 216.55177307128906
y: 381.7996826171875
z: -0.29520851373672485
visibility: 0.968386709690094
","x: 277.0911560058594
y: 404.4330139160156
z: -0.16474291682243347
visibility: 0.9428812861442566
","x: 218.21612548828125
y: 380.71551513671875
z: -0.2616956830024719
visibility: 0.9561886787414551
","x: 258.0538330078125
y: 414.7021179199219
z: -0.01072683371603489
visibility: 0.999538004398346
","x: 239.9626007080078
y: 414.85943603515625
z: 0.01076461747288704
visibility: 0.9991363883018494
","x: 249.60247802734375
y: 462.67413330078125
z: -0.1813058853149414
visibility: 0.9242650270462036
","x: 240.34930419921875
y: 470.8681640625
z: -0.12175049632787704
visibility: 0.8712345957756042
","x: 251.8043212890625
y: 508.01287841796875
z: -0.03720961511135101
visibility: 0.8349764347076416
","x: 242.02227783203125
y: 527.0305786132812
z: -0.011587847024202347
visibility: 0.751078188419342
","x: 250.7823028564453
y: 511.6317138671875
z: -0.026170765981078148
visibility: 0.7513947486877441
","x: 242.65780639648438
y: 532.08740234375
z: -0.006447280291467905
visibility: 0.5616562366485596
","x: 248.5250701904297
y: 530.7091674804688
z: -0.11776921898126602
visibility: 0.8576010465621948
","x: 241.352294921875
y: 542.5602416992188
z: -0.11616742610931396
visibility: 0.7514997124671936
",,,,,,,,,,,,,,,,,,,,,,,,,,,,,,,,,,,,,,,,,,
6,"x: 245.19166564941406
y: 313.1946716308594
z: -0.3031476140022278
visibility: 0.9997016191482544
","x: 247.00338745117188
y: 308.1400451660156
z: -0.29405665397644043
visibility: 0.9991855621337891
","x: 248.1648712158203
y: 308.1440124511719
z: -0.29404762387275696
visibility: 0.9991005659103394
","x: 249.42315673828125
y: 308.2544250488281
z: -0.29409316182136536
visibility: 0.9990620613098145
","x: 244.018798828125
y: 308.1929931640625
z: -0.2876143753528595
visibility: 0.9991472363471985
","x: 243.07737731933594
y: 308.12786865234375
z: -0.28766220808029175
visibility: 0.9990742802619934
","x: 242.17333984375
y: 308.06781005859375
z: -0.2876591086387634
visibility: 0.9989687204360962
","x: 252.56300354003906
y: 310.78607177734375
z: -0.20896926522254944
visibility: 0.9971714615821838
","x: 241.8118896484375
y: 309.75482177734375
z: -0.18181879818439484
visibility: 0.9973697662353516
","x: 247.43234252929688
y: 318.2229919433594
z: -0.2697526812553406
visibility: 0.9994035959243774
","x: 243.82046508789062
y: 318.19195556640625
z: -0.2619771361351013
visibility: 0.9994598031044006
","x: 262.2714538574219
y: 337.824951171875
z: -0.14801084995269775
visibility: 0.9997963905334473
","x: 233.63558959960938
y: 338.9953308105469
z: -0.08205540478229523
visibility: 0.9991876482963562
","x: 273.1175537109375
y: 371.6390380859375
z: -0.1617080420255661
visibility: 0.9652859568595886
","x: 222.24440002441406
y: 351.99993896484375
z: -0.027821224182844162
visibility: 0.9835042357444763
","x: 281.2431945800781
y: 400.0489807128906
z: -0.2622007429599762
visibility: 0.9753785133361816
","x: 214.49000549316406
y: 372.99993896484375
z: -0.08516554534435272
visibility: 0.9847833514213562
","x: 283.703125
y: 408.35491943359375
z: -0.286560595035553
visibility: 0.9552599787712097
","x: 210.0695343017578
y: 380.3009033203125
z: -0.09589534252882004
visibility: 0.9688597917556763
","x: 282.56463623046875
y: 408.1460876464844
z: -0.31386345624923706
visibility: 0.9609687328338623
","x: 211.55392456054688
y: 380.3915100097656
z: -0.11749696731567383
visibility: 0.970198929309845
","x: 281.3507385253906
y: 405.80316162109375
z: -0.27357932925224304
visibility: 0.9479749798774719
","x: 213.65945434570312
y: 377.877685546875
z: -0.09439562261104584
visibility: 0.9587991237640381
","x: 257.63427734375
y: 410.3274230957031
z: -0.012224092148244381
visibility: 0.9995775818824768
","x: 239.85806274414062
y: 409.98681640625
z: 0.012261374853551388
visibility: 0.9992175698280334
","x: 250.8877410888672
y: 460.964111328125
z: -0.2171844244003296
visibility: 0.9310319423675537
","x: 239.75685119628906
y: 466.1031494140625
z: -0.12567558884620667
visibility: 0.8824952244758606
","x: 253.73529052734375
y: 499.23956298828125
z: 0.0029818154871463776
visibility: 0.8490746021270752
","x: 240.87782287597656
y: 522.7281494140625
z: 0.025835419073700905
visibility: 0.774722695350647
","x: 254.134765625
y: 499.8793029785156
z: 0.021700572222471237
visibility: 0.7668517231941223
","x: 242.76177978515625
y: 528.53955078125
z: 0.034811489284038544
visibility: 0.5948992371559143
","x: 253.5408172607422
y: 528.3858032226562
z: -0.06079787015914917
visibility: 0.8700866103172302
","x: 241.2825927734375
y: 545.0679931640625
z: -0.06919390708208084
visibility: 0.7742847204208374
",,,,,,,,,,,,,,,,,,,,,,,,,,,,,,,,,,,,,,,,,,
7,"x: 248.19070434570312
y: 302.21368408203125
z: -0.29663825035095215
visibility: 0.9997307658195496
","x: 250.05935668945312
y: 295.5854187011719
z: -0.2829165458679199
visibility: 0.9992648363113403
","x: 251.1741485595703
y: 295.52593994140625
z: -0.28291773796081543
visibility: 0.9991881847381592
","x: 252.3173828125
y: 295.605224609375
z: -0.2829171419143677
visibility: 0.9991530776023865
","x: 247.2159881591797
y: 295.44189453125
z: -0.2838824987411499
visibility: 0.9992304444313049
","x: 246.03623962402344
y: 295.31781005859375
z: -0.28393644094467163
visibility: 0.9991647601127625
","x: 244.8324737548828
y: 295.24847412109375
z: -0.2839779257774353
visibility: 0.9990697503089905
","x: 254.65802001953125
y: 297.9324951171875
z: -0.18641208112239838
visibility: 0.9974457621574402
","x: 243.09368896484375
y: 296.1963195800781
z: -0.19360415637493134
visibility: 0.9976295232772827
","x: 249.57200622558594
y: 308.18408203125
z: -0.2592852711677551
visibility: 0.9994622468948364
","x: 246.17506408691406
y: 308.4167785644531
z: -0.2615130543708801
visibility: 0.9995133876800537
","x: 264.0758972167969
y: 333.10528564453125
z: -0.10872036218643188
visibility: 0.9998151659965515
","x: 233.70506286621094
y: 324.4305725097656
z: -0.12034276872873306
visibility: 0.999268114566803
","x: 273.088134765625
y: 368.30303955078125
z: -0.0960763543844223
visibility: 0.9680076837539673
","x: 223.1217041015625
y: 352.1409912109375
z: -0.10550548136234283
visibility: 0.9846025109291077
","x: 272.9674377441406
y: 401.650634765625
z: -0.18341992795467377
visibility: 0.9763996005058289
","x: 222.4327392578125
y: 378.0885314941406
z: -0.19332191348075867
visibility: 0.9847905039787292
","x: 271.7373046875
y: 413.1021728515625
z: -0.21076679229736328
visibility: 0.9562440514564514
","x: 222.93190002441406
y: 388.943115234375
z: -0.22397148609161377
visibility: 0.9687143564224243
","x: 269.67205810546875
y: 410.99932861328125
z: -0.23282961547374725
visibility: 0.9616302251815796
","x: 225.964599609375
y: 387.4541015625
z: -0.24772687256336212
visibility: 0.9700835347175598
","x: 269.5439453125
y: 407.2309875488281
z: -0.1931653767824173
visibility: 0.9483249187469482
","x: 226.08935546875
y: 383.4017333984375
z: -0.20293505489826202
visibility: 0.9583839178085327
","x: 257.5476379394531
y: 404.844482421875
z: 0.012037359178066254
visibility: 0.9995855093002319
","x: 240.3417510986328
y: 402.5267028808594
z: -0.012085234746336937
visibility: 0.9992861151695251
","x: 254.55508422851562
y: 458.3090515136719
z: 0.02762627601623535
visibility: 0.9339358806610107
","x: 240.55654907226562
y: 457.741455078125
z: -0.1253517121076584
visibility: 0.8929643034934998
","x: 254.4174346923828
y: 504.47222900390625
z: 0.18164578080177307
visibility: 0.8604819178581238
","x: 242.09979248046875
y: 516.0120849609375
z: -0.02646733447909355
visibility: 0.7959085702896118
","x: 253.90139770507812
y: 508.843505859375
z: 0.19141040742397308
visibility: 0.7758253216743469
","x: 243.10289001464844
y: 523.6712036132812
z: -0.02241085097193718
visibility: 0.615181565284729
","x: 258.14739990234375
y: 527.66455078125
z: 0.1017129197716713
visibility: 0.8796847462654114
","x: 242.4662628173828
y: 537.7544555664062
z: -0.1377657651901245
visibility: 0.7953503727912903
",,,,,,,,,,,,,,,,,,,,,,,,,,,,,,,,,,,,,,,,,,
8,"x: 250.9375762939453
y: 295.5029602050781
z: -0.17545470595359802
visibility: 0.9997573494911194
","x: 253.01873779296875
y: 289.2374267578125
z: -0.15868180990219116
visibility: 0.9993374347686768
","x: 254.21376037597656
y: 289.1988525390625
z: -0.15871547162532806
visibility: 0.9992684125900269
","x: 255.53038024902344
y: 289.23077392578125
z: -0.15869566798210144
visibility: 0.9992366433143616
","x: 249.98486328125
y: 289.314453125
z: -0.1594868153333664
visibility: 0.9993062019348145
","x: 248.7632598876953
y: 289.3360290527344
z: -0.1595154106616974
visibility: 0.9992471933364868
","x: 247.49453735351562
y: 289.4276123046875
z: -0.15952783823013306
visibility: 0.9991615414619446
","x: 258.0033874511719
y: 292.30377197265625
z: -0.06836255639791489
visibility: 0.9976987838745117
","x: 245.64906311035156
y: 291.27813720703125
z: -0.07328740507364273
visibility: 0.9978647232055664
","x: 252.66697692871094
y: 301.75457763671875
z: -0.1421903669834137
visibility: 0.9995157122612
","x: 249.19252014160156
y: 301.9844665527344
z: -0.14378182590007782
visibility: 0.9995617866516113
","x: 266.3111572265625
y: 326.9746398925781
z: -0.023809608072042465
visibility: 0.9998330473899841
","x: 236.22882080078125
y: 320.9927978515625
z: -0.0376826748251915
visibility: 0.9993400573730469
","x: 272.6575012207031
y: 368.01531982421875
z: -0.06188824027776718
visibility: 0.9703693985939026
","x: 230.27313232421875
y: 354.0186767578125
z: -0.10521610826253891
visibility: 0.9848820567131042
","x: 264.01519775390625
y: 392.56024169921875
z: -0.18110331892967224
visibility: 0.978124737739563
","x: 230.67086791992188
y: 374.57904052734375
z: -0.24051423370838165
visibility: 0.9850693345069885
","x: 261.0602722167969
y: 399.1465759277344
z: -0.21276788413524628
visibility: 0.9593358635902405
","x: 231.18209838867188
y: 384.6867370605469
z: -0.2794881761074066
visibility: 0.9699077606201172
","x: 259.16497802734375
y: 397.4834899902344
z: -0.225197434425354
visibility: 0.9642389416694641
","x: 234.356201171875
y: 383.017578125
z: -0.28937631845474243
visibility: 0.9711787104606628
","x: 259.58502197265625
y: 396.4035339355469
z: -0.18774238228797913
visibility: 0.9515003561973572
","x: 235.00979614257812
y: 379.0102844238281
z: -0.2476208209991455
visibility: 0.9597271680831909
","x: 258.68975830078125
y: 404.2696533203125
z: 0.014996361918747425
visibility: 0.9996225833892822
","x: 241.345947265625
y: 400.5401306152344
z: -0.015071539208292961
visibility: 0.999355137348175
","x: 260.11260986328125
y: 460.6872863769531
z: -0.00646026199683547
visibility: 0.9381723403930664
","x: 244.84954833984375
y: 453.445068359375
z: -0.1723366528749466
visibility: 0.9032242894172668
","x: 255.66702270507812
y: 505.91448974609375
z: 0.1749259978532791
visibility: 0.8708371520042419
","x: 242.5481414794922
y: 512.6940307617188
z: -0.03912711143493652
visibility: 0.8153311610221863
","x: 253.98565673828125
y: 510.6146545410156
z: 0.1882457584142685
visibility: 0.7756862640380859
","x: 242.88247680664062
y: 517.9526977539062
z: -0.029824256896972656
visibility: 0.6351855397224426
","x: 257.787841796875
y: 526.9508056640625
z: 0.10799272358417511
visibility: 0.8881014585494995
","x: 242.75267028808594
y: 531.4010009765625
z: -0.12720777094364166
visibility: 0.8148192167282104
",,,,,,,,,,,,,,,,,,,,,,"x: 233.80152893066406
y: 370.7740783691406
z: 0.0
","x: 235.0077667236328
y: 376.4844055175781
z: 0.0023384839296340942
","x: 235.04214477539062
y: 382.76666259765625
z: 0.002556085353717208
","x: 235.37168884277344
y: 387.2242736816406
z: 0.0019788851495832205
","x: 236.15724182128906
y: 390.4283142089844
z: 0.001357785426080227
","x: 233.33872985839844
y: 385.9240417480469
z: 0.0010128389112651348
","x: 233.60633850097656
y: 393.3387451171875
z: -0.0006125103100202978
","x: 234.3960723876953
y: 397.25103759765625
z: -0.0014876977074891329
","x: 235.24899291992188
y: 400.20404052734375
z: -0.0019867196679115295
","x: 233.73129272460938
y: 385.3735656738281
z: -0.0016288416227325797
","x: 234.62164306640625
y: 392.7236328125
z: -0.003234278876334429
","x: 235.86245727539062
y: 396.81976318359375
z: -0.003731370437890291
","x: 237.19741821289062
y: 400.0445861816406
z: -0.004167013335973024
","x: 234.63099670410156
y: 383.94256591796875
z: -0.004273897036910057
","x: 235.8616180419922
y: 390.5667419433594
z: -0.00583263486623764
","x: 237.06668090820312
y: 394.5259094238281
z: -0.0060126325115561485
","x: 238.25050354003906
y: 397.6840515136719
z: -0.0062631783075630665
","x: 235.91563415527344
y: 381.93487548828125
z: -0.006855101324617863
","x: 237.0808563232422
y: 386.8468933105469
z: -0.008134054020047188
","x: 238.0414581298828
y: 390.007568359375
z: -0.00831017829477787
","x: 238.9634246826172
y: 392.635009765625
z: -0.008504750207066536
"
9,"x: 250.9375762939453
y: 295.5029602050781
z: -0.17545470595359802
visibility: 0.9997573494911194
","x: 253.01873779296875
y: 289.2374267578125
z: -0.15868180990219116
visibility: 0.9993374347686768
","x: 254.21376037597656
y: 289.1988525390625
z: -0.15871547162532806
visibility: 0.9992684125900269
","x: 255.53038024902344
y: 289.23077392578125
z: -0.15869566798210144
visibility: 0.9992366433143616
","x: 249.98486328125
y: 289.314453125
z: -0.1594868153333664
visibility: 0.9993062019348145
","x: 248.7632598876953
y: 289.3360290527344
z: -0.1595154106616974
visibility: 0.9992471933364868
","x: 247.49453735351562
y: 289.4276123046875
z: -0.15952783823013306
visibility: 0.9991615414619446
","x: 258.0033874511719
y: 292.30377197265625
z: -0.06836255639791489
visibility: 0.9976987838745117
","x: 245.64906311035156
y: 291.27813720703125
z: -0.07328740507364273
visibility: 0.9978647232055664
","x: 252.66697692871094
y: 301.75457763671875
z: -0.1421903669834137
visibility: 0.9995157122612
","x: 249.19252014160156
y: 301.9844665527344
z: -0.14378182590007782
visibility: 0.9995617866516113
","x: 266.3111572265625
y: 326.9746398925781
z: -0.023809608072042465
visibility: 0.9998330473899841
","x: 236.22882080078125
y: 320.9927978515625
z: -0.0376826748251915
visibility: 0.9993400573730469
","x: 272.6575012207031
y: 368.01531982421875
z: -0.06188824027776718
visibility: 0.9703693985939026
","x: 230.27313232421875
y: 354.0186767578125
z: -0.10521610826253891
visibility: 0.9848820567131042
","x: 264.01519775390625
y: 392.56024169921875
z: -0.18110331892967224
visibility: 0.978124737739563
","x: 230.67086791992188
y: 374.57904052734375
z: -0.24051423370838165
visibility: 0.9850693345069885
","x: 261.0602722167969
y: 399.1465759277344
z: -0.21276788413524628
visibility: 0.9593358635902405
","x: 231.18209838867188
y: 384.6867370605469
z: -0.2794881761074066
visibility: 0.9699077606201172
","x: 259.16497802734375
y: 397.4834899902344
z: -0.225197434425354
visibility: 0.9642389416694641
","x: 234.356201171875
y: 383.017578125
z: -0.28937631845474243
visibility: 0.9711787104606628
","x: 259.58502197265625
y: 396.4035339355469
z: -0.18774238228797913
visibility: 0.9515003561973572
","x: 235.00979614257812
y: 379.0102844238281
z: -0.2476208209991455
visibility: 0.9597271680831909
","x: 258.68975830078125
y: 404.2696533203125
z: 0.014996361918747425
visibility: 0.9996225833892822
","x: 241.345947265625
y: 400.5401306152344
z: -0.015071539208292961
visibility: 0.999355137348175
","x: 260.11260986328125
y: 460.6872863769531
z: -0.00646026199683547
visibility: 0.9381723403930664
","x: 244.84954833984375
y: 453.445068359375
z: -0.1723366528749466
visibility: 0.9032242894172668
","x: 255.66702270507812
y: 505.91448974609375
z: 0.1749259978532791
visibility: 0.8708371520042419
","x: 242.5481414794922
y: 512.6940307617188
z: -0.03912711143493652
visibility: 0.8153311610221863
","x: 253.98565673828125
y: 510.6146545410156
z: 0.1882457584142685
visibility: 0.7756862640380859
","x: 242.88247680664062
y: 517.9526977539062
z: -0.029824256896972656
visibility: 0.6351855397224426
","x: 257.787841796875
y: 526.9508056640625
z: 0.10799272358417511
visibility: 0.8881014585494995
","x: 242.75267028808594
y: 531.4010009765625
z: -0.12720777094364166
visibility: 0.8148192167282104
",,,,,,,,,,,,,,,,,,,,,,"x: 233.80152893066406
y: 370.7740783691406
z: 0.0
","x: 235.0077667236328
y: 376.4844055175781
z: 0.0023384839296340942
","x: 235.04214477539062
y: 382.76666259765625
z: 0.002556085353717208
","x: 235.37168884277344
y: 387.2242736816406
z: 0.0019788851495832205
","x: 236.15724182128906
y: 390.4283142089844
z: 0.001357785426080227
","x: 233.33872985839844
y: 385.9240417480469
z: 0.0010128389112651348
","x: 233.60633850097656
y: 393.3387451171875
z: -0.0006125103100202978
","x: 234.3960723876953
y: 397.25103759765625
z: -0.0014876977074891329
","x: 235.24899291992188
y: 400.20404052734375
z: -0.0019867196679115295
","x: 233.73129272460938
y: 385.3735656738281
z: -0.0016288416227325797
","x: 234.62164306640625
y: 392.7236328125
z: -0.003234278876334429
","x: 235.86245727539062
y: 396.81976318359375
z: -0.003731370437890291
","x: 237.19741821289062
y: 400.0445861816406
z: -0.004167013335973024
","x: 234.63099670410156
y: 383.94256591796875
z: -0.004273897036910057
","x: 235.8616180419922
y: 390.5667419433594
z: -0.00583263486623764
","x: 237.06668090820312
y: 394.5259094238281
z: -0.0060126325115561485
","x: 238.25050354003906
y: 397.6840515136719
z: -0.0062631783075630665
","x: 235.91563415527344
y: 381.93487548828125
z: -0.006855101324617863
","x: 237.0808563232422
y: 386.8468933105469
z: -0.008134054020047188
","x: 238.0414581298828
y: 390.007568359375
z: -0.00831017829477787
","x: 238.9634246826172
y: 392.635009765625
z: -0.008504750207066536
"
10,"x: 253.0810546875
y: 277.9897766113281
z: -0.22241799533367157
visibility: 0.9997813701629639
","x: 254.82012939453125
y: 273.44268798828125
z: -0.2102999985218048
visibility: 0.9994027614593506
","x: 255.95266723632812
y: 273.73175048828125
z: -0.21029333770275116
visibility: 0.9993405938148499
","x: 257.1469421386719
y: 274.0752868652344
z: -0.21031709015369415
visibility: 0.9993117451667786
","x: 251.6072235107422
y: 273.2961730957031
z: -0.20605185627937317
visibility: 0.9993744492530823
","x: 250.2409210205078
y: 273.455078125
z: -0.20601136982440948
visibility: 0.999320924282074
","x: 248.83444213867188
y: 273.6966552734375
z: -0.20598682761192322
visibility: 0.9992433190345764
","x: 259.1061096191406
y: 278.0589904785156
z: -0.126934215426445
visibility: 0.9979275465011597
","x: 246.6359100341797
y: 276.9695739746094
z: -0.10037090629339218
visibility: 0.9980767965316772
","x: 254.88307189941406
y: 284.3218688964844
z: -0.1917089819908142
visibility: 0.9995639324188232
","x: 251.0009765625
y: 284.406005859375
z: -0.18523314595222473
visibility: 0.9996053576469421
","x: 268.4735107421875
y: 310.76837158203125
z: -0.07155083119869232
visibility: 0.9998489022254944
","x: 237.15032958984375
y: 306.76617431640625
z: -0.049735862761735916
visibility: 0.9994051456451416
","x: 281.88165283203125
y: 344.9190673828125
z: -0.18289808928966522
visibility: 0.9730466604232788
","x: 229.04055786132812
y: 342.246826171875
z: -0.036462001502513885
visibility: 0.9860437512397766
","x: 275.5770263671875
y: 315.9485778808594
z: -0.3715621531009674
visibility: 0.9797847867012024
","x: 213.96934509277344
y: 370.6085205078125
z: -0.09358206391334534
visibility: 0.9859979152679443
","x: 273.8866271972656
y: 308.1180419921875
z: -0.40643101930618286
visibility: 0.961509108543396
","x: 208.28770446777344
y: 381.45001220703125
z: -0.10366064310073853
visibility: 0.9711406826972961
","x: 270.02313232421875
y: 305.150390625
z: -0.4009931981563568
visibility: 0.9658738374710083
","x: 208.3861083984375
y: 378.7591247558594
z: -0.12902995944023132
visibility: 0.9724284410476685
","x: 269.919189453125
y: 308.82794189453125
z: -0.3734026551246643
visibility: 0.9532034993171692
","x: 210.37014770507812
y: 375.8152770996094
z: -0.1048775464296341
visibility: 0.9616840481758118
","x: 262.5325012207031
y: 392.505615234375
z: 0.007907177321612835
visibility: 0.9996592402458191
","x: 243.9182891845703
y: 392.67041015625
z: -0.007994760759174824
visibility: 0.999416708946228
","x: 271.8064880371094
y: 444.0166931152344
z: -0.14830836653709412
visibility: 0.9441397786140442
","x: 243.34527587890625
y: 448.34844970703125
z: -0.025872111320495605
visibility: 0.9125784039497375
","x: 262.4471740722656
y: 499.2869873046875
z: 0.003237131517380476
visibility: 0.8833977580070496
","x: 245.84283447265625
y: 497.5857238769531
z: 0.19107511639595032
visibility: 0.8332611322402954
","x: 258.6177673339844
y: 504.7720947265625
z: 0.014101594686508179
visibility: 0.7962276935577393
","x: 249.10462951660156
y: 502.83154296875
z: 0.20694968104362488
visibility: 0.6670897006988525
","x: 269.97540283203125
y: 523.7633666992188
z: -0.08402194827795029
visibility: 0.8989269137382507
","x: 242.48350524902344
y: 520.1458129882812
z: 0.12495939433574677
visibility: 0.8325294852256775
",,,,,,,,,,,,,,,,,,,,,,,,,,,,,,,,,,,,,,,,,,
11,"x: 253.3444366455078
y: 280.9449462890625
z: -0.19598981738090515
visibility: 0.9998027086257935
","x: 255.0845184326172
y: 276.0407409667969
z: -0.18393681943416595
visibility: 0.9994611144065857
","x: 256.2803039550781
y: 276.1172790527344
z: -0.18396106362342834
visibility: 0.9994050860404968
","x: 257.5456848144531
y: 276.2961120605469
z: -0.1839880496263504
visibility: 0.9993787407875061
","x: 251.68118286132812
y: 276.5020751953125
z: -0.18251125514507294
visibility: 0.9994354844093323
","x: 250.3236541748047
y: 276.8716735839844
z: -0.18251125514507294
visibility: 0.9993867874145508
","x: 248.96633911132812
y: 277.3094482421875
z: -0.18250997364521027
visibility: 0.9993162155151367
","x: 259.6238708496094
y: 280.56158447265625
z: -0.103960320353508
visibility: 0.9981324076652527
","x: 246.86253356933594
y: 281.0180358886719
z: -0.09607342630624771
visibility: 0.9982675313949585
","x: 255.45135498046875
y: 287.24066162109375
z: -0.1660722941160202
visibility: 0.9996070861816406
","x: 251.44625854492188
y: 287.36431884765625
z: -0.16417506337165833
visibility: 0.99964439868927
","x: 270.2928161621094
y: 315.2759094238281
z: -0.04969814047217369
visibility: 0.9998598694801331
","x: 238.50315856933594
y: 310.2872314453125
z: -0.046778399497270584
visibility: 0.9994624853134155
","x: 284.3884582519531
y: 336.84326171875
z: -0.16097934544086456
visibility: 0.9751144051551819
","x: 225.0506134033203
y: 335.7894287109375
z: -0.04236115142703056
visibility: 0.9869632720947266
","x: 277.81817626953125
y: 303.04840087890625
z: -0.3435499370098114
visibility: 0.9799119234085083
","x: 207.76626586914062
y: 356.47210693359375
z: -0.10171063989400864
visibility: 0.9858331084251404
","x: 275.5104064941406
y: 295.9244079589844
z: -0.37495747208595276
visibility: 0.9589881300926208
","x: 201.3927001953125
y: 363.4527893066406
z: -0.1131160631775856
visibility: 0.9694747924804688
","x: 271.1150207519531
y: 294.5421142578125
z: -0.3664117753505707
visibility: 0.9625263214111328
","x: 200.51202392578125
y: 363.000244140625
z: -0.13151922821998596
visibility: 0.9709653854370117
","x: 272.05389404296875
y: 297.4911193847656
z: -0.3448008894920349
visibility: 0.9487383961677551
","x: 203.0615234375
y: 361.53948974609375
z: -0.11112572252750397
visibility: 0.9604228138923645
","x: 262.6405944824219
y: 394.5700378417969
z: 0.009762229397892952
visibility: 0.9996923804283142
","x: 243.797607421875
y: 393.39642333984375
z: -0.009831244125962257
visibility: 0.9994709491729736
","x: 278.958251953125
y: 442.2378845214844
z: -0.13612455129623413
visibility: 0.9495861530303955
","x: 243.55227661132812
y: 449.4571228027344
z: 0.02252374216914177
visibility: 0.9209966659545898
","x: 280.1237487792969
y: 501.6383361816406
z: -0.04276340454816818
visibility: 0.894831657409668
","x: 245.4160919189453
y: 498.2797546386719
z: 0.21219921112060547
visibility: 0.8491817712783813
","x: 276.1551818847656
y: 508.8990783691406
z: -0.03728470951318741
visibility: 0.8155194520950317
","x: 248.47128295898438
y: 503.6484069824219
z: 0.22620205581188202
visibility: 0.6910719871520996
","x: 288.3450622558594
y: 523.776123046875
z: -0.13599643111228943
visibility: 0.9087244868278503
","x: 242.2532501220703
y: 517.68798828125
z: 0.14343802630901337
visibility: 0.8478980660438538
",,,,,,,,,,,,,,,,,,,,,,,,,,,,,,,,,,,,,,,,,,
12,"x: 254.31158447265625
y: 285.6601257324219
z: -0.19076935946941376
visibility: 0.9998209476470947
","x: 255.86468505859375
y: 280.6985168457031
z: -0.17876914143562317
visibility: 0.9995103478431702
","x: 256.9902038574219
y: 280.7806396484375
z: -0.1787991225719452
visibility: 0.9994597434997559
","x: 258.19580078125
y: 280.9405212402344
z: -0.178829625248909
visibility: 0.9994353652000427
","x: 252.6284637451172
y: 280.9212646484375
z: -0.17755551636219025
visibility: 0.9994862079620361
","x: 251.33245849609375
y: 281.1416320800781
z: -0.17755982279777527
visibility: 0.9994405508041382
","x: 250.05003356933594
y: 281.417724609375
z: -0.17756009101867676
visibility: 0.999375581741333
","x: 260.4095764160156
y: 284.6134033203125
z: -0.1006210669875145
visibility: 0.9983110427856445
","x: 248.00314331054688
y: 284.55450439453125
z: -0.09446893632411957
visibility: 0.9984353184700012
","x: 256.3800964355469
y: 291.67132568359375
z: -0.16140995919704437
visibility: 0.9996446371078491
","x: 252.4069366455078
y: 291.7067565917969
z: -0.1598612517118454
visibility: 0.999678373336792
","x: 270.15594482421875
y: 317.7557067871094
z: -0.05454886704683304
visibility: 0.999869704246521
","x: 239.64230346679688
y: 311.1399230957031
z: -0.03722032159566879
visibility: 0.9995133876800537
","x: 283.7371826171875
y: 343.93896484375
z: -0.16572365164756775
visibility: 0.9772846698760986
","x: 225.15640258789062
y: 335.8052062988281
z: -0.011496078222990036
visibility: 0.987769365310669
","x: 280.4010314941406
y: 315.8157043457031
z: -0.34197375178337097
visibility: 0.9814571738243103
","x: 209.20025634765625
y: 349.9163513183594
z: -0.05494661256670952
visibility: 0.986383318901062
","x: 279.45355224609375
y: 306.6220397949219
z: -0.37449026107788086
visibility: 0.9613124132156372
","x: 202.862060546875
y: 354.9488525390625
z: -0.06586486846208572
visibility: 0.9697705507278442
","x: 276.58941650390625
y: 304.6324768066406
z: -0.36739176511764526
visibility: 0.9643863439559937
","x: 202.62649536132812
y: 354.22198486328125
z: -0.08490414917469025
visibility: 0.9713665843009949
","x: 276.82952880859375
y: 308.4123840332031
z: -0.3442528545856476
visibility: 0.9511537551879883
","x: 205.14300537109375
y: 353.49261474609375
z: -0.06491516530513763
visibility: 0.9616807699203491
","x: 265.27703857421875
y: 400.3485107421875
z: 0.005965634249150753
visibility: 0.9997175931930542
","x: 246.02474975585938
y: 401.2597351074219
z: -0.006003422662615776
visibility: 0.9995161890983582
","x: 278.599609375
y: 447.8380126953125
z: -0.048623133450746536
visibility: 0.954322338104248
","x: 243.67181396484375
y: 453.4363098144531
z: -0.004399640951305628
visibility: 0.9285677075386047
","x: 282.66461181640625
y: 506.4457702636719
z: 0.043054692447185516
visibility: 0.9048744440078735
","x: 245.43734741210938
y: 500.0701599121094
z: 0.1637967824935913
visibility: 0.8637531995773315
","x: 279.29510498046875
y: 514.9597778320312
z: 0.038211386650800705
visibility: 0.8308170437812805
","x: 248.35012817382812
y: 507.02642822265625
z: 0.17573297023773193
visibility: 0.7163743376731873
","x: 290.52081298828125
y: 524.9225463867188
z: -0.06892453134059906
visibility: 0.9171956181526184
","x: 242.40869140625
y: 517.5285034179688
z: 0.09077129513025284
visibility: 0.862278938293457
",,,,,,,,,,,,,,,,,,,,,,,,,,,,,,,,,,,,,,,,,,
13,"x: 253.8485870361328
y: 288.73095703125
z: -0.168620765209198
visibility: 0.9998367428779602
","x: 255.55667114257812
y: 284.0255126953125
z: -0.15658476948738098
visibility: 0.9995434284210205
","x: 256.6718444824219
y: 284.2685546875
z: -0.15659931302070618
visibility: 0.9994974732398987
","x: 257.8394470214844
y: 284.49359130859375
z: -0.15660300850868225
visibility: 0.9994712471961975
","x: 252.4961700439453
y: 284.0547790527344
z: -0.15438155829906464
visibility: 0.9995222687721252
","x: 251.38540649414062
y: 284.28143310546875
z: -0.15439967811107635
visibility: 0.9994783997535706
","x: 250.28208923339844
y: 284.4542541503906
z: -0.15443189442157745
visibility: 0.9994191527366638
","x: 260.0860595703125
y: 289.418212890625
z: -0.08417292684316635
visibility: 0.9984468221664429
","x: 249.0804901123047
y: 288.8948974609375
z: -0.07382644712924957
visibility: 0.9985799193382263
","x: 255.8671417236328
y: 295.4927673339844
z: -0.14165307581424713
visibility: 0.999673068523407
","x: 252.02005004882812
y: 295.64190673828125
z: -0.13871195912361145
visibility: 0.9997050166130066
","x: 269.8473205566406
y: 325.5483703613281
z: -0.04213615879416466
visibility: 0.9998722076416016
","x: 239.2671661376953
y: 313.1528015136719
z: -0.02378111146390438
visibility: 0.9995596408843994
","x: 284.5447998046875
y: 346.5923767089844
z: -0.11746525764465332
visibility: 0.9787153601646423
","x: 220.3749542236328
y: 332.315185546875
z: -0.013086187653243542
visibility: 0.9886934757232666
","x: 294.3650207519531
y: 324.61175537109375
z: -0.25943881273269653
visibility: 0.9825705289840698
","x: 202.80960083007812
y: 342.0063781738281
z: -0.07050272077322006
visibility: 0.9874752163887024
","x: 297.4570007324219
y: 319.46453857421875
z: -0.28069838881492615
visibility: 0.9629226326942444
","x: 196.56704711914062
y: 344.4763488769531
z: -0.08263379335403442
visibility: 0.9717268347740173
","x: 296.80487060546875
y: 315.3194580078125
z: -0.2829543948173523
visibility: 0.9658262729644775
","x: 196.31924438476562
y: 344.06939697265625
z: -0.10143844038248062
visibility: 0.9732990860939026
","x: 295.0760192871094
y: 317.5444641113281
z: -0.26541799306869507
visibility: 0.9535619616508484
","x: 198.0425567626953
y: 343.8475036621094
z: -0.08126411586999893
visibility: 0.9646171927452087
","x: 264.8858947753906
y: 403.02374267578125
z: -0.0017134910449385643
visibility: 0.999710738658905
","x: 246.42092895507812
y: 405.54095458984375
z: 0.001675120904110372
visibility: 0.9995505809783936
","x: 275.451416015625
y: 452.5090026855469
z: -0.06150339916348457
visibility: 0.9573352932929993
","x: 238.8374786376953
y: 454.8178405761719
z: -0.11240999400615692
visibility: 0.935417890548706
","x: 282.4700012207031
y: 507.0196838378906
z: 0.055102698504924774
visibility: 0.9126672744750977
","x: 250.44544982910156
y: 501.9342041015625
z: 0.05059905722737312
visibility: 0.8766693472862244
","x: 280.5510559082031
y: 514.7188720703125
z: 0.04902716726064682
visibility: 0.8361258506774902
","x: 256.419921875
y: 509.17193603515625
z: 0.06293027102947235
visibility: 0.740922212600708
","x: 289.47320556640625
y: 524.4761962890625
z: -0.03035767748951912
visibility: 0.9231991171836853
","x: 242.51341247558594
y: 517.818115234375
z: -0.010201169177889824
visibility: 0.8750898838043213
",,,,,,,,,,,,,,,,,,,,,,,,,,,,,,,,,,,,,,,,,,
14,"x: 250.73727416992188
y: 294.7234191894531
z: -0.18891599774360657
visibility: 0.9998475909233093
","x: 253.11753845214844
y: 290.0439147949219
z: -0.17877399921417236
visibility: 0.9995648860931396
","x: 254.37063598632812
y: 290.1163330078125
z: -0.17879649996757507
visibility: 0.9995291233062744
","x: 255.6833038330078
y: 290.1907043457031
z: -0.17881952226161957
visibility: 0.9994962811470032
","x: 250.193603515625
y: 290.1089782714844
z: -0.17214304208755493
visibility: 0.9995235800743103
","x: 249.35476684570312
y: 290.185302734375
z: -0.17216689884662628
visibility: 0.9994815587997437
","x: 248.54885864257812
y: 290.2413635253906
z: -0.17215314507484436
visibility: 0.999426007270813
","x: 259.0177001953125
y: 293.4866943359375
z: -0.11323435604572296
visibility: 0.9985882639884949
","x: 248.87228393554688
y: 293.2488708496094
z: -0.07191897928714752
visibility: 0.9986637830734253
","x: 253.4346160888672
y: 301.0461730957031
z: -0.16142071783542633
visibility: 0.9997012615203857
","x: 249.4282684326172
y: 300.97052001953125
z: -0.15231257677078247
visibility: 0.9997254610061646
","x: 269.55938720703125
y: 327.12567138671875
z: -0.0944335088133812
visibility: 0.9998835921287537
","x: 239.10227966308594
y: 316.59820556640625
z: 0.009697562083601952
visibility: 0.9995989203453064
","x: 287.57379150390625
y: 336.22607421875
z: -0.18532708287239075
visibility: 0.9806270003318787
","x: 217.3707733154297
y: 329.48388671875
z: 0.032128311693668365
visibility: 0.9891138076782227
","x: 301.41375732421875
y: 332.0860290527344
z: -0.32808488607406616
visibility: 0.9833518266677856
","x: 199.4823760986328
y: 333.9123229980469
z: -0.04022710770368576
visibility: 0.9884951114654541
","x: 306.0171203613281
y: 330.313232421875
z: -0.3586406111717224
visibility: 0.9639895558357239
","x: 192.6412353515625
y: 335.6877136230469
z: -0.05076257139444351
visibility: 0.9738328456878662
","x: 305.4474792480469
y: 327.33392333984375
z: -0.3675556480884552
visibility: 0.96694415807724
","x: 192.95748901367188
y: 334.69488525390625
z: -0.07229606062173843
visibility: 0.9753572344779968
","x: 303.4273681640625
y: 328.38623046875
z: -0.3367759585380554
visibility: 0.9557390809059143
","x: 195.01686096191406
y: 334.5682373046875
z: -0.05215638875961304
visibility: 0.9675652980804443
","x: 261.8882141113281
y: 403.2978820800781
z: -0.04178180918097496
visibility: 0.9997353553771973
","x: 244.27230834960938
y: 407.2569580078125
z: 0.041794706135988235
visibility: 0.9995869398117065
","x: 265.6171569824219
y: 452.9378662109375
z: -0.19161058962345123
visibility: 0.9611529111862183
","x: 237.77615356445312
y: 460.9190673828125
z: 0.0021657696925103664
visibility: 0.937752366065979
","x: 287.6928405761719
y: 500.26263427734375
z: -0.04652779549360275
visibility: 0.9209099411964417
","x: 254.52552795410156
y: 503.2345275878906
z: 0.16305868327617645
visibility: 0.8870677947998047
","x: 292.6353759765625
y: 499.2237548828125
z: -0.03537497669458389
visibility: 0.8445841670036316
","x: 260.51904296875
y: 510.07135009765625
z: 0.1748179942369461
visibility: 0.7620342969894409
","x: 289.222412109375
y: 524.0911254882812
z: -0.11609991639852524
visibility: 0.9301300048828125
","x: 245.47158813476562
y: 520.6689453125
z: 0.10360191017389297
visibility: 0.885401725769043
",,,,,,,,,,,,,,,,,,,,,,,,,,,,,,,,,,,,,,,,,,
15,"x: 248.47520446777344
y: 296.940673828125
z: -0.1467888206243515
visibility: 0.9998626112937927
","x: 250.41329956054688
y: 292.1353454589844
z: -0.13994263112545013
visibility: 0.999608039855957
","x: 251.66224670410156
y: 291.8954162597656
z: -0.1399259865283966
visibility: 0.9995758533477783
","x: 252.94618225097656
y: 291.650634765625
z: -0.1399635374546051
visibility: 0.9995463490486145
","x: 247.5693817138672
y: 292.86041259765625
z: -0.1305140107870102
visibility: 0.9995705485343933
","x: 246.76881408691406
y: 293.0658264160156
z: -0.13052958250045776
visibility: 0.9995324611663818
","x: 245.98257446289062
y: 293.33209228515625
z: -0.13047602772712708
visibility: 0.9994826316833496
","x: 256.8618469238281
y: 293.8219909667969
z: -0.08216260373592377
visibility: 0.9987292289733887
","x: 246.50527954101562
y: 295.2416687011719
z: -0.03708217665553093
visibility: 0.9987961649894714
","x: 251.32223510742188
y: 302.2106628417969
z: -0.12444591522216797
visibility: 0.9997310638427734
","x: 247.38925170898438
y: 302.8505554199219
z: -0.11180780082941055
visibility: 0.9997525811195374
","x: 268.7884521484375
y: 325.39556884765625
z: -0.062685027718544
visibility: 0.9998949766159058
","x: 238.68496704101562
y: 318.593017578125
z: 0.01575120911002159
visibility: 0.9996352195739746
","x: 291.00115966796875
y: 327.9566650390625
z: -0.1877358853816986
visibility: 0.9825058579444885
","x: 218.89340209960938
y: 328.5762939453125
z: -0.0042067645117640495
visibility: 0.9896232485771179
","x: 282.28387451171875
y: 333.19293212890625
z: -0.3307632803916931
visibility: 0.9845207929611206
","x: 202.5149688720703
y: 334.3145446777344
z: -0.15085700154304504
visibility: 0.989220142364502
","x: 278.3040771484375
y: 335.2293395996094
z: -0.36282381415367126
visibility: 0.9654935002326965
","x: 197.4913787841797
y: 335.5841369628906
z: -0.17523595690727234
visibility: 0.9753627777099609
","x: 275.5633850097656
y: 332.24432373046875
z: -0.35192739963531494
visibility: 0.9681113958358765
","x: 197.74050903320312
y: 334.6439208984375
z: -0.1884358674287796
visibility: 0.9768351316452026
","x: 276.1319580078125
y: 332.2539978027344
z: -0.32909154891967773
visibility: 0.9571642875671387
","x: 199.42294311523438
y: 334.9798889160156
z: -0.16118435561656952
visibility: 0.9696031212806702
","x: 258.76104736328125
y: 400.38433837890625
z: -0.025371750816702843
visibility: 0.999761164188385
","x: 240.85647583007812
y: 402.9937438964844
z: 0.025343868881464005
visibility: 0.9996214509010315
","x: 258.4085693359375
y: 435.3123474121094
z: -0.28022995591163635
visibility: 0.9639899134635925
","x: 237.8486328125
y: 454.2485046386719
z: -0.08560526371002197
visibility: 0.9380631446838379
","x: 270.0971374511719
y: 502.522216796875
z: -0.2428327351808548
visibility: 0.9273392558097839
","x: 252.77426147460938
y: 501.89141845703125
z: 0.022296201437711716
visibility: 0.8904312252998352
","x: 274.7940673828125
y: 505.5994873046875
z: -0.24182648956775665
visibility: 0.8531721830368042
","x: 256.37506103515625
y: 506.7030334472656
z: 0.03027607500553131
visibility: 0.7596526741981506
","x: 266.8406982421875
y: 525.8970947265625
z: -0.34491416811943054
visibility: 0.936068058013916
","x: 249.9739227294922
y: 523.0468139648438
z: -0.04501452296972275
visibility: 0.8904464244842529
",,,,,,,,,,,,,,,,,,,,,,,,,,,,,,,,,,,,,,,,,,
16,"x: 247.0380859375
y: 299.547607421875
z: -0.13471344113349915
visibility: 0.9998685121536255
","x: 248.46575927734375
y: 294.3265075683594
z: -0.12614603340625763
visibility: 0.999636173248291
","x: 249.58697509765625
y: 293.9627685546875
z: -0.12619538605213165
visibility: 0.9996082186698914
","x: 250.77105712890625
y: 293.61383056640625
z: -0.12624679505825043
visibility: 0.999582827091217
","x: 245.7145233154297
y: 295.51214599609375
z: -0.11767991632223129
visibility: 0.9995889663696289
","x: 244.9080810546875
y: 295.92413330078125
z: -0.11768249422311783
visibility: 0.9995421171188354
","x: 244.11996459960938
y: 296.35394287109375
z: -0.11770900338888168
visibility: 0.9994937181472778
","x: 253.8979949951172
y: 295.52685546875
z: -0.05991630628705025
visibility: 0.9988429546356201
","x: 244.11915588378906
y: 298.7917175292969
z: -0.023166723549365997
visibility: 0.9988574981689453
","x: 249.54116821289062
y: 304.1046447753906
z: -0.1094399094581604
visibility: 0.9997521638870239
","x: 246.07174682617188
y: 305.8471374511719
z: -0.09916017949581146
visibility: 0.9997613430023193
","x: 265.81072998046875
y: 328.22955322265625
z: -0.0346984937787056
visibility: 0.9998986721038818
","x: 238.60459899902344
y: 323.3390808105469
z: 0.041314758360385895
visibility: 0.9995959997177124
","x: 280.67388916015625
y: 349.6136474609375
z: -0.16359277069568634
visibility: 0.9837266802787781
","x: 227.55043029785156
y: 341.96533203125
z: 0.034618087112903595
visibility: 0.9766806364059448
","x: 271.4742431640625
y: 323.0044250488281
z: -0.3130008578300476
visibility: 0.9851495623588562
","x: 221.55911254882812
y: 340.2380676269531
z: -0.0734328031539917
visibility: 0.9778624176979065
","x: 268.9420471191406
y: 315.54998779296875
z: -0.34397298097610474
visibility: 0.9663514494895935
","x: 219.02847290039062
y: 342.2787780761719
z: -0.08876444399356842
visibility: 0.96010422706604
","x: 268.2562561035156
y: 313.1406555175781
z: -0.33898645639419556
visibility: 0.9685855507850647
","x: 220.5449981689453
y: 341.65582275390625
z: -0.09865839779376984
visibility: 0.9621233344078064
","x: 268.3674621582031
y: 317.13177490234375
z: -0.31263047456741333
visibility: 0.9569069743156433
","x: 221.29046630859375
y: 340.0226135253906
z: -0.08050831407308578
visibility: 0.9530501365661621
","x: 256.4716796875
y: 402.34613037109375
z: -0.02413347363471985
visibility: 0.9997799396514893
","x: 241.24020385742188
y: 404.5105285644531
z: 0.024163896217942238
visibility: 0.9996340274810791
","x: 251.82821655273438
y: 437.4667663574219
z: -0.17617323994636536
visibility: 0.9614788889884949
","x: 238.32798767089844
y: 463.42645263671875
z: -0.015507559292018414
visibility: 0.9338392019271851
","x: 248.7294921875
y: 507.51220703125
z: -0.08564939349889755
visibility: 0.9300407767295837
","x: 253.12445068359375
y: 501.89312744140625
z: 0.15913143754005432
visibility: 0.8781237602233887
","x: 248.18719482421875
y: 513.5867919921875
z: -0.07900340855121613
visibility: 0.859747588634491
","x: 255.39883422851562
y: 504.9891357421875
z: 0.17484034597873688
visibility: 0.7526198625564575
","x: 249.71063232421875
y: 526.2919311523438
z: -0.16488274931907654
visibility: 0.9391367435455322
","x: 254.01048278808594
y: 523.325439453125
z: 0.11792129278182983
visibility: 0.8778404593467712
","x: 269.1483459472656
y: 323.1643981933594
z: 0.0
","x: 265.23345947265625
y: 318.7054138183594
z: 0.0033630263060331345
","x: 263.63458251953125
y: 313.7677917480469
z: 0.0041101849637925625
","x: 262.7377624511719
y: 309.6047668457031
z: 0.0033655439037829638
","x: 262.1307678222656
y: 306.33795166015625
z: 0.0031257292721420527
","x: 265.4155578613281
y: 308.0733642578125
z: 0.005902206990867853
","x: 262.80291748046875
y: 304.677734375
z: 0.004321377724409103
","x: 262.10369873046875
y: 307.92718505859375
z: 0.0036014996003359556
","x: 262.45233154296875
y: 311.07293701171875
z: 0.003551991656422615
","x: 266.03997802734375
y: 307.67047119140625
z: 0.002865222282707691
","x: 262.81744384765625
y: 304.8531494140625
z: 0.0009193072328343987
","x: 262.5389709472656
y: 308.7994079589844
z: 0.00022157284547574818
","x: 263.4731750488281
y: 312.09637451171875
z: 0.00041942251846194267
","x: 266.6558837890625
y: 307.7155456542969
z: -0.0005074198707006872
","x: 263.4898376464844
y: 305.8274230957031
z: -0.001845609163865447
","x: 263.4916076660156
y: 309.8323974609375
z: -0.0011974299559369683
","x: 264.48583984375
y: 312.817138671875
z: -0.000273683835985139
","x: 267.2756652832031
y: 308.10125732421875
z: -0.003906307276338339
","x: 264.443115234375
y: 306.6350402832031
z: -0.004010340198874474
","x: 264.2169494628906
y: 309.62939453125
z: -0.0030935178510844707
","x: 264.9892578125
y: 312.2448425292969
z: -0.0021575437858700752
",,,,,,,,,,,,,,,,,,,,,
17,"x: 247.0380859375
y: 299.547607421875
z: -0.13471344113349915
visibility: 0.9998685121536255
","x: 248.46575927734375
y: 294.3265075683594
z: -0.12614603340625763
visibility: 0.999636173248291
","x: 249.58697509765625
y: 293.9627685546875
z: -0.12619538605213165
visibility: 0.9996082186698914
","x: 250.77105712890625
y: 293.61383056640625
z: -0.12624679505825043
visibility: 0.999582827091217
","x: 245.7145233154297
y: 295.51214599609375
z: -0.11767991632223129
visibility: 0.9995889663696289
","x: 244.9080810546875
y: 295.92413330078125
z: -0.11768249422311783
visibility: 0.9995421171188354
","x: 244.11996459960938
y: 296.35394287109375
z: -0.11770900338888168
visibility: 0.9994937181472778
","x: 253.8979949951172
y: 295.52685546875
z: -0.05991630628705025
visibility: 0.9988429546356201
","x: 244.11915588378906
y: 298.7917175292969
z: -0.023166723549365997
visibility: 0.9988574981689453
","x: 249.54116821289062
y: 304.1046447753906
z: -0.1094399094581604
visibility: 0.9997521638870239
","x: 246.07174682617188
y: 305.8471374511719
z: -0.09916017949581146
visibility: 0.9997613430023193
","x: 265.81072998046875
y: 328.22955322265625
z: -0.0346984937787056
visibility: 0.9998986721038818
","x: 238.60459899902344
y: 323.3390808105469
z: 0.041314758360385895
visibility: 0.9995959997177124
","x: 280.67388916015625
y: 349.6136474609375
z: -0.16359277069568634
visibility: 0.9837266802787781
","x: 227.55043029785156
y: 341.96533203125
z: 0.034618087112903595
visibility: 0.9766806364059448
","x: 271.4742431640625
y: 323.0044250488281
z: -0.3130008578300476
visibility: 0.9851495623588562
","x: 221.55911254882812
y: 340.2380676269531
z: -0.0734328031539917
visibility: 0.9778624176979065
","x: 268.9420471191406
y: 315.54998779296875
z: -0.34397298097610474
visibility: 0.9663514494895935
","x: 219.02847290039062
y: 342.2787780761719
z: -0.08876444399356842
visibility: 0.96010422706604
","x: 268.2562561035156
y: 313.1406555175781
z: -0.33898645639419556
visibility: 0.9685855507850647
","x: 220.5449981689453
y: 341.65582275390625
z: -0.09865839779376984
visibility: 0.9621233344078064
","x: 268.3674621582031
y: 317.13177490234375
z: -0.31263047456741333
visibility: 0.9569069743156433
","x: 221.29046630859375
y: 340.0226135253906
z: -0.08050831407308578
visibility: 0.9530501365661621
","x: 256.4716796875
y: 402.34613037109375
z: -0.02413347363471985
visibility: 0.9997799396514893
","x: 241.24020385742188
y: 404.5105285644531
z: 0.024163896217942238
visibility: 0.9996340274810791
","x: 251.82821655273438
y: 437.4667663574219
z: -0.17617323994636536
visibility: 0.9614788889884949
","x: 238.32798767089844
y: 463.42645263671875
z: -0.015507559292018414
visibility: 0.9338392019271851
","x: 248.7294921875
y: 507.51220703125
z: -0.08564939349889755
visibility: 0.9300407767295837
","x: 253.12445068359375
y: 501.89312744140625
z: 0.15913143754005432
visibility: 0.8781237602233887
","x: 248.18719482421875
y: 513.5867919921875
z: -0.07900340855121613
visibility: 0.859747588634491
","x: 255.39883422851562
y: 504.9891357421875
z: 0.17484034597873688
visibility: 0.7526198625564575
","x: 249.71063232421875
y: 526.2919311523438
z: -0.16488274931907654
visibility: 0.9391367435455322
","x: 254.01048278808594
y: 523.325439453125
z: 0.11792129278182983
visibility: 0.8778404593467712
","x: 269.1483459472656
y: 323.1643981933594
z: 0.0
","x: 265.23345947265625
y: 318.7054138183594
z: 0.0033630263060331345
","x: 263.63458251953125
y: 313.7677917480469
z: 0.0041101849637925625
","x: 262.7377624511719
y: 309.6047668457031
z: 0.0033655439037829638
","x: 262.1307678222656
y: 306.33795166015625
z: 0.0031257292721420527
","x: 265.4155578613281
y: 308.0733642578125
z: 0.005902206990867853
","x: 262.80291748046875
y: 304.677734375
z: 0.004321377724409103
","x: 262.10369873046875
y: 307.92718505859375
z: 0.0036014996003359556
","x: 262.45233154296875
y: 311.07293701171875
z: 0.003551991656422615
","x: 266.03997802734375
y: 307.67047119140625
z: 0.002865222282707691
","x: 262.81744384765625
y: 304.8531494140625
z: 0.0009193072328343987
","x: 262.5389709472656
y: 308.7994079589844
z: 0.00022157284547574818
","x: 263.4731750488281
y: 312.09637451171875
z: 0.00041942251846194267
","x: 266.6558837890625
y: 307.7155456542969
z: -0.0005074198707006872
","x: 263.4898376464844
y: 305.8274230957031
z: -0.001845609163865447
","x: 263.4916076660156
y: 309.8323974609375
z: -0.0011974299559369683
","x: 264.48583984375
y: 312.817138671875
z: -0.000273683835985139
","x: 267.2756652832031
y: 308.10125732421875
z: -0.003906307276338339
","x: 264.443115234375
y: 306.6350402832031
z: -0.004010340198874474
","x: 264.2169494628906
y: 309.62939453125
z: -0.0030935178510844707
","x: 264.9892578125
y: 312.2448425292969
z: -0.0021575437858700752
",,,,,,,,,,,,,,,,,,,,,
18,"x: 242.58518981933594
y: 303.2359924316406
z: -0.051969826221466064
visibility: 0.9998424053192139
","x: 244.45982360839844
y: 297.8320007324219
z: -0.04815658554434776
visibility: 0.9996377825737
","x: 245.42849731445312
y: 297.658203125
z: -0.04823281615972519
visibility: 0.9996269345283508
","x: 246.46731567382812
y: 297.565673828125
z: -0.048307307064533234
visibility: 0.999603807926178
","x: 242.39276123046875
y: 298.5098876953125
z: -0.03254222124814987
visibility: 0.9995654821395874
","x: 241.90899658203125
y: 298.75128173828125
z: -0.032538462430238724
visibility: 0.9995131492614746
","x: 241.41978454589844
y: 299.0550842285156
z: -0.03251912444829941
visibility: 0.9994837045669556
","x: 249.9432830810547
y: 300.1241760253906
z: -0.01237226091325283
visibility: 0.9989358186721802
","x: 242.7051239013672
y: 301.7526550292969
z: 0.05912411957979202
visibility: 0.9988996386528015
","x: 244.56060791015625
y: 307.988525390625
z: -0.03895171359181404
visibility: 0.9997280240058899
","x: 242.38829040527344
y: 308.69305419921875
z: -0.018415924161672592
visibility: 0.9996382594108582
","x: 257.5876159667969
y: 328.4396057128906
z: -0.04135369509458542
visibility: 0.9999067783355713
","x: 239.34439086914062
y: 327.1466369628906
z: 0.14629685878753662
visibility: 0.9994086027145386
","x: 272.51654052734375
y: 344.61224365234375
z: -0.20116181671619415
visibility: 0.9851696491241455
","x: 237.98179626464844
y: 348.5278015136719
z: 0.2932989001274109
visibility: 0.9018877148628235
","x: 272.91668701171875
y: 331.7669677734375
z: -0.3598007559776306
visibility: 0.9852669835090637
","x: 240.05381774902344
y: 349.04168701171875
z: 0.3805535137653351
visibility: 0.9429789185523987
","x: 272.50146484375
y: 317.62725830078125
z: -0.3896034359931946
visibility: 0.9662500023841858
","x: 240.23526000976562
y: 350.3361511230469
z: 0.401115357875824
visibility: 0.9258139133453369
","x: 271.3198547363281
y: 317.8668518066406
z: -0.38567668199539185
visibility: 0.9681082367897034
","x: 241.628662109375
y: 348.1402587890625
z: 0.39251846075057983
visibility: 0.928333580493927
","x: 271.0013732910156
y: 322.77349853515625
z: -0.36155110597610474
visibility: 0.9548245072364807
","x: 241.41232299804688
y: 346.8480224609375
z: 0.3800797462463379
visibility: 0.916736900806427
","x: 251.85235595703125
y: 402.47802734375
z: -0.06876036524772644
visibility: 0.9997988343238831
","x: 241.9979705810547
y: 404.36419677734375
z: 0.06874910742044449
visibility: 0.999657928943634
","x: 241.3098907470703
y: 450.7066650390625
z: -0.18944618105888367
visibility: 0.9626829028129578
","x: 235.999755859375
y: 455.9541320800781
z: 0.018267719075083733
visibility: 0.882252037525177
","x: 255.7317657470703
y: 513.9188232421875
z: -0.23081524670124054
visibility: 0.935295820236206
","x: 245.1895751953125
y: 501.89410400390625
z: 0.06741712242364883
visibility: 0.8508474826812744
","x: 250.32142639160156
y: 522.1434326171875
z: -0.2354847937822342
visibility: 0.869551956653595
","x: 246.42408752441406
y: 505.59228515625
z: 0.06741039454936981
visibility: 0.7422823905944824
","x: 247.4760284423828
y: 529.572998046875
z: -0.30001407861709595
visibility: 0.9438676238059998
","x: 240.73133850097656
y: 519.3317260742188
z: 0.02181333489716053
visibility: 0.8672505617141724
",,,,,,,,,,,,,,,,,,,,,,,,,,,,,,,,,,,,,,,,,,
19,"x: 239.17428588867188
y: 302.3770751953125
z: -0.045671913772821426
visibility: 0.9998546838760376
","x: 241.56260681152344
y: 297.9154357910156
z: -0.052135713398456573
visibility: 0.9996702671051025
","x: 242.32923889160156
y: 297.8817443847656
z: -0.052132248878479004
visibility: 0.9996601939201355
","x: 243.1484375
y: 297.9046630859375
z: -0.05213744193315506
visibility: 0.9996393918991089
","x: 240.38717651367188
y: 298.1293640136719
z: -0.03355277329683304
visibility: 0.9996045231819153
","x: 240.29580688476562
y: 298.2059631347656
z: -0.03354719653725624
visibility: 0.9995558261871338
","x: 240.21875
y: 298.315185546875
z: -0.033559154719114304
visibility: 0.9995303153991699
","x: 246.84991455078125
y: 300.50604248046875
z: -0.05027946084737778
visibility: 0.9990365505218506
","x: 242.96316528320312
y: 300.4815673828125
z: 0.030651679262518883
visibility: 0.9990046620368958
","x: 240.76080322265625
y: 307.314208984375
z: -0.04461205378174782
visibility: 0.9997473359107971
","x: 239.22869873046875
y: 307.5638122558594
z: -0.020511429756879807
visibility: 0.9996650218963623
","x: 253.1604766845703
y: 328.1985778808594
z: -0.10684947669506073
visibility: 0.9999118447303772
","x: 245.02041625976562
y: 328.5748291015625
z: 0.10954030603170395
visibility: 0.9994592070579529
","x: 243.73175048828125
y: 344.27288818359375
z: -0.23494747281074524
visibility: 0.9865046739578247
","x: 243.986328125
y: 359.6834716796875
z: 0.1867818534374237
visibility: 0.8332677483558655
","x: 228.60777282714844
y: 330.1988525390625
z: -0.335904985666275
visibility: 0.98638916015625
","x: 241.8094024658203
y: 374.87255859375
z: 0.19520434737205505
visibility: 0.8963115811347961
","x: 223.48004150390625
y: 325.00384521484375
z: -0.36430394649505615
visibility: 0.9689380526542664
","x: 241.20196533203125
y: 380.4302978515625
z: 0.2068779021501541
visibility: 0.885131299495697
","x: 223.7792205810547
y: 322.66925048828125
z: -0.3366638123989105
visibility: 0.9705445170402527
","x: 241.9961700439453
y: 377.6405334472656
z: 0.1912861168384552
visibility: 0.8873662948608398
","x: 225.98016357421875
y: 324.7958679199219
z: -0.3266369700431824
visibility: 0.9579105377197266
","x: 242.30352783203125
y: 375.4258728027344
z: 0.19010041654109955
visibility: 0.8754196166992188
","x: 243.06146240234375
y: 408.3996887207031
z: -0.08037055283784866
visibility: 0.9998149275779724
","x: 243.17282104492188
y: 407.1221923828125
z: 0.08031395822763443
visibility: 0.9996864795684814
","x: 222.49205017089844
y: 455.5242919921875
z: -0.11828631162643433
visibility: 0.9659348726272583
","x: 234.0289764404297
y: 457.7182312011719
z: 0.10920580476522446
visibility: 0.8330077528953552
","x: 245.22288513183594
y: 502.3074035644531
z: -0.12026187032461166
visibility: 0.9398468732833862
","x: 243.9423828125
y: 503.05621337890625
z: 0.1389170140028
visibility: 0.8448470830917358
","x: 251.22645568847656
y: 501.725830078125
z: -0.10334695875644684
visibility: 0.8808940052986145
","x: 247.4695281982422
y: 509.7690124511719
z: 0.1378193199634552
visibility: 0.752674400806427
","x: 243.18955993652344
y: 527.25
z: -0.05303081125020981
visibility: 0.9478712677955627
","x: 239.10252380371094
y: 522.7623901367188
z: 0.1196112185716629
visibility: 0.8672584295272827
",,,,,,,,,,,,,,,,,,,,,,,,,,,,,,,,,,,,,,,,,,
20,"x: 241.18077087402344
y: 305.9639892578125
z: 0.1244359165430069
visibility: 0.9998658299446106
","x: 241.83216857910156
y: 301.4625244140625
z: 0.1033017486333847
visibility: 0.9996984601020813
","x: 241.59768676757812
y: 301.4983825683594
z: 0.10328887403011322
visibility: 0.9996899366378784
","x: 241.27890014648438
y: 301.667236328125
z: 0.10330015420913696
visibility: 0.9996700882911682
","x: 242.32286071777344
y: 301.37469482421875
z: 0.10935057699680328
visibility: 0.9996404051780701
","x: 242.08108520507812
y: 301.3617858886719
z: 0.10932854562997818
visibility: 0.9995965361595154
","x: 240.34390258789062
y: 301.40203857421875
z: 0.10928033292293549
visibility: 0.9995735883712769
","x: 241.4561767578125
y: 303.9685363769531
z: 0.027013394981622696
visibility: 0.9991277456283569
","x: 245.0167999267578
y: 303.4940490722656
z: 0.05501509830355644
visibility: 0.9991005659103394
","x: 241.16726684570312
y: 309.860107421875
z: 0.1004706397652626
visibility: 0.9997549653053284
","x: 241.5153350830078
y: 310.087890625
z: 0.1080034002661705
visibility: 0.999687910079956
","x: 233.4334716796875
y: 327.72174072265625
z: -0.048090074211359024
visibility: 0.9999153017997742
","x: 256.63427734375
y: 331.7076110839844
z: 0.0626809298992157
visibility: 0.9995120167732239
","x: 217.897705078125
y: 332.79095458984375
z: -0.02953154221177101
visibility: 0.9876235127449036
","x: 269.4125671386719
y: 355.1518249511719
z: 0.13017036020755768
visibility: 0.8496013879776001
","x: 212.41163635253906
y: 335.2646179199219
z: 0.06380341947078705
visibility: 0.9827537536621094
","x: 279.7701110839844
y: 372.32501220703125
z: 0.2410973608493805
visibility: 0.902468204498291
","x: 210.9552001953125
y: 340.3974914550781
z: 0.0708938017487526
visibility: 0.9633418917655945
","x: 283.40631103515625
y: 377.9236145019531
z: 0.26422983407974243
visibility: 0.8897027373313904
","x: 212.52493286132812
y: 340.6829833984375
z: 0.07497907429933548
visibility: 0.9649080038070679
","x: 283.3790283203125
y: 377.2193603515625
z: 0.26423880457878113
visibility: 0.8918710947036743
","x: 213.5181884765625
y: 339.4862365722656
z: 0.06979683041572571
visibility: 0.9493834376335144
","x: 281.67718505859375
y: 371.84027099609375
z: 0.24614235758781433
visibility: 0.8785042762756348
","x: 238.66061401367188
y: 409.6983337402344
z: -0.054348982870578766
visibility: 0.9998315572738647
","x: 250.2504425048828
y: 412.3030090332031
z: 0.05404999107122421
visibility: 0.9997172951698303
","x: 216.0765380859375
y: 440.2254943847656
z: 0.028652628883719444
visibility: 0.9691039323806763
","x: 238.5070037841797
y: 456.12725830078125
z: 0.08268284052610397
visibility: 0.8461394906044006
","x: 227.50820922851562
y: 484.8193054199219
z: -0.08371764421463013
visibility: 0.945493757724762
","x: 245.0497589111328
y: 506.6711730957031
z: -0.11131647974252701
visibility: 0.8594527840614319
","x: 231.21604919433594
y: 485.5531311035156
z: -0.08074811846017838
visibility: 0.8925917744636536
","x: 249.40309143066406
y: 516.2320556640625
z: -0.1303286850452423
visibility: 0.7765483856201172
","x: 220.09793090820312
y: 511.3545227050781
z: -0.05205501243472099
visibility: 0.9523844122886658
","x: 241.09829711914062
y: 520.37646484375
z: -0.14152111113071442
visibility: 0.878482460975647
",,,,,,,,,,,,,,,,,,,,,,,,,,,,,,,,,,,,,,,,,,
21,"x: 249.22491455078125
y: 309.06268310546875
z: 0.1250552088022232
visibility: 0.9998716711997986
","x: 247.81069946289062
y: 305.1150207519531
z: 0.1097058653831482
visibility: 0.999720573425293
","x: 245.283447265625
y: 304.449462890625
z: 0.1097232922911644
visibility: 0.9997125864028931
","x: 243.44000244140625
y: 303.7072448730469
z: 0.10973601043224335
visibility: 0.9996955394744873
","x: 251.26751708984375
y: 306.0216979980469
z: 0.10289540141820908
visibility: 0.9996716380119324
","x: 251.93478393554688
y: 306.0627136230469
z: 0.10290943086147308
visibility: 0.9996321797370911
","x: 252.34552001953125
y: 305.99285888671875
z: 0.10286366939544678
visibility: 0.999612033367157
","x: 244.30197143554688
y: 303.78070068359375
z: 0.05937202647328377
visibility: 0.9992068409919739
","x: 253.10031127929688
y: 306.65509033203125
z: 0.027456749230623245
visibility: 0.9991841912269592
","x: 245.04083251953125
y: 311.6780700683594
z: 0.11111724376678467
visibility: 0.999760627746582
","x: 249.96339416503906
y: 312.2739562988281
z: 0.10094745457172394
visibility: 0.9997075796127319
","x: 229.22157287597656
y: 327.8794860839844
z: 0.04675346612930298
visibility: 0.9999009370803833
","x: 256.9855041503906
y: 331.2546081542969
z: -0.029220229014754295
visibility: 0.9995592832565308
","x: 213.2471466064453
y: 335.8428649902344
z: 0.11460087448358536
visibility: 0.9872538447380066
","x: 272.7531433105469
y: 352.5149230957031
z: -0.10360199213027954
visibility: 0.8644667863845825
","x: 217.49160766601562
y: 331.3049621582031
z: 0.22063569724559784
visibility: 0.9575011134147644
","x: 289.7184143066406
y: 365.63671875
z: -0.1703331470489502
visibility: 0.9100399017333984
","x: 217.72398376464844
y: 328.6427307128906
z: 0.23523728549480438
visibility: 0.9294784665107727
","x: 296.4626770019531
y: 371.0723571777344
z: -0.18327346444129944
visibility: 0.8970096707344055
","x: 219.4068603515625
y: 328.207275390625
z: 0.23850925266742706
visibility: 0.9293992519378662
","x: 296.0794677734375
y: 369.2821960449219
z: -0.17477953433990479
visibility: 0.8991382122039795
","x: 219.0388641357422
y: 331.3515625
z: 0.22620801627635956
visibility: 0.9107470512390137
","x: 293.1397705078125
y: 367.16424560546875
z: -0.16660544276237488
visibility: 0.8837153315544128
","x: 234.2449188232422
y: 409.2098388671875
z: 0.026928389444947243
visibility: 0.9998059868812561
","x: 249.84022521972656
y: 410.7255859375
z: -0.027095075696706772
visibility: 0.9997385144233704
","x: 224.90223693847656
y: 446.0094909667969
z: 0.11932982504367828
visibility: 0.9688462018966675
","x: 246.11944580078125
y: 454.373291015625
z: -0.04461583495140076
visibility: 0.8599455952644348
","x: 217.12966918945312
y: 491.37640380859375
z: 0.12053656578063965
visibility: 0.9495693445205688
","x: 245.46762084960938
y: 506.9070129394531
z: -0.12526018917560577
visibility: 0.8730301260948181
","x: 215.21412658691406
y: 488.421875
z: 0.12073089927434921
visibility: 0.9025133848190308
","x: 247.40733337402344
y: 515.8751831054688
z: -0.13186244666576385
visibility: 0.7983702421188354
","x: 218.53065490722656
y: 509.5614013671875
z: 0.10397299379110336
visibility: 0.9508888125419617
","x: 249.63681030273438
y: 517.1453247070312
z: -0.16494141519069672
visibility: 0.888662576675415
",,,,,,,,,,,,,,,,,,,,,,,,,,,,,,,,,,,,,,,,,,
22,"x: 249.66551208496094
y: 308.2071228027344
z: 0.04901861026883125
visibility: 0.9998834133148193
","x: 247.83544921875
y: 303.1710205078125
z: 0.0470137894153595
visibility: 0.9997473359107971
","x: 246.1764373779297
y: 302.2552185058594
z: 0.04700083285570145
visibility: 0.9997397661209106
","x: 245.29623413085938
y: 301.3642578125
z: 0.0469839945435524
visibility: 0.9997249245643616
","x: 250.26907348632812
y: 303.5625
z: 0.03051729127764702
visibility: 0.9997038841247559
","x: 250.51260375976562
y: 303.1250305175781
z: 0.03052816167473793
visibility: 0.999668300151825
","x: 250.63790893554688
y: 302.8058166503906
z: 0.030489811673760414
visibility: 0.9996502995491028
","x: 242.8393096923828
y: 300.796630859375
z: 0.04728886857628822
visibility: 0.9992852210998535
","x: 251.91725158691406
y: 303.3266906738281
z: -0.024101583287119865
visibility: 0.9992650747299194
","x: 245.5332794189453
y: 311.33099365234375
z: 0.05275046080350876
visibility: 0.9997814297676086
","x: 249.64059448242188
y: 311.14312744140625
z: 0.03062715195119381
visibility: 0.9997347593307495
","x: 227.12232971191406
y: 328.1107177734375
z: 0.0929870754480362
visibility: 0.9999023079872131
","x: 252.38571166992188
y: 328.2314453125
z: -0.0985637977719307
visibility: 0.9996027946472168
","x: 215.86651611328125
y: 345.76068115234375
z: 0.21297407150268555
visibility: 0.9834296107292175
","x: 264.3630676269531
y: 353.492431640625
z: -0.17943480610847473
visibility: 0.8779255151748657
","x: 213.12533569335938
y: 332.4640197753906
z: 0.33220529556274414
visibility: 0.945802628993988
","x: 280.7447814941406
y: 367.0663146972656
z: -0.23282775282859802
visibility: 0.9183658361434937
","x: 211.09393310546875
y: 330.2326965332031
z: 0.356985867023468
visibility: 0.9168068170547485
","x: 286.2228698730469
y: 372.9913635253906
z: -0.24998891353607178
visibility: 0.9060574769973755
","x: 212.13104248046875
y: 329.15618896484375
z: 0.3515474200248718
visibility: 0.9158760905265808
","x: 286.8466796875
y: 369.83624267578125
z: -0.24220292270183563
visibility: 0.9079404473304749
","x: 213.0700225830078
y: 331.0943603515625
z: 0.33452603220939636
visibility: 0.8943443298339844
","x: 284.7183532714844
y: 367.85333251953125
z: -0.2289295643568039
visibility: 0.8923411965370178
","x: 230.75523376464844
y: 409.0426940917969
z: 0.06966665387153625
visibility: 0.9997999668121338
","x: 247.0760498046875
y: 410.4034118652344
z: -0.06986872106790543
visibility: 0.9997465014457703
","x: 233.75962829589844
y: 451.6936950683594
z: 0.12008156627416611
visibility: 0.9540858864784241
","x: 256.705810546875
y: 454.92755126953125
z: -0.06580714136362076
visibility: 0.8723711967468262
","x: 222.3563232421875
y: 499.04864501953125
z: 0.12980453670024872
visibility: 0.9441037774085999
","x: 241.554443359375
y: 506.9072265625
z: -0.08803649246692657
visibility: 0.8842998147010803
","x: 216.8315887451172
y: 504.61383056640625
z: 0.12931561470031738
visibility: 0.9046036601066589
","x: 234.7761993408203
y: 516.0724487304688
z: -0.08948402106761932
visibility: 0.8160029053688049
","x: 231.1739501953125
y: 512.6659545898438
z: 0.11892431974411011
visibility: 0.944047212600708
","x: 251.2113800048828
y: 517.2139892578125
z: -0.10822109878063202
visibility: 0.897698163986206
",,,,,,,,,,,,,,,,,,,,,,,,,,,,,,,,,,,,,,,,,,
23,"x: 249.35365295410156
y: 306.7391357421875
z: -0.13009968400001526
visibility: 0.999893069267273
","x: 247.89796447753906
y: 300.93389892578125
z: -0.11366156488656998
visibility: 0.9997691512107849
","x: 246.5210723876953
y: 300.5911560058594
z: -0.11365403980016708
visibility: 0.9997592568397522
","x: 245.95602416992188
y: 300.1870422363281
z: -0.1136956438422203
visibility: 0.9997469782829285
","x: 249.29168701171875
y: 300.26068115234375
z: -0.13356073200702667
visibility: 0.9997323751449585
","x: 248.58750915527344
y: 299.7683410644531
z: -0.13356126844882965
visibility: 0.9997001886367798
","x: 247.6949462890625
y: 299.4174499511719
z: -0.1335839033126831
visibility: 0.99968421459198
","x: 245.0424346923828
y: 299.5069274902344
z: -0.01893904060125351
visibility: 0.9993488788604736
","x: 243.9108123779297
y: 300.45733642578125
z: -0.11537569761276245
visibility: 0.9993368983268738
","x: 246.69927978515625
y: 310.4000549316406
z: -0.09583419561386108
visibility: 0.9997814893722534
","x: 249.2277374267578
y: 309.7280578613281
z: -0.12149747461080551
visibility: 0.9997503161430359
","x: 238.2203369140625
y: 327.04351806640625
z: 0.0707588940858841
visibility: 0.9998112916946411
","x: 240.88250732421875
y: 327.4378662109375
z: -0.15685021877288818
visibility: 0.9996196627616882
","x: 229.3046875
y: 349.52032470703125
z: 0.1854199767112732
visibility: 0.8945476412773132
","x: 247.11756896972656
y: 354.610595703125
z: -0.2626517415046692
visibility: 0.8872497081756592
","x: 250.66732788085938
y: 345.18511962890625
z: 0.24693472683429718
visibility: 0.8841434121131897
","x: 261.63580322265625
y: 357.947509765625
z: -0.3362557291984558
visibility: 0.9214668273925781
","x: 255.6250762939453
y: 342.31341552734375
z: 0.2633109390735626
visibility: 0.8630741238594055
","x: 265.0544128417969
y: 361.5806884765625
z: -0.3610059916973114
visibility: 0.9083203673362732
","x: 256.1781005859375
y: 338.7816162109375
z: 0.25098711252212524
visibility: 0.8634576201438904
","x: 265.4741516113281
y: 358.6082458496094
z: -0.3559323847293854
visibility: 0.9098654985427856
","x: 255.60568237304688
y: 339.6240539550781
z: 0.24318063259124756
visibility: 0.840901792049408
","x: 263.8804931640625
y: 357.208740234375
z: -0.3346485495567322
visibility: 0.8914952874183655
","x: 238.12075805664062
y: 408.4212646484375
z: 0.06854397058486938
visibility: 0.9995009303092957
","x: 243.8956298828125
y: 410.0562744140625
z: -0.06859876215457916
visibility: 0.9995877742767334
","x: 245.96060180664062
y: 453.22442626953125
z: 0.11216087639331818
visibility: 0.9098756313323975
","x: 252.57351684570312
y: 456.373779296875
z: -0.06088275834918022
visibility: 0.8669816851615906
","x: 225.83106994628906
y: 483.71453857421875
z: 0.21136657893657684
visibility: 0.9001847505569458
","x: 235.66128540039062
y: 503.029296875
z: -0.02722957357764244
visibility: 0.8865414261817932
","x: 220.5536651611328
y: 480.61871337890625
z: 0.21920327842235565
visibility: 0.8687741756439209
","x: 229.83311462402344
y: 508.3045654296875
z: -0.0056911008432507515
visibility: 0.8222258687019348
","x: 230.00521850585938
y: 502.4166564941406
z: 0.19889548420906067
visibility: 0.9098829627037048
","x: 242.06674194335938
y: 516.0594482421875
z: -0.027216490358114243
visibility: 0.8982361555099487
",,,,,,,,,,,,,,,,,,,,,,,,,,,,,,,,,,,,,,,,,,
24,"x: 248.7984161376953
y: 299.1106872558594
z: -0.1217384785413742
visibility: 0.9998912811279297
","x: 247.91287231445312
y: 294.62933349609375
z: -0.10482563078403473
visibility: 0.9997710585594177
","x: 246.88771057128906
y: 294.9935302734375
z: -0.10483391582965851
visibility: 0.9997496604919434
","x: 246.9736328125
y: 295.40966796875
z: -0.10487306118011475
visibility: 0.9997473359107971
","x: 247.724853515625
y: 293.5245666503906
z: -0.11901389062404633
visibility: 0.9997457265853882
","x: 246.53143310546875
y: 293.14276123046875
z: -0.11901873350143433
visibility: 0.9997134208679199
","x: 245.2595672607422
y: 292.88714599609375
z: -0.11907130479812622
visibility: 0.9997005462646484
","x: 245.66505432128906
y: 298.1308288574219
z: -0.016456138342618942
visibility: 0.9993869662284851
","x: 241.12530517578125
y: 295.5164794921875
z: -0.08014257997274399
visibility: 0.999367356300354
","x: 246.9258270263672
y: 305.46087646484375
z: -0.08826890587806702
visibility: 0.9997826218605042
","x: 246.60696411132812
y: 304.3014831542969
z: -0.1064809113740921
visibility: 0.9997557401657104
","x: 248.67079162597656
y: 327.180419921875
z: 0.055328987538814545
visibility: 0.9997738599777222
","x: 230.4973602294922
y: 325.9110107421875
z: -0.08585740625858307
visibility: 0.99958336353302
","x: 252.44345092773438
y: 353.4140319824219
z: 0.1416710466146469
visibility: 0.8801981806755066
","x: 231.18150329589844
y: 353.54412841796875
z: -0.21231165528297424
visibility: 0.8980132937431335
","x: 263.97882080078125
y: 355.9576721191406
z: 0.15810760855674744
visibility: 0.8874611258506775
","x: 244.9075927734375
y: 307.9605712890625
z: -0.3262588679790497
visibility: 0.9291205406188965
","x: 266.6689453125
y: 356.563232421875
z: 0.162313774228096
visibility: 0.8638351559638977
","x: 245.23724365234375
y: 298.38507080078125
z: -0.3541136384010315
visibility: 0.916897177696228
","x: 266.1753234863281
y: 352.5674743652344
z: 0.14981451630592346
visibility: 0.8653989434242249
","x: 244.6127166748047
y: 295.785888671875
z: -0.3474155366420746
visibility: 0.9182448387145996
","x: 265.01580810546875
y: 352.349609375
z: 0.15333089232444763
visibility: 0.8439956307411194
","x: 244.5907440185547
y: 299.20501708984375
z: -0.32587555050849915
visibility: 0.9011779427528381
","x: 247.78933715820312
y: 406.765625
z: 0.03906961530447006
visibility: 0.999531090259552
","x: 238.8372802734375
y: 409.7001953125
z: -0.03910436853766441
visibility: 0.999605655670166
","x: 260.2492370605469
y: 449.716064453125
z: -0.08268522471189499
visibility: 0.9173095226287842
","x: 245.47705078125
y: 458.77264404296875
z: -0.05367986485362053
visibility: 0.8680928945541382
","x: 233.0303497314453
y: 469.5672912597656
z: 0.08201470971107483
visibility: 0.8968353271484375
","x: 236.53697204589844
y: 503.061767578125
z: 0.11774133145809174
visibility: 0.885844349861145
","x: 228.93763732910156
y: 466.32952880859375
z: 0.08357234299182892
visibility: 0.8719726204872131
","x: 240.0582275390625
y: 509.92840576171875
z: 0.1302206665277481
visibility: 0.8181782960891724
","x: 230.3569793701172
y: 489.1952209472656
z: 0.06658893823623657
visibility: 0.9056643843650818
","x: 242.51524353027344
y: 515.435302734375
z: 0.06007392331957817
visibility: 0.8946461081504822
",,,,,,,,,,,,,,,,,,,,,,,,,,,,,,,,,,,,,,,,,,
25,"x: 247.97662353515625
y: 277.7783508300781
z: -0.1347564160823822
visibility: 0.999901533126831
","x: 247.64939880371094
y: 273.2018737792969
z: -0.11748723685741425
visibility: 0.999792754650116
","x: 247.15383911132812
y: 273.3984680175781
z: -0.11748789250850677
visibility: 0.9997729063034058
","x: 247.0182342529297
y: 273.64300537109375
z: -0.11753028631210327
visibility: 0.999770998954773
","x: 245.779296875
y: 273.2673034667969
z: -0.12899813055992126
visibility: 0.9997703433036804
","x: 244.42274475097656
y: 273.4643859863281
z: -0.1290031373500824
visibility: 0.9997410774230957
","x: 243.0235595703125
y: 273.6868591308594
z: -0.12904131412506104
visibility: 0.9997295141220093
","x: 246.23056030273438
y: 277.2503662109375
z: -0.025604506954550743
visibility: 0.9994468688964844
","x: 239.10626220703125
y: 276.8512268066406
z: -0.08131852000951767
visibility: 0.9994286298751831
","x: 247.027587890625
y: 283.58056640625
z: -0.10150398313999176
visibility: 0.9998033046722412
","x: 245.58334350585938
y: 283.3218688964844
z: -0.11677946895360947
visibility: 0.999779224395752
","x: 254.00723266601562
y: 310.1757507324219
z: 0.04534453898668289
visibility: 0.9997605681419373
","x: 229.48223876953125
y: 310.6643371582031
z: -0.08111907541751862
visibility: 0.9995908141136169
","x: 261.2948303222656
y: 346.00848388671875
z: 0.07050551474094391
visibility: 0.8827791213989258
","x: 233.79733276367188
y: 348.16796875
z: -0.2004542350769043
visibility: 0.9061036109924316
","x: 274.6588439941406
y: 322.96185302734375
z: 0.060142625123262405
visibility: 0.8963598608970642
","x: 238.32569885253906
y: 319.8583984375
z: -0.3399806022644043
visibility: 0.9355289340019226
","x: 277.3953552246094
y: 315.7315673828125
z: 0.04645036906003952
visibility: 0.8722565770149231
","x: 238.1939697265625
y: 312.7041015625
z: -0.36793074011802673
visibility: 0.9238067865371704
","x: 276.9555358886719
y: 310.8408203125
z: 0.03323628380894661
visibility: 0.8736461400985718
","x: 237.6079864501953
y: 306.8927307128906
z: -0.36388877034187317
visibility: 0.9248927235603333
","x: 275.6673583984375
y: 312.78515625
z: 0.04430214315652847
visibility: 0.8531348705291748
","x: 238.10047912597656
y: 311.5539245605469
z: -0.34133681654930115
visibility: 0.908272385597229
","x: 254.04327392578125
y: 386.9537353515625
z: 0.03374534472823143
visibility: 0.9995548129081726
","x: 239.5641326904297
y: 391.00830078125
z: -0.03373006731271744
visibility: 0.9996159076690674
","x: 267.87420654296875
y: 425.252685546875
z: -0.11507458984851837
visibility: 0.9253150820732117
","x: 240.5606689453125
y: 446.439208984375
z: -0.04309280589222908
visibility: 0.8801938891410828
","x: 247.8535614013672
y: 449.41351318359375
z: 0.07035831362009048
visibility: 0.9029582142829895
","x: 239.5929718017578
y: 499.8033142089844
z: 0.09823398292064667
visibility: 0.8963788747787476
","x: 242.49818420410156
y: 448.8214416503906
z: 0.08587145060300827
visibility: 0.8787532448768616
","x: 240.8744659423828
y: 506.7814636230469
z: 0.10804865509271622
visibility: 0.8291453719139099
","x: 248.96958923339844
y: 475.8094482421875
z: 0.03787742927670479
visibility: 0.9123462438583374
","x: 242.9962615966797
y: 511.8874816894531
z: 0.02784278616309166
visibility: 0.9037736654281616
",,,,,,,,,,,,,,,,,,,,,,,,,,,,,,,,,,,,,,,,,,
26,"x: 247.41468811035156
y: 284.0000305175781
z: -0.06747544556856155
visibility: 0.9999104738235474
","x: 247.54217529296875
y: 279.65606689453125
z: -0.046081993728876114
visibility: 0.9998124837875366
","x: 247.31915283203125
y: 279.87554931640625
z: -0.0461312010884285
visibility: 0.9997944831848145
","x: 247.13693237304688
y: 280.1467590332031
z: -0.0461362823843956
visibility: 0.9997929334640503
","x: 244.97003173828125
y: 279.60601806640625
z: -0.05761738866567612
visibility: 0.9997923374176025
","x: 243.594482421875
y: 279.7476806640625
z: -0.057656727731227875
visibility: 0.999765932559967
","x: 242.220947265625
y: 279.93951416015625
z: -0.057679273188114166
visibility: 0.9997556805610657
","x: 246.3531036376953
y: 283.3663330078125
z: 0.04227117449045181
visibility: 0.9995002150535583
","x: 238.7325897216797
y: 283.0733642578125
z: -0.0061373161152005196
visibility: 0.9994847178459167
","x: 247.16403198242188
y: 289.7286376953125
z: -0.03283647447824478
visibility: 0.9998213648796082
","x: 244.75450134277344
y: 289.6264953613281
z: -0.04825567081570625
visibility: 0.9997997879981995
","x: 255.4269561767578
y: 313.88531494140625
z: 0.08347007632255554
visibility: 0.9997729063034058
","x: 229.944580078125
y: 314.81591796875
z: -0.016792021691799164
visibility: 0.9996292591094971
","x: 265.26373291015625
y: 345.64764404296875
z: -0.007987679913640022
visibility: 0.8780483603477478
","x: 235.83767700195312
y: 348.14898681640625
z: -0.13078366219997406
visibility: 0.9138288497924805
","x: 264.10699462890625
y: 326.2573547363281
z: -0.1570506989955902
visibility: 0.8883422613143921
","x: 243.9488067626953
y: 320.2266845703125
z: -0.22446796298027039
visibility: 0.9389594197273254
","x: 265.2414245605469
y: 322.17169189453125
z: -0.183151513338089
visibility: 0.853818953037262
","x: 246.79861450195312
y: 312.6069030761719
z: -0.247310072183609
visibility: 0.9250339269638062
","x: 266.3992614746094
y: 317.7672119140625
z: -0.1740867644548416
visibility: 0.8544753193855286
","x: 246.50384521484375
y: 311.4425964355469
z: -0.2415257692337036
visibility: 0.9251598119735718
","x: 265.59381103515625
y: 319.4088439941406
z: -0.157978355884552
visibility: 0.8294764757156372
","x: 245.36578369140625
y: 313.8479309082031
z: -0.22350963950157166
visibility: 0.9053688049316406
","x: 255.99867248535156
y: 387.39849853515625
z: 0.03147922083735466
visibility: 0.9995887279510498
","x: 240.28460693359375
y: 390.3823547363281
z: -0.03140922635793686
visibility: 0.9996439814567566
","x: 261.89227294921875
y: 433.62603759765625
z: -0.11425866186618805
visibility: 0.9274333119392395
","x: 241.69052124023438
y: 442.4288635253906
z: -0.13377460837364197
visibility: 0.8901697397232056
","x: 275.57452392578125
y: 475.90185546875
z: -0.1506262570619583
visibility: 0.9085403680801392
","x: 240.8859100341797
y: 502.30596923828125
z: -0.1338871568441391
visibility: 0.9043811559677124
","x: 275.8664245605469
y: 499.791259765625
z: -0.1590326875448227
visibility: 0.8819835782051086
","x: 240.84738159179688
y: 511.96343994140625
z: -0.14005255699157715
visibility: 0.8279995322227478
","x: 285.56927490234375
y: 484.49041748046875
z: -0.25173327326774597
visibility: 0.9191006422042847
","x: 248.54083251953125
y: 511.22186279296875
z: -0.23874631524085999
visibility: 0.9109718799591064
",,,,,,,,,,,,,,,,,,,,,,,,,,,,,,,,,,,,,,,,,,
27,"x: 246.6396026611328
y: 283.0835266113281
z: -0.11362479627132416
visibility: 0.9999162554740906
","x: 247.40582275390625
y: 278.2772521972656
z: -0.09732039272785187
visibility: 0.9998255372047424
","x: 247.42784118652344
y: 278.42138671875
z: -0.09736056625843048
