uscmakers/ReverseChoreography/data/7_feed_the_fire_lucky_daye.csv
,NOSE,LEFT_EYE_INNER,LEFT_EYE,LEFT_EYE_OUTER,RIGHT_EYE_INNER,RIGHT_EYE,RIGHT_EYE_OUTER,LEFT_EAR,RIGHT_EAR,MOUTH_LEFT,MOUTH_RIGHT,LEFT_SHOULDER,RIGHT_SHOULDER,LEFT_ELBOW,RIGHT_ELBOW,LEFT_WRIST,RIGHT_WRIST,LEFT_PINKY,RIGHT_PINKY,LEFT_INDEX,RIGHT_INDEX,LEFT_THUMB,RIGHT_THUMB,LEFT_HIP,RIGHT_HIP,LEFT_KNEE,RIGHT_KNEE,LEFT_ANKLE,RIGHT_ANKLE,LEFT_HEEL,RIGHT_HEEL,LEFT_FOOT_INDEX,RIGHT_FOOT_INDEX,WRIST,THUMB_CPC,THUMB_MCP,THUMB_IP,THUMB_TIP,INDEX_FINGER_MCP,INDEX_FINGER_PIP,INDEX_FINGER_DIP,INDEX_FINGER_TIP,MIDDLE_FINGER_MCP,MIDDLE_FINGER_PIP,MIDDLE_FINGER_DIP,MIDDLE_FINGER_TIP,RING_FINGER_PIP,RING_FINGER_DIP,RING_FINGER_TIP,RING_FINGER_MCP,PINKY_MCP,PINKY_PIP,PINKY_DIP,PINKY_TIP,WRIST2,THUMB_CPC2,THUMB_MCP2,THUMB_IP2,THUMB_TIP2,INDEX_FINGER_MCP2,INDEX_FINGER_PIP2,INDEX_FINGER_DIP2,INDEX_FINGER_TIP2,MIDDLE_FINGER_MCP2,MIDDLE_FINGER_PIP2,MIDDLE_FINGER_DIP2,MIDDLE_FINGER_TIP2,RING_FINGER_PIP2,RING_FINGER_DIP2,RING_FINGER_TIP2,RING_FINGER_MCP2,PINKY_MCP2,PINKY_PIP2,PINKY_DIP2,PINKY_TIP2
0,"x: 257.0098571777344
y: 293.37542724609375
z: -0.039113372564315796
visibility: 0.9964545965194702
","x: 258.690185546875
y: 286.6658935546875
z: -0.05329618602991104
visibility: 0.9966270923614502
","x: 259.5169677734375
y: 286.4083251953125
z: -0.05332305282354355
visibility: 0.9967421889305115
","x: 260.3878173828125
y: 286.1390380859375
z: -0.05334889888763428
visibility: 0.9971461892127991
","x: 257.3467712402344
y: 286.4007873535156
z: -0.02777590975165367
visibility: 0.9959346055984497
","x: 257.1884460449219
y: 285.967041015625
z: -0.02779490128159523
visibility: 0.9947295784950256
","x: 257.0431823730469
y: 285.4918518066406
z: -0.027824055403470993
visibility: 0.9956225752830505
","x: 264.98870849609375
y: 286.74237060546875
z: -0.07579099386930466
visibility: 0.9969046711921692
","x: 260.9789123535156
y: 285.5220947265625
z: 0.03921700268983841
visibility: 0.9921282529830933
","x: 259.5819396972656
y: 298.09344482421875
z: -0.04428449645638466
visibility: 0.9941044449806213
","x: 257.8737487792969
y: 297.767578125
z: -0.011198232881724834
visibility: 0.9911575317382812
","x: 273.01947021484375
y: 314.16729736328125
z: -0.12897740304470062
visibility: 0.9997391104698181
","x: 266.327880859375
y: 308.475830078125
z: 0.12502478063106537
visibility: 0.9989535808563232
","x: 273.8822937011719
y: 356.2660217285156
z: -0.21698562800884247
visibility: 0.9836456775665283
","x: 269.35382080078125
y: 346.98114013671875
z: 0.18404953181743622
visibility: 0.04103827849030495
","x: 257.8653564453125
y: 362.4756164550781
z: -0.24731247127056122
visibility: 0.9305834770202637
","x: 264.7256164550781
y: 362.51654052734375
z: 0.14797551929950714
visibility: 0.07695169001817703
","x: 254.36688232421875
y: 366.58978271484375
z: -0.27484026551246643
visibility: 0.907789409160614
","x: 263.7139587402344
y: 366.2567443847656
z: 0.1545618772506714
visibility: 0.11770240217447281
","x: 253.36807250976562
y: 359.610595703125
z: -0.26087409257888794
visibility: 0.9034261107444763
","x: 263.9320068359375
y: 363.5992431640625
z: 0.13300718367099762
visibility: 0.12209784239530563
","x: 256.4483642578125
y: 358.9227600097656
z: -0.2412583827972412
visibility: 0.8386244177818298
","x: 264.2593994140625
y: 362.2904968261719
z: 0.13854236900806427
visibility: 0.12930098176002502
","x: 272.9932861328125
y: 398.2187194824219
z: -0.09046187251806259
visibility: 0.9988856911659241
","x: 273.1325378417969
y: 394.8983154296875
z: 0.0906292200088501
visibility: 0.9982227683067322
","x: 249.97833251953125
y: 432.017333984375
z: -0.1323743760585785
visibility: 0.9665560126304626
","x: 264.7118225097656
y: 441.0400085449219
z: 0.08139890432357788
visibility: 0.3284769654273987
","x: 274.5887756347656
y: 479.9422912597656
z: -0.10272195190191269
visibility: 0.9690515398979187
","x: 274.46893310546875
y: 506.9485778808594
z: 0.10138895362615585
visibility: 0.6112000942230225
","x: 281.2188415527344
y: 481.40057373046875
z: -0.09822151809930801
visibility: 0.9758293628692627
","x: 276.1063537597656
y: 512.7849731445312
z: 0.10063789784908295
visibility: 0.7581681609153748
","x: 267.2593994140625
y: 508.9377136230469
z: -0.10906108468770981
visibility: 0.9630037546157837
","x: 260.7325439453125
y: 514.5756225585938
z: 0.06995333731174469
visibility: 0.6588821411132812
",,,,,,,,,,,,,,,,,,,,,,,,,,,,,,,,,,,,,,,,,,
1,"x: 250.24952697753906
y: 292.74041748046875
z: -0.026281937956809998
visibility: 0.9967392683029175
","x: 251.62474060058594
y: 285.98101806640625
z: -0.04309162124991417
visibility: 0.9968991875648499
","x: 252.280029296875
y: 285.55059814453125
z: -0.04312987998127937
visibility: 0.9970125555992126
","x: 252.98838806152344
y: 285.09039306640625
z: -0.0431610606610775
visibility: 0.9973886609077454
","x: 251.10455322265625
y: 285.9949035644531
z: -0.017901860177516937
visibility: 0.9962430596351624
","x: 251.36212158203125
y: 285.58209228515625
z: -0.017878200858831406
visibility: 0.9951364994049072
","x: 251.69351196289062
y: 285.0980529785156
z: -0.017873162403702736
visibility: 0.9959391355514526
","x: 258.11572265625
y: 285.1834411621094
z: -0.07669008523225784
visibility: 0.9971659779548645
","x: 256.9691467285156
y: 285.0805969238281
z: 0.03721299022436142
visibility: 0.9926560521125793
","x: 252.92770385742188
y: 297.15252685546875
z: -0.03711853548884392
visibility: 0.9946000576019287
","x: 252.29776000976562
y: 297.6720886230469
z: -0.004420853219926357
visibility: 0.9918132424354553
","x: 269.47418212890625
y: 308.5022277832031
z: -0.12897953391075134
visibility: 0.9997630715370178
","x: 264.4731140136719
y: 308.51171875
z: 0.1116592139005661
visibility: 0.9988483190536499
","x: 271.9200744628906
y: 338.2597351074219
z: -0.16225774586200714
visibility: 0.9848294258117676
","x: 264.0707702636719
y: 342.4888610839844
z: 0.1943284124135971
visibility: 0.040509868413209915
","x: 254.58993530273438
y: 334.26275634765625
z: -0.10562396049499512
visibility: 0.93524169921875
","x: 255.85870361328125
y: 352.43389892578125
z: 0.2112305909395218
visibility: 0.07716912776231766
","x: 250.2084197998047
y: 334.44879150390625
z: -0.11743947118520737
visibility: 0.9125916361808777
","x: 253.61703491210938
y: 355.9429931640625
z: 0.21846750378608704
visibility: 0.11670248210430145
","x: 250.2468719482422
y: 330.5804138183594
z: -0.11096857488155365
visibility: 0.9083318710327148
","x: 253.55746459960938
y: 353.62481689453125
z: 0.19885806739330292
visibility: 0.12136265635490417
","x: 251.63217163085938
y: 330.49151611328125
z: -0.09952598810195923
visibility: 0.8467919230461121
","x: 254.22055053710938
y: 352.3981018066406
z: 0.20228211581707
visibility: 0.1281529814004898
","x: 268.8496398925781
y: 396.0513000488281
z: -0.07639728486537933
visibility: 0.9989812970161438
","x: 264.9940185546875
y: 393.8128662109375
z: 0.07650092244148254
visibility: 0.9983009099960327
","x: 262.595458984375
y: 440.836669921875
z: -0.08686999976634979
visibility: 0.9685255289077759
","x: 258.1588439941406
y: 440.4798583984375
z: 0.10729600489139557
visibility: 0.3742806613445282
","x: 274.4585876464844
y: 497.3390197753906
z: -0.0732080489397049
visibility: 0.971307098865509
","x: 259.2633056640625
y: 494.4205322265625
z: 0.1659802496433258
visibility: 0.6376044154167175
","x: 280.86370849609375
y: 505.91485595703125
z: -0.0734308511018753
visibility: 0.9760088324546814
","x: 262.59423828125
y: 506.35308837890625
z: 0.1696772277355194
visibility: 0.7635329961776733
","x: 263.9817199707031
y: 513.320068359375
z: -0.11788856983184814
visibility: 0.9657747745513916
","x: 244.91815185546875
y: 508.1690979003906
z: 0.1461431235074997
visibility: 0.6842302083969116
",,,,,,,,,,,,,,,,,,,,,,,,,,,,,,,,,,,,,,,,,,
2,"x: 250.89993286132812
y: 296.64837646484375
z: -0.010140049271285534
visibility: 0.997062087059021
","x: 252.21731567382812
y: 290.8352355957031
z: -0.025742754340171814
visibility: 0.9972065091133118
","x: 252.83094787597656
y: 290.3699035644531
z: -0.02573888562619686
visibility: 0.9973087906837463
","x: 253.49264526367188
y: 289.8742980957031
z: -0.02577030658721924
visibility: 0.9976471662521362
","x: 251.759521484375
y: 291.0516662597656
z: -8.78369901329279e-05
visibility: 0.9966148734092712
","x: 252.0120086669922
y: 290.7739562988281
z: -9.486394264968112e-05
visibility: 0.9956182837486267
","x: 252.30494689941406
y: 290.43719482421875
z: -5.9402798797236755e-05
visibility: 0.9963409304618835
","x: 258.70343017578125
y: 289.71734619140625
z: -0.06199787184596062
visibility: 0.9974479079246521
","x: 257.0723876953125
y: 290.12530517578125
z: 0.05269409343600273
visibility: 0.9933830499649048
","x: 253.6090545654297
y: 300.42218017578125
z: -0.02159019187092781
visibility: 0.9951301217079163
","x: 253.05816650390625
y: 300.971923828125
z: 0.011242276057600975
visibility: 0.9926177859306335
","x: 269.8824768066406
y: 310.4150085449219
z: -0.11627434194087982
visibility: 0.9997814893722534
","x: 263.2430114746094
y: 315.6014404296875
z: 0.11279213428497314
visibility: 0.9989435076713562
","x: 264.65673828125
y: 345.7622985839844
z: -0.13084805011749268
visibility: 0.9854618310928345
","x: 257.0255126953125
y: 349.56036376953125
z: 0.06176616623997688
visibility: 0.04964817315340042
","x: 252.3561248779297
y: 332.941162109375
z: -0.01638290286064148
visibility: 0.9354918599128723
","x: 250.7521514892578
y: 341.5604248046875
z: -0.0893954187631607
visibility: 0.09118977189064026
","x: 249.44830322265625
y: 325.1748046875
z: -0.01817021146416664
visibility: 0.909599781036377
","x: 248.9838409423828
y: 337.07342529296875
z: -0.09771926701068878
visibility: 0.12967325747013092
","x: 250.43458557128906
y: 321.7945861816406
z: -0.0076162805780768394
visibility: 0.9054493308067322
","x: 250.1826934814453
y: 333.3221130371094
z: -0.10092456638813019
visibility: 0.1334742158651352
","x: 251.76023864746094
y: 325.2005615234375
z: -0.007235182914882898
visibility: 0.8450785875320435
","x: 251.08615112304688
y: 334.8200988769531
z: -0.09550583362579346
visibility: 0.14036224782466888
","x: 269.0124206542969
y: 395.9672546386719
z: -0.07957180589437485
visibility: 0.9990590214729309
","x: 265.9324035644531
y: 394.17803955078125
z: 0.07968194782733917
visibility: 0.9984572529792786
","x: 251.72097778320312
y: 441.0316467285156
z: -0.10294361412525177
visibility: 0.9713446497917175
","x: 258.03753662109375
y: 444.21185302734375
z: 0.10607533156871796
visibility: 0.4151681661605835
","x: 269.53057861328125
y: 494.135986328125
z: -0.06827126443386078
visibility: 0.9735565781593323
","x: 264.3999938964844
y: 497.53619384765625
z: 0.1306876689195633
visibility: 0.6687174439430237
","x: 277.51397705078125
y: 498.47149658203125
z: -0.06374721974134445
visibility: 0.9774553775787354
","x: 266.8673400878906
y: 507.0247802734375
z: 0.1294310986995697
visibility: 0.781143069267273
","x: 263.8547058105469
y: 511.2199401855469
z: -0.06994740664958954
visibility: 0.9682371020317078
","x: 250.72531127929688
y: 513.7078857421875
z: 0.1422479897737503
visibility: 0.7086365222930908
",,,,,,,,,,,,,,,,,,,,,,,,,,,,,,,,,,,,,,,,,,
3,"x: 251.81527709960938
y: 295.2168884277344
z: -0.018893690779805183
visibility: 0.9973298907279968
","x: 253.3027801513672
y: 290.03533935546875
z: -0.032289475202560425
visibility: 0.997464120388031
","x: 253.93870544433594
y: 289.7536926269531
z: -0.032310616225004196
visibility: 0.9975565671920776
","x: 254.6174774169922
y: 289.4210205078125
z: -0.03238688409328461
visibility: 0.9978647232055664
","x: 252.658447265625
y: 290.1339111328125
z: -0.006328424904495478
visibility: 0.9969230890274048
","x: 252.77606201171875
y: 289.9471435546875
z: -0.006343737244606018
visibility: 0.9960199594497681
","x: 252.86721801757812
y: 289.64801025390625
z: -0.006347264163196087
visibility: 0.996671736240387
","x: 259.6160888671875
y: 289.369140625
z: -0.07785174995660782
visibility: 0.9976816177368164
","x: 257.2273864746094
y: 289.45159912109375
z: 0.035858336836099625
visibility: 0.9939764142036438
","x: 254.36819458007812
y: 299.8514099121094
z: -0.026731887832283974
visibility: 0.9955806136131287
","x: 253.6751708984375
y: 300.6893615722656
z: 0.005651169456541538
visibility: 0.9932796955108643
","x: 270.2945556640625
y: 310.4206237792969
z: -0.13718459010124207
visibility: 0.999800443649292
","x: 266.359130859375
y: 314.544921875
z: 0.11077471822500229
visibility: 0.9989984035491943
","x: 265.35638427734375
y: 344.77252197265625
z: -0.1844085156917572
visibility: 0.9864782691001892
","x: 261.0391540527344
y: 349.3085021972656
z: 0.20147576928138733
visibility: 0.05130185931921005
","x: 252.1229248046875
y: 329.73602294921875
z: -0.1400095820426941
visibility: 0.9407521486282349
","x: 252.28549194335938
y: 345.589599609375
z: 0.2559657394886017
visibility: 0.09723006933927536
","x: 247.46847534179688
y: 327.05908203125
z: -0.16072896122932434
visibility: 0.9162808060646057
","x: 248.94398498535156
y: 344.5054626464844
z: 0.27129626274108887
visibility: 0.13398613035678864
","x: 247.5730743408203
y: 322.5934143066406
z: -0.14878301322460175
visibility: 0.9123607873916626
","x: 248.51914978027344
y: 342.0814208984375
z: 0.2546432316303253
visibility: 0.13802579045295715
","x: 249.06085205078125
y: 323.2998352050781
z: -0.1335972249507904
visibility: 0.8554978370666504
","x: 248.91632080078125
y: 335.4072570800781
z: 0.249399334192276
visibility: 0.1450497955083847
","x: 270.9437255859375
y: 396.10052490234375
z: -0.08068214356899261
visibility: 0.9991391897201538
","x: 269.54705810546875
y: 394.3516540527344
z: 0.0807717964053154
visibility: 0.9985753893852234
","x: 261.3856201171875
y: 449.1695861816406
z: -0.09084383398294449
visibility: 0.9724714159965515
","x: 259.13006591796875
y: 444.256103515625
z: 0.10189230740070343
visibility: 0.44350096583366394
","x: 283.38677978515625
y: 501.3753967285156
z: -0.05242426320910454
visibility: 0.975389301776886
","x: 253.04884338378906
y: 498.8339538574219
z: 0.12760993838310242
visibility: 0.6941710710525513
","x: 292.45245361328125
y: 506.01214599609375
z: -0.04849958047270775
visibility: 0.9779838919639587
","x: 256.2868957519531
y: 509.42083740234375
z: 0.12820494174957275
visibility: 0.7910588979721069
","x: 274.7965393066406
y: 519.98291015625
z: -0.07822911441326141
visibility: 0.9706416726112366
","x: 237.14747619628906
y: 506.2439270019531
z: 0.10886265337467194
visibility: 0.7312857508659363
",,,,,,,,,,,,,,,,,,,,,,,,,,,,,,,,,,,,,,,,,,
4,"x: 256.2007751464844
y: 294.0935363769531
z: -0.06062091141939163
visibility: 0.9975091218948364
","x: 258.2377014160156
y: 289.7025451660156
z: -0.07583688199520111
visibility: 0.9976524114608765
","x: 258.7522277832031
y: 289.7115478515625
z: -0.07586656510829926
visibility: 0.9977473616600037
","x: 259.3249816894531
y: 289.1628723144531
z: -0.07586774230003357
visibility: 0.9980246424674988
","x: 257.941162109375
y: 289.7077331542969
z: -0.050462108105421066
visibility: 0.9971307516098022
","x: 258.1947021484375
y: 289.77203369140625
z: -0.05047452449798584
visibility: 0.9963083267211914
","x: 258.4969787597656
y: 289.50054931640625
z: -0.05048983544111252
visibility: 0.9968923926353455
","x: 263.8203125
y: 289.92987060546875
z: -0.10756678879261017
visibility: 0.9978423714637756
","x: 262.42724609375
y: 289.390380859375
z: 0.006782251410186291
visibility: 0.9944016337394714
","x: 258.1933898925781
y: 299.154541015625
z: -0.06875474750995636
visibility: 0.9959165453910828
","x: 257.6333923339844
y: 299.9350280761719
z: -0.03581421822309494
visibility: 0.9937103390693665
","x: 271.51898193359375
y: 312.43304443359375
z: -0.16289862990379333
visibility: 0.9998170137405396
","x: 268.83331298828125
y: 315.5450744628906
z: 0.09511633217334747
visibility: 0.9990308880805969
","x: 267.06219482421875
y: 344.30364990234375
z: -0.2746444046497345
visibility: 0.9872258305549622
","x: 262.3074645996094
y: 347.92333984375
z: 0.23394127190113068
visibility: 0.05019508674740791
","x: 252.9366912841797
y: 335.33465576171875
z: -0.32594460248947144
visibility: 0.9461225867271423
","x: 254.18478393554688
y: 347.20440673828125
z: 0.32391756772994995
visibility: 0.10966464132070541
","x: 248.68992614746094
y: 334.03265380859375
z: -0.3532908260822296
visibility: 0.9237311482429504
","x: 251.24038696289062
y: 347.1824645996094
z: 0.3417668640613556
visibility: 0.14693616330623627
","x: 247.97018432617188
y: 330.08758544921875
z: -0.3458606004714966
visibility: 0.9201459288597107
","x: 251.1013641357422
y: 344.9287109375
z: 0.32560306787490845
visibility: 0.15198257565498352
","x: 250.0751190185547
y: 330.596435546875
z: -0.32334116101264954
visibility: 0.8677041530609131
","x: 251.5414276123047
y: 342.55963134765625
z: 0.31875598430633545
visibility: 0.15846383571624756
","x: 273.19598388671875
y: 403.817626953125
z: -0.07997309416532516
visibility: 0.9992116093635559
","x: 270.8855895996094
y: 400.9574890136719
z: 0.07999780029058456
visibility: 0.9986894726753235
","x: 271.3565368652344
y: 455.7490539550781
z: -0.04688016325235367
visibility: 0.9729176759719849
","x: 259.42596435546875
y: 449.5906066894531
z: 0.08809001743793488
visibility: 0.480241596698761
","x: 287.774169921875
y: 505.8331604003906
z: 0.020486915484070778
visibility: 0.97696453332901
","x: 246.97740173339844
y: 499.3594055175781
z: 0.14173907041549683
visibility: 0.7201321721076965
","x: 293.62066650390625
y: 514.463623046875
z: 0.02660052850842476
visibility: 0.9769353866577148
","x: 249.05368041992188
y: 512.5150146484375
z: 0.14553911983966827
visibility: 0.8035860657691956
","x: 278.3507995605469
y: 522.4193725585938
z: -0.018038621172308922
visibility: 0.9726685881614685
","x: 233.54962158203125
y: 506.7366027832031
z: 0.1098230704665184
visibility: 0.755223274230957
",,,,,,,,,,,,,,,,,,,,,,,,,,,,,,,,,,,,,,,,,,
5,"x: 256.2396240234375
y: 287.7066650390625
z: -0.021555207669734955
visibility: 0.997726321220398
","x: 258.3666687011719
y: 283.0133361816406
z: -0.035766955465078354
visibility: 0.9978588819503784
","x: 258.93505859375
y: 283.1299743652344
z: -0.03580322116613388
visibility: 0.997945249080658
","x: 259.5696105957031
y: 283.071044921875
z: -0.03583290055394173
visibility: 0.9982014298439026
","x: 257.9724426269531
y: 282.77264404296875
z: -0.010880094952881336
visibility: 0.997381329536438
","x: 258.22393798828125
y: 282.7456359863281
z: -0.010880258865654469
visibility: 0.9966345429420471
","x: 258.5306396484375
y: 282.61474609375
z: -0.010885256342589855
visibility: 0.9971666932106018
","x: 264.222412109375
y: 285.678955078125
z: -0.06984791159629822
visibility: 0.9980424046516418
","x: 262.5378723144531
y: 284.9927062988281
z: 0.040733225643634796
visibility: 0.9948856234550476
","x: 258.5108642578125
y: 294.0977783203125
z: -0.03234805911779404
visibility: 0.9962875247001648
","x: 257.75054931640625
y: 294.0161437988281
z: -0.0004315206897445023
visibility: 0.9942474365234375
","x: 273.0059509277344
y: 309.18292236328125
z: -0.13291943073272705
visibility: 0.9998316764831543
","x: 268.1994934082031
y: 314.9556884765625
z: 0.11403337866067886
visibility: 0.9990406632423401
","x: 271.8568420410156
y: 345.293701171875
z: -0.1692931354045868
visibility: 0.988076388835907
","x: 262.87335205078125
y: 347.89691162109375
z: 0.13585735857486725
visibility: 0.049463603645563126
","x: 253.2821807861328
y: 345.1611328125
z: -0.12700946629047394
visibility: 0.9501044750213623
","x: 254.60142517089844
y: 347.9471130371094
z: 0.04958896338939667
visibility: 0.10939403623342514
","x: 249.05313110351562
y: 347.5953674316406
z: -0.14250299334526062
visibility: 0.9285730719566345
","x: 251.3035888671875
y: 349.4225769042969
z: 0.04320097342133522
visibility: 0.1470884382724762
","x: 248.35470581054688
y: 343.7119140625
z: -0.13393907248973846
visibility: 0.9251900911331177
","x: 250.9719696044922
y: 345.6932067871094
z: 0.027777016162872314
visibility: 0.15216195583343506
","x: 250.47775268554688
y: 342.0909118652344
z: -0.12061295658349991
visibility: 0.8753819465637207
","x: 251.92391967773438
y: 344.11126708984375
z: 0.03916367143392563
visibility: 0.15834416449069977
","x: 274.9669189453125
y: 394.1529846191406
z: -0.07924936711788177
visibility: 0.9992358684539795
","x: 270.87030029296875
y: 395.2113342285156
z: 0.07928422838449478
visibility: 0.9987322092056274
","x: 266.23785400390625
y: 451.2995910644531
z: -0.06164269894361496
visibility: 0.97486412525177
","x: 259.92669677734375
y: 447.6517333984375
z: 0.06337331235408783
visibility: 0.5113140344619751
","x: 284.5571594238281
y: 500.79583740234375
z: -0.0620623454451561
visibility: 0.9788529276847839
","x: 267.66937255859375
y: 498.7607421875
z: 0.08495520800352097
visibility: 0.7419921159744263
","x: 290.60076904296875
y: 506.7364196777344
z: -0.06204087287187576
visibility: 0.9782777428627014
","x: 274.94830322265625
y: 510.56964111328125
z: 0.08399991691112518
visibility: 0.8139995336532593
","x: 275.4441223144531
y: 521.337646484375
z: -0.10588277876377106
visibility: 0.9749768972396851
","x: 258.0373229980469
y: 512.9487915039062
z: 0.054390065371990204
visibility: 0.7751717567443848
",,,,,,,,,,,,,,,,,,,,,,,,,,,,,,,,,,,,,,,,,,
6,"x: 256.1473083496094
y: 283.1656494140625
z: -0.13043314218521118
visibility: 0.9979455471038818
","x: 258.3360290527344
y: 277.564453125
z: -0.1392369568347931
visibility: 0.9980611205101013
","x: 259.1320495605469
y: 277.6280517578125
z: -0.13925378024578094
visibility: 0.9981401562690735
","x: 260.0606689453125
y: 277.7064208984375
z: -0.13933095335960388
visibility: 0.9983698129653931
","x: 257.7734069824219
y: 277.5577087402344
z: -0.11528243869543076
visibility: 0.9976277947425842
","x: 258.1708068847656
y: 277.59820556640625
z: -0.11527127027511597
visibility: 0.9969549179077148
","x: 258.2812805175781
y: 277.5954284667969
z: -0.11531186103820801
visibility: 0.9974324107170105
","x: 265.23126220703125
y: 281.44976806640625
z: -0.13869348168373108
visibility: 0.9982320666313171
","x: 262.2799072265625
y: 280.6136779785156
z: -0.030613645911216736
visibility: 0.9953659772872925
","x: 258.76300048828125
y: 290.1910705566406
z: -0.12821388244628906
visibility: 0.9966543912887573
","x: 257.70733642578125
y: 290.4657897949219
z: -0.09736419469118118
visibility: 0.9948102831840515
","x: 276.77081298828125
y: 309.5785827636719
z: -0.1664593517780304
visibility: 0.9998405575752258
","x: 261.8928527832031
y: 314.47613525390625
z: 0.06259417533874512
visibility: 0.9991230964660645
","x: 279.97723388671875
y: 353.6523742675781
z: -0.22242768108844757
visibility: 0.9888851642608643
","x: 263.24951171875
y: 350.67010498046875
z: 0.06854098290205002
visibility: 0.050813186913728714
","x: 262.0873718261719
y: 365.7044677734375
z: -0.2388380765914917
visibility: 0.9494478702545166
","x: 255.39608764648438
y: 368.7955017089844
z: -0.05632079765200615
visibility: 0.11205883324146271
","x: 258.6897277832031
y: 371.5524597167969
z: -0.2664748430252075
visibility: 0.9255995750427246
","x: 253.302978515625
y: 374.0584716796875
z: -0.06935350596904755
visibility: 0.1491391956806183
","x: 258.128173828125
y: 366.754150390625
z: -0.25786495208740234
visibility: 0.9221370816230774
","x: 252.93377685546875
y: 371.3773193359375
z: -0.09110812842845917
visibility: 0.15444187819957733
","x: 258.8790283203125
y: 364.154296875
z: -0.23461666703224182
visibility: 0.8715747594833374
","x: 254.6114959716797
y: 369.2210693359375
z: -0.0689893439412117
visibility: 0.16071049869060516
","x: 275.4930114746094
y: 391.11029052734375
z: -0.0796816423535347
visibility: 0.9992990493774414
","x: 269.3423767089844
y: 391.301025390625
z: 0.07967136800289154
visibility: 0.9988471269607544
","x: 254.33575439453125
y: 430.6179504394531
z: -0.1607298105955124
visibility: 0.9772588610649109
","x: 267.52099609375
y: 446.89532470703125
z: 0.06613216549158096
visibility: 0.5373201370239258
","x: 273.86102294921875
y: 482.7952880859375
z: -0.0641428679227829
visibility: 0.9806278347969055
","x: 275.6827697753906
y: 501.0908508300781
z: 0.15070776641368866
visibility: 0.7661476135253906
","x: 278.8293151855469
y: 484.1798095703125
z: -0.06121908500790596
visibility: 0.979548454284668
","x: 281.40240478515625
y: 510.624755859375
z: 0.15307757258415222
visibility: 0.8306336998939514
","x: 267.3056640625
y: 509.2225646972656
z: -0.10072334110736847
visibility: 0.9769214987754822
","x: 263.59429931640625
y: 521.486083984375
z: 0.10230132192373276
visibility: 0.7957046627998352
",,,,,,,,,,,,,,,,,,,,,,,,,,,,,,,,,,,,,,,,,,
7,"x: 257.4769592285156
y: 281.5457458496094
z: -0.0881650447845459
visibility: 0.9981497526168823
","x: 259.581298828125
y: 275.0191955566406
z: -0.09112880378961563
visibility: 0.9982534646987915
","x: 260.5686340332031
y: 274.9070129394531
z: -0.09118236601352692
visibility: 0.9983249306678772
","x: 261.61492919921875
y: 274.81549072265625
z: -0.0912446677684784
visibility: 0.998531699180603
","x: 258.1075134277344
y: 275.175537109375
z: -0.07319711893796921
visibility: 0.9978624582290649
","x: 258.11541748046875
y: 275.1858825683594
z: -0.07318326085805893
visibility: 0.9972561001777649
","x: 258.0685729980469
y: 275.2260437011719
z: -0.07318003475666046
visibility: 0.9976851940155029
","x: 265.7437438964844
y: 276.7763366699219
z: -0.05224136635661125
visibility: 0.9984081387519836
","x: 261.8813781738281
y: 277.0517578125
z: 0.0019368032226338983
visibility: 0.9958246946334839
","x: 260.52020263671875
y: 286.76593017578125
z: -0.0803491547703743
visibility: 0.99698805809021
","x: 258.3130187988281
y: 287.4264831542969
z: -0.05490807443857193
visibility: 0.9953269958496094
","x: 278.97882080078125
y: 307.6666564941406
z: -0.05350175499916077
visibility: 0.9998561143875122
","x: 256.5426025390625
y: 309.4494934082031
z: 0.08399958163499832
visibility: 0.9992018342018127
","x: 289.8029479980469
y: 343.6277770996094
z: -0.13124151527881622
visibility: 0.9895058274269104
","x: 256.1126403808594
y: 340.59381103515625
z: 0.11184517294168472
visibility: 0.07175243645906448
","x: 299.6689453125
y: 344.1148376464844
z: -0.2435300648212433
visibility: 0.9534273743629456
","x: 252.9437255859375
y: 364.855712890625
z: -0.0036160717718303204
visibility: 0.15660129487514496
","x: 303.65838623046875
y: 341.45098876953125
z: -0.275229275226593
visibility: 0.9310335516929626
","x: 251.4359130859375
y: 371.3331604003906
z: -0.016122639179229736
visibility: 0.19199487566947937
","x: 302.45257568359375
y: 336.78631591796875
z: -0.2836732268333435
visibility: 0.9280581474304199
","x: 252.37698364257812
y: 369.42999267578125
z: -0.03293266147375107
visibility: 0.19926157593727112
","x: 300.33258056640625
y: 337.98858642578125
z: -0.2490576058626175
visibility: 0.881425142288208
","x: 253.66110229492188
y: 367.1305847167969
z: -0.013846658170223236
visibility: 0.20395499467849731
","x: 276.16717529296875
y: 388.2420349121094
z: -0.06385977566242218
visibility: 0.9993501901626587
","x: 268.9974060058594
y: 388.65728759765625
z: 0.06402304023504257
visibility: 0.998935341835022
","x: 260.6571044921875
y: 435.05975341796875
z: -0.15084990859031677
visibility: 0.9763959050178528
","x: 274.58477783203125
y: 446.6958312988281
z: 0.03161144629120827
visibility: 0.5588973164558411
","x: 257.3279113769531
y: 501.6994934082031
z: -0.09132680296897888
visibility: 0.9811056852340698
","x: 285.1374816894531
y: 504.6180725097656
z: 0.06569678336381912
visibility: 0.7831372022628784
","x: 258.6014404296875
y: 514.5623168945312
z: -0.09305007755756378
visibility: 0.9786838293075562
","x: 292.1744384765625
y: 512.5945434570312
z: 0.06444314122200012
visibility: 0.8419784903526306
","x: 243.49179077148438
y: 507.4150390625
z: -0.16221746802330017
visibility: 0.9759755730628967
","x: 274.8359069824219
y: 522.5525512695312
z: 0.002374932635575533
visibility: 0.8060963749885559
",,,,,,,,,,,,,,,,,,,,,,,,,,,,,,,,,,,,,,,,,,
8,"x: 258.11541748046875
y: 282.7523498535156
z: -0.123427614569664
visibility: 0.9983340501785278
","x: 260.13525390625
y: 275.44818115234375
z: -0.1196812242269516
visibility: 0.9984267950057983
","x: 261.18621826171875
y: 275.24298095703125
z: -0.11976907402276993
visibility: 0.9984915256500244
","x: 262.32403564453125
y: 275.07855224609375
z: -0.11983295530080795
visibility: 0.9986774325370789
","x: 258.2376403808594
y: 275.8382568359375
z: -0.1080646738409996
visibility: 0.9980737566947937
","x: 258.0130615234375
y: 275.9300537109375
z: -0.10804875195026398
visibility: 0.9975273013114929
","x: 257.88873291015625
y: 276.048095703125
z: -0.1080501526594162
visibility: 0.9979117512702942
","x: 266.46392822265625
y: 277.0851745605469
z: -0.06486137211322784
visibility: 0.9985663890838623
","x: 261.07049560546875
y: 277.9419860839844
z: -0.016633903607726097
visibility: 0.9962375164031982
","x: 261.213623046875
y: 288.0646667480469
z: -0.10212787240743637
visibility: 0.9972885847091675
","x: 258.60638427734375
y: 288.7275390625
z: -0.08719895780086517
visibility: 0.9957925081253052
","x: 280.14739990234375
y: 308.2917175292969
z: -0.05431576818227768
visibility: 0.9998699426651001
","x: 254.3954620361328
y: 309.45794677734375
z: 0.07011400163173676
visibility: 0.999272346496582
","x: 289.41436767578125
y: 344.6357421875
z: -0.13505248725414276
visibility: 0.9896880388259888
","x: 254.38479614257812
y: 341.748046875
z: 0.09711696952581406
visibility: 0.12467941641807556
","x: 300.33099365234375
y: 337.6533203125
z: -0.27436578273773193
visibility: 0.9572131037712097
","x: 251.0685577392578
y: 368.4032897949219
z: 0.014011703431606293
visibility: 0.21818189322948456
","x: 306.28851318359375
y: 331.9681396484375
z: -0.30881550908088684
visibility: 0.9363862872123718
","x: 249.64422607421875
y: 377.69696044921875
z: 0.0045669227838516235
visibility: 0.247250035405159
","x: 305.6529846191406
y: 325.6426696777344
z: -0.3188962936401367
visibility: 0.9338242411613464
","x: 250.90187072753906
y: 376.7362976074219
z: -0.015290915966033936
visibility: 0.2559068202972412
","x: 303.5005798339844
y: 327.19488525390625
z: -0.2820655405521393
visibility: 0.8910614252090454
","x: 252.05697631835938
y: 373.7856750488281
z: 0.003664884017780423
visibility: 0.2599036991596222
","x: 276.833740234375
y: 389.413818359375
z: -0.05376620218157768
visibility: 0.9993894100189209
","x: 267.9906921386719
y: 390.3874206542969
z: 0.05396217107772827
visibility: 0.9989947080612183
","x: 267.28399658203125
y: 451.9941711425781
z: -0.09476139396429062
visibility: 0.9707205891609192
","x: 275.71002197265625
y: 455.267822265625
z: 0.04968295618891716
visibility: 0.5784034729003906
","x: 256.4710693359375
y: 510.18536376953125
z: -0.06419704109430313
visibility: 0.9805567860603333
","x: 286.548095703125
y: 509.6839599609375
z: 0.09077790379524231
visibility: 0.7952089905738831
","x: 256.950927734375
y: 521.52587890625
z: -0.06808220595121384
visibility: 0.976481020450592
","x: 292.8218078613281
y: 515.6514282226562
z: 0.09549855440855026
visibility: 0.851246178150177
","x: 247.78799438476562
y: 512.1293334960938
z: -0.1396988183259964
visibility: 0.9725189208984375
","x: 275.95745849609375
y: 523.25
z: 0.04505893215537071
visibility: 0.8109216094017029
",,,,,,,,,,,,,,,,,,,,,,,,,,,,,,,,,,,,,,,,,,
9,"x: 257.88671875
y: 283.8666076660156
z: -0.11365710198879242
visibility: 0.998498797416687
","x: 259.7876892089844
y: 276.6240539550781
z: -0.11103790998458862
visibility: 0.9985824227333069
","x: 260.7760009765625
y: 276.365234375
z: -0.11109709739685059
visibility: 0.9986406564712524
","x: 261.84716796875
y: 276.14892578125
z: -0.11114641278982162
visibility: 0.9988081455230713
","x: 258.11456298828125
y: 277.1206359863281
z: -0.09748625755310059
visibility: 0.9982638359069824
","x: 257.5180969238281
y: 277.1953430175781
z: -0.09748730063438416
visibility: 0.997771143913269
","x: 256.962646484375
y: 277.26263427734375
z: -0.09750058501958847
visibility: 0.998117983341217
","x: 266.19317626953125
y: 278.0849914550781
z: -0.0656118392944336
visibility: 0.9987077713012695
","x: 259.00189208984375
y: 278.9527282714844
z: -0.006148272193968296
visibility: 0.9966109991073608
","x: 260.8836669921875
y: 288.9320983886719
z: -0.0955013707280159
visibility: 0.9975587725639343
","x: 258.4444580078125
y: 289.5098876953125
z: -0.07786302268505096
visibility: 0.9962114095687866
","x: 278.9470520019531
y: 313.28509521484375
z: -0.06478115171194077
visibility: 0.9998814463615417
","x: 251.04046630859375
y: 310.02215576171875
z: 0.07180377095937729
visibility: 0.9993387460708618
","x: 285.0347595214844
y: 350.5920104980469
z: -0.144286647439003
visibility: 0.9859957098960876
","x: 247.06100463867188
y: 347.9119873046875
z: 0.06356807798147202
visibility: 0.18343937397003174
","x: 285.09100341796875
y: 353.493408203125
z: -0.26970773935317993
visibility: 0.9467390179634094
","x: 250.0494842529297
y: 377.1133117675781
z: -0.059189628809690475
visibility: 0.2703233063220978
","x: 285.0317687988281
y: 360.2297668457031
z: -0.30178362131118774
visibility: 0.928128719329834
","x: 249.42868041992188
y: 387.0164489746094
z: -0.0843062549829483
visibility: 0.29301467537879944
","x: 284.64385986328125
y: 354.13232421875
z: -0.30803388357162476
visibility: 0.9261260032653809
","x: 251.32810974121094
y: 384.321044921875
z: -0.09696977585554123
visibility: 0.30210524797439575
","x: 284.17730712890625
y: 353.98748779296875
z: -0.2745535671710968
visibility: 0.882056474685669
","x: 252.02345275878906
y: 380.43768310546875
z: -0.06858543306589127
visibility: 0.30229896306991577
","x: 271.61688232421875
y: 395.7541198730469
z: -0.059309523552656174
visibility: 0.999445378780365
","x: 258.2449035644531
y: 395.5887145996094
z: 0.05940849706530571
visibility: 0.9990746378898621
","x: 264.8931579589844
y: 455.5345153808594
z: -0.09939079731702805
visibility: 0.9720240831375122
","x: 253.25396728515625
y: 453.543212890625
z: 0.03271525353193283
visibility: 0.6183332204818726
","x: 262.65911865234375
y: 514.11669921875
z: -0.054620612412691116
visibility: 0.9823015928268433
","x: 281.9576416015625
y: 478.6734313964844
z: 0.1672060638666153
visibility: 0.8131887316703796
","x: 266.19854736328125
y: 523.9232177734375
z: -0.05480102449655533
visibility: 0.9759261608123779
","x: 287.53692626953125
y: 475.33123779296875
z: 0.1801830381155014
visibility: 0.8638660311698914
","x: 253.96908569335938
y: 526.9619140625
z: -0.13471665978431702
visibility: 0.9749024510383606
","x: 281.12994384765625
y: 504.2303771972656
z: 0.1500893235206604
visibility: 0.8275484442710876
",,,,,,,,,,,,,,,,,,,,,,,,,,,,,,,,,,,,,,,,,,
10,"x: 255.19186401367188
y: 282.83392333984375
z: -0.18947634100914001
visibility: 0.9986446499824524
","x: 257.21343994140625
y: 275.6490173339844
z: -0.18492574989795685
visibility: 0.9987182021141052
","x: 258.4874572753906
y: 275.3270568847656
z: -0.18496331572532654
visibility: 0.9987702965736389
","x: 259.8545227050781
y: 275.0252685546875
z: -0.18501287698745728
visibility: 0.9989215731620789
","x: 254.65902709960938
y: 276.41900634765625
z: -0.17196816205978394
visibility: 0.9984308481216431
","x: 254.01950073242188
y: 276.6195373535156
z: -0.17197683453559875
visibility: 0.9979852437973022
","x: 253.4345703125
y: 276.8368225097656
z: -0.17201368510723114
visibility: 0.998299777507782
","x: 264.07672119140625
y: 276.9935302734375
z: -0.13170041143894196
visibility: 0.9988265037536621
","x: 255.85801696777344
y: 278.5162048339844
z: -0.07239461690187454
visibility: 0.9969372749328613
","x: 258.4501037597656
y: 288.2333679199219
z: -0.16832803189754486
visibility: 0.9977966547012329
","x: 255.4336700439453
y: 288.9085998535156
z: -0.15107505023479462
visibility: 0.9965797662734985
","x: 275.80255126953125
y: 313.2570495605469
z: -0.11275763809680939
visibility: 0.9998799562454224
","x: 249.9720458984375
y: 310.11480712890625
z: 0.01171436533331871
visibility: 0.9993757605552673
","x: 274.9021301269531
y: 353.3261413574219
z: -0.12322087585926056
visibility: 0.9682400226593018
","x: 247.2273712158203
y: 352.3396301269531
z: 0.0348055437207222
visibility: 0.22263601422309875
","x: 281.8536682128906
y: 380.9582824707031
z: -0.1602506935596466
visibility: 0.8831852674484253
","x: 250.6337890625
y: 383.17242431640625
z: -0.04883880168199539
visibility: 0.29214954376220703
","x: 278.20660400390625
y: 388.6570739746094
z: -0.17899301648139954
visibility: 0.8679770231246948
","x: 250.32846069335938
y: 393.90191650390625
z: -0.06667517125606537
visibility: 0.30925583839416504
","x: 277.8977355957031
y: 386.2783203125
z: -0.19081339240074158
visibility: 0.8672217130661011
","x: 251.7533416748047
y: 391.5336608886719
z: -0.08213980495929718
visibility: 0.318219929933548
","x: 279.7774963378906
y: 383.5871887207031
z: -0.16508981585502625
visibility: 0.8246744275093079
","x: 252.12747192382812
y: 387.1903991699219
z: -0.05756547302007675
visibility: 0.31682875752449036
","x: 267.4248962402344
y: 396.8354797363281
z: -0.06026913970708847
visibility: 0.9994928240776062
","x: 254.27044677734375
y: 395.53460693359375
z: 0.060275446623563766
visibility: 0.9991326332092285
","x: 261.35198974609375
y: 452.62744140625
z: -0.11555252969264984
visibility: 0.9730545878410339
","x: 242.4056396484375
y: 444.8021240234375
z: 0.027732664719223976
visibility: 0.6512553691864014
","x: 265.3442077636719
y: 510.71429443359375
z: -0.041133273392915726
visibility: 0.9837854504585266
","x: 270.51788330078125
y: 473.131103515625
z: 0.2051571160554886
visibility: 0.8206371068954468
","x: 270.0308532714844
y: 519.7611694335938
z: -0.036871109157800674
visibility: 0.9748204946517944
","x: 277.19512939453125
y: 464.9143981933594
z: 0.22275468707084656
visibility: 0.8676378130912781
","x: 254.36001586914062
y: 530.5333251953125
z: -0.11726145446300507
visibility: 0.9768991470336914
","x: 279.1455993652344
y: 494.97369384765625
z: 0.20216640830039978
visibility: 0.8348056674003601
",,,,,,,,,,,,,,,,,,,,,,,,,,,,,,,,,,,,,,,,,,
11,"x: 250.94346618652344
y: 282.7390441894531
z: -0.16449351608753204
visibility: 0.9987772703170776
","x: 253.2225341796875
y: 276.35894775390625
z: -0.16276788711547852
visibility: 0.9988422989845276
","x: 254.5535430908203
y: 276.121337890625
z: -0.16285040974617004
visibility: 0.9988893270492554
","x: 255.96621704101562
y: 275.89434814453125
z: -0.1629219502210617
visibility: 0.9990254044532776
","x: 250.79249572753906
y: 276.85125732421875
z: -0.14594081044197083
visibility: 0.9985827803611755
","x: 250.30145263671875
y: 276.952880859375
z: -0.14589224755764008
visibility: 0.998179018497467
","x: 249.87684631347656
y: 277.0568542480469
z: -0.14589093625545502
visibility: 0.9984591603279114
","x: 259.83990478515625
y: 277.83990478515625
z: -0.116673544049263
visibility: 0.9989403486251831
","x: 252.8015594482422
y: 278.691650390625
z: -0.04033365473151207
visibility: 0.9972302913665771
","x: 253.86766052246094
y: 288.30340576171875
z: -0.14492666721343994
visibility: 0.9980107545852661
","x: 251.1063232421875
y: 288.70654296875
z: -0.12292716652154922
visibility: 0.9969068765640259
","x: 265.429443359375
y: 309.038818359375
z: -0.125156432390213
visibility: 0.999890148639679
","x: 251.9514617919922
y: 308.8789978027344
z: 0.04717163369059563
visibility: 0.9993903636932373
","x: 269.0546875
y: 339.3740234375
z: -0.22910740971565247
visibility: 0.9702014327049255
","x: 251.5298309326172
y: 348.349853515625
z: 0.14334823191165924
visibility: 0.20332375168800354
","x: 263.6576232910156
y: 336.4660949707031
z: -0.32855552434921265
visibility: 0.8924335837364197
","x: 248.02133178710938
y: 370.3565979003906
z: 0.09934772551059723
visibility: 0.2768014073371887
","x: 260.6318054199219
y: 335.08062744140625
z: -0.3596176505088806
visibility: 0.8773470520973206
","x: 245.5635986328125
y: 379.85235595703125
z: 0.09723692387342453
visibility: 0.29786837100982666
","x: 260.41162109375
y: 330.2912902832031
z: -0.3554007411003113
visibility: 0.8766722679138184
","x: 245.90907287597656
y: 378.9783935546875
z: 0.07505233585834503
visibility: 0.3069826662540436
","x: 261.167236328125
y: 332.52471923828125
z: -0.3282502591609955
visibility: 0.8348177075386047
","x: 247.08978271484375
y: 376.81494140625
z: 0.08837774395942688
visibility: 0.30470022559165955
","x: 263.7685546875
y: 396.8067932128906
z: -0.06564788520336151
visibility: 0.9995325803756714
","x: 252.13723754882812
y: 395.4892578125
z: 0.06560160219669342
visibility: 0.9991941452026367
","x: 255.59005737304688
y: 452.3601989746094
z: -0.07489916682243347
visibility: 0.9745520949363708
","x: 241.68826293945312
y: 444.9332275390625
z: 0.04084131866693497
visibility: 0.6827183365821838
","x: 262.74462890625
y: 508.9047546386719
z: -0.010987239889800549
visibility: 0.985050618648529
","x: 249.9905242919922
y: 491.1848449707031
z: 0.16369597613811493
visibility: 0.8369079232215881
","x: 268.1910095214844
y: 517.6294555664062
z: -0.008747889660298824
visibility: 0.9745281338691711
","x: 253.4739532470703
y: 499.7512512207031
z: 0.17184123396873474
visibility: 0.8770895600318909
","x: 252.55133056640625
y: 528.029296875
z: -0.08600638806819916
visibility: 0.9788302779197693
","x: 236.02005004882812
y: 503.5531005859375
z: 0.16711366176605225
visibility: 0.8501030206680298
",,,,,,,,,,,,,,,,,,,,,,,,,,,,,,,,,,,,,,,,,,
12,"x: 247.5072021484375
y: 274.0994567871094
z: -0.05239943414926529
visibility: 0.9984536170959473
","x: 249.46054077148438
y: 269.8037414550781
z: -0.06904341280460358
visibility: 0.998383641242981
","x: 249.93055725097656
y: 269.8651428222656
z: -0.06906917691230774
visibility: 0.9985237121582031
","x: 250.4523468017578
y: 269.96051025390625
z: -0.06907911598682404
visibility: 0.9987188577651978
","x: 249.30535888671875
y: 269.848876953125
z: -0.043141547590494156
visibility: 0.9980095028877258
","x: 249.6109161376953
y: 269.9097900390625
z: -0.04312026500701904
visibility: 0.9975646138191223
","x: 249.9552459716797
y: 269.92108154296875
z: -0.04318898171186447
visibility: 0.9979227781295776
","x: 254.55099487304688
y: 273.46978759765625
z: -0.10614273697137833
visibility: 0.9986502528190613
","x: 253.96856689453125
y: 272.6590270996094
z: 0.0037947476375848055
visibility: 0.9965111613273621
","x: 248.74322509765625
y: 279.2242126464844
z: -0.0655483528971672
visibility: 0.997826874256134
","x: 248.5423583984375
y: 279.3224182128906
z: -0.03190942481160164
visibility: 0.9966523051261902
","x: 256.3893737792969
y: 301.5928955078125
z: -0.1624937206506729
visibility: 0.9998968839645386
","x: 255.8168182373047
y: 305.2576904296875
z: 0.07448668777942657
visibility: 0.9993810057640076
","x: 260.54351806640625
y: 342.0545654296875
z: -0.22325864434242249
visibility: 0.9684805870056152
","x: 253.19686889648438
y: 344.81927490234375
z: 0.13166451454162598
visibility: 0.18770968914031982
","x: 258.4552917480469
y: 379.05706787109375
z: -0.2701125144958496
visibility: 0.8866742849349976
","x: 245.93023681640625
y: 375.6773681640625
z: 0.08743126690387726
visibility: 0.25774502754211426
","x: 259.35040283203125
y: 388.3275146484375
z: -0.2997075021266937
visibility: 0.8695501089096069
","x: 243.09396362304688
y: 384.1382141113281
z: 0.08940237015485764
visibility: 0.2783817648887634
","x: 258.0300598144531
y: 388.6482238769531
z: -0.29972702264785767
visibility: 0.8674669861793518
","x: 242.27886962890625
y: 385.1358337402344
z: 0.06609214842319489
visibility: 0.28692862391471863
","x: 257.6286926269531
y: 385.99298095703125
z: -0.2706902027130127
visibility: 0.8201633095741272
","x: 243.56588745117188
y: 382.7293701171875
z: 0.0758456438779831
visibility: 0.2854609489440918
","x: 256.868896484375
y: 392.6144104003906
z: -0.07881541550159454
visibility: 0.9995236396789551
","x: 256.8187561035156
y: 392.41741943359375
z: 0.07872263342142105
visibility: 0.9991375803947449
","x: 250.17843627929688
y: 451.38775634765625
z: -0.06776683777570724
visibility: 0.9755223989486694
","x: 247.83848571777344
y: 445.0296325683594
z: 0.10154682397842407
visibility: 0.6858619451522827
","x: 259.16558837890625
y: 508.1422424316406
z: -0.025005420669913292
visibility: 0.9861383438110352
","x: 254.3070068359375
y: 497.3109436035156
z: 0.16579195857048035
visibility: 0.8408426642417908
","x: 266.36749267578125
y: 520.0556640625
z: -0.023470284417271614
visibility: 0.9761388301849365
","x: 259.1400146484375
y: 508.6749572753906
z: 0.1696769893169403
visibility: 0.8771690726280212
","x: 247.5226287841797
y: 525.9207763671875
z: -0.08086688071489334
visibility: 0.9803887605667114
","x: 240.96719360351562
y: 509.6138000488281
z: 0.14107921719551086
visibility: 0.8584882616996765
",,,,,,,,,,,,,,,,,,,,,,,,,,,,,,,,,,,,,,,,,,
13,"x: 246.03318786621094
y: 275.8277282714844
z: -0.04862435534596443
visibility: 0.9984606504440308
","x: 248.1383514404297
y: 271.2403259277344
z: -0.06378033012151718
visibility: 0.9983561635017395
","x: 248.725830078125
y: 271.2805480957031
z: -0.06381134688854218
visibility: 0.9985013008117676
","x: 249.37440490722656
y: 271.3657531738281
z: -0.0638350322842598
visibility: 0.9987125396728516
","x: 247.80767822265625
y: 271.3222961425781
z: -0.03723234683275223
visibility: 0.9979959726333618
","x: 248.11643981933594
y: 271.3819580078125
z: -0.03720782697200775
visibility: 0.9975405931472778
","x: 248.47967529296875
y: 271.40008544921875
z: -0.037240054458379745
visibility: 0.9979241490364075
","x: 253.7478485107422
y: 274.6967468261719
z: -0.10247959941625595
visibility: 0.9986861944198608
","x: 252.8756561279297
y: 273.85919189453125
z: 0.01688794605433941
visibility: 0.9965595602989197
","x: 247.39105224609375
y: 281.41796875
z: -0.06088646501302719
visibility: 0.9978863596916199
","x: 246.81158447265625
y: 281.4263000488281
z: -0.026337867602705956
visibility: 0.9967899918556213
","x: 256.0915832519531
y: 303.2939453125
z: -0.16563215851783752
visibility: 0.9998992681503296
","x: 255.32736206054688
y: 305.90264892578125
z: 0.09579621255397797
visibility: 0.9994170665740967
","x: 258.4365234375
y: 351.4031982421875
z: -0.21032965183258057
visibility: 0.9688509702682495
","x: 250.4321746826172
y: 345.6231689453125
z: 0.1377710998058319
visibility: 0.174622043967247
","x: 254.1031494140625
y: 388.11627197265625
z: -0.18434938788414001
visibility: 0.8839294910430908
","x: 242.411376953125
y: 376.462158203125
z: 0.09450042992830276
visibility: 0.24344976246356964
","x: 253.0149383544922
y: 398.7772216796875
z: -0.20392771065235138
visibility: 0.8640530109405518
","x: 239.4551239013672
y: 383.76416015625
z: 0.0973777025938034
visibility: 0.26382386684417725
","x: 251.13206481933594
y: 398.37811279296875
z: -0.19998599588871002
visibility: 0.8609092235565186
","x: 238.8175048828125
y: 384.1653137207031
z: 0.07377827912569046
visibility: 0.27220210433006287
","x: 251.06878662109375
y: 395.2996520996094
z: -0.18151025474071503
visibility: 0.8103362321853638
","x: 240.1754608154297
y: 381.90008544921875
z: 0.08276352286338806
visibility: 0.2720644772052765
","x: 255.68455505371094
y: 392.7493896484375
z: -0.08283549547195435
visibility: 0.9995316863059998
","x: 255.92771911621094
y: 392.95574951171875
z: 0.08287100493907928
visibility: 0.9991962909698486
","x: 238.00868225097656
y: 442.8936767578125
z: -0.0974779948592186
visibility: 0.9763644337654114
","x: 247.63726806640625
y: 443.91046142578125
z: 0.08281528949737549
visibility: 0.6809056997299194
","x: 259.79437255859375
y: 488.4384460449219
z: -0.025795215740799904
visibility: 0.9860477447509766
","x: 257.1802978515625
y: 497.5709228515625
z: 0.11951961368322372
visibility: 0.8450636863708496
","x: 266.1758728027344
y: 487.8055419921875
z: -0.03230071812868118
visibility: 0.9760679006576538
","x: 262.2498779296875
y: 510.98065185546875
z: 0.11992379277944565
visibility: 0.8791280388832092
","x: 251.03811645507812
y: 515.0665893554688
z: -0.059023499488830566
visibility: 0.9805588722229004
","x: 246.0414276123047
y: 516.0162963867188
z: 0.09739251434803009
visibility: 0.8632038235664368
",,,,,,,,,,,,,,,,,,,,,,,,,,,,,,,,,,,,,,,,,,
14,"x: 244.5740966796875
y: 275.25262451171875
z: -0.09783409535884857
visibility: 0.998563289642334
","x: 246.5458526611328
y: 269.934814453125
z: -0.10593549907207489
visibility: 0.9984633922576904
","x: 247.39617919921875
y: 269.8807373046875
z: -0.10597772896289825
visibility: 0.9985993504524231
","x: 248.33544921875
y: 269.8913269042969
z: -0.1060221940279007
visibility: 0.9987912178039551
","x: 245.31263732910156
y: 270.103271484375
z: -0.0828150138258934
visibility: 0.998124897480011
","x: 245.2621612548828
y: 270.12384033203125
z: -0.08277739584445953
visibility: 0.9976891279220581
","x: 245.22360229492188
y: 270.14410400390625
z: -0.08280633389949799
visibility: 0.9980322122573853
","x: 253.0226593017578
y: 273.29339599609375
z: -0.10964424908161163
visibility: 0.9987785816192627
","x: 249.7263946533203
y: 272.44488525390625
z: -0.006179689429700375
visibility: 0.9967679381370544
","x: 246.79373168945312
y: 281.0030212402344
z: -0.09648922830820084
visibility: 0.9980247020721436
","x: 245.25930786132812
y: 281.0876770019531
z: -0.06663097441196442
visibility: 0.9969828724861145
","x: 256.923583984375
y: 303.04345703125
z: -0.15234002470970154
visibility: 0.9999035000801086
","x: 254.22792053222656
y: 303.20458984375
z: 0.0933946818113327
visibility: 0.9993618726730347
","x: 258.171142578125
y: 351.1864929199219
z: -0.203309565782547
visibility: 0.9690765738487244
","x: 250.10519409179688
y: 341.6741638183594
z: 0.15647614002227783
visibility: 0.16019652783870697
","x: 254.34957885742188
y: 388.09698486328125
z: -0.1936272531747818
visibility: 0.8794129490852356
","x: 242.22679138183594
y: 358.03729248046875
z: 0.12294840812683105
visibility: 0.22707846760749817
","x: 254.31246948242188
y: 397.7552490234375
z: -0.21562311053276062
visibility: 0.8560622334480286
","x: 240.02867126464844
y: 362.288330078125
z: 0.12630107998847961
visibility: 0.24828866124153137
","x: 252.543212890625
y: 396.4637756347656
z: -0.21628233790397644
visibility: 0.8524934649467468
","x: 238.39614868164062
y: 360.563720703125
z: 0.10302168130874634
visibility: 0.2566867768764496
","x: 252.5741729736328
y: 393.147705078125
z: -0.1933232694864273
visibility: 0.7998712658882141
","x: 239.41058349609375
y: 359.7192077636719
z: 0.11175403743982315
visibility: 0.2574605941772461
","x: 255.95875549316406
y: 391.2715148925781
z: -0.08117394894361496
visibility: 0.999530017375946
","x: 257.4351806640625
y: 389.818603515625
z: 0.08124494552612305
visibility: 0.9991299510002136
","x: 239.9018096923828
y: 437.4894714355469
z: -0.09655781090259552
visibility: 0.9763398766517639
","x: 249.00775146484375
y: 438.31829833984375
z: 0.10637624561786652
visibility: 0.6539763808250427
","x: 254.4749755859375
y: 492.505126953125
z: -0.04844377934932709
visibility: 0.9857455492019653
","x: 257.9589538574219
y: 493.4813232421875
z: 0.16992881894111633
visibility: 0.8324313163757324
","x: 260.1571044921875
y: 494.6260986328125
z: -0.04953981563448906
visibility: 0.9762408137321472
","x: 263.1619873046875
y: 509.270263671875
z: 0.17312034964561462
visibility: 0.8724094033241272
","x: 243.61825561523438
y: 516.099365234375
z: -0.08084118366241455
visibility: 0.980316698551178
","x: 246.67112731933594
y: 513.4938354492188
z: 0.1430394947528839
visibility: 0.8566802740097046
",,,,,,,,,,,,,,,,,,,,,,,,,,,,,,,,,,,,,,,,,,
15,"x: 246.70114135742188
y: 276.6448669433594
z: -0.1457844078540802
visibility: 0.9987061619758606
","x: 248.7091827392578
y: 271.0794372558594
z: -0.14043939113616943
visibility: 0.9986156225204468
","x: 249.57040405273438
y: 271.06951904296875
z: -0.1404736489057541
visibility: 0.9987379312515259
","x: 250.41123962402344
y: 271.09149169921875
z: -0.1405150145292282
visibility: 0.9989100694656372
","x: 247.11279296875
y: 271.09173583984375
z: -0.12746641039848328
visibility: 0.9983114004135132
","x: 246.77012634277344
y: 271.09503173828125
z: -0.12743933498859406
visibility: 0.9979190826416016
","x: 246.3657989501953
y: 271.0893859863281
z: -0.1274913251399994
visibility: 0.998227596282959
","x: 255.01150512695312
y: 273.83428955078125
z: -0.09251262992620468
visibility: 0.9988977313041687
","x: 249.0598602294922
y: 273.5412902832031
z: -0.028485562652349472
visibility: 0.9970896244049072
","x: 249.0240936279297
y: 282.20361328125
z: -0.12386959791183472
visibility: 0.9982188940048218
","x: 246.88336181640625
y: 282.4245910644531
z: -0.10781928151845932
visibility: 0.9972823858261108
","x: 260.21881103515625
y: 303.72479248046875
z: -0.10548746585845947
visibility: 0.999866783618927
","x: 247.09608459472656
y: 303.6525573730469
z: 0.07302810251712799
visibility: 0.9994103908538818
","x: 262.7034912109375
y: 343.2796936035156
z: -0.21559758484363556
visibility: 0.9700660705566406
","x: 241.2925262451172
y: 341.8176574707031
z: 0.07911071181297302
visibility: 0.16982798278331757
","x: 257.7799072265625
y: 310.58984375
z: -0.31929782032966614
visibility: 0.8831305503845215
","x: 238.56422424316406
y: 366.5362243652344
z: -0.018081780523061752
visibility: 0.24777905642986298
","x: 257.7628173828125
y: 300.0169982910156
z: -0.35042762756347656
visibility: 0.8570619821548462
","x: 236.6549835205078
y: 373.2762451171875
z: -0.023155104368925095
visibility: 0.26675665378570557
","x: 253.5707244873047
y: 296.39422607421875
z: -0.34038612246513367
visibility: 0.8530471920967102
","x: 236.53688049316406
y: 371.5646057128906
z: -0.042901840060949326
visibility: 0.2754926085472107
","x: 254.40249633789062
y: 299.6933288574219
z: -0.31819960474967957
visibility: 0.8013483881950378
","x: 237.73329162597656
y: 370.4755859375
z: -0.02787231281399727
visibility: 0.274595707654953
","x: 256.1934814453125
y: 392.1502380371094
z: -0.07035739719867706
visibility: 0.9995359778404236
","x: 256.39984130859375
y: 391.1024169921875
z: 0.07037626951932907
visibility: 0.9991438388824463
","x: 245.18943786621094
y: 452.11077880859375
z: -0.07555367797613144
visibility: 0.9779579639434814
","x: 252.594970703125
y: 450.78179931640625
z: 0.10550309717655182
visibility: 0.6698249578475952
","x: 245.22988891601562
y: 510.29248046875
z: -0.04846740514039993
visibility: 0.9860268831253052
","x: 259.59344482421875
y: 506.28375244140625
z: 0.17178447544574738
visibility: 0.8438100218772888
","x: 247.01473999023438
y: 520.3069458007812
z: -0.050048768520355225
visibility: 0.9778361320495605
","x: 264.6701354980469
y: 516.0938720703125
z: 0.17472687363624573
visibility: 0.88217693567276
","x: 231.16844177246094
y: 516.119140625
z: -0.10920511186122894
visibility: 0.9793118834495544
","x: 248.85812377929688
y: 517.1032104492188
z: 0.13225822150707245
visibility: 0.8622773885726929
",,,,,,,,,,,,,,,,,,,,,,,,,,,,,,,,,,,,,,,,,,
16,"x: 247.495849609375
y: 276.97088623046875
z: -0.1510154753923416
visibility: 0.9988330006599426
","x: 249.52943420410156
y: 271.4835205078125
z: -0.14355331659317017
visibility: 0.9987503886222839
","x: 250.51028442382812
y: 271.5159912109375
z: -0.14359334111213684
visibility: 0.9988604187965393
","x: 251.45416259765625
y: 271.59210205078125
z: -0.14363636076450348
visibility: 0.9990144371986389
","x: 247.47361755371094
y: 271.3331298828125
z: -0.13368746638298035
visibility: 0.9984760284423828
","x: 246.8592529296875
y: 271.2726745605469
z: -0.133662611246109
visibility: 0.998121440410614
","x: 246.1891632080078
y: 271.21630859375
z: -0.1336875855922699
visibility: 0.9983989596366882
","x: 255.826171875
y: 274.49267578125
z: -0.08563544601202011
visibility: 0.9990013837814331
","x: 247.04763793945312
y: 273.658203125
z: -0.03926687315106392
visibility: 0.997376024723053
","x: 249.7926483154297
y: 282.8918151855469
z: -0.12769438326358795
visibility: 0.9983910322189331
","x: 247.09402465820312
y: 282.8488464355469
z: -0.11542631685733795
visibility: 0.9975500106811523
","x: 261.78900146484375
y: 302.75445556640625
z: -0.09345602244138718
visibility: 0.9998694658279419
","x: 239.1356964111328
y: 304.39794921875
z: 0.057622648775577545
visibility: 0.9994624853134155
","x: 263.52117919921875
y: 343.3343200683594
z: -0.2199871987104416
visibility: 0.9713900089263916
","x: 234.4928436279297
y: 342.4908142089844
z: 0.05335940793156624
visibility: 0.20740264654159546
","x: 263.78240966796875
y: 311.20294189453125
z: -0.3546869158744812
visibility: 0.8899210691452026
","x: 233.14144897460938
y: 373.1124267578125
z: -0.048161961138248444
visibility: 0.28518572449684143
","x: 264.4637451171875
y: 301.491943359375
z: -0.3870967626571655
visibility: 0.864225447177887
","x: 234.1937713623047
y: 383.9984130859375
z: -0.05638817697763443
visibility: 0.297049880027771
","x: 265.25689697265625
y: 297.5450439453125
z: -0.37928327918052673
visibility: 0.8604827523231506
","x: 232.94989013671875
y: 381.01092529296875
z: -0.07274480909109116
visibility: 0.3056924641132355
","x: 264.60406494140625
y: 302.14764404296875
z: -0.3554946780204773
visibility: 0.81090247631073
","x: 234.3485870361328
y: 378.7665100097656
z: -0.05678543448448181
visibility: 0.30416128039360046
","x: 255.7578887939453
y: 389.9044494628906
z: -0.06877249479293823
visibility: 0.9995678663253784
","x: 249.41954040527344
y: 389.631591796875
z: 0.06878440827131271
visibility: 0.9992047548294067
","x: 242.44314575195312
y: 450.0418701171875
z: -0.1013432964682579
visibility: 0.9783712029457092
","x: 249.9556427001953
y: 448.5184326171875
z: 0.06006714701652527
visibility: 0.6650651097297668
","x: 255.12274169921875
y: 509.33978271484375
z: -0.07219196856021881
visibility: 0.9861832857131958
","x: 260.1180114746094
y: 506.03094482421875
z: 0.10807804018259048
visibility: 0.8487301468849182
","x: 260.1884460449219
y: 514.1993408203125
z: -0.07147082686424255
visibility: 0.9772135019302368
","x: 265.3367614746094
y: 515.2509765625
z: 0.1083754450082779
visibility: 0.8857672214508057
","x: 245.77877807617188
y: 518.216552734375
z: -0.12439040839672089
visibility: 0.9800204634666443
","x: 248.92422485351562
y: 516.843505859375
z: 0.05411135405302048
visibility: 0.8684322834014893
",,,,,,,,,,,,,,,,,,,,,,,,,,,,,,,,,,,,,,,,,,
17,"x: 246.9660186767578
y: 281.3289794921875
z: -0.1385132372379303
visibility: 0.9989484548568726
","x: 249.2789306640625
y: 276.356689453125
z: -0.13097220659255981
visibility: 0.9988735914230347
","x: 250.3968505859375
y: 276.7615966796875
z: -0.13100184500217438
visibility: 0.9989724159240723
","x: 251.56422424316406
y: 277.2421875
z: -0.1310339868068695
visibility: 0.9991106390953064
","x: 246.94871520996094
y: 275.34710693359375
z: -0.12171290069818497
visibility: 0.9986268281936646
","x: 246.2926788330078
y: 275.0234069824219
z: -0.12171007692813873
visibility: 0.998306930065155
","x: 245.6101837158203
y: 274.70758056640625
z: -0.12172313034534454
visibility: 0.9985569715499878
","x: 255.46185302734375
y: 280.63250732421875
z: -0.06533398479223251
visibility: 0.9990983605384827
","x: 246.447998046875
y: 277.2690124511719
z: -0.030094832181930542
visibility: 0.9976359605789185
","x: 248.7014923095703
y: 287.04473876953125
z: -0.11576499044895172
visibility: 0.9985491633415222
","x: 245.88357543945312
y: 286.3956604003906
z: -0.10362453758716583
visibility: 0.9977936148643494
","x: 262.50555419921875
y: 308.74517822265625
z: -0.05986325815320015
visibility: 0.9998748302459717
","x: 234.94432067871094
y: 307.6910705566406
z: 0.06081768125295639
visibility: 0.9995149374008179
","x: 264.5239562988281
y: 349.6502685546875
z: -0.17725074291229248
visibility: 0.972610354423523
","x: 230.16909790039062
y: 347.37744140625
z: 0.04955925792455673
visibility: 0.27405011653900146
","x: 266.6606750488281
y: 326.36370849609375
z: -0.3235985040664673
visibility: 0.8932762742042542
","x: 233.67745971679688
y: 378.996337890625
z: -0.061961330473423004
visibility: 0.3434150218963623
","x: 266.85565185546875
y: 319.37713623046875
z: -0.3588699698448181
visibility: 0.8659347891807556
","x: 234.23793029785156
y: 390.9226989746094
z: -0.07570840418338776
visibility: 0.34836775064468384
","x: 268.0533752441406
y: 315.0106506347656
z: -0.354153573513031
visibility: 0.8622411489486694
","x: 236.2848663330078
y: 388.3670654296875
z: -0.08957906067371368
visibility: 0.35627278685569763
","x: 267.08758544921875
y: 318.213623046875
z: -0.32558882236480713
visibility: 0.811655580997467
","x: 236.0856170654297
y: 383.28900146484375
z: -0.06920691579580307
visibility: 0.3519764244556427
","x: 255.13104248046875
y: 390.4922790527344
z: -0.0628034695982933
visibility: 0.9996047019958496
","x: 247.18283081054688
y: 392.070068359375
z: 0.06286917626857758
visibility: 0.9992800354957581
","x: 241.46127319335938
y: 446.422607421875
z: -0.17487835884094238
visibility: 0.9781553149223328
","x: 250.7040557861328
y: 451.0044860839844
z: 0.060865551233291626
visibility: 0.6706600785255432
","x: 263.59954833984375
y: 485.9463195800781
z: -0.1512940675020218
visibility: 0.983937680721283
","x: 260.7013854980469
y: 508.76788330078125
z: 0.09133703261613846
visibility: 0.8531685471534729
","x: 267.98681640625
y: 484.1976318359375
z: -0.15018506348133087
visibility: 0.9744038581848145
","x: 266.1496276855469
y: 519.0189208984375
z: 0.08920566737651825
visibility: 0.8862923979759216
","x: 261.4548645019531
y: 506.07781982421875
z: -0.19758841395378113
visibility: 0.9797279238700867
","x: 249.6136932373047
y: 522.6488647460938
z: 0.03212735429406166
visibility: 0.8700435757637024
",,,,,,,,,,,,,,,,,,,,,,,,,,,,,,,,,,,,,,,,,,
18,"x: 244.95077514648438
y: 281.50164794921875
z: -0.1653345227241516
visibility: 0.9990520477294922
","x: 247.37623596191406
y: 276.67498779296875
z: -0.1523183286190033
visibility: 0.998984158039093
","x: 248.63339233398438
y: 277.1619873046875
z: -0.15236981213092804
visibility: 0.9990731477737427
","x: 249.95481872558594
y: 277.76025390625
z: -0.1524076610803604
visibility: 0.9991971254348755
","x: 244.37857055664062
y: 275.6500244140625
z: -0.14798972010612488
visibility: 0.9987615942955017
","x: 243.3286895751953
y: 275.3560791015625
z: -0.14798632264137268
visibility: 0.9984732866287231
","x: 242.22581481933594
y: 275.0644226074219
z: -0.14796702563762665
visibility: 0.9986981153488159
","x: 253.08779907226562
y: 282.387451171875
z: -0.07565861195325851
visibility: 0.999184250831604
","x: 241.4208984375
y: 277.916259765625
z: -0.05819540098309517
visibility: 0.9978684782981873
","x: 246.63540649414062
y: 287.9295959472656
z: -0.13722923398017883
visibility: 0.9986932277679443
","x: 243.02581787109375
y: 287.09820556640625
z: -0.13202640414237976
visibility: 0.9980131387710571
","x: 259.1177978515625
y: 316.5316162109375
z: -0.07092518359422684
visibility: 0.9998854398727417
","x: 229.7740478515625
y: 310.01324462890625
z: 0.016776230186223984
visibility: 0.9995577931404114
","x: 262.1687316894531
y: 357.21368408203125
z: -0.15607912838459015
visibility: 0.9709383845329285
","x: 223.85009765625
y: 349.21270751953125
z: 0.012856757268309593
visibility: 0.3376288414001465
","x: 266.48785400390625
y: 341.64691162109375
z: -0.3032049238681793
visibility: 0.8949531316757202
","x: 228.53370666503906
y: 381.813232421875
z: -0.08054474741220474
visibility: 0.3972818851470947
","x: 266.1652526855469
y: 332.590087890625
z: -0.3386486768722534
visibility: 0.868769645690918
","x: 229.89013671875
y: 393.76202392578125
z: -0.10117737203836441
visibility: 0.3969596326351166
","x: 266.86053466796875
y: 317.7628173828125
z: -0.33856162428855896
visibility: 0.8655781149864197
","x: 232.20689392089844
y: 391.3586120605469
z: -0.11413533985614777
visibility: 0.4050223231315613
","x: 266.4336242675781
y: 324.7069091796875
z: -0.30676987767219543
visibility: 0.8156222105026245
","x: 232.28195190429688
y: 387.123046875
z: -0.08795157074928284
visibility: 0.3982011675834656
","x: 252.71009826660156
y: 397.3116760253906
z: -0.05127658322453499
visibility: 0.999635636806488
","x: 241.2479248046875
y: 399.23284912109375
z: 0.05126868560910225
visibility: 0.999289333820343
","x: 245.91110229492188
y: 458.91290283203125
z: -0.10095548629760742
visibility: 0.9788561463356018
","x: 248.79380798339844
y: 456.821044921875
z: 0.11599519103765488
visibility: 0.691760778427124
","x: 255.7071075439453
y: 513.571533203125
z: -0.03286449611186981
visibility: 0.9851934313774109
","x: 267.2159423828125
y: 494.3636779785156
z: 0.2695038318634033
visibility: 0.861594557762146
","x: 258.7615051269531
y: 520.7088623046875
z: -0.031254712492227554
visibility: 0.9724818468093872
","x: 272.8827209472656
y: 493.0433349609375
z: 0.2824799120426178
visibility: 0.8927473425865173
","x: 243.8472442626953
y: 529.6832885742188
z: -0.162506103515625
visibility: 0.9806321263313293
","x: 266.8780517578125
y: 515.3070068359375
z: 0.23269322514533997
visibility: 0.8779910802841187
",,,,,,,,,,,,,,,,,,,,,,,,,,,,,,,,,,,,,,,,,,
19,"x: 240.5751190185547
y: 280.8020935058594
z: -0.1973656862974167
visibility: 0.9991456866264343
","x: 242.67477416992188
y: 275.6557922363281
z: -0.18397580087184906
visibility: 0.9990836381912231
","x: 244.01223754882812
y: 275.95068359375
z: -0.18403360247612
visibility: 0.9991641044616699
","x: 245.4420623779297
y: 276.3843994140625
z: -0.18406900763511658
visibility: 0.9992755651473999
","x: 239.44407653808594
y: 275.28558349609375
z: -0.1797654628753662
visibility: 0.9988808631896973
","x: 238.32061767578125
y: 275.2140197753906
z: -0.17974542081356049
visibility: 0.9986197352409363
","x: 237.14126586914062
y: 275.056640625
z: -0.1797780692577362
visibility: 0.9988216757774353
","x: 248.3399658203125
y: 281.5136413574219
z: -0.10548998415470123
visibility: 0.9992586374282837
","x: 236.08140563964844
y: 277.888427734375
z: -0.09053602069616318
visibility: 0.9980781078338623
","x: 242.77711486816406
y: 287.20758056640625
z: -0.16963204741477966
visibility: 0.9988232851028442
","x: 238.89511108398438
y: 286.757568359375
z: -0.16478386521339417
visibility: 0.998211145401001
","x: 256.66241455078125
y: 318.2432861328125
z: -0.0830441415309906
visibility: 0.9998945593833923
","x: 225.37791442871094
y: 312.74737548828125
z: -0.023412708193063736
visibility: 0.9995915293693542
","x: 257.4410400390625
y: 363.156005859375
z: -0.17647458612918854
visibility: 0.9684703946113586
","x: 220.3668212890625
y: 354.27752685546875
z: 0.02946856990456581
visibility: 0.392403244972229
","x: 264.5909729003906
y: 340.88739013671875
z: -0.38144204020500183
visibility: 0.9041728377342224
","x: 226.1767120361328
y: 384.13446044921875
z: -0.04354337975382805
visibility: 0.4377799928188324
","x: 266.63787841796875
y: 332.6842956542969
z: -0.41418710350990295
visibility: 0.8803381323814392
","x: 226.59400939941406
y: 394.467529296875
z: -0.06535106152296066
visibility: 0.43059706687927246
","x: 267.4225158691406
y: 324.1256408691406
z: -0.4176940321922302
visibility: 0.8775022029876709
","x: 229.2478485107422
y: 394.4909362792969
z: -0.061284758150577545
visibility: 0.4380338788032532
","x: 266.16961669921875
y: 326.90789794921875
z: -0.38675612211227417
visibility: 0.8310528993606567
","x: 229.30117797851562
y: 387.53973388671875
z: -0.057856302708387375
visibility: 0.42955824732780457
","x: 249.72531127929688
y: 402.1248779296875
z: -0.018673846498131752
visibility: 0.9996656775474548
","x: 232.5818634033203
y: 400.19085693359375
z: 0.01867721974849701
visibility: 0.9993327856063843
","x: 246.16372680664062
y: 462.82342529296875
z: -0.046103619039058685
visibility: 0.9786155223846436
","x: 227.96603393554688
y: 452.98095703125
z: -0.15373915433883667
visibility: 0.7217413187026978
","x: 247.9789581298828
y: 520.7274780273438
z: 0.11380364000797272
visibility: 0.9856204390525818
","x: 253.18121337890625
y: 436.7652893066406
z: 0.1574285477399826
visibility: 0.8333781957626343
","x: 248.16696166992188
y: 528.314697265625
z: 0.1265578716993332
visibility: 0.9630240797996521
","x: 257.2908630371094
y: 426.9352722167969
z: 0.22064098715782166
visibility: 0.8518388271331787
","x: 242.82354736328125
y: 532.7868041992188
z: 0.04693543538451195
visibility: 0.9806181788444519
","x: 261.74017333984375
y: 457.70306396484375
z: 0.15512455999851227
visibility: 0.8609485626220703
",,,,,,,,,,,,,,,,,,,,,,,,,,,,,,,,,,,,,,,,,,
20,"x: 234.74404907226562
y: 280.0270690917969
z: -0.16215528547763824
visibility: 0.9992296099662781
","x: 236.89743041992188
y: 274.5029296875
z: -0.15517573058605194
visibility: 0.9991719126701355
","x: 238.1835174560547
y: 274.5563049316406
z: -0.15522482991218567
visibility: 0.9992444515228271
","x: 239.5973663330078
y: 274.7064208984375
z: -0.15525636076927185
visibility: 0.9993454813957214
","x: 233.97225952148438
y: 274.770263671875
z: -0.14545486867427826
visibility: 0.998988151550293
","x: 233.11871337890625
y: 274.92041015625
z: -0.14543971419334412
visibility: 0.9987514019012451
","x: 232.25013732910156
y: 274.9630126953125
z: -0.1454574167728424
visibility: 0.9989333748817444
","x: 243.53854370117188
y: 278.7259216308594
z: -0.09544329345226288
visibility: 0.9993289709091187
","x: 233.70318603515625
y: 277.6865234375
z: -0.05884484201669693
visibility: 0.9982588887214661
","x: 237.6367645263672
y: 286.0271301269531
z: -0.14139370620250702
visibility: 0.998939573764801
","x: 234.1483154296875
y: 286.2335510253906
z: -0.12881845235824585
visibility: 0.9983855485916138
","x: 252.41854858398438
y: 316.55859375
z: -0.08843126893043518
visibility: 0.9999040961265564
","x: 226.27696228027344
y: 312.4134521484375
z: 0.016432033851742744
visibility: 0.9995823502540588
","x: 250.69338989257812
y: 359.36541748046875
z: -0.14012360572814941
visibility: 0.971282422542572
","x: 221.4861602783203
y: 352.3174743652344
z: 0.03351890295743942
visibility: 0.39090797305107117
","x: 230.0338897705078
y: 344.8477478027344
z: -0.22432228922843933
visibility: 0.9131107330322266
","x: 221.61056518554688
y: 364.3017272949219
z: -0.10438492149114609
visibility: 0.44424912333488464
","x: 225.72711181640625
y: 348.2345275878906
z: -0.25126713514328003
visibility: 0.890899658203125
","x: 220.59544372558594
y: 373.4219665527344
z: -0.13116030395030975
visibility: 0.43836236000061035
","x: 225.12684631347656
y: 339.26702880859375
z: -0.24728932976722717
visibility: 0.8883045315742493
","x: 221.04107666015625
y: 366.3201599121094
z: -0.14507418870925903
visibility: 0.44491687417030334
","x: 226.8840789794922
y: 337.8509521484375
z: -0.22225156426429749
visibility: 0.8450402021408081
","x: 220.45216369628906
y: 366.3921813964844
z: -0.11521221697330475
visibility: 0.4349299371242523
","x: 243.6792755126953
y: 401.1556701660156
z: -0.039773400872945786
visibility: 0.9996869564056396
","x: 228.09597778320312
y: 397.0675964355469
z: 0.03979028761386871
visibility: 0.9993680119514465
","x: 244.49693298339844
y: 458.98193359375
z: -0.04555729776620865
visibility: 0.9804942011833191
","x: 211.27410888671875
y: 437.7827453613281
z: -0.03977154195308685
visibility: 0.7492234706878662
","x: 248.70849609375
y: 516.2481079101562
z: 0.04578115791082382
visibility: 0.9869563579559326
","x: 235.63934326171875
y: 455.3860778808594
z: 0.1596824824810028
visibility: 0.846789538860321
","x: 251.94322204589844
y: 526.062255859375
z: 0.05011690407991409
visibility: 0.9620756506919861
","x: 240.3114013671875
y: 455.71527099609375
z: 0.187252476811409
visibility: 0.859408974647522
","x: 238.6763458251953
y: 532.8338012695312
z: -0.03627948835492134
visibility: 0.9823275804519653
","x: 230.36541748046875
y: 479.9035949707031
z: 0.15360179543495178
visibility: 0.8718515038490295
",,,,,,,,,,,,,,,,,,,,,,,,,,,,,,,,,,,,,,,,,,
21,"x: 229.22337341308594
y: 293.905029296875
z: -0.15312054753303528
visibility: 0.9993010759353638
","x: 231.82054138183594
y: 288.2244873046875
z: -0.1486814320087433
visibility: 0.9992442727088928
","x: 233.05514526367188
y: 288.28521728515625
z: -0.1487257331609726
visibility: 0.9993086457252502
","x: 234.2713165283203
y: 288.4048767089844
z: -0.1487627476453781
visibility: 0.9994016885757446
","x: 228.91419982910156
y: 288.0788879394531
z: -0.13713544607162476
visibility: 0.9990757703781128
","x: 228.07403564453125
y: 288.01202392578125
z: -0.13712278008460999
visibility: 0.9988577961921692
","x: 227.33514404296875
y: 287.91827392578125
z: -0.13712045550346375
visibility: 0.9990212917327881
","x: 237.8196258544922
y: 291.1339111328125
z: -0.10196433961391449
visibility: 0.9993880987167358
","x: 229.3852996826172
y: 289.5141906738281
z: -0.050433237105607986
visibility: 0.9983667135238647
","x: 232.04232788085938
y: 300.4710693359375
z: -0.13483695685863495
visibility: 0.9990413188934326
","x: 228.3276824951172
y: 300.5090637207031
z: -0.12000159174203873
visibility: 0.9985336661338806
","x: 245.95458984375
y: 328.416259765625
z: -0.11858321726322174
visibility: 0.9999116063117981
","x: 222.71241760253906
y: 326.2899475097656
z: 0.03458138182759285
visibility: 0.9996013045310974
","x: 240.13893127441406
y: 369.2611389160156
z: -0.1476118415594101
visibility: 0.973212718963623
","x: 219.39315795898438
y: 362.8106689453125
z: 0.04976898431777954
visibility: 0.37471330165863037
","x: 219.88710021972656
y: 369.90533447265625
z: -0.17303548753261566
visibility: 0.917610228061676
","x: 214.22781372070312
y: 370.15826416015625
z: -0.0714639201760292
visibility: 0.4416116178035736
","x: 214.82142639160156
y: 372.8997802734375
z: -0.19664627313613892
visibility: 0.8946132063865662
","x: 212.42823791503906
y: 376.3473205566406
z: -0.08841103315353394
visibility: 0.43916746973991394
","x: 214.33209228515625
y: 368.0821533203125
z: -0.19240397214889526
visibility: 0.8923389911651611
","x: 212.6580810546875
y: 368.9813537597656
z: -0.10764781385660172
visibility: 0.44612205028533936
","x: 216.5023956298828
y: 366.58563232421875
z: -0.16994620859622955
visibility: 0.849042534828186
","x: 214.48387145996094
y: 368.1875305175781
z: -0.08332556486129761
visibility: 0.43674013018608093
","x: 237.7721405029297
y: 407.3394470214844
z: -0.047722119837999344
visibility: 0.9997113943099976
","x: 223.95054626464844
y: 405.1243896484375
z: 0.04752243682742119
visibility: 0.9994146823883057
","x: 230.3009796142578
y: 466.06512451171875
z: -0.06516604125499725
visibility: 0.9821134209632874
","x: 214.1448211669922
y: 458.9322509765625
z: 0.1000487208366394
visibility: 0.7682949304580688
","x: 247.56817626953125
y: 515.6660766601562
z: 0.03319200873374939
visibility: 0.9879868626594543
","x: 213.75015258789062
y: 499.9664001464844
z: 0.2554371953010559
visibility: 0.8590723276138306
","x: 252.55384826660156
y: 523.8123779296875
z: 0.04012633115053177
visibility: 0.9576555490493774
","x: 217.05250549316406
y: 508.1695556640625
z: 0.26756611466407776
visibility: 0.8637464046478271
","x: 237.2053985595703
y: 534.798828125
z: -0.03425000607967377
visibility: 0.9835891127586365
","x: 204.44546508789062
y: 518.08984375
z: 0.21949684619903564
visibility: 0.8816820383071899
",,,,,,,,,,,,,,,,,,,,,,,,,,,,,,,,,,,,,,,,,,
22,"x: 227.4705810546875
y: 292.0953674316406
z: -0.1587517112493515
visibility: 0.9993602633476257
","x: 229.42120361328125
y: 286.0269775390625
z: -0.16155119240283966
visibility: 0.9993009567260742
","x: 230.46383666992188
y: 285.8914489746094
z: -0.1615968495607376
visibility: 0.9993583559989929
","x: 231.58731079101562
y: 285.7787780761719
z: -0.16162078082561493
visibility: 0.9994403123855591
","x: 227.2828369140625
y: 286.5042419433594
z: -0.144906148314476
visibility: 0.9991472363471985
","x: 226.7878875732422
y: 286.6832275390625
z: -0.14492982625961304
visibility: 0.9989501237869263
","x: 226.31446838378906
y: 286.814453125
z: -0.1449512243270874
visibility: 0.9990963935852051
","x: 236.56394958496094
y: 288.2485656738281
z: -0.13626441359519958
visibility: 0.9994339942932129
","x: 229.27581787109375
y: 288.7503662109375
z: -0.05800703167915344
visibility: 0.9984901547431946
","x: 230.57437133789062
y: 297.7926330566406
z: -0.14655163884162903
visibility: 0.9991317987442017
","x: 227.57235717773438
y: 298.1595764160156
z: -0.12458344548940659
visibility: 0.998666524887085
","x: 249.4114990234375
y: 323.0231018066406
z: -0.14060375094413757
visibility: 0.9999181628227234
","x: 223.87649536132812
y: 325.3824462890625
z: 0.02815815433859825
visibility: 0.9996379017829895
","x: 249.09376525878906
y: 364.3567199707031
z: -0.21348123252391815
visibility: 0.9753705859184265
","x: 218.282470703125
y: 360.17144775390625
z: 0.026446793228387833
visibility: 0.4041479527950287
","x: 232.15235900878906
y: 364.1977233886719
z: -0.2947261333465576
visibility: 0.9234468936920166
","x: 210.50216674804688
y: 375.112060546875
z: -0.11615084111690521
visibility: 0.4855201244354248
","x: 226.70297241210938
y: 366.76165771484375
z: -0.32895201444625854
visibility: 0.9007611870765686
","x: 207.83187866210938
y: 383.0309753417969
z: -0.1387464553117752
visibility: 0.4806286096572876
","x: 225.45932006835938
y: 361.2446594238281
z: -0.3236634433269501
visibility: 0.8986822962760925
","x: 208.46820068359375
y: 379.66986083984375
z: -0.16177910566329956
visibility: 0.48749879002571106
","x: 227.04086303710938
y: 360.3778076171875
z: -0.2927858233451843
visibility: 0.8559255599975586
","x: 210.15440368652344
y: 377.3162536621094
z: -0.12987269461154938
visibility: 0.47745516896247864
","x: 241.10166931152344
y: 405.2973937988281
z: -0.055546533316373825
visibility: 0.9997206926345825
","x: 227.58193969726562
y: 403.15069580078125
z: 0.055486153811216354
visibility: 0.9994567036628723
","x: 230.54452514648438
y: 462.2876281738281
z: -0.057108569890260696
visibility: 0.9833323955535889
","x: 217.7367401123047
y: 455.5730895996094
z: 0.07940088212490082
visibility: 0.7872189283370972
","x: 244.12814331054688
y: 516.03857421875
z: 0.03496014326810837
visibility: 0.98885178565979
","x: 214.3616180419922
y: 505.8185119628906
z: 0.2006707489490509
visibility: 0.8719698786735535
","x: 250.67430114746094
y: 524.1165771484375
z: 0.03960311412811279
visibility: 0.9565263390541077
","x: 217.44247436523438
y: 514.3267211914062
z: 0.2150341272354126
visibility: 0.8734907507896423
","x: 237.518798828125
y: 533.7694091796875
z: -0.03803681954741478
visibility: 0.9846383929252625
","x: 203.3220672607422
y: 521.8702392578125
z: 0.1450413018465042
visibility: 0.8922045826911926
",,,,,,,,,,,,,,,,,,,,,,,,,,,,,,,,,,,,,,,,,,
23,"x: 233.21182250976562
y: 279.9364013671875
z: -0.23468923568725586
visibility: 0.9993977546691895
","x: 235.30880737304688
y: 273.60394287109375
z: -0.22921761870384216
visibility: 0.9993061423301697
","x: 236.40240478515625
y: 273.2923278808594
z: -0.22925882041454315
visibility: 0.9993433356285095
","x: 237.5856170654297
y: 273.0408935546875
z: -0.22930848598480225
visibility: 0.9994177222251892
","x: 232.9246826171875
y: 274.55157470703125
z: -0.219318225979805
visibility: 0.9991741180419922
","x: 232.30438232421875
y: 274.8290100097656
z: -0.21934100985527039
visibility: 0.9989925622940063
","x: 231.71371459960938
y: 275.1424560546875
z: -0.21934744715690613
visibility: 0.9991335272789001
","x: 241.797119140625
y: 274.8160095214844
z: -0.16611653566360474
visibility: 0.9993956089019775
","x: 233.4624481201172
y: 277.5933837890625
z: -0.11854493618011475
visibility: 0.9985606670379639
","x: 235.7438507080078
y: 284.9600830078125
z: -0.2094823569059372
visibility: 0.9992104172706604
","x: 232.96633911132812
y: 285.578857421875
z: -0.19588270783424377
visibility: 0.9987868070602417
","x: 254.66348266601562
y: 302.4042663574219
z: -0.12469343841075897
visibility: 0.9999223947525024
","x: 228.00787353515625
y: 312.55438232421875
z: -0.0424666665494442
visibility: 0.9996644258499146
","x: 275.427978515625
y: 322.212158203125
z: -0.10858474671840668
visibility: 0.9757972359657288
","x: 217.93597412109375
y: 338.4134521484375
z: 0.003932558465749025
visibility: 0.46212562918663025
","x: 275.95635986328125
y: 359.891845703125
z: -0.16973939538002014
visibility: 0.9107077717781067
","x: 218.52813720703125
y: 360.301513671875
z: -0.07106897234916687
visibility: 0.533257782459259
","x: 277.94696044921875
y: 368.7525634765625
z: -0.19044898450374603
visibility: 0.8727661967277527
","x: 218.09230041503906
y: 370.2279968261719
z: -0.08593589812517166
visibility: 0.5246127843856812
","x: 274.2108459472656
y: 366.6688232421875
z: -0.20562335848808289
visibility: 0.8723894357681274
","x: 218.79180908203125
y: 368.5955810546875
z: -0.1043189987540245
visibility: 0.5311676859855652
","x: 271.9549560546875
y: 362.1945495605469
z: -0.17611435055732727
visibility: 0.8275173306465149
","x: 219.90614318847656
y: 365.08837890625
z: -0.08002427220344543
visibility: 0.5203973054885864
","x: 251.73033142089844
y: 392.2945556640625
z: -0.027126282453536987
visibility: 0.9997369647026062
","x: 231.7452392578125
y: 392.3827819824219
z: 0.027111539617180824
visibility: 0.9994571805000305
","x: 253.536865234375
y: 449.0555114746094
z: -0.1391722708940506
visibility: 0.9831027984619141
","x: 234.5140838623047
y: 453.7724609375
z: 0.06466223299503326
visibility: 0.8016871213912964
","x: 245.19549560546875
y: 508.6094665527344
z: -0.004769624210894108
visibility: 0.987082839012146
","x: 228.52520751953125
y: 498.50567626953125
z: 0.2973308861255646
visibility: 0.8596646785736084
","x: 251.28602600097656
y: 514.0899658203125
z: 0.00521867536008358
visibility: 0.9333592653274536
","x: 229.01976013183594
y: 512.3076782226562
z: 0.3187069594860077
visibility: 0.8418697714805603
","x: 249.95172119140625
y: 528.9424438476562
z: -0.10953285545110703
visibility: 0.981974184513092
","x: 239.78817749023438
y: 515.8872680664062
z: 0.24790461361408234
visibility: 0.8858401775360107
",,,,,,,,,,,,,,,,,,,,,,,,,,,,,,,,,,,,,,,,,,
24,"x: 245.68502807617188
y: 279.8526611328125
z: -0.2297668755054474
visibility: 0.9994326829910278
","x: 247.77491760253906
y: 273.7829895019531
z: -0.21914784610271454
visibility: 0.9992741942405701
","x: 249.37574768066406
y: 273.635498046875
z: -0.21920213103294373
visibility: 0.9993113279342651
","x: 250.78817749023438
y: 273.55059814453125
z: -0.21924324333667755
visibility: 0.9993546009063721
","x: 243.46157836914062
y: 274.3056335449219
z: -0.21554484963417053
visibility: 0.9991689324378967
","x: 242.2255859375
y: 274.5261535644531
z: -0.21556222438812256
visibility: 0.9989957213401794
","x: 241.13525390625
y: 274.8048095703125
z: -0.21558444201946259
visibility: 0.9991042017936707
","x: 252.63253784179688
y: 275.8345947265625
z: -0.14558708667755127
visibility: 0.9992533326148987
","x: 240.255859375
y: 277.6671142578125
z: -0.12418254464864731
visibility: 0.9984707832336426
","x: 248.63905334472656
y: 285.38519287109375
z: -0.20037135481834412
visibility: 0.999261736869812
","x: 243.64572143554688
y: 285.7801513671875
z: -0.19467897713184357
visibility: 0.9988721013069153
","x: 265.02239990234375
y: 304.66119384765625
z: -0.11533528566360474
visibility: 0.9999240040779114
","x: 231.9053192138672
y: 313.38580322265625
z: -0.052940674126148224
visibility: 0.9996885657310486
","x: 273.2919616699219
y: 325.82769775390625
z: -0.12921778857707977
visibility: 0.9709388613700867
","x: 223.0840606689453
y: 346.16326904296875
z: -0.015767889097332954
visibility: 0.5053266286849976
","x: 263.2301330566406
y: 366.7440490722656
z: -0.201432466506958
visibility: 0.8885757923126221
","x: 222.46853637695312
y: 379.0122985839844
z: -0.09256946295499802
visibility: 0.5611281991004944
","x: 263.04608154296875
y: 375.96978759765625
z: -0.23190967738628387
visibility: 0.8452479839324951
","x: 221.16839599609375
y: 390.9801940917969
z: -0.11625373363494873
visibility: 0.5459150075912476
","x: 262.118408203125
y: 372.02410888671875
z: -0.2731304168701172
visibility: 0.8458758592605591
","x: 224.48602294921875
y: 390.4417419433594
z: -0.13963547348976135
visibility: 0.5534980893135071
","x: 261.21771240234375
y: 369.14251708984375
z: -0.20897097885608673
visibility: 0.7968915104866028
","x: 225.63514709472656
y: 385.607666015625
z: -0.10394076257944107
visibility: 0.5416378974914551
","x: 262.9043273925781
y: 393.4398193359375
z: -0.02180471085011959
visibility: 0.9997391104698181
","x: 244.64996337890625
y: 396.4219970703125
z: 0.021822545677423477
visibility: 0.9994755983352661
","x: 270.1300964355469
y: 450.05328369140625
z: -0.0399848148226738
visibility: 0.9838871359825134
","x: 255.3064422607422
y: 457.82366943359375
z: 0.10238774120807648
visibility: 0.8162232041358948
","x: 277.54180908203125
y: 508.76123046875
z: 0.08559317886829376
visibility: 0.9875427484512329
","x: 261.27947998046875
y: 508.2548522949219
z: 0.3069060146808624
visibility: 0.8705030083656311
","x: 277.4134216308594
y: 514.3953247070312
z: 0.09250779449939728
visibility: 0.9198816418647766
","x: 264.0859680175781
y: 514.33984375
z: 0.322832852602005
visibility: 0.8446016907691956
","x: 282.2640075683594
y: 528.6817016601562
z: -0.014015674591064453
visibility: 0.9825072288513184
","x: 256.68499755859375
y: 525.07421875
z: 0.24555929005146027
visibility: 0.8945793509483337
",,,,,,,,,,,,,,,,,,,,,,,,,,,,,,,,,,,,,,,,,,
25,"x: 254.32058715820312
y: 280.21124267578125
z: -0.21394851803779602
visibility: 0.9994867444038391
","x: 255.6735076904297
y: 275.052734375
z: -0.2003539353609085
visibility: 0.9993346333503723
","x: 256.76678466796875
y: 275.1158447265625
z: -0.20039506256580353
visibility: 0.9993665218353271
","x: 257.81378173828125
y: 275.2026672363281
z: -0.20039990544319153
visibility: 0.9994035363197327
","x: 252.23013305664062
y: 275.1604919433594
z: -0.2007995843887329
visibility: 0.999241292476654
","x: 250.93898010253906
y: 275.3466796875
z: -0.20080628991127014
visibility: 0.9990843534469604
","x: 249.6566925048828
y: 275.6458740234375
z: -0.20082083344459534
visibility: 0.9991805553436279
","x: 259.3973693847656
y: 278.5741882324219
z: -0.1346512883901596
visibility: 0.9992885589599609
","x: 247.60720825195312
y: 279.3480529785156
z: -0.11938520520925522
visibility: 0.9985914826393127
","x: 256.48150634765625
y: 285.71783447265625
z: -0.18333396315574646
visibility: 0.9993307590484619
","x: 252.1592559814453
y: 286.2557678222656
z: -0.1836158186197281
visibility: 0.9989808797836304
","x: 270.2384338378906
y: 309.79510498046875
z: -0.07324100285768509
visibility: 0.9999266862869263
","x: 236.96177673339844
y: 317.3229675292969
z: -0.058637429028749466
visibility: 0.9997119307518005
","x: 277.93994140625
y: 344.0751953125
z: -0.07059304416179657
visibility: 0.9709780812263489
","x: 234.08299255371094
y: 359.05072021484375
z: -0.03579059988260269
visibility: 0.5496588945388794
","x: 283.83709716796875
y: 381.7581481933594
z: -0.1861789971590042
visibility: 0.8934223651885986
","x: 237.24847412109375
y: 393.96307373046875
z: -0.11793643236160278
visibility: 0.5987767577171326
","x: 288.0850830078125
y: 390.3584289550781
z: -0.21612724661827087
visibility: 0.8503767251968384
","x: 236.14170837402344
y: 405.8581848144531
z: -0.14328962564468384
visibility: 0.5814530849456787
","x: 287.51251220703125
y: 388.99237060546875
z: -0.2412853240966797
visibility: 0.8518409729003906
","x: 238.0334930419922
y: 405.1390075683594
z: -0.169558584690094
visibility: 0.589129626750946
","x: 285.2413330078125
y: 386.4998779296875
z: -0.19852879643440247
visibility: 0.8060469627380371
","x: 239.45791625976562
y: 400.3930358886719
z: -0.1304500550031662
visibility: 0.5772979855537415
","x: 269.4539794921875
y: 397.1744384765625
z: -0.010389985516667366
visibility: 0.9997416138648987
","x: 251.8654022216797
y: 402.234619140625
z: 0.010402725078165531
visibility: 0.9994989037513733
","x: 280.2528076171875
y: 457.6033935546875
z: -0.011985392309725285
visibility: 0.9852839112281799
","x: 258.92138671875
y: 460.9089660644531
z: 0.10052040964365005
visibility: 0.8339006900787354
","x: 288.6324157714844
y: 510.229248046875
z: 0.12849161028862
visibility: 0.9883946180343628
","x: 262.4453430175781
y: 510.9803466796875
z: 0.24775052070617676
visibility: 0.8829079270362854
","x: 287.25762939453125
y: 515.6563110351562
z: 0.13638457655906677
visibility: 0.9185464978218079
","x: 265.8091125488281
y: 516.8665771484375
z: 0.26285961270332336
visibility: 0.8545165657997131
","x: 289.66473388671875
y: 528.810302734375
z: 0.03730523958802223
visibility: 0.983547031879425
","x: 257.0739440917969
y: 528.685302734375
z: 0.16461846232414246
visibility: 0.9043585658073425
",,,,,,,,,,,,,,,,,,,,,,,,,,,,,,,,,,,,,,,,,,
26,"x: 259.7567138671875
y: 279.80145263671875
z: -0.25771158933639526
visibility: 0.9995374083518982
","x: 261.2607421875
y: 275.0879821777344
z: -0.24447958171367645
visibility: 0.9993987083435059
","x: 262.4756774902344
y: 275.1891784667969
z: -0.24446602165699005
visibility: 0.9994271397590637
","x: 263.774169921875
y: 275.30438232421875
z: -0.24447277188301086
visibility: 0.9994596838951111
","x: 257.99493408203125
y: 275.1294860839844
z: -0.2446449249982834
visibility: 0.9993152618408203
","x: 256.8491516113281
y: 275.3177490234375
z: -0.24468550086021423
visibility: 0.9991742372512817
","x: 255.63394165039062
y: 275.60540771484375
z: -0.24470412731170654
visibility: 0.9992605447769165
","x: 266.0617370605469
y: 278.8092041015625
z: -0.1599266082048416
visibility: 0.99935382604599
","x: 254.45333862304688
y: 279.40374755859375
z: -0.16063345968723297
visibility: 0.998729407787323
","x: 262.1431884765625
y: 285.48321533203125
z: -0.22531887888908386
visibility: 0.9993960857391357
","x: 258.2437744140625
y: 286.0622863769531
z: -0.22599036991596222
visibility: 0.999081552028656
","x: 277.65008544921875
y: 310.67974853515625
z: -0.08627443015575409
visibility: 0.9999265670776367
","x: 245.56451416015625
y: 317.0589904785156
z: -0.10901709645986557
visibility: 0.9997367262840271
","x: 289.1873474121094
y: 349.0565490722656
z: -0.04746389389038086
visibility: 0.9716891050338745
","x: 241.58827209472656
y: 358.28997802734375
z: -0.16607798635959625
visibility: 0.5922356247901917
","x: 304.7942199707031
y: 377.806396484375
z: -0.10293946415185928
visibility: 0.8997253775596619
","x: 254.3392791748047
y: 371.6412353515625
z: -0.3203314244747162
visibility: 0.6370266079902649
","x: 310.3365783691406
y: 384.57080078125
z: -0.11920909583568573
visibility: 0.8574416637420654
","x: 258.990966796875
y: 377.7597351074219
z: -0.3545198142528534
visibility: 0.6199455261230469
","x: 311.38165283203125
y: 382.5938415527344
z: -0.14565619826316833
visibility: 0.8597515821456909
","x: 260.75067138671875
y: 371.3511657714844
z: -0.36585742235183716
visibility: 0.6268851161003113
","x: 309.4771423339844
y: 380.9707336425781
z: -0.1148890033364296
visibility: 0.8177219033241272
","x: 259.6058349609375
y: 368.98095703125
z: -0.3279881775379181
visibility: 0.6147031784057617
","x: 275.13018798828125
y: 395.9709167480469
z: -0.006751635577529669
visibility: 0.9997596144676208
","x: 258.17694091796875
y: 401.1440734863281
z: 0.006719634868204594
visibility: 0.9995402693748474
","x: 281.17083740234375
y: 456.1605529785156
z: -0.008236660622060299
visibility: 0.9862860441207886
","x: 261.740966796875
y: 459.8162841796875
z: 0.075055792927742
visibility: 0.8496798872947693
","x: 288.3495178222656
y: 510.6404113769531
z: 0.09699500352144241
visibility: 0.9890661835670471
","x: 263.64056396484375
y: 510.0348205566406
z: 0.23419728875160217
visibility: 0.8939687609672546
","x: 286.8834533691406
y: 516.9434204101562
z: 0.10116352140903473
visibility: 0.9185185432434082
","x: 267.1782531738281
y: 515.784423828125
z: 0.25348302721977234
visibility: 0.8617980480194092
","x: 289.9351806640625
y: 528.7261352539062
z: 0.0021448670886456966
visibility: 0.984449565410614
","x: 256.7785339355469
y: 528.5283203125
z: 0.1495521366596222
visibility: 0.9131077527999878
",,,,,,,,,,,,,,,,,,,,,,,,,,,,,,,,,,,,,,,,,,
27,"x: 269.0712585449219
y: 278.3327941894531
z: -0.17903131246566772
visibility: 0.9995748996734619
","x: 270.5953369140625
y: 274.1549377441406
z: -0.16446316242218018
visibility: 0.9994285702705383
","x: 271.8728942871094
y: 274.43536376953125
z: -0.16450460255146027
visibility: 0.999447226524353
","x: 273.2302551269531
y: 274.77557373046875
z: -0.16450729966163635
visibility: 0.9994746446609497
","x: 267.4030456542969
y: 274.0591125488281
z: -0.16735826432704926
visibility: 0.999359130859375
","x: 266.3167419433594
y: 274.2837829589844
z: -0.16734519600868225
visibility: 0.9992293119430542
","x: 265.1535949707031
y: 274.5929260253906
z: -0.1673784703016281
visibility: 0.9993116855621338
","x: 275.28375244140625
y: 278.87615966796875
z: -0.08272363245487213
visibility: 0.9992935657501221
","x: 263.545654296875
y: 278.80035400390625
z: -0.09624020755290985
visibility: 0.9988105893135071
","x: 271.4037170410156
y: 284.8116455078125
z: -0.14792701601982117
visibility: 0.9994400143623352
","x: 267.4649353027344
y: 284.931396484375
z: -0.15204225480556488
visibility: 0.9991628527641296
","x: 284.2278137207031
y: 311.2036437988281
z: -0.03326781094074249
visibility: 0.9999123215675354
","x: 251.9169921875
y: 314.6304626464844
z: -0.06741968542337418
visibility: 0.9997555613517761
","x: 291.4025573730469
y: 345.987060546875
z: -0.01682623289525509
visibility: 0.9661074280738831
","x: 244.77688598632812
y: 354.16497802734375
z: -0.018011189997196198
visibility: 0.6308807134628296
","x: 295.69244384765625
y: 369.4811706542969
z: -0.11683668196201324
visibility: 0.892939567565918
","x: 246.6832275390625
y: 376.056640625
z: -0.07562993466854095
visibility: 0.6691319346427917
","x: 297.28057861328125
y: 380.1359558105469
z: -0.14264829456806183
visibility: 0.8475975394248962
","x: 247.3679962158203
y: 386.37579345703125
z: -0.0975753590464592
visibility: 0.6495888233184814
","x: 295.6972961425781
y: 377.5521545410156
z: -0.1647932231426239
visibility: 0.8513745665550232
","x: 249.31346130371094
y: 383.08160400390625
z: -0.1227312833070755
visibility: 0.6564128398895264
","x: 294.1315612792969
y: 371.5451354980469
z: -0.12862412631511688
visibility: 0.8098932504653931
","x: 249.62705993652344
y: 378.89959716796875
z: -0.08695833384990692
visibility: 0.6443993449211121
","x: 277.8211975097656
y: 395.8460693359375
z: -0.004017994273453951
visibility: 0.999739408493042
","x: 260.5899353027344
y: 399.51544189453125
z: 0.0040344251319766045
visibility: 0.9995529651641846
","x: 282.00531005859375
y: 456.01385498046875
z: -0.0024798752274364233
visibility: 0.9869451522827148
","x: 265.0383605957031
y: 458.41131591796875
z: 0.03058970533311367
visibility: 0.8640831112861633
","x: 286.75299072265625
y: 512.7117309570312
z: 0.0944647341966629
visibility: 0.9894863367080688
","x: 264.65447998046875
y: 509.4327087402344
z: 0.15974771976470947
visibility: 0.9038795232772827
","x: 284.9644470214844
y: 519.1221923828125
z: 0.09795994311571121
visibility: 0.9180641770362854
","x: 268.0750427246094
y: 515.7611694335938
z: 0.16734759509563446
visibility: 0.867293119430542
","x: 290.70513916015625
y: 529.744384765625
z: 0.0037208807189017534
visibility: 0.9847111701965332
","x: 257.146728515625
y: 528.2181396484375
z: 0.07815689593553543
visibility: 0.9207939505577087
",,,,,,,,,,,,,,,,,,,,,,,,,,,,,,,,,,,,,,,,,,
28,"x: 278.81610107421875
y: 278.5275573730469
z: -0.2358238399028778
visibility: 0.9996057748794556
","x: 280.72821044921875
y: 274.28704833984375
z: -0.22291579842567444
visibility: 0.99945467710495
","x: 282.0203552246094
y: 274.5614318847656
z: -0.22297361493110657
visibility: 0.9994699358940125
","x: 283.3790588378906
y: 274.8204345703125
z: -0.22300279140472412
visibility: 0.9994903206825256
","x: 277.284912109375
y: 273.8165588378906
z: -0.2235613763332367
visibility: 0.9993925094604492
","x: 276.1045227050781
y: 273.8460693359375
z: -0.22356095910072327
visibility: 0.9992715716362
","x: 274.8722229003906
y: 273.93853759765625
z: -0.2235926389694214
visibility: 0.9993460774421692
","x: 285.092041015625
y: 279.4377746582031
z: -0.1382579356431961
visibility: 0.9993062019348145
","x: 272.69091796875
y: 277.8036804199219
z: -0.14154386520385742
visibility: 0.9988600015640259
","x: 280.6744689941406
y: 284.93170166015625
z: -0.20385830104351044
visibility: 0.9994819164276123
","x: 276.23797607421875
y: 285.07440185546875
z: -0.20480914413928986
visibility: 0.9992340207099915
","x: 291.4284362792969
y: 315.3668212890625
z: -0.10474500805139542
visibility: 0.9999041557312012
","x: 258.43988037109375
y: 312.1856689453125
z: -0.062001682817935944
visibility: 0.9997662901878357
","x: 294.445556640625
y: 355.024169921875
z: -0.14479051530361176
visibility: 0.9671223759651184
","x: 248.02859497070312
y: 353.39044189453125
z: -0.02304847538471222
visibility: 0.6626467108726501
","x: 286.5100402832031
y: 368.5070495605469
z: -0.2821480333805084
visibility: 0.8995775580406189
","x: 243.2418212890625
y: 378.0040283203125
z: -0.0982605516910553
visibility: 0.6977428793907166
","x: 284.1827392578125
y: 376.0473327636719
z: -0.31895703077316284
visibility: 0.8559682369232178
","x: 236.25180053710938
y: 386.9472961425781
z: -0.12447240203619003
visibility: 0.677050769329071
","x: 283.3612365722656
y: 375.1148681640625
z: -0.3303449749946594
visibility: 0.859474241733551
","x: 235.7300567626953
y: 384.8390197753906
z: -0.15712344646453857
visibility: 0.6841234564781189
","x: 283.5242919921875
y: 371.304931640625
z: -0.2898130416870117
visibility: 0.818873405456543
","x: 238.63929748535156
y: 381.76434326171875
z: -0.11532046645879745
visibility: 0.6725963950157166
","x: 279.046875
y: 397.2421569824219
z: -0.014864446595311165
visibility: 0.9996687769889832
","x: 262.3437805175781
y: 399.341796875
z: 0.014871710911393166
visibility: 0.9995350241661072
","x: 281.590087890625
y: 456.4359130859375
z: 0.018383663147687912
visibility: 0.9876447319984436
","x: 266.0502624511719
y: 459.15753173828125
z: 0.04330611601471901
visibility: 0.8766681551933289
","x: 287.08721923828125
y: 512.549560546875
z: 0.14356623589992523
visibility: 0.9898561239242554
","x: 266.8858642578125
y: 510.7717590332031
z: 0.18704193830490112
visibility: 0.9127123355865479
","x: 286.49957275390625
y: 518.9702758789062
z: 0.14986194670200348
visibility: 0.9114800095558167
","x: 270.9310302734375
y: 517.1143798828125
z: 0.19671687483787537
visibility: 0.8747100234031677
","x: 288.81671142578125
y: 529.6080932617188
z: 0.05535995960235596
visibility: 0.9849650263786316
","x: 256.97711181640625
y: 528.7700805664062
z: 0.11386571079492569
visibility: 0.9276412725448608
","x: 239.63148498535156
y: 377.8172607421875
z: 0.0
","x: 239.39199829101562
y: 384.361083984375
z: 0.00028654435300268233
","x: 237.13031005859375
y: 389.3186950683594
z: 0.0002730393607635051
","x: 234.6713104248047
y: 392.3353271484375
z: -0.00034304196015000343
","x: 232.8784637451172
y: 394.4598693847656
z: -0.0009505913476459682
","x: 231.47793579101562
y: 388.18328857421875
z: 0.0027714460156857967
","x: 228.35154724121094
y: 391.38934326171875
z: 0.00154845230281353
","x: 226.5308837890625
y: 394.3226318359375
z: 0.0004977168282493949
","x: 225.35366821289062
y: 396.6798400878906
z: -5.777432306786068e-05
","x: 230.25955200195312
y: 385.360107421875
z: 0.0011651288950815797
","x: 226.6591033935547
y: 388.31182861328125
z: 0.00039257813477888703
","x: 224.4628448486328
y: 391.4217834472656
z: -0.0005757223698310554
","x: 222.88433837890625
y: 394.02301025390625
z: -0.0013966558035463095
","x: 229.7936553955078
y: 382.05535888671875
z: -0.0009146956144832075
","x: 226.2261505126953
y: 384.27899169921875
z: -0.0022695802617818117
","x: 224.02879333496094
y: 386.59918212890625
z: -0.00342514063231647
","x: 222.55230712890625
y: 388.599853515625
z: -0.004199820104986429
","x: 230.12005615234375
y: 377.9885559082031
z: -0.0031881469767540693
","x: 227.34774780273438
y: 377.73577880859375
z: -0.004517844412475824
","x: 225.71263122558594
y: 377.7261047363281
z: -0.005188985727727413
","x: 224.5957794189453
y: 377.7272033691406
z: -0.005558706820011139
",,,,,,,,,,,,,,,,,,,,,
29,"x: 278.81610107421875
y: 278.5275573730469
z: -0.2358238399028778
visibility: 0.9996057748794556
","x: 280.72821044921875
y: 274.28704833984375
z: -0.22291579842567444
visibility: 0.99945467710495
","x: 282.0203552246094
y: 274.5614318847656
z: -0.22297361493110657
visibility: 0.9994699358940125
","x: 283.3790588378906
y: 274.8204345703125
z: -0.22300279140472412
visibility: 0.9994903206825256
","x: 277.284912109375
y: 273.8165588378906
z: -0.2235613763332367
visibility: 0.9993925094604492
","x: 276.1045227050781
y: 273.8460693359375
z: -0.22356095910072327
visibility: 0.9992715716362
","x: 274.8722229003906
y: 273.93853759765625
z: -0.2235926389694214
visibility: 0.9993460774421692
