uscmakers/ReverseChoreography/data/7_fool_around_yas.csv
,NOSE,LEFT_EYE_INNER,LEFT_EYE,LEFT_EYE_OUTER,RIGHT_EYE_INNER,RIGHT_EYE,RIGHT_EYE_OUTER,LEFT_EAR,RIGHT_EAR,MOUTH_LEFT,MOUTH_RIGHT,LEFT_SHOULDER,RIGHT_SHOULDER,LEFT_ELBOW,RIGHT_ELBOW,LEFT_WRIST,RIGHT_WRIST,LEFT_PINKY,RIGHT_PINKY,LEFT_INDEX,RIGHT_INDEX,LEFT_THUMB,RIGHT_THUMB,LEFT_HIP,RIGHT_HIP,LEFT_KNEE,RIGHT_KNEE,LEFT_ANKLE,RIGHT_ANKLE,LEFT_HEEL,RIGHT_HEEL,LEFT_FOOT_INDEX,RIGHT_FOOT_INDEX,WRIST,THUMB_CPC,THUMB_MCP,THUMB_IP,THUMB_TIP,INDEX_FINGER_MCP,INDEX_FINGER_PIP,INDEX_FINGER_DIP,INDEX_FINGER_TIP,MIDDLE_FINGER_MCP,MIDDLE_FINGER_PIP,MIDDLE_FINGER_DIP,MIDDLE_FINGER_TIP,RING_FINGER_PIP,RING_FINGER_DIP,RING_FINGER_TIP,RING_FINGER_MCP,PINKY_MCP,PINKY_PIP,PINKY_DIP,PINKY_TIP,WRIST2,THUMB_CPC2,THUMB_MCP2,THUMB_IP2,THUMB_TIP2,INDEX_FINGER_MCP2,INDEX_FINGER_PIP2,INDEX_FINGER_DIP2,INDEX_FINGER_TIP2,MIDDLE_FINGER_MCP2,MIDDLE_FINGER_PIP2,MIDDLE_FINGER_DIP2,MIDDLE_FINGER_TIP2,RING_FINGER_PIP2,RING_FINGER_DIP2,RING_FINGER_TIP2,RING_FINGER_MCP2,PINKY_MCP2,PINKY_PIP2,PINKY_DIP2,PINKY_TIP2
0,"x: 288.69647216796875
y: 282.7078857421875
z: -0.13409610092639923
visibility: 0.98562091588974
","x: 292.5488586425781
y: 277.03790283203125
z: -0.14619334042072296
visibility: 0.988298237323761
","x: 293.5376892089844
y: 277.2451171875
z: -0.1462014764547348
visibility: 0.9873052835464478
","x: 294.53948974609375
y: 277.4955139160156
z: -0.1461879462003708
visibility: 0.9888090491294861
","x: 291.3187561035156
y: 276.83306884765625
z: -0.12296005338430405
visibility: 0.9769665598869324
","x: 291.4137878417969
y: 276.8874816894531
z: -0.12298848479986191
visibility: 0.9706921577453613
","x: 291.52313232421875
y: 276.9345703125
z: -0.12300524860620499
visibility: 0.9761521220207214
","x: 298.7320556640625
y: 281.9991760253906
z: -0.16223767399787903
visibility: 0.9824655055999756
","x: 294.9364013671875
y: 280.9888916015625
z: -0.05824663117527962
visibility: 0.91163170337677
","x: 290.4331359863281
y: 288.72467041015625
z: -0.13806845247745514
visibility: 0.9748883247375488
","x: 288.7456359863281
y: 288.71258544921875
z: -0.10810725390911102
visibility: 0.9583853483200073
","x: 303.8792724609375
y: 310.5870666503906
z: -0.20590253174304962
visibility: 0.9978585839271545
","x: 286.7596740722656
y: 311.025146484375
z: 0.010617364197969437
visibility: 0.9919633865356445
","x: 282.6719055175781
y: 332.7421875
z: -0.2576533555984497
visibility: 0.9777246713638306
","x: 273.6707458496094
y: 327.95477294921875
z: -0.024868661537766457
visibility: 0.21622931957244873
","x: 265.26605224609375
y: 326.48553466796875
z: -0.2507581114768982
visibility: 0.9335019588470459
","x: 262.9644775390625
y: 325.21490478515625
z: -0.1768585741519928
visibility: 0.2772100865840912
","x: 259.2646179199219
y: 329.0827941894531
z: -0.2834959030151367
visibility: 0.8843271732330322
","x: 259.95416259765625
y: 322.776611328125
z: -0.20116181671619415
visibility: 0.27498766779899597
","x: 260.8187255859375
y: 321.31512451171875
z: -0.27727922797203064
visibility: 0.8805491924285889
","x: 261.2093200683594
y: 321.232666015625
z: -0.21799664199352264
visibility: 0.2865622639656067
","x: 262.70391845703125
y: 322.0115661621094
z: -0.24860882759094238
visibility: 0.8300601840019226
","x: 262.7891540527344
y: 322.6715393066406
z: -0.1901911348104477
visibility: 0.304010272026062
","x: 304.04156494140625
y: 399.6482849121094
z: -0.05896986275911331
visibility: 0.9984591007232666
","x: 288.03173828125
y: 402.29443359375
z: 0.05891909450292587
visibility: 0.999240517616272
","x: 307.5099792480469
y: 444.0252685546875
z: 0.046471115201711655
visibility: 0.9472827911376953
","x: 281.4754333496094
y: 446.6036682128906
z: 0.13395588099956512
visibility: 0.875438392162323
","x: 313.974365234375
y: 491.5071105957031
z: 0.22888848185539246
visibility: 0.9518323540687561
","x: 271.7095642089844
y: 492.5771484375
z: 0.2855484187602997
visibility: 0.9478466510772705
","x: 314.99658203125
y: 496.5930480957031
z: 0.2447689324617386
visibility: 0.8150166869163513
","x: 273.4684753417969
y: 500.7890319824219
z: 0.2983545660972595
visibility: 0.8815224170684814
","x: 312.7052001953125
y: 507.605224609375
z: 0.18451263010501862
visibility: 0.953167736530304
","x: 259.1486511230469
y: 510.59368896484375
z: 0.24976179003715515
visibility: 0.955163836479187
","x: 264.7611999511719
y: 324.02490234375
z: 0.0
","x: 262.60382080078125
y: 320.7934875488281
z: 0.0002498787362128496
","x: 259.6658020019531
y: 320.271728515625
z: -0.00042372787720523775
","x: 257.47210693359375
y: 321.4494323730469
z: -0.0011599815916270018
","x: 256.0302429199219
y: 323.0438232421875
z: -0.001963044283911586
","x: 258.9730529785156
y: 320.83404541015625
z: -0.0025201502721756697
","x: 255.89776611328125
y: 320.99273681640625
z: -0.0039018907118588686
","x: 253.91476440429688
y: 321.10089111328125
z: -0.004318538121879101
","x: 252.46258544921875
y: 321.203125
z: -0.00449129194021225
","x: 259.0526428222656
y: 323.64959716796875
z: -0.003485794411972165
","x: 255.68141174316406
y: 324.2684631347656
z: -0.004663629457354546
","x: 253.51487731933594
y: 324.3417663574219
z: -0.004610974807292223
","x: 251.87393188476562
y: 324.3636474609375
z: -0.004652692470699549
","x: 259.35406494140625
y: 326.7489929199219
z: -0.004321044310927391
","x: 256.1379699707031
y: 327.6062316894531
z: -0.005428033880889416
","x: 254.03314208984375
y: 327.8779296875
z: -0.005358688533306122
","x: 252.44522094726562
y: 328.0230407714844
z: -0.005390239413827658
","x: 259.8533935546875
y: 329.7811279296875
z: -0.00512138195335865
","x: 257.44561767578125
y: 330.883056640625
z: -0.006104351952672005
","x: 255.80148315429688
y: 331.4097900390625
z: -0.00611805310472846
","x: 254.43936157226562
y: 331.8453674316406
z: -0.006126330234110355
",,,,,,,,,,,,,,,,,,,,,
1,"x: 288.69647216796875
y: 282.7078857421875
z: -0.13409610092639923
visibility: 0.98562091588974
","x: 292.5488586425781
y: 277.03790283203125
z: -0.14619334042072296
visibility: 0.988298237323761
","x: 293.5376892089844
y: 277.2451171875
z: -0.1462014764547348
visibility: 0.9873052835464478
","x: 294.53948974609375
y: 277.4955139160156
z: -0.1461879462003708
visibility: 0.9888090491294861
","x: 291.3187561035156
y: 276.83306884765625
z: -0.12296005338430405
visibility: 0.9769665598869324
","x: 291.4137878417969
y: 276.8874816894531
z: -0.12298848479986191
visibility: 0.9706921577453613
","x: 291.52313232421875
y: 276.9345703125
z: -0.12300524860620499
visibility: 0.9761521220207214
","x: 298.7320556640625
y: 281.9991760253906
z: -0.16223767399787903
visibility: 0.9824655055999756
","x: 294.9364013671875
y: 280.9888916015625
z: -0.05824663117527962
visibility: 0.91163170337677
","x: 290.4331359863281
y: 288.72467041015625
z: -0.13806845247745514
visibility: 0.9748883247375488
","x: 288.7456359863281
y: 288.71258544921875
z: -0.10810725390911102
visibility: 0.9583853483200073
","x: 303.8792724609375
y: 310.5870666503906
z: -0.20590253174304962
visibility: 0.9978585839271545
","x: 286.7596740722656
y: 311.025146484375
z: 0.010617364197969437
visibility: 0.9919633865356445
","x: 282.6719055175781
y: 332.7421875
z: -0.2576533555984497
visibility: 0.9777246713638306
","x: 273.6707458496094
y: 327.95477294921875
z: -0.024868661537766457
visibility: 0.21622931957244873
","x: 265.26605224609375
y: 326.48553466796875
z: -0.2507581114768982
visibility: 0.9335019588470459
","x: 262.9644775390625
y: 325.21490478515625
z: -0.1768585741519928
visibility: 0.2772100865840912
","x: 259.2646179199219
y: 329.0827941894531
z: -0.2834959030151367
visibility: 0.8843271732330322
","x: 259.95416259765625
y: 322.776611328125
z: -0.20116181671619415
visibility: 0.27498766779899597
","x: 260.8187255859375
y: 321.31512451171875
z: -0.27727922797203064
visibility: 0.8805491924285889
","x: 261.2093200683594
y: 321.232666015625
z: -0.21799664199352264
visibility: 0.2865622639656067
","x: 262.70391845703125
y: 322.0115661621094
z: -0.24860882759094238
visibility: 0.8300601840019226
","x: 262.7891540527344
y: 322.6715393066406
z: -0.1901911348104477
visibility: 0.304010272026062
","x: 304.04156494140625
y: 399.6482849121094
z: -0.05896986275911331
visibility: 0.9984591007232666
","x: 288.03173828125
y: 402.29443359375
z: 0.05891909450292587
visibility: 0.999240517616272
","x: 307.5099792480469
y: 444.0252685546875
z: 0.046471115201711655
visibility: 0.9472827911376953
","x: 281.4754333496094
y: 446.6036682128906
z: 0.13395588099956512
visibility: 0.875438392162323
","x: 313.974365234375
y: 491.5071105957031
z: 0.22888848185539246
visibility: 0.9518323540687561
","x: 271.7095642089844
y: 492.5771484375
z: 0.2855484187602997
visibility: 0.9478466510772705
","x: 314.99658203125
y: 496.5930480957031
z: 0.2447689324617386
visibility: 0.8150166869163513
","x: 273.4684753417969
y: 500.7890319824219
z: 0.2983545660972595
visibility: 0.8815224170684814
","x: 312.7052001953125
y: 507.605224609375
z: 0.18451263010501862
visibility: 0.953167736530304
","x: 259.1486511230469
y: 510.59368896484375
z: 0.24976179003715515
visibility: 0.955163836479187
","x: 264.7611999511719
y: 324.02490234375
z: 0.0
","x: 262.60382080078125
y: 320.7934875488281
z: 0.0002498787362128496
","x: 259.6658020019531
y: 320.271728515625
z: -0.00042372787720523775
","x: 257.47210693359375
y: 321.4494323730469
z: -0.0011599815916270018
","x: 256.0302429199219
y: 323.0438232421875
z: -0.001963044283911586
","x: 258.9730529785156
y: 320.83404541015625
z: -0.0025201502721756697
","x: 255.89776611328125
y: 320.99273681640625
z: -0.0039018907118588686
","x: 253.91476440429688
y: 321.10089111328125
z: -0.004318538121879101
","x: 252.46258544921875
y: 321.203125
z: -0.00449129194021225
","x: 259.0526428222656
y: 323.64959716796875
z: -0.003485794411972165
","x: 255.68141174316406
y: 324.2684631347656
z: -0.004663629457354546
","x: 253.51487731933594
y: 324.3417663574219
z: -0.004610974807292223
","x: 251.87393188476562
y: 324.3636474609375
z: -0.004652692470699549
","x: 259.35406494140625
y: 326.7489929199219
z: -0.004321044310927391
","x: 256.1379699707031
y: 327.6062316894531
z: -0.005428033880889416
","x: 254.03314208984375
y: 327.8779296875
z: -0.005358688533306122
","x: 252.44522094726562
y: 328.0230407714844
z: -0.005390239413827658
","x: 259.8533935546875
y: 329.7811279296875
z: -0.00512138195335865
","x: 257.44561767578125
y: 330.883056640625
z: -0.006104351952672005
","x: 255.80148315429688
y: 331.4097900390625
z: -0.00611805310472846
","x: 254.43936157226562
y: 331.8453674316406
z: -0.006126330234110355
",,,,,,,,,,,,,,,,,,,,,
2,"x: 289.2051086425781
y: 298.24212646484375
z: -0.16471213102340698
visibility: 0.9870503544807434
","x: 292.0720520019531
y: 292.6456298828125
z: -0.15081407129764557
visibility: 0.9894559979438782
","x: 292.9945068359375
y: 292.64654541015625
z: -0.1508248746395111
visibility: 0.9885537624359131
","x: 293.8570251464844
y: 292.6074523925781
z: -0.1508301943540573
visibility: 0.9899116158485413
","x: 289.23358154296875
y: 292.14459228515625
z: -0.15866029262542725
visibility: 0.979260265827179
","x: 288.12506103515625
y: 291.7641296386719
z: -0.15865004062652588
visibility: 0.9736111760139465
","x: 286.9314270019531
y: 291.2264404296875
z: -0.15869122743606567
visibility: 0.9785253405570984
","x: 294.0584411621094
y: 294.0736083984375
z: -0.06662626564502716
visibility: 0.9841788411140442
","x: 284.9125061035156
y: 292.7535705566406
z: -0.09778004884719849
visibility: 0.9204500913619995
","x: 290.6268615722656
y: 302.58233642578125
z: -0.1349840760231018
visibility: 0.9773820042610168
","x: 288.04833984375
y: 302.64263916015625
z: -0.14056949317455292
visibility: 0.9625316858291626
","x: 300.805908203125
y: 318.725830078125
z: -0.001606789417564869
visibility: 0.9980434775352478
","x: 279.3368225097656
y: 318.9808349609375
z: -0.12064892053604126
visibility: 0.9927430748939514
","x: 312.7390441894531
y: 332.94775390625
z: -0.05334046483039856
visibility: 0.9573234915733337
","x: 286.57421875
y: 339.42059326171875
z: -0.25099867582321167
visibility: 0.29412364959716797
","x: 326.58673095703125
y: 338.8879089355469
z: -0.1837211549282074
visibility: 0.9342943429946899
","x: 306.7134094238281
y: 356.2371826171875
z: -0.33443477749824524
visibility: 0.34873872995376587
","x: 330.3153381347656
y: 340.4394226074219
z: -0.21026375889778137
visibility: 0.8884224891662598
","x: 310.083984375
y: 362.7215881347656
z: -0.36595600843429565
visibility: 0.34558117389678955
","x: 329.88323974609375
y: 339.3271484375
z: -0.22154179215431213
visibility: 0.8854809403419495
","x: 312.3180236816406
y: 360.8230285644531
z: -0.36002078652381897
visibility: 0.3558080494403839
","x: 328.0965270996094
y: 339.45916748046875
z: -0.1930021494626999
visibility: 0.8385981917381287
","x: 311.06622314453125
y: 359.3008728027344
z: -0.3331966996192932
visibility: 0.3695610463619232
","x: 298.564208984375
y: 402.1072998046875
z: 0.01661493256688118
visibility: 0.9986123442649841
","x: 282.4793701171875
y: 404.7847900390625
z: -0.01663661003112793
visibility: 0.9993125796318054
","x: 308.7209777832031
y: 446.0152587890625
z: -0.07227737456560135
visibility: 0.9521716237068176
","x: 273.0387268066406
y: 450.08673095703125
z: 0.07179521769285202
visibility: 0.8873015642166138
","x: 310.9078674316406
y: 496.3883972167969
z: 0.01887260377407074
visibility: 0.9559482932090759
","x: 260.666015625
y: 492.58197021484375
z: 0.23570075631141663
visibility: 0.9521942138671875
","x: 307.94476318359375
y: 503.1280212402344
z: 0.025330031290650368
visibility: 0.8304975032806396
","x: 259.19244384765625
y: 497.5247497558594
z: 0.24886956810951233
visibility: 0.878475546836853
","x: 316.3525085449219
y: 511.16986083984375
z: -0.05106138065457344
visibility: 0.9571419358253479
","x: 257.951904296875
y: 510.57763671875
z: 0.18294657766819
visibility: 0.958078145980835
",,,,,,,,,,,,,,,,,,,,,,,,,,,,,,,,,,,,,,,,,,
3,"x: 292.5329284667969
y: 305.990966796875
z: -0.15912561118602753
visibility: 0.9882881045341492
","x: 294.1181640625
y: 300.9613952636719
z: -0.13575702905654907
visibility: 0.9904101490974426
","x: 295.258056640625
y: 300.8843994140625
z: -0.1357859969139099
visibility: 0.9895782470703125
","x: 296.4041442871094
y: 300.7706298828125
z: -0.13578960299491882
visibility: 0.990792453289032
","x: 290.5578918457031
y: 300.8372802734375
z: -0.14976531267166138
visibility: 0.9812176823616028
","x: 288.9038391113281
y: 300.7733154296875
z: -0.1497633159160614
visibility: 0.9761205911636353
","x: 287.3812255859375
y: 300.719482421875
z: -0.14983662962913513
visibility: 0.9805599451065063
","x: 297.48974609375
y: 300.8589782714844
z: -0.06351496279239655
visibility: 0.9855329990386963
","x: 287.5823669433594
y: 301.4901123046875
z: -0.05196499079465866
visibility: 0.928117036819458
","x: 294.50885009765625
y: 309.8230285644531
z: -0.11691812425851822
visibility: 0.9795175194740295
","x: 290.8675231933594
y: 310.2962646484375
z: -0.12138497829437256
visibility: 0.9661577939987183
","x: 306.69439697265625
y: 322.08441162109375
z: -0.03956034407019615
visibility: 0.9981236457824707
","x: 280.82525634765625
y: 326.0606384277344
z: -0.06382888555526733
visibility: 0.9933924078941345
","x: 304.0168151855469
y: 339.48419189453125
z: -0.12390600144863129
visibility: 0.9400497078895569
","x: 279.10589599609375
y: 365.3587646484375
z: -0.11162759363651276
visibility: 0.3602827191352844
","x: 293.1809387207031
y: 337.86981201171875
z: -0.1954115331172943
visibility: 0.9175222516059875
","x: 283.6513671875
y: 358.19964599609375
z: -0.24612799286842346
visibility: 0.4063781797885895
","x: 290.47320556640625
y: 332.4085998535156
z: -0.21262633800506592
visibility: 0.8708217144012451
","x: 283.0511169433594
y: 358.4322814941406
z: -0.2759849727153778
visibility: 0.39804479479789734
","x: 290.83221435546875
y: 336.310302734375
z: -0.2335786074399948
visibility: 0.8672410249710083
","x: 284.7294006347656
y: 355.0395202636719
z: -0.2788558900356293
visibility: 0.4067189693450928
","x: 291.17803955078125
y: 333.930908203125
z: -0.216090589761734
visibility: 0.8177275657653809
","x: 285.3316345214844
y: 355.47528076171875
z: -0.25169163942337036
visibility: 0.4148276746273041
","x: 299.74951171875
y: 406.35186767578125
z: -0.001269801170565188
visibility: 0.9987460374832153
","x: 283.58056640625
y: 406.2218017578125
z: 0.0012033169623464346
visibility: 0.9993635416030884
","x: 315.5430908203125
y: 448.916259765625
z: -0.1359003186225891
visibility: 0.9566171765327454
","x: 274.9655456542969
y: 449.71844482421875
z: 0.01742756925523281
visibility: 0.8979071974754333
","x: 312.65814208984375
y: 497.058349609375
z: 0.006593511439859867
visibility: 0.9596971273422241
","x: 263.3454284667969
y: 492.56597900390625
z: 0.17579178512096405
visibility: 0.9559324383735657
","x: 309.5391845703125
y: 502.6505126953125
z: 0.01775805465877056
visibility: 0.840424656867981
","x: 263.44927978515625
y: 497.6350402832031
z: 0.18866153061389923
visibility: 0.8762743473052979
","x: 316.24493408203125
y: 511.3373107910156
z: -0.06887012720108032
visibility: 0.960513174533844
","x: 258.02423095703125
y: 510.5496520996094
z: 0.1158822774887085
visibility: 0.9603379964828491
",,,,,,,,,,,,,,,,,,,,,,,,,,,,,,,,,,,,,,,,,,
4,"x: 296.2455749511719
y: 305.1400451660156
z: -0.25002938508987427
visibility: 0.9893680214881897
","x: 297.5587158203125
y: 299.5864562988281
z: -0.23663875460624695
visibility: 0.9911664128303528
","x: 298.7096862792969
y: 299.5111999511719
z: -0.23667100071907043
visibility: 0.990323543548584
","x: 299.9515380859375
y: 299.4299011230469
z: -0.23666851222515106
visibility: 0.9913925528526306
","x: 294.2498474121094
y: 299.4966735839844
z: -0.23501233756542206
visibility: 0.9829076528549194
","x: 292.77386474609375
y: 299.4433898925781
z: -0.23507645726203918
visibility: 0.9782533049583435
","x: 291.15948486328125
y: 299.455078125
z: -0.2351294457912445
visibility: 0.9823211431503296
","x: 300.91619873046875
y: 300.6235046386719
z: -0.14552061259746552
visibility: 0.9862186908721924
","x: 288.9459228515625
y: 301.36181640625
z: -0.13847559690475464
visibility: 0.934977114200592
","x: 297.7127380371094
y: 309.9738464355469
z: -0.21632571518421173
visibility: 0.9810945391654968
","x: 294.1871643066406
y: 310.2380065917969
z: -0.21301910281181335
visibility: 0.9692385196685791
","x: 308.1045227050781
y: 321.339111328125
z: -0.11234519630670547
visibility: 0.9980987310409546
","x: 281.849853515625
y: 327.9403076171875
z: -0.0687641054391861
visibility: 0.9939541816711426
","x: 301.61090087890625
y: 338.35455322265625
z: -0.17669638991355896
visibility: 0.9223172664642334
","x: 270.14404296875
y: 357.43939208984375
z: -0.06237345188856125
visibility: 0.4195227026939392
","x: 278.1114501953125
y: 341.459228515625
z: -0.29777607321739197
visibility: 0.9043883085250854
","x: 253.38272094726562
y: 370.792724609375
z: -0.11047007888555527
visibility: 0.45673879981040955
","x: 274.1932678222656
y: 343.5548400878906
z: -0.3315635621547699
visibility: 0.8582724928855896
","x: 247.87625122070312
y: 375.3442687988281
z: -0.12932993471622467
visibility: 0.44343096017837524
","x: 273.0364074707031
y: 343.1697998046875
z: -0.33583128452301025
visibility: 0.8539989590644836
","x: 248.44390869140625
y: 372.5820617675781
z: -0.15208154916763306
visibility: 0.45227909088134766
","x: 274.20892333984375
y: 342.6938171386719
z: -0.30393943190574646
visibility: 0.7990593910217285
","x: 250.91641235351562
y: 371.9453430175781
z: -0.12223746627569199
visibility: 0.4579066336154938
","x: 303.0612487792969
y: 406.4166564941406
z: -0.006892939563840628
visibility: 0.9988275766372681
","x: 285.26849365234375
y: 406.0083312988281
z: 0.006800111383199692
visibility: 0.9993962645530701
","x: 316.7179870605469
y: 449.0040588378906
z: -0.12585921585559845
visibility: 0.9602472186088562
","x: 275.83612060546875
y: 443.28546142578125
z: -0.11710615456104279
visibility: 0.9077505469322205
","x: 313.01702880859375
y: 497.28076171875
z: 0.036604173481464386
visibility: 0.9626680612564087
","x: 265.0096740722656
y: 492.58447265625
z: 0.02913946844637394
visibility: 0.9598972797393799
","x: 309.34619140625
y: 501.9649963378906
z: 0.04809780418872833
visibility: 0.8454761505126953
","x: 264.5744323730469
y: 499.24615478515625
z: 0.03974584862589836
visibility: 0.8816291093826294
","x: 315.7601318359375
y: 511.2537841796875
z: -0.03765670210123062
visibility: 0.9626947045326233
","x: 258.408935546875
y: 510.56817626953125
z: -0.04692748934030533
visibility: 0.9634584188461304
",,,,,,,,,,,,,,,,,,,,,,,,,,,,,,,,,,,,,,,,,,
5,"x: 298.32598876953125
y: 304.6470947265625
z: -0.2204274833202362
visibility: 0.9902860522270203
","x: 299.23931884765625
y: 299.5277099609375
z: -0.20633713901042938
visibility: 0.9917166233062744
","x: 300.1755676269531
y: 299.56396484375
z: -0.20639029145240784
visibility: 0.9908617734909058
","x: 301.11669921875
y: 299.6019592285156
z: -0.20640933513641357
visibility: 0.9918146729469299
","x: 296.2391052246094
y: 299.12457275390625
z: -0.20593960583209991
visibility: 0.9841926693916321
","x: 294.9240417480469
y: 298.9503173828125
z: -0.20598670840263367
visibility: 0.9799153208732605
","x: 293.4732971191406
y: 298.8628845214844
z: -0.2060202807188034
visibility: 0.9836723804473877
","x: 301.1082763671875
y: 300.82574462890625
z: -0.12015280872583389
visibility: 0.9868583679199219
","x: 289.6087646484375
y: 300.59832763671875
z: -0.11746039241552353
visibility: 0.9407649040222168
","x: 299.025634765625
y: 309.4992370605469
z: -0.18805113434791565
visibility: 0.9826523661613464
","x: 295.8720397949219
y: 309.79345703125
z: -0.18698225915431976
visibility: 0.972003698348999
","x: 307.34967041015625
y: 320.9928894042969
z: -0.0936950147151947
visibility: 0.9982106685638428
","x: 281.61138916015625
y: 327.135986328125
z: -0.05037122219800949
visibility: 0.9943771362304688
","x: 296.9330749511719
y: 339.8339538574219
z: -0.15713918209075928
visibility: 0.9085375070571899
","x: 268.4927062988281
y: 354.6226806640625
z: -0.06148547679185867
visibility: 0.47219982743263245
","x: 273.819091796875
y: 350.5494689941406
z: -0.27709147334098816
visibility: 0.8915167450904846
","x: 254.9192657470703
y: 367.3277587890625
z: -0.14994820952415466
visibility: 0.49739402532577515
","x: 269.00439453125
y: 356.1809997558594
z: -0.31340816617012024
visibility: 0.8456588983535767
","x: 250.0902557373047
y: 372.709228515625
z: -0.17453452944755554
visibility: 0.48023778200149536
","x: 268.1613464355469
y: 354.3429870605469
z: -0.3157757520675659
visibility: 0.8416812419891357
","x: 250.24237060546875
y: 371.3267517089844
z: -0.1930021196603775
visibility: 0.48931267857551575
","x: 269.8318176269531
y: 353.40185546875
z: -0.2816604971885681
visibility: 0.782256543636322
","x: 252.6188507080078
y: 370.3509216308594
z: -0.16103966534137726
visibility: 0.49139222502708435
","x: 303.0794372558594
y: 406.0622863769531
z: -0.004322604741901159
visibility: 0.9989256858825684
","x: 285.3482666015625
y: 405.7694091796875
z: 0.004269289784133434
visibility: 0.9994217753410339
","x: 316.2495422363281
y: 448.8072509765625
z: -0.16921265423297882
visibility: 0.9638001918792725
","x: 271.9837646484375
y: 443.218017578125
z: -0.1262112855911255
visibility: 0.9165623784065247
","x: 312.7827453613281
y: 496.83270263671875
z: 0.023850731551647186
visibility: 0.9656224846839905
","x: 263.924560546875
y: 492.56268310546875
z: 0.04439559578895569
visibility: 0.9633392691612244
","x: 308.1659851074219
y: 501.5910339355469
z: 0.03875338286161423
visibility: 0.8520724177360535
","x: 264.34356689453125
y: 498.087890625
z: 0.05735687538981438
visibility: 0.88359135389328
","x: 315.47381591796875
y: 512.0516357421875
z: -0.047485776245594025
visibility: 0.964977502822876
","x: 257.7304382324219
y: 510.6030578613281
z: -0.02837679348886013
visibility: 0.9659070372581482
",,,,,,,,,,,,,,,,,,,,,,,,,,,,,,,,,,,,,,,,,,
6,"x: 297.88427734375
y: 305.5884094238281
z: -0.1786157786846161
visibility: 0.9912471771240234
","x: 298.25689697265625
y: 301.0971984863281
z: -0.15628370642662048
visibility: 0.9925227761268616
","x: 298.947998046875
y: 301.0574035644531
z: -0.1562844216823578
visibility: 0.9917488694190979
","x: 300.03277587890625
y: 300.9717102050781
z: -0.15630382299423218
visibility: 0.9926062822341919
","x: 296.22430419921875
y: 300.20611572265625
z: -0.18769708275794983
visibility: 0.9857540726661682
","x: 295.19232177734375
y: 299.5413818359375
z: -0.18787327408790588
visibility: 0.9819048643112183
","x: 294.0133361816406
y: 298.814453125
z: -0.18801943957805634
visibility: 0.9852859377861023
","x: 296.67620849609375
y: 300.3185119628906
z: -0.06545593589544296
visibility: 0.9881396889686584
","x: 289.3907165527344
y: 298.8760986328125
z: -0.12068966776132584
visibility: 0.9466739892959595
","x: 297.7230224609375
y: 309.7164611816406
z: -0.13523264229297638
visibility: 0.9843796491622925
","x: 295.29473876953125
y: 309.2325744628906
z: -0.16467569768428802
visibility: 0.9747985005378723
","x: 302.2039794921875
y: 321.8294677734375
z: -0.03100528195500374
visibility: 0.9983798265457153
","x: 275.31866455078125
y: 325.0588684082031
z: -0.10873965919017792
visibility: 0.9949299693107605
","x: 308.2919921875
y: 341.0325927734375
z: -0.14573583006858826
visibility: 0.9065976142883301
","x: 268.0733337402344
y: 350.414306640625
z: -0.24893613159656525
visibility: 0.524746298789978
","x: 310.1401672363281
y: 348.93548583984375
z: -0.3446700870990753
visibility: 0.889798641204834
","x: 284.43609619140625
y: 358.35369873046875
z: -0.38232532143592834
visibility: 0.5470824241638184
","x: 311.978515625
y: 351.1797790527344
z: -0.388866126537323
visibility: 0.8466249108314514
","x: 289.8147888183594
y: 360.72271728515625
z: -0.42180562019348145
visibility: 0.5309616923332214
","x: 310.4171447753906
y: 349.32415771484375
z: -0.3936457633972168
visibility: 0.8437190651893616
","x: 292.10809326171875
y: 358.89404296875
z: -0.41331544518470764
visibility: 0.5390296578407288
","x: 309.02978515625
y: 349.1513366699219
z: -0.3540581464767456
visibility: 0.7875596284866333
","x: 290.9854431152344
y: 359.3756103515625
z: -0.38168400526046753
visibility: 0.539508581161499
","x: 299.3879089355469
y: 404.957763671875
z: 0.008547241799533367
visibility: 0.9990230202674866
","x: 280.16986083984375
y: 404.691650390625
z: -0.008489315398037434
visibility: 0.9994601607322693
","x: 312.5660705566406
y: 447.82965087890625
z: -0.1182008609175682
visibility: 0.9672039747238159
","x: 266.9159851074219
y: 443.26654052734375
z: -0.07015474140644073
visibility: 0.9247481226921082
","x: 311.7633361816406
y: 494.52435302734375
z: 0.05638642981648445
visibility: 0.9684166312217712
","x: 263.3382263183594
y: 494.39373779296875
z: 0.10870544612407684
visibility: 0.9665523767471313
","x: 307.88177490234375
y: 498.5302734375
z: 0.06943724304437637
visibility: 0.8606414198875427
","x: 264.580322265625
y: 500.544677734375
z: 0.12206059694290161
visibility: 0.8871256113052368
","x: 315.840087890625
y: 511.8230895996094
z: -0.016023222357034683
visibility: 0.967262864112854
","x: 257.7588806152344
y: 511.056640625
z: 0.03971090540289879
visibility: 0.9680894017219543
",,,,,,,,,,,,,,,,,,,,,,,,,,,,,,,,,,,,,,,,,,
7,"x: 295.6060791015625
y: 302.9131774902344
z: -0.15272410213947296
visibility: 0.9920622110366821
","x: 294.8330383300781
y: 298.4414978027344
z: -0.13448230922222137
visibility: 0.9930850267410278
","x: 295.02435302734375
y: 298.4876403808594
z: -0.13448911905288696
visibility: 0.9923557043075562
","x: 295.3262023925781
y: 298.4871826171875
z: -0.13449230790138245
visibility: 0.993153989315033
","x: 293.2493591308594
y: 297.56829833984375
z: -0.15500250458717346
visibility: 0.9870448708534241
","x: 292.21826171875
y: 297.0309143066406
z: -0.1550200879573822
visibility: 0.9836041331291199
","x: 291.0769348144531
y: 296.4560852050781
z: -0.15508632361888885
visibility: 0.986644446849823
","x: 292.3518371582031
y: 299.0011901855469
z: -0.0486975722014904
visibility: 0.9890697598457336
","x: 285.88800048828125
y: 297.4317626953125
z: -0.11083807796239853
visibility: 0.951858401298523
","x: 294.1106872558594
y: 307.3611755371094
z: -0.11786027997732162
visibility: 0.9858468174934387
","x: 291.9473876953125
y: 307.0480651855469
z: -0.14416638016700745
visibility: 0.9772225618362427
","x: 297.9170227050781
y: 323.2525939941406
z: 0.0010044167283922434
visibility: 0.9984922409057617
","x: 272.2393493652344
y: 324.76873779296875
z: -0.12351708114147186
visibility: 0.9953601956367493
","x: 311.2459411621094
y: 340.2029724121094
z: 0.005051847547292709
visibility: 0.9016637802124023
","x: 284.3932189941406
y: 340.1766662597656
z: -0.2516690194606781
visibility: 0.5707523822784424
","x: 329.2508544921875
y: 346.7329406738281
z: -0.05826263502240181
visibility: 0.886728823184967
","x: 308.5128173828125
y: 348.4841613769531
z: -0.3466331362724304
visibility: 0.5897166728973389
","x: 334.5914001464844
y: 349.27471923828125
z: -0.07212311774492264
visibility: 0.8417081236839294
","x: 307.8969421386719
y: 346.7680358886719
z: -0.38328447937965393
visibility: 0.572123110294342
","x: 333.8160095214844
y: 347.9149169921875
z: -0.08849857747554779
visibility: 0.8412036895751953
","x: 315.1084289550781
y: 351.8050842285156
z: -0.37612205743789673
visibility: 0.5790058970451355
","x: 331.90875244140625
y: 347.6713562011719
z: -0.06791309267282486
visibility: 0.7882412672042847
","x: 313.0511779785156
y: 351.1097412109375
z: -0.3465959429740906
visibility: 0.5747372508049011
","x: 295.5515441894531
y: 403.9573974609375
z: 0.011557487770915031
visibility: 0.999093234539032
","x: 277.7068786621094
y: 404.6412353515625
z: -0.011542919091880322
visibility: 0.9994861483573914
","x: 305.5494079589844
y: 449.25091552734375
z: -0.06696504354476929
visibility: 0.9702745676040649
","x: 262.79327392578125
y: 443.6651916503906
z: -0.08647601306438446
visibility: 0.9321015477180481
","x: 315.5004577636719
y: 494.08612060546875
z: 0.08437810838222504
visibility: 0.9712573289871216
","x: 262.5107116699219
y: 495.5744934082031
z: 0.06749506294727325
visibility: 0.9696345925331116
","x: 316.21441650390625
y: 498.5174865722656
z: 0.09587199985980988
visibility: 0.8666240572929382
","x: 264.5961608886719
y: 502.274169921875
z: 0.0787784606218338
visibility: 0.8930010199546814
","x: 317.50689697265625
y: 510.67266845703125
z: 0.006299556698650122
visibility: 0.9698101878166199
","x: 257.570068359375
y: 511.253173828125
z: -0.0067991227842867374
visibility: 0.9706225991249084
",,,,,,,,,,,,,,,,,,,,,,,,,,,,,,,,,,,,,,,,,,
8,"x: 290.642333984375
y: 301.6066589355469
z: -0.13941000401973724
visibility: 0.9928264021873474
","x: 289.9756774902344
y: 297.0303955078125
z: -0.1226615160703659
visibility: 0.9936401844024658
","x: 290.2393798828125
y: 297.0908508300781
z: -0.12265603244304657
visibility: 0.9929642677307129
","x: 290.4873352050781
y: 297.11480712890625
z: -0.1226433515548706
visibility: 0.9936875700950623
","x: 288.37200927734375
y: 296.3841552734375
z: -0.13621623814105988
visibility: 0.9882495403289795
","x: 287.4504699707031
y: 296.0337219238281
z: -0.13622523844242096
visibility: 0.98516845703125
","x: 286.374755859375
y: 295.6579895019531
z: -0.1362714171409607
visibility: 0.9879035353660583
","x: 288.65753173828125
y: 298.6258544921875
z: -0.041701823472976685
visibility: 0.9899400472640991
","x: 281.9009704589844
y: 297.5701599121094
z: -0.10784611850976944
visibility: 0.95660799741745
","x: 290.30377197265625
y: 306.3153381347656
z: -0.10787532478570938
visibility: 0.9871920943260193
","x: 288.0827331542969
y: 306.2538757324219
z: -0.1257859766483307
visibility: 0.9794406890869141
","x: 296.1153564453125
y: 324.6624450683594
z: 0.003830271540209651
visibility: 0.9985973238945007
","x: 270.51873779296875
y: 323.8231201171875
z: -0.12051448971033096
visibility: 0.9957916140556335
","x: 312.1520690917969
y: 336.36859130859375
z: -0.014612902887165546
visibility: 0.9057966470718384
","x: 283.86572265625
y: 328.95880126953125
z: -0.2458615005016327
visibility: 0.6134222149848938
","x: 331.18218994140625
y: 337.29840087890625
z: -0.09265200793743134
visibility: 0.8927614688873291
","x: 308.9944152832031
y: 329.9073486328125
z: -0.3179926574230194
visibility: 0.6302489638328552
","x: 336.5672302246094
y: 338.54534912109375
z: -0.10880918800830841
visibility: 0.8479735255241394
","x: 307.2699279785156
y: 336.0785217285156
z: -0.3511761426925659
visibility: 0.6132785677909851
","x: 337.21875
y: 338.80804443359375
z: -0.1244465559720993
visibility: 0.8487979769706726
","x: 307.6313171386719
y: 337.0459289550781
z: -0.34051740169525146
visibility: 0.619301974773407
","x: 335.4676818847656
y: 338.4407043457031
z: -0.10331965982913971
visibility: 0.7998393774032593
","x: 304.86199951171875
y: 337.3060607910156
z: -0.3163296580314636
visibility: 0.6140561103820801
","x: 292.3720397949219
y: 403.7408447265625
z: 0.011215617880225182
visibility: 0.9991410374641418
","x: 274.8404541015625
y: 404.84869384765625
z: -0.011217523366212845
visibility: 0.9995063543319702
","x: 301.25616455078125
y: 449.3538818359375
z: -0.10447372496128082
visibility: 0.9730066657066345
","x: 260.6616516113281
y: 443.8260192871094
z: -0.13741746544837952
visibility: 0.938776433467865
","x: 317.2022399902344
y: 494.0809631347656
z: 0.013429597020149231
visibility: 0.9738099575042725
","x: 262.29583740234375
y: 495.4345703125
z: 0.011852437630295753
visibility: 0.9724690914154053
","x: 318.9117126464844
y: 499.2607116699219
z: 0.020315920934081078
visibility: 0.8727742433547974
","x: 264.9778137207031
y: 502.29010009765625
z: 0.022447887808084488
visibility: 0.9003835320472717
","x: 318.4606628417969
y: 509.1160583496094
z: -0.07401170581579208
visibility: 0.9720996022224426
","x: 257.2438049316406
y: 511.2496643066406
z: -0.061875004321336746
visibility: 0.9730873107910156
",,,,,,,,,,,,,,,,,,,,,,,,,,,,,,,,,,,,,,,,,,
9,"x: 288.14935302734375
y: 301.04888916015625
z: -0.11436770111322403
visibility: 0.9935412406921387
","x: 287.79486083984375
y: 296.215576171875
z: -0.10132759809494019
visibility: 0.9942689538002014
","x: 288.07318115234375
y: 296.27459716796875
z: -0.10130693018436432
visibility: 0.9936575889587402
","x: 288.328125
y: 296.29779052734375
z: -0.10128436982631683
visibility: 0.9943098425865173
","x: 286.2105712890625
y: 295.61590576171875
z: -0.11306913197040558
visibility: 0.9894198179244995
","x: 285.3783874511719
y: 295.3001708984375
z: -0.11305868625640869
visibility: 0.9866466522216797
","x: 284.4233093261719
y: 294.9564208984375
z: -0.11309617757797241
visibility: 0.9891086220741272
","x: 286.5125732421875
y: 298.12530517578125
z: -0.02505555748939514
visibility: 0.9909359812736511
","x: 280.5097961425781
y: 297.1085510253906
z: -0.08050476014614105
visibility: 0.9609440565109253
","x: 288.0145568847656
y: 306.0506896972656
z: -0.08402575552463531
visibility: 0.9884673953056335
","x: 285.853515625
y: 305.91632080078125
z: -0.0999687910079956
visibility: 0.9814926981925964
","x: 291.9002685546875
y: 323.6942138671875
z: 0.018644819036126137
visibility: 0.9987244606018066
","x: 269.9874572753906
y: 314.6267395019531
z: -0.09948375076055527
visibility: 0.996206521987915
","x: 306.32513427734375
y: 316.4028625488281
z: -0.0019298531115055084
visibility: 0.9102658033370972
","x: 280.734375
y: 328.9952392578125
z: -0.23325517773628235
visibility: 0.6517795324325562
","x: 316.2061767578125
y: 301.5469970703125
z: -0.06659308075904846
visibility: 0.901161253452301
","x: 294.7057800292969
y: 337.03118896484375
z: -0.3314773738384247
visibility: 0.6665811538696289
","x: 320.0596923828125
y: 298.9241943359375
z: -0.08142681419849396
visibility: 0.8585317134857178
","x: 296.1138610839844
y: 348.90521240234375
z: -0.36387693881988525
visibility: 0.6501100063323975
","x: 319.2025146484375
y: 297.7830810546875
z: -0.09137503802776337
visibility: 0.8594894409179688
","x: 297.31744384765625
y: 346.97552490234375
z: -0.3585020899772644
visibility: 0.6553822755813599
","x: 317.8855895996094
y: 299.0728759765625
z: -0.07438333332538605
visibility: 0.8143730163574219
","x: 296.5589294433594
y: 343.7246398925781
z: -0.3319444954395294
visibility: 0.6494289040565491
","x: 287.9903869628906
y: 401.48724365234375
z: 0.012856853194534779
visibility: 0.9992208480834961
","x: 271.0831298828125
y: 402.972412109375
z: -0.012887358665466309
visibility: 0.9995493292808533
","x: 297.8364562988281
y: 449.14019775390625
z: -0.04829234629869461
visibility: 0.9755769371986389
","x: 260.2384948730469
y: 446.4823913574219
z: -0.05985356122255325
visibility: 0.9448000192642212
","x: 314.5948486328125
y: 493.9665222167969
z: 0.05317993834614754
visibility: 0.9761409163475037
","x: 261.8367614746094
y: 496.1979675292969
z: 0.08611510694026947
visibility: 0.9750204086303711
","x: 317.7857666015625
y: 499.59820556640625
z: 0.05920346826314926
visibility: 0.8796371221542358
","x: 264.6392517089844
y: 503.1207580566406
z: 0.09644299745559692
visibility: 0.9069512486457825
","x: 318.2424621582031
y: 508.6415100097656
z: -0.03145967051386833
visibility: 0.9743986129760742
","x: 257.3240051269531
y: 511.3778381347656
z: 0.01769106462597847
visibility: 0.9753822684288025
",,,,,,,,,,,,,,,,,,,,,,,,,,,,,,,,,,,,,,,,,,
10,"x: 281.6240539550781
y: 285.58331298828125
z: -0.07575073838233948
visibility: 0.9915317296981812
","x: 283.61163330078125
y: 281.2298889160156
z: -0.08753301203250885
visibility: 0.9922561645507812
","x: 283.7337341308594
y: 281.39874267578125
z: -0.08759232610464096
visibility: 0.9918535351753235
","x: 283.77679443359375
y: 281.6854248046875
z: -0.08759225159883499
visibility: 0.9925132393836975
","x: 283.3525085449219
y: 281.4389953613281
z: -0.06846675276756287
visibility: 0.9863696694374084
","x: 283.2401123046875
y: 281.7745361328125
z: -0.0684739202260971
visibility: 0.9829868674278259
","x: 282.9938659667969
y: 282.22442626953125
z: -0.06853789836168289
visibility: 0.9857674837112427
","x: 285.5448303222656
y: 285.45654296875
z: -0.09794579446315765
visibility: 0.9894702434539795
","x: 282.8843078613281
y: 286.0687561035156
z: -0.019390542060136795
visibility: 0.958667516708374
","x: 282.58477783203125
y: 290.410888671875
z: -0.07912127673625946
visibility: 0.9872000217437744
","x: 282.16986083984375
y: 290.81024169921875
z: -0.054242026060819626
visibility: 0.9793849587440491
","x: 290.0248718261719
y: 309.33551025390625
z: -0.14231376349925995
visibility: 0.9987636804580688
","x: 275.45281982421875
y: 312.7695007324219
z: 0.04728124290704727
visibility: 0.9962135553359985
","x: 271.1340026855469
y: 319.0613708496094
z: -0.20823951065540314
visibility: 0.9157858490943909
","x: 266.4075012207031
y: 325.6773681640625
z: 0.1035013198852539
visibility: 0.6109354496002197
","x: 251.496826171875
y: 307.829833984375
z: -0.22501924633979797
visibility: 0.9080232381820679
","x: 247.05384826660156
y: 318.7331848144531
z: 0.06399291008710861
visibility: 0.6580199003219604
","x: 247.9707489013672
y: 310.18011474609375
z: -0.2529936134815216
visibility: 0.8683235049247742
","x: 240.8358154296875
y: 319.70928955078125
z: 0.05581110715866089
visibility: 0.6429256796836853
","x: 247.73068237304688
y: 302.4471740722656
z: -0.2475278079509735
visibility: 0.8687772154808044
","x: 242.21514892578125
y: 313.73779296875
z: 0.03476400673389435
visibility: 0.6499636769294739
","x: 249.56614685058594
y: 303.7467041015625
z: -0.22280700504779816
visibility: 0.8243820071220398
","x: 244.0322723388672
y: 315.0592041015625
z: 0.05186154693365097
visibility: 0.6445481181144714
","x: 287.0931701660156
y: 397.5909729003906
z: -0.04392208158969879
visibility: 0.9992375373840332
","x: 272.6891784667969
y: 396.6934814453125
z: 0.04384820908308029
visibility: 0.9995325803756714
","x: 291.78155517578125
y: 448.99859619140625
z: -0.01713009551167488
visibility: 0.9774430394172668
","x: 263.47113037109375
y: 444.2893981933594
z: 0.06432406604290009
visibility: 0.9486453533172607
","x: 297.5782470703125
y: 494.8660583496094
z: 0.13981033861637115
visibility: 0.9780558943748474
","x: 262.1197509765625
y: 496.06878662109375
z: 0.19731903076171875
visibility: 0.9766294956207275
","x: 298.6991271972656
y: 501.0531005859375
z: 0.15217527747154236
visibility: 0.8850829005241394
","x: 264.7453918457031
y: 503.02752685546875
z: 0.20809468626976013
visibility: 0.9103715419769287
","x: 295.6013488769531
y: 509.13458251953125
z: 0.08228044956922531
visibility: 0.9762284159660339
","x: 256.8699951171875
y: 509.9085998535156
z: 0.15011480450630188
visibility: 0.9768901467323303
",,,,,,,,,,,,,,,,,,,,,,,,,,,,,,,,,,,,,,,,,,
11,"x: 281.9426574707031
y: 284.0411071777344
z: -0.11292736232280731
visibility: 0.9923381805419922
","x: 287.1907958984375
y: 280.7889709472656
z: -0.11173316091299057
visibility: 0.9929569959640503
","x: 288.67315673828125
y: 281.3930358886719
z: -0.11176806688308716
visibility: 0.9925812482833862
","x: 290.0573425292969
y: 282.0394287109375
z: -0.111761674284935
visibility: 0.993178129196167
","x: 283.8648681640625
y: 279.45599365234375
z: -0.10369709879159927
visibility: 0.9876638054847717
","x: 284.46197509765625
y: 279.21392822265625
z: -0.10370968282222748
visibility: 0.9846063256263733
","x: 284.4604797363281
y: 279.0172119140625
z: -0.10375181585550308
visibility: 0.9871307611465454
","x: 292.9087219238281
y: 285.6915588378906
z: -0.06311465799808502
visibility: 0.990276575088501
","x: 283.7257385253906
y: 282.7862854003906
z: -0.025825172662734985
visibility: 0.9627042412757874
","x: 285.01361083984375
y: 289.195556640625
z: -0.10111262649297714
visibility: 0.9882936477661133
","x: 284.2318115234375
y: 288.4927062988281
z: -0.09133747220039368
visibility: 0.9813613295555115
","x: 290.9806213378906
y: 309.3649597167969
z: -0.11220152676105499
visibility: 0.9985474944114685
","x: 274.9625549316406
y: 313.61785888671875
z: 0.013327488675713539
visibility: 0.9964785575866699
","x: 278.60577392578125
y: 309.91778564453125
z: -0.17525812983512878
visibility: 0.920896053314209
","x: 263.38037109375
y: 326.6190185546875
z: -0.060247935354709625
visibility: 0.6422872543334961
","x: 275.26519775390625
y: 274.58990478515625
z: -0.23241667449474335
visibility: 0.9150322079658508
","x: 262.2805480957031
y: 300.8642272949219
z: -0.18544170260429382
visibility: 0.685725748538971
","x: 274.1794128417969
y: 264.0724792480469
z: -0.2586822211742401
visibility: 0.8779097199440002
","x: 261.9732971191406
y: 291.8618469238281
z: -0.22120575606822968
visibility: 0.6650574207305908
","x: 275.1634216308594
y: 262.150146484375
z: -0.2550560534000397
visibility: 0.8779399394989014
","x: 263.7044372558594
y: 286.6800537109375
z: -0.1813977062702179
visibility: 0.6696991920471191
","x: 275.7037048339844
y: 264.9633483886719
z: -0.23328249156475067
visibility: 0.8353345394134521
","x: 264.3888854980469
y: 290.0543518066406
z: -0.18172329664230347
visibility: 0.6620933413505554
","x: 290.5404052734375
y: 396.09814453125
z: -0.038822241127491
visibility: 0.9992915391921997
","x: 274.566650390625
y: 393.8856506347656
z: 0.03902040049433708
visibility: 0.9995690584182739
","x: 291.28399658203125
y: 448.2379150390625
z: -0.058284956961870193
visibility: 0.9785919785499573
","x: 264.1092224121094
y: 438.0387878417969
z: -0.13912884891033173
visibility: 0.953432023525238
","x: 293.8738098144531
y: 498.31243896484375
z: 0.0862007886171341
visibility: 0.9791197180747986
","x: 267.4689636230469
y: 486.3586730957031
z: 0.01754150539636612
visibility: 0.9778688549995422
","x: 293.440185546875
y: 504.0623474121094
z: 0.09535615146160126
visibility: 0.8799303770065308
","x: 271.2821044921875
y: 490.42596435546875
z: 0.030239403247833252
visibility: 0.9091855883598328
","x: 294.8809814453125
y: 510.2442932128906
z: 0.007028697524219751
visibility: 0.976769208908081
","x: 263.33587646484375
y: 507.6210021972656
z: -0.04462846741080284
visibility: 0.9778360724449158
",,,,,,,,,,,,,,,,,,,,,,,,,,,,,,,,,,,,,,,,,,
12,"x: 283.7250061035156
y: 285.77813720703125
z: -0.12347324937582016
visibility: 0.9930960536003113
","x: 287.3257751464844
y: 282.00604248046875
z: -0.11401885747909546
visibility: 0.9936500191688538
","x: 289.6168212890625
y: 282.52935791015625
z: -0.11405359208583832
visibility: 0.9933124780654907
","x: 291.5216369628906
y: 283.094482421875
z: -0.11406765878200531
visibility: 0.9938480257987976
","x: 285.4876403808594
y: 280.5364074707031
z: -0.10766921937465668
visibility: 0.9888856410980225
","x: 285.7238464355469
y: 280.0915222167969
z: -0.10764886438846588
visibility: 0.9861282706260681
","x: 285.4364318847656
y: 279.65618896484375
z: -0.10768233239650726
visibility: 0.9883924126625061
","x: 294.88739013671875
y: 286.48870849609375
z: -0.04290149360895157
visibility: 0.9912243485450745
","x: 284.0854187011719
y: 282.05865478515625
z: -0.014934582635760307
visibility: 0.9664099812507629
","x: 285.88079833984375
y: 291.3290710449219
z: -0.10121847689151764
visibility: 0.9894240498542786
","x: 285.2806091308594
y: 290.06451416015625
z: -0.09326095879077911
visibility: 0.9831868410110474
","x: 293.75
y: 310.76776123046875
z: -0.04676869139075279
visibility: 0.9986457824707031
","x: 281.1944580078125
y: 308.9045104980469
z: 0.05247669667005539
visibility: 0.996645450592041
","x: 277.4941101074219
y: 310.4355773925781
z: -0.16461911797523499
visibility: 0.9244896769523621
","x: 279.0501403808594
y: 337.1236572265625
z: 0.11814165115356445
visibility: 0.593572199344635
","x: 274.72528076171875
y: 286.3888244628906
z: -0.2345873862504959
visibility: 0.9213440418243408
","x: 281.9739074707031
y: 369.5869445800781
z: 0.1477743685245514
visibility: 0.6318288445472717
","x: 273.69134521484375
y: 278.0437927246094
z: -0.26324814558029175
visibility: 0.8864864110946655
","x: 282.5142517089844
y: 378.5364990234375
z: 0.15542374551296234
visibility: 0.613300085067749
","x: 275.9252624511719
y: 275.69390869140625
z: -0.25748348236083984
visibility: 0.8865434527397156
","x: 282.6038818359375
y: 380.2830810546875
z: 0.13896498084068298
visibility: 0.617307186126709
","x: 276.45672607421875
y: 278.35076904296875
z: -0.23536744713783264
visibility: 0.84532231092453
","x: 282.9931335449219
y: 377.1148681640625
z: 0.14276394248008728
visibility: 0.6087120175361633
","x: 290.9316101074219
y: 392.48046875
z: -0.028088649734854698
visibility: 0.9993540048599243
","x: 277.00079345703125
y: 392.3167724609375
z: 0.028086373582482338
visibility: 0.9995645880699158
","x: 292.687744140625
y: 443.2313232421875
z: -0.22020740807056427
visibility: 0.9785621762275696
","x: 267.58001708984375
y: 439.4096374511719
z: -0.068296417593956
visibility: 0.9529997706413269
","x: 291.9610290527344
y: 497.9532470703125
z: -0.19639314711093903
visibility: 0.9779061079025269
","x: 274.58172607421875
y: 488.0401916503906
z: 0.05197396129369736
visibility: 0.9675886631011963
","x: 291.2380065917969
y: 505.9196472167969
z: -0.19779255986213684
visibility: 0.8803938031196594
","x: 277.1341552734375
y: 492.11566162109375
z: 0.05865788459777832
visibility: 0.8821474313735962
","x: 291.1921691894531
y: 509.4417724609375
z: -0.29815638065338135
visibility: 0.976081907749176
","x: 271.8280029296875
y: 503.0899658203125
z: -0.01652350276708603
visibility: 0.9651638865470886
",,,,,,,,,,,,,,,,,,,,,,"x: 273.3591003417969
y: 287.6138000488281
z: 0.0
","x: 275.9022521972656
y: 285.669189453125
z: -0.002240212867036462
","x: 277.8977966308594
y: 282.1568298339844
z: -0.0038606575690209866
","x: 277.80841064453125
y: 279.8643493652344
z: -0.0057194470427930355
","x: 276.05279541015625
y: 278.88720703125
z: -0.007180741988122463
","x: 275.8564453125
y: 274.0348205566406
z: -0.0022198939695954323
","x: 275.87908935546875
y: 271.6241760253906
z: -0.005116617772728205
","x: 275.7297668457031
y: 275.7917175292969
z: -0.00589826749637723
","x: 275.6757507324219
y: 279.1022033691406
z: -0.005922405980527401
","x: 273.5527038574219
y: 274.1690368652344
z: -0.0027798821683973074
","x: 273.54803466796875
y: 271.66876220703125
z: -0.005923707038164139
","x: 273.6355895996094
y: 276.84820556640625
z: -0.0057555194944143295
","x: 273.7567138671875
y: 280.478515625
z: -0.00483346963301301
","x: 271.45281982421875
y: 275.5420837402344
z: -0.003844775026664138
","x: 271.42230224609375
y: 273.9126892089844
z: -0.006737801246345043
","x: 271.86151123046875
y: 278.6621398925781
z: -0.005724669899791479
","x: 272.2709655761719
y: 281.63482666015625
z: -0.004282735753804445
","x: 269.57818603515625
y: 277.77978515625
z: -0.0052934009581804276
","x: 269.8112487792969
y: 276.79010009765625
z: -0.0069634998217225075
","x: 270.2944030761719
y: 280.1253967285156
z: -0.006340211257338524
","x: 270.6502380371094
y: 282.397216796875
z: -0.0052609508857131
"
13,"x: 283.7250061035156
y: 285.77813720703125
z: -0.12347324937582016
visibility: 0.9930960536003113
","x: 287.3257751464844
y: 282.00604248046875
z: -0.11401885747909546
visibility: 0.9936500191688538
","x: 289.6168212890625
y: 282.52935791015625
z: -0.11405359208583832
visibility: 0.9933124780654907
","x: 291.5216369628906
y: 283.094482421875
z: -0.11406765878200531
visibility: 0.9938480257987976
","x: 285.4876403808594
y: 280.5364074707031
z: -0.10766921937465668
visibility: 0.9888856410980225
","x: 285.7238464355469
y: 280.0915222167969
z: -0.10764886438846588
visibility: 0.9861282706260681
","x: 285.4364318847656
y: 279.65618896484375
z: -0.10768233239650726
visibility: 0.9883924126625061
","x: 294.88739013671875
y: 286.48870849609375
z: -0.04290149360895157
visibility: 0.9912243485450745
","x: 284.0854187011719
y: 282.05865478515625
z: -0.014934582635760307
visibility: 0.9664099812507629
","x: 285.88079833984375
y: 291.3290710449219
z: -0.10121847689151764
visibility: 0.9894240498542786
","x: 285.2806091308594
y: 290.06451416015625
z: -0.09326095879077911
visibility: 0.9831868410110474
","x: 293.75
y: 310.76776123046875
z: -0.04676869139075279
visibility: 0.9986457824707031
","x: 281.1944580078125
y: 308.9045104980469
z: 0.05247669667005539
visibility: 0.996645450592041
","x: 277.4941101074219
y: 310.4355773925781
z: -0.16461911797523499
visibility: 0.9244896769523621
","x: 279.0501403808594
y: 337.1236572265625
z: 0.11814165115356445
visibility: 0.593572199344635
","x: 274.72528076171875
y: 286.3888244628906
z: -0.2345873862504959
visibility: 0.9213440418243408
","x: 281.9739074707031
y: 369.5869445800781
z: 0.1477743685245514
visibility: 0.6318288445472717
","x: 273.69134521484375
y: 278.0437927246094
z: -0.26324814558029175
visibility: 0.8864864110946655
","x: 282.5142517089844
y: 378.5364990234375
z: 0.15542374551296234
visibility: 0.613300085067749
","x: 275.9252624511719
y: 275.69390869140625
z: -0.25748348236083984
visibility: 0.8865434527397156
","x: 282.6038818359375
y: 380.2830810546875
z: 0.13896498084068298
visibility: 0.617307186126709
","x: 276.45672607421875
y: 278.35076904296875
z: -0.23536744713783264
visibility: 0.84532231092453
","x: 282.9931335449219
y: 377.1148681640625
z: 0.14276394248008728
visibility: 0.6087120175361633
","x: 290.9316101074219
y: 392.48046875
z: -0.028088649734854698
visibility: 0.9993540048599243
","x: 277.00079345703125
y: 392.3167724609375
z: 0.028086373582482338
visibility: 0.9995645880699158
","x: 292.687744140625
y: 443.2313232421875
z: -0.22020740807056427
visibility: 0.9785621762275696
","x: 267.58001708984375
y: 439.4096374511719
z: -0.068296417593956
visibility: 0.9529997706413269
","x: 291.9610290527344
y: 497.9532470703125
z: -0.19639314711093903
visibility: 0.9779061079025269
","x: 274.58172607421875
y: 488.0401916503906
z: 0.05197396129369736
visibility: 0.9675886631011963
","x: 291.2380065917969
y: 505.9196472167969
z: -0.19779255986213684
visibility: 0.8803938031196594
","x: 277.1341552734375
y: 492.11566162109375
z: 0.05865788459777832
visibility: 0.8821474313735962
","x: 291.1921691894531
y: 509.4417724609375
z: -0.29815638065338135
visibility: 0.976081907749176
","x: 271.8280029296875
y: 503.0899658203125
z: -0.01652350276708603
visibility: 0.9651638865470886
",,,,,,,,,,,,,,,,,,,,,,"x: 273.3591003417969
y: 287.6138000488281
z: 0.0
","x: 275.9022521972656
y: 285.669189453125
z: -0.002240212867036462
","x: 277.8977966308594
y: 282.1568298339844
z: -0.0038606575690209866
","x: 277.80841064453125
y: 279.8643493652344
z: -0.0057194470427930355
","x: 276.05279541015625
y: 278.88720703125
z: -0.007180741988122463
","x: 275.8564453125
y: 274.0348205566406
z: -0.0022198939695954323
","x: 275.87908935546875
y: 271.6241760253906
z: -0.005116617772728205
","x: 275.7297668457031
y: 275.7917175292969
z: -0.00589826749637723
","x: 275.6757507324219
y: 279.1022033691406
z: -0.005922405980527401
","x: 273.5527038574219
y: 274.1690368652344
z: -0.0027798821683973074
","x: 273.54803466796875
y: 271.66876220703125
z: -0.005923707038164139
","x: 273.6355895996094
y: 276.84820556640625
z: -0.0057555194944143295
","x: 273.7567138671875
y: 280.478515625
z: -0.00483346963301301
","x: 271.45281982421875
y: 275.5420837402344
z: -0.003844775026664138
","x: 271.42230224609375
y: 273.9126892089844
z: -0.006737801246345043
","x: 271.86151123046875
y: 278.6621398925781
z: -0.005724669899791479
","x: 272.2709655761719
y: 281.63482666015625
z: -0.004282735753804445
","x: 269.57818603515625
y: 277.77978515625
z: -0.0052934009581804276
","x: 269.8112487792969
y: 276.79010009765625
z: -0.0069634998217225075
","x: 270.2944030761719
y: 280.1253967285156
z: -0.006340211257338524
","x: 270.6502380371094
y: 282.397216796875
z: -0.0052609508857131
"
14,"x: 285.72076416015625
y: 284.89892578125
z: -0.12486007064580917
visibility: 0.9936639666557312
","x: 288.415771484375
y: 280.4764099121094
z: -0.11516505479812622
visibility: 0.9941245913505554
","x: 290.02581787109375
y: 280.90240478515625
z: -0.11531759798526764
visibility: 0.9938241243362427
","x: 291.5334777832031
y: 281.3906555175781
z: -0.11540365219116211
visibility: 0.9942951202392578
","x: 286.2803039550781
y: 279.31829833984375
z: -0.11401132494211197
visibility: 0.9898144602775574
","x: 285.8495788574219
y: 278.9954833984375
z: -0.11400731652975082
visibility: 0.987299382686615
","x: 285.1745300292969
y: 278.7283020019531
z: -0.11404047906398773
visibility: 0.9893200993537903
","x: 294.575439453125
y: 284.68603515625
z: -0.04908067733049393
visibility: 0.991982638835907
","x: 284.10009765625
y: 280.924560546875
z: -0.03130527585744858
visibility: 0.9692419767379761
","x: 287.2540283203125
y: 290.7916564941406
z: -0.10387755930423737
visibility: 0.9903112649917603
","x: 285.21136474609375
y: 289.4965515136719
z: -0.09969015419483185
visibility: 0.9846171140670776
","x: 294.8420104980469
y: 311.262451171875
z: -0.1004297137260437
visibility: 0.9986445903778076
","x: 280.6106872558594
y: 307.275146484375
z: 0.039614107459783554
visibility: 0.9966011643409729
","x: 277.7962341308594
y: 327.0048522949219
z: -0.15497398376464844
visibility: 0.9296971559524536
","x: 267.3694152832031
y: 328.232666015625
z: 0.010944360867142677
visibility: 0.5689194202423096
","x: 261.0992736816406
y: 316.14312744140625
z: -0.16421523690223694
visibility: 0.9211797118186951
","x: 261.9071350097656
y: 326.7757873535156
z: -0.22778630256652832
visibility: 0.6162723302841187
","x: 256.2729797363281
y: 313.91058349609375
z: -0.188092902302742
visibility: 0.8841286897659302
","x: 261.9750671386719
y: 323.05377197265625
z: -0.2549494206905365
visibility: 0.5993099212646484
","x: 256.6971740722656
y: 308.83294677734375
z: -0.18502570688724518
visibility: 0.8843443393707275
","x: 263.10736083984375
y: 322.4061584472656
z: -0.25892719626426697
visibility: 0.602613627910614
","x: 258.8018493652344
y: 310.5179138183594
z: -0.1624421328306198
visibility: 0.84160315990448
","x: 264.4512939453125
y: 324.06884765625
z: -0.23575858771800995
visibility: 0.5928102135658264
","x: 291.77850341796875
y: 389.685791015625
z: -0.03955100476741791
visibility: 0.9993154406547546
","x: 279.5843200683594
y: 390.8727722167969
z: 0.03946753591299057
visibility: 0.9995073080062866
","x: 292.7635498046875
y: 443.3651428222656
z: -0.16942012310028076
visibility: 0.9757682681083679
","x: 275.5192565917969
y: 442.82647705078125
z: 0.0009420228307135403
visibility: 0.9344669580459595
","x: 294.0105895996094
y: 499.1949768066406
z: -0.015056950971484184
visibility: 0.9764900207519531
","x: 281.631103515625
y: 496.2593078613281
z: 0.0847150906920433
visibility: 0.9568103551864624
","x: 295.12188720703125
y: 505.809326171875
z: -0.008351585827767849
visibility: 0.8785390853881836
","x: 283.37762451171875
y: 501.9001770019531
z: 0.06593766063451767
visibility: 0.8674446940422058
","x: 291.26470947265625
y: 512.7319946289062
z: -0.09464933723211288
visibility: 0.9752681851387024
","x: 279.7306213378906
y: 509.31719970703125
z: 0.027343187481164932
visibility: 0.9580084085464478
",,,,,,,,,,,,,,,,,,,,,,,,,,,,,,,,,,,,,,,,,,
15,"x: 286.333251953125
y: 286.20196533203125
z: -0.04737592861056328
visibility: 0.9942959547042847
","x: 288.5973815917969
y: 281.843994140625
z: -0.03676701337099075
visibility: 0.9947100877761841
","x: 289.8385009765625
y: 282.2464599609375
z: -0.03679738938808441
visibility: 0.9944393038749695
","x: 291.1401672363281
y: 282.62799072265625
z: -0.03681689873337746
visibility: 0.9948630928993225
","x: 286.1541748046875
y: 280.5687255859375
z: -0.030524656176567078
visibility: 0.9908312559127808
","x: 285.3435974121094
y: 280.1748046875
z: -0.03055468201637268
visibility: 0.9885669350624084
","x: 284.37762451171875
y: 279.8324279785156
z: -0.030517319217324257
visibility: 0.9903861284255981
","x: 293.73883056640625
y: 285.4983825683594
z: 0.022519636899232864
visibility: 0.9927821755409241
","x: 282.888916015625
y: 282.16937255859375
z: 0.04864809662103653
visibility: 0.9723115563392639
","x: 287.66986083984375
y: 291.94189453125
z: -0.02554362639784813
visibility: 0.9912751913070679
","x: 284.5751953125
y: 290.86358642578125
z: -0.018293285742402077
visibility: 0.9861498475074768
","x: 294.9793701171875
y: 310.485595703125
z: -0.018399523571133614
visibility: 0.9987746477127075
","x: 277.5115051269531
y: 308.7347717285156
z: 0.12536799907684326
visibility: 0.9969106912612915
","x: 278.1360168457031
y: 334.4744567871094
z: -0.04959888011217117
visibility: 0.9336782693862915
","x: 264.7964172363281
y: 341.09942626953125
z: 0.045525796711444855
visibility: 0.5758066773414612
","x: 260.9294128417969
y: 346.56182861328125
z: -0.05429476499557495
visibility: 0.9139823317527771
","x: 260.98504638671875
y: 338.7380676269531
z: -0.14309534430503845
visibility: 0.629959762096405
","x: 256.58819580078125
y: 351.6503601074219
z: -0.07724308967590332
visibility: 0.8739378452301025
","x: 259.73651123046875
y: 339.2036437988281
z: -0.1715884804725647
visibility: 0.6141402125358582
","x: 255.32406616210938
y: 351.04449462890625
z: -0.0734228566288948
visibility: 0.8738778829574585
","x: 261.6275329589844
y: 335.5690002441406
z: -0.17603574693202972
visibility: 0.617662787437439
","x: 256.8970642089844
y: 349.41278076171875
z: -0.05190093442797661
visibility: 0.8295694589614868
","x: 262.8448791503906
y: 335.7088623046875
z: -0.15040892362594604
visibility: 0.6063826084136963
","x: 292.7163391113281
y: 387.16595458984375
z: -0.05525337532162666
visibility: 0.999380886554718
","x: 282.33892822265625
y: 388.66510009765625
z: 0.05526397377252579
visibility: 0.9995492100715637
","x: 279.46612548828125
y: 431.23309326171875
z: -0.19118578732013702
visibility: 0.9772512912750244
","x: 285.8830261230469
y: 441.3807373046875
z: 0.06824295967817307
visibility: 0.8909533619880676
","x: 282.3758544921875
y: 493.9210510253906
z: -0.15414750576019287
visibility: 0.978171706199646
","x: 293.8235778808594
y: 496.6463623046875
z: 0.14827069640159607
visibility: 0.9496738314628601
","x: 284.4539489746094
y: 501.87847900390625
z: -0.15199632942676544
visibility: 0.8885576128959656
","x: 298.436767578125
y: 504.322509765625
z: 0.1511221081018448
visibility: 0.8651350140571594
","x: 271.70367431640625
y: 507.9699401855469
z: -0.21418865025043488
visibility: 0.9770951867103577
","x: 285.5847473144531
y: 508.5309143066406
z: 0.10446123778820038
visibility: 0.9509274363517761
",,,,,,,,,,,,,,,,,,,,,,,,,,,,,,,,,,,,,,,,,,
16,"x: 284.5491638183594
y: 286.86029052734375
z: -0.05401382967829704
visibility: 0.9948654174804688
","x: 286.87060546875
y: 282.4034423828125
z: -0.045968495309352875
visibility: 0.9952377080917358
","x: 287.9507751464844
y: 282.7059326171875
z: -0.04600100219249725
visibility: 0.9949939846992493
","x: 289.0870361328125
y: 282.98333740234375
z: -0.04603200405836105
visibility: 0.995375394821167
","x: 284.28424072265625
y: 281.2899475097656
z: -0.03742683678865433
visibility: 0.9917472004890442
","x: 283.4841613769531
y: 280.910888671875
z: -0.037454478442668915
visibility: 0.9897089600563049
","x: 282.6515808105469
y: 280.55194091796875
z: -0.03742389753460884
visibility: 0.9913462996482849
","x: 291.6999206542969
y: 285.724365234375
z: 0.005695295985788107
visibility: 0.9935024380683899
","x: 281.7144470214844
y: 282.65545654296875
z: 0.04114421084523201
visibility: 0.9750760793685913
","x: 286.135009765625
y: 292.5363464355469
z: -0.03504618629813194
visibility: 0.992143452167511
","x: 282.4297180175781
y: 291.5096740722656
z: -0.024980051442980766
visibility: 0.9875306487083435
","x: 294.3182067871094
y: 310.16876220703125
z: -0.0287326667457819
visibility: 0.9988772869110107
","x: 276.4724426269531
y: 312.97967529296875
z: 0.12113187462091446
visibility: 0.9971553683280945
","x: 280.8792419433594
y: 338.8019104003906
z: -0.058370448648929596
visibility: 0.9374024271965027
","x: 266.3896789550781
y: 347.4316101074219
z: 0.04672316461801529
visibility: 0.5778723955154419
","x: 268.7260437011719
y: 333.4246520996094
z: -0.035876333713531494
visibility: 0.9116302132606506
","x: 263.8663635253906
y: 336.3135070800781
z: -0.11369863897562027
visibility: 0.6468440294265747
","x: 266.79156494140625
y: 349.1865539550781
z: -0.04909529536962509
visibility: 0.8714506030082703
","x: 263.0313415527344
y: 332.76800537109375
z: -0.13366174697875977
visibility: 0.6280445456504822
","x: 266.5025634765625
y: 341.9730224609375
z: -0.04749808833003044
visibility: 0.8708566427230835
","x: 264.7240905761719
y: 329.1730041503906
z: -0.13238553702831268
visibility: 0.6311756372451782
","x: 267.4971923828125
y: 336.3162536621094
z: -0.03316092491149902
visibility: 0.826565146446228
","x: 265.7714538574219
y: 330.4529113769531
z: -0.11787132173776627
visibility: 0.6188473701477051
","x: 292.5487976074219
y: 387.1542663574219
z: -0.055136632174253464
visibility: 0.9994369745254517
","x: 282.6648864746094
y: 389.409423828125
z: 0.0552535243332386
visibility: 0.9995800852775574
","x: 277.9913024902344
y: 433.73272705078125
z: -0.16656912863254547
visibility: 0.9790475964546204
","x: 288.6121520996094
y: 441.6966552734375
z: 0.08983293920755386
visibility: 0.872588038444519
","x: 268.1043395996094
y: 495.6920166015625
z: -0.1955478936433792
visibility: 0.9801044464111328
","x: 293.8224182128906
y: 497.4246520996094
z: 0.15376287698745728
visibility: 0.9468753337860107
","x: 268.8875732421875
y: 504.8521423339844
z: -0.2004614621400833
visibility: 0.8990083932876587
","x: 297.6576843261719
y: 504.6835632324219
z: 0.15691250562667847
visibility: 0.8696321845054626
","x: 255.3563995361328
y: 502.67138671875
z: -0.26960092782974243
visibility: 0.9789259433746338
","x: 283.6263122558594
y: 508.1501770019531
z: 0.1144121065735817
visibility: 0.9443791508674622
",,,,,,,,,,,,,,,,,,,,,,,,,,,,,,,,,,,,,,,,,,
17,"x: 280.8290100097656
y: 288.414794921875
z: -0.025860603898763657
visibility: 0.9953773617744446
","x: 282.8258972167969
y: 283.5242004394531
z: -0.017017941921949387
visibility: 0.9957118034362793
","x: 284.06011962890625
y: 283.45306396484375
z: -0.0170571431517601
visibility: 0.9954923391342163
","x: 285.36578369140625
y: 283.3888854980469
z: -0.017074372619390488
visibility: 0.9958361387252808
","x: 280.0311584472656
y: 283.79522705078125
z: -0.007031883113086224
visibility: 0.9925705790519714
","x: 279.21881103515625
y: 283.9273376464844
z: -0.007041014730930328
visibility: 0.9907352328300476
","x: 278.39739990234375
y: 284.1163330078125
z: -0.007023470010608435
visibility: 0.992209255695343
","x: 288.2087097167969
y: 286.0797119140625
z: 0.03286910802125931
visibility: 0.9941499829292297
","x: 277.974365234375
y: 286.7076416015625
z: 0.07661516964435577
visibility: 0.9775609374046326
","x: 282.9859924316406
y: 293.24664306640625
z: -0.007749316748231649
visibility: 0.9929254651069641
","x: 279.1407470703125
y: 293.9637451171875
z: 0.004776789806783199
visibility: 0.9887718558311462
","x: 294.7520751953125
y: 310.50201416015625
z: -0.009956296533346176
visibility: 0.9989868402481079
","x: 273.8929748535156
y: 315.740966796875
z: 0.13641370832920074
visibility: 0.9974015355110168
","x: 295.80487060546875
y: 327.1810607910156
z: -0.1196526437997818
visibility: 0.9432945847511292
","x: 267.1335754394531
y: 350.8541564941406
z: 0.07349546253681183
visibility: 0.5759756565093994
","x: 275.78375244140625
y: 331.02197265625
z: -0.19598999619483948
visibility: 0.9182310104370117
","x: 265.5890808105469
y: 355.52191162109375
z: -0.07295141369104385
visibility: 0.6502422094345093
","x: 270.3619384765625
y: 339.3465881347656
z: -0.2264999896287918
visibility: 0.879733145236969
","x: 265.0432434082031
y: 361.24444580078125
z: -0.09580149501562119
visibility: 0.6301425099372864
","x: 268.1241149902344
y: 331.7978210449219
z: -0.21464470028877258
visibility: 0.8788360357284546
","x: 266.23345947265625
y: 358.02685546875
z: -0.10026109218597412
visibility: 0.6336172223091125
","x: 271.1512756347656
y: 331.17236328125
z: -0.1923600435256958
visibility: 0.8362950682640076
","x: 267.1935119628906
y: 356.053466796875
z: -0.07941386103630066
visibility: 0.620823860168457
","x: 291.2221984863281
y: 388.7523193359375
z: -0.05694558471441269
visibility: 0.9994897246360779
","x: 282.5621337890625
y: 390.45770263671875
z: 0.057052694261074066
visibility: 0.9996070861816406
","x: 278.07366943359375
y: 437.5009765625
z: -0.13875830173492432
visibility: 0.9786796569824219
","x: 287.2445983886719
y: 444.2036437988281
z: 0.05526979640126228
visibility: 0.8488090634346008
","x: 264.96710205078125
y: 498.121826171875
z: -0.14086200296878815
visibility: 0.9812971353530884
","x: 294.0098876953125
y: 497.34808349609375
z: 0.11124080419540405
visibility: 0.9437688589096069
","x: 265.0760498046875
y: 507.39447021484375
z: -0.14510688185691833
visibility: 0.9069194197654724
","x: 297.7608947753906
y: 504.4424133300781
z: 0.11113536357879639
visibility: 0.8739497661590576
","x: 254.24017333984375
y: 502.04815673828125
z: -0.22076740860939026
visibility: 0.9800878763198853
","x: 283.91522216796875
y: 507.8995361328125
z: 0.06374205648899078
visibility: 0.9420338273048401
",,,,,,,,,,,,,,,,,,,,,,,,,,,,,,,,,,,,,,,,,,
18,"x: 272.11376953125
y: 289.930908203125
z: -0.0691319927573204
visibility: 0.9958282113075256
","x: 273.7038879394531
y: 284.3581848144531
z: -0.07438837736845016
visibility: 0.9961222410202026
","x: 274.67926025390625
y: 284.01220703125
z: -0.07446736842393875
visibility: 0.9959259033203125
","x: 275.7213439941406
y: 283.6141357421875
z: -0.07457835972309113
visibility: 0.9962387084960938
","x: 271.606689453125
y: 285.1867980957031
z: -0.04086410626769066
visibility: 0.9932953119277954
","x: 271.04852294921875
y: 285.40350341796875
z: -0.04069894552230835
visibility: 0.9916356205940247
","x: 270.5000915527344
y: 285.6419677734375
z: -0.04055333510041237
visibility: 0.9929623603820801
","x: 279.54461669921875
y: 286.4137878417969
z: -0.042793452739715576
visibility: 0.9947192072868347
","x: 271.6269836425781
y: 287.71173095703125
z: 0.02535800077021122
visibility: 0.9797455668449402
","x: 274.42608642578125
y: 294.7270812988281
z: -0.062058188021183014
visibility: 0.9936208128929138
","x: 271.6251525878906
y: 295.760498046875
z: 0.0038132048211991787
visibility: 0.9898657202720642
","x: 287.8323974609375
y: 310.248779296875
z: -0.060701142996549606
visibility: 0.9990790486335754
","x: 271.33966064453125
y: 316.5704345703125
z: 0.09350210428237915
visibility: 0.9974830150604248
","x: 303.9378662109375
y: 317.80877685546875
z: -0.182514950633049
visibility: 0.948820173740387
","x: 267.2714538574219
y: 349.7995300292969
z: 0.11225197464227676
visibility: 0.5361590385437012
","x: 287.8657531738281
y: 323.97735595703125
z: -0.26167112588882446
visibility: 0.9229258894920349
","x: 262.66656494140625
y: 349.4295959472656
z: 0.03204026073217392
visibility: 0.6223570704460144
","x: 285.7188415527344
y: 331.6054992675781
z: -0.28984740376472473
visibility: 0.8824291825294495
","x: 260.55535888671875
y: 352.4761962890625
z: 0.02109593152999878
visibility: 0.6070088744163513
","x: 282.08270263671875
y: 326.2191162109375
z: -0.2786368727684021
visibility: 0.8810615539550781
","x: 261.31536865234375
y: 349.9322204589844
z: 0.00866780150681734
visibility: 0.6124494671821594
","x: 283.7431335449219
y: 326.3677673339844
z: -0.25855836272239685
visibility: 0.8390335440635681
","x: 262.4137878417969
y: 349.1676025390625
z: 0.024282071739435196
visibility: 0.600253701210022
","x: 284.13629150390625
y: 388.83538818359375
z: -0.06061025336384773
visibility: 0.9995176196098328
","x: 279.7929992675781
y: 391.06988525390625
z: 0.060716431587934494
visibility: 0.9995536208152771
","x: 274.4454345703125
y: 441.6839294433594
z: -0.0904787927865982
visibility: 0.9779497385025024
","x: 284.36663818359375
y: 444.7482604980469
z: 0.05602167174220085
visibility: 0.827228307723999
","x: 263.4021911621094
y: 499.018310546875
z: -0.08502394706010818
visibility: 0.9821451902389526
","x: 293.6217041015625
y: 497.0880126953125
z: 0.10379447042942047
visibility: 0.9424600005149841
","x: 264.2125244140625
y: 508.1358642578125
z: -0.08535388857126236
visibility: 0.9150075316429138
","x: 296.9283752441406
y: 504.2679138183594
z: 0.10448769479990005
visibility: 0.8816673159599304
","x: 252.53488159179688
y: 503.0068664550781
z: -0.15862677991390228
visibility: 0.980512797832489
","x: 283.03900146484375
y: 506.5750732421875
z: 0.0544322207570076
visibility: 0.9404251575469971
",,,,,,,,,,,,,,,,,,,,,,,,,,,,,,,,,,,,,,,,,,
19,"x: 273.95880126953125
y: 287.7568664550781
z: -0.03579504042863846
visibility: 0.9962382912635803
","x: 275.45684814453125
y: 283.16796875
z: -0.03037714958190918
visibility: 0.9965000748634338
","x: 276.55023193359375
y: 282.9057922363281
z: -0.030445609241724014
visibility: 0.9963224530220032
","x: 277.7266540527344
y: 282.645751953125
z: -0.030494797974824905
visibility: 0.9966074824333191
","x: 273.19281005859375
y: 283.99188232421875
z: -0.01798202097415924
visibility: 0.9939566850662231
","x: 272.5702209472656
y: 284.318603515625
z: -0.01795278862118721
visibility: 0.9924575686454773
","x: 271.9237976074219
y: 284.65899658203125
z: -0.017914433032274246
visibility: 0.9936569929122925
","x: 280.8958435058594
y: 285.1658935546875
z: 0.009908928535878658
visibility: 0.995234489440918
","x: 272.4457702636719
y: 286.9290771484375
z: 0.060584843158721924
visibility: 0.9817407131195068
","x: 276.20526123046875
y: 292.5463562011719
z: -0.021052423864603043
visibility: 0.9942352771759033
","x: 273.2669982910156
y: 293.5863037109375
z: -0.0038905288092792034
visibility: 0.9908538460731506
","x: 287.2331848144531
y: 305.6341552734375
z: -0.03250657394528389
visibility: 0.9991607069969177
","x: 270.4143371582031
y: 315.4001770019531
z: 0.1322997510433197
visibility: 0.9976446032524109
","x: 299.41973876953125
y: 312.6718444824219
z: -0.15017688274383545
visibility: 0.9529999494552612
","x: 266.5538635253906
y: 347.0419006347656
z: 0.11438033729791641
visibility: 0.5250663757324219
","x: 283.9586486816406
y: 317.9676513671875
z: -0.22705981135368347
visibility: 0.9241589307785034
","x: 263.3894958496094
y: 347.88739013671875
z: 0.000648809946142137
visibility: 0.6281700134277344
","x: 281.9738464355469
y: 324.31927490234375
z: -0.2558240592479706
visibility: 0.8833702206611633
","x: 261.75469970703125
y: 351.42596435546875
z: -0.016652699559926987
visibility: 0.6125421524047852
","x: 280.0595703125
y: 322.7183532714844
z: -0.2518025040626526
visibility: 0.8815016746520996
","x: 263.0418395996094
y: 347.944091796875
z: -0.024561233818531036
visibility: 0.6191465854644775
","x: 281.4704284667969
y: 322.31231689453125
z: -0.22746503353118896
visibility: 0.8395923972129822
","x: 263.80389404296875
y: 347.0181579589844
z: -0.00629095733165741
visibility: 0.6065378785133362
","x: 281.8399658203125
y: 387.25146484375
z: -0.06050310283899307
visibility: 0.9995513558387756
","x: 277.48883056640625
y: 388.31134033203125
z: 0.060527972877025604
visibility: 0.9995580315589905
","x: 271.42047119140625
y: 441.54656982421875
z: -0.09614021331071854
visibility: 0.9746270775794983
","x: 282.6260070800781
y: 443.5323791503906
z: 0.0384751632809639
visibility: 0.8104891180992126
","x: 263.14459228515625
y: 498.9844055175781
z: -0.09432446211576462
visibility: 0.9827091097831726
","x: 293.1172180175781
y: 497.2817687988281
z: 0.03895258903503418
visibility: 0.9421215057373047
","x: 265.2655029296875
y: 507.6565856933594
z: -0.09641201794147491
visibility: 0.9204672574996948
","x: 296.1326904296875
y: 504.5093078613281
z: 0.03660550341010094
visibility: 0.8870270252227783
","x: 253.03469848632812
y: 504.3819580078125
z: -0.15708521008491516
visibility: 0.9810859560966492
","x: 283.2431945800781
y: 506.66741943359375
z: -0.011061431840062141
visibility: 0.9402857422828674
",,,,,,,,,,,,,,,,,,,,,,,,,,,,,,,,,,,,,,,,,,
20,"x: 271.9014892578125
y: 287.18267822265625
z: -0.12739861011505127
visibility: 0.9966034293174744
","x: 274.2303771972656
y: 283.1405944824219
z: -0.12301764637231827
visibility: 0.9968364834785461
","x: 275.4441223144531
y: 283.1600341796875
z: -0.12311341613531113
visibility: 0.9966767430305481
","x: 276.7519226074219
y: 283.12939453125
z: -0.12319328635931015
visibility: 0.9969348311424255
","x: 271.6985778808594
y: 283.13970947265625
z: -0.10899968445301056
visibility: 0.9945473074913025
","x: 271.01708984375
y: 283.2238464355469
z: -0.1089727059006691
visibility: 0.9931906461715698
","x: 270.322509765625
y: 283.2803955078125
z: -0.10894697904586792
visibility: 0.9942675232887268
","x: 279.9034729003906
y: 285.41693115234375
z: -0.07525062561035156
visibility: 0.9956976771354675
","x: 270.7854919433594
y: 285.82586669921875
z: -0.013943573459982872
visibility: 0.983481764793396
","x: 273.6529541015625
y: 292.7496643066406
z: -0.10862183570861816
visibility: 0.9947811961174011
","x: 270.6162109375
y: 292.9390869140625
z: -0.09104536473751068
visibility: 0.991716742515564
","x: 282.1763916015625
y: 307.2628173828125
z: -0.103690005838871
visibility: 0.9991961121559143
","x: 269.38885498046875
y: 315.3427429199219
z: 0.09585420787334442
visibility: 0.997566819190979
","x: 280.70916748046875
y: 342.1746826171875
z: -0.17072845995426178
visibility: 0.9529802203178406
","x: 266.0391845703125
y: 348.1437683105469
z: 0.0608777217566967
visibility: 0.47724491357803345
","x: 274.2450256347656
y: 338.1634521484375
z: -0.21828322112560272
visibility: 0.9153342843055725
","x: 262.15423583984375
y: 346.9773864746094
z: -0.08601684868335724
visibility: 0.5826898813247681
","x: 272.9335021972656
y: 337.5325927734375
z: -0.24327364563941956
visibility: 0.8765147924423218
","x: 260.27154541015625
y: 348.9498291015625
z: -0.10023133456707001
visibility: 0.575476884841919
","x: 273.04583740234375
y: 333.54998779296875
z: -0.24267196655273438
visibility: 0.8751623034477234
","x: 260.48553466796875
y: 344.0855712890625
z: -0.11602552980184555
visibility: 0.583138644695282
","x: 273.94671630859375
y: 334.854736328125
z: -0.21834293007850647
visibility: 0.8302232623100281
","x: 261.3582763671875
y: 344.376953125
z: -0.09771755337715149
visibility: 0.5710360407829285
","x: 280.37548828125
y: 387.7575988769531
z: -0.06392201781272888
visibility: 0.9994714856147766
","x: 276.5955810546875
y: 388.84710693359375
z: 0.06399812549352646
visibility: 0.9993389248847961
","x: 268.7077941894531
y: 441.9702453613281
z: -0.09025590121746063
visibility: 0.9734954833984375
","x: 282.10772705078125
y: 444.5056457519531
z: 0.06806190311908722
visibility: 0.7992416024208069
","x: 261.1666259765625
y: 499.2673034667969
z: -0.07958992570638657
visibility: 0.983360767364502
","x: 292.47216796875
y: 497.2186279296875
z: 0.09268967062234879
visibility: 0.9418229460716248
","x: 263.4751892089844
y: 508.3443603515625
z: -0.07972590625286102
visibility: 0.9267213940620422
","x: 296.6626281738281
y: 504.35546875
z: 0.08589252829551697
visibility: 0.8946005702018738
","x: 248.21267700195312
y: 504.510009765625
z: -0.1433001458644867
visibility: 0.9805222153663635
","x: 282.7451477050781
y: 506.80157470703125
z: 0.0575169138610363
visibility: 0.9372367858886719
",,,,,,,,,,,,,,,,,,,,,,,,,,,,,,,,,,,,,,,,,,
21,"x: 269.4228210449219
y: 287.336181640625
z: -0.14448630809783936
visibility: 0.9969062805175781
","x: 272.165283203125
y: 284.0191955566406
z: -0.13659366965293884
visibility: 0.9971180558204651
","x: 273.2523193359375
y: 284.60186767578125
z: -0.1366712898015976
visibility: 0.996988832950592
","x: 274.4422607421875
y: 285.2474365234375
z: -0.1367299109697342
visibility: 0.9972094297409058
","x: 269.88189697265625
y: 283.1881103515625
z: -0.12546145915985107
visibility: 0.9950194358825684
","x: 269.2061767578125
y: 283.2632751464844
z: -0.12542670965194702
visibility: 0.9937866926193237
","x: 268.5277404785156
y: 283.329833984375
z: -0.1253657341003418
visibility: 0.9947465658187866
","x: 276.78668212890625
y: 290.01416015625
z: -0.08121298253536224
visibility: 0.9960904717445374
","x: 268.26666259765625
y: 286.1765441894531
z: -0.03249567002058029
visibility: 0.9849852323532104
","x: 270.3619689941406
y: 294.2937316894531
z: -0.12416960299015045
visibility: 0.9951860308647156
","x: 267.2029724121094
y: 292.99951171875
z: -0.11008510738611221
visibility: 0.9922886490821838
","x: 276.36846923828125
y: 313.5711975097656
z: -0.11323551833629608
visibility: 0.9992614388465881
","x: 266.68109130859375
y: 314.65289306640625
z: 0.0857885479927063
visibility: 0.9948921203613281
","x: 281.14031982421875
y: 336.7068176269531
z: -0.2512877583503723
visibility: 0.9556817412376404
","x: 266.44451904296875
y: 319.9091491699219
z: 0.20393280684947968
visibility: 0.4313984811306
","x: 285.1280517578125
y: 337.48565673828125
z: -0.4012303948402405
visibility: 0.9209273457527161
","x: 269.1003112792969
y: 304.479248046875
z: 0.30877482891082764
visibility: 0.5450970530509949
","x: 290.26214599609375
y: 336.9647521972656
z: -0.4322030544281006
visibility: 0.8835264444351196
","x: 270.03594970703125
y: 302.40032958984375
z: 0.3313400149345398
visibility: 0.5448412299156189
","x: 289.2392272949219
y: 334.89910888671875
z: -0.4370579123497009
visibility: 0.8826940059661865
","x: 269.6514587402344
y: 301.0870361328125
z: 0.32547810673713684
visibility: 0.5533294081687927
","x: 287.1566162109375
y: 335.60693359375
z: -0.4068114757537842
visibility: 0.8396745920181274
","x: 268.38934326171875
y: 302.2646789550781
z: 0.30964604020118713
visibility: 0.5427489280700684
","x: 277.6998596191406
y: 390.5343322753906
z: -0.06445800513029099
visibility: 0.9994658827781677
","x: 275.1873474121094
y: 392.6363525390625
z: 0.06444485485553741
visibility: 0.9992856979370117
","x: 267.0908203125
y: 442.97802734375
z: -0.09525512158870697
visibility: 0.9638246297836304
","x: 281.725341796875
y: 446.3082580566406
z: 0.056567300111055374
visibility: 0.7635149955749512
","x: 260.1807861328125
y: 501.17230224609375
z: -0.09227968752384186
visibility: 0.9823834896087646
","x: 292.76898193359375
y: 497.552978515625
z: 0.06097068637609482
visibility: 0.9341081976890564
","x: 261.3118591308594
y: 510.6567687988281
z: -0.0933338925242424
visibility: 0.9296072125434875
","x: 296.90423583984375
y: 505.16473388671875
z: 0.060114771127700806
visibility: 0.8941505551338196
","x: 250.52130126953125
y: 504.7326965332031
z: -0.14287298917770386
visibility: 0.9795515537261963
","x: 284.2962341308594
y: 507.2450256347656
z: 0.02301722578704357
visibility: 0.9329279661178589
",,,,,,,,,,,,,,,,,,,,,,"x: 286.7516784667969
y: 332.7444152832031
z: 0.0
","x: 289.65545654296875
y: 332.5960693359375
z: 0.0007717306143604219
","x: 292.80963134765625
y: 333.619140625
z: -0.000198292444110848
","x: 294.9085388183594
y: 335.6321716308594
z: -0.0016454014694318175
","x: 296.46368408203125
y: 337.4827880859375
z: -0.0029013019520789385
","x: 293.3577880859375
y: 330.67205810546875
z: -0.002180924639105797
","x: 296.2629699707031
y: 331.31298828125
z: -0.004568119533360004
","x: 298.1597900390625
y: 333.1368408203125
z: -0.005755024496465921
","x: 299.44415283203125
y: 334.9197998046875
z: -0.006411283276975155
","x: 292.4627990722656
y: 331.73931884765625
z: -0.004122906364500523
","x: 295.6084289550781
y: 333.1335144042969
z: -0.00667516840621829
","x: 297.53045654296875
y: 335.34637451171875
z: -0.00724238995462656
","x: 298.8552551269531
y: 337.257080078125
z: -0.007528039161115885
","x: 291.2698669433594
y: 333.5135192871094
z: -0.0059964354149997234
","x: 293.4916687011719
y: 336.9979248046875
z: -0.008054611273109913
","x: 293.3996887207031
y: 338.352783203125
z: -0.007174658123403788
","x: 293.0621032714844
y: 338.8628845214844
z: -0.00634771678596735
","x: 289.90240478515625
y: 335.99920654296875
z: -0.007942375726997852
","x: 291.44903564453125
y: 339.1414794921875
z: -0.009466789662837982
","x: 291.4286193847656
y: 340.052978515625
z: -0.008885713294148445
","x: 291.154541015625
y: 340.26251220703125
z: -0.008190755732357502
"
22,"x: 269.4228210449219
y: 287.336181640625
z: -0.14448630809783936
visibility: 0.9969062805175781
","x: 272.165283203125
y: 284.0191955566406
z: -0.13659366965293884
visibility: 0.9971180558204651
","x: 273.2523193359375
y: 284.60186767578125
z: -0.1366712898015976
visibility: 0.996988832950592
","x: 274.4422607421875
y: 285.2474365234375
z: -0.1367299109697342
visibility: 0.9972094297409058
","x: 269.88189697265625
y: 283.1881103515625
z: -0.12546145915985107
visibility: 0.9950194358825684
","x: 269.2061767578125
y: 283.2632751464844
z: -0.12542670965194702
visibility: 0.9937866926193237
","x: 268.5277404785156
y: 283.329833984375
z: -0.1253657341003418
visibility: 0.9947465658187866
","x: 276.78668212890625
y: 290.01416015625
z: -0.08121298253536224
visibility: 0.9960904717445374
","x: 268.26666259765625
y: 286.1765441894531
z: -0.03249567002058029
visibility: 0.9849852323532104
","x: 270.3619689941406
y: 294.2937316894531
z: -0.12416960299015045
visibility: 0.9951860308647156
","x: 267.2029724121094
y: 292.99951171875
z: -0.11008510738611221
visibility: 0.9922886490821838
","x: 276.36846923828125
y: 313.5711975097656
z: -0.11323551833629608
visibility: 0.9992614388465881
","x: 266.68109130859375
y: 314.65289306640625
z: 0.0857885479927063
visibility: 0.9948921203613281
","x: 281.14031982421875
y: 336.7068176269531
z: -0.2512877583503723
visibility: 0.9556817412376404
","x: 266.44451904296875
y: 319.9091491699219
z: 0.20393280684947968
visibility: 0.4313984811306
","x: 285.1280517578125
y: 337.48565673828125
z: -0.4012303948402405
visibility: 0.9209273457527161
","x: 269.1003112792969
y: 304.479248046875
z: 0.30877482891082764
visibility: 0.5450970530509949
","x: 290.26214599609375
y: 336.9647521972656
z: -0.4322030544281006
visibility: 0.8835264444351196
","x: 270.03594970703125
y: 302.40032958984375
z: 0.3313400149345398
visibility: 0.5448412299156189
","x: 289.2392272949219
y: 334.89910888671875
z: -0.4370579123497009
visibility: 0.8826940059661865
","x: 269.6514587402344
y: 301.0870361328125
z: 0.32547810673713684
visibility: 0.5533294081687927
","x: 287.1566162109375
y: 335.60693359375
z: -0.4068114757537842
visibility: 0.8396745920181274
","x: 268.38934326171875
y: 302.2646789550781
z: 0.30964604020118713
visibility: 0.5427489280700684
","x: 277.6998596191406
y: 390.5343322753906
z: -0.06445800513029099
visibility: 0.9994658827781677
","x: 275.1873474121094
y: 392.6363525390625
z: 0.06444485485553741
visibility: 0.9992856979370117
","x: 267.0908203125
y: 442.97802734375
z: -0.09525512158870697
visibility: 0.9638246297836304
","x: 281.725341796875
y: 446.3082580566406
z: 0.056567300111055374
visibility: 0.7635149955749512
","x: 260.1807861328125
y: 501.17230224609375
z: -0.09227968752384186
visibility: 0.9823834896087646
","x: 292.76898193359375
y: 497.552978515625
z: 0.06097068637609482
visibility: 0.9341081976890564
","x: 261.3118591308594
y: 510.6567687988281
z: -0.0933338925242424
visibility: 0.9296072125434875
","x: 296.90423583984375
y: 505.16473388671875
z: 0.060114771127700806
visibility: 0.8941505551338196
","x: 250.52130126953125
y: 504.7326965332031
z: -0.14287298917770386
visibility: 0.9795515537261963
","x: 284.2962341308594
y: 507.2450256347656
z: 0.02301722578704357
visibility: 0.9329279661178589
",,,,,,,,,,,,,,,,,,,,,,"x: 286.7516784667969
y: 332.7444152832031
z: 0.0
","x: 289.65545654296875
y: 332.5960693359375
z: 0.0007717306143604219
","x: 292.80963134765625
y: 333.619140625
z: -0.000198292444110848
","x: 294.9085388183594
y: 335.6321716308594
z: -0.0016454014694318175
","x: 296.46368408203125
y: 337.4827880859375
z: -0.0029013019520789385
","x: 293.3577880859375
y: 330.67205810546875
z: -0.002180924639105797
","x: 296.2629699707031
y: 331.31298828125
z: -0.004568119533360004
","x: 298.1597900390625
y: 333.1368408203125
z: -0.005755024496465921
","x: 299.44415283203125
y: 334.9197998046875
z: -0.006411283276975155
","x: 292.4627990722656
y: 331.73931884765625
z: -0.004122906364500523
","x: 295.6084289550781
y: 333.1335144042969
z: -0.00667516840621829
","x: 297.53045654296875
y: 335.34637451171875
z: -0.00724238995462656
","x: 298.8552551269531
y: 337.257080078125
z: -0.007528039161115885
","x: 291.2698669433594
y: 333.5135192871094
z: -0.0059964354149997234
","x: 293.4916687011719
y: 336.9979248046875
z: -0.008054611273109913
","x: 293.3996887207031
y: 338.352783203125
z: -0.007174658123403788
","x: 293.0621032714844
y: 338.8628845214844
z: -0.00634771678596735
","x: 289.90240478515625
y: 335.99920654296875
z: -0.007942375726997852
","x: 291.44903564453125
y: 339.1414794921875
z: -0.009466789662837982
","x: 291.4286193847656
y: 340.052978515625
z: -0.008885713294148445
","x: 291.154541015625
y: 340.26251220703125
z: -0.008190755732357502
"
23,"x: 265.0929870605469
y: 289.21795654296875
z: -0.08830856531858444
visibility: 0.9972147345542908
","x: 267.18402099609375
y: 286.9274597167969
z: -0.07940728217363358
visibility: 0.9974043965339661
","x: 268.09368896484375
y: 287.5215759277344
z: -0.0794730857014656
visibility: 0.9972883462905884
","x: 269.1365661621094
y: 288.1553955078125
z: -0.07953335344791412
visibility: 0.9974870085716248
","x: 265.1320495605469
y: 285.92047119140625
z: -0.06871860474348068
visibility: 0.9955148696899414
","x: 264.5345458984375
y: 285.86248779296875
z: -0.06868711113929749
visibility: 0.9944044351577759
","x: 263.90771484375
y: 285.80010986328125
z: -0.06864124536514282
visibility: 0.9952684640884399
","x: 271.6551513671875
y: 292.4817199707031
z: -0.03071729466319084
visibility: 0.9964796900749207
","x: 263.969482421875
y: 288.92742919921875
z: 0.016033891588449478
visibility: 0.9864802360534668
","x: 266.2626037597656
y: 295.54400634765625
z: -0.07157250493764877
visibility: 0.9956657290458679
","x: 263.32122802734375
y: 294.2552795410156
z: -0.057659558951854706
visibility: 0.9930559992790222
","x: 275.31854248046875
y: 317.927734375
z: -0.0502740852534771
visibility: 0.999334990978241
","x: 258.0018310546875
y: 316.9979248046875
z: 0.10397523641586304
visibility: 0.9953489303588867
","x: 286.3222961425781
y: 339.5543212890625
z: -0.0988086611032486
visibility: 0.9596976637840271
","x: 255.27285766601562
y: 339.9132080078125
z: 0.16573894023895264
visibility: 0.4208071529865265
","x: 304.3222961425781
y: 345.0274658203125
z: -0.18979237973690033
visibility: 0.9280385971069336
","x: 251.06117248535156
y: 360.744140625
z: 0.15905997157096863
visibility: 0.5669810771942139
","x: 308.3323974609375
y: 347.0284729003906
z: -0.21049456298351288
visibility: 0.8935214281082153
","x: 248.76943969726562
y: 367.49676513671875
z: 0.1610616147518158
visibility: 0.5637233257293701
","x: 308.1937255859375
y: 346.2532043457031
z: -0.2274812012910843
visibility: 0.8930467367172241
","x: 248.2498779296875
y: 364.9373779296875
z: 0.14617697894573212
visibility: 0.5738092064857483
","x: 306.2847595214844
y: 346.2030334472656
z: -0.19898787140846252
visibility: 0.853895366191864
","x: 249.07843017578125
y: 364.575439453125
z: 0.1521882712841034
visibility: 0.5637816190719604
","x: 272.5667724609375
y: 392.6593322753906
z: -0.06023218110203743
visibility: 0.999514102935791
","x: 264.52679443359375
y: 394.41339111328125
z: 0.060262806713581085
visibility: 0.9993314146995544
","x: 264.2555847167969
y: 444.23175048828125
z: -0.1276976317167282
visibility: 0.963249146938324
","x: 267.1066589355469
y: 447.8583984375
z: 0.045301515609025955
visibility: 0.7655165791511536
","x: 262.14251708984375
y: 501.19622802734375
z: -0.09961031377315521
visibility: 0.9835607409477234
","x: 290.88482666015625
y: 488.86187744140625
z: 0.1268608421087265
visibility: 0.9337555170059204
","x: 262.98907470703125
y: 509.964599609375
z: -0.09932516515254974
visibility: 0.9340575933456421
","x: 294.8739318847656
y: 489.0235900878906
z: 0.13317176699638367
visibility: 0.8992433547973633
","x: 250.7259521484375
y: 510.10357666015625
z: -0.1656736582517624
visibility: 0.9806526303291321
","x: 285.02545166015625
y: 505.99298095703125
z: 0.09861648827791214
visibility: 0.9345180988311768
",,,,,,,,,,,,,,,,,,,,,,"x: 301.7775573730469
y: 348.8692626953125
z: 0.0
","x: 304.54119873046875
y: 354.5216369628906
z: -0.00046984461368992925
","x: 307.1775817871094
y: 357.7489929199219
z: -0.0007082759984768927
","x: 309.3374938964844
y: 357.265625
z: -0.0015713436296209693
","x: 310.0987548828125
y: 354.7885437011719
z: -0.0020012925378978252
","x: 309.8647155761719
y: 355.67095947265625
z: 0.0021124561317265034
","x: 312.8922119140625
y: 355.8341979980469
z: 0.0003746490692719817
","x: 312.0359802246094
y: 355.38433837890625
z: -0.0002678645250853151
","x: 310.7509765625
y: 355.01080322265625
z: -0.00024932518135756254
","x: 310.2011413574219
y: 351.88568115234375
z: 0.0011669427622109652
","x: 313.1911926269531
y: 352.3255615234375
z: -0.0005122851580381393
","x: 311.8935546875
y: 351.955322265625
z: -0.0008971526403911412
","x: 310.33807373046875
y: 351.5404052734375
z: -0.0005588632775470614
","x: 309.9178161621094
y: 348.05108642578125
z: -0.0003204389940947294
","x: 312.69189453125
y: 348.07672119140625
z: -0.0019027949310839176
","x: 311.4727478027344
y: 348.0168151855469
z: -0.0016232819762080908
","x: 309.9394836425781
y: 348.0101013183594
z: -0.0008671509567648172
","x: 309.30035400390625
y: 344.0429992675781
z: -0.002106631640344858
","x: 311.4819030761719
y: 343.904296875
z: -0.002948407782241702
","x: 310.9253234863281
y: 344.0450744628906
z: -0.0026002218946814537
","x: 309.8754577636719
y: 344.10125732421875
z: -0.0018896607216447592
"
24,"x: 265.0929870605469
y: 289.21795654296875
z: -0.08830856531858444
visibility: 0.9972147345542908
","x: 267.18402099609375
y: 286.9274597167969
z: -0.07940728217363358
visibility: 0.9974043965339661
","x: 268.09368896484375
y: 287.5215759277344
z: -0.0794730857014656
visibility: 0.9972883462905884
","x: 269.1365661621094
y: 288.1553955078125
z: -0.07953335344791412
visibility: 0.9974870085716248
","x: 265.1320495605469
y: 285.92047119140625
z: -0.06871860474348068
visibility: 0.9955148696899414
","x: 264.5345458984375
y: 285.86248779296875
z: -0.06868711113929749
visibility: 0.9944044351577759
","x: 263.90771484375
y: 285.80010986328125
z: -0.06864124536514282
visibility: 0.9952684640884399
","x: 271.6551513671875
y: 292.4817199707031
z: -0.03071729466319084
visibility: 0.9964796900749207
","x: 263.969482421875
y: 288.92742919921875
z: 0.016033891588449478
visibility: 0.9864802360534668
","x: 266.2626037597656
y: 295.54400634765625
z: -0.07157250493764877
visibility: 0.9956657290458679
","x: 263.32122802734375
y: 294.2552795410156
z: -0.057659558951854706
visibility: 0.9930559992790222
","x: 275.31854248046875
y: 317.927734375
z: -0.0502740852534771
visibility: 0.999334990978241
","x: 258.0018310546875
y: 316.9979248046875
z: 0.10397523641586304
visibility: 0.9953489303588867
","x: 286.3222961425781
y: 339.5543212890625
z: -0.0988086611032486
visibility: 0.9596976637840271
","x: 255.27285766601562
y: 339.9132080078125
z: 0.16573894023895264
visibility: 0.4208071529865265
","x: 304.3222961425781
y: 345.0274658203125
z: -0.18979237973690033
visibility: 0.9280385971069336
","x: 251.06117248535156
y: 360.744140625
z: 0.15905997157096863
visibility: 0.5669810771942139
","x: 308.3323974609375
y: 347.0284729003906
z: -0.21049456298351288
visibility: 0.8935214281082153
","x: 248.76943969726562
y: 367.49676513671875
z: 0.1610616147518158
visibility: 0.5637233257293701
","x: 308.1937255859375
y: 346.2532043457031
z: -0.2274812012910843
visibility: 0.8930467367172241
","x: 248.2498779296875
y: 364.9373779296875
z: 0.14617697894573212
visibility: 0.5738092064857483
","x: 306.2847595214844
y: 346.2030334472656
z: -0.19898787140846252
visibility: 0.853895366191864
","x: 249.07843017578125
y: 364.575439453125
z: 0.1521882712841034
visibility: 0.5637816190719604
","x: 272.5667724609375
y: 392.6593322753906
z: -0.06023218110203743
visibility: 0.999514102935791
","x: 264.52679443359375
y: 394.41339111328125
z: 0.060262806713581085
visibility: 0.9993314146995544
","x: 264.2555847167969
y: 444.23175048828125
z: -0.1276976317167282
visibility: 0.963249146938324
","x: 267.1066589355469
y: 447.8583984375
z: 0.045301515609025955
visibility: 0.7655165791511536
","x: 262.14251708984375
y: 501.19622802734375
z: -0.09961031377315521
visibility: 0.9835607409477234
","x: 290.88482666015625
y: 488.86187744140625
z: 0.1268608421087265
visibility: 0.9337555170059204
","x: 262.98907470703125
y: 509.964599609375
z: -0.09932516515254974
visibility: 0.9340575933456421
","x: 294.8739318847656
y: 489.0235900878906
z: 0.13317176699638367
visibility: 0.8992433547973633
","x: 250.7259521484375
y: 510.10357666015625
z: -0.1656736582517624
visibility: 0.9806526303291321
","x: 285.02545166015625
y: 505.99298095703125
z: 0.09861648827791214
visibility: 0.9345180988311768
",,,,,,,,,,,,,,,,,,,,,,"x: 301.7775573730469
y: 348.8692626953125
z: 0.0
","x: 304.54119873046875
y: 354.5216369628906
z: -0.00046984461368992925
","x: 307.1775817871094
y: 357.7489929199219
z: -0.0007082759984768927
","x: 309.3374938964844
y: 357.265625
z: -0.0015713436296209693
","x: 310.0987548828125
y: 354.7885437011719
z: -0.0020012925378978252
","x: 309.8647155761719
y: 355.67095947265625
z: 0.0021124561317265034
","x: 312.8922119140625
y: 355.8341979980469
z: 0.0003746490692719817
","x: 312.0359802246094
y: 355.38433837890625
z: -0.0002678645250853151
","x: 310.7509765625
y: 355.01080322265625
z: -0.00024932518135756254
","x: 310.2011413574219
y: 351.88568115234375
z: 0.0011669427622109652
","x: 313.1911926269531
y: 352.3255615234375
z: -0.0005122851580381393
","x: 311.8935546875
y: 351.955322265625
z: -0.0008971526403911412
","x: 310.33807373046875
y: 351.5404052734375
z: -0.0005588632775470614
","x: 309.9178161621094
y: 348.05108642578125
z: -0.0003204389940947294
","x: 312.69189453125
y: 348.07672119140625
z: -0.0019027949310839176
","x: 311.4727478027344
y: 348.0168151855469
z: -0.0016232819762080908
","x: 309.9394836425781
y: 348.0101013183594
z: -0.0008671509567648172
","x: 309.30035400390625
y: 344.0429992675781
z: -0.002106631640344858
","x: 311.4819030761719
y: 343.904296875
z: -0.002948407782241702
","x: 310.9253234863281
y: 344.0450744628906
z: -0.0026002218946814537
","x: 309.8754577636719
y: 344.10125732421875
z: -0.0018896607216447592
"
25,"x: 259.7542724609375
y: 289.7246398925781
z: -0.13320213556289673
visibility: 0.9974908232688904
","x: 261.5549621582031
y: 286.8172607421875
z: -0.12028046697378159
visibility: 0.9976599812507629
","x: 262.490234375
y: 287.45928955078125
z: -0.12030482292175293
visibility: 0.9975557327270508
","x: 263.4725341796875
y: 288.0247802734375
z: -0.1203354224562645
visibility: 0.9977337718009949
","x: 259.1277160644531
y: 285.8825378417969
z: -0.11536549031734467
visibility: 0.995957612991333
","x: 258.3530578613281
y: 285.817626953125
z: -0.11537443101406097
visibility: 0.994957685470581
","x: 257.5434875488281
y: 285.7498779296875
z: -0.11538553237915039
visibility: 0.9957349896430969
","x: 266.626220703125
y: 291.8063049316406
z: -0.04262886196374893
visibility: 0.9968269467353821
","x: 258.0306396484375
y: 288.87933349609375
z: -0.022166989743709564
visibility: 0.9878205060958862
","x: 261.7176208496094
y: 295.5798034667969
z: -0.10524003207683563
visibility: 0.9960979223251343
","x: 258.5361633300781
y: 294.6854248046875
z: -0.09905395656824112
visibility: 0.993746817111969
","x: 275.38153076171875
y: 319.81243896484375
z: -0.01354547031223774
visibility: 0.9994006156921387
","x: 249.27532958984375
y: 314.88629150390625
z: 0.02170325629413128
visibility: 0.9957858920097351
","x: 286.46112060546875
y: 349.27142333984375
z: -0.030168509110808372
visibility: 0.9621784687042236
","x: 240.0249481201172
y: 340.302001953125
z: -0.06837235391139984
visibility: 0.47659754753112793
","x: 299.5279846191406
y: 360.1000671386719
z: -0.12766039371490479
visibility: 0.9327068328857422
","x: 247.7939453125
y: 357.35089111328125
z: -0.24539177119731903
visibility: 0.6086586117744446
","x: 303.7734069824219
y: 366.80914306640625
z: -0.147982656955719
visibility: 0.8996037244796753
","x: 250.4902801513672
y: 366.4643859863281
z: -0.2770337462425232
visibility: 0.6038786172866821
","x: 303.42498779296875
y: 364.5077819824219
z: -0.1676865518093109
visibility: 0.8998108506202698
","x: 252.26748657226562
y: 362.02520751953125
z: -0.2751217484474182
visibility: 0.6129040122032166
","x: 301.66094970703125
y: 362.3183898925781
z: -0.13746334612369537
visibility: 0.8631378412246704
","x: 251.93495178222656
y: 362.33941650390625
z: -0.2484665811061859
visibility: 0.6020805835723877
","x: 266.4541931152344
y: 392.6492614746094
z: -0.030228788033127785
visibility: 0.9995622038841248
","x: 251.65635681152344
y: 392.4483642578125
z: 0.03027656301856041
visibility: 0.9993909597396851
","x: 255.00640869140625
y: 438.5782470703125
z: -0.22686216235160828
visibility: 0.9664589166641235
","x: 243.1762237548828
y: 438.7242126464844
z: 0.05811365693807602
visibility: 0.7807385921478271
","x: 259.3916015625
y: 496.4360046386719
z: -0.18624873459339142
visibility: 0.9845762252807617
","x: 254.75918579101562
y: 468.4384460449219
z: 0.286820650100708
visibility: 0.8999198079109192
","x: 263.3301696777344
y: 505.3428955078125
z: -0.18584024906158447
visibility: 0.9274654984474182
","x: 257.7361145019531
y: 469.9142150878906
z: 0.3078475892543793
visibility: 0.8672983050346375
","x: 249.4095001220703
y: 510.6191711425781
z: -0.28626927733421326
visibility: 0.9815811514854431
","x: 250.6259307861328
y: 484.5460205078125
z: 0.2671903967857361
visibility: 0.916740894317627
",,,,,,,,,,,,,,,,,,,,,,,,,,,,,,,,,,,,,,,,,,
26,"x: 260.8807067871094
y: 291.69342041015625
z: -0.23113159835338593
visibility: 0.9977412223815918
","x: 262.6631774902344
y: 287.618896484375
z: -0.21632428467273712
visibility: 0.9978924989700317
","x: 263.9017333984375
y: 288.00213623046875
z: -0.21632421016693115
visibility: 0.997798502445221
","x: 265.12384033203125
y: 288.3638916015625
z: -0.21633382141590118
visibility: 0.9979585409164429
","x: 259.5693054199219
y: 286.9165344238281
z: -0.21751384437084198
visibility: 0.996360182762146
","x: 258.62066650390625
y: 286.7627258300781
z: -0.21757254004478455
visibility: 0.9954602122306824
","x: 257.6498107910156
y: 286.6369934082031
z: -0.21760055422782898
visibility: 0.9961594939231873
","x: 267.3812255859375
y: 291.53955078125
z: -0.11621006578207016
visibility: 0.9971413016319275
","x: 256.7862548828125
y: 288.87078857421875
z: -0.12476184219121933
visibility: 0.9890334606170654
