uscmakers/ReverseChoreography/data/7_get_up_ciara.csv
,NOSE,LEFT_EYE_INNER,LEFT_EYE,LEFT_EYE_OUTER,RIGHT_EYE_INNER,RIGHT_EYE,RIGHT_EYE_OUTER,LEFT_EAR,RIGHT_EAR,MOUTH_LEFT,MOUTH_RIGHT,LEFT_SHOULDER,RIGHT_SHOULDER,LEFT_ELBOW,RIGHT_ELBOW,LEFT_WRIST,RIGHT_WRIST,LEFT_PINKY,RIGHT_PINKY,LEFT_INDEX,RIGHT_INDEX,LEFT_THUMB,RIGHT_THUMB,LEFT_HIP,RIGHT_HIP,LEFT_KNEE,RIGHT_KNEE,LEFT_ANKLE,RIGHT_ANKLE,LEFT_HEEL,RIGHT_HEEL,LEFT_FOOT_INDEX,RIGHT_FOOT_INDEX,WRIST2,THUMB_CPC2,THUMB_MCP2,THUMB_IP2,THUMB_TIP2,INDEX_FINGER_MCP2,INDEX_FINGER_PIP2,INDEX_FINGER_DIP2,INDEX_FINGER_TIP2,MIDDLE_FINGER_MCP2,MIDDLE_FINGER_PIP2,MIDDLE_FINGER_DIP2,MIDDLE_FINGER_TIP2,RING_FINGER_PIP2,RING_FINGER_DIP2,RING_FINGER_TIP2,RING_FINGER_MCP2,PINKY_MCP2,PINKY_PIP2,PINKY_DIP2,PINKY_TIP2,WRIST,THUMB_CPC,THUMB_MCP,THUMB_IP,THUMB_TIP,INDEX_FINGER_MCP,INDEX_FINGER_PIP,INDEX_FINGER_DIP,INDEX_FINGER_TIP,MIDDLE_FINGER_MCP,MIDDLE_FINGER_PIP,MIDDLE_FINGER_DIP,MIDDLE_FINGER_TIP,RING_FINGER_PIP,RING_FINGER_DIP,RING_FINGER_TIP,RING_FINGER_MCP,PINKY_MCP,PINKY_PIP,PINKY_DIP,PINKY_TIP
0,"x: 243.5323944091797
y: 288.8214111328125
z: -0.12426946312189102
visibility: 0.9999921321868896
","x: 245.2105255126953
y: 283.4473876953125
z: -0.11616621166467667
visibility: 0.9999829530715942
","x: 246.16058349609375
y: 283.17767333984375
z: -0.11616270244121552
visibility: 0.9999825954437256
","x: 247.25830078125
y: 282.9180603027344
z: -0.11612579971551895
visibility: 0.9999810457229614
","x: 243.30050659179688
y: 284.151123046875
z: -0.1054520383477211
visibility: 0.9999871253967285
","x: 242.7828826904297
y: 284.3570861816406
z: -0.10545538365840912
visibility: 0.999984622001648
","x: 242.25360107421875
y: 284.5682678222656
z: -0.10545878112316132
visibility: 0.9999837875366211
","x: 251.72750854492188
y: 285.9301452636719
z: -0.06281250715255737
visibility: 0.9999661445617676
","x: 243.6582794189453
y: 286.9027404785156
z: -0.012523433193564415
visibility: 0.9999730587005615
","x: 246.0115203857422
y: 293.8250427246094
z: -0.10469745099544525
visibility: 0.9999774694442749
","x: 243.32147216796875
y: 294.30499267578125
z: -0.09049752354621887
visibility: 0.9999749660491943
","x: 264.1360778808594
y: 314.45416259765625
z: -0.06422697007656097
visibility: 0.9999747276306152
","x: 236.77096557617188
y: 324.0435791015625
z: 0.0492996945977211
visibility: 0.9999380111694336
","x: 277.8727111816406
y: 322.7125549316406
z: -0.20072248578071594
visibility: 0.9991241097450256
","x: 228.0373077392578
y: 363.442626953125
z: 0.015492764301598072
visibility: 0.9268184900283813
","x: 269.0281066894531
y: 286.49224853515625
z: -0.3262188732624054
visibility: 0.9965510368347168
","x: 231.91287231445312
y: 386.18896484375
z: -0.11552853882312775
visibility: 0.9576933979988098
","x: 266.9870300292969
y: 278.89715576171875
z: -0.3619943857192993
visibility: 0.9885804057121277
","x: 232.83474731445312
y: 396.877197265625
z: -0.13448308408260345
visibility: 0.9209063649177551
","x: 265.0152282714844
y: 279.05499267578125
z: -0.34825143218040466
visibility: 0.9872044324874878
","x: 236.25454711914062
y: 391.113525390625
z: -0.14643742144107819
visibility: 0.9175044894218445
","x: 265.03033447265625
y: 282.60906982421875
z: -0.3237556219100952
visibility: 0.97691410779953
","x: 236.29595947265625
y: 387.75885009765625
z: -0.12271998077630997
visibility: 0.8973486423492432
","x: 258.4037170410156
y: 404.0296630859375
z: -0.0539047010242939
visibility: 0.999990701675415
","x: 242.5148162841797
y: 403.1935119628906
z: 0.05385754629969597
visibility: 0.9999725818634033
","x: 252.16741943359375
y: 458.7266540527344
z: -0.14338433742523193
visibility: 0.9991845488548279
","x: 230.86666870117188
y: 449.7427062988281
z: 0.09737337380647659
visibility: 0.9842340350151062
","x: 270.271240234375
y: 519.3450317382812
z: -0.14221052825450897
visibility: 0.9992678761482239
","x: 224.51971435546875
y: 507.8791809082031
z: 0.18186740577220917
visibility: 0.9927971959114075
","x: 276.3419189453125
y: 526.9466552734375
z: -0.1462482064962387
visibility: 0.9899340271949768
","x: 229.4546356201172
y: 520.6779174804688
z: 0.18510104715824127
visibility: 0.9678179025650024
","x: 263.7071533203125
y: 537.479248046875
z: -0.2434028685092926
visibility: 0.998970627784729
","x: 210.16598510742188
y: 524.435302734375
z: 0.12229764461517334
visibility: 0.9898029565811157
",,,,,,,,,,,,,,,,,,,,,,,,,,,,,,,,,,,,,,,,,,
1,"x: 267.6820373535156
y: 284.03302001953125
z: -0.39530235528945923
visibility: 0.9999849796295166
","x: 269.4830017089844
y: 280.50408935546875
z: -0.3826666474342346
visibility: 0.9999579787254333
","x: 270.8802185058594
y: 280.7816467285156
z: -0.3825705647468567
visibility: 0.999946653842926
","x: 272.2841796875
y: 281.09716796875
z: -0.38262811303138733
visibility: 0.9999251961708069
","x: 266.02587890625
y: 280.43804931640625
z: -0.3822154998779297
visibility: 0.999980092048645
","x: 264.9316101074219
y: 280.6347961425781
z: -0.38233083486557007
visibility: 0.999980628490448
","x: 263.7636413574219
y: 280.8896789550781
z: -0.38238805532455444
visibility: 0.9999818801879883
","x: 275.11761474609375
y: 285.61181640625
z: -0.287171334028244
visibility: 0.9998851418495178
","x: 262.48193359375
y: 285.58221435546875
z: -0.2850312888622284
visibility: 0.999972939491272
","x: 270.3890380859375
y: 290.791259765625
z: -0.3579555153846741
visibility: 0.9999516606330872
","x: 266.14483642578125
y: 291.2069091796875
z: -0.35746845602989197
visibility: 0.9999683499336243
","x: 286.12689208984375
y: 314.49853515625
z: -0.1663047969341278
visibility: 0.999699056148529
","x: 249.0030059814453
y: 319.0085754394531
z: -0.19836603105068207
visibility: 0.9999409317970276
","x: 301.2251281738281
y: 326.51513671875
z: -0.02510015293955803
visibility: 0.9877274632453918
","x: 229.0408172607422
y: 344.5337219238281
z: -0.1379653662443161
visibility: 0.9332862496376038
","x: 289.4178161621094
y: 319.40069580078125
z: 0.1276242733001709
visibility: 0.9203566908836365
","x: 235.523193359375
y: 376.0608215332031
z: -0.1185990422964096
visibility: 0.951048731803894
","x: 284.0318298339844
y: 329.39935302734375
z: 0.1535806804895401
visibility: 0.9010264873504639
","x: 237.9770965576172
y: 387.17425537109375
z: -0.1252131462097168
visibility: 0.8978862762451172
","x: 283.6681213378906
y: 330.4717712402344
z: 0.14867916703224182
visibility: 0.899956226348877
","x: 241.2091827392578
y: 385.2708435058594
z: -0.13683238625526428
visibility: 0.8947715163230896
","x: 285.5148010253906
y: 329.7098083496094
z: 0.1312069594860077
visibility: 0.890509307384491
","x: 241.00930786132812
y: 380.9205322265625
z: -0.12273190915584564
visibility: 0.8724846243858337
","x: 274.09521484375
y: 403.0628967285156
z: 0.0011051205219700933
visibility: 0.9999470114707947
","x: 254.11082458496094
y: 398.4719543457031
z: -0.001190751325339079
visibility: 0.9999653697013855
","x: 274.4245910644531
y: 463.0804443359375
z: -0.05154553800821304
visibility: 0.997749924659729
","x: 249.74359130859375
y: 449.55126953125
z: -0.16327299177646637
visibility: 0.9851935505867004
","x: 270.3935546875
y: 519.8535766601562
z: 0.11305369436740875
visibility: 0.9981653690338135
","x: 240.3659210205078
y: 511.1759948730469
z: -0.059513866901397705
visibility: 0.9931247234344482
","x: 268.3436584472656
y: 528.0504150390625
z: 0.12235014140605927
visibility: 0.9767454266548157
","x: 242.052978515625
y: 520.4395751953125
z: -0.05481244996190071
visibility: 0.9642924666404724
","x: 273.2947082519531
y: 540.8983154296875
z: 0.016361581161618233
visibility: 0.9967496991157532
","x: 232.5922393798828
y: 537.3871459960938
z: -0.1758260726928711
visibility: 0.9904123544692993
",,,,,,,,,,,,,,,,,,,,,,,,,,,,,,,,,,,,,,,,,,
2,"x: 267.1351623535156
y: 278.473388671875
z: -0.23505258560180664
visibility: 0.9999853372573853
","x: 268.1490478515625
y: 274.15301513671875
z: -0.2196464091539383
visibility: 0.999959409236908
","x: 268.9952392578125
y: 274.4110107421875
z: -0.21961739659309387
visibility: 0.9999484419822693
","x: 269.8751220703125
y: 274.7421569824219
z: -0.21960978209972382
visibility: 0.9999287128448486
","x: 265.16351318359375
y: 274.32867431640625
z: -0.22028498351573944
visibility: 0.9999799132347107
","x: 263.8290100097656
y: 274.6671142578125
z: -0.22032785415649414
visibility: 0.9999805688858032
","x: 262.3956298828125
y: 275.05389404296875
z: -0.2203637808561325
visibility: 0.9999813437461853
","x: 270.7720642089844
y: 280.1754150390625
z: -0.13496269285678864
visibility: 0.9998891949653625
","x: 259.20196533203125
y: 279.9927673339844
z: -0.1310444176197052
visibility: 0.9999720454216003
","x: 268.6243591308594
y: 285.62908935546875
z: -0.20223228633403778
visibility: 0.9999544620513916
","x: 264.8102722167969
y: 286.15252685546875
z: -0.2015385925769806
visibility: 0.9999700784683228
","x: 279.8335876464844
y: 313.2355041503906
z: -0.014187251217663288
visibility: 0.9997257590293884
","x: 247.66590881347656
y: 308.5375061035156
z: -0.1024845689535141
visibility: 0.9999403357505798
","x: 294.3060302734375
y: 341.788330078125
z: 0.01945260912179947
visibility: 0.9868080615997314
","x: 234.58641052246094
y: 340.03582763671875
z: -0.2119453400373459
visibility: 0.9398080110549927
","x: 289.0978088378906
y: 378.0005187988281
z: -0.0628235712647438
visibility: 0.9258224964141846
","x: 256.9635314941406
y: 344.28857421875
z: -0.3612956702709198
visibility: 0.9555808901786804
","x: 290.0045471191406
y: 390.56170654296875
z: -0.08476267755031586
visibility: 0.9052111506462097
","x: 262.0710754394531
y: 347.5337219238281
z: -0.398509681224823
visibility: 0.9070402979850769
","x: 287.30340576171875
y: 389.82110595703125
z: -0.10127431154251099
visibility: 0.904433012008667
","x: 264.6322021484375
y: 344.0524597167969
z: -0.3960038125514984
visibility: 0.9041301608085632
","x: 286.2322998046875
y: 385.30035400390625
z: -0.07062596082687378
visibility: 0.8942597508430481
","x: 263.0486145019531
y: 342.67279052734375
z: -0.3618408441543579
visibility: 0.8829429745674133
","x: 273.945068359375
y: 399.3388366699219
z: 0.02796783111989498
visibility: 0.9999509453773499
","x: 253.49545288085938
y: 398.49072265625
z: -0.028027895838022232
visibility: 0.9999646544456482
","x: 289.9165954589844
y: 452.65386962890625
z: -0.12493256479501724
visibility: 0.9978109002113342
","x: 247.7017059326172
y: 454.7881774902344
z: -0.03708178550004959
visibility: 0.9862162470817566
","x: 281.20489501953125
y: 510.5561828613281
z: 0.008973360061645508
visibility: 0.998000979423523
","x: 235.7499237060547
y: 511.5209655761719
z: 0.04923124611377716
visibility: 0.9933152794837952
","x: 273.8243103027344
y: 520.0817260742188
z: 0.018656646832823753
visibility: 0.9774571657180786
","x: 239.6077423095703
y: 518.9317016601562
z: 0.10433218628168106
visibility: 0.9550466537475586
","x: 293.9682922363281
y: 536.6217041015625
z: -0.08210502564907074
visibility: 0.9966310858726501
","x: 233.016845703125
y: 534.1332397460938
z: 0.006670212838798761
visibility: 0.9902687072753906
",,,,,,,,,,,,,,,,,,,,,,,,,,,,,,,,,,,,,,,,,,
3,"x: 266.177734375
y: 279.6947326660156
z: -0.17381031811237335
visibility: 0.9999821782112122
","x: 267.17620849609375
y: 275.7713623046875
z: -0.1534985452890396
visibility: 0.9999545812606812
","x: 268.09210205078125
y: 275.93145751953125
z: -0.15355481207370758
visibility: 0.9999412298202515
","x: 269.0712890625
y: 276.130126953125
z: -0.15361559391021729
visibility: 0.9999235272407532
","x: 264.2893981933594
y: 275.9070129394531
z: -0.1735231578350067
visibility: 0.9999755024909973
","x: 263.1102600097656
y: 276.1307373046875
z: -0.17354796826839447
visibility: 0.9999750256538391
","x: 261.8798828125
y: 276.3879089355469
z: -0.17363858222961426
visibility: 0.9999757409095764
","x: 270.7741394042969
y: 280.9497375488281
z: -0.047475967556238174
visibility: 0.9998592138290405
","x: 259.8960876464844
y: 280.9255065917969
z: -0.09747277200222015
visibility: 0.9999697208404541
","x: 268.2044677734375
y: 286.2694091796875
z: -0.13102169334888458
visibility: 0.9999492764472961
","x: 264.5837707519531
y: 286.6679992675781
z: -0.1537187248468399
visibility: 0.9999681115150452
","x: 279.48004150390625
y: 315.9474792480469
z: 0.043620456010103226
visibility: 0.9997321963310242
","x: 250.01950073242188
y: 309.4470520019531
z: -0.08304852247238159
visibility: 0.9999411106109619
","x: 290.4575500488281
y: 350.2962646484375
z: 0.03221984952688217
visibility: 0.9547684788703918
","x: 246.84840393066406
y: 346.34967041015625
z: -0.11788811534643173
visibility: 0.944098711013794
","x: 299.8421936035156
y: 353.1973571777344
z: -0.1085738092660904
visibility: 0.9108402729034424
","x: 254.75172424316406
y: 360.29345703125
z: -0.23935334384441376
visibility: 0.9545505046844482
","x: 301.0181884765625
y: 355.15338134765625
z: -0.13659730553627014
visibility: 0.8877670764923096
","x: 256.54840087890625
y: 373.3827209472656
z: -0.2554513216018677
visibility: 0.9061789512634277
","x: 300.4126281738281
y: 351.6789245605469
z: -0.15115074813365936
visibility: 0.8894699215888977
","x: 258.8812255859375
y: 373.9189147949219
z: -0.2427683174610138
visibility: 0.9037420749664307
","x: 300.0268249511719
y: 351.47906494140625
z: -0.11960716545581818
visibility: 0.8759439587593079
","x: 258.8465576171875
y: 371.6864013671875
z: -0.23544342815876007
visibility: 0.8808291554450989
","x: 274.419189453125
y: 401.345703125
z: 0.04005192592740059
visibility: 0.999941349029541
","x: 256.2746887207031
y: 401.8197021484375
z: -0.03999582305550575
visibility: 0.9999456405639648
","x: 292.6206970214844
y: 452.9462890625
z: -0.042244281619787216
visibility: 0.9969062805175781
","x: 245.50244140625
y: 459.24090576171875
z: -0.018019918352365494
visibility: 0.9869871735572815
","x: 294.37896728515625
y: 512.2788696289062
z: 0.022066663950681686
visibility: 0.9972249865531921
","x: 234.2874755859375
y: 510.7804870605469
z: 0.10673119872808456
visibility: 0.993096113204956
","x: 288.8418273925781
y: 520.7186279296875
z: 0.023037852719426155
visibility: 0.9760980606079102
","x: 239.41612243652344
y: 516.2059936523438
z: 0.12266556918621063
visibility: 0.9450129270553589
","x: 306.4205017089844
y: 535.3770751953125
z: -0.06356001645326614
visibility: 0.9953795671463013
","x: 234.1185302734375
y: 531.2567749023438
z: 0.03668417036533356
visibility: 0.9893590211868286
",,,,,,,,,,,,,,,,,,,,,,,,,,,,,,,,,,,,,,,,,,
4,"x: 273.236328125
y: 280.1077880859375
z: -0.23135551810264587
visibility: 0.9999832510948181
","x: 273.5772705078125
y: 275.87042236328125
z: -0.21158909797668457
visibility: 0.9999577403068542
","x: 274.67352294921875
y: 276.14483642578125
z: -0.2115769386291504
visibility: 0.9999454021453857
","x: 275.7527770996094
y: 276.5140075683594
z: -0.2116115540266037
visibility: 0.9999291300773621
","x: 270.0948791503906
y: 276.045654296875
z: -0.22222693264484406
visibility: 0.9999768137931824
","x: 268.77337646484375
y: 276.692626953125
z: -0.22224776446819305
visibility: 0.9999764561653137
","x: 267.52880859375
y: 277.3382873535156
z: -0.2222670018672943
visibility: 0.9999771118164062
","x: 276.5526123046875
y: 281.9076843261719
z: -0.10563181340694427
visibility: 0.9998706579208374
","x: 265.45550537109375
y: 283.7218933105469
z: -0.15366525948047638
visibility: 0.9999722838401794
","x: 275.5281677246094
y: 287.1872863769531
z: -0.19284775853157043
visibility: 0.9999538064002991
","x: 271.1721496582031
y: 288.4960021972656
z: -0.2067137062549591
visibility: 0.9999710321426392
","x: 286.0688781738281
y: 317.67828369140625
z: -0.0075479173101484776
visibility: 0.9997555017471313
","x: 253.1133575439453
y: 310.3167419433594
z: -0.12919636070728302
visibility: 0.9999434351921082
","x: 304.7926330566406
y: 326.2720031738281
z: -0.1549411565065384
visibility: 0.9586272239685059
","x: 241.7484588623047
y: 350.0863952636719
z: -0.21289655566215515
visibility: 0.9490890502929688
","x: 295.4237365722656
y: 293.60760498046875
z: -0.3283860683441162
visibility: 0.9178546667098999
","x: 248.35533142089844
y: 378.1922912597656
z: -0.32242265343666077
visibility: 0.956235408782959
","x: 292.7593994140625
y: 286.8328552246094
z: -0.3660929799079895
visibility: 0.8925013542175293
","x: 249.54937744140625
y: 387.362060546875
z: -0.3501015603542328
visibility: 0.9088308811187744
","x: 290.8765869140625
y: 287.7833251953125
z: -0.3511591851711273
visibility: 0.8932560086250305
","x: 252.52987670898438
y: 387.16845703125
z: -0.3527563512325287
visibility: 0.9060853123664856
","x: 291.4421081542969
y: 291.473876953125
z: -0.32812434434890747
visibility: 0.8786599636077881
","x: 252.62355041503906
y: 384.880126953125
z: -0.3252062201499939
visibility: 0.88166344165802
","x: 278.2662048339844
y: 404.5469665527344
z: 0.02984612062573433
visibility: 0.999946653842926
","x: 257.3486022949219
y: 405.119873046875
z: -0.030011653900146484
visibility: 0.9999483823776245
","x: 299.2334289550781
y: 453.5525207519531
z: -0.10782895982265472
visibility: 0.9971386194229126
","x: 248.46376037597656
y: 464.70037841796875
z: -0.028776884078979492
visibility: 0.9880946278572083
","x: 295.9705505371094
y: 512.9700927734375
z: 0.036379747092723846
visibility: 0.9973263144493103
","x: 234.7067413330078
y: 510.33941650390625
z: 0.17369647324085236
visibility: 0.9933252930641174
","x: 289.9150390625
y: 520.9083251953125
z: 0.048427920788526535
visibility: 0.9764290452003479
","x: 236.75820922851562
y: 513.9304809570312
z: 0.1914518028497696
visibility: 0.9374045729637146
","x: 304.1563415527344
y: 535.373291015625
z: -0.04047086462378502
visibility: 0.9955314993858337
","x: 231.9700927734375
y: 531.8516845703125
z: 0.10984023660421371
visibility: 0.9894461631774902
",,,,,,,,,,,,,,,,,,,,,,,,,,,,,,,,,,,,,,,,,,
5,"x: 268.3590087890625
y: 281.0003967285156
z: -0.20792162418365479
visibility: 0.9999836087226868
","x: 269.6269836425781
y: 276.21392822265625
z: -0.19254744052886963
visibility: 0.9999561309814453
","x: 270.73626708984375
y: 276.3465270996094
z: -0.19253680109977722
visibility: 0.9999452829360962
","x: 271.9184875488281
y: 276.5975341796875
z: -0.19254764914512634
visibility: 0.9999303817749023
","x: 266.7727966308594
y: 276.73541259765625
z: -0.19771277904510498
visibility: 0.9999736547470093
","x: 265.8370361328125
y: 277.4096984863281
z: -0.1977681666612625
visibility: 0.9999726414680481
","x: 264.93280029296875
y: 278.047607421875
z: -0.1978299915790558
visibility: 0.9999725222587585
","x: 274.75628662109375
y: 282.0319519042969
z: -0.10499143600463867
visibility: 0.9998764991760254
","x: 263.8324890136719
y: 283.81683349609375
z: -0.10582462698221207
visibility: 0.9999691247940063
","x: 271.1558532714844
y: 288.5738830566406
z: -0.17532113194465637
visibility: 0.9999560713768005
","x: 267.3096008300781
y: 289.2908630371094
z: -0.18389105796813965
visibility: 0.9999714493751526
","x: 285.63519287109375
y: 317.5235290527344
z: -0.06599558144807816
visibility: 0.9997748732566833
","x: 253.4571990966797
y: 310.55499267578125
z: -0.03382245451211929
visibility: 0.9999447464942932
","x: 304.6836242675781
y: 313.2430419921875
z: -0.20241239666938782
visibility: 0.9626697301864624
","x: 241.9638671875
y: 344.0216064453125
z: -0.008719796314835548
visibility: 0.9517655372619629
","x: 295.1601257324219
y: 286.34259033203125
z: -0.36552125215530396
visibility: 0.9254456758499146
","x: 246.3331298828125
y: 369.10455322265625
z: -0.07929790019989014
visibility: 0.9554764032363892
","x: 292.6809387207031
y: 280.89599609375
z: -0.40417400002479553
visibility: 0.9005706310272217
","x: 247.45050048828125
y: 378.0230712890625
z: -0.09879948198795319
visibility: 0.9070002436637878
","x: 289.90765380859375
y: 281.1749267578125
z: -0.39547932147979736
visibility: 0.9009857773780823
","x: 248.68345642089844
y: 376.0762939453125
z: -0.11476290225982666
visibility: 0.9045442938804626
","x: 290.157470703125
y: 284.22161865234375
z: -0.36694857478141785
visibility: 0.8861678242683411
","x: 250.0747528076172
y: 373.0335693359375
z: -0.08786915987730026
visibility: 0.8799176216125488
","x: 276.519287109375
y: 404.4979553222656
z: 0.015845980495214462
visibility: 0.9999492764472961
","x: 256.13330078125
y: 405.00311279296875
z: -0.016226690262556076
visibility: 0.9999502897262573
","x: 290.3282775878906
y: 454.108154296875
z: -0.1000775545835495
visibility: 0.9971374869346619
","x: 245.2892303466797
y: 461.9350891113281
z: -0.06019195169210434
visibility: 0.9892059564590454
","x: 299.62451171875
y: 513.0001220703125
z: 0.046326056122779846
visibility: 0.9973323941230774
","x: 240.3194580078125
y: 512.1087646484375
z: 0.10490065813064575
visibility: 0.9938648343086243
","x: 296.88623046875
y: 520.41162109375
z: 0.055713217705488205
visibility: 0.9751018285751343
","x: 243.54005432128906
y: 517.5443115234375
z: 0.11637003719806671
visibility: 0.9416159987449646
","x: 307.5489807128906
y: 534.7533569335938
z: -0.049320850521326065
visibility: 0.9955058693885803
","x: 230.43997192382812
y: 531.642822265625
z: 0.023232538253068924
visibility: 0.9901575446128845
","x: 298.2523498535156
y: 286.2786865234375
z: 0.0
","x: 296.7020263671875
y: 281.70263671875
z: -0.0005133371450938284
","x: 294.3924560546875
y: 281.0611267089844
z: -0.002685102866962552
","x: 292.2284240722656
y: 285.60113525390625
z: -0.005323776043951511
","x: 290.9559020996094
y: 289.8525390625
z: -0.007664570119231939
","x: 289.1308898925781
y: 281.75396728515625
z: -0.0024806491564959288
","x: 285.2310485839844
y: 284.39581298828125
z: -0.005116731859743595
","x: 282.8431701660156
y: 285.7135925292969
z: -0.006825012154877186
","x: 281.03936767578125
y: 286.9734191894531
z: -0.007846551015973091
","x: 289.1655578613281
y: 284.6546325683594
z: -0.0038883881643414497
","x: 288.3847351074219
y: 290.0302429199219
z: -0.005601843819022179
","x: 290.112060546875
y: 290.0766296386719
z: -0.005209086928516626
","x: 291.5096740722656
y: 289.23944091796875
z: -0.004994080401957035
","x: 290.1126403808594
y: 287.7181701660156
z: -0.005498470738530159
","x: 290.3534851074219
y: 292.3157958984375
z: -0.006700428668409586
","x: 292.1882629394531
y: 291.8333435058594
z: -0.00566843431442976
","x: 293.50335693359375
y: 290.83856201171875
z: -0.005078793037682772
","x: 291.56292724609375
y: 290.48590087890625
z: -0.0073814596980810165
","x: 291.7397766113281
y: 293.748046875
z: -0.007842959836125374
","x: 293.078369140625
y: 293.18609619140625
z: -0.006976414006203413
","x: 294.2274169921875
y: 292.23907470703125
z: -0.006363901309669018
",,,,,,,,,,,,,,,,,,,,,
6,"x: 268.3590087890625
y: 281.0003967285156
z: -0.20792162418365479
visibility: 0.9999836087226868
","x: 269.6269836425781
y: 276.21392822265625
z: -0.19254744052886963
visibility: 0.9999561309814453
","x: 270.73626708984375
y: 276.3465270996094
z: -0.19253680109977722
visibility: 0.9999452829360962
","x: 271.9184875488281
y: 276.5975341796875
z: -0.19254764914512634
visibility: 0.9999303817749023
","x: 266.7727966308594
y: 276.73541259765625
z: -0.19771277904510498
visibility: 0.9999736547470093
","x: 265.8370361328125
y: 277.4096984863281
z: -0.1977681666612625
visibility: 0.9999726414680481
","x: 264.93280029296875
y: 278.047607421875
z: -0.1978299915790558
visibility: 0.9999725222587585
","x: 274.75628662109375
y: 282.0319519042969
z: -0.10499143600463867
visibility: 0.9998764991760254
","x: 263.8324890136719
y: 283.81683349609375
z: -0.10582462698221207
visibility: 0.9999691247940063
","x: 271.1558532714844
y: 288.5738830566406
z: -0.17532113194465637
visibility: 0.9999560713768005
","x: 267.3096008300781
y: 289.2908630371094
z: -0.18389105796813965
visibility: 0.9999714493751526
","x: 285.63519287109375
y: 317.5235290527344
z: -0.06599558144807816
visibility: 0.9997748732566833
","x: 253.4571990966797
y: 310.55499267578125
z: -0.03382245451211929
visibility: 0.9999447464942932
","x: 304.6836242675781
y: 313.2430419921875
z: -0.20241239666938782
visibility: 0.9626697301864624
","x: 241.9638671875
y: 344.0216064453125
z: -0.008719796314835548
visibility: 0.9517655372619629
","x: 295.1601257324219
y: 286.34259033203125
z: -0.36552125215530396
visibility: 0.9254456758499146
","x: 246.3331298828125
y: 369.10455322265625
z: -0.07929790019989014
visibility: 0.9554764032363892
","x: 292.6809387207031
y: 280.89599609375
z: -0.40417400002479553
visibility: 0.9005706310272217
","x: 247.45050048828125
y: 378.0230712890625
z: -0.09879948198795319
visibility: 0.9070002436637878
","x: 289.90765380859375
y: 281.1749267578125
z: -0.39547932147979736
visibility: 0.9009857773780823
","x: 248.68345642089844
y: 376.0762939453125
z: -0.11476290225982666
visibility: 0.9045442938804626
","x: 290.157470703125
y: 284.22161865234375
z: -0.36694857478141785
visibility: 0.8861678242683411
","x: 250.0747528076172
y: 373.0335693359375
z: -0.08786915987730026
visibility: 0.8799176216125488
","x: 276.519287109375
y: 404.4979553222656
z: 0.015845980495214462
visibility: 0.9999492764472961
","x: 256.13330078125
y: 405.00311279296875
z: -0.016226690262556076
visibility: 0.9999502897262573
","x: 290.3282775878906
y: 454.108154296875
z: -0.1000775545835495
visibility: 0.9971374869346619
","x: 245.2892303466797
y: 461.9350891113281
z: -0.06019195169210434
visibility: 0.9892059564590454
","x: 299.62451171875
y: 513.0001220703125
z: 0.046326056122779846
visibility: 0.9973323941230774
","x: 240.3194580078125
y: 512.1087646484375
z: 0.10490065813064575
visibility: 0.9938648343086243
","x: 296.88623046875
y: 520.41162109375
z: 0.055713217705488205
visibility: 0.9751018285751343
","x: 243.54005432128906
y: 517.5443115234375
z: 0.11637003719806671
visibility: 0.9416159987449646
","x: 307.5489807128906
y: 534.7533569335938
z: -0.049320850521326065
visibility: 0.9955058693885803
","x: 230.43997192382812
y: 531.642822265625
z: 0.023232538253068924
visibility: 0.9901575446128845
","x: 298.2523498535156
y: 286.2786865234375
z: 0.0
","x: 296.7020263671875
y: 281.70263671875
z: -0.0005133371450938284
","x: 294.3924560546875
y: 281.0611267089844
z: -0.002685102866962552
","x: 292.2284240722656
y: 285.60113525390625
z: -0.005323776043951511
","x: 290.9559020996094
y: 289.8525390625
z: -0.007664570119231939
","x: 289.1308898925781
y: 281.75396728515625
z: -0.0024806491564959288
","x: 285.2310485839844
y: 284.39581298828125
z: -0.005116731859743595
","x: 282.8431701660156
y: 285.7135925292969
z: -0.006825012154877186
","x: 281.03936767578125
y: 286.9734191894531
z: -0.007846551015973091
","x: 289.1655578613281
y: 284.6546325683594
z: -0.0038883881643414497
","x: 288.3847351074219
y: 290.0302429199219
z: -0.005601843819022179
","x: 290.112060546875
y: 290.0766296386719
z: -0.005209086928516626
","x: 291.5096740722656
y: 289.23944091796875
z: -0.004994080401957035
","x: 290.1126403808594
y: 287.7181701660156
z: -0.005498470738530159
","x: 290.3534851074219
y: 292.3157958984375
z: -0.006700428668409586
","x: 292.1882629394531
y: 291.8333435058594
z: -0.00566843431442976
","x: 293.50335693359375
y: 290.83856201171875
z: -0.005078793037682772
","x: 291.56292724609375
y: 290.48590087890625
z: -0.0073814596980810165
","x: 291.7397766113281
y: 293.748046875
z: -0.007842959836125374
","x: 293.078369140625
y: 293.18609619140625
z: -0.006976414006203413
","x: 294.2274169921875
y: 292.23907470703125
z: -0.006363901309669018
",,,,,,,,,,,,,,,,,,,,,
7,"x: 269.08099365234375
y: 281.711181640625
z: -0.21741409599781036
visibility: 0.9999318718910217
","x: 270.7596435546875
y: 277.6488037109375
z: -0.20583125948905945
visibility: 0.9996187090873718
","x: 271.9560852050781
y: 278.2561340332031
z: -0.2058498114347458
visibility: 0.9996601939201355
","x: 273.1136169433594
y: 278.93353271484375
z: -0.2058766782283783
visibility: 0.9996012449264526
","x: 267.61212158203125
y: 277.25164794921875
z: -0.19955693185329437
visibility: 0.9996742606163025
","x: 266.64306640625
y: 277.7093505859375
z: -0.19956837594509125
visibility: 0.9996719360351562
","x: 265.71405029296875
y: 278.1755676269531
z: -0.1995777189731598
visibility: 0.9997450113296509
","x: 274.531982421875
y: 284.074951171875
z: -0.13708867132663727
visibility: 0.9995915293693542
","x: 264.1467590332031
y: 283.83502197265625
z: -0.10235899686813354
visibility: 0.9997618198394775
","x: 271.13616943359375
y: 289.7921142578125
z: -0.19218716025352478
visibility: 0.9998624324798584
","x: 267.0604553222656
y: 290.3107604980469
z: -0.1832199990749359
visibility: 0.9998872876167297
","x: 282.2135314941406
y: 317.21954345703125
z: -0.1317385584115982
visibility: 0.9997819662094116
","x: 251.93861389160156
y: 310.3518981933594
z: -0.026522526517510414
visibility: 0.9999151229858398
","x: 299.69171142578125
y: 286.54620361328125
z: -0.24428832530975342
visibility: 0.9659990072250366
","x: 240.6397247314453
y: 334.74237060546875
z: 0.028442731127142906
visibility: 0.9474594593048096
","x: 292.82818603515625
y: 294.8733215332031
z: -0.34080126881599426
visibility: 0.9219472408294678
","x: 244.40701293945312
y: 369.158447265625
z: 0.0004330327792558819
visibility: 0.9412809610366821
","x: 292.2839660644531
y: 292.33868408203125
z: -0.37346193194389343
visibility: 0.8803424835205078
","x: 243.06809997558594
y: 379.9779968261719
z: -0.009756006300449371
visibility: 0.8845727443695068
","x: 289.5489501953125
y: 299.41400146484375
z: -0.3743792474269867
visibility: 0.8802417516708374
","x: 244.56442260742188
y: 377.4744873046875
z: -0.02965671382844448
visibility: 0.884036660194397
","x: 290.0746154785156
y: 297.65936279296875
z: -0.34601664543151855
visibility: 0.8616008758544922
","x: 245.96388244628906
y: 374.4510192871094
z: -0.008837275207042694
visibility: 0.8612750172615051
","x: 274.11798095703125
y: 403.7735595703125
z: -0.026118233799934387
visibility: 0.9999415874481201
","x: 254.8783721923828
y: 404.4502258300781
z: 0.025965675711631775
visibility: 0.999947726726532
","x: 284.71307373046875
y: 455.2012634277344
z: -0.12517155706882477
visibility: 0.9973174929618835
","x: 240.04818725585938
y: 460.69744873046875
z: -0.08907599747180939
visibility: 0.9901994466781616
","x: 302.0632629394531
y: 511.0618591308594
z: 0.04266463592648506
visibility: 0.9975094199180603
","x: 241.93182373046875
y: 514.4071655273438
z: 0.0866537019610405
visibility: 0.9943907260894775
","x: 303.2304992675781
y: 515.1869506835938
z: 0.05406148359179497
visibility: 0.973396897315979
","x: 247.03350830078125
y: 521.623046875
z: 0.09828433394432068
visibility: 0.9464470744132996
","x: 306.6775817871094
y: 534.8853149414062
z: -0.053662627935409546
visibility: 0.9956966638565063
","x: 230.48919677734375
y: 532.2386474609375
z: 0.002320303814485669
visibility: 0.9909089207649231
",,,,,,,,,,,,,,,,,,,,,,,,,,,,,,,,,,,,,,,,,,
8,"x: 269.9463806152344
y: 289.3896484375
z: -0.1296873539686203
visibility: 0.9999294281005859
","x: 271.69781494140625
y: 284.5091552734375
z: -0.11933793127536774
visibility: 0.9996282458305359
","x: 272.84619140625
y: 284.3959655761719
z: -0.11938420683145523
visibility: 0.9996655583381653
","x: 273.9861755371094
y: 284.34197998046875
z: -0.11937397718429565
visibility: 0.999611496925354
","x: 268.5522766113281
y: 285.20538330078125
z: -0.11140882968902588
visibility: 0.9996834397315979
","x: 267.6262512207031
y: 285.4782409667969
z: -0.11140720546245575
visibility: 0.9996712803840637
","x: 266.8326721191406
y: 285.5914001464844
z: -0.11145428568124771
visibility: 0.9997397065162659
","x: 276.4217529296875
y: 286.39959716796875
z: -0.05792592093348503
visibility: 0.9995312690734863
","x: 266.59716796875
y: 288.24737548828125
z: -0.0210287906229496
visibility: 0.999745786190033
","x: 272.45098876953125
y: 293.9214782714844
z: -0.10648085176944733
visibility: 0.999803364276886
","x: 268.7994079589844
y: 293.9489440917969
z: -0.09623967111110687
visibility: 0.9998663663864136
","x: 283.84979248046875
y: 316.12152099609375
z: -0.08332265168428421
visibility: 0.9997616410255432
","x: 257.2356872558594
y: 310.9349365234375
z: 0.04228406772017479
visibility: 0.9999123811721802
","x: 269.1900329589844
y: 286.9918518066406
z: -0.18795402348041534
visibility: 0.9681117534637451
","x: 241.8582305908203
y: 340.1158447265625
z: 0.0841132402420044
visibility: 0.9288910031318665
","x: 258.5772399902344
y: 281.49542236328125
z: -0.2989753484725952
visibility: 0.9291654825210571
","x: 244.12631225585938
y: 366.03887939453125
z: 0.033403001725673676
visibility: 0.9257768392562866
","x: 255.6716766357422
y: 274.0259094238281
z: -0.33227890729904175
visibility: 0.8912374377250671
","x: 241.27078247070312
y: 379.27838134765625
z: 0.017981883138418198
visibility: 0.8662095069885254
","x: 257.5445251464844
y: 270.667236328125
z: -0.33191031217575073
visibility: 0.8910776376724243
","x: 243.36920166015625
y: 377.8245544433594
z: 0.0006343568675220013
visibility: 0.8663718104362488
","x: 258.4560546875
y: 272.9554443359375
z: -0.3024604916572571
visibility: 0.87314772605896
","x: 245.09725952148438
y: 374.66363525390625
z: 0.02453690394759178
visibility: 0.8433328866958618
","x: 273.8531188964844
y: 401.2796630859375
z: -0.02267821691930294
visibility: 0.9999374151229858
","x: 255.3939666748047
y: 398.1636962890625
z: 0.022566623985767365
visibility: 0.9999499917030334
","x: 282.9038391113281
y: 456.91265869140625
z: -0.0487155057489872
visibility: 0.9971556067466736
","x: 240.13418579101562
y: 447.3804016113281
z: -0.14660267531871796
visibility: 0.9910924434661865
","x: 298.9294738769531
y: 512.1837158203125
z: 0.0553729310631752
visibility: 0.9974787831306458
","x: 239.29193115234375
y: 509.9270324707031
z: -0.05469133332371712
visibility: 0.9948485493659973
","x: 298.50238037109375
y: 515.557861328125
z: 0.060292862355709076
visibility: 0.9679297208786011
","x: 243.70199584960938
y: 517.6214599609375
z: -0.05073268339037895
visibility: 0.9492893218994141
","x: 306.3268127441406
y: 534.91845703125
z: -0.040485262870788574
visibility: 0.9954460263252258
","x: 232.02049255371094
y: 531.0048217773438
z: -0.15105228126049042
visibility: 0.9915581345558167
",,,,,,,,,,,,,,,,,,,,,,,,,,,,,,,,,,,,,,,,,,
9,"x: 271.1250305175781
y: 289.79302978515625
z: -0.05055753514170647
visibility: 0.9999361634254456
","x: 273.71612548828125
y: 285.9801025390625
z: -0.03908360376954079
visibility: 0.9996646046638489
","x: 274.82379150390625
y: 286.2780456542969
z: -0.03911809250712395
visibility: 0.9996981024742126
","x: 275.9780578613281
y: 286.6533203125
z: -0.039103083312511444
visibility: 0.9996495842933655
","x: 270.4671630859375
y: 285.88226318359375
z: -0.03018372692167759
visibility: 0.9997143149375916
","x: 269.3856506347656
y: 286.037353515625
z: -0.030217712745070457
visibility: 0.9997031688690186
","x: 268.3921203613281
y: 286.14056396484375
z: -0.030235271900892258
visibility: 0.9997650384902954
","x: 278.3616943359375
y: 290.58538818359375
z: 0.01636534370481968
visibility: 0.9995761513710022
","x: 267.74578857421875
y: 289.5184326171875
z: 0.05676566809415817
visibility: 0.9997690320014954
","x: 273.1803283691406
y: 295.5175476074219
z: -0.030824610963463783
visibility: 0.9998211860656738
","x: 268.8628234863281
y: 295.38671875
z: -0.019589250907301903
visibility: 0.9998782873153687
","x: 284.0558776855469
y: 316.5489501953125
z: -0.025078479200601578
visibility: 0.9997828006744385
","x: 258.359130859375
y: 317.971435546875
z: 0.11321379989385605
visibility: 0.9999172687530518
","x: 271.04888916015625
y: 332.8243408203125
z: -0.13648156821727753
visibility: 0.970831573009491
","x: 245.19161987304688
y: 344.5224304199219
z: 0.06961078941822052
visibility: 0.8975414037704468
","x: 255.39476013183594
y: 310.509765625
z: -0.1936063915491104
visibility: 0.935677170753479
","x: 243.66632080078125
y: 357.30767822265625
z: -0.05536741763353348
visibility: 0.9094577431678772
","x: 252.2725067138672
y: 303.0556945800781
z: -0.2188664972782135
visibility: 0.900847315788269
","x: 241.2830810546875
y: 360.4483337402344
z: -0.07734198868274689
visibility: 0.8506281971931458
","x: 253.23878479003906
y: 297.49395751953125
z: -0.21174590289592743
visibility: 0.9005847573280334
","x: 243.28170776367188
y: 358.22393798828125
z: -0.08802420645952225
visibility: 0.8510859608650208
","x: 254.7196807861328
y: 300.5810241699219
z: -0.19147679209709167
visibility: 0.8832327723503113
","x: 245.12623596191406
y: 356.6914367675781
z: -0.06331125646829605
visibility: 0.8279885649681091
","x: 276.7625427246094
y: 405.94537353515625
z: -0.0323009267449379
visibility: 0.9999409317970276
","x: 259.2138977050781
y: 401.460205078125
z: 0.03224576264619827
visibility: 0.9999545216560364
","x: 281.5941162109375
y: 466.1795349121094
z: -0.08112828433513641
visibility: 0.997261106967926
","x: 240.8896026611328
y: 447.187255859375
z: -0.20007851719856262
visibility: 0.9918091297149658
","x: 304.76409912109375
y: 509.778076171875
z: 0.04566199705004692
visibility: 0.9974286556243896
","x: 238.37754821777344
y: 510.9542541503906
z: -0.13511104881763458
visibility: 0.9952187538146973
","x: 310.9639587402344
y: 507.3953552246094
z: 0.05551857501268387
visibility: 0.9622625112533569
","x: 242.66424560546875
y: 520.0264282226562
z: -0.13253876566886902
visibility: 0.9523316621780396
","x: 306.90594482421875
y: 535.7132568359375
z: -0.028297413140535355
visibility: 0.9953734278678894
","x: 230.74061584472656
y: 531.80908203125
z: -0.22791437804698944
visibility: 0.9921433925628662
",,,,,,,,,,,,,,,,,,,,,,,,,,,,,,,,,,,,,,,,,,
10,"x: 269.60626220703125
y: 300.39093017578125
z: -0.25935956835746765
visibility: 0.9999416470527649
","x: 272.2443542480469
y: 296.1806945800781
z: -0.24961435794830322
visibility: 0.9996954798698425
","x: 273.4728088378906
y: 296.6686706542969
z: -0.2496136724948883
visibility: 0.9997249245643616
","x: 274.6742858886719
y: 297.1925048828125
z: -0.2496391087770462
visibility: 0.9996803998947144
","x: 268.8974609375
y: 295.5730895996094
z: -0.23951680958271027
visibility: 0.9997407793998718
","x: 267.83026123046875
y: 295.6784973144531
z: -0.2395685613155365
visibility: 0.9997302889823914
","x: 266.8080749511719
y: 295.8205261230469
z: -0.23958048224449158
visibility: 0.9997860789299011
","x: 277.1700744628906
y: 301.9064025878906
z: -0.1725972592830658
visibility: 0.99961256980896
","x: 266.0730895996094
y: 299.7410888671875
z: -0.12742964923381805
visibility: 0.999786376953125
","x: 271.85137939453125
y: 307.8072814941406
z: -0.22965984046459198
visibility: 0.9998355507850647
","x: 267.36700439453125
y: 307.14105224609375
z: -0.21724696457386017
visibility: 0.9998880624771118
","x: 283.4858093261719
y: 338.6231994628906
z: -0.16743795573711395
visibility: 0.999782383441925
","x: 257.6617736816406
y: 329.9906921386719
z: -0.0093954773619771
visibility: 0.9999228715896606
","x: 277.1009216308594
y: 384.6520690917969
z: -0.23190072178840637
visibility: 0.9710497260093689
","x: 249.9937744140625
y: 365.09832763671875
z: -0.06272874027490616
visibility: 0.8484679460525513
","x: 260.9563903808594
y: 356.76739501953125
z: -0.2774558961391449
visibility: 0.9356870651245117
","x: 247.59690856933594
y: 378.15478515625
z: -0.23554527759552002
visibility: 0.8594269752502441
","x: 257.4941711425781
y: 346.5141296386719
z: -0.3038397431373596
visibility: 0.8993556499481201
","x: 244.68475341796875
y: 382.56707763671875
z: -0.26219987869262695
visibility: 0.8039246797561646
","x: 259.0158386230469
y: 342.20355224609375
z: -0.2886672914028168
visibility: 0.8989086151123047
","x: 246.76512145996094
y: 380.39227294921875
z: -0.27571436762809753
visibility: 0.8045960664749146
","x: 259.8235778808594
y: 344.5109558105469
z: -0.2707604765892029
visibility: 0.8763241171836853
","x: 248.46885681152344
y: 378.9993896484375
z: -0.24571609497070312
visibility: 0.7833647131919861
","x: 281.6263732910156
y: 422.35491943359375
z: -0.04769514501094818
visibility: 0.9999266862869263
","x: 264.7113037109375
y: 418.4976501464844
z: 0.04763539880514145
visibility: 0.9999575614929199
","x: 284.0245056152344
y: 479.0734558105469
z: -0.053338028490543365
visibility: 0.9970998167991638
","x: 242.47515869140625
y: 455.908935546875
z: -0.11496371030807495
visibility: 0.991911768913269
","x: 312.51715087890625
y: 510.1022033691406
z: 0.1452687829732895
visibility: 0.9971799254417419
","x: 240.4414520263672
y: 515.9837036132812
z: -0.0020883409306406975
visibility: 0.9953664541244507
","x: 318.60833740234375
y: 510.64617919921875
z: 0.16191861033439636
visibility: 0.9558490514755249
","x: 245.7841339111328
y: 525.275634765625
z: -0.007516088429838419
visibility: 0.9547562003135681
","x: 310.636474609375
y: 536.6333618164062
z: 0.08358462899923325
visibility: 0.9950936436653137
","x: 230.16983032226562
y: 533.0292358398438
z: -0.1145472377538681
visibility: 0.9923811554908752
",,,,,,,,,,,,,,,,,,,,,,,,,,,,,,,,,,,,,,,,,,
11,"x: 269.01898193359375
y: 316.1371765136719
z: -0.2478240728378296
visibility: 0.9999457597732544
","x: 270.63519287109375
y: 310.9643859863281
z: -0.24044542014598846
visibility: 0.9997171759605408
","x: 271.77069091796875
y: 311.5319519042969
z: -0.24045559763908386
visibility: 0.9997445344924927
","x: 272.92059326171875
y: 312.1319885253906
z: -0.240463525056839
visibility: 0.999704122543335
","x: 267.4157409667969
y: 310.0693359375
z: -0.22984430193901062
visibility: 0.9997583031654358
","x: 266.3699951171875
y: 309.9646911621094
z: -0.22984404861927032
visibility: 0.9997484683990479
","x: 265.3912658691406
y: 309.8636474609375
z: -0.22983196377754211
visibility: 0.9997990727424622
","x: 275.47735595703125
y: 316.6771240234375
z: -0.18067744374275208
visibility: 0.9996336698532104
","x: 264.8201599121094
y: 313.1006164550781
z: -0.13214382529258728
visibility: 0.9997841715812683
","x: 271.26214599609375
y: 323.6149597167969
z: -0.2248084992170334
visibility: 0.9998481869697571
","x: 267.1273498535156
y: 322.70574951171875
z: -0.21112899482250214
visibility: 0.9998959302902222
","x: 282.6673889160156
y: 358.83013916015625
z: -0.17198528349399567
visibility: 0.9998030066490173
","x: 256.68682861328125
y: 346.4710998535156
z: -0.026995841413736343
visibility: 0.9999293088912964
","x: 282.6985778808594
y: 410.1294250488281
z: -0.19556297361850739
visibility: 0.9735012650489807
","x: 253.7839813232422
y: 387.42291259765625
z: 0.006811514496803284
visibility: 0.8000455498695374
","x: 278.99285888671875
y: 445.7799072265625
z: -0.21925000846385956
visibility: 0.9399924278259277
","x: 257.26568603515625
y: 415.7283935546875
z: -0.06562475115060806
visibility: 0.8191558122634888
","x: 279.40484619140625
y: 456.53076171875
z: -0.24459056556224823
visibility: 0.9034848213195801
","x: 257.4084777832031
y: 424.39794921875
z: -0.0785742923617363
visibility: 0.7621448636054993
","x: 275.539306640625
y: 454.5785217285156
z: -0.2507403790950775
visibility: 0.9032007455825806
","x: 258.38720703125
y: 422.666015625
z: -0.10315539687871933
visibility: 0.763201117515564
","x: 274.721923828125
y: 450.59002685546875
z: -0.22184529900550842
visibility: 0.8786157965660095
","x: 259.302490234375
y: 420.05670166015625
z: -0.07666381448507309
visibility: 0.7409160733222961
","x: 280.34588623046875
y: 438.06170654296875
z: -0.05034339427947998
visibility: 0.9999282360076904
","x: 264.8240661621094
y: 433.0193786621094
z: 0.05036376044154167
visibility: 0.9999615550041199
","x: 288.7337951660156
y: 495.88818359375
z: 0.0023680892772972584
visibility: 0.9970930218696594
","x: 242.3898162841797
y: 457.9031677246094
z: -0.15852759778499603
visibility: 0.992500364780426
","x: 317.39007568359375
y: 517.4818725585938
z: 0.18132105469703674
visibility: 0.9971062541007996
","x: 242.8472900390625
y: 518.181884765625
z: -0.05655939131975174
visibility: 0.9956350922584534
","x: 323.97955322265625
y: 514.6358032226562
z: 0.19490203261375427
visibility: 0.9506091475486755
","x: 248.25979614257812
y: 529.6868286132812
z: -0.051426179707050323
visibility: 0.9581239819526672
","x: 313.38140869140625
y: 537.4603881835938
z: 0.11595326662063599
visibility: 0.9947829842567444
","x: 229.87376403808594
y: 532.8185424804688
z: -0.13448256254196167
visibility: 0.9928718209266663
",,,,,,,,,,,,,,,,,,,,,,,,,,,,,,,,,,,,,,,,,,
12,"x: 268.0059509277344
y: 292.9385986328125
z: -0.24122902750968933
visibility: 0.9999478459358215
","x: 270.0395812988281
y: 288.4958190917969
z: -0.23244385421276093
visibility: 0.9997360706329346
","x: 271.241943359375
y: 289.13507080078125
z: -0.23246106505393982
visibility: 0.9997599124908447
","x: 272.5007629394531
y: 289.9954528808594
z: -0.2324904501438141
visibility: 0.9997236132621765
","x: 266.9521179199219
y: 287.8385009765625
z: -0.22240129113197327
visibility: 0.9997736215591431
","x: 266.04107666015625
y: 287.8604736328125
z: -0.22241541743278503
visibility: 0.9997629523277283
","x: 265.18426513671875
y: 287.8723449707031
z: -0.22241806983947754
visibility: 0.9998100996017456
","x: 275.31378173828125
y: 295.2952880859375
z: -0.16377654671669006
visibility: 0.9996581077575684
","x: 265.3218994140625
y: 289.9927978515625
z: -0.11602334678173065
visibility: 0.9997886419296265
","x: 270.2323303222656
y: 300.0267639160156
z: -0.2144407331943512
visibility: 0.9998599886894226
","x: 266.2054443359375
y: 298.98828125
z: -0.20107710361480713
visibility: 0.9999033212661743
","x: 284.3277893066406
y: 335.5915832519531
z: -0.15147553384304047
visibility: 0.9998193383216858
","x: 255.69253540039062
y: 323.8062744140625
z: -0.020018503069877625
visibility: 0.9999345541000366
","x: 284.9777526855469
y: 372.11529541015625
z: -0.2487945258617401
visibility: 0.9756983518600464
","x: 249.3440399169922
y: 355.8139343261719
z: -0.013221723027527332
visibility: 0.8044891357421875
","x: 274.4565124511719
y: 369.63092041015625
z: -0.39047667384147644
visibility: 0.9441673755645752
","x: 251.9441375732422
y: 388.2800598144531
z: -0.15814292430877686
visibility: 0.8217337131500244
","x: 273.41729736328125
y: 370.3413391113281
z: -0.4333389401435852
visibility: 0.9099175930023193
","x: 251.8369140625
y: 401.8796081542969
z: -0.18756498396396637
visibility: 0.7635270357131958
","x: 271.9361572265625
y: 367.3330993652344
z: -0.42948541045188904
visibility: 0.9096256494522095
","x: 253.75648498535156
y: 397.2427062988281
z: -0.20661024749279022
visibility: 0.7644834518432617
","x: 272.494873046875
y: 367.47320556640625
z: -0.39199116826057434
visibility: 0.8839036822319031
","x: 254.5204620361328
y: 394.11273193359375
z: -0.16970430314540863
visibility: 0.74195796251297
","x: 280.1270446777344
y: 414.5419616699219
z: -0.04944515600800514
visibility: 0.9999276399612427
","x: 263.1063232421875
y: 414.22918701171875
z: 0.04937376454472542
visibility: 0.9999624490737915
","x: 288.96282958984375
y: 467.7772216796875
z: -0.03976718708872795
visibility: 0.9972642660140991
","x: 245.06117248535156
y: 455.270263671875
z: -0.06211751699447632
visibility: 0.9927968382835388
","x: 312.4070129394531
y: 512.4943237304688
z: 0.10057948529720306
visibility: 0.9973075985908508
","x: 242.99903869628906
y: 517.136474609375
z: 0.08778128027915955
visibility: 0.9959296584129333
","x: 317.9913330078125
y: 513.0540771484375
z: 0.10970483720302582
visibility: 0.9488508701324463
","x: 247.90289306640625
y: 527.8740234375
z: 0.09746718406677246
visibility: 0.9611366987228394
","x: 309.8563232421875
y: 536.3018188476562
z: 0.05427221581339836
visibility: 0.9950618743896484
","x: 230.6621551513672
y: 532.8069458007812
z: 0.0027094404213130474
visibility: 0.9933345913887024
",,,,,,,,,,,,,,,,,,,,,,,,,,,,,,,,,,,,,,,,,,
13,"x: 269.1352233886719
y: 265.53704833984375
z: -0.27257734537124634
visibility: 0.9999397993087769
","x: 271.5792236328125
y: 259.3426208496094
z: -0.2590368390083313
visibility: 0.9997117519378662
","x: 272.8238830566406
y: 259.71258544921875
z: -0.2590779662132263
visibility: 0.9997403025627136
","x: 274.0412292480469
y: 260.1062927246094
z: -0.25911545753479004
visibility: 0.999692976474762
","x: 268.00445556640625
y: 258.9036865234375
z: -0.25337058305740356
visibility: 0.9997444748878479
","x: 266.8949279785156
y: 258.8353271484375
z: -0.25337380170822144
visibility: 0.99973464012146
","x: 265.87493896484375
y: 258.7178955078125
z: -0.2533969283103943
visibility: 0.9997820854187012
","x: 276.4706726074219
y: 264.46435546875
z: -0.16229161620140076
visibility: 0.9996182322502136
","x: 265.1312255859375
y: 261.2451477050781
z: -0.13426458835601807
visibility: 0.9997644424438477
","x: 271.3968505859375
y: 272.1683349609375
z: -0.23482677340507507
visibility: 0.9998590350151062
","x: 266.7393493652344
y: 271.37689208984375
z: -0.22738535702228546
visibility: 0.9999043345451355
","x: 285.3408508300781
y: 296.0577087402344
z: -0.13354770839214325
visibility: 0.9998246431350708
","x: 255.15328979492188
y: 289.54644775390625
z: -0.025614138692617416
visibility: 0.9999359250068665
","x: 290.9256896972656
y: 342.3583984375
z: -0.21786975860595703
visibility: 0.9775208830833435
","x: 245.51275634765625
y: 322.2740173339844
z: 0.030653217807412148
visibility: 0.8194071650505066
","x: 280.1956481933594
y: 325.83349609375
z: -0.3947107791900635
visibility: 0.9460704326629639
","x: 250.04908752441406
y: 357.55859375
z: -0.04208512604236603
visibility: 0.8261764049530029
","x: 276.7896728515625
y: 321.7684326171875
z: -0.4342649579048157
visibility: 0.9082627892494202
","x: 249.782958984375
y: 368.6904296875
z: -0.057676780968904495
visibility: 0.7611488699913025
","x: 276.34393310546875
y: 316.2572937011719
z: -0.4314764142036438
visibility: 0.9077248573303223
","x: 251.93569946289062
y: 366.9833679199219
z: -0.0785643681883812
visibility: 0.762755274772644
","x: 274.5692138671875
y: 318.55023193359375
z: -0.3974991738796234
visibility: 0.8760735988616943
","x: 252.7040557861328
y: 363.5939025878906
z: -0.05065590888261795
visibility: 0.7366283535957336
","x: 279.7932434082031
y: 380.36553955078125
z: -0.03064645454287529
visibility: 0.9998949766159058
","x: 262.1791687011719
y: 381.8600769042969
z: 0.03059854730963707
visibility: 0.9999562501907349
","x: 288.47320556640625
y: 437.7712707519531
z: -0.055714838206768036
visibility: 0.9970321655273438
","x: 258.3315124511719
y: 439.81927490234375
z: -0.10388454049825668
visibility: 0.993097186088562
","x: 298.6466369628906
y: 499.67852783203125
z: 0.08464591205120087
visibility: 0.9971151351928711
","x: 251.8049774169922
y: 507.7778625488281
z: 0.011358935385942459
visibility: 0.996081531047821
","x: 300.77789306640625
y: 506.4302978515625
z: 0.09298158437013626
visibility: 0.9387398958206177
","x: 253.6729736328125
y: 516.9866333007812
z: 0.015296814031898975
visibility: 0.9603726267814636
","x: 294.58990478515625
y: 523.44677734375
z: 0.012415374629199505
visibility: 0.9948403239250183
","x: 244.63377380371094
y: 529.4410400390625
z: -0.1124415397644043
visibility: 0.9936436414718628
",,,,,,,,,,,,,,,,,,,,,,,,,,,,,,,,,,,,,,,,,,
14,"x: 272.0467224121094
y: 265.4583435058594
z: -0.27972763776779175
visibility: 0.9999392628669739
","x: 273.8424377441406
y: 260.10516357421875
z: -0.2634684443473816
visibility: 0.999728798866272
","x: 274.9178161621094
y: 260.26580810546875
z: -0.2635045051574707
visibility: 0.9997544884681702
","x: 276.0206298828125
y: 260.5169372558594
z: -0.2635679244995117
visibility: 0.999711811542511
","x: 270.3857727050781
y: 260.2527160644531
z: -0.2645335793495178
visibility: 0.9997563362121582
","x: 269.09283447265625
y: 260.3897399902344
z: -0.2645438611507416
visibility: 0.9997445940971375
","x: 267.8899841308594
y: 260.59271240234375
z: -0.26457518339157104
visibility: 0.9997872710227966
","x: 277.8929138183594
y: 264.05780029296875
z: -0.1560196578502655
visibility: 0.9996321201324463
","x: 265.9324645996094
y: 263.5445556640625
z: -0.15928398072719574
visibility: 0.9997703433036804
","x: 274.263427734375
y: 272.1350402832031
z: -0.2380862534046173
visibility: 0.9998697638511658
","x: 269.63934326171875
y: 272.33367919921875
z: -0.2394680678844452
visibility: 0.9999101161956787
","x: 286.2386779785156
y: 299.897705078125
z: -0.09423096477985382
visibility: 0.9998376369476318
","x: 254.81382751464844
y: 292.1878967285156
z: -0.0688018649816513
visibility: 0.9999349117279053
","x: 293.76739501953125
y: 343.3053283691406
z: -0.15425239503383636
visibility: 0.977395236492157
","x: 242.02259826660156
y: 322.0606994628906
z: -0.0070666102692484856
visibility: 0.8359310030937195
","x: 282.4990234375
y: 326.0393981933594
z: -0.35400956869125366
visibility: 0.945674479007721
","x: 245.88677978515625
y: 356.7941589355469
z: -0.08294787257909775
visibility: 0.8320037722587585
","x: 279.77581787109375
y: 323.538330078125
z: -0.3979964852333069
visibility: 0.9065129160881042
","x: 245.80618286132812
y: 367.777099609375
z: -0.1030300110578537
visibility: 0.7607627511024475
","x: 279.21258544921875
y: 321.67926025390625
z: -0.4049416184425354
visibility: 0.9066473245620728
","x: 249.61012268066406
y: 366.6585998535156
z: -0.1203388124704361
visibility: 0.7633728384971619
","x: 279.13714599609375
y: 323.9437561035156
z: -0.3611097037792206
visibility: 0.8718683123588562
","x: 250.32643127441406
y: 362.5671691894531
z: -0.09223376959562302
visibility: 0.7356969714164734
","x: 279.04791259765625
y: 382.2621154785156
z: -0.004130400717258453
visibility: 0.9998673796653748
","x: 261.3721618652344
y: 382.8089904785156
z: 0.004048781469464302
visibility: 0.9999111890792847
","x: 279.7464294433594
y: 446.8902893066406
z: -0.031116316094994545
visibility: 0.9957623481750488
","x: 261.7320251464844
y: 442.50689697265625
z: -0.022102318704128265
visibility: 0.9910978674888611
","x: 274.82855224609375
y: 503.79803466796875
z: 0.12746566534042358
visibility: 0.995785653591156
","x: 266.8017883300781
y: 505.6747741699219
z: 0.19215138256549835
visibility: 0.9855053424835205
","x: 273.7843322753906
y: 513.3599243164062
z: 0.1381324827671051
visibility: 0.9204623103141785
","x: 268.1884460449219
y: 511.9235534667969
z: 0.2083640843629837
visibility: 0.9169811606407166
","x: 273.0054016113281
y: 530.565673828125
z: 0.025736626237630844
visibility: 0.9927951097488403
","x: 268.1745300292969
y: 529.51416015625
z: 0.11036141961812973
visibility: 0.9846010208129883
",,,,,,,,,,,,,,,,,,,,,,,,,,,,,,,,,,,,,,,,,,
15,"x: 276.3906555175781
y: 282.2874755859375
z: -0.260328084230423
visibility: 0.9999117851257324
","x: 277.4823303222656
y: 279.1619873046875
z: -0.24414923787117004
visibility: 0.9996924996376038
","x: 278.4202880859375
y: 279.66278076171875
z: -0.24423053860664368
visibility: 0.9997151494026184
","x: 279.3600769042969
y: 280.31781005859375
z: -0.24429969489574432
visibility: 0.9996810555458069
","x: 274.5404357910156
y: 278.6540832519531
z: -0.24505993723869324
visibility: 0.9996969699859619
","x: 273.2829284667969
y: 278.6452331542969
z: -0.2450665682554245
visibility: 0.9996532201766968
","x: 272.003173828125
y: 278.6666259765625
z: -0.24510863423347473
visibility: 0.9996911287307739
","x: 280.1285705566406
y: 285.8349609375
z: -0.14675939083099365
visibility: 0.9995234608650208
","x: 268.9775390625
y: 282.1185607910156
z: -0.15228749811649323
visibility: 0.9996083378791809
","x: 277.9141845703125
y: 288.65185546875
z: -0.22366324067115784
visibility: 0.9998565912246704
","x: 274.1670837402344
y: 288.27105712890625
z: -0.22552593052387238
visibility: 0.9998915195465088
","x: 286.8184509277344
y: 324.4245910644531
z: -0.09739130735397339
visibility: 0.9998427629470825
","x: 255.02577209472656
y: 312.3594970703125
z: -0.07058063894510269
visibility: 0.9999169111251831
","x: 293.1895751953125
y: 371.249755859375
z: -0.15593676269054413
visibility: 0.9728789925575256
","x: 242.048095703125
y: 348.319091796875
z: -0.033117230981588364
visibility: 0.8501074314117432
","x: 284.7095031738281
y: 371.19580078125
z: -0.3440267741680145
visibility: 0.942331850528717
","x: 246.9663848876953
y: 382.7401123046875
z: -0.09662070870399475
visibility: 0.8380706310272217
","x: 282.785400390625
y: 371.47772216796875
z: -0.38910388946533203
visibility: 0.9038169384002686
","x: 247.61386108398438
y: 394.09869384765625
z: -0.1199629157781601
visibility: 0.7644118070602417
","x: 282.70635986328125
y: 362.6776428222656
z: -0.40168318152427673
visibility: 0.9046841859817505
","x: 251.39645385742188
y: 393.4947509765625
z: -0.1427055299282074
visibility: 0.7673462629318237
","x: 282.70361328125
y: 362.4390869140625
z: -0.3533909022808075
visibility: 0.8669747710227966
","x: 251.35153198242188
y: 387.994873046875
z: -0.10648874193429947
visibility: 0.7381032109260559
","x: 278.7073059082031
y: 397.0406494140625
z: -0.00929648894816637
visibility: 0.9998365044593811
","x: 260.92364501953125
y: 396.8564453125
z: 0.009363790974020958
visibility: 0.9998080134391785
","x: 275.7054138183594
y: 457.7734069824219
z: -0.09414487332105637
visibility: 0.9882066249847412
","x: 264.6530456542969
y: 465.12939453125
z: 0.043204858899116516
visibility: 0.9771899580955505
","x: 268.5328369140625
y: 523.5765991210938
z: 0.012447468005120754
visibility: 0.9898882508277893
","x: 274.35943603515625
y: 508.7087707519531
z: 0.23004142940044403
visibility: 0.9669089913368225
","x: 265.9548645019531
y: 533.7743530273438
z: 0.01820462755858898
visibility: 0.909970760345459
","x: 275.85504150390625
y: 512.5084228515625
z: 0.2436225414276123
visibility: 0.8909388780593872
","x: 270.6126708984375
y: 532.7818603515625
z: -0.09385456144809723
visibility: 0.9866175651550293
","x: 270.58807373046875
y: 529.7684326171875
z: 0.14698903262615204
visibility: 0.9680113792419434
",,,,,,,,,,,,,,,,,,,,,,,,,,,,,,,,,,,,,,,,,,
16,"x: 275.72308349609375
y: 276.86138916015625
z: -0.1595735251903534
visibility: 0.9998376965522766
","x: 276.9381103515625
y: 271.7613830566406
z: -0.14344283938407898
visibility: 0.9996156096458435
","x: 277.9453430175781
y: 272.00567626953125
z: -0.14349402487277985
visibility: 0.999630331993103
","x: 278.9761047363281
y: 272.3205261230469
z: -0.1435241997241974
visibility: 0.9996121525764465
","x: 273.7921142578125
y: 271.33770751953125
z: -0.1485181599855423
visibility: 0.9995703101158142
","x: 272.503662109375
y: 271.28668212890625
z: -0.1485176980495453
visibility: 0.999489426612854
","x: 271.1998596191406
y: 271.2909240722656
z: -0.14857444167137146
visibility: 0.9994893670082092
","x: 279.9661560058594
y: 276.16796875
z: -0.04548218101263046
visibility: 0.9993645548820496
","x: 268.101806640625
y: 273.43255615234375
z: -0.06876539438962936
visibility: 0.9993758201599121
","x: 277.33795166015625
y: 282.86474609375
z: -0.12205006927251816
visibility: 0.9998195767402649
","x: 273.3383483886719
y: 282.6522521972656
z: -0.1290585994720459
visibility: 0.9998030662536621
","x: 286.3233642578125
y: 308.7747802734375
z: -0.005347616039216518
visibility: 0.9998296499252319
","x: 256.6151428222656
y: 295.6494445800781
z: -0.06538030505180359
visibility: 0.9997151494026184
","x: 292.8220520019531
y: 338.6706237792969
z: -0.12488766759634018
visibility: 0.9692789316177368
","x: 251.46426391601562
y: 313.0567626953125
z: -0.14121784269809723
visibility: 0.85567706823349
","x: 279.93072509765625
y: 318.33526611328125
z: -0.29632362723350525
visibility: 0.9400549530982971
","x: 258.7920837402344
y: 306.44500732421875
z: -0.28097444772720337
visibility: 0.8371948599815369
","x: 276.17169189453125
y: 314.59881591796875
z: -0.3308568596839905
visibility: 0.900816023349762
","x: 259.6766662597656
y: 305.8556823730469
z: -0.3108260929584503
visibility: 0.7609596252441406
","x: 275.5591735839844
y: 309.70013427734375
z: -0.3222980499267578
visibility: 0.9013695120811462
","x: 260.552490234375
y: 305.29156494140625
z: -0.31256139278411865
visibility: 0.7628538012504578
","x: 275.8294677734375
y: 311.5365295410156
z: -0.2970021367073059
visibility: 0.8617914915084839
","x: 260.42626953125
y: 306.7183532714844
z: -0.2850548028945923
visibility: 0.7313268780708313
","x: 277.2028503417969
y: 383.904296875
z: 0.0003179578052368015
visibility: 0.9998484253883362
","x: 260.08782958984375
y: 380.9408264160156
z: -0.00027068977942690253
visibility: 0.9997950196266174
","x: 273.18023681640625
y: 446.2890319824219
z: -0.08701008558273315
visibility: 0.9891037344932556
","x: 260.79327392578125
y: 445.2308349609375
z: 0.06289219856262207
visibility: 0.9768397212028503
","x: 270.6039733886719
y: 511.7079162597656
z: -0.01087233517318964
visibility: 0.9905087947845459
","x: 262.2179260253906
y: 476.7811279296875
z: 0.3088206648826599
visibility: 0.9584200382232666
","x: 270.6230773925781
y: 520.5189208984375
z: -0.009462650865316391
visibility: 0.9110016226768494
","x: 264.1357421875
y: 479.4327087402344
z: 0.330312579870224
visibility: 0.860859751701355
","x: 266.8143615722656
y: 530.48828125
z: -0.11581064760684967
visibility: 0.9873301982879639
","x: 258.3977966308594
y: 499.6799011230469
z: 0.26810187101364136
visibility: 0.9632827043533325
",,,,,,,,,,,,,,,,,,,,,,,,,,,,,,,,,,,,,,,,,,
17,"x: 274.2142333984375
y: 278.3241882324219
z: -0.11625102907419205
visibility: 0.9997469186782837
","x: 275.58111572265625
y: 273.29327392578125
z: -0.10311277210712433
visibility: 0.9994284510612488
","x: 276.57232666015625
y: 273.49554443359375
z: -0.10314112901687622
visibility: 0.9994118213653564
","x: 277.6064758300781
y: 273.7658386230469
z: -0.10315437614917755
visibility: 0.9994516372680664
","x: 272.6341857910156
y: 273.0640869140625
z: -0.10875411331653595
visibility: 0.999396562576294
","x: 271.5012512207031
y: 273.0759582519531
z: -0.10876884311437607
visibility: 0.9992532134056091
","x: 270.3600769042969
y: 273.11962890625
z: -0.10886724293231964
visibility: 0.999252200126648
","x: 278.98663330078125
y: 277.7030029296875
z: -0.016974246129393578
visibility: 0.9985141158103943
","x: 267.6371765136719
y: 275.54351806640625
z: -0.0425262488424778
visibility: 0.9990707039833069
","x: 275.9114685058594
y: 284.60540771484375
z: -0.0826517790555954
visibility: 0.9996911287307739
","x: 271.99041748046875
y: 284.4312744140625
z: -0.0902242511510849
visibility: 0.9996381402015686
","x: 285.48321533203125
y: 309.348388671875
z: 0.03500540927052498
visibility: 0.9998067617416382
","x: 257.2333679199219
y: 298.60882568359375
z: -0.05784263089299202
visibility: 0.9996584057807922
","x: 288.5753173828125
y: 340.25946044921875
z: -0.06550197303295135
visibility: 0.9626497030258179
","x: 250.76895141601562
y: 322.1241760253906
z: -0.14617504179477692
visibility: 0.8681824803352356
","x: 279.9018249511719
y: 310.1612548828125
z: -0.21692267060279846
visibility: 0.9413137435913086
","x: 264.52984619140625
y: 304.05767822265625
z: -0.26670747995376587
visibility: 0.8492247462272644
","x: 276.4683532714844
y: 303.04461669921875
z: -0.24123339354991913
visibility: 0.9029284715652466
","x: 267.841064453125
y: 299.23248291015625
z: -0.29202723503112793
visibility: 0.7752243876457214
","x: 276.20367431640625
y: 300.20086669921875
z: -0.23211729526519775
visibility: 0.9032021760940552
","x: 267.5485534667969
y: 300.01788330078125
z: -0.2845553755760193
visibility: 0.7757371664047241
","x: 276.180419921875
y: 302.5193176269531
z: -0.2162381112575531
visibility: 0.8640442490577698
","x: 266.634765625
y: 299.99951171875
z: -0.2653130292892456
visibility: 0.74349445104599
","x: 274.05517578125
y: 389.0985107421875
z: 0.024185994639992714
visibility: 0.9998610615730286
","x: 258.1990966796875
y: 385.3684997558594
z: -0.024222057312726974
visibility: 0.9998009204864502
","x: 270.3724670410156
y: 449.6155090332031
z: -0.06703411042690277
visibility: 0.9888271689414978
","x: 260.62701416015625
y: 447.1913146972656
z: 0.005579981952905655
visibility: 0.9756641983985901
","x: 264.0289611816406
y: 513.4141845703125
z: -0.008429393172264099
visibility: 0.9901366233825684
","x: 262.0506896972656
y: 462.3867492675781
z: 0.28412163257598877
visibility: 0.9180822372436523
","x: 261.0985412597656
y: 522.3419189453125
z: -0.005862087476998568
visibility: 0.9100103974342346
","x: 256.00579833984375
y: 459.0377197265625
z: 0.3120826184749603
visibility: 0.8086483478546143
","x: 266.6823425292969
y: 532.5652465820312
z: -0.08750264346599579
visibility: 0.9871243238449097
","x: 253.70916748046875
y: 489.44891357421875
z: 0.29181206226348877
visibility: 0.9388551712036133
",,,,,,,,,,,,,,,,,,,,,,,,,,,,,,,,,,,,,,,,,,
18,"x: 273.85321044921875
y: 283.0990905761719
z: -0.23278769850730896
visibility: 0.9997305274009705
","x: 275.1108703613281
y: 278.2806701660156
z: -0.21614167094230652
visibility: 0.9994160532951355
","x: 276.11859130859375
y: 278.33349609375
z: -0.21614667773246765
visibility: 0.999386191368103
","x: 277.132080078125
y: 278.3919372558594
z: -0.2161674201488495
visibility: 0.9994189143180847
","x: 272.0111999511719
y: 278.2748107910156
z: -0.22840943932533264
visibility: 0.9993951320648193
","x: 270.83587646484375
y: 278.38397216796875
z: -0.22846320271492004
visibility: 0.9992676973342896
","x: 269.67333984375
y: 278.5770263671875
z: -0.22854363918304443
visibility: 0.9992690682411194
","x: 278.5331726074219
y: 281.4960021972656
z: -0.1065576896071434
visibility: 0.9984344840049744
","x: 267.53961181640625
y: 280.8959045410156
z: -0.1650611013174057
visibility: 0.9991159439086914
","x: 275.5274963378906
y: 289.1036071777344
z: -0.19098258018493652
visibility: 0.9996963143348694
","x: 271.4210205078125
y: 289.5962829589844
z: -0.20818357169628143
visibility: 0.9996619820594788
","x: 285.2001953125
y: 317.0939025878906
z: -0.02647075429558754
visibility: 0.9997965097427368
","x: 254.13888549804688
y: 303.82574462890625
z: -0.13616448640823364
visibility: 0.9996793270111084
","x: 289.8144836425781
y: 360.1324157714844
z: -0.10454569011926651
visibility: 0.9637423753738403
","x: 239.04949951171875
y: 333.97308349609375
z: -0.24106161296367645
visibility: 0.8812142014503479
","x: 284.67535400390625
y: 329.68206787109375
z: -0.26029103994369507
visibility: 0.9454420804977417
","x: 255.8018035888672
y: 324.40899658203125
z: -0.3904474079608917
visibility: 0.8639424443244934
","x: 281.4993896484375
y: 314.1083984375
z: -0.3009156882762909
visibility: 0.9081331491470337
","x: 263.5737609863281
y: 321.87115478515625
z: -0.42660602927207947
visibility: 0.7964521646499634
","x: 281.5080261230469
y: 310.0430908203125
z: -0.2764890193939209
visibility: 0.9082115292549133
","x: 266.014404296875
y: 318.4134521484375
z: -0.4206717908382416
visibility: 0.7967219948768616
","x: 281.6163635253906
y: 313.628662109375
z: -0.2605188190937042
visibility: 0.870579183101654
","x: 263.33380126953125
y: 319.4638977050781
z: -0.3898025155067444
visibility: 0.7665297389030457
","x: 273.5656433105469
y: 397.0991516113281
z: 0.040092773735523224
visibility: 0.9998258948326111
","x: 257.08636474609375
y: 394.50335693359375
z: -0.04019567370414734
visibility: 0.9997437596321106
","x: 271.31317138671875
y: 455.18499755859375
z: 0.014482912607491016
visibility: 0.9817824959754944
","x: 259.21746826171875
y: 457.8311767578125
z: -0.03376888483762741
visibility: 0.9730391502380371
","x: 264.2149658203125
y: 513.4328002929688
z: 0.19435356557369232
visibility: 0.9800698757171631
","x: 259.657958984375
y: 500.4415283203125
z: 0.23248562216758728
visibility: 0.9141240119934082
","x: 259.0806579589844
y: 522.2423706054688
z: 0.20859253406524658
visibility: 0.8970667123794556
","x: 252.6010284423828
y: 505.4473571777344
z: 0.2785559296607971
visibility: 0.7827334403991699
","x: 267.24786376953125
y: 532.81591796875
z: 0.1272730529308319
visibility: 0.9801161289215088
","x: 257.1096496582031
y: 518.815673828125
z: 0.11844774335622787
visibility: 0.9338902831077576
",,,,,,,,,,,,,,,,,,,,,,,,,,,,,,,,,,,,,,,,,,
19,"x: 273.41796875
y: 283.0315246582031
z: -0.22086557745933533
visibility: 0.9997413158416748
","x: 274.6903076171875
y: 278.1695556640625
z: -0.20963414013385773
visibility: 0.9994531273841858
","x: 275.7135009765625
y: 278.2471923828125
z: -0.2096562683582306
visibility: 0.9994215369224548
","x: 276.74310302734375
y: 278.3431396484375
z: -0.2096429318189621
visibility: 0.9994545578956604
","x: 271.5841064453125
y: 278.1661376953125
z: -0.2110535353422165
visibility: 0.9994251132011414
","x: 270.4254455566406
y: 278.2840576171875
z: -0.2110859900712967
visibility: 0.9993062615394592
","x: 269.27825927734375
y: 278.47918701171875
z: -0.21114976704120636
visibility: 0.999305248260498
","x: 278.1808166503906
y: 281.597900390625
z: -0.09204446524381638
visibility: 0.9985577464103699
","x: 267.4935607910156
y: 280.8765869140625
z: -0.13179367780685425
visibility: 0.9991399049758911
","x: 275.2012634277344
y: 289.1148681640625
z: -0.19022278487682343
visibility: 0.9997205138206482
","x: 271.1119689941406
y: 289.4815979003906
z: -0.19091373682022095
visibility: 0.9996851682662964
","x: 285.03857421875
y: 316.6879577636719
z: -0.03230052441358566
visibility: 0.999809205532074
","x: 253.75125122070312
y: 304.61627197265625
z: -0.08432195335626602
visibility: 0.9996350407600403
","x: 295.9441223144531
y: 353.5179443359375
z: -0.1223239153623581
visibility: 0.9655489921569824
","x: 240.53152465820312
y: 329.694580078125
z: -0.19105777144432068
visibility: 0.890786349773407
","x: 286.8394775390625
y: 330.35394287109375
z: -0.28716549277305603
visibility: 0.9464576244354248
","x: 255.1998748779297
y: 330.9933776855469
z: -0.35605373978614807
visibility: 0.8696926832199097
","x: 282.9444580078125
y: 320.6895751953125
z: -0.3281436562538147
visibility: 0.9069715142250061
","x: 258.9801940917969
y: 332.86541748046875
z: -0.3926055431365967
visibility: 0.8020934462547302
","x: 282.28839111328125
y: 317.935791015625
z: -0.3144969046115875
visibility: 0.9068681597709656
","x: 261.3082275390625
y: 329.90277099609375
z: -0.38984185457229614
visibility: 0.8016085624694824
","x: 282.97027587890625
y: 318.60089111328125
z: -0.2869987487792969
visibility: 0.8685464859008789
","x: 260.2933654785156
y: 329.9630126953125
z: -0.3581649959087372
visibility: 0.767296552658081
","x: 273.6563720703125
y: 397.18115234375
z: 0.01755872182548046
visibility: 0.9998395442962646
","x: 256.3124694824219
y: 395.075927734375
z: -0.017615053802728653
visibility: 0.9997424483299255
","x: 272.8653869628906
y: 454.099365234375
z: -0.13396289944648743
visibility: 0.9830704927444458
","x: 258.25958251953125
y: 458.26495361328125
z: -0.006884864531457424
visibility: 0.9730309844017029
","x: 269.97662353515625
y: 504.39154052734375
z: 0.060373805463314056
visibility: 0.9803919196128845
","x: 257.21484375
y: 494.7615966796875
z: 0.24457243084907532
visibility: 0.9135080575942993
","x: 268.09173583984375
y: 509.228515625
z: 0.081122025847435
visibility: 0.8957744240760803
","x: 255.0494384765625
y: 497.3813171386719
z: 0.26715728640556335
visibility: 0.7660448551177979
","x: 268.5414123535156
y: 528.12158203125
z: -0.021334776654839516
visibility: 0.9802603721618652
","x: 254.8009033203125
y: 519.1259155273438
z: 0.18153074383735657
visibility: 0.9316874742507935
",,,,,,,,,,,,,,,,,,,,,,,,,,,,,,,,,,,,,,,,,,
20,"x: 274.5633850097656
y: 283.0758972167969
z: -0.10810713469982147
visibility: 0.9996821284294128
","x: 275.86309814453125
y: 278.1860656738281
z: -0.092386394739151
visibility: 0.999419093132019
","x: 276.7340393066406
y: 278.2656555175781
z: -0.0924091786146164
visibility: 0.9993779063224792
","x: 277.6174621582031
y: 278.3511962890625
z: -0.0924110859632492
visibility: 0.9994075298309326
","x: 273.1318054199219
y: 278.1533508300781
z: -0.10569903999567032
visibility: 0.9993302822113037
","x: 272.0491943359375
y: 278.22821044921875
z: -0.10569493472576141
visibility: 0.999213695526123
","x: 270.9493713378906
y: 278.33428955078125
z: -0.10574855655431747
visibility: 0.9991918206214905
","x: 278.39202880859375
y: 281.2401123046875
z: 0.00885437149554491
visibility: 0.9985674619674683
","x: 268.3425598144531
y: 279.7156982421875
z: -0.05097535252571106
visibility: 0.9991458654403687
","x: 275.8275146484375
y: 289.0643615722656
z: -0.06794044375419617
visibility: 0.9997064471244812
","x: 272.40411376953125
y: 289.3695373535156
z: -0.08507101237773895
visibility: 0.9996703267097473
","x: 284.1820373535156
y: 311.5045471191406
z: 0.06618937104940414
visibility: 0.9998135566711426
","x: 255.9724884033203
y: 299.3878479003906
z: -0.07017237693071365
visibility: 0.9996375441551208
","x: 291.9363098144531
y: 339.6883850097656
z: -0.042835451662540436
visibility: 0.9408259987831116
","x: 264.2412414550781
y: 321.9274597167969
z: -0.1355152279138565
visibility: 0.8999521136283875
","x: 284.8621826171875
y: 322.404052734375
z: -0.22917091846466064
visibility: 0.9325881004333496
","x: 281.0853576660156
y: 320.2581787109375
z: -0.09531048685312271
visibility: 0.8724961876869202
","x: 284.5520324707031
y: 317.99090576171875
z: -0.26639559864997864
visibility: 0.8931341171264648
","x: 285.56396484375
y: 323.7250061035156
z: -0.11054252088069916
visibility: 0.8010155558586121
","x: 281.93048095703125
y: 314.2941589355469
z: -0.26414716243743896
visibility: 0.8936775922775269
","x: 287.15716552734375
y: 324.3067932128906
z: -0.11084389686584473
visibility: 0.799893856048584
","x: 281.900390625
y: 317.6129150390625
z: -0.23500089347362518
visibility: 0.8563106656074524
","x: 285.4493408203125
y: 325.0023193359375
z: -0.0935334712266922
visibility: 0.7643864750862122
","x: 273.78076171875
y: 393.2194519042969
z: 0.0308147631585598
visibility: 0.9998455047607422
","x: 256.79949951171875
y: 390.4064636230469
z: -0.030751850455999374
visibility: 0.9997515082359314
","x: 273.3443603515625
y: 454.61505126953125
z: -0.044201403856277466
visibility: 0.9830126166343689
","x: 261.3895263671875
y: 454.7196960449219
z: -0.05882692337036133
visibility: 0.974602222442627
","x: 271.03399658203125
y: 497.733154296875
z: 0.1643693447113037
visibility: 0.9781586527824402
","x: 261.9185791015625
y: 499.9978332519531
z: 0.1300262212753296
visibility: 0.920177698135376
","x: 267.8802185058594
y: 501.14666748046875
z: 0.18212750554084778
visibility: 0.8913835883140564
","x: 261.2517395019531
y: 504.8511962890625
z: 0.14541392028331757
visibility: 0.7737085819244385
","x: 272.2088928222656
y: 522.3457641601562
z: 0.10890284925699234
visibility: 0.978089451789856
","x: 262.53887939453125
y: 527.5756225585938
z: 0.06079347804188728
visibility: 0.9360792636871338
",,,,,,,,,,,,,,,,,,,,,,,,,,,,,,,,,,,,,,,,,,
21,"x: 275.19268798828125
y: 282.60919189453125
z: -0.11263296753168106
visibility: 0.9996823668479919
","x: 276.1636047363281
y: 277.586669921875
z: -0.09803374856710434
visibility: 0.9994261264801025
","x: 277.0494079589844
y: 277.61590576171875
z: -0.0980866551399231
visibility: 0.9993799328804016
","x: 277.9593200683594
y: 277.6654052734375
z: -0.09811665862798691
visibility: 0.9994165301322937
","x: 273.21051025390625
y: 277.70819091796875
z: -0.11082969605922699
visibility: 0.9993377327919006
","x: 271.9334716796875
y: 277.8021545410156
z: -0.11083997786045074
visibility: 0.9992172122001648
","x: 270.663330078125
y: 277.90631103515625
z: -0.11089949309825897
visibility: 0.9991869926452637
","x: 278.6396179199219
y: 280.65301513671875
z: -0.005069806706160307
visibility: 0.9986005425453186
","x: 267.9605712890625
y: 279.408203125
z: -0.06315462291240692
visibility: 0.9991466999053955
","x: 276.6091613769531
y: 288.33233642578125
z: -0.07587426900863647
visibility: 0.9997060894966125
","x: 273.04345703125
y: 288.5628967285156
z: -0.09299760311841965
visibility: 0.9996699690818787
","x: 284.3085632324219
y: 312.09051513671875
z: 0.05904518440365791
visibility: 0.9998106360435486
","x: 255.8291778564453
y: 301.02734375
z: -0.06489729881286621
visibility: 0.999627947807312
","x: 289.5740051269531
y: 350.6422424316406
z: -0.014148222282528877
visibility: 0.9407495856285095
","x: 256.0408630371094
y: 337.8506164550781
z: -0.16429239511489868
visibility: 0.9053324460983276
","x: 284.0605163574219
y: 323.38970947265625
z: -0.17354613542556763
visibility: 0.9379496574401855
","x: 273.8776550292969
y: 317.2180480957031
z: -0.31563714146614075
visibility: 0.881939172744751
","x: 283.0502014160156
y: 318.27264404296875
z: -0.2036134898662567
visibility: 0.901167631149292
","x: 274.4473876953125
y: 313.3519287109375
z: -0.35016027092933655
visibility: 0.8153369426727295
","x: 282.381103515625
y: 313.586669921875
z: -0.2016134262084961
visibility: 0.9016434550285339
","x: 270.53076171875
y: 308.147705078125
z: -0.3498383164405823
visibility: 0.8139190077781677
","x: 282.2620849609375
y: 315.757080078125
z: -0.17711523175239563
visibility: 0.8667686581611633
","x: 271.5592956542969
y: 311.2936706542969
z: -0.3186948895454407
visibility: 0.7789163589477539
","x: 274.8904113769531
y: 394.9482421875
z: 0.04465103894472122
visibility: 0.9997561573982239
","x: 258.96563720703125
y: 392.017578125
z: -0.044640570878982544
visibility: 0.9995926022529602
","x: 273.69818115234375
y: 460.53173828125
z: 0.007239469327032566
visibility: 0.9758374094963074
","x: 265.0149230957031
y: 456.7068786621094
z: -0.0706622451543808
visibility: 0.9725881218910217
","x: 263.40631103515625
y: 508.57366943359375
z: 0.11378216743469238
visibility: 0.9704407453536987
","x: 263.8192443847656
y: 507.2209167480469
z: 0.064085952937603
visibility: 0.9200708270072937
","x: 257.3449401855469
y: 520.9056396484375
z: 0.12282536923885345
visibility: 0.8886967301368713
","x: 262.66650390625
y: 514.740234375
z: 0.07333292067050934
visibility: 0.7725396752357483
","x: 270.10772705078125
y: 531.4810791015625
z: 0.043991561979055405
visibility: 0.9719264507293701
","x: 270.39013671875
y: 532.4774169921875
z: -0.006569914519786835
visibility: 0.9335528612136841
",,,,,,,,,,,,,,,,,,,,,,,,,,,,,,,,,,,,,,,,,,
22,"x: 279.7430725097656
y: 282.5606994628906
z: -0.07236707210540771
visibility: 0.9997020959854126
","x: 277.9194641113281
y: 277.5940246582031
z: -0.060857344418764114
visibility: 0.9994671940803528
","x: 278.0375061035156
y: 277.62738037109375
z: -0.06088520959019661
visibility: 0.9994229078292847
","x: 278.234375
y: 277.66680908203125
z: -0.060895662754774094
visibility: 0.9994600415229797
","x: 276.6263122558594
y: 277.70623779296875
z: -0.08433707058429718
visibility: 0.9993904829025269
","x: 275.73468017578125
y: 277.8042297363281
z: -0.08435417711734772
visibility: 0.999279797077179
","x: 274.7300720214844
y: 277.91204833984375
z: -0.08441358804702759
visibility: 0.9992544651031494
","x: 276.3660888671875
y: 280.7340393066406
z: 0.0018184594810009003
visibility: 0.9986990094184875
","x: 270.3874206542969
y: 280.3619079589844
z: -0.09258686006069183
visibility: 0.9992177486419678
","x: 279.7671203613281
y: 288.2705993652344
z: -0.04711408168077469
visibility: 0.9997246265411377
","x: 277.8924560546875
y: 288.5412902832031
z: -0.0775022804737091
visibility: 0.9996961951255798
","x: 282.97125244140625
y: 315.8218994140625
z: 0.07512735575437546
visibility: 0.9997929930686951
","x: 258.9810485839844
y: 311.26507568359375
z: -0.1273431032896042
visibility: 0.9996549487113953
","x: 290.08648681640625
y: 360.51824951171875
z: 0.028541291132569313
visibility: 0.8914083242416382
","x: 255.3197784423828
y: 357.0849304199219
z: -0.1719486266374588
visibility: 0.9089389443397522
","x: 290.95111083984375
y: 335.1070861816406
z: -0.1144312396645546
visibility: 0.9033327698707581
","x: 269.81744384765625
y: 346.2994384765625
z: -0.19096174836158752
visibility: 0.8780366778373718
","x: 289.90509033203125
y: 330.00872802734375
z: -0.13605958223342896
visibility: 0.8648824691772461
","x: 272.8460998535156
y: 343.5809326171875
z: -0.20859679579734802
visibility: 0.8120307326316833
","x: 289.5211486816406
y: 323.79705810546875
z: -0.13420499861240387
visibility: 0.8649424314498901
","x: 272.87005615234375
y: 334.182861328125
z: -0.20728905498981476
visibility: 0.8084874749183655
","x: 289.0166931152344
y: 325.1815490722656
z: -0.11878862231969833
visibility: 0.8285908699035645
","x: 271.7828063964844
y: 336.1087341308594
z: -0.18867525458335876
visibility: 0.7680753469467163
","x: 273.8902587890625
y: 403.64605712890625
z: 0.06820812821388245
visibility: 0.999499499797821
","x: 265.64739990234375
y: 404.8777770996094
z: -0.0681975930929184
visibility: 0.9994912147521973
","x: 267.164794921875
y: 462.83697509765625
z: 0.1607348769903183
visibility: 0.94288569688797
","x: 271.5164489746094
y: 467.5536804199219
z: -0.0561804473400116
visibility: 0.9733927249908447
","x: 258.29754638671875
y: 508.6308288574219
z: 0.2714824378490448
visibility: 0.9582727551460266
","x: 270.01751708984375
y: 527.1995849609375
z: -0.003448141273111105
visibility: 0.9257853627204895
","x: 253.55813598632812
y: 520.6580200195312
z: 0.27937382459640503
visibility: 0.8824058771133423
","x: 265.84429931640625
y: 534.4218139648438
z: -0.0024812263436615467
visibility: 0.7882084846496582
","x: 266.95654296875
y: 530.4602661132812
z: 0.23620574176311493
visibility: 0.9645438194274902
","x: 281.921875
y: 542.0054931640625
z: -0.07183779776096344
visibility: 0.9370692372322083
",,,,,,,,,,,,,,,,,,,,,,,,,,,,,,,,,,,,,,,,,,
23,"x: 282.1976623535156
y: 274.72882080078125
z: -0.039010267704725266
visibility: 0.9991598725318909
","x: 279.15966796875
y: 269.4540710449219
z: -0.03238862380385399
visibility: 0.998772919178009
","x: 278.6778869628906
y: 269.4463806152344
z: -0.03241138905286789
visibility: 0.9985008239746094
","x: 278.35125732421875
y: 269.50701904296875
z: -0.032419852912425995
visibility: 0.9987380504608154
","x: 279.5634460449219
y: 269.8984375
z: -0.058464329689741135
visibility: 0.9989338517189026
","x: 279.31378173828125
y: 270.1402893066406
z: -0.05851786211133003
visibility: 0.998829185962677
","x: 279.0694885253906
y: 270.403076171875
z: -0.05860641598701477
visibility: 0.9988900423049927
","x: 275.77197265625
y: 273.28924560546875
z: 0.00826034415513277
visibility: 0.997181236743927
","x: 275.6921691894531
y: 273.73968505859375
z: -0.1042589396238327
visibility: 0.9985659122467041
","x: 280.9256286621094
y: 280.66510009765625
z: -0.0205782949924469
visibility: 0.9980349540710449
","x: 281.1256408691406
y: 281.146728515625
z: -0.05460026115179062
visibility: 0.998388946056366
","x: 270.1197509765625
y: 306.75408935546875
z: 0.09993267059326172
visibility: 0.9977191686630249
","x: 275.4184875488281
y: 309.09588623046875
z: -0.16451092064380646
visibility: 0.9994646310806274
","x: 277.98291015625
y: 331.6604309082031
z: 0.22383959591388702
visibility: 0.8037186861038208
","x: 282.5253601074219
y: 352.0604248046875
z: -0.16617926955223083
visibility: 0.8986506462097168
","x: 290.85870361328125
y: 311.9967956542969
z: 0.30280500650405884
visibility: 0.8158088326454163
","x: 292.6111145019531
y: 322.73077392578125
z: 0.03227882459759712
visibility: 0.835715115070343
","x: 286.7336120605469
y: 309.0592346191406
z: 0.31965067982673645
visibility: 0.782686173915863
","x: 294.8480529785156
y: 318.880615234375
z: 0.03505117818713188
visibility: 0.7755404710769653
","x: 286.3479919433594
y: 304.98236083984375
z: 0.3085927665233612
visibility: 0.7829402685165405
","x: 292.3247375488281
y: 312.67877197265625
z: 0.032598234713077545
visibility: 0.7705614566802979
","x: 286.2442626953125
y: 305.8337707519531
z: 0.2981753945350647
visibility: 0.7508329153060913
","x: 290.484375
y: 314.33636474609375
z: 0.03609365597367287
visibility: 0.7276138663291931
","x: 268.6466064453125
y: 403.0356140136719
z: 0.08573715388774872
visibility: 0.9992128610610962
","x: 271.5218811035156
y: 403.7640686035156
z: -0.08577144891023636
visibility: 0.9993089437484741
","x: 267.57208251953125
y: 457.6901550292969
z: 0.18425936996936798
visibility: 0.8748373985290527
","x: 274.8948669433594
y: 465.48773193359375
z: -0.052982427179813385
visibility: 0.9708414673805237
","x: 264.6001892089844
y: 508.6758728027344
z: 0.30717718601226807
visibility: 0.9234740138053894
","x: 266.5226745605469
y: 525.9517211914062
z: 0.03497479110956192
visibility: 0.9310914874076843
","x: 261.3223876953125
y: 520.21044921875
z: 0.3174164593219757
visibility: 0.8576902747154236
","x: 263.3475341796875
y: 534.4864501953125
z: 0.040397562086582184
visibility: 0.8026084899902344
","x: 277.293212890625
y: 526.1458740234375
z: 0.29284390807151794
visibility: 0.9457774758338928
","x: 276.8041076660156
y: 541.9393310546875
z: -0.017224831506609917
visibility: 0.9402252435684204
",,,,,,,,,,,,,,,,,,,,,,,,,,,,,,,,,,,,,,,,,,
24,"x: 276.72613525390625
y: 274.25579833984375
z: 0.10647705942392349
visibility: 0.9987052083015442
","x: 273.9286193847656
y: 269.0340576171875
z: 0.08127790689468384
visibility: 0.9982941150665283
","x: 272.3557434082031
y: 269.169677734375
z: 0.08125610649585724
visibility: 0.9980266094207764
","x: 270.9112548828125
y: 269.378662109375
z: 0.08128423988819122
visibility: 0.9980901479721069
","x: 277.5856628417969
y: 268.9006652832031
z: 0.08029399067163467
visibility: 0.9984612464904785
","x: 277.0832824707031
y: 268.9889831542969
z: 0.08026626706123352
visibility: 0.9983469843864441
","x: 277.4313049316406
y: 269.1181335449219
z: 0.08014530688524246
visibility: 0.9982122778892517
","x: 269.67645263671875
y: 272.9998474121094
z: 0.006224455777555704
visibility: 0.996138870716095
","x: 278.14642333984375
y: 272.7857360839844
z: -5.607463390333578e-05
visibility: 0.9980258345603943
","x: 273.76629638671875
y: 279.52886962890625
z: 0.08481715619564056
visibility: 0.9970806241035461
","x: 278.3759460449219
y: 279.560546875
z: 0.08375333249568939
visibility: 0.9973819851875305
","x: 258.8115234375
y: 303.16033935546875
z: 0.007852908223867416
visibility: 0.9979024529457092
","x: 291.0664978027344
y: 308.92462158203125
z: -0.06428173184394836
visibility: 0.9994465112686157
","x: 241.3524627685547
y: 316.9094543457031
z: 0.05143232271075249
visibility: 0.8231490254402161
","x: 305.5848693847656
y: 345.0421447753906
z: 0.04370938241481781
visibility: 0.9065945148468018
","x: 245.8040771484375
y: 334.28515625
z: 0.16352131962776184
visibility: 0.8002341389656067
","x: 297.4599304199219
y: 327.07269287109375
z: 0.2550410032272339
visibility: 0.7673718333244324
","x: 248.2335968017578
y: 338.0934143066406
z: 0.1801716834306717
visibility: 0.7444348335266113
","x: 295.00335693359375
y: 327.76690673828125
z: 0.2843717336654663
visibility: 0.7061944007873535
","x: 250.15296936035156
y: 336.6846923828125
z: 0.17987430095672607
visibility: 0.745044469833374
","x: 293.24481201171875
y: 327.9426574707031
z: 0.28227895498275757
visibility: 0.7016222476959229
","x: 250.11611938476562
y: 331.89068603515625
z: 0.16660740971565247
visibility: 0.7114946246147156
","x: 293.1313781738281
y: 327.5745849609375
z: 0.2601904273033142
visibility: 0.6638593077659607
","x: 264.4286804199219
y: 398.48089599609375
z: 0.05471726134419441
visibility: 0.9989240169525146
","x: 280.02734375
y: 402.72467041015625
z: -0.0546099953353405
visibility: 0.9991713762283325
","x: 269.7145690917969
y: 454.4610595703125
z: 0.12739717960357666
visibility: 0.8372440934181213
","x: 276.9055480957031
y: 463.6016845703125
z: -0.009286112152040005
visibility: 0.968840479850769
","x: 273.113037109375
y: 511.3393859863281
z: 0.18958555161952972
visibility: 0.9144625067710876
","x: 268.2080078125
y: 524.5782470703125
z: 0.026404479518532753
visibility: 0.9339016079902649
","x: 274.9485778808594
y: 523.8243408203125
z: 0.1978389322757721
visibility: 0.8596855401992798
","x: 263.6246032714844
y: 531.6729125976562
z: 0.02877872623503208
visibility: 0.8166729807853699
","x: 284.05902099609375
y: 522.696044921875
z: 0.17830827832221985
visibility: 0.9267355799674988
","x: 274.9642639160156
y: 540.385009765625
z: 0.002768091391772032
visibility: 0.9336157441139221
",,,,,,,,,,,,,,,,,,,,,,,,,,,,,,,,,,,,,,,,,,
25,"x: 273.4216003417969
y: 278.9137878417969
z: 0.08114759624004364
visibility: 0.9987182021141052
","x: 270.9932861328125
y: 274.2073669433594
z: 0.055943720042705536
visibility: 0.9982934594154358
","x: 269.5443420410156
y: 275.1696472167969
z: 0.05594594031572342
visibility: 0.9980549812316895
","x: 268.2878723144531
y: 276.0518493652344
z: 0.05598485469818115
visibility: 0.9980586767196655
","x: 277.4015197753906
y: 271.8045349121094
z: 0.05700003355741501
visibility: 0.99845951795578
","x: 275.96954345703125
y: 271.48992919921875
z: 0.05697770044207573
visibility: 0.9983643293380737
","x: 276.4436340332031
y: 271.2988586425781
z: 0.05688367038965225
visibility: 0.9982040524482727
","x: 268.2989807128906
y: 279.3078308105469
z: -0.014327016659080982
visibility: 0.9961938261985779
","x: 278.429931640625
y: 275.3461608886719
z: -0.012638742104172707
visibility: 0.9980252385139465
","x: 271.45086669921875
y: 283.6251220703125
z: 0.061467159539461136
visibility: 0.9971641302108765
","x: 277.08575439453125
y: 282.4399108886719
z: 0.06274126470088959
visibility: 0.9974403381347656
","x: 258.4585876464844
y: 307.6099853515625
z: -0.026027923449873924
visibility: 0.9980803728103638
","x: 294.4898376464844
y: 311.909423828125
z: -0.06241287663578987
visibility: 0.9994896650314331
","x: 250.58755493164062
y: 321.577880859375
z: 0.015074173919856548
visibility: 0.8385754227638245
","x: 311.7437744140625
y: 342.6803894042969
z: 0.009574676863849163
visibility: 0.9145682454109192
","x: 261.4129943847656
y: 358.42413330078125
z: 0.09962158650159836
visibility: 0.7545931935310364
","x: 298.89697265625
y: 345.2618408203125
z: 0.14903298020362854
visibility: 0.7142422795295715
","x: 263.15576171875
y: 363.6846618652344
z: 0.11315830051898956
visibility: 0.6914993524551392
","x: 295.394287109375
y: 356.48681640625
z: 0.16465851664543152
visibility: 0.648483157157898
","x: 264.4827880859375
y: 361.81719970703125
z: 0.11051547527313232
visibility: 0.6917781233787537
","x: 293.56793212890625
y: 356.5365905761719
z: 0.1650679111480713
visibility: 0.6440553069114685
","x: 264.4388122558594
y: 359.90972900390625
z: 0.10177361965179443
visibility: 0.660797119140625
","x: 293.597412109375
y: 354.9311828613281
z: 0.1530231535434723
visibility: 0.609878659248352
","x: 265.33282470703125
y: 401.293701171875
z: 0.0424485057592392
visibility: 0.9989609718322754
","x: 284.17333984375
y: 404.893310546875
z: -0.04326464980840683
visibility: 0.9992409348487854
","x: 269.7831115722656
y: 444.533203125
z: 0.2678590416908264
visibility: 0.8370323181152344
","x: 282.6726379394531
y: 462.85260009765625
z: 0.06391830742359161
visibility: 0.971319854259491
","x: 273.40643310546875
y: 483.1448974609375
z: 0.3496544659137726
visibility: 0.9145074486732483
","x: 280.59771728515625
y: 524.614990234375
z: 0.056657325476408005
visibility: 0.9400760531425476
","x: 274.9346618652344
y: 493.1122131347656
z: 0.3595505356788635
visibility: 0.8694291710853577
","x: 279.2069396972656
y: 535.5079345703125
z: 0.05709570646286011
visibility: 0.8344713449478149
","x: 281.2264404296875
y: 499.9981384277344
z: 0.3704286217689514
visibility: 0.909672200679779
","x: 280.1368713378906
y: 537.6248779296875
z: 0.015809545293450356
visibility: 0.9363378882408142
",,,,,,,,,,,,,,,,,,,,,,,,,,,,,,,,,,,,,,,,,,
26,"x: 264.1264343261719
y: 296.408447265625
z: 0.09574172645807266
visibility: 0.998826801776886
","x: 264.04925537109375
y: 290.77960205078125
z: 0.07344209402799606
visibility: 0.9984408617019653
","x: 263.75146484375
y: 290.781005859375
z: 0.0734226256608963
visibility: 0.9982287287712097
","x: 263.4710388183594
y: 290.91802978515625
z: 0.07337333261966705
visibility: 0.998225212097168
","x: 266.43902587890625
y: 289.916259765625
z: 0.09146251529455185
visibility: 0.9985910654067993
","x: 267.1057434082031
y: 289.23980712890625
z: 0.09145671874284744
visibility: 0.9985088109970093
","x: 268.25482177734375
y: 288.60211181640625
z: 0.09143932163715363
visibility: 0.9983609914779663
","x: 266.42425537109375
y: 290.9908752441406
z: -0.0011119818082079291
visibility: 0.9965452551841736
","x: 274.67083740234375
y: 287.9012145996094
z: 0.08326982706785202
visibility: 0.9982008934020996
","x: 265.1414794921875
y: 300.3528137207031
z: 0.07340618968009949
visibility: 0.9974052906036377
","x: 267.71600341796875
y: 299.8155517578125
z: 0.0975237488746643
visibility: 0.9976573586463928
","x: 263.8236389160156
y: 315.1602783203125
z: -0.0693531185388565
visibility: 0.9982643723487854
","x: 290.3022155761719
y: 316.46258544921875
z: 0.10668202489614487
visibility: 0.9995303153991699
","x: 262.7209167480469
y: 351.0328674316406
z: -0.10109756141901016
visibility: 0.8414751291275024
","x: 300.0301513671875
y: 356.75604248046875
z: 0.15077248215675354
visibility: 0.8896085023880005
","x: 264.71966552734375
y: 371.4783935546875
z: -0.034594617784023285
visibility: 0.6947408318519592
","x: 293.7694396972656
y: 374.5889587402344
z: 0.17348283529281616
visibility: 0.6497167944908142
","x: 265.3283386230469
y: 374.879638671875
z: -0.013349953107535839
visibility: 0.6401168704032898
","x: 293.33148193359375
y: 379.04241943359375
z: 0.1895643025636673
visibility: 0.5911632776260376
","x: 266.9891052246094
y: 371.31591796875
z: 0.08833244442939758
visibility: 0.6401346325874329
","x: 290.9908447265625
y: 377.7000427246094
z: 0.18180111050605774
visibility: 0.586823046207428
","x: 267.35894775390625
y: 370.4227294921875
z: -0.00869467481970787
visibility: 0.6097131967544556
","x: 290.6528015136719
y: 376.02655029296875
z: 0.1709035336971283
visibility: 0.5562329888343811
","x: 266.50018310546875
y: 405.63677978515625
z: -0.06629939377307892
visibility: 0.999062716960907
","x: 285.9786071777344
y: 405.1483154296875
z: 0.06591715663671494
visibility: 0.999306857585907
","x: 268.65899658203125
y: 460.27484130859375
z: 0.03402189165353775
visibility: 0.8531251549720764
","x: 278.9397277832031
y: 451.15118408203125
z: 0.16712890565395355
visibility: 0.9691036939620972
","x: 278.0420227050781
y: 506.4463806152344
z: -0.16353823244571686
visibility: 0.9230053424835205
","x: 292.6769714355469
y: 487.9600830078125
z: -0.008889797143638134
visibility: 0.9451491832733154
","x: 280.96075439453125
y: 510.25128173828125
z: -0.1813088059425354
visibility: 0.8824611902236938
","x: 295.6307373046875
y: 489.11474609375
z: -0.027061274275183678
visibility: 0.8505538702011108
","x: 280.9730529785156
y: 522.0966186523438
z: -0.2028898000717163
visibility: 0.9184409976005554
","x: 294.2498474121094
y: 516.7402954101562
z: -0.04412540793418884
visibility: 0.9402308464050293
",,,,,,,,,,,,,,,,,,,,,,,,,,,,,,,,,,,,,,,,,,
27,"x: 259.9901123046875
y: 283.2374267578125
z: -0.12342806160449982
visibility: 0.9977709650993347
","x: 262.57440185546875
y: 278.7310485839844
z: -0.13690225780010223
visibility: 0.9975181818008423
","x: 263.36358642578125
y: 278.85369873046875
z: -0.13696333765983582
visibility: 0.9975323677062988
","x: 264.13885498046875
y: 278.93609619140625
z: -0.13705429434776306
visibility: 0.9976194500923157
","x: 261.8824768066406
y: 278.11529541015625
z: -0.10851583629846573
visibility: 0.997416615486145
","x: 262.1068420410156
y: 277.84423828125
z: -0.10852427780628204
visibility: 0.9973685145378113
","x: 262.4777526855469
y: 277.4512939453125
z: -0.10855527967214584
visibility: 0.9972789883613586
","x: 268.1899719238281
y: 281.5434875488281
z: -0.15441586077213287
visibility: 0.9963211417198181
","x: 269.0914306640625
y: 278.9832763671875
z: 0.0020807376131415367
visibility: 0.9961482286453247
","x: 262.41937255859375
y: 290.33209228515625
z: -0.12697017192840576
visibility: 0.9968777894973755
","x: 261.2533264160156
y: 289.25830078125
z: -0.08991877734661102
visibility: 0.9962111115455627
","x: 269.675048828125
y: 309.748779296875
z: -0.1744849979877472
visibility: 0.9984091520309448
","x: 276.75054931640625
y: 306.521728515625
z: 0.05611316114664078
visibility: 0.9992204904556274
","x: 289.3424072265625
y: 343.17950439453125
z: -0.19670821726322174
visibility: 0.8553098440170288
","x: 288.0157470703125
y: 354.81121826171875
z: 0.10792507231235504
visibility: 0.8019660115242004
","x: 287.8984375
y: 374.5739440917969
z: -0.18763118982315063
visibility: 0.7085480690002441
","x: 284.3067932128906
y: 365.8250732421875
z: 0.051728684455156326
visibility: 0.587378978729248
","x: 289.0647888183594
y: 381.1314697265625
z: -0.20922283828258514
visibility: 0.6517018675804138
","x: 281.17486572265625
y: 371.2586669921875
z: 0.05069340392947197
visibility: 0.5366013050079346
","x: 287.0042419433594
y: 378.54833984375
z: -0.20360097289085388
visibility: 0.6507047414779663
","x: 278.89794921875
y: 370.0654602050781
z: 0.04066140204668045
visibility: 0.532962441444397
","x: 286.57696533203125
y: 376.2207336425781
z: -0.1851458102464676
visibility: 0.6141168475151062
","x: 279.4786071777344
y: 368.3389587402344
z: 0.04408431798219681
visibility: 0.5056561231613159
","x: 272.42718505859375
y: 391.9572448730469
z: -0.07434888184070587
visibility: 0.9989765286445618
","x: 281.4496765136719
y: 389.4034423828125
z: 0.07443587481975555
visibility: 0.9987276196479797
","x: 268.2340393066406
y: 452.4121398925781
z: -0.10420697927474976
visibility: 0.8638530969619751
","x: 267.3717956542969
y: 446.5528869628906
z: 0.07791890949010849
visibility: 0.9249166250228882
","x: 281.0225524902344
y: 511.2221984863281
z: -0.08618690818548203
visibility: 0.9293505549430847
","x: 290.87921142578125
y: 496.3157653808594
z: 0.06452973186969757
visibility: 0.9238900542259216
","x: 285.57586669921875
y: 518.43603515625
z: -0.08793666958808899
visibility: 0.891747236251831
","x: 281.70513916015625
y: 496.9806213378906
z: 0.060214292258024216
visibility: 0.8380595445632935
","x: 275.5257263183594
y: 522.1495361328125
z: -0.15940119326114655
visibility: 0.9245361685752869
","x: 269.6025695800781
y: 514.6283569335938
z: -0.004443873651325703
visibility: 0.9301457405090332
",,,,,,,,,,,,,,,,,,,,,,,,,,,,,,,,,,,,,,,,,,
28,"x: 265.39923095703125
y: 284.7827453613281
z: -0.2569907009601593
visibility: 0.9979585409164429
","x: 269.1947326660156
y: 279.6112060546875
z: -0.24575138092041016
visibility: 0.9976498484611511
","x: 270.5728454589844
y: 279.65142822265625
z: -0.24579429626464844
visibility: 0.9976506233215332
","x: 271.8203430175781
y: 279.66839599609375
z: -0.24585497379302979
visibility: 0.997738242149353
","x: 263.1045837402344
y: 278.7447204589844
z: -0.24925312399864197
visibility: 0.9975656270980835
","x: 264.3131408691406
y: 278.2027282714844
z: -0.24928292632102966
visibility: 0.9975215196609497
","x: 265.30633544921875
y: 277.60906982421875
z: -0.2493070811033249
visibility: 0.99745112657547
","x: 273.3353271484375
y: 281.5508728027344
z: -0.15941253304481506
visibility: 0.9965136051177979
","x: 266.09783935546875
y: 279.0716247558594
z: -0.17268887162208557
visibility: 0.9963241815567017
","x: 267.3933410644531
y: 290.7126770019531
z: -0.22175824642181396
visibility: 0.9971590638160706
","x: 264.38916015625
y: 289.8305358886719
z: -0.22648057341575623
visibility: 0.996548056602478
","x: 281.85968017578125
y: 309.9742736816406
z: -0.10365328937768936
visibility: 0.9985587000846863
","x: 254.1328582763672
y: 308.70062255859375
z: -0.08860455453395844
visibility: 0.9992571473121643
","x: 297.66168212890625
y: 343.26220703125
z: -0.13428433239459991
visibility: 0.866955578327179
","x: 255.53732299804688
y: 352.1451110839844
z: -0.02692575380206108
visibility: 0.8037000894546509
","x: 291.9064025878906
y: 372.61517333984375
z: -0.13249894976615906
visibility: 0.7173253893852234
","x: 256.87896728515625
y: 371.0890197753906
z: -0.08382219076156616
visibility: 0.601195216178894
","x: 290.2764892578125
y: 379.6458435058594
z: -0.15674988925457
visibility: 0.6512078046798706
","x: 257.94036865234375
y: 377.3324279785156
z: -0.10495162010192871
visibility: 0.5505443215370178
","x: 288.1168518066406
y: 376.9656066894531
z: -0.17257298529148102
visibility: 0.6515519022941589
","x: 257.9610900878906
y: 379.993408203125
z: -0.12980644404888153
visibility: 0.5490856170654297
","x: 288.3076477050781
y: 373.7994079589844
z: -0.13955843448638916
visibility: 0.61516273021698
","x: 258.3547668457031
y: 373.9096374511719
z: -0.09465284645557404
visibility: 0.5212824940681458
","x: 280.17620849609375
y: 393.91864013671875
z: -0.030501946806907654
visibility: 0.9989327192306519
","x: 268.1103820800781
y: 391.9076232910156
z: 0.030309181660413742
visibility: 0.9986728429794312
","x: 279.3095703125
y: 454.35809326171875
z: -0.0034198202192783356
visibility: 0.8748419284820557
","x: 267.24078369140625
y: 454.1081237792969
z: 0.05719101428985596
visibility: 0.9258193969726562
","x: 284.39410400390625
y: 507.586669921875
z: 0.19529831409454346
visibility: 0.9319772720336914
","x: 285.82391357421875
y: 504.2957763671875
z: 0.21358127892017365
visibility: 0.9275118708610535
