uscmakers/ReverseChoreography/data/7_good_4_u_olivia_rodrigo.csv
,NOSE,LEFT_EYE_INNER,LEFT_EYE,LEFT_EYE_OUTER,RIGHT_EYE_INNER,RIGHT_EYE,RIGHT_EYE_OUTER,LEFT_EAR,RIGHT_EAR,MOUTH_LEFT,MOUTH_RIGHT,LEFT_SHOULDER,RIGHT_SHOULDER,LEFT_ELBOW,RIGHT_ELBOW,LEFT_WRIST,RIGHT_WRIST,LEFT_PINKY,RIGHT_PINKY,LEFT_INDEX,RIGHT_INDEX,LEFT_THUMB,RIGHT_THUMB,LEFT_HIP,RIGHT_HIP,LEFT_KNEE,RIGHT_KNEE,LEFT_ANKLE,RIGHT_ANKLE,LEFT_HEEL,RIGHT_HEEL,LEFT_FOOT_INDEX,RIGHT_FOOT_INDEX,WRIST,THUMB_CPC,THUMB_MCP,THUMB_IP,THUMB_TIP,INDEX_FINGER_MCP,INDEX_FINGER_PIP,INDEX_FINGER_DIP,INDEX_FINGER_TIP,MIDDLE_FINGER_MCP,MIDDLE_FINGER_PIP,MIDDLE_FINGER_DIP,MIDDLE_FINGER_TIP,RING_FINGER_PIP,RING_FINGER_DIP,RING_FINGER_TIP,RING_FINGER_MCP,PINKY_MCP,PINKY_PIP,PINKY_DIP,PINKY_TIP,WRIST2,THUMB_CPC2,THUMB_MCP2,THUMB_IP2,THUMB_TIP2,INDEX_FINGER_MCP2,INDEX_FINGER_PIP2,INDEX_FINGER_DIP2,INDEX_FINGER_TIP2,MIDDLE_FINGER_MCP2,MIDDLE_FINGER_PIP2,MIDDLE_FINGER_DIP2,MIDDLE_FINGER_TIP2,RING_FINGER_PIP2,RING_FINGER_DIP2,RING_FINGER_TIP2,RING_FINGER_MCP2,PINKY_MCP2,PINKY_PIP2,PINKY_DIP2,PINKY_TIP2
0,"x: 272.5676574707031
y: 283.5411376953125
z: -0.1729666143655777
visibility: 0.9959206581115723
","x: 274.674072265625
y: 280.4425354003906
z: -0.15634161233901978
visibility: 0.989058792591095
","x: 275.7286376953125
y: 280.9925231933594
z: -0.15637074410915375
visibility: 0.9852272272109985
","x: 276.7884826660156
y: 281.5273742675781
z: -0.1564020812511444
visibility: 0.9862076044082642
","x: 271.8664245605469
y: 279.83599853515625
z: -0.16072334349155426
visibility: 0.9897796511650085
","x: 270.909912109375
y: 280.025146484375
z: -0.1607254147529602
visibility: 0.9886024594306946
","x: 270.052734375
y: 280.2564697265625
z: -0.16078659892082214
visibility: 0.9914777874946594
","x: 278.682373046875
y: 285.48486328125
z: -0.06336767971515656
visibility: 0.9716477394104004
","x: 269.6316833496094
y: 284.4365234375
z: -0.08501332253217697
visibility: 0.9730415940284729
","x: 274.53955078125
y: 289.93182373046875
z: -0.13811981678009033
visibility: 0.9911009669303894
","x: 270.607666015625
y: 289.333251953125
z: -0.1446712613105774
visibility: 0.9947951436042786
","x: 284.4569091796875
y: 317.0864562988281
z: -0.02594018541276455
visibility: 0.9950231313705444
","x: 257.64752197265625
y: 310.3154296875
z: -0.060837507247924805
visibility: 0.9988534450531006
","x: 286.2535705566406
y: 348.53326416015625
z: -0.04306551441550255
visibility: 0.5115451812744141
","x: 250.06654357910156
y: 341.61883544921875
z: -0.1469295620918274
visibility: 0.9679242968559265
","x: 276.7685546875
y: 350.6251525878906
z: -0.1324368566274643
visibility: 0.5123881697654724
","x: 266.5830078125
y: 346.2529296875
z: -0.26685386896133423
visibility: 0.9179255962371826
","x: 274.8757629394531
y: 353.2158203125
z: -0.1569013148546219
visibility: 0.4523838460445404
","x: 270.87744140625
y: 347.7250671386719
z: -0.29897141456604004
visibility: 0.8648546934127808
","x: 274.68798828125
y: 349.8037414550781
z: -0.16267052292823792
visibility: 0.4537922739982605
","x: 271.1869812011719
y: 346.90240478515625
z: -0.29602307081222534
visibility: 0.8614125847816467
","x: 274.7652587890625
y: 349.5093994140625
z: -0.1371842324733734
visibility: 0.42382505536079407
","x: 270.69378662109375
y: 346.4500427246094
z: -0.26824572682380676
visibility: 0.8216434121131897
","x: 279.1528015136719
y: 401.7756652832031
z: 0.009131659753620625
visibility: 0.9993556141853333
","x: 264.98583984375
y: 402.6741943359375
z: -0.009183810092508793
visibility: 0.9996715784072876
","x: 289.7216796875
y: 448.01141357421875
z: -0.021380845457315445
visibility: 0.9596355557441711
","x: 269.1663513183594
y: 457.4820556640625
z: -0.0009704233380034566
visibility: 0.9626312851905823
","x: 288.93621826171875
y: 465.1493835449219
z: 0.3030129075050354
visibility: 0.6720200181007385
","x: 271.1979675292969
y: 503.6627197265625
z: 0.1838429719209671
visibility: 0.9507291913032532
","x: 286.64569091796875
y: 461.68890380859375
z: 0.33532389998435974
visibility: 0.4551553726196289
","x: 270.9505310058594
y: 507.8691101074219
z: 0.20036575198173523
visibility: 0.6899347305297852
","x: 289.4245300292969
y: 487.5831298828125
z: 0.29543039202690125
visibility: 0.7534760236740112
","x: 274.0479736328125
y: 515.984619140625
z: 0.12102721631526947
visibility: 0.9367945194244385
",,,,,,,,,,,,,,,,,,,,,,,,,,,,,,,,,,,,,,,,,,
1,"x: 268.47430419921875
y: 291.8694152832031
z: -0.2520551085472107
visibility: 0.9958845973014832
","x: 270.1160888671875
y: 286.4169921875
z: -0.24171152710914612
visibility: 0.9884992837905884
","x: 271.3132019042969
y: 286.40521240234375
z: -0.24174635112285614
visibility: 0.9851376414299011
","x: 272.5282287597656
y: 286.46734619140625
z: -0.24177393317222595
visibility: 0.9859223961830139
","x: 266.6810302734375
y: 286.85980224609375
z: -0.24162118136882782
visibility: 0.9892020225524902
","x: 265.4979553222656
y: 287.182373046875
z: -0.2416570484638214
visibility: 0.9882029891014099
","x: 264.3206481933594
y: 287.5080261230469
z: -0.24172091484069824
visibility: 0.9908351898193359
","x: 274.242431640625
y: 289.22467041015625
z: -0.16391026973724365
visibility: 0.968732476234436
","x: 262.80975341796875
y: 289.4051208496094
z: -0.16459622979164124
visibility: 0.9715498685836792
","x: 270.52484130859375
y: 296.89453125
z: -0.22143879532814026
visibility: 0.990520179271698
","x: 266.54962158203125
y: 297.42962646484375
z: -0.22168782353401184
visibility: 0.9940694570541382
","x: 281.220947265625
y: 319.8678894042969
z: -0.10711552947759628
visibility: 0.9952013492584229
","x: 253.49595642089844
y: 317.9781799316406
z: -0.10579843819141388
visibility: 0.9988404512405396
","x: 278.9663391113281
y: 359.70745849609375
z: -0.0826139897108078
visibility: 0.5320733785629272
","x: 250.17343139648438
y: 361.39764404296875
z: -0.0836012214422226
visibility: 0.9620195627212524
","x: 268.998291015625
y: 384.2239990234375
z: -0.15697839856147766
visibility: 0.5188445448875427
","x: 256.9329833984375
y: 394.20758056640625
z: -0.14495040476322174
visibility: 0.8982491493225098
","x: 266.453369140625
y: 393.1530456542969
z: -0.17923960089683533
visibility: 0.4578530788421631
","x: 257.24249267578125
y: 404.4814453125
z: -0.16808979213237762
visibility: 0.8410434126853943
","x: 264.74029541015625
y: 389.53851318359375
z: -0.19600021839141846
visibility: 0.46067869663238525
","x: 258.73992919921875
y: 403.024658203125
z: -0.18183937668800354
visibility: 0.8386467099189758
","x: 265.1155090332031
y: 386.24884033203125
z: -0.16517958045005798
visibility: 0.4288570284843445
","x: 259.481689453125
y: 398.62115478515625
z: -0.15190108120441437
visibility: 0.8001965880393982
","x: 273.4292907714844
y: 397.4691467285156
z: 0.00822707824409008
visibility: 0.9990379810333252
","x: 258.6983947753906
y: 396.57000732421875
z: -0.0082778949290514
visibility: 0.9994468688964844
","x: 273.9106140136719
y: 449.18585205078125
z: 0.022770125418901443
visibility: 0.9492875933647156
","x: 263.0821838378906
y: 450.678955078125
z: -0.009146558120846748
visibility: 0.958050549030304
","x: 268.825439453125
y: 489.0022277832031
z: 0.18450257182121277
visibility: 0.6904770731925964
","x: 260.31280517578125
y: 497.6875305175781
z: 0.13565325736999512
visibility: 0.9466207027435303
","x: 266.4394836425781
y: 494.5190734863281
z: 0.1963086873292923
visibility: 0.47098228335380554
","x: 258.7076416015625
y: 504.6057434082031
z: 0.14610180258750916
visibility: 0.6788908839225769
","x: 267.39239501953125
y: 504.2044677734375
z: 0.12144318968057632
visibility: 0.7646435499191284
","x: 260.9814758300781
y: 512.9164428710938
z: 0.05874062702059746
visibility: 0.9326816201210022
",,,,,,,,,,,,,,,,,,,,,,,,,,,,,,,,,,,,,,,,,,
2,"x: 267.6667175292969
y: 290.9859619140625
z: -0.13753613829612732
visibility: 0.9962786436080933
","x: 268.2840576171875
y: 286.9913330078125
z: -0.12451143562793732
visibility: 0.9896012544631958
","x: 269.10760498046875
y: 287.082763671875
z: -0.12454605102539062
visibility: 0.9865756034851074
","x: 269.9801330566406
y: 287.2072448730469
z: -0.12455607950687408
visibility: 0.9872856736183167
","x: 265.6482849121094
y: 287.43963623046875
z: -0.1331464648246765
visibility: 0.9902170896530151
","x: 264.58978271484375
y: 287.862060546875
z: -0.13316969573497772
visibility: 0.9893162250518799
","x: 263.4622802734375
y: 288.2857971191406
z: -0.13322770595550537
visibility: 0.9916772246360779
","x: 270.4605407714844
y: 290.9051208496094
z: -0.049516044557094574
visibility: 0.9717096090316772
","x: 261.1575622558594
y: 290.977783203125
z: -0.09155473113059998
visibility: 0.9742058515548706
","x: 269.1199645996094
y: 296.5059509277344
z: -0.10893608629703522
visibility: 0.9914402961730957
","x: 265.7877502441406
y: 296.97747802734375
z: -0.1204514279961586
visibility: 0.9946297407150269
","x: 277.277099609375
y: 325.1402282714844
z: 0.011626635678112507
visibility: 0.9956647753715515
","x: 251.39608764648438
y: 316.4385986328125
z: -0.08640237897634506
visibility: 0.9989435076713562
","x: 277.9955749511719
y: 363.3770751953125
z: 0.018040550872683525
visibility: 0.5443844795227051
","x: 248.1114044189453
y: 354.955810546875
z: -0.10152268409729004
visibility: 0.9645886421203613
","x: 270.2945251464844
y: 390.8299255371094
z: -0.09782887995243073
visibility: 0.5474293231964111
","x: 240.8141632080078
y: 384.7630615234375
z: -0.17749030888080597
visibility: 0.9065585136413574
","x: 272.5282897949219
y: 401.6473693847656
z: -0.12351346015930176
visibility: 0.4899575114250183
","x: 237.21725463867188
y: 394.4691162109375
z: -0.20598462224006653
visibility: 0.8537178039550781
","x: 270.59259033203125
y: 401.0632629394531
z: -0.14626005291938782
visibility: 0.4936099052429199
","x: 237.79537963867188
y: 394.76953125
z: -0.2198961079120636
visibility: 0.8515546917915344
","x: 267.6147766113281
y: 397.63848876953125
z: -0.11044559627771378
visibility: 0.46108880639076233
","x: 240.05487060546875
y: 391.77471923828125
z: -0.18521668016910553
visibility: 0.81544029712677
","x: 270.1505432128906
y: 401.0906982421875
z: 0.03245818614959717
visibility: 0.9991307258605957
","x: 254.72425842285156
y: 398.49774169921875
z: -0.03248307853937149
visibility: 0.9994931221008301
","x: 279.03955078125
y: 445.50946044921875
z: -0.05900847166776657
visibility: 0.9534657001495361
","x: 247.11561584472656
y: 451.00408935546875
z: -0.010417060926556587
visibility: 0.9613784551620483
","x: 276.1941223144531
y: 488.495849609375
z: 0.06330641359090805
visibility: 0.7201706767082214
","x: 237.33705139160156
y: 496.4007568359375
z: 0.15050216019153595
visibility: 0.9510636925697327
","x: 271.4303894042969
y: 495.6092834472656
z: 0.07294130325317383
visibility: 0.5192006230354309
","x: 233.83819580078125
y: 501.7179870605469
z: 0.16295769810676575
visibility: 0.6938736438751221
","x: 280.5384826660156
y: 507.0880126953125
z: 0.0021073482930660248
visibility: 0.7870275974273682
","x: 239.6135711669922
y: 512.4739990234375
z: 0.08340365439653397
visibility: 0.9379039406776428
",,,,,,,,,,,,,,,,,,,,,,,,,,,,,,,,,,,,,,,,,,
3,"x: 267.7608642578125
y: 296.1584167480469
z: -0.2075924575328827
visibility: 0.9965734481811523
","x: 268.67730712890625
y: 290.344970703125
z: -0.196980819106102
visibility: 0.9902558326721191
","x: 269.5816650390625
y: 290.1507263183594
z: -0.19700118899345398
visibility: 0.9875356554985046
","x: 270.4830017089844
y: 289.9676208496094
z: -0.19700945913791656
visibility: 0.98813396692276
","x: 265.8236389160156
y: 290.8346252441406
z: -0.20318162441253662
visibility: 0.9908379912376404
","x: 264.7958068847656
y: 291.04229736328125
z: -0.20321166515350342
visibility: 0.9900757074356079
","x: 263.7648010253906
y: 291.2914733886719
z: -0.20326006412506104
visibility: 0.9921867847442627
","x: 271.2892150878906
y: 291.8306884765625
z: -0.11338929086923599
visibility: 0.9728860855102539
","x: 261.8125
y: 292.72576904296875
z: -0.14049997925758362
visibility: 0.9760579466819763
","x: 269.3159484863281
y: 301.43499755859375
z: -0.17377090454101562
visibility: 0.9920120239257812
","x: 265.75762939453125
y: 301.73876953125
z: -0.18183718621730804
visibility: 0.9949343204498291
","x: 277.71240234375
y: 324.6751708984375
z: -0.027632299810647964
visibility: 0.9960725903511047
","x: 252.2474365234375
y: 316.5597839355469
z: -0.09974794089794159
visibility: 0.9990362524986267
","x: 279.14453125
y: 361.54254150390625
z: 0.00782893504947424
visibility: 0.5615607500076294
","x: 248.2394256591797
y: 353.3194274902344
z: -0.08555378019809723
visibility: 0.9662826657295227
","x: 283.4462585449219
y: 389.06610107421875
z: -0.06971714645624161
visibility: 0.5621951222419739
","x: 241.48687744140625
y: 382.9611511230469
z: -0.13785144686698914
visibility: 0.912131130695343
","x: 284.4574890136719
y: 397.770751953125
z: -0.08840039372444153
visibility: 0.5022947788238525
","x: 238.4746551513672
y: 390.91436767578125
z: -0.16269251704216003
visibility: 0.8608283400535583
","x: 285.7520446777344
y: 399.6822509765625
z: -0.11488831043243408
visibility: 0.5088818073272705
","x: 239.02374267578125
y: 390.3157043457031
z: -0.1824144423007965
visibility: 0.8594028949737549
","x: 282.89971923828125
y: 394.0057373046875
z: -0.08329381793737411
visibility: 0.4773366153240204
","x: 241.10281372070312
y: 387.944091796875
z: -0.14740502834320068
visibility: 0.8250451683998108
","x: 272.33001708984375
y: 400.7608337402344
z: 0.02538515254855156
visibility: 0.9991822242736816
","x: 257.24951171875
y: 398.959228515625
z: -0.025421500205993652
visibility: 0.9995031356811523
","x: 282.13751220703125
y: 447.311767578125
z: 0.035217560827732086
visibility: 0.9574809670448303
","x: 250.38540649414062
y: 450.0478515625
z: 0.005523311905562878
visibility: 0.9646533131599426
","x: 291.09136962890625
y: 495.61993408203125
z: 0.15326783061027527
visibility: 0.7476456761360168
","x: 236.5217742919922
y: 494.6404724121094
z: 0.15063361823558807
visibility: 0.955322265625
","x: 291.37091064453125
y: 504.04193115234375
z: 0.16152523458003998
visibility: 0.5560411810874939
","x: 233.3357391357422
y: 501.4405517578125
z: 0.16108033061027527
visibility: 0.7061773538589478
","x: 292.54925537109375
y: 509.2020263671875
z: 0.07296694070100784
visibility: 0.8074440956115723
","x: 239.3144989013672
y: 511.4276428222656
z: 0.07250966131687164
visibility: 0.9429054260253906
",,,,,,,,,,,,,,,,,,,,,,,,,,,,,,,,,,,,,,,,,,
4,"x: 269.1089172363281
y: 295.13818359375
z: -0.18196946382522583
visibility: 0.996914803981781
","x: 269.07733154296875
y: 289.99652099609375
z: -0.16799500584602356
visibility: 0.991226315498352
","x: 269.6166687011719
y: 289.890625
z: -0.16799244284629822
visibility: 0.9887773394584656
","x: 270.8375244140625
y: 289.79510498046875
z: -0.16798844933509827
visibility: 0.9893142580986023
","x: 266.359375
y: 290.62188720703125
z: -0.18480072915554047
visibility: 0.9917513728141785
","x: 264.97467041015625
y: 290.98431396484375
z: -0.18481752276420593
visibility: 0.9910655617713928
","x: 264.1484680175781
y: 291.3295593261719
z: -0.18482747673988342
visibility: 0.9929654002189636
","x: 272.47210693359375
y: 292.1313781738281
z: -0.08216707408428192
visibility: 0.9755751490592957
","x: 263.02984619140625
y: 293.16357421875
z: -0.12445832788944244
visibility: 0.9784492254257202
","x: 270.30535888671875
y: 300.62567138671875
z: -0.1486886888742447
visibility: 0.9928039908409119
","x: 267.0808410644531
y: 301.1352844238281
z: -0.17283396422863007
visibility: 0.9954383373260498
","x: 278.7661437988281
y: 324.10064697265625
z: -0.0013276191893965006
visibility: 0.9964535236358643
","x: 253.4298095703125
y: 319.7020568847656
z: -0.0995137095451355
visibility: 0.999128520488739
","x: 283.0133972167969
y: 357.94635009765625
z: 0.011040213517844677
visibility: 0.5765519738197327
","x: 249.41494750976562
y: 358.4073486328125
z: -0.1084802895784378
visibility: 0.9675183296203613
","x: 292.8740234375
y: 345.7344970703125
z: -0.07808482646942139
visibility: 0.5982751250267029
","x: 245.42367553710938
y: 389.93359375
z: -0.1805044710636139
visibility: 0.9166682958602905
","x: 295.86279296875
y: 339.466796875
z: -0.09652019292116165
visibility: 0.539795994758606
","x: 243.84129333496094
y: 397.0850830078125
z: -0.20087091624736786
visibility: 0.8664640784263611
","x: 295.85418701171875
y: 334.92437744140625
z: -0.1077437624335289
visibility: 0.5465987920761108
","x: 243.93408203125
y: 395.800537109375
z: -0.2169611006975174
visibility: 0.8653486371040344
","x: 293.9380187988281
y: 336.8980407714844
z: -0.08652278035879135
visibility: 0.5152400732040405
","x: 245.38330078125
y: 394.101318359375
z: -0.18789516389369965
visibility: 0.831597626209259
","x: 274.00830078125
y: 401.6580810546875
z: 0.028881505131721497
visibility: 0.999255895614624
","x: 258.00665283203125
y: 401.100830078125
z: -0.02897842787206173
visibility: 0.9995457530021667
","x: 283.51617431640625
y: 447.32403564453125
z: 0.06851796060800552
visibility: 0.9608981609344482
","x: 252.93673706054688
y: 449.71783447265625
z: -0.02181088924407959
visibility: 0.9678489565849304
","x: 293.5466613769531
y: 497.0262145996094
z: 0.18752479553222656
visibility: 0.7723879218101501
","x: 237.2216796875
y: 494.3356018066406
z: 0.09283813834190369
visibility: 0.9593923091888428
","x: 291.6005554199219
y: 506.25830078125
z: 0.19673949480056763
visibility: 0.5960114002227783
","x: 233.22616577148438
y: 501.385009765625
z: 0.10082654654979706
visibility: 0.725743293762207
","x: 298.59808349609375
y: 511.1126708984375
z: 0.12657292187213898
visibility: 0.8259634971618652
","x: 240.34878540039062
y: 510.32208251953125
z: 0.019103940576314926
visibility: 0.9478632211685181
",,,,,,,,,,,,,,,,,,,,,,,,,,,,,,,,,,,,,,,,,,
5,"x: 270.5531921386719
y: 294.5772399902344
z: -0.203558087348938
visibility: 0.9972219467163086
","x: 269.9418640136719
y: 289.3630065917969
z: -0.18692807853221893
visibility: 0.9920996427536011
","x: 270.6234130859375
y: 289.2576904296875
z: -0.18695363402366638
visibility: 0.9898955821990967
","x: 271.8205871582031
y: 289.1695556640625
z: -0.18697497248649597
visibility: 0.9903773665428162
","x: 266.5871276855469
y: 289.92730712890625
z: -0.19630643725395203
visibility: 0.992572546005249
","x: 265.355224609375
y: 290.258056640625
z: -0.19632969796657562
visibility: 0.9919557571411133
","x: 264.78021240234375
y: 290.603515625
z: -0.19633354246616364
visibility: 0.9936647415161133
","x: 272.8807678222656
y: 291.7000732421875
z: -0.08735693991184235
visibility: 0.9780058264732361
","x: 263.3322448730469
y: 292.84716796875
z: -0.12513400614261627
visibility: 0.9806022047996521
","x: 272.25762939453125
y: 299.9580078125
z: -0.164905846118927
visibility: 0.9935195446014404
","x: 268.83642578125
y: 300.5277099609375
z: -0.17769229412078857
visibility: 0.9958922863006592
","x: 280.4140625
y: 318.4219970703125
z: -0.012173144146800041
visibility: 0.99680495262146
","x: 253.88308715820312
y: 320.3472595214844
z: -0.09884249418973923
visibility: 0.9992116093635559
","x: 294.54827880859375
y: 333.30450439453125
z: -0.08723031729459763
visibility: 0.6179708242416382
","x: 248.81005859375
y: 358.4205322265625
z: -0.05755463242530823
visibility: 0.969054102897644
","x: 286.66632080078125
y: 305.39410400390625
z: -0.23688146471977234
visibility: 0.6365941762924194
","x: 242.63723754882812
y: 390.5056457519531
z: -0.08273196220397949
visibility: 0.9171057343482971
","x: 287.8962097167969
y: 298.5994873046875
z: -0.26982057094573975
visibility: 0.5786947011947632
","x: 241.1024932861328
y: 399.234619140625
z: -0.09438091516494751
visibility: 0.8639391660690308
","x: 292.3990478515625
y: 297.4526062011719
z: -0.2586275339126587
visibility: 0.5843097567558289
","x: 241.93942260742188
y: 398.3817138671875
z: -0.11546047776937485
visibility: 0.8632041215896606
","x: 287.40313720703125
y: 299.97540283203125
z: -0.23737803101539612
visibility: 0.5530347228050232
","x: 243.3839111328125
y: 396.23760986328125
z: -0.09055425226688385
visibility: 0.8283769488334656
","x: 274.3586730957031
y: 400.984619140625
z: 0.029394129291176796
visibility: 0.9993253946304321
","x: 258.573486328125
y: 400.9553527832031
z: -0.02950134500861168
visibility: 0.9995775818824768
","x: 285.4839782714844
y: 444.13739013671875
z: -0.004037996754050255
visibility: 0.9636989831924438
","x: 252.94650268554688
y: 449.4516296386719
z: -0.058195341378450394
visibility: 0.9705913662910461
","x: 294.20123291015625
y: 496.5847473144531
z: 0.08642449975013733
visibility: 0.7942730188369751
","x: 236.94683837890625
y: 494.3980407714844
z: 0.0564916618168354
visibility: 0.962661623954773
","x: 291.1731262207031
y: 506.7481994628906
z: 0.09277204424142838
visibility: 0.631260097026825
","x: 232.76010131835938
y: 501.3175964355469
z: 0.06387432664632797
visibility: 0.7356114387512207
","x: 300.41009521484375
y: 510.7796936035156
z: 0.016180461272597313
visibility: 0.8422317504882812
","x: 239.5989227294922
y: 509.2959289550781
z: -0.023337945342063904
visibility: 0.9516409039497375
",,,,,,,,,,,,,,,,,,,,,,,,,,,,,,,,,,,,,,,,,,
6,"x: 270.55706787109375
y: 293.6104431152344
z: -0.16167080402374268
visibility: 0.9974987506866455
","x: 270.2969970703125
y: 288.73333740234375
z: -0.14735858142375946
visibility: 0.9928868412971497
","x: 271.04925537109375
y: 288.70361328125
z: -0.14739155769348145
visibility: 0.9909032583236694
","x: 272.1023254394531
y: 288.6820373535156
z: -0.14740417897701263
visibility: 0.9913363456726074
","x: 267.130126953125
y: 289.1629638671875
z: -0.15609759092330933
visibility: 0.9933122992515564
","x: 265.9378967285156
y: 289.4850769042969
z: -0.15611135959625244
visibility: 0.992757260799408
","x: 265.20135498046875
y: 289.82684326171875
z: -0.15614542365074158
visibility: 0.9942948222160339
","x: 272.9335021972656
y: 291.36895751953125
z: -0.05838410183787346
visibility: 0.9801960587501526
","x: 263.37945556640625
y: 292.38543701171875
z: -0.09771252423524857
visibility: 0.9825394153594971
","x: 272.2652587890625
y: 299.2480163574219
z: -0.12739726901054382
visibility: 0.9941655397415161
","x: 268.8439025878906
y: 299.65594482421875
z: -0.13910220563411713
visibility: 0.9963018894195557
","x: 280.5122985839844
y: 316.89251708984375
z: 0.005551387555897236
visibility: 0.99712073802948
","x: 254.05125427246094
y: 320.075439453125
z: -0.06292973458766937
visibility: 0.9992871284484863
","x: 291.241943359375
y: 339.32421875
z: -0.06252284348011017
visibility: 0.6530013680458069
","x: 247.75405883789062
y: 359.94696044921875
z: -0.05780114606022835
visibility: 0.9709678292274475
","x: 287.481201171875
y: 308.7432556152344
z: -0.2212473601102829
visibility: 0.6706007122993469
","x: 240.70401000976562
y: 388.86639404296875
z: -0.11321071535348892
visibility: 0.9217289090156555
","x: 286.3710021972656
y: 299.15234375
z: -0.2556845247745514
visibility: 0.6150804758071899
","x: 239.2002410888672
y: 398.1980895996094
z: -0.12914499640464783
visibility: 0.8699311017990112
","x: 286.22845458984375
y: 297.3090515136719
z: -0.2532861530780792
visibility: 0.6201085448265076
","x: 240.20974731445312
y: 397.80413818359375
z: -0.15008966624736786
visibility: 0.8694199919700623
","x: 284.84014892578125
y: 300.82904052734375
z: -0.22575242817401886
visibility: 0.5892502665519714
","x: 241.62022399902344
y: 395.36767578125
z: -0.12200264632701874
visibility: 0.8352140188217163
","x: 274.7239990234375
y: 400.0079040527344
z: 0.026697253808379173
visibility: 0.9993897080421448
","x: 258.79949951171875
y: 400.275634765625
z: -0.02678024210035801
visibility: 0.9996103644371033
","x: 288.5799560546875
y: 442.64544677734375
z: -0.06382548809051514
visibility: 0.9669704437255859
","x: 252.8277130126953
y: 449.10833740234375
z: -0.03278190642595291
visibility: 0.9731118083000183
","x: 293.7821044921875
y: 496.7870788574219
z: 0.023953702300786972
visibility: 0.8144710063934326
","x: 237.68609619140625
y: 493.9618225097656
z: 0.10860969871282578
visibility: 0.9657332897186279
","x: 289.92425537109375
y: 506.16009521484375
z: 0.029091009870171547
visibility: 0.6656940579414368
","x: 234.13014221191406
y: 501.11639404296875
z: 0.12077371776103973
visibility: 0.7487871646881104
","x: 301.3345031738281
y: 511.7711181640625
z: -0.05473203584551811
visibility: 0.8575399518013
","x: 239.22560119628906
y: 509.110595703125
z: 0.03707845136523247
visibility: 0.9551960229873657
",,,,,,,,,,,,,,,,,,,,,,,,,,,,,,,,,,,,,,,,,,
7,"x: 269.42022705078125
y: 295.0844421386719
z: -0.22557148337364197
visibility: 0.9977439641952515
","x: 270.35015869140625
y: 290.8044738769531
z: -0.21678869426250458
visibility: 0.9935821294784546
","x: 271.2534484863281
y: 290.96441650390625
z: -0.2168196439743042
visibility: 0.9918001294136047
","x: 272.33807373046875
y: 291.1690673828125
z: -0.21683397889137268
visibility: 0.9921855330467224
","x: 267.39813232421875
y: 290.8873291015625
z: -0.21160605549812317
visibility: 0.9939649701118469
","x: 266.2908630371094
y: 291.08135986328125
z: -0.21162159740924835
visibility: 0.9934670925140381
","x: 265.40826416015625
y: 291.3028869628906
z: -0.21164138615131378
visibility: 0.9948471784591675
","x: 273.5049743652344
y: 294.0087585449219
z: -0.14817164838314056
visibility: 0.9821311235427856
","x: 264.6777038574219
y: 294.3638000488281
z: -0.1244201511144638
visibility: 0.984271228313446
","x: 271.43994140625
y: 300.5977783203125
z: -0.19956031441688538
visibility: 0.9947359561920166
","x: 268.0857238769531
y: 301.02874755859375
z: -0.192731112241745
visibility: 0.9966640472412109
","x: 283.9541015625
y: 317.1630554199219
z: -0.10846318304538727
visibility: 0.9973990321159363
","x: 256.2911682128906
y: 323.86541748046875
z: -0.06440306454896927
visibility: 0.9993560910224915
","x: 291.6527404785156
y: 336.59197998046875
z: -0.21555063128471375
visibility: 0.683515727519989
","x: 249.189697265625
y: 361.0434265136719
z: -0.022134358063340187
visibility: 0.9714837074279785
","x: 289.80596923828125
y: 318.02874755859375
z: -0.3949407935142517
visibility: 0.6967631578445435
","x: 244.3219757080078
y: 389.6299743652344
z: -0.05814889818429947
visibility: 0.9222027063369751
","x: 289.8611145019531
y: 313.737548828125
z: -0.43262869119644165
visibility: 0.6420785188674927
","x: 243.2035675048828
y: 397.6437683105469
z: -0.06970091164112091
visibility: 0.8686500787734985
","x: 289.07928466796875
y: 310.927978515625
z: -0.4371074140071869
visibility: 0.6466494798660278
","x: 244.00559997558594
y: 397.8577880859375
z: -0.08956887573003769
visibility: 0.8688790798187256
","x: 288.4305114746094
y: 312.9779357910156
z: -0.40209823846817017
visibility: 0.6142584085464478
","x: 245.19993591308594
y: 397.294921875
z: -0.06700368970632553
visibility: 0.8346776962280273
","x: 279.1293029785156
y: 400.0372314453125
z: 0.005997999105602503
visibility: 0.9994467496871948
","x: 262.0846252441406
y: 400.13079833984375
z: -0.006081796251237392
visibility: 0.9996470212936401
","x: 290.364501953125
y: 442.85595703125
z: 0.026485968381166458
visibility: 0.9695608615875244
","x: 254.40733337402344
y: 448.4965515136719
z: -0.04601727053523064
visibility: 0.9757230281829834
","x: 294.5379638671875
y: 495.1351318359375
z: 0.18458323180675507
visibility: 0.8325972557067871
","x: 240.4755859375
y: 492.85540771484375
z: 0.06774790585041046
visibility: 0.9689696431159973
","x: 291.3572998046875
y: 502.963623046875
z: 0.19501914083957672
visibility: 0.6942995190620422
","x: 237.4591064453125
y: 498.3868713378906
z: 0.0749589055776596
visibility: 0.7650471329689026
","x: 300.26092529296875
y: 510.5447082519531
z: 0.09531204402446747
visibility: 0.8709240555763245
","x: 237.6103515625
y: 509.06024169921875
z: -0.017608093097805977
visibility: 0.959241509437561
",,,,,,,,,,,,,,,,,,,,,,,,,,,,,,,,,,,,,,,,,,
8,"x: 269.4747009277344
y: 295.86383056640625
z: -0.21171720325946808
visibility: 0.9979045391082764
","x: 270.4453430175781
y: 291.52545166015625
z: -0.2025342881679535
visibility: 0.994013786315918
","x: 271.2787170410156
y: 291.6732177734375
z: -0.20256614685058594
visibility: 0.9924159049987793
","x: 272.4923095703125
y: 291.86468505859375
z: -0.20257551968097687
visibility: 0.9926995038986206
","x: 267.4775085449219
y: 291.40191650390625
z: -0.1974891722202301
visibility: 0.9944228529930115
","x: 266.3924560546875
y: 291.4770202636719
z: -0.19750168919563293
visibility: 0.9939682483673096
","x: 265.6419982910156
y: 291.5789489746094
z: -0.19754131138324738
visibility: 0.9952062368392944
","x: 275.06036376953125
y: 294.98333740234375
z: -0.13614529371261597
visibility: 0.9831650257110596
","x: 265.135009765625
y: 294.6051025390625
z: -0.11242850124835968
visibility: 0.9856582283973694
","x: 271.5076904296875
y: 301.3268737792969
z: -0.18587131798267365
visibility: 0.9950236082077026
","x: 268.10260009765625
y: 301.47479248046875
z: -0.17913708090782166
visibility: 0.9968960881233215
","x: 285.1467590332031
y: 317.2546081542969
z: -0.1191253662109375
visibility: 0.9974222779273987
","x: 257.6532287597656
y: 323.93853759765625
z: -0.03227664902806282
visibility: 0.9994083642959595
","x: 286.5682067871094
y: 335.2586364746094
z: -0.24388770759105682
visibility: 0.708149790763855
","x: 252.51954650878906
y: 360.24951171875
z: 0.02478884346783161
visibility: 0.9537683129310608
","x: 277.246337890625
y: 310.33111572265625
z: -0.40701621770858765
visibility: 0.714222252368927
","x: 250.0952606201172
y: 390.9895324707031
z: -0.01496441476047039
visibility: 0.9000396728515625
","x: 274.9498291015625
y: 304.5108947753906
z: -0.44446706771850586
visibility: 0.6592277884483337
","x: 248.54592895507812
y: 399.0934753417969
z: -0.0270161721855402
visibility: 0.8424372673034668
","x: 275.0487365722656
y: 301.6970520019531
z: -0.44320201873779297
visibility: 0.6624432802200317
","x: 249.1800537109375
y: 398.1264953613281
z: -0.04827500507235527
visibility: 0.843747615814209
","x: 275.30841064453125
y: 304.50262451171875
z: -0.4113932251930237
visibility: 0.6245788335800171
","x: 250.87039184570312
y: 396.4949951171875
z: -0.02443912997841835
visibility: 0.8088153600692749
","x: 280.8622131347656
y: 400.5812072753906
z: -0.01582391746342182
visibility: 0.9994847774505615
","x: 263.2904052734375
y: 400.4658203125
z: 0.01573670655488968
visibility: 0.9996777176856995
","x: 289.9831848144531
y: 446.185302734375
z: 0.04785224795341492
visibility: 0.9715981483459473
","x: 254.82814025878906
y: 448.8916015625
z: -0.03472767770290375
visibility: 0.9779953956604004
","x: 296.2886962890625
y: 496.2915344238281
z: 0.21159963309764862
visibility: 0.8483522534370422
","x: 250.388427734375
y: 493.4344787597656
z: 0.09860877692699432
visibility: 0.9717687964439392
","x: 295.7018737792969
y: 503.1817626953125
z: 0.2232411801815033
visibility: 0.7093056440353394
","x: 252.73207092285156
y: 499.1031494140625
z: 0.1072251945734024
visibility: 0.7830724120140076
","x: 300.39947509765625
y: 510.52862548828125
z: 0.13125203549861908
visibility: 0.882127046585083
","x: 242.94073486328125
y: 509.1907043457031
z: 0.017983118072152138
visibility: 0.9627244472503662
",,,,,,,,,,,,,,,,,,,,,,,,,,,,,,,,,,,,,,,,,,
9,"x: 269.5008544921875
y: 296.4004211425781
z: -0.1776265949010849
visibility: 0.9979465007781982
","x: 270.57965087890625
y: 292.5606384277344
z: -0.1661483496427536
visibility: 0.9939140677452087
","x: 271.4471740722656
y: 292.7666931152344
z: -0.16621115803718567
visibility: 0.9924584031105042
","x: 272.6236877441406
y: 293.0081481933594
z: -0.16626489162445068
visibility: 0.9926943778991699
","x: 267.6114196777344
y: 292.07196044921875
z: -0.16656029224395752
visibility: 0.9944335222244263
","x: 266.4652099609375
y: 291.950927734375
z: -0.166540265083313
visibility: 0.993943452835083
","x: 265.729736328125
y: 291.8602294921875
z: -0.16658622026443481
visibility: 0.9950608611106873
","x: 274.9522705078125
y: 295.5776062011719
z: -0.09851495176553726
visibility: 0.9824955463409424
","x: 265.1421813964844
y: 294.4588623046875
z: -0.09626168012619019
visibility: 0.9861347079277039
","x: 271.4493408203125
y: 301.3291015625
z: -0.15120859444141388
visibility: 0.9952097535133362
","x: 268.02239990234375
y: 301.33154296875
z: -0.1513824164867401
visibility: 0.9970192909240723
","x: 285.11151123046875
y: 317.5287170410156
z: -0.0759425163269043
visibility: 0.9975599646568298
","x: 256.0701599121094
y: 323.67059326171875
z: -0.03975791111588478
visibility: 0.9994114637374878
","x: 286.6360168457031
y: 337.1870422363281
z: -0.1435154229402542
visibility: 0.7176170349121094
","x: 251.98362731933594
y: 362.4551086425781
z: -0.00805096048861742
visibility: 0.9451379179954529
","x: 278.148681640625
y: 312.5478820800781
z: -0.29657498002052307
visibility: 0.7070854902267456
","x: 250.6923828125
y: 392.7236633300781
z: -0.049191392958164215
visibility: 0.8824517130851746
","x: 278.3902587890625
y: 317.255859375
z: -0.3242318630218506
visibility: 0.6499465703964233
","x: 249.52969360351562
y: 402.4040222167969
z: -0.06604571640491486
visibility: 0.8218551278114319
","x: 278.2763366699219
y: 314.39752197265625
z: -0.3176540434360504
visibility: 0.6524510979652405
","x: 251.31033325195312
y: 401.4857177734375
z: -0.08413064479827881
visibility: 0.8235173225402832
","x: 278.14312744140625
y: 315.9505615234375
z: -0.2960117757320404
visibility: 0.6124832034111023
","x: 252.3055419921875
y: 401.50933837890625
z: -0.057698559015989304
visibility: 0.7878847718238831
","x: 280.3761901855469
y: 400.6136474609375
z: -0.004487577360123396
visibility: 0.9995152950286865
","x: 263.36553955078125
y: 403.3519287109375
z: 0.004441689699888229
visibility: 0.9996761679649353
","x: 289.0776062011719
y: 446.82196044921875
z: 0.006324807647615671
visibility: 0.9736905694007874
","x: 262.85394287109375
y: 458.26068115234375
z: 0.060795508325099945
visibility: 0.9791237711906433
","x: 294.9792175292969
y: 495.3759460449219
z: 0.14416854083538055
visibility: 0.8619706034660339
","x: 268.1625671386719
y: 493.02191162109375
z: 0.2606815993785858
visibility: 0.972798228263855
","x: 293.5750732421875
y: 501.4584655761719
z: 0.1548774093389511
visibility: 0.7268779277801514
","x: 270.1589050292969
y: 498.41680908203125
z: 0.27673739194869995
visibility: 0.7900305986404419
","x: 298.8511962890625
y: 510.3799133300781
z: 0.06670217216014862
visibility: 0.8918805718421936
","x: 264.6509094238281
y: 508.423828125
z: 0.20216742157936096
visibility: 0.9635995030403137
",,,,,,,,,,,,,,,,,,,,,,,,,,,,,,,,,,,,,,,,,,
10,"x: 267.35577392578125
y: 295.8315124511719
z: -0.16117960214614868
visibility: 0.9981363415718079
","x: 269.3548583984375
y: 292.09515380859375
z: -0.145994633436203
visibility: 0.9944860339164734
","x: 270.3915100097656
y: 292.44635009765625
z: -0.146054208278656
visibility: 0.9931689500808716
","x: 271.5495910644531
y: 292.8691711425781
z: -0.14610780775547028
visibility: 0.9933820962905884
","x: 266.4245300292969
y: 291.544921875
z: -0.14651446044445038
visibility: 0.9949623942375183
","x: 265.45721435546875
y: 291.4742431640625
z: -0.14654405415058136
visibility: 0.9945124983787537
","x: 264.6584167480469
y: 291.4316711425781
z: -0.14660945534706116
visibility: 0.9955211877822876
","x: 273.6724548339844
y: 296.3614196777344
z: -0.06226446479558945
visibility: 0.9840927720069885
","x: 263.3791809082031
y: 294.13812255859375
z: -0.06590387970209122
visibility: 0.9873998165130615
","x: 269.03472900390625
y: 301.1167297363281
z: -0.1306355893611908
visibility: 0.9956644177436829
","x: 265.01153564453125
y: 300.9203796386719
z: -0.13174894452095032
visibility: 0.997300922870636
","x: 281.2919921875
y: 322.8446960449219
z: -0.018720459192991257
visibility: 0.9976781606674194
","x: 251.02212524414062
y: 322.87060546875
z: -0.016284575685858727
visibility: 0.9994468688964844
","x: 281.9576416015625
y: 360.4580993652344
z: -0.037175219506025314
visibility: 0.6959878206253052
","x: 246.52090454101562
y: 362.4924011230469
z: -0.004432444926351309
visibility: 0.9487579464912415
","x: 280.7068176269531
y: 369.1678466796875
z: -0.16967333853244781
visibility: 0.6769062280654907
","x: 247.03321838378906
y: 395.1173400878906
z: -0.06666512787342072
visibility: 0.887505054473877
","x: 282.9082946777344
y: 374.2934875488281
z: -0.1984165757894516
visibility: 0.6268972158432007
","x: 246.20848083496094
y: 404.75335693359375
z: -0.08252272754907608
visibility: 0.8281396627426147
","x: 283.0516052246094
y: 370.7500915527344
z: -0.21446017920970917
visibility: 0.6313596963882446
","x: 248.701171875
y: 404.02581787109375
z: -0.09789644181728363
visibility: 0.830010712146759
","x: 281.48980712890625
y: 368.9222412109375
z: -0.17915116250514984
visibility: 0.5881537199020386
","x: 249.50833129882812
y: 401.65777587890625
z: -0.07271794974803925
visibility: 0.7933205962181091
","x: 277.99432373046875
y: 400.8359069824219
z: 0.00044063874520361423
visibility: 0.9995545744895935
","x: 260.9100341796875
y: 404.1772766113281
z: -0.0004888604744337499
visibility: 0.9996541142463684
","x: 282.13494873046875
y: 444.6602783203125
z: -0.31416401267051697
visibility: 0.9738559126853943
","x: 264.0968933105469
y: 458.176513671875
z: 0.01914324052631855
visibility: 0.9623740315437317
","x: 271.8117370605469
y: 494.1783142089844
z: -0.2820386290550232
visibility: 0.869528591632843
","x: 272.9945373535156
y: 489.70379638671875
z: 0.19153888523578644
visibility: 0.9351327419281006
","x: 267.2142639160156
y: 501.05096435546875
z: -0.28068026900291443
visibility: 0.747078537940979
","x: 276.1310119628906
y: 496.724853515625
z: 0.2046116143465042
visibility: 0.7544890642166138
","x: 273.3365478515625
y: 509.86444091796875
z: -0.385558545589447
visibility: 0.8990829586982727
","x: 272.10186767578125
y: 504.02734375
z: 0.12473390251398087
visibility: 0.9220290184020996
",,,,,,,,,,,,,,,,,,,,,,,,,,,,,,,,,,,,,,,,,,
11,"x: 265.29669189453125
y: 295.47235107421875
z: -0.13657552003860474
visibility: 0.9980620741844177
","x: 266.05218505859375
y: 291.89398193359375
z: -0.12279172241687775
visibility: 0.9939512610435486
","x: 266.6567687988281
y: 292.2119445800781
z: -0.12282165139913559
visibility: 0.9926955103874207
","x: 267.29119873046875
y: 292.556884765625
z: -0.12282220274209976
visibility: 0.992655873298645
","x: 264.00164794921875
y: 291.3988952636719
z: -0.1344287246465683
visibility: 0.9948968291282654
","x: 263.2290344238281
y: 291.36767578125
z: -0.134457528591156
visibility: 0.9945327043533325
","x: 262.4667663574219
y: 291.343505859375
z: -0.1345643699169159
visibility: 0.9953835010528564
","x: 267.6375427246094
y: 296.14453125
z: -0.04325416311621666
visibility: 0.9805074334144592
","x: 260.5950622558594
y: 294.13616943359375
z: -0.07182420045137405
visibility: 0.9881532788276672
","x: 266.02392578125
y: 301.05029296875
z: -0.10633540153503418
visibility: 0.9958305358886719
","x: 263.30303955078125
y: 300.72259521484375
z: -0.12158819288015366
visibility: 0.9974573850631714
","x: 273.6789855957031
y: 326.6121826171875
z: 0.016177652403712273
visibility: 0.997779369354248
","x: 249.32530212402344
y: 322.4078369140625
z: -0.07808540761470795
visibility: 0.9994890093803406
","x: 281.4798583984375
y: 358.44537353515625
z: -0.02484625019133091
visibility: 0.6974972486495972
","x: 242.55072021484375
y: 364.1247253417969
z: -0.07591723650693893
visibility: 0.9527553915977478
","x: 277.44281005859375
y: 354.332275390625
z: -0.17988476157188416
visibility: 0.687786877155304
","x: 243.19573974609375
y: 401.4833984375
z: -0.10752610862255096
visibility: 0.8946285247802734
","x: 275.6037292480469
y: 357.3847961425781
z: -0.21051743626594543
visibility: 0.6356855630874634
","x: 242.73745727539062
y: 411.69775390625
z: -0.12245247513055801
visibility: 0.8375524878501892
","x: 275.0740966796875
y: 344.63079833984375
z: -0.21546649932861328
visibility: 0.6398774981498718
","x: 244.79624938964844
y: 412.06927490234375
z: -0.13942013680934906
visibility: 0.8390937447547913
","x: 275.18115234375
y: 350.2098083496094
z: -0.1871250718832016
visibility: 0.593082070350647
","x: 245.5319061279297
y: 409.10565185546875
z: -0.11232537031173706
visibility: 0.8023536801338196
","x: 269.3102722167969
y: 405.9198303222656
z: 0.030767839401960373
visibility: 0.9994994401931763
","x: 256.2191162109375
y: 404.8562316894531
z: -0.03077576495707035
visibility: 0.9995930790901184
","x: 269.4045715332031
y: 453.62347412109375
z: -0.047481536865234375
visibility: 0.9607437252998352
","x: 259.995849609375
y: 457.2000732421875
z: -0.0002184375625802204
visibility: 0.9573326706886292
","x: 252.55064392089844
y: 501.77789306640625
z: 0.03129713982343674
visibility: 0.8630414009094238
","x: 266.49017333984375
y: 490.6560974121094
z: 0.1873595416545868
visibility: 0.9250780940055847
","x: 248.08348083496094
y: 507.4998474121094
z: 0.02841256558895111
visibility: 0.7507435083389282
","x: 257.7364501953125
y: 499.44573974609375
z: 0.20228560268878937
visibility: 0.745054304599762
","x: 257.0552062988281
y: 513.0645141601562
z: -0.016787845641374588
visibility: 0.8964006304740906
","x: 269.1144104003906
y: 504.55694580078125
z: 0.13028496503829956
visibility: 0.9161180257797241
",,,,,,,,,,,,,,,,,,,,,,,,,,,,,,,,,,,,,,,,,,
12,"x: 259.1100158691406
y: 295.3685302734375
z: -0.15319734811782837
visibility: 0.9982131123542786
","x: 260.3458251953125
y: 291.95697021484375
z: -0.13813576102256775
visibility: 0.9944484829902649
","x: 261.3162841796875
y: 292.38824462890625
z: -0.13819386065006256
visibility: 0.993303120136261
","x: 262.33447265625
y: 292.84588623046875
z: -0.13823331892490387
visibility: 0.9932957291603088
","x: 257.7195129394531
y: 291.28839111328125
z: -0.13999077677726746
visibility: 0.995273768901825
","x: 256.78253173828125
y: 291.2499694824219
z: -0.13999395072460175
visibility: 0.9949133992195129
","x: 255.74612426757812
y: 291.21771240234375
z: -0.14004644751548767
visibility: 0.9956917762756348
","x: 263.563232421875
y: 297.1292724609375
z: -0.057723693549633026
visibility: 0.9821886420249939
","x: 254.54969787597656
y: 294.53424072265625
z: -0.06142329052090645
visibility: 0.9890479445457458
","x: 260.45477294921875
y: 301.2981872558594
z: -0.12372790277004242
visibility: 0.9962217211723328
","x: 257.4842224121094
y: 300.82025146484375
z: -0.12677860260009766
visibility: 0.9976726770401001
","x: 271.19451904296875
y: 330.7107238769531
z: 0.006181192584335804
visibility: 0.9979912638664246
","x: 244.30303955078125
y: 324.6107177734375
z: -0.02595371939241886
visibility: 0.9995017051696777
","x: 280.4667053222656
y: 367.5013427734375
z: -0.07560278475284576
visibility: 0.7252687215805054
","x: 240.78009033203125
y: 364.47796630859375
z: -0.005640304647386074
visibility: 0.9397103190422058
","x: 269.27398681640625
y: 367.0926513671875
z: -0.22482159733772278
visibility: 0.7150997519493103
","x: 242.61849975585938
y: 396.09539794921875
z: -0.07228947430849075
visibility: 0.8681256175041199
","x: 264.4389343261719
y: 368.712158203125
z: -0.25770384073257446
visibility: 0.6654752492904663
","x: 240.76734924316406
y: 406.33306884765625
z: -0.09367713332176208
visibility: 0.8107343912124634
","x: 264.35272216796875
y: 360.79815673828125
z: -0.2588224709033966
visibility: 0.6693817973136902
","x: 243.26010131835938
y: 406.5759582519531
z: -0.11138585954904556
visibility: 0.8129978179931641
","x: 265.584716796875
y: 361.1135559082031
z: -0.22763076424598694
visibility: 0.623967707157135
","x: 244.22711181640625
y: 403.4393005371094
z: -0.08070060610771179
visibility: 0.7771287560462952
","x: 264.0631103515625
y: 411.47698974609375
z: 0.016974568367004395
visibility: 0.9995363354682922
","x: 249.44271850585938
y: 407.9349365234375
z: -0.016971563920378685
visibility: 0.9996130466461182
","x: 259.7893981933594
y: 461.14642333984375
z: -0.04626750946044922
visibility: 0.9543746709823608
","x: 245.25927734375
y: 457.25079345703125
z: -0.10537336766719818
visibility: 0.9589917063713074
","x: 247.878662109375
y: 501.62908935546875
z: 0.1498379409313202
visibility: 0.8550845980644226
","x: 246.2697296142578
y: 485.29803466796875
z: 0.15128882229328156
visibility: 0.9137052297592163
","x: 244.63201904296875
y: 505.1992492675781
z: 0.16760465502738953
visibility: 0.7350871562957764
","x: 242.8262939453125
y: 487.5555419921875
z: 0.1829584538936615
visibility: 0.7263617515563965
","x: 250.8162384033203
y: 515.842529296875
z: 0.11169401556253433
visibility: 0.888510525226593
","x: 242.45303344726562
y: 504.5661926269531
z: 0.11855681240558624
visibility: 0.9093441963195801
",,,,,,,,,,,,,,,,,,,,,,,,,,,,,,,,,,,,,,,,,,
13,"x: 254.27951049804688
y: 295.20794677734375
z: -0.14972200989723206
visibility: 0.9983741044998169
","x: 255.33599853515625
y: 291.7972106933594
z: -0.1339406818151474
visibility: 0.9949716329574585
","x: 256.3448486328125
y: 292.22247314453125
z: -0.13398978114128113
visibility: 0.9939367771148682
","x: 257.47259521484375
y: 292.6375732421875
z: -0.1340189278125763
visibility: 0.9939325451850891
","x: 252.6211395263672
y: 291.1410217285156
z: -0.13501551747322083
visibility: 0.99570631980896
","x: 251.5706329345703
y: 291.15216064453125
z: -0.13503268361091614
visibility: 0.9953806400299072
","x: 250.41903686523438
y: 291.2203063964844
z: -0.13507205247879028
visibility: 0.9960857033729553
","x: 259.18841552734375
y: 296.79119873046875
z: -0.05162518471479416
visibility: 0.9838916063308716
","x: 248.60140991210938
y: 294.6985168457031
z: -0.056340426206588745
visibility: 0.9900788068771362
","x: 255.9350128173828
y: 301.16473388671875
z: -0.11993638426065445
visibility: 0.996581494808197
","x: 252.73641967773438
y: 300.7912902832031
z: -0.12158016115427017
visibility: 0.997887909412384
","x: 266.43634033203125
y: 331.04425048828125
z: -0.009314319118857384
visibility: 0.9981680512428284
","x: 237.98416137695312
y: 324.1781921386719
z: -0.026950279250741005
visibility: 0.9995178580284119
","x: 268.8126525878906
y: 367.1300964355469
z: -0.047765422612428665
visibility: 0.7368336319923401
","x: 233.44119262695312
y: 364.2240905761719
z: -0.07491433620452881
visibility: 0.938476026058197
","x: 268.8481750488281
y: 379.15057373046875
z: -0.1742037832736969
visibility: 0.7253983020782471
","x: 237.23388671875
y: 374.90606689453125
z: -0.222905233502388
visibility: 0.8697590231895447
","x: 266.82342529296875
y: 385.3931884765625
z: -0.2040969878435135
visibility: 0.6786203980445862
","x: 237.3852996826172
y: 380.609375
z: -0.25729653239250183
visibility: 0.8147609233856201
","x: 266.294189453125
y: 379.9132080078125
z: -0.21851655840873718
visibility: 0.6830101609230042
","x: 238.80320739746094
y: 375.9049987792969
z: -0.2678369879722595
visibility: 0.8171914219856262
","x: 265.2281188964844
y: 378.1120300292969
z: -0.18313954770565033
visibility: 0.6373311281204224
","x: 239.1984100341797
y: 374.63006591796875
z: -0.23082248866558075
visibility: 0.7815881371498108
","x: 257.1705627441406
y: 410.6473388671875
z: 0.009916447103023529
visibility: 0.9995715618133545
","x: 240.54273986816406
y: 403.86651611328125
z: -0.00988277792930603
visibility: 0.9996365904808044
","x: 257.764404296875
y: 458.02435302734375
z: -0.06218839809298515
visibility: 0.9575008153915405
","x: 235.49563598632812
y: 451.61322021484375
z: -0.0812838226556778
visibility: 0.9617635011672974
","x: 248.99404907226562
y: 501.44525146484375
z: 0.0888701006770134
visibility: 0.865891695022583
","x: 229.2869110107422
y: 486.5430908203125
z: 0.10299517959356308
visibility: 0.9178360104560852
","x: 245.49441528320312
y: 505.1086730957031
z: 0.0988636389374733
visibility: 0.7359799742698669
","x: 229.35809326171875
y: 490.963623046875
z: 0.11826267093420029
visibility: 0.7222599983215332
","x: 251.93128967285156
y: 518.2633056640625
z: 0.016992945224046707
visibility: 0.8944904804229736
","x: 225.66986083984375
y: 506.7621154785156
z: 0.040482047945261
visibility: 0.9136154055595398
",,,,,,,,,,,,,,,,,,,,,,,,,,,,,,,,,,,,,,,,,,
14,"x: 249.80795288085938
y: 295.1756591796875
z: -0.12830160558223724
visibility: 0.9985016584396362
","x: 250.92120361328125
y: 291.6540832519531
z: -0.11218146234750748
visibility: 0.995417594909668
","x: 251.82913208007812
y: 292.0815124511719
z: -0.1122022494673729
visibility: 0.9944738149642944
","x: 252.83274841308594
y: 292.50921630859375
z: -0.11222366243600845
visibility: 0.9944726824760437
","x: 248.3131561279297
y: 291.05450439453125
z: -0.11924556642770767
visibility: 0.9960686564445496
","x: 247.2584991455078
y: 291.103515625
z: -0.11926756799221039
visibility: 0.9957674145698547
","x: 246.1077117919922
y: 291.2008361816406
z: -0.11932013183832169
visibility: 0.9963985681533813
","x: 253.888427734375
y: 295.89959716796875
z: -0.02250317484140396
visibility: 0.9853805899620056
","x: 244.18264770507812
y: 294.1370849609375
z: -0.0541117861866951
visibility: 0.990912139415741
","x: 250.9824981689453
y: 301.012939453125
z: -0.0942269042134285
visibility: 0.9968442320823669
","x: 248.0637969970703
y: 300.6773681640625
z: -0.10359033197164536
visibility: 0.9980168342590332
","x: 258.6851806640625
y: 328.45440673828125
z: 0.0439370796084404
visibility: 0.9982622861862183
","x: 234.9268341064453
y: 319.9176330566406
z: -0.034816924482584
visibility: 0.9994699954986572
","x: 254.69790649414062
y: 363.67364501953125
z: 0.06316860765218735
visibility: 0.6790413856506348
","x: 230.38882446289062
y: 358.7124938964844
z: -0.13533173501491547
visibility: 0.9424455761909485
","x: 254.8006134033203
y: 384.4798583984375
z: -0.01515255868434906
visibility: 0.6761665344238281
","x: 238.50062561035156
y: 338.730712890625
z: -0.26803749799728394
visibility: 0.8791083693504333
","x: 255.78738403320312
y: 393.1371765136719
z: -0.030313631519675255
visibility: 0.6363380551338196
","x: 240.2469940185547
y: 332.01287841796875
z: -0.29720157384872437
visibility: 0.8269424438476562
","x: 255.38766479492188
y: 391.6125793457031
z: -0.046477142721414566
visibility: 0.6414662599563599
","x: 241.0603485107422
y: 330.23675537109375
z: -0.2950010895729065
visibility: 0.8288001418113708
","x: 254.0297393798828
y: 388.247802734375
z: -0.02361699752509594
visibility: 0.5973992943763733
","x: 240.8072052001953
y: 331.72650146484375
z: -0.26931360363960266
visibility: 0.7925475835800171
","x: 252.7256622314453
y: 405.75628662109375
z: 0.024161413311958313
visibility: 0.9996121525764465
","x: 236.78646850585938
y: 401.3145446777344
z: -0.024103404954075813
visibility: 0.9996612071990967
","x: 264.0935363769531
y: 445.4564208984375
z: -0.18956023454666138
visibility: 0.9614591598510742
","x: 234.0143585205078
y: 451.9110412597656
z: -0.018306488171219826
visibility: 0.9634566903114319
","x: 251.91770935058594
y: 499.15875244140625
z: -0.10991053283214569
visibility: 0.8786547183990479
","x: 225.3876953125
y: 486.830810546875
z: 0.1548956036567688
visibility: 0.9227074980735779
","x: 245.64085388183594
y: 501.3396911621094
z: -0.10536305606365204
visibility: 0.7584646940231323
","x: 224.2605743408203
y: 492.5175476074219
z: 0.16838032007217407
visibility: 0.7222302556037903
","x: 256.1542053222656
y: 516.8131713867188
z: -0.19978711009025574
visibility: 0.9043895602226257
","x: 224.6416473388672
y: 510.01263427734375
z: 0.09188419580459595
visibility: 0.918647825717926
",,,,,,,,,,,,,,,,,,,,,,,,,,,,,,,,,,,,,,,,,,
15,"x: 248.189453125
y: 292.7088623046875
z: -0.14290586113929749
visibility: 0.998645544052124
","x: 249.09536743164062
y: 287.5920715332031
z: -0.12608495354652405
visibility: 0.9958668947219849
","x: 250.06619262695312
y: 287.67022705078125
z: -0.1261066198348999
visibility: 0.9950142502784729
","x: 251.09181213378906
y: 287.7833251953125
z: -0.12612506747245789
visibility: 0.9950113296508789
","x: 246.03346252441406
y: 287.53656005859375
z: -0.13277855515480042
visibility: 0.9964532852172852
","x: 244.8581085205078
y: 287.701416015625
z: -0.13279469311237335
visibility: 0.996181070804596
","x: 243.56472778320312
y: 288.0003662109375
z: -0.13283881545066833
visibility: 0.9967486262321472
","x: 251.83839416503906
y: 289.9750061035156
z: -0.031134475022554398
visibility: 0.9868049025535583
","x: 241.08140563964844
y: 290.39849853515625
z: -0.06299635767936707
visibility: 0.9918048977851868
","x: 249.85836791992188
y: 298.3379821777344
z: -0.10772844403982162
visibility: 0.9971275329589844
","x: 246.09483337402344
y: 298.5890808105469
z: -0.11661805957555771
visibility: 0.998191237449646
","x: 255.2198944091797
y: 322.33544921875
z: 0.045761313289403915
visibility: 0.9982745051383972
","x: 234.2574462890625
y: 317.6853332519531
z: -0.04755520075559616
visibility: 0.9994325637817383
","x: 253.7789764404297
y: 355.324462890625
z: 0.048443567007780075
visibility: 0.627819299697876
","x: 230.63278198242188
y: 355.11102294921875
z: -0.12031140178442001
visibility: 0.9421411752700806
","x: 257.6891784667969
y: 355.871826171875
z: -0.04643380641937256
visibility: 0.6400213837623596
","x: 240.3627471923828
y: 340.3112487792969
z: -0.20847120881080627
visibility: 0.8808999061584473
","x: 258.8593444824219
y: 358.0043029785156
z: -0.06308212131261826
visibility: 0.6046984195709229
","x: 240.9038848876953
y: 337.84344482421875
z: -0.22972539067268372
visibility: 0.8276742696762085
","x: 259.14837646484375
y: 354.6785888671875
z: -0.07256567478179932
visibility: 0.6113495230674744
","x: 242.43788146972656
y: 332.74169921875
z: -0.2335701882839203
visibility: 0.8290757536888123
","x: 258.0220947265625
y: 353.7095947265625
z: -0.05332512408494949
visibility: 0.5664647817611694
","x: 242.23443603515625
y: 334.00799560546875
z: -0.21088901162147522
visibility: 0.7896118760108948
","x: 252.11228942871094
y: 398.9093322753906
z: 0.029091496020555496
visibility: 0.9996379613876343
","x: 236.86355590820312
y: 398.48016357421875
z: -0.029089659452438354
visibility: 0.9996500611305237
","x: 263.6929016113281
y: 442.6217346191406
z: -0.12395457178354263
visibility: 0.9648920893669128
","x: 235.52548217773438
y: 449.4474792480469
z: -0.011989841237664223
visibility: 0.965426504611969
","x: 259.88641357421875
y: 501.1125183105469
z: -0.07603918761014938
visibility: 0.8904168605804443
","x: 225.6881561279297
y: 494.0193176269531
z: 0.12000928074121475
visibility: 0.9287834167480469
","x: 255.2267303466797
y: 507.8222351074219
z: -0.07678715884685516
visibility: 0.7795382142066956
","x: 223.9438018798828
y: 499.8795166015625
z: 0.1274959295988083
visibility: 0.7275387048721313
","x: 258.65472412109375
y: 519.81396484375
z: -0.1771007925271988
visibility: 0.9134224057197571
","x: 226.22378540039062
y: 511.9732666015625
z: 0.04055223613977432
visibility: 0.9245147109031677
",,,,,,,,,,,,,,,,,,,,,,,,,,,,,,,,,,,,,,,,,,
16,"x: 248.49505615234375
y: 291.0341796875
z: -0.15378299355506897
visibility: 0.9987546801567078
","x: 249.59825134277344
y: 285.3609924316406
z: -0.1333482265472412
visibility: 0.9962381720542908
","x: 250.46896362304688
y: 285.2566833496094
z: -0.13334444165229797
visibility: 0.9954527616500854
","x: 251.3377227783203
y: 285.1973876953125
z: -0.1333218216896057
visibility: 0.9954413175582886
","x: 246.8424835205078
y: 285.65289306640625
z: -0.14635685086250305
visibility: 0.9967785477638245
","x: 245.74830627441406
y: 285.8439025878906
z: -0.14640472829341888
visibility: 0.9965353608131409
","x: 244.6427764892578
y: 286.135498046875
z: -0.14647315442562103
visibility: 0.9970480799674988
","x: 252.18592834472656
y: 287.2021789550781
z: -0.0429733470082283
visibility: 0.9879450798034668
","x: 242.73390197753906
y: 288.548095703125
z: -0.07899324595928192
visibility: 0.9925798773765564
","x: 250.12001037597656
y: 296.25323486328125
z: -0.1102711409330368
visibility: 0.9972810745239258
","x: 246.75599670410156
y: 296.8783874511719
z: -0.1280314028263092
visibility: 0.9982901811599731
","x: 256.5738525390625
y: 316.92828369140625
z: 0.03210700303316116
visibility: 0.9980385303497314
","x: 235.56381225585938
y: 317.19256591796875
z: -0.07179109007120132
visibility: 0.9993101358413696
","x: 259.1504821777344
y: 345.8290100097656
z: 0.04508783295750618
visibility: 0.5871326923370361
","x: 233.43663024902344
y: 355.60400390625
z: -0.173429936170578
visibility: 0.9437944889068604
","x: 260.1500549316406
y: 348.5120849609375
z: -0.025032365694642067
visibility: 0.6123982071876526
","x: 240.3279571533203
y: 335.7914733886719
z: -0.30944523215293884
visibility: 0.8889758586883545
","x: 261.0000915527344
y: 351.66796875
z: -0.037857718765735626
visibility: 0.580182671546936
","x: 241.7246551513672
y: 329.919189453125
z: -0.340288907289505
visibility: 0.8384536504745483
","x: 260.47601318359375
y: 347.986083984375
z: -0.049578145146369934
visibility: 0.5878369808197021
","x: 242.4199676513672
y: 324.9677734375
z: -0.3410220146179199
visibility: 0.8395673632621765
","x: 259.70428466796875
y: 346.6842346191406
z: -0.031987834721803665
visibility: 0.542277455329895
","x: 242.13693237304688
y: 328.1072692871094
z: -0.31208664178848267
visibility: 0.8000701665878296
","x: 254.6880340576172
y: 397.32464599609375
z: 0.02696460485458374
visibility: 0.9996136426925659
","x: 239.24526977539062
y: 398.1106872558594
z: -0.026959002017974854
visibility: 0.9995839595794678
","x: 262.6319885253906
y: 443.9170837402344
z: -0.034040939062833786
visibility: 0.9676888585090637
","x: 236.7408447265625
y: 447.1724853515625
z: -0.0065800040028989315
visibility: 0.9675812125205994
","x: 259.99261474609375
y: 503.71923828125
z: -0.019458184018731117
visibility: 0.9007744193077087
","x: 226.29356384277344
y: 495.4737854003906
z: 0.11497734487056732
visibility: 0.9347883462905884
","x: 258.89031982421875
y: 512.740966796875
z: 0.005950772203505039
visibility: 0.7962192296981812
","x: 223.97543334960938
y: 500.8099365234375
z: 0.12231141328811646
visibility: 0.7386215925216675
","x: 264.3566589355469
y: 520.0316772460938
z: -0.0786018818616867
visibility: 0.9211152791976929
","x: 226.02508544921875
y: 512.8145141601562
z: 0.03663185238838196
visibility: 0.9301546216011047
",,,,,,,,,,,,,,,,,,,,,,,,,,,,,,,,,,,,,,,,,,
17,"x: 249.41952514648438
y: 289.63671875
z: -0.18679530918598175
visibility: 0.9988701939582825
","x: 250.4508056640625
y: 283.5818786621094
z: -0.16857150197029114
visibility: 0.9965906739234924
","x: 251.450927734375
y: 283.2325134277344
z: -0.16855326294898987
visibility: 0.9958609342575073
","x: 252.45758056640625
y: 282.9376525878906
z: -0.168565571308136
visibility: 0.9958163499832153
","x: 247.5126953125
y: 284.2104797363281
z: -0.1739584356546402
visibility: 0.9970933198928833
","x: 246.31455993652344
y: 284.39794921875
z: -0.17400826513767242
visibility: 0.9968765377998352
","x: 245.07273864746094
y: 284.6890869140625
z: -0.17408031225204468
visibility: 0.9973387122154236
","x: 253.42405700683594
y: 284.6832580566406
z: -0.07114468514919281
visibility: 0.9889519214630127
","x: 242.95980834960938
y: 286.5746154785156
z: -0.09394856542348862
visibility: 0.9933167099952698
","x: 251.00538635253906
y: 294.59954833984375
z: -0.1495114266872406
visibility: 0.9973899126052856
","x: 247.48008728027344
y: 295.5526428222656
z: -0.15692974627017975
visibility: 0.9984169602394104
","x: 258.68402099609375
y: 313.9840087890625
z: 0.018860172480344772
visibility: 0.9962849020957947
","x: 236.82614135742188
y: 314.38494873046875
z: -0.07603024691343307
visibility: 0.999356210231781
","x: 261.5100402832031
y: 338.3604431152344
z: 0.13415275514125824
visibility: 0.5315681099891663
","x: 227.53395080566406
y: 343.3229064941406
z: -0.17171820998191833
visibility: 0.9455631375312805
","x: 261.0758972167969
y: 343.2221984863281
z: 0.20135731995105743
visibility: 0.5590001940727234
","x: 216.357421875
y: 348.5598449707031
z: -0.3365376889705658
visibility: 0.8974704146385193
","x: 267.3011779785156
y: 345.5621337890625
z: 0.21719487011432648
visibility: 0.5326606035232544
","x: 211.31141662597656
y: 350.54315185546875
z: -0.3662405014038086
visibility: 0.8505373597145081
","x: 268.0108337402344
y: 344.6650695800781
z: 0.199119433760643
visibility: 0.5403965711593628
","x: 211.341552734375
y: 347.3622131347656
z: -0.38080695271492004
visibility: 0.8520275950431824
","x: 266.4848327636719
y: 343.6306457519531
z: 0.19537633657455444
visibility: 0.4997442960739136
","x: 213.3445587158203
y: 347.3417663574219
z: -0.3465854525566101
visibility: 0.8153900504112244
","x: 258.2884826660156
y: 394.87060546875
z: 0.024772435426712036
visibility: 0.9995793700218201
","x: 242.71871948242188
y: 395.4734802246094
z: -0.024831032380461693
visibility: 0.999578058719635
","x: 264.5508728027344
y: 446.8414001464844
z: 0.008130444213747978
visibility: 0.9696733951568604
","x: 238.6635284423828
y: 447.138916015625
z: -0.007447429932653904
visibility: 0.9686833024024963
","x: 262.30401611328125
y: 504.6557312011719
z: 0.09089674055576324
visibility: 0.9096296429634094
","x: 226.94920349121094
y: 495.7995910644531
z: 0.09130727499723434
visibility: 0.9400638937950134
","x: 263.04534912109375
y: 512.8165283203125
z: 0.09454254806041718
visibility: 0.8011742830276489
","x: 225.3656005859375
y: 501.1102294921875
z: 0.09829466044902802
visibility: 0.7479079365730286
","x: 266.3161926269531
y: 521.1644897460938
z: 0.01116111222654581
visibility: 0.9269735813140869
","x: 224.8888397216797
y: 513.75
z: 0.016570070758461952
visibility: 0.9354308247566223
","x: 217.98658752441406
y: 346.25445556640625
z: 0.0
","x: 214.3910369873047
y: 343.57574462890625
z: -0.0009682856616564095
","x: 210.3793182373047
y: 343.7685546875
z: -0.0009664552053436637
","x: 207.50808715820312
y: 344.85650634765625
z: -0.0011633988469839096
","x: 205.33282470703125
y: 344.9850158691406
z: -0.0012803013669326901
","x: 209.240234375
y: 352.25146484375
z: 0.0015541774919256568
","x: 206.29025268554688
y: 356.1937255859375
z: 0.0006496452842839062
","x: 204.74742126464844
y: 358.8406982421875
z: -6.976771146582905e-06
","x: 203.42684936523438
y: 361.0545349121094
z: -0.0003596784663386643
","x: 210.44061279296875
y: 355.4864807128906
z: 0.0008802332449704409
","x: 207.66067504882812
y: 360.3045959472656
z: 0.000519411638379097
","x: 206.00930786132812
y: 363.50396728515625
z: -4.393919880385511e-06
","x: 204.7318878173828
y: 366.3055419921875
z: -0.0004932673764415085
","x: 212.03111267089844
y: 357.7257995605469
z: -0.0002586311020422727
","x: 209.73321533203125
y: 362.85296630859375
z: -0.0014379664789885283
","x: 208.35513305664062
y: 365.875
z: -0.002238867338746786
","x: 207.23818969726562
y: 368.2068176269531
z: -0.002672696253284812
","x: 213.9979705810547
y: 358.93524169921875
z: -0.001657180837355554
","x: 212.66250610351562
y: 363.626220703125
z: -0.003133811056613922
","x: 211.80201721191406
y: 366.245361328125
z: -0.0037764464505016804
","x: 211.05859375
y: 368.2553405761719
z: -0.003979572560638189
","x: 268.2618713378906
y: 336.61279296875
z: 0.0
","x: 267.27978515625
y: 344.924072265625
z: -0.0017675402341410518
","x: 267.3645935058594
y: 353.1747131347656
z: -0.00506341177970171
","x: 267.4693298339844
y: 358.6349182128906
z: -0.008862079121172428
","x: 268.28009033203125
y: 361.82183837890625
z: -0.011960510164499283
","x: 274.1665954589844
y: 355.7423400878906
z: -0.00501355342566967
","x: 272.74517822265625
y: 358.94970703125
z: -0.009797273203730583
","x: 269.7331237792969
y: 357.4620361328125
z: -0.011587593704462051
","x: 268.8905944824219
y: 356.8382568359375
z: -0.012426900677382946
","x: 275.1669616699219
y: 351.0126953125
z: -0.0072758980095386505
","x: 271.5565490722656
y: 353.80633544921875
z: -0.012525367550551891
","x: 268.8646545410156
y: 351.68572998046875
z: -0.01189650408923626
","x: 269.418212890625
y: 350.4661865234375
z: -0.01097763143479824
","x: 275.1729431152344
y: 345.5886535644531
z: -0.009946913458406925
","x: 271.6199951171875
y: 348.2946472167969
z: -0.013876589015126228
","x: 269.3260192871094
y: 346.68682861328125
z: -0.01164303719997406
","x: 269.65008544921875
y: 345.6976623535156
z: -0.009828339330852032
","x: 274.68157958984375
y: 340.28790283203125
z: -0.013067933730781078
","x: 271.6029052734375
y: 342.4413757324219
z: -0.014630726538598537
","x: 269.7735595703125
y: 342.243896484375
z: -0.013271131552755833
","x: 269.8854064941406
y: 341.9827880859375
z: -0.01213031355291605
"
18,"x: 249.41952514648438
y: 289.63671875
z: -0.18679530918598175
visibility: 0.9988701939582825
","x: 250.4508056640625
y: 283.5818786621094
z: -0.16857150197029114
visibility: 0.9965906739234924
","x: 251.450927734375
y: 283.2325134277344
z: -0.16855326294898987
visibility: 0.9958609342575073
","x: 252.45758056640625
y: 282.9376525878906
z: -0.168565571308136
visibility: 0.9958163499832153
","x: 247.5126953125
y: 284.2104797363281
z: -0.1739584356546402
visibility: 0.9970933198928833
","x: 246.31455993652344
y: 284.39794921875
z: -0.17400826513767242
visibility: 0.9968765377998352
","x: 245.07273864746094
y: 284.6890869140625
z: -0.17408031225204468
visibility: 0.9973387122154236
","x: 253.42405700683594
y: 284.6832580566406
z: -0.07114468514919281
visibility: 0.9889519214630127
","x: 242.95980834960938
y: 286.5746154785156
z: -0.09394856542348862
visibility: 0.9933167099952698
","x: 251.00538635253906
y: 294.59954833984375
z: -0.1495114266872406
visibility: 0.9973899126052856
","x: 247.48008728027344
y: 295.5526428222656
z: -0.15692974627017975
visibility: 0.9984169602394104
","x: 258.68402099609375
y: 313.9840087890625
z: 0.018860172480344772
visibility: 0.9962849020957947
","x: 236.82614135742188
y: 314.38494873046875
z: -0.07603024691343307
visibility: 0.999356210231781
","x: 261.5100402832031
y: 338.3604431152344
z: 0.13415275514125824
visibility: 0.5315681099891663
","x: 227.53395080566406
y: 343.3229064941406
z: -0.17171820998191833
visibility: 0.9455631375312805
","x: 261.0758972167969
y: 343.2221984863281
z: 0.20135731995105743
visibility: 0.5590001940727234
","x: 216.357421875
y: 348.5598449707031
z: -0.3365376889705658
visibility: 0.8974704146385193
","x: 267.3011779785156
y: 345.5621337890625
z: 0.21719487011432648
visibility: 0.5326606035232544
","x: 211.31141662597656
y: 350.54315185546875
z: -0.3662405014038086
visibility: 0.8505373597145081
","x: 268.0108337402344
y: 344.6650695800781
z: 0.199119433760643
visibility: 0.5403965711593628
","x: 211.341552734375
y: 347.3622131347656
z: -0.38080695271492004
visibility: 0.8520275950431824
","x: 266.4848327636719
y: 343.6306457519531
z: 0.19537633657455444
visibility: 0.4997442960739136
","x: 213.3445587158203
y: 347.3417663574219
z: -0.3465854525566101
visibility: 0.8153900504112244
","x: 258.2884826660156
y: 394.87060546875
z: 0.024772435426712036
visibility: 0.9995793700218201
","x: 242.71871948242188
y: 395.4734802246094
z: -0.024831032380461693
visibility: 0.999578058719635
","x: 264.5508728027344
y: 446.8414001464844
z: 0.008130444213747978
visibility: 0.9696733951568604
","x: 238.6635284423828
y: 447.138916015625
z: -0.007447429932653904
visibility: 0.9686833024024963
","x: 262.30401611328125
y: 504.6557312011719
z: 0.09089674055576324
visibility: 0.9096296429634094
","x: 226.94920349121094
y: 495.7995910644531
z: 0.09130727499723434
visibility: 0.9400638937950134
","x: 263.04534912109375
y: 512.8165283203125
z: 0.09454254806041718
visibility: 0.8011742830276489
","x: 225.3656005859375
y: 501.1102294921875
z: 0.09829466044902802
visibility: 0.7479079365730286
","x: 266.3161926269531
y: 521.1644897460938
z: 0.01116111222654581
visibility: 0.9269735813140869
","x: 224.8888397216797
y: 513.75
z: 0.016570070758461952
visibility: 0.9354308247566223
","x: 217.98658752441406
y: 346.25445556640625
z: 0.0
","x: 214.3910369873047
y: 343.57574462890625
z: -0.0009682856616564095
","x: 210.3793182373047
y: 343.7685546875
z: -0.0009664552053436637
","x: 207.50808715820312
y: 344.85650634765625
z: -0.0011633988469839096
","x: 205.33282470703125
y: 344.9850158691406
z: -0.0012803013669326901
","x: 209.240234375
y: 352.25146484375
z: 0.0015541774919256568
","x: 206.29025268554688
y: 356.1937255859375
z: 0.0006496452842839062
","x: 204.74742126464844
y: 358.8406982421875
z: -6.976771146582905e-06
","x: 203.42684936523438
y: 361.0545349121094
z: -0.0003596784663386643
","x: 210.44061279296875
y: 355.4864807128906
z: 0.0008802332449704409
","x: 207.66067504882812
y: 360.3045959472656
z: 0.000519411638379097
","x: 206.00930786132812
y: 363.50396728515625
z: -4.393919880385511e-06
","x: 204.7318878173828
y: 366.3055419921875
z: -0.0004932673764415085
","x: 212.03111267089844
y: 357.7257995605469
z: -0.0002586311020422727
","x: 209.73321533203125
y: 362.85296630859375
z: -0.0014379664789885283
","x: 208.35513305664062
y: 365.875
z: -0.002238867338746786
","x: 207.23818969726562
y: 368.2068176269531
z: -0.002672696253284812
","x: 213.9979705810547
y: 358.93524169921875
z: -0.001657180837355554
","x: 212.66250610351562
y: 363.626220703125
z: -0.003133811056613922
","x: 211.80201721191406
y: 366.245361328125
z: -0.0037764464505016804
","x: 211.05859375
y: 368.2553405761719
z: -0.003979572560638189
","x: 268.2618713378906
y: 336.61279296875
z: 0.0
","x: 267.27978515625
y: 344.924072265625
z: -0.0017675402341410518
","x: 267.3645935058594
y: 353.1747131347656
z: -0.00506341177970171
","x: 267.4693298339844
y: 358.6349182128906
z: -0.008862079121172428
","x: 268.28009033203125
y: 361.82183837890625
z: -0.011960510164499283
","x: 274.1665954589844
y: 355.7423400878906
z: -0.00501355342566967
","x: 272.74517822265625
y: 358.94970703125
z: -0.009797273203730583
","x: 269.7331237792969
y: 357.4620361328125
z: -0.011587593704462051
","x: 268.8905944824219
y: 356.8382568359375
z: -0.012426900677382946
","x: 275.1669616699219
y: 351.0126953125
z: -0.0072758980095386505
","x: 271.5565490722656
y: 353.80633544921875
z: -0.012525367550551891
","x: 268.8646545410156
y: 351.68572998046875
z: -0.01189650408923626
","x: 269.418212890625
y: 350.4661865234375
z: -0.01097763143479824
","x: 275.1729431152344
y: 345.5886535644531
z: -0.009946913458406925
","x: 271.6199951171875
y: 348.2946472167969
z: -0.013876589015126228
","x: 269.3260192871094
y: 346.68682861328125
z: -0.01164303719997406
","x: 269.65008544921875
y: 345.6976623535156
z: -0.009828339330852032
","x: 274.68157958984375
y: 340.28790283203125
z: -0.013067933730781078
","x: 271.6029052734375
y: 342.4413757324219
z: -0.014630726538598537
","x: 269.7735595703125
y: 342.243896484375
z: -0.013271131552755833
","x: 269.8854064941406
y: 341.9827880859375
z: -0.01213031355291605
"
19,"x: 249.41952514648438
y: 289.63671875
z: -0.18679530918598175
visibility: 0.9988701939582825
","x: 250.4508056640625
y: 283.5818786621094
z: -0.16857150197029114
visibility: 0.9965906739234924
","x: 251.450927734375
y: 283.2325134277344
z: -0.16855326294898987
visibility: 0.9958609342575073
","x: 252.45758056640625
y: 282.9376525878906
z: -0.168565571308136
visibility: 0.9958163499832153
","x: 247.5126953125
y: 284.2104797363281
z: -0.1739584356546402
visibility: 0.9970933198928833
","x: 246.31455993652344
y: 284.39794921875
z: -0.17400826513767242
visibility: 0.9968765377998352
","x: 245.07273864746094
y: 284.6890869140625
z: -0.17408031225204468
visibility: 0.9973387122154236
","x: 253.42405700683594
y: 284.6832580566406
z: -0.07114468514919281
visibility: 0.9889519214630127
","x: 242.95980834960938
y: 286.5746154785156
z: -0.09394856542348862
visibility: 0.9933167099952698
","x: 251.00538635253906
y: 294.59954833984375
z: -0.1495114266872406
visibility: 0.9973899126052856
","x: 247.48008728027344
y: 295.5526428222656
z: -0.15692974627017975
visibility: 0.9984169602394104
","x: 258.68402099609375
y: 313.9840087890625
z: 0.018860172480344772
visibility: 0.9962849020957947
","x: 236.82614135742188
y: 314.38494873046875
z: -0.07603024691343307
visibility: 0.999356210231781
","x: 261.5100402832031
y: 338.3604431152344
z: 0.13415275514125824
visibility: 0.5315681099891663
","x: 227.53395080566406
y: 343.3229064941406
z: -0.17171820998191833
visibility: 0.9455631375312805
","x: 261.0758972167969
y: 343.2221984863281
z: 0.20135731995105743
visibility: 0.5590001940727234
","x: 216.357421875
y: 348.5598449707031
z: -0.3365376889705658
visibility: 0.8974704146385193
","x: 267.3011779785156
y: 345.5621337890625
z: 0.21719487011432648
visibility: 0.5326606035232544
","x: 211.31141662597656
y: 350.54315185546875
z: -0.3662405014038086
visibility: 0.8505373597145081
","x: 268.0108337402344
y: 344.6650695800781
z: 0.199119433760643
visibility: 0.5403965711593628
","x: 211.341552734375
y: 347.3622131347656
z: -0.38080695271492004
visibility: 0.8520275950431824
","x: 266.4848327636719
y: 343.6306457519531
z: 0.19537633657455444
visibility: 0.4997442960739136
","x: 213.3445587158203
y: 347.3417663574219
z: -0.3465854525566101
visibility: 0.8153900504112244
","x: 258.2884826660156
y: 394.87060546875
z: 0.024772435426712036
visibility: 0.9995793700218201
","x: 242.71871948242188
y: 395.4734802246094
z: -0.024831032380461693
visibility: 0.999578058719635
","x: 264.5508728027344
y: 446.8414001464844
z: 0.008130444213747978
visibility: 0.9696733951568604
","x: 238.6635284423828
y: 447.138916015625
z: -0.007447429932653904
visibility: 0.9686833024024963
","x: 262.30401611328125
y: 504.6557312011719
z: 0.09089674055576324
visibility: 0.9096296429634094
","x: 226.94920349121094
y: 495.7995910644531
z: 0.09130727499723434
visibility: 0.9400638937950134
","x: 263.04534912109375
y: 512.8165283203125
z: 0.09454254806041718
visibility: 0.8011742830276489
","x: 225.3656005859375
y: 501.1102294921875
z: 0.09829466044902802
visibility: 0.7479079365730286
","x: 266.3161926269531
y: 521.1644897460938
z: 0.01116111222654581
visibility: 0.9269735813140869
","x: 224.8888397216797
y: 513.75
z: 0.016570070758461952
visibility: 0.9354308247566223
","x: 217.98658752441406
y: 346.25445556640625
z: 0.0
","x: 214.3910369873047
y: 343.57574462890625
z: -0.0009682856616564095
","x: 210.3793182373047
y: 343.7685546875
z: -0.0009664552053436637
","x: 207.50808715820312
y: 344.85650634765625
z: -0.0011633988469839096
","x: 205.33282470703125
y: 344.9850158691406
z: -0.0012803013669326901
","x: 209.240234375
y: 352.25146484375
z: 0.0015541774919256568
","x: 206.29025268554688
y: 356.1937255859375
z: 0.0006496452842839062
","x: 204.74742126464844
y: 358.8406982421875
z: -6.976771146582905e-06
","x: 203.42684936523438
y: 361.0545349121094
z: -0.0003596784663386643
","x: 210.44061279296875
y: 355.4864807128906
z: 0.0008802332449704409
","x: 207.66067504882812
y: 360.3045959472656
z: 0.000519411638379097
","x: 206.00930786132812
y: 363.50396728515625
z: -4.393919880385511e-06
","x: 204.7318878173828
y: 366.3055419921875
z: -0.0004932673764415085
","x: 212.03111267089844
y: 357.7257995605469
z: -0.0002586311020422727
","x: 209.73321533203125
y: 362.85296630859375
z: -0.0014379664789885283
","x: 208.35513305664062
y: 365.875
z: -0.002238867338746786
","x: 207.23818969726562
y: 368.2068176269531
z: -0.002672696253284812
","x: 213.9979705810547
y: 358.93524169921875
z: -0.001657180837355554
","x: 212.66250610351562
y: 363.626220703125
z: -0.003133811056613922
","x: 211.80201721191406
y: 366.245361328125
z: -0.0037764464505016804
","x: 211.05859375
y: 368.2553405761719
z: -0.003979572560638189
","x: 268.2618713378906
y: 336.61279296875
z: 0.0
","x: 267.27978515625
y: 344.924072265625
z: -0.0017675402341410518
","x: 267.3645935058594
y: 353.1747131347656
z: -0.00506341177970171
","x: 267.4693298339844
y: 358.6349182128906
z: -0.008862079121172428
","x: 268.28009033203125
y: 361.82183837890625
z: -0.011960510164499283
","x: 274.1665954589844
y: 355.7423400878906
z: -0.00501355342566967
","x: 272.74517822265625
y: 358.94970703125
z: -0.009797273203730583
","x: 269.7331237792969
y: 357.4620361328125
z: -0.011587593704462051
","x: 268.8905944824219
y: 356.8382568359375
z: -0.012426900677382946
","x: 275.1669616699219
y: 351.0126953125
z: -0.0072758980095386505
","x: 271.5565490722656
y: 353.80633544921875
z: -0.012525367550551891
","x: 268.8646545410156
y: 351.68572998046875
z: -0.01189650408923626
","x: 269.418212890625
y: 350.4661865234375
z: -0.01097763143479824
","x: 275.1729431152344
y: 345.5886535644531
z: -0.009946913458406925
","x: 271.6199951171875
y: 348.2946472167969
z: -0.013876589015126228
","x: 269.3260192871094
y: 346.68682861328125
z: -0.01164303719997406
","x: 269.65008544921875
y: 345.6976623535156
z: -0.009828339330852032
","x: 274.68157958984375
y: 340.28790283203125
z: -0.013067933730781078
","x: 271.6029052734375
y: 342.4413757324219
z: -0.014630726538598537
","x: 269.7735595703125
y: 342.243896484375
z: -0.013271131552755833
","x: 269.8854064941406
y: 341.9827880859375
z: -0.01213031355291605
"
20,"x: 249.37274169921875
y: 287.45928955078125
z: -0.25839391350746155
visibility: 0.9989811182022095
","x: 250.4866180419922
y: 281.48321533203125
z: -0.24685809016227722
visibility: 0.9969244003295898
","x: 251.51785278320312
y: 281.1603698730469
z: -0.24683070182800293
visibility: 0.9962669014930725
","x: 252.593017578125
y: 280.93408203125
z: -0.24682584404945374
visibility: 0.9962254166603088
","x: 247.52798461914062
y: 282.1887512207031
z: -0.24942028522491455
visibility: 0.9973778128623962
","x: 246.28411865234375
y: 282.41192626953125
z: -0.24948124587535858
visibility: 0.9971836805343628
","x: 244.97216796875
y: 282.72442626953125
z: -0.2495187520980835
visibility: 0.9975994229316711
","x: 253.39605712890625
y: 283.16265869140625
z: -0.16167904436588287
visibility: 0.9900312423706055
","x: 242.63934326171875
y: 284.722900390625
z: -0.17441518604755402
visibility: 0.9939760565757751
","x: 251.01022338867188
y: 292.51458740234375
z: -0.22487309575080872
visibility: 0.997644305229187
","x: 247.571533203125
y: 293.43084716796875
z: -0.22867777943611145
visibility: 0.9985706806182861
","x: 260.29656982421875
y: 315.4197998046875
z: -0.08956889808177948
visibility: 0.9966500401496887
","x: 234.6145477294922
y: 309.2712707519531
z: -0.10459604114294052
visibility: 0.9994186758995056
","x: 264.23968505859375
y: 346.6093444824219
z: -0.04159630089998245
visibility: 0.5720194578170776
","x: 222.16671752929688
y: 342.98565673828125
z: -0.08299131691455841
visibility: 0.950356125831604
","x: 268.57269287109375
y: 382.6578063964844
z: -0.0999903529882431
visibility: 0.5920366644859314
","x: 211.80496215820312
y: 368.18829345703125
z: -0.13941308856010437
visibility: 0.90590500831604
","x: 272.2632751464844
y: 391.54931640625
z: -0.11412335932254791
visibility: 0.559958279132843
","x: 208.10462951660156
y: 376.0274963378906
z: -0.15562330186367035
visibility: 0.8609312176704407
","x: 272.6319274902344
y: 391.24334716796875
z: -0.14578242599964142
visibility: 0.5693180561065674
","x: 209.35040283203125
y: 377.3989562988281
z: -0.1837867796421051
visibility: 0.8628582954406738
","x: 270.8896484375
y: 389.4222412109375
z: -0.11434707790613174
visibility: 0.5301421284675598
","x: 211.0883331298828
y: 375.4469299316406
z: -0.15210369229316711
visibility: 0.8292726874351501
","x: 259.7076721191406
y: 388.43359375
z: 0.006800820119678974
visibility: 0.9996036291122437
","x: 243.93072509765625
y: 390.919921875
z: -0.006841906346380711
visibility: 0.9996065497398376
","x: 265.6662292480469
y: 443.84259033203125
z: -0.02332373335957527
visibility: 0.9722684621810913
","x: 239.7523956298828
y: 446.0496826171875
z: -0.0050071170553565025
visibility: 0.9711501002311707
","x: 262.9609069824219
y: 503.44891357421875
z: 0.064787358045578
visibility: 0.9182947874069214
","x: 229.3374481201172
y: 495.5543212890625
z: 0.09785117954015732
visibility: 0.9455558657646179
","x: 263.84063720703125
y: 511.39385986328125
z: 0.07662029564380646
visibility: 0.8132637739181519
","x: 228.74496459960938
y: 501.06243896484375
z: 0.10255348682403564
visibility: 0.7619507312774658
","x: 267.4541320800781
y: 520.7465209960938
z: -0.027781203389167786
visibility: 0.933602511882782
","x: 224.83053588867188
y: 513.9461669921875
z: 0.015268713235855103
visibility: 0.9411007761955261
",,,,,,,,,,,,,,,,,,,,,,,,,,,,,,,,,,,,,,,,,,
21,"x: 248.45452880859375
y: 288.150146484375
z: -0.2617456614971161
visibility: 0.9990803003311157
","x: 249.24505615234375
y: 282.5677185058594
z: -0.2518685460090637
visibility: 0.9972193241119385
","x: 250.19708251953125
y: 282.4010925292969
z: -0.25187936425209045
visibility: 0.9966275691986084
","x: 251.2069091796875
y: 282.299560546875
z: -0.25190991163253784
visibility: 0.9965900182723999
","x: 246.54385375976562
y: 282.8113708496094
z: -0.2520357072353363
visibility: 0.997628927230835
","x: 245.44984436035156
y: 282.8944091796875
z: -0.252083957195282
visibility: 0.9974544048309326
","x: 244.3330535888672
y: 283.0905456542969
z: -0.25210684537887573
visibility: 0.9978268146514893
","x: 252.88267517089844
y: 284.75048828125
z: -0.1769678294658661
visibility: 0.9910010695457458
","x: 242.40548706054688
y: 285.5833740234375
z: -0.17779630422592163
visibility: 0.9945554733276367
","x: 250.44613647460938
y: 293.3310241699219
z: -0.23276837170124054
visibility: 0.9978733062744141
","x: 247.10557556152344
y: 294.04766845703125
z: -0.233061283826828
visibility: 0.9987063407897949
","x: 261.810546875
y: 316.25811767578125
z: -0.11394800245761871
visibility: 0.9969809055328369
","x: 233.60032653808594
y: 310.8984680175781
z: -0.11756507307291031
visibility: 0.9994729161262512
","x: 275.6732177734375
y: 347.65069580078125
z: -0.08953595906496048
visibility: 0.6142585873603821
","x: 224.23350524902344
y: 346.3038330078125
z: -0.08780302852392197
visibility: 0.9537823796272278
","x: 290.1866760253906
y: 376.43048095703125
z: -0.15886977314949036
visibility: 0.6304847598075867
","x: 217.07476806640625
y: 381.4768981933594
z: -0.1632719784975052
visibility: 0.9109934568405151
","x: 295.1806945800781
y: 383.232666015625
z: -0.17566534876823425
visibility: 0.5976442098617554
","x: 214.70172119140625
y: 392.44677734375
z: -0.18209455907344818
visibility: 0.8653736710548401
","x: 295.4729309082031
y: 382.788818359375
z: -0.20309677720069885
visibility: 0.6071218848228455
","x: 215.71975708007812
y: 392.8869934082031
z: -0.2070850431919098
visibility: 0.8681214451789856
","x: 293.6284484863281
y: 380.904052734375
z: -0.17180894315242767
visibility: 0.5711134076118469
","x: 216.73199462890625
y: 389.1201171875
z: -0.1751963496208191
visibility: 0.836775541305542
","x: 257.4338684082031
y: 391.2637939453125
z: 0.0017414884641766548
visibility: 0.9996262788772583
","x: 239.8299102783203
y: 391.6158447265625
z: -0.0017678635194897652
visibility: 0.9996284246444702
","x: 263.7303161621094
y: 443.91717529296875
z: -0.03718418627977371
visibility: 0.9745613932609558
","x: 235.17686462402344
y: 445.4673767089844
z: -0.0065141222439706326
visibility: 0.9737046957015991
","x: 263.5413818359375
y: 503.27587890625
z: 0.03580252081155777
visibility: 0.9261115789413452
","x: 230.57838439941406
y: 495.3748779296875
z: 0.10472510755062103
visibility: 0.9505628347396851
","x: 264.0593566894531
y: 511.28778076171875
z: 0.03730515390634537
visibility: 0.8263377547264099
","x: 230.8246307373047
y: 500.90289306640625
z: 0.11025943607091904
visibility: 0.7783219814300537
","x: 268.44775390625
y: 520.2969970703125
z: -0.06062866374850273
visibility: 0.9395100474357605
","x: 225.1856231689453
y: 514.1806640625
z: 0.028076067566871643
visibility: 0.94618821144104
",,,,,,,,,,,,,,,,,,,,,,,,,,,,,,,,,,,,,,,,,,
22,"x: 247.00083923339844
y: 288.36773681640625
z: -0.25441086292266846
visibility: 0.9991710186004639
","x: 248.26348876953125
y: 282.8567199707031
z: -0.2455875128507614
visibility: 0.9974884390830994
","x: 249.21226501464844
y: 282.639892578125
z: -0.24561388790607452
visibility: 0.9969577789306641
","x: 250.25717163085938
y: 282.5425109863281
z: -0.24564318358898163
visibility: 0.9969220757484436
","x: 245.48574829101562
y: 283.3134765625
z: -0.24371549487113953
visibility: 0.9978576898574829
","x: 244.47793579101562
y: 283.4759521484375
z: -0.24373836815357208
visibility: 0.9977006316184998
","x: 243.48658752441406
y: 283.7326354980469
z: -0.24372883141040802
visibility: 0.998030960559845
","x: 252.70643615722656
y: 284.8127136230469
z: -0.1743183434009552
visibility: 0.9918849468231201
","x: 242.02394104003906
y: 286.2074890136719
z: -0.16479238867759705
visibility: 0.995083212852478
","x: 249.20986938476562
y: 293.49749755859375
z: -0.22691214084625244
visibility: 0.9980833530426025
","x: 245.32090759277344
y: 294.383056640625
z: -0.22415956854820251
visibility: 0.9988318681716919
","x: 262.57403564453125
y: 316.82989501953125
z: -0.11401649564504623
visibility: 0.9972816109657288
","x: 232.75843811035156
y: 312.80731201171875
z: -0.1007976084947586
visibility: 0.9995227456092834
","x: 280.11968994140625
y: 342.7414245605469
z: -0.12628693878650665
visibility: 0.6525843739509583
","x: 225.9471435546875
y: 352.70550537109375
z: -0.08759842813014984
visibility: 0.9570991396903992
","x: 294.6772766113281
y: 368.45025634765625
z: -0.24617242813110352
visibility: 0.666650116443634
","x: 220.96722412109375
y: 386.54705810546875
z: -0.17337273061275482
visibility: 0.9183129072189331
","x: 300.6245422363281
y: 382.861328125
z: -0.270982950925827
visibility: 0.6357236504554749
","x: 219.47230529785156
y: 399.02459716796875
z: -0.19312287867069244
visibility: 0.8751153349876404
","x: 299.916259765625
y: 379.4163513183594
z: -0.29520437121391296
visibility: 0.6446818709373474
","x: 220.5360870361328
y: 398.80242919921875
z: -0.21504370868206024
visibility: 0.8778417706489563
","x: 297.51885986328125
y: 380.15924072265625
z: -0.258182555437088
visibility: 0.6117537617683411
","x: 221.62701416015625
y: 394.61138916015625
z: -0.1838187873363495
visibility: 0.8484587073326111
","x: 253.7357940673828
y: 392.50787353515625
z: -0.002822362119331956
visibility: 0.9996528029441833
","x: 235.09854125976562
y: 390.9364013671875
z: 0.0027919351123273373
visibility: 0.9996499419212341
","x: 257.68804931640625
y: 445.8741760253906
z: -0.03592461347579956
visibility: 0.976269006729126
","x: 230.88343811035156
y: 446.1514587402344
z: 0.01661797985434532
visibility: 0.9760311841964722
","x: 263.81634521484375
y: 502.8184814453125
z: 0.033087510615587234
visibility: 0.9331635236740112
","x: 229.69754028320312
y: 495.7208251953125
z: 0.15495672821998596
visibility: 0.9551448225975037
","x: 262.74810791015625
y: 510.3905944824219
z: 0.033548470586538315
visibility: 0.8384869694709778
","x: 231.36231994628906
y: 501.7672424316406
z: 0.16238543391227722
visibility: 0.7953281998634338
","x: 268.6900634765625
y: 520.5458984375
z: -0.065430648624897
visibility: 0.9447748064994812
","x: 224.79495239257812
y: 514.861328125
z: 0.07934578508138657
visibility: 0.9509073495864868
",,,,,,,,,,,,,,,,,,,,,,,,,,,,,,,,,,,,,,,,,,
23,"x: 247.287109375
y: 289.53436279296875
z: -0.18516287207603455
visibility: 0.9992489218711853
","x: 248.27459716796875
y: 284.0593566894531
z: -0.17417773604393005
visibility: 0.9977152943611145
","x: 249.1948699951172
y: 283.741943359375
z: -0.1742255985736847
visibility: 0.9972420334815979
","x: 250.19845581054688
y: 283.5404052734375
z: -0.17422856390476227
visibility: 0.9972058534622192
","x: 245.3950653076172
y: 284.99462890625
z: -0.17306555807590485
visibility: 0.9980485439300537
","x: 244.28466796875
y: 285.3100891113281
z: -0.1730855256319046
visibility: 0.9979093074798584
","x: 243.203369140625
y: 285.66290283203125
z: -0.17308394610881805
visibility: 0.9982044100761414
","x: 252.25527954101562
y: 286.25897216796875
z: -0.10543296486139297
visibility: 0.9926530718803406
","x: 241.56114196777344
y: 288.71722412109375
z: -0.09490649402141571
visibility: 0.9955448508262634
","x: 249.3662109375
y: 294.458251953125
z: -0.15884648263454437
visibility: 0.9982666373252869
","x: 245.61001586914062
y: 295.6595153808594
z: -0.1561940312385559
visibility: 0.9989362359046936
","x: 262.8690185546875
y: 315.93212890625
z: -0.07524392008781433
visibility: 0.9975501894950867
","x: 233.6359405517578
y: 319.5849609375
z: -0.03730163723230362
visibility: 0.9995626211166382
","x: 279.05743408203125
y: 325.30584716796875
z: -0.1258094757795334
visibility: 0.685936689376831
","x: 227.65219116210938
y: 359.1917419433594
z: -0.028141697868704796
visibility: 0.95938640832901
","x: 289.5059814453125
y: 344.0057373046875
z: -0.28495103120803833
visibility: 0.6917403936386108
","x: 223.4947509765625
y: 389.493408203125
z: -0.10747448354959488
visibility: 0.9232690930366516
","x: 296.3768615722656
y: 348.8186950683594
z: -0.31688615679740906
visibility: 0.6569494009017944
","x: 221.8947296142578
y: 400.6982116699219
z: -0.12664875388145447
visibility: 0.8810943365097046
","x: 279.260498046875
y: 350.0741882324219
z: -0.3269895613193512
visibility: 0.6662026047706604
","x: 222.79115295410156
y: 400.1754455566406
z: -0.14759446680545807
visibility: 0.8839942216873169
","x: 277.8375549316406
y: 346.250732421875
z: -0.2928456664085388
visibility: 0.6340197324752808
","x: 223.86932373046875
y: 397.40740966796875
z: -0.11677628755569458
visibility: 0.855559766292572
","x: 252.6600799560547
y: 393.2460021972656
z: -0.012664544396102428
visibility: 0.9996788501739502
","x: 236.0397491455078
y: 391.01483154296875
z: 0.012611699290573597
visibility: 0.9996629953384399
","x: 250.28016662597656
y: 446.6142578125
z: -0.07410069555044174
visibility: 0.9774728417396545
","x: 230.32485961914062
y: 446.9861145019531
z: 0.010374201461672783
visibility: 0.977220892906189
","x: 263.8346862792969
y: 502.56640625
z: -0.01637089252471924
visibility: 0.9392378330230713
","x: 227.07095336914062
y: 497.6292419433594
z: 0.12776872515678406
visibility: 0.9581277370452881
","x: 264.8884582519531
y: 508.4784240722656
z: -0.015750573948025703
visibility: 0.8385370969772339
","x: 229.1510772705078
y: 504.8282165527344
z: 0.13209328055381775
visibility: 0.801860511302948
","x: 268.4272766113281
y: 520.1196899414062
z: -0.1155884861946106
visibility: 0.9489855766296387
","x: 224.7055206298828
y: 514.5816650390625
z: 0.04548458382487297
visibility: 0.9535665512084961
",,,,,,,,,,,,,,,,,,,,,,,,,,,,,,,,,,,,,,,,,,
24,"x: 246.96206665039062
y: 289.7180480957031
z: -0.16422922909259796
visibility: 0.9992845058441162
","x: 248.31861877441406
y: 284.2339782714844
z: -0.15407972037792206
visibility: 0.9978158473968506
","x: 249.3002166748047
y: 283.9739990234375
z: -0.15417006611824036
visibility: 0.9973968267440796
","x: 250.38377380371094
y: 283.8074035644531
z: -0.1541844755411148
visibility: 0.9973687529563904
","x: 245.44290161132812
y: 285.05810546875
z: -0.15022872388362885
visibility: 0.9981328845024109
","x: 244.40234375
y: 285.3537902832031
z: -0.15021322667598724
visibility: 0.997994065284729
","x: 243.39529418945312
y: 285.6749267578125
z: -0.15020927786827087
visibility: 0.998241126537323
","x: 253.1329803466797
y: 287.2632751464844
z: -0.09204766154289246
visibility: 0.9931833148002625
","x: 242.2913360595703
y: 288.8274230957031
z: -0.07035312801599503
visibility: 0.9956998825073242
","x: 249.01416015625
y: 294.7209777832031
z: -0.14136037230491638
visibility: 0.9983775019645691
","x: 245.467529296875
y: 295.7142333984375
z: -0.13526739180088043
visibility: 0.9989516735076904
","x: 262.72357177734375
y: 315.5862731933594
z: -0.07116654515266418
visibility: 0.9977768063545227
","x: 234.2991485595703
y: 322.7091979980469
z: -0.009884534403681755
visibility: 0.9994873404502869
","x: 279.4577331542969
y: 326.742431640625
z: -0.13296416401863098
visibility: 0.71538907289505
","x: 231.56871032714844
y: 361.2763977050781
z: 0.006170575972646475
visibility: 0.9392020106315613
","x: 284.0142822265625
y: 346.6714782714844
z: -0.2594384551048279
visibility: 0.708050549030304
","x: 227.54299926757812
y: 394.026123046875
z: -0.07411891222000122
visibility: 0.9029062986373901
","x: 287.40533447265625
y: 359.9893798828125
z: -0.2891620993614197
visibility: 0.6666091084480286
","x: 225.8818359375
y: 406.0949401855469
z: -0.09059023857116699
visibility: 0.8562873005867004
","x: 280.2073974609375
y: 360.45147705078125
z: -0.29867133498191833
visibility: 0.6760225296020508
","x: 225.6011962890625
y: 406.08599853515625
z: -0.11473940312862396
visibility: 0.8603326678276062
","x: 278.2713928222656
y: 348.22900390625
z: -0.26617199182510376
visibility: 0.6426534652709961
","x: 226.5584259033203
y: 401.7478942871094
z: -0.08546436578035355
visibility: 0.8316404819488525
","x: 254.00315856933594
y: 399.400634765625
z: -0.023782934993505478
visibility: 0.9996721744537354
","x: 237.947509765625
y: 396.79425048828125
z: 0.023819828405976295
visibility: 0.9995922446250916
","x: 256.77484130859375
y: 450.3502197265625
z: -0.04644379764795303
visibility: 0.9786239862442017
","x: 230.89215087890625
y: 449.552734375
z: 0.039818137884140015
visibility: 0.9787656664848328
","x: 265.4400329589844
y: 504.4091796875
z: 0.011877816170454025
visibility: 0.9447848796844482
","x: 228.96730041503906
y: 499.7517395019531
z: 0.15120729804039001
visibility: 0.9616111516952515
","x: 267.1723327636719
y: 512.1256103515625
z: 0.013655247166752815
visibility: 0.844990611076355
","x: 230.46905517578125
y: 506.33843994140625
z: 0.15684747695922852
visibility: 0.8161380290985107
","x: 268.7326354980469
y: 519.8386840820312
z: -0.0801655650138855
visibility: 0.9527652263641357
","x: 223.8232421875
y: 514.4383544921875
z: 0.08614878356456757
visibility: 0.9569473266601562
",,,,,,,,,,,,,,,,,,,,,,,,,,,,,,,,,,,,,,,,,,
25,"x: 248.0381622314453
y: 289.7658386230469
z: -0.15918701887130737
visibility: 0.9992483854293823
","x: 249.3335723876953
y: 284.477294921875
z: -0.1519482135772705
visibility: 0.9978834390640259
","x: 250.31455993652344
y: 284.27069091796875
z: -0.15202206373214722
visibility: 0.9975358843803406
","x: 251.39039611816406
y: 284.140869140625
z: -0.15207205712795258
visibility: 0.997527003288269
","x: 246.50485229492188
y: 285.173095703125
z: -0.1437670737504959
visibility: 0.9981435537338257
","x: 245.4105682373047
y: 285.4456787109375
z: -0.14373843371868134
visibility: 0.9979771375656128
","x: 244.2711944580078
y: 285.7430725097656
z: -0.14374098181724548
visibility: 0.998149573802948
","x: 253.72987365722656
y: 287.59295654296875
z: -0.09529963880777359
visibility: 0.993735671043396
","x: 243.60614013671875
y: 288.8725891113281
z: -0.05701279640197754
visibility: 0.9956746697425842
","x: 250.03111267089844
y: 294.9005432128906
z: -0.13832561671733856
visibility: 0.9984110593795776
","x: 246.48638916015625
y: 295.73382568359375
z: -0.1270865499973297
visibility: 0.9987772703170776
","x: 262.92913818359375
y: 315.8472900390625
z: -0.09853162616491318
visibility: 0.9979473352432251
","x: 239.44827270507812
y: 321.8423767089844
z: 0.02517477609217167
visibility: 0.9984864592552185
","x: 277.8836669921875
y: 329.80609130859375
z: -0.21658900380134583
visibility: 0.7425718903541565
","x: 238.53729248046875
y: 344.76953125
z: 0.09348412603139877
visibility: 0.861812949180603
","x: 268.26800537109375
y: 334.50909423828125
z: -0.3492782413959503
visibility: 0.7313017249107361
","x: 240.1851348876953
y: 350.8568115234375
z: 0.07990064471960068
visibility: 0.8438969254493713
","x: 264.0991516113281
y: 332.8115539550781
z: -0.3821701407432556
visibility: 0.6901494860649109
","x: 239.96803283691406
y: 356.08050537109375
z: 0.07456756383180618
visibility: 0.8041874766349792
","x: 257.4094543457031
y: 327.6767272949219
z: -0.38345032930374146
visibility: 0.6987407803535461
","x: 241.27166748046875
y: 353.218994140625
z: 0.060692477971315384
visibility: 0.8089455962181091
","x: 260.4652099609375
y: 328.59625244140625
z: -0.35229071974754333
visibility: 0.6631545424461365
","x: 241.27427673339844
y: 351.55474853515625
z: 0.07369709759950638
visibility: 0.7802022695541382
","x: 257.4306335449219
y: 400.3985290527344
z: -0.03990750014781952
visibility: 0.9996577501296997
","x: 241.92385864257812
y: 398.4696960449219
z: 0.04000347852706909
visibility: 0.9995262026786804
","x: 263.4202880859375
y: 452.7845764160156
z: -0.04022287204861641
visibility: 0.9801661968231201
","x: 233.0882568359375
y: 449.55816650390625
z: 0.06794052571058273
visibility: 0.9803163409233093
","x: 268.21197509765625
y: 504.7850036621094
z: 0.019740888848900795
visibility: 0.9499531388282776
","x: 229.6673583984375
y: 500.925537109375
z: 0.1804211586713791
visibility: 0.9651029109954834
","x: 268.6318664550781
y: 511.93475341796875
z: 0.02200055681169033
visibility: 0.8531354665756226
","x: 231.59971618652344
y: 508.0475158691406
z: 0.1864304542541504
visibility: 0.8314950466156006
","x: 269.0100402832031
y: 519.93359375
z: -0.07029668241739273
visibility: 0.9567716717720032
","x: 222.9576416015625
y: 514.5776977539062
z: 0.1239580288529396
visibility: 0.9605504274368286
",,,,,,,,,,,,,,,,,,,,,,,,,,,,,,,,,,,,,,,,,,
26,"x: 252.5030975341797
y: 285.03790283203125
z: -0.16017885506153107
visibility: 0.9993088245391846
","x: 254.1482696533203
y: 280.4607849121094
z: -0.1501377671957016
visibility: 0.998070478439331
","x: 255.37307739257812
y: 280.07855224609375
z: -0.15019944310188293
visibility: 0.997759222984314
","x: 256.6751708984375
y: 279.82525634765625
z: -0.15020248293876648
visibility: 0.9977492690086365
","x: 251.50491333007812
y: 281.94598388671875
z: -0.14047057926654816
visibility: 0.9983038902282715
","x: 250.85958862304688
y: 282.5127868652344
z: -0.14043428003787994
visibility: 0.9981456398963928
","x: 250.22886657714844
y: 283.06146240234375
z: -0.14045822620391846
visibility: 0.9982889890670776
","x: 259.7653503417969
y: 282.7560119628906
z: -0.09058539569377899
visibility: 0.9943327903747559
","x: 251.6681365966797
y: 286.128662109375
z: -0.041886210441589355
visibility: 0.996056318283081
","x: 255.7229766845703
y: 288.83197021484375
z: -0.1378713846206665
visibility: 0.998538613319397
","x: 251.70278930664062
y: 291.0669250488281
z: -0.12424377351999283
visibility: 0.9988403916358948
","x: 269.619140625
y: 308.07763671875
z: -0.10587538778781891
visibility: 0.9981334805488586
","x: 248.5809783935547
y: 315.7464294433594
z: 0.02744949422776699
visibility: 0.9985606670379639
","x: 265.895751953125
y: 309.56500244140625
z: -0.2558670938014984
visibility: 0.7677298784255981
","x: 246.47311401367188
y: 344.37066650390625
z: 0.05331233888864517
visibility: 0.8099499940872192
","x: 245.85308837890625
y: 296.948974609375
z: -0.36244997382164
visibility: 0.7565312385559082
","x: 248.32223510742188
y: 372.3045349121094
z: 0.005532207898795605
visibility: 0.7848855257034302
","x: 240.44789123535156
y: 295.98974609375
z: -0.3994322419166565
visibility: 0.7167431116104126
","x: 248.34506225585938
y: 385.44073486328125
z: -0.004595817066729069
visibility: 0.7449221014976501
","x: 240.1131591796875
y: 292.84423828125
z: -0.39055681228637695
visibility: 0.7243673205375671
","x: 248.76683044433594
y: 386.2015075683594
z: -0.02706724964082241
visibility: 0.7497574687004089
","x: 241.94863891601562
y: 294.293212890625
z: -0.3625587522983551
visibility: 0.6887246370315552
","x: 248.99502563476562
y: 381.7288818359375
z: -0.005338611081242561
visibility: 0.7221099734306335
","x: 267.2109069824219
y: 396.048828125
z: -0.036361418664455414
visibility: 0.9996796250343323
","x: 251.05287170410156
y: 396.2713317871094
z: 0.03636402636766434
visibility: 0.9995588064193726
","x: 267.1345520019531
y: 452.4172668457031
z: -0.03181639686226845
visibility: 0.9813697934150696
","x: 243.6714324951172
y: 445.91802978515625
z: 0.056283511221408844
visibility: 0.9819331169128418
","x: 269.6646423339844
y: 505.67437744140625
z: 0.04366759955883026
visibility: 0.9544300436973572
","x: 234.5817108154297
y: 500.4497985839844
z: 0.10113245248794556
visibility: 0.9682945609092712
","x: 269.62103271484375
y: 514.2423706054688
z: 0.04511014372110367
visibility: 0.8608407974243164
","x: 236.10684204101562
y: 508.9935302734375
z: 0.10341198742389679
visibility: 0.8449878692626953
","x: 270.1632385253906
y: 520.509521484375
z: -0.04630044102668762
visibility: 0.9600964188575745
","x: 224.10104370117188
y: 514.1097412109375
z: 0.025213217362761497
visibility: 0.9640316367149353
",,,,,,,,,,,,,,,,,,,,,,,,,,,,,,,,,,,,,,,,,,
27,"x: 260.3191833496094
y: 285.4468078613281
z: -0.09451834112405777
visibility: 0.9992688894271851
","x: 261.95635986328125
y: 280.2738342285156
z: -0.08801277726888657
visibility: 0.9981299638748169
","x: 263.68841552734375
y: 280.1093444824219
z: -0.08806237578392029
visibility: 0.9978496432304382
","x: 265.16839599609375
y: 279.9993591308594
z: -0.08808371424674988
visibility: 0.9978459477424622
","x: 258.9266357421875
y: 281.4285583496094
