uscmakers/ReverseChoreography/data/7_humble_kendrick_lamar.csv
,NOSE,LEFT_EYE_INNER,LEFT_EYE,LEFT_EYE_OUTER,RIGHT_EYE_INNER,RIGHT_EYE,RIGHT_EYE_OUTER,LEFT_EAR,RIGHT_EAR,MOUTH_LEFT,MOUTH_RIGHT,LEFT_SHOULDER,RIGHT_SHOULDER,LEFT_ELBOW,RIGHT_ELBOW,LEFT_WRIST,RIGHT_WRIST,LEFT_PINKY,RIGHT_PINKY,LEFT_INDEX,RIGHT_INDEX,LEFT_THUMB,RIGHT_THUMB,LEFT_HIP,RIGHT_HIP,LEFT_KNEE,RIGHT_KNEE,LEFT_ANKLE,RIGHT_ANKLE,LEFT_HEEL,RIGHT_HEEL,LEFT_FOOT_INDEX,RIGHT_FOOT_INDEX,WRIST2,THUMB_CPC2,THUMB_MCP2,THUMB_IP2,THUMB_TIP2,INDEX_FINGER_MCP2,INDEX_FINGER_PIP2,INDEX_FINGER_DIP2,INDEX_FINGER_TIP2,MIDDLE_FINGER_MCP2,MIDDLE_FINGER_PIP2,MIDDLE_FINGER_DIP2,MIDDLE_FINGER_TIP2,RING_FINGER_PIP2,RING_FINGER_DIP2,RING_FINGER_TIP2,RING_FINGER_MCP2,PINKY_MCP2,PINKY_PIP2,PINKY_DIP2,PINKY_TIP2,WRIST,THUMB_CPC,THUMB_MCP,THUMB_IP,THUMB_TIP,INDEX_FINGER_MCP,INDEX_FINGER_PIP,INDEX_FINGER_DIP,INDEX_FINGER_TIP,MIDDLE_FINGER_MCP,MIDDLE_FINGER_PIP,MIDDLE_FINGER_DIP,MIDDLE_FINGER_TIP,RING_FINGER_PIP,RING_FINGER_DIP,RING_FINGER_TIP,RING_FINGER_MCP,PINKY_MCP,PINKY_PIP,PINKY_DIP,PINKY_TIP
0,"x: 260.1140441894531
y: 277.33251953125
z: -0.013757181353867054
visibility: 0.9955316781997681
","x: 262.4398193359375
y: 272.86480712890625
z: -0.03233999386429787
visibility: 0.994375467300415
","x: 262.78173828125
y: 273.1551818847656
z: -0.03236662596464157
visibility: 0.9949482679367065
","x: 263.12176513671875
y: 273.49072265625
z: -0.032380495220422745
visibility: 0.9953874945640564
","x: 262.3013000488281
y: 272.6519775390625
z: -0.006649576127529144
visibility: 0.991293728351593
","x: 262.4764099121094
y: 272.7896728515625
z: -0.006660533603280783
visibility: 0.9915281534194946
","x: 262.71673583984375
y: 272.9635314941406
z: -0.006697960197925568
visibility: 0.9922690987586975
","x: 265.8233337402344
y: 278.7743835449219
z: -0.09343082457780838
visibility: 0.992881178855896
","x: 265.0957946777344
y: 278.059814453125
z: 0.022353312000632286
visibility: 0.9840642213821411
","x: 261.60919189453125
y: 284.7604064941406
z: -0.03335016965866089
visibility: 0.9946020841598511
","x: 261.1323547363281
y: 284.38140869140625
z: -0.000151157466461882
visibility: 0.9932621121406555
","x: 260.0272216796875
y: 315.8011474609375
z: -0.18298368155956268
visibility: 0.9998629093170166
","x: 271.0104064941406
y: 314.410400390625
z: 0.09281463921070099
visibility: 0.9992032647132874
","x: 251.1802978515625
y: 365.5234375
z: -0.23453271389007568
visibility: 0.961231529712677
","x: 253.05747985839844
y: 355.4885559082031
z: 0.1251785159111023
visibility: 0.07496185600757599
","x: 237.47189331054688
y: 399.1270751953125
z: -0.21218423545360565
visibility: 0.8537828922271729
","x: 236.08395385742188
y: 383.31982421875
z: 0.06708749383687973
visibility: 0.2080945521593094
","x: 231.6548309326172
y: 410.99066162109375
z: -0.2333569973707199
visibility: 0.8057365417480469
","x: 230.55007934570312
y: 393.361328125
z: 0.06810610741376877
visibility: 0.2516828775405884
","x: 231.1354522705078
y: 407.71136474609375
z: -0.22529201209545135
visibility: 0.7940725684165955
","x: 229.60560607910156
y: 394.34375
z: 0.04140394553542137
visibility: 0.2573612928390503
","x: 232.9027557373047
y: 405.3866271972656
z: -0.20762352645397186
visibility: 0.7323129177093506
","x: 231.24462890625
y: 392.5442199707031
z: 0.05346585437655449
visibility: 0.2506892681121826
","x: 250.13328552246094
y: 408.5826416015625
z: -0.09351278841495514
visibility: 0.9996090531349182
","x: 259.0502014160156
y: 403.38238525390625
z: 0.09336041659116745
visibility: 0.9989545345306396
","x: 240.16061401367188
y: 455.1640625
z: -0.03219417855143547
visibility: 0.9515711665153503
","x: 252.71788024902344
y: 449.3394775390625
z: 0.18871134519577026
visibility: 0.426336407661438
","x: 257.8076477050781
y: 520.4512939453125
z: -0.028317783027887344
visibility: 0.977101743221283
","x: 264.1826477050781
y: 513.2164916992188
z: 0.22501805424690247
visibility: 0.6623283624649048
","x: 264.06439208984375
y: 532.3278198242188
z: -0.027557378634810448
visibility: 0.9776947498321533
","x: 266.1329650878906
y: 523.4801025390625
z: 0.22856855392456055
visibility: 0.8113873600959778
","x: 247.70907592773438
y: 534.4222412109375
z: -0.06943682581186295
visibility: 0.9546005725860596
","x: 252.35069274902344
y: 523.593505859375
z: 0.20929661393165588
visibility: 0.6772735118865967
",,,,,,,,,,,,,,,,,,,,,,,,,,,,,,,,,,,,,,,,,,
1,"x: 260.0597229003906
y: 277.1465759277344
z: -0.027763888239860535
visibility: 0.9959688186645508
","x: 262.4210205078125
y: 272.9149169921875
z: -0.03236475586891174
visibility: 0.9949318766593933
","x: 262.78955078125
y: 273.3018798828125
z: -0.032396599650382996
visibility: 0.9954493045806885
","x: 263.2252502441406
y: 273.78289794921875
z: -0.0324152335524559
visibility: 0.9958446621894836
","x: 262.06488037109375
y: 272.6248474121094
z: -0.00695274630561471
visibility: 0.9921543598175049
","x: 262.19635009765625
y: 272.73016357421875
z: -0.006955861113965511
visibility: 0.9923650622367859
","x: 262.37738037109375
y: 272.8629150390625
z: -0.006951713003218174
visibility: 0.9930353760719299
","x: 266.41656494140625
y: 279.7723083496094
z: -0.029822658747434616
visibility: 0.9935895800590515
","x: 264.7316589355469
y: 277.9251403808594
z: 0.08049242198467255
visibility: 0.9856481552124023
","x: 261.3724365234375
y: 284.4442138671875
z: -0.03089001402258873
visibility: 0.9951306581497192
","x: 260.5672607421875
y: 283.7002868652344
z: 0.001324920216575265
visibility: 0.9939193725585938
","x: 269.2131652832031
y: 316.390625
z: -0.09247566759586334
visibility: 0.9998757243156433
","x: 263.9778137207031
y: 314.32867431640625
z: 0.18106120824813843
visibility: 0.9992600083351135
","x: 276.6831359863281
y: 356.0739440917969
z: -0.22490713000297546
visibility: 0.964686930179596
","x: 258.4346923828125
y: 352.2547912597656
z: 0.2626342177391052
visibility: 0.07058194279670715
","x: 282.001953125
y: 382.0845031738281
z: -0.3238140046596527
visibility: 0.8660120368003845
","x: 259.19146728515625
y: 367.0385437011719
z: 0.2507475018501282
visibility: 0.21217206120491028
","x: 283.69232177734375
y: 387.1112365722656
z: -0.3515116274356842
visibility: 0.8204959630966187
","x: 259.15960693359375
y: 371.7685241699219
z: 0.26014065742492676
visibility: 0.26149532198905945
","x: 281.6515197753906
y: 382.78759765625
z: -0.3502458930015564
visibility: 0.8098126649856567
","x: 259.57269287109375
y: 368.8066101074219
z: 0.24887454509735107
visibility: 0.26853513717651367
","x: 280.18212890625
y: 380.6606750488281
z: -0.3241724371910095
visibility: 0.7511427402496338
","x: 259.253662109375
y: 367.534423828125
z: 0.24622181057929993
visibility: 0.2580016255378723
","x: 249.66375732421875
y: 407.30902099609375
z: -0.09247307479381561
visibility: 0.9996439814567566
","x: 253.51370239257812
y: 403.4595031738281
z: 0.09229804575443268
visibility: 0.9990549087524414
","x: 230.77288818359375
y: 453.9965515136719
z: -0.08970393985509872
visibility: 0.9525405168533325
","x: 252.05899047851562
y: 460.0210876464844
z: 0.024585938081145287
visibility: 0.42688050866127014
","x: 240.95028686523438
y: 520.6792602539062
z: -0.16889172792434692
visibility: 0.9764559268951416
","x: 259.9363708496094
y: 525.4863891601562
z: -0.12217660248279572
visibility: 0.6752920150756836
","x: 249.02841186523438
y: 531.0462646484375
z: -0.1765206754207611
visibility: 0.9762246608734131
","x: 265.7332763671875
y: 537.885498046875
z: -0.13981857895851135
visibility: 0.815816342830658
","x: 230.68844604492188
y: 538.4315795898438
z: -0.20928005874156952
visibility: 0.9566733837127686
","x: 248.06631469726562
y: 538.504150390625
z: -0.1817813366651535
visibility: 0.7005363702774048
",,,,,,,,,,,,,,,,,,,,,,,,,,,,,,,,,,,,,,,,,,
2,"x: 255.74415588378906
y: 276.7782287597656
z: -0.09500961750745773
visibility: 0.9963574409484863
","x: 257.9247741699219
y: 271.9161682128906
z: -0.09762386977672577
visibility: 0.99540114402771
","x: 258.982666015625
y: 272.05181884765625
z: -0.09773719310760498
visibility: 0.9958730340003967
","x: 260.1202392578125
y: 272.2333068847656
z: -0.09782595932483673
visibility: 0.9962370991706848
","x: 255.666015625
y: 271.9335021972656
z: -0.07569582760334015
visibility: 0.9928773045539856
","x: 255.207763671875
y: 272.0711669921875
z: -0.07563699781894684
visibility: 0.9930461645126343
","x: 254.81448364257812
y: 272.22601318359375
z: -0.07564322650432587
visibility: 0.9936601519584656
","x: 262.8334655761719
y: 275.812744140625
z: -0.030836695805191994
visibility: 0.9942029118537903
","x: 256.7976989746094
y: 275.88397216796875
z: 0.03568422421813011
visibility: 0.9869108200073242
","x: 258.0613098144531
y: 283.12542724609375
z: -0.08486635237932205
visibility: 0.9955971837043762
","x: 255.37327575683594
y: 282.8820495605469
z: -0.05574841424822807
visibility: 0.994485080242157
","x: 266.7394104003906
y: 302.7001037597656
z: -0.11491811275482178
visibility: 0.9998877048492432
","x: 257.6392822265625
y: 306.8627624511719
z: 0.13710381090641022
visibility: 0.9993141889572144
","x: 272.5409240722656
y: 353.42041015625
z: -0.16806700825691223
visibility: 0.9668400287628174
","x: 257.485107421875
y: 356.0397033691406
z: 0.18934749066829681
visibility: 0.06822284311056137
","x: 267.97918701171875
y: 386.69927978515625
z: -0.20669002830982208
visibility: 0.8713812232017517
","x: 253.2707061767578
y: 384.88848876953125
z: 0.24161680042743683
visibility: 0.20252518355846405
","x: 267.8716125488281
y: 395.34356689453125
z: -0.23537103831768036
visibility: 0.8249792456626892
","x: 251.35067749023438
y: 395.9466552734375
z: 0.13434666395187378
visibility: 0.2499229907989502
","x: 266.8716735839844
y: 390.065185546875
z: -0.24528689682483673
visibility: 0.8150832056999207
","x: 251.41525268554688
y: 392.2697448730469
z: 0.09646441787481308
visibility: 0.2567075192928314
","x: 266.040283203125
y: 381.3749694824219
z: -0.21024367213249207
visibility: 0.7558249235153198
","x: 252.49734497070312
y: 387.0013732910156
z: 0.1768907606601715
visibility: 0.24681946635246277
","x: 254.80636596679688
y: 403.4387512207031
z: -0.08788763731718063
visibility: 0.9996786713600159
","x: 248.60916137695312
y: 399.2794189453125
z: 0.08792544901371002
visibility: 0.9991486668586731
","x: 240.03854370117188
y: 457.191162109375
z: -0.16754432022571564
visibility: 0.9571332335472107
","x: 227.95733642578125
y: 442.3701171875
z: -0.07620703428983688
visibility: 0.48311108350753784
","x: 263.17059326171875
y: 518.214599609375
z: -0.027437593787908554
visibility: 0.9785370230674744
","x: 238.6928253173828
y: 509.2916564941406
z: -0.000674622249789536
visibility: 0.7071189284324646
","x: 272.075439453125
y: 520.5418701171875
z: -0.011100593023002148
visibility: 0.975237250328064
","x: 244.541015625
y: 517.3779907226562
z: 0.0032415061723440886
visibility: 0.8315742611885071
","x: 256.4517822265625
y: 542.5167236328125
z: -0.07134638726711273
visibility: 0.9605690836906433
","x: 230.52386474609375
y: 534.926025390625
z: -0.06284195184707642
visibility: 0.7298431396484375
",,,,,,,,,,,,,,,,,,,,,,,,,,,,,,,,,,,,,,,,,,
3,"x: 247.85748291015625
y: 275.7937316894531
z: -0.12042901664972305
visibility: 0.9966707229614258
","x: 249.61012268066406
y: 271.81951904296875
z: -0.13068565726280212
visibility: 0.9957582354545593
","x: 250.3777618408203
y: 271.9283447265625
z: -0.13076013326644897
visibility: 0.9962078332901001
","x: 251.22494506835938
y: 272.0477600097656
z: -0.1308184564113617
visibility: 0.9965409636497498
","x: 248.38812255859375
y: 271.9234619140625
z: -0.10381032526493073
visibility: 0.9934515357017517
","x: 248.26475524902344
y: 272.0758056640625
z: -0.103772833943367
visibility: 0.9935837984085083
","x: 248.2217559814453
y: 272.230712890625
z: -0.10379262268543243
visibility: 0.9941067695617676
","x: 254.497314453125
y: 275.99951171875
z: -0.13850650191307068
visibility: 0.9947229027748108
","x: 251.20135498046875
y: 275.9396667480469
z: -0.016876498237252235
visibility: 0.9876180291175842
","x: 250.2933349609375
y: 281.41632080078125
z: -0.12290351092815399
visibility: 0.9959712028503418
","x: 248.45672607421875
y: 281.4718933105469
z: -0.08738060295581818
visibility: 0.9948671460151672
","x: 261.18414306640625
y: 305.87054443359375
z: -0.1804933100938797
visibility: 0.9998942613601685
","x: 252.0581817626953
y: 308.16094970703125
z: 0.08379191905260086
visibility: 0.9993190169334412
","x: 266.6055603027344
y: 355.2912902832031
z: -0.17822861671447754
visibility: 0.968940019607544
","x: 252.45306396484375
y: 360.9579162597656
z: 0.12377222627401352
visibility: 0.06587603688240051
","x: 264.6437683105469
y: 400.25128173828125
z: -0.1993880271911621
visibility: 0.877238929271698
","x: 249.85964965820312
y: 393.5030517578125
z: 0.06288840621709824
visibility: 0.18989841639995575
","x: 265.6150207519531
y: 414.1215515136719
z: -0.2230774164199829
visibility: 0.8306403160095215
","x: 248.48248291015625
y: 404.36932373046875
z: 0.050618790090084076
visibility: 0.23390085995197296
","x: 263.31817626953125
y: 418.0915832519531
z: -0.22796066105365753
visibility: 0.8215735554695129
","x: 248.38365173339844
y: 402.0303649902344
z: 0.021177988499403
visibility: 0.24048243463039398
","x: 262.4520263671875
y: 412.4054260253906
z: -0.19993332028388977
visibility: 0.76212477684021
","x: 249.22335815429688
y: 396.9985656738281
z: 0.044126447290182114
visibility: 0.23160742223262787
","x: 255.33502197265625
y: 406.767333984375
z: -0.08637046068906784
visibility: 0.9996926784515381
","x: 247.24557495117188
y: 404.3447265625
z: 0.08648280799388885
visibility: 0.9992170333862305
","x: 248.09767150878906
y: 462.0303955078125
z: -0.13971808552742004
visibility: 0.9611715078353882
","x: 228.46473693847656
y: 447.1883544921875
z: 0.04642702639102936
visibility: 0.5316099524497986
","x: 268.2735900878906
y: 522.1865234375
z: -0.050406455993652344
visibility: 0.9804993867874146
","x: 222.91712951660156
y: 518.7040405273438
z: 0.09300367534160614
visibility: 0.7355213761329651
","x: 274.5462646484375
y: 525.12744140625
z: -0.041420359164476395
visibility: 0.9748355150222778
","x: 224.0655059814453
y: 533.5924072265625
z: 0.09446036070585251
visibility: 0.8449826836585999
","x: 257.3424377441406
y: 550.2852783203125
z: -0.12281136214733124
visibility: 0.964185893535614
","x: 203.83705139160156
y: 529.2125244140625
z: 0.04916657507419586
visibility: 0.7555772066116333
",,,,,,,,,,,,,,,,,,,,,,,,,,,,,,,,,,,,,,,,,,
4,"x: 245.39471435546875
y: 279.8189697265625
z: -0.1763683557510376
visibility: 0.9969967007637024
","x: 248.43641662597656
y: 274.2947692871094
z: -0.17194321751594543
visibility: 0.9961645007133484
","x: 249.7213592529297
y: 274.5583801269531
z: -0.17202937602996826
visibility: 0.9965720772743225
","x: 250.98501586914062
y: 274.8821105957031
z: -0.17210455238819122
visibility: 0.9968743920326233
","x: 245.28262329101562
y: 274.2077331542969
z: -0.15604236721992493
visibility: 0.9940856695175171
","x: 244.427001953125
y: 274.376953125
z: -0.1560027301311493
visibility: 0.9941967725753784
","x: 243.6251220703125
y: 274.55145263671875
z: -0.15598803758621216
visibility: 0.9946605563163757
","x: 254.03065490722656
y: 279.8648681640625
z: -0.13092388212680817
visibility: 0.9952397346496582
","x: 245.3981170654297
y: 278.5756530761719
z: -0.05570598691701889
visibility: 0.9887444376945496
","x: 248.12864685058594
y: 287.1369323730469
z: -0.15974757075309753
visibility: 0.9963625073432922
","x: 243.8743133544922
y: 287.1142272949219
z: -0.13885125517845154
visibility: 0.9953522086143494
","x: 261.0722961425781
y: 315.8797607421875
z: -0.17467118799686432
visibility: 0.9999028444290161
","x: 241.19447326660156
y: 319.71746826171875
z: 0.06208654120564461
visibility: 0.9993463158607483
","x: 259.704345703125
y: 364.8367004394531
z: -0.19304174184799194
visibility: 0.9716259241104126
","x: 245.64085388183594
y: 370.72021484375
z: 0.10449789464473724
visibility: 0.06719405204057693
","x: 234.58346557617188
y: 399.76483154296875
z: -0.1707957535982132
visibility: 0.8867283463478088
","x: 248.5335693359375
y: 399.3623046875
z: 0.03161359578371048
visibility: 0.18025346100330353
","x: 229.8136444091797
y: 411.49298095703125
z: -0.19232119619846344
visibility: 0.8416656255722046
","x: 245.69761657714844
y: 413.4478454589844
z: 0.020099278539419174
visibility: 0.22123469412326813
","x: 227.64321899414062
y: 409.5247802734375
z: -0.19317889213562012
visibility: 0.8333002328872681
","x: 245.2158966064453
y: 408.3851623535156
z: -0.004173757042735815
visibility: 0.22723306715488434
","x: 229.20950317382812
y: 406.26593017578125
z: -0.16826143860816956
visibility: 0.7755023837089539
","x: 245.9649200439453
y: 403.4293212890625
z: 0.018458353355526924
visibility: 0.21853700280189514
","x: 259.9378662109375
y: 408.3144836425781
z: -0.07480797916650772
visibility: 0.9997115135192871
","x: 244.94639587402344
y: 409.04150390625
z: 0.07495443522930145
visibility: 0.999289333820343
","x: 253.0263214111328
y: 466.6407775878906
z: -0.11437185853719711
visibility: 0.9640927910804749
","x: 232.90753173828125
y: 456.15155029296875
z: -0.06614134460687637
visibility: 0.5755868554115295
","x: 269.69061279296875
y: 524.6827392578125
z: -0.012478797696530819
visibility: 0.9814785122871399
","x: 227.5087432861328
y: 524.3474731445312
z: -0.009196112863719463
visibility: 0.7608975172042847
","x: 273.103515625
y: 528.8806762695312
z: -0.006699399556964636
visibility: 0.9682470560073853
","x: 229.33859252929688
y: 540.4464111328125
z: -0.009889209643006325
visibility: 0.8563520908355713
","x: 258.2908020019531
y: 549.33984375
z: -0.0972546860575676
visibility: 0.9666442275047302
","x: 208.74203491210938
y: 532.1973876953125
z: -0.08530660718679428
visibility: 0.7789191603660583
",,,,,,,,,,,,,,,,,,,,,,,,,,,,,,,,,,,,,,,,,,
5,"x: 248.52166748046875
y: 280.5213623046875
z: -0.30837637186050415
visibility: 0.9972830414772034
","x: 251.08892822265625
y: 274.89300537109375
z: -0.29518774151802063
visibility: 0.9965004324913025
","x: 252.38897705078125
y: 275.55047607421875
z: -0.2952253222465515
visibility: 0.9968661665916443
","x: 253.57318115234375
y: 276.23291015625
z: -0.29528501629829407
visibility: 0.9971363544464111
","x: 247.61672973632812
y: 274.11541748046875
z: -0.2910485863685608
visibility: 0.9946345686912537
","x: 246.5165252685547
y: 274.30804443359375
z: -0.2910674214363098
visibility: 0.99472975730896
","x: 245.38412475585938
y: 274.50360107421875
z: -0.2910892069339752
visibility: 0.9951472878456116
","x: 256.2453918457031
y: 280.4404602050781
z: -0.2045603096485138
visibility: 0.9956473708152771
","x: 244.18450927734375
y: 278.29547119140625
z: -0.18417254090309143
visibility: 0.9897607564926147
","x: 250.58961486816406
y: 288.1701965332031
z: -0.2727133333683014
visibility: 0.9967034459114075
","x: 246.4964141845703
y: 287.37298583984375
z: -0.2670528292655945
visibility: 0.9957838654518127
","x: 262.69384765625
y: 315.48797607421875
z: -0.17590761184692383
visibility: 0.999905526638031
","x: 233.20770263671875
y: 318.807373046875
z: -0.07094603031873703
visibility: 0.9993876218795776
","x: 260.58154296875
y: 364.2767028808594
z: -0.1959233283996582
visibility: 0.9727533459663391
","x: 233.56060791015625
y: 367.42022705078125
z: -0.021016184240579605
visibility: 0.1236322820186615
","x: 234.65707397460938
y: 370.4539489746094
z: -0.29189395904541016
visibility: 0.8919188976287842
","x: 232.93655395507812
y: 395.8337097167969
z: -0.1124810129404068
visibility: 0.22273164987564087
","x: 229.51199340820312
y: 374.57720947265625
z: -0.3309052586555481
visibility: 0.846268355846405
","x: 231.95968627929688
y: 407.5211181640625
z: -0.13682332634925842
visibility: 0.2533131241798401
","x: 228.87271118164062
y: 369.28125
z: -0.3345335125923157
visibility: 0.8388445973396301
","x: 232.46932983398438
y: 405.0353698730469
z: -0.16574493050575256
visibility: 0.25976085662841797
","x: 231.0026092529297
y: 367.77490234375
z: -0.2948193848133087
visibility: 0.7800198793411255
","x: 234.0879364013672
y: 400.6286315917969
z: -0.126553013920784
visibility: 0.25027382373809814
","x: 261.76641845703125
y: 400.29864501953125
z: -0.039506204426288605
visibility: 0.9997022747993469
","x: 244.0005645751953
y: 406.1954040527344
z: 0.03946731239557266
visibility: 0.9993187785148621
","x: 257.0667419433594
y: 464.9130859375
z: -0.05858718603849411
visibility: 0.9672611951828003
","x: 236.50511169433594
y: 465.5604553222656
z: 0.01462198980152607
visibility: 0.6151916980743408
","x: 267.4054870605469
y: 524.2756958007812
z: 0.11775410175323486
visibility: 0.9828957915306091
","x: 228.24888610839844
y: 522.7659301757812
z: 0.21224446594715118
visibility: 0.7833691239356995
","x: 265.3622131347656
y: 528.926025390625
z: 0.12893153727054596
visibility: 0.9591269493103027
","x: 240.06549072265625
y: 536.4461669921875
z: 0.22702546417713165
visibility: 0.863509476184845
","x: 257.1047668457031
y: 548.7440185546875
z: 0.02297571673989296
visibility: 0.9693078994750977
","x: 231.24630737304688
y: 542.4659423828125
z: 0.13958802819252014
visibility: 0.7996703386306763
",,,,,,,,,,,,,,,,,,,,,,,,,,,,,,,,,,,,,,,,,,
6,"x: 249.76747131347656
y: 286.20428466796875
z: -0.387510746717453
visibility: 0.9975470900535583
","x: 252.17889404296875
y: 280.36663818359375
z: -0.3725295662879944
visibility: 0.9968252778053284
","x: 253.3700714111328
y: 281.0611267089844
z: -0.3725592792034149
visibility: 0.9971508383750916
","x: 254.48959350585938
y: 281.70172119140625
z: -0.3726123869419098
visibility: 0.9973902702331543
","x: 248.88143920898438
y: 278.9046936035156
z: -0.37330785393714905
visibility: 0.9951488971710205
","x: 247.76089477539062
y: 278.638427734375
z: -0.3733731210231781
visibility: 0.9952304363250732
","x: 246.638427734375
y: 278.4287109375
z: -0.3733994960784912
visibility: 0.9956029653549194
","x: 256.93560791015625
y: 285.10638427734375
z: -0.2678965628147125
visibility: 0.9960039258003235
","x: 244.91278076171875
y: 281.8771667480469
z: -0.2726786136627197
visibility: 0.9907338619232178
","x: 251.88002014160156
y: 293.3086853027344
z: -0.34757834672927856
visibility: 0.9970226287841797
","x: 247.51889038085938
y: 292.39984130859375
z: -0.3489077687263489
visibility: 0.9961931109428406
","x: 266.44970703125
y: 321.4432067871094
z: -0.1960924118757248
visibility: 0.9999110698699951
","x: 231.32923889160156
y: 319.9841003417969
z: -0.1792166531085968
visibility: 0.9994437098503113
","x: 276.3450927734375
y: 363.8763427734375
z: -0.1977068930864334
visibility: 0.974556565284729
","x: 217.449462890625
y: 359.4653625488281
z: -0.15601538121700287
visibility: 0.2107459157705307
","x: 275.684814453125
y: 381.4109802246094
z: -0.30433958768844604
visibility: 0.8992069959640503
","x: 211.44203186035156
y: 390.0052490234375
z: -0.2484622299671173
visibility: 0.2988169491291046
","x: 275.4637145996094
y: 394.3708801269531
z: -0.3385809063911438
visibility: 0.8533236384391785
","x: 208.9141082763672
y: 404.35791015625
z: -0.27527981996536255
visibility: 0.32376351952552795
","x: 272.2919616699219
y: 388.603515625
z: -0.35997435450553894
visibility: 0.8471614122390747
","x: 212.2168731689453
y: 404.95062255859375
z: -0.3049388527870178
visibility: 0.32989341020584106
","x: 271.32391357421875
y: 381.6850280761719
z: -0.31509503722190857
visibility: 0.7914432883262634
","x: 213.84805297851562
y: 399.4158630371094
z: -0.2622512876987457
visibility: 0.3206161558628082
","x: 261.0713806152344
y: 406.7684326171875
z: -0.012569288723170757
visibility: 0.9997159838676453
","x: 241.9339141845703
y: 408.70172119140625
z: 0.012655618600547314
visibility: 0.9993589520454407
","x: 261.0663757324219
y: 469.049560546875
z: -0.05598275735974312
visibility: 0.9689013957977295
","x: 241.12347412109375
y: 468.3941345214844
z: 0.07763169705867767
visibility: 0.6488802433013916
","x: 265.4320373535156
y: 539.2266235351562
z: 0.050118494778871536
visibility: 0.9836537837982178
","x: 234.17999267578125
y: 523.9078369140625
z: 0.3120056986808777
visibility: 0.8016291856765747
","x: 261.28375244140625
y: 546.38623046875
z: 0.05286005884408951
visibility: 0.9528366923332214
","x: 243.43031311035156
y: 534.8741455078125
z: 0.3275870382785797
visibility: 0.8639309406280518
","x: 267.91717529296875
y: 553.7767333984375
z: -0.004138500429689884
visibility: 0.9708333611488342
","x: 235.92694091796875
y: 544.3202514648438
z: 0.22655096650123596
visibility: 0.8165384531021118
",,,,,,,,,,,,,,,,,,,,,,,,,,,,,,,,,,,,,,,,,,
7,"x: 250.61865234375
y: 282.8034362792969
z: -0.32734042406082153
visibility: 0.9977877736091614
","x: 252.32424926757812
y: 278.8237609863281
z: -0.3105659484863281
visibility: 0.9971322417259216
","x: 253.84652709960938
y: 279.81298828125
z: -0.3106363117694855
visibility: 0.9974266886711121
","x: 255.3014373779297
y: 280.88671875
z: -0.3107171356678009
visibility: 0.9976416230201721
","x: 250.19793701171875
y: 277.24615478515625
z: -0.31085699796676636
visibility: 0.9956202507019043
","x: 249.36087036132812
y: 277.06903076171875
z: -0.3109076917171478
visibility: 0.9956918358802795
","x: 248.41104125976562
y: 277.03924560546875
z: -0.3108958899974823
visibility: 0.9960201382637024
","x: 257.5798034667969
y: 284.27178955078125
z: -0.21174028515815735
visibility: 0.996394693851471
","x: 246.2427215576172
y: 281.81121826171875
z: -0.21296390891075134
visibility: 0.9916178584098816
","x: 253.05699157714844
y: 291.6980285644531
z: -0.29036790132522583
visibility: 0.9973137378692627
","x: 248.7164764404297
y: 290.36871337890625
z: -0.2911246418952942
visibility: 0.9965612888336182
","x: 268.9118957519531
y: 322.2598876953125
z: -0.16676953434944153
visibility: 0.999915361404419
","x: 231.90811157226562
y: 320.8384704589844
z: -0.13134559988975525
visibility: 0.9994735717773438
","x: 282.380615234375
y: 363.76605224609375
z: -0.1955420970916748
visibility: 0.9762681722640991
","x: 220.4010009765625
y: 358.8431091308594
z: -0.18955151736736298
visibility: 0.28392231464385986
","x: 299.6188659667969
y: 381.20184326171875
z: -0.3332800269126892
visibility: 0.9072350263595581
","x: 210.19920349121094
y: 372.6887512207031
z: -0.38500794768333435
visibility: 0.3605266511440277
","x: 306.14892578125
y: 387.947265625
z: -0.367542028427124
visibility: 0.8637087345123291
","x: 206.76394653320312
y: 377.18072509765625
z: -0.4206860661506653
visibility: 0.3789256513118744
","x: 306.713134765625
y: 384.7483825683594
z: -0.3949826657772064
visibility: 0.8589427471160889
","x: 207.6104278564453
y: 374.14349365234375
z: -0.44461768865585327
visibility: 0.38618582487106323
","x: 304.1452941894531
y: 382.3571472167969
z: -0.34854522347450256
visibility: 0.8081006407737732
","x: 209.3165283203125
y: 372.2721862792969
z: -0.4011499285697937
visibility: 0.3766152262687683
","x: 263.6647033691406
y: 405.3947448730469
z: -0.0077681755647063255
visibility: 0.9996973872184753
","x: 243.53736877441406
y: 408.455810546875
z: 0.007840176112949848
visibility: 0.9993680119514465
","x: 263.8894958496094
y: 461.8200378417969
z: -0.10336539894342422
visibility: 0.9711900949478149
","x: 243.34664916992188
y: 465.0743103027344
z: -0.013367104344069958
visibility: 0.6813766360282898
","x: 264.4508056640625
y: 527.1759033203125
z: 0.032587580382823944
visibility: 0.9840378165245056
","x: 235.56399536132812
y: 524.2291870117188
z: 0.1520792692899704
visibility: 0.8194424510002136
","x: 261.40130615234375
y: 534.6325073242188
z: 0.038873568177223206
visibility: 0.9482283592224121
","x: 244.34986877441406
y: 534.0753784179688
z: 0.16109278798103333
visibility: 0.8662169575691223
","x: 264.7186279296875
y: 539.5709228515625
z: -0.03745404630899429
visibility: 0.9720524549484253
","x: 238.71182250976562
y: 543.927490234375
z: 0.0347893089056015
visibility: 0.8324598670005798
","x: 297.34844970703125
y: 378.32379150390625
z: 0.0
","x: 301.47857666015625
y: 373.6146240234375
z: 0.0005069008911959827
","x: 306.6823425292969
y: 372.8195495605469
z: 0.0003215204051230103
","x: 309.80047607421875
y: 375.2801513671875
z: -0.0006010666838847101
","x: 310.9770202636719
y: 378.3938903808594
z: -0.0010361113818362355
","x: 309.6922912597656
y: 377.6051330566406
z: 0.0009656443144194782
","x: 312.9976806640625
y: 382.6893615722656
z: -0.001199175720103085
","x: 312.1493225097656
y: 382.8414611816406
z: -0.0016513060545548797
","x: 310.5052490234375
y: 380.976318359375
z: -0.001420921995304525
","x: 308.30706787109375
y: 382.6224365234375
z: -0.0006084455526433885
","x: 311.20367431640625
y: 387.5285339355469
z: -0.002924031810835004
","x: 309.967041015625
y: 386.584228515625
z: -0.0027926983311772346
","x: 308.1936950683594
y: 384.4390869140625
z: -0.0020225420594215393
","x: 306.2032470703125
y: 387.06890869140625
z: -0.0024746812414377928
","x: 308.6398010253906
y: 391.05865478515625
z: -0.004602762870490551
","x: 307.4576416015625
y: 389.95074462890625
z: -0.0035912932362407446
","x: 306.05731201171875
y: 388.08184814453125
z: -0.0022038444876670837
","x: 303.53399658203125
y: 390.7696533203125
z: -0.004564156290143728
","x: 305.4002380371094
y: 393.6563720703125
z: -0.0060530067421495914
","x: 304.6189270019531
y: 392.637939453125
z: -0.0053922501392662525
","x: 303.5446472167969
y: 391.3028259277344
z: -0.004208630416542292
",,,,,,,,,,,,,,,,,,,,,
8,"x: 250.61865234375
y: 282.8034362792969
z: -0.32734042406082153
visibility: 0.9977877736091614
","x: 252.32424926757812
y: 278.8237609863281
z: -0.3105659484863281
visibility: 0.9971322417259216
","x: 253.84652709960938
y: 279.81298828125
z: -0.3106363117694855
visibility: 0.9974266886711121
","x: 255.3014373779297
y: 280.88671875
z: -0.3107171356678009
visibility: 0.9976416230201721
","x: 250.19793701171875
y: 277.24615478515625
z: -0.31085699796676636
visibility: 0.9956202507019043
","x: 249.36087036132812
y: 277.06903076171875
z: -0.3109076917171478
visibility: 0.9956918358802795
","x: 248.41104125976562
y: 277.03924560546875
z: -0.3108958899974823
visibility: 0.9960201382637024
","x: 257.5798034667969
y: 284.27178955078125
z: -0.21174028515815735
visibility: 0.996394693851471
","x: 246.2427215576172
y: 281.81121826171875
z: -0.21296390891075134
visibility: 0.9916178584098816
","x: 253.05699157714844
y: 291.6980285644531
z: -0.29036790132522583
visibility: 0.9973137378692627
","x: 248.7164764404297
y: 290.36871337890625
z: -0.2911246418952942
visibility: 0.9965612888336182
","x: 268.9118957519531
y: 322.2598876953125
z: -0.16676953434944153
visibility: 0.999915361404419
","x: 231.90811157226562
y: 320.8384704589844
z: -0.13134559988975525
visibility: 0.9994735717773438
","x: 282.380615234375
y: 363.76605224609375
z: -0.1955420970916748
visibility: 0.9762681722640991
","x: 220.4010009765625
y: 358.8431091308594
z: -0.18955151736736298
visibility: 0.28392231464385986
","x: 299.6188659667969
y: 381.20184326171875
z: -0.3332800269126892
visibility: 0.9072350263595581
","x: 210.19920349121094
y: 372.6887512207031
z: -0.38500794768333435
visibility: 0.3605266511440277
","x: 306.14892578125
y: 387.947265625
z: -0.367542028427124
visibility: 0.8637087345123291
","x: 206.76394653320312
y: 377.18072509765625
z: -0.4206860661506653
visibility: 0.3789256513118744
","x: 306.713134765625
y: 384.7483825683594
z: -0.3949826657772064
visibility: 0.8589427471160889
","x: 207.6104278564453
y: 374.14349365234375
z: -0.44461768865585327
visibility: 0.38618582487106323
","x: 304.1452941894531
y: 382.3571472167969
z: -0.34854522347450256
visibility: 0.8081006407737732
","x: 209.3165283203125
y: 372.2721862792969
z: -0.4011499285697937
visibility: 0.3766152262687683
","x: 263.6647033691406
y: 405.3947448730469
z: -0.0077681755647063255
visibility: 0.9996973872184753
","x: 243.53736877441406
y: 408.455810546875
z: 0.007840176112949848
visibility: 0.9993680119514465
","x: 263.8894958496094
y: 461.8200378417969
z: -0.10336539894342422
visibility: 0.9711900949478149
","x: 243.34664916992188
y: 465.0743103027344
z: -0.013367104344069958
visibility: 0.6813766360282898
","x: 264.4508056640625
y: 527.1759033203125
z: 0.032587580382823944
visibility: 0.9840378165245056
","x: 235.56399536132812
y: 524.2291870117188
z: 0.1520792692899704
visibility: 0.8194424510002136
","x: 261.40130615234375
y: 534.6325073242188
z: 0.038873568177223206
visibility: 0.9482283592224121
","x: 244.34986877441406
y: 534.0753784179688
z: 0.16109278798103333
visibility: 0.8662169575691223
","x: 264.7186279296875
y: 539.5709228515625
z: -0.03745404630899429
visibility: 0.9720524549484253
","x: 238.71182250976562
y: 543.927490234375
z: 0.0347893089056015
visibility: 0.8324598670005798
","x: 297.34844970703125
y: 378.32379150390625
z: 0.0
","x: 301.47857666015625
y: 373.6146240234375
z: 0.0005069008911959827
","x: 306.6823425292969
y: 372.8195495605469
z: 0.0003215204051230103
","x: 309.80047607421875
y: 375.2801513671875
z: -0.0006010666838847101
","x: 310.9770202636719
y: 378.3938903808594
z: -0.0010361113818362355
","x: 309.6922912597656
y: 377.6051330566406
z: 0.0009656443144194782
","x: 312.9976806640625
y: 382.6893615722656
z: -0.001199175720103085
","x: 312.1493225097656
y: 382.8414611816406
z: -0.0016513060545548797
","x: 310.5052490234375
y: 380.976318359375
z: -0.001420921995304525
","x: 308.30706787109375
y: 382.6224365234375
z: -0.0006084455526433885
","x: 311.20367431640625
y: 387.5285339355469
z: -0.002924031810835004
","x: 309.967041015625
y: 386.584228515625
z: -0.0027926983311772346
","x: 308.1936950683594
y: 384.4390869140625
z: -0.0020225420594215393
","x: 306.2032470703125
y: 387.06890869140625
z: -0.0024746812414377928
","x: 308.6398010253906
y: 391.05865478515625
z: -0.004602762870490551
","x: 307.4576416015625
y: 389.95074462890625
z: -0.0035912932362407446
","x: 306.05731201171875
y: 388.08184814453125
z: -0.0022038444876670837
","x: 303.53399658203125
y: 390.7696533203125
z: -0.004564156290143728
","x: 305.4002380371094
y: 393.6563720703125
z: -0.0060530067421495914
","x: 304.6189270019531
y: 392.637939453125
z: -0.0053922501392662525
","x: 303.5446472167969
y: 391.3028259277344
z: -0.004208630416542292
",,,,,,,,,,,,,,,,,,,,,
9,"x: 259.18927001953125
y: 273.55419921875
z: -0.23178794980049133
visibility: 0.9980074763298035
","x: 259.3004455566406
y: 270.4831237792969
z: -0.22564098238945007
visibility: 0.9974150657653809
","x: 260.1550598144531
y: 270.9734802246094
z: -0.22573503851890564
visibility: 0.997678816318512
","x: 261.015869140625
y: 271.5237731933594
z: -0.2258082628250122
visibility: 0.9978711009025574
","x: 256.58636474609375
y: 269.956787109375
z: -0.21790845692157745
visibility: 0.9960549473762512
","x: 255.26416015625
y: 270.032470703125
z: -0.21793393790721893
visibility: 0.9961189031600952
","x: 253.7936553955078
y: 270.1572570800781
z: -0.21795015037059784
visibility: 0.9964147210121155
","x: 261.00146484375
y: 276.4792175292969
z: -0.11900047212839127
visibility: 0.9967495799064636
","x: 247.86692810058594
y: 275.2352294921875
z: -0.1365737020969391
visibility: 0.9924497604370117
","x: 260.27178955078125
y: 280.855224609375
z: -0.21627458930015564
visibility: 0.9975801706314087
","x: 256.6468200683594
y: 280.44110107421875
z: -0.2010432779788971
visibility: 0.9969035387039185
","x: 271.17974853515625
y: 318.82623291015625
z: -0.0566084161400795
visibility: 0.999902606010437
","x: 237.20596313476562
y: 313.23516845703125
z: -0.09684579074382782
visibility: 0.9995214939117432
","x: 285.6479187011719
y: 353.8831787109375
z: -0.1533656120300293
visibility: 0.9771689176559448
","x: 223.83274841308594
y: 347.2393798828125
z: -0.2227393388748169
visibility: 0.3554501533508301
","x: 291.8061218261719
y: 316.91314697265625
z: -0.32944604754447937
visibility: 0.9154030680656433
","x: 221.57070922851562
y: 308.23956298828125
z: -0.3838389217853546
visibility: 0.4244103729724884
","x: 293.9346923828125
y: 306.4016418457031
z: -0.3623715341091156
visibility: 0.8742537498474121
","x: 209.0794677734375
y: 296.6521911621094
z: -0.41595157980918884
visibility: 0.4407510459423065
","x: 292.29522705078125
y: 302.67474365234375
z: -0.3585052788257599
visibility: 0.8698304295539856
","x: 220.21920776367188
y: 293.8674621582031
z: -0.40446576476097107
visibility: 0.44724664092063904
","x: 290.95208740234375
y: 306.6375427246094
z: -0.3331088721752167
visibility: 0.8230766654014587
","x: 219.96437072753906
y: 297.2672119140625
z: -0.3827670216560364
visibility: 0.4383690357208252
","x: 267.43841552734375
y: 400.8408203125
z: 0.00516498414799571
visibility: 0.9997177720069885
","x: 244.38478088378906
y: 405.3141784667969
z: -0.005181436892598867
visibility: 0.9994233250617981
","x: 274.8496398925781
y: 446.9610595703125
z: -0.20090153813362122
visibility: 0.9738790988922119
","x: 246.8744659423828
y: 465.92333984375
z: -0.02236027643084526
visibility: 0.712573230266571
","x: 267.3884582519531
y: 489.30487060546875
z: 0.04059842973947525
visibility: 0.9844509959220886
","x: 239.9480438232422
y: 523.8195190429688
z: 0.16234439611434937
visibility: 0.837104856967926
","x: 261.5579833984375
y: 489.91943359375
z: 0.06224992871284485
visibility: 0.9501351714134216
","x: 246.0330352783203
y: 533.51416015625
z: 0.17706550657749176
visibility: 0.8754342794418335
","x: 273.0910949707031
y: 515.5330200195312
z: -0.01332447212189436
visibility: 0.9740421175956726
","x: 238.08787536621094
y: 544.962158203125
z: 0.07015877962112427
visibility: 0.8485245704650879
",,,,,,,,,,,,,,,,,,,,,,,,,,,,,,,,,,,,,,,,,,
10,"x: 264.67926025390625
y: 274.139404296875
z: -0.25596028566360474
visibility: 0.998110830783844
","x: 265.15386962890625
y: 271.0000305175781
z: -0.2412165105342865
visibility: 0.9974933862686157
","x: 265.9748840332031
y: 271.4586181640625
z: -0.24119098484516144
visibility: 0.9976456761360168
","x: 266.8516540527344
y: 271.966796875
z: -0.24119782447814941
visibility: 0.9978368878364563
","x: 262.42181396484375
y: 270.1549987792969
z: -0.24466624855995178
visibility: 0.9963234066963196
","x: 261.2839660644531
y: 270.8704833984375
z: -0.24470922350883484
visibility: 0.9963796734809875
","x: 260.0082702636719
y: 271.78411865234375
z: -0.24477145075798035
visibility: 0.9966898560523987
","x: 267.0397644042969
y: 276.6290588378906
z: -0.1377609223127365
visibility: 0.9964385032653809
","x: 256.4720458984375
y: 277.48529052734375
z: -0.1698489487171173
visibility: 0.9930729269981384
","x: 265.7178955078125
y: 280.9725646972656
z: -0.223807692527771
visibility: 0.9977030158042908
","x: 262.4503479003906
y: 282.661376953125
z: -0.22831793129444122
visibility: 0.9971579313278198
","x: 276.6227111816406
y: 318.5012512207031
z: -0.1098981499671936
visibility: 0.9997231960296631
","x: 240.5997314453125
y: 311.2646789550781
z: -0.1348164975643158
visibility: 0.9995212554931641
","x: 293.934814453125
y: 346.9530029296875
z: -0.2296905219554901
visibility: 0.9719809293746948
","x: 221.53253173828125
y: 324.10223388671875
z: -0.28570371866226196
visibility: 0.4195861518383026
","x: 283.13153076171875
y: 333.91412353515625
z: -0.39573195576667786
visibility: 0.8928607106208801
","x: 234.5794219970703
y: 306.94476318359375
z: -0.4302883744239807
visibility: 0.4781046211719513
","x: 280.0712585449219
y: 337.7647705078125
z: -0.42958101630210876
visibility: 0.8359447121620178
","x: 238.20034790039062
y: 300.2614440917969
z: -0.46390289068222046
visibility: 0.48348578810691833
","x: 278.1871643066406
y: 334.3968200683594
z: -0.4187135696411133
visibility: 0.8302069902420044
","x: 243.53616333007812
y: 297.95733642578125
z: -0.4453274607658386
visibility: 0.487057626247406
","x: 278.70989990234375
y: 335.1944580078125
z: -0.3956107497215271
visibility: 0.7807510495185852
","x: 241.95419311523438
y: 305.3567810058594
z: -0.426194429397583
visibility: 0.473992258310318
","x: 270.5207824707031
y: 401.78350830078125
z: 0.005020528566092253
visibility: 0.9996482133865356
","x: 252.09872436523438
y: 405.21783447265625
z: -0.005240180529654026
visibility: 0.9994240403175354
","x: 279.378662109375
y: 460.55706787109375
z: -0.019515961408615112
visibility: 0.9745612144470215
","x: 250.59408569335938
y: 468.9523620605469
z: -0.00943581573665142
visibility: 0.7396050691604614
","x: 285.7803039550781
y: 510.3424072265625
z: 0.16613337397575378
visibility: 0.9843743443489075
","x: 240.06643676757812
y: 525.0985107421875
z: 0.1618715226650238
visibility: 0.8519883751869202
","x: 284.4090881347656
y: 518.117431640625
z: 0.1791597455739975
visibility: 0.9331167340278625
","x: 239.9860382080078
y: 533.2703247070312
z: 0.174266055226326
visibility: 0.8641471862792969
","x: 290.7832336425781
y: 536.4320068359375
z: 0.07571373879909515
visibility: 0.9736835360527039
","x: 239.34780883789062
y: 545.6743774414062
z: 0.06854508817195892
visibility: 0.8608735799789429
",,,,,,,,,,,,,,,,,,,,,,,,,,,,,,,,,,,,,,,,,,
11,"x: 271.13653564453125
y: 281.3401184082031
z: -0.2873326241970062
visibility: 0.9982911348342896
","x: 272.77947998046875
y: 276.2248840332031
z: -0.27343010902404785
visibility: 0.9977289438247681
","x: 273.9932861328125
y: 276.62286376953125
z: -0.273453950881958
visibility: 0.9978654980659485
","x: 275.2096252441406
y: 277.0257263183594
z: -0.27352374792099
visibility: 0.9980350136756897
","x: 269.3314208984375
y: 275.2373046875
z: -0.2740696668624878
visibility: 0.9966719746589661
","x: 268.0691223144531
y: 275.248291015625
z: -0.27409490942955017
visibility: 0.9967203140258789
","x: 266.7776184082031
y: 275.3822021484375
z: -0.27413299679756165
visibility: 0.9969955682754517
","x: 276.8035583496094
y: 280.8875427246094
z: -0.1751052588224411
visibility: 0.9967758655548096
","x: 264.1954650878906
y: 279.2566223144531
z: -0.18196286261081696
visibility: 0.9937424063682556
","x: 272.814453125
y: 287.40924072265625
z: -0.2509954571723938
visibility: 0.9979274868965149
","x: 268.89801025390625
y: 288.092529296875
z: -0.2524849474430084
visibility: 0.9974356293678284
","x: 284.9272766113281
y: 320.2879333496094
z: -0.12777641415596008
visibility: 0.9997418522834778
","x: 247.00270080566406
y: 311.736083984375
z: -0.10278607904911041
visibility: 0.9995534420013428
","x: 296.08984375
y: 363.0506591796875
z: -0.25015997886657715
visibility: 0.9719861745834351
","x: 223.40011596679688
y: 335.68084716796875
z: -0.20352885127067566
visibility: 0.4696241617202759
","x: 291.41424560546875
y: 344.30596923828125
z: -0.4427712559700012
visibility: 0.8984140753746033
","x: 235.66128540039062
y: 336.5414733886719
z: -0.41710835695266724
visibility: 0.5179762840270996
","x: 289.9609680175781
y: 341.406982421875
z: -0.4845427870750427
visibility: 0.84378981590271
","x: 236.26834106445312
y: 340.2360534667969
z: -0.4555202126502991
visibility: 0.5164514780044556
","x: 289.5953674316406
y: 333.2732849121094
z: -0.48154228925704956
visibility: 0.8383792638778687
","x: 239.68231201171875
y: 334.352294921875
z: -0.46132200956344604
visibility: 0.5195580720901489
","x: 288.764404296875
y: 336.1806945800781
z: -0.44601544737815857
visibility: 0.7884688973426819
","x: 239.74310302734375
y: 335.6533203125
z: -0.4254460334777832
visibility: 0.5045435428619385
","x: 275.6104736328125
y: 406.9151306152344
z: -0.013562696054577827
visibility: 0.9996579885482788
","x: 254.7674560546875
y: 406.95355224609375
z: 0.013515092432498932
visibility: 0.9994518756866455
","x: 283.4664306640625
y: 473.0489501953125
z: -0.04439686983823776
visibility: 0.9767810702323914
","x: 249.7569122314453
y: 469.5556335449219
z: 0.04899146780371666
visibility: 0.7648747563362122
","x: 289.8630676269531
y: 526.029541015625
z: 0.10584219545125961
visibility: 0.9855179786682129
","x: 245.60910034179688
y: 524.3889770507812
z: 0.27760961651802063
visibility: 0.8659758567810059
","x: 288.88818359375
y: 531.4270629882812
z: 0.11387868970632553
visibility: 0.9270159602165222
","x: 249.13710021972656
y: 530.2257690429688
z: 0.2944087088108063
visibility: 0.8716021180152893
","x: 291.95068359375
y: 542.6624145507812
z: 0.003276010975241661
visibility: 0.9751450419425964
","x: 240.26112365722656
y: 543.7183227539062
z: 0.20097525417804718
visibility: 0.8735479116439819
",,,,,,,,,,,,,,,,,,,,,,,,,,,,,,,,,,,,,,,,,,
12,"x: 268.67230224609375
y: 275.5752868652344
z: -0.1816377192735672
visibility: 0.9984599351882935
","x: 270.752197265625
y: 271.15069580078125
z: -0.1705711930990219
visibility: 0.9979517459869385
","x: 272.1380310058594
y: 271.6220397949219
z: -0.1706245243549347
visibility: 0.9980749487876892
","x: 273.5882263183594
y: 272.1739501953125
z: -0.17068693041801453
visibility: 0.9982274770736694
","x: 267.4935607910156
y: 270.69854736328125
z: -0.15880437195301056
visibility: 0.9969972372055054
","x: 266.4761962890625
y: 270.9350891113281
z: -0.15881258249282837
visibility: 0.9970396757125854
","x: 265.50341796875
y: 271.2482604980469
z: -0.1588318794965744
visibility: 0.9972890019416809
","x: 276.53594970703125
y: 277.06329345703125
z: -0.10198037326335907
visibility: 0.9970920085906982
","x: 265.4788818359375
y: 276.5075378417969
z: -0.047765783965587616
visibility: 0.9943618774414062
","x: 271.21319580078125
y: 281.9269104003906
z: -0.15667244791984558
visibility: 0.9981322288513184
","x: 267.0865783691406
y: 282.4500732421875
z: -0.1411549597978592
visibility: 0.9976887702941895
","x: 286.29339599609375
y: 315.38690185546875
z: -0.08283787965774536
visibility: 0.9997605085372925
","x: 253.57154846191406
y: 311.7982177734375
z: 0.0371272973716259
visibility: 0.9995774626731873
","x: 298.0150146484375
y: 353.5128173828125
z: -0.2376495897769928
visibility: 0.974301815032959
","x: 237.251220703125
y: 338.4356384277344
z: 0.04286343976855278
visibility: 0.5179628729820251
","x: 295.6834411621094
y: 309.14935302734375
z: -0.4171571731567383
visibility: 0.9079418182373047
","x: 235.38101196289062
y: 299.7906188964844
z: -0.0579080656170845
visibility: 0.5647017359733582
","x: 296.08831787109375
y: 294.6073303222656
z: -0.45193520188331604
visibility: 0.8575032949447632
","x: 235.33900451660156
y: 287.61614990234375
z: -0.07772945612668991
visibility: 0.5611023902893066
","x: 295.4194030761719
y: 292.4975891113281
z: -0.44013890624046326
visibility: 0.8523117303848267
","x: 238.62167358398438
y: 283.879638671875
z: -0.0785784125328064
visibility: 0.5636129379272461
","x: 294.3197326660156
y: 297.7165832519531
z: -0.4168420433998108
visibility: 0.8054607510566711
","x: 238.18734741210938
y: 288.0325012207031
z: -0.06254902482032776
visibility: 0.5489987134933472
","x: 275.1153259277344
y: 407.1423645019531
z: -0.029390692710876465
visibility: 0.9996834993362427
","x: 255.74331665039062
y: 404.3966369628906
z: 0.02942955121397972
visibility: 0.999502956867218
","x: 279.6698913574219
y: 472.92218017578125
z: -0.08254261314868927
visibility: 0.9786489009857178
","x: 240.46011352539062
y: 456.1112976074219
z: -0.14781729876995087
visibility: 0.7882976531982422
","x: 288.6714782714844
y: 519.5301513671875
z: 0.11660832166671753
visibility: 0.9865120053291321
","x: 257.4531555175781
y: 505.9659118652344
z: 0.06416471302509308
visibility: 0.879045844078064
","x: 289.2588806152344
y: 521.1138305664062
z: 0.13267526030540466
visibility: 0.9244856238365173
","x: 264.1979675292969
y: 509.5361328125
z: 0.08207497000694275
visibility: 0.8825005292892456
","x: 290.5506591796875
y: 542.6494140625
z: 0.031768813729286194
visibility: 0.9767183661460876
","x: 246.8984375
y: 531.9627685546875
z: -0.0015737449284642935
visibility: 0.8856906890869141
",,,,,,,,,,,,,,,,,,,,,,,,,,,,,,,,,,,,,,,,,,
13,"x: 265.759521484375
y: 275.6822814941406
z: -0.2312283217906952
visibility: 0.9986134171485901
","x: 267.9610900878906
y: 271.3144226074219
z: -0.22290274500846863
visibility: 0.9981551170349121
","x: 269.3567810058594
y: 271.77667236328125
z: -0.22289517521858215
visibility: 0.99826580286026
","x: 270.80517578125
y: 272.2740478515625
z: -0.22289946675300598
visibility: 0.9984027743339539
","x: 264.7821044921875
y: 270.82708740234375
z: -0.21229246258735657
visibility: 0.997296154499054
","x: 263.8235168457031
y: 271.0476989746094
z: -0.2123236358165741
visibility: 0.9973341226577759
","x: 262.9033203125
y: 271.3468017578125
z: -0.21232697367668152
visibility: 0.9975586533546448
","x: 273.4868469238281
y: 277.24188232421875
z: -0.15226250886917114
visibility: 0.9973801970481873
","x: 262.5315246582031
y: 276.5539245605469
z: -0.09130597859621048
visibility: 0.9949227571487427
","x: 268.1845703125
y: 282.2520751953125
z: -0.20434971153736115
visibility: 0.9983174800872803
","x: 264.1899719238281
y: 282.63616943359375
z: -0.18951895833015442
visibility: 0.9979181289672852
","x: 283.534912109375
y: 315.4422302246094
z: -0.110454261302948
visibility: 0.9997738003730774
","x: 252.33277893066406
y: 314.11297607421875
z: -0.02290782332420349
visibility: 0.9996160864830017
","x: 294.08380126953125
y: 353.3282775878906
z: -0.29564645886421204
visibility: 0.9764559268951416
","x: 237.0091094970703
y: 349.3094482421875
z: -0.1499013900756836
visibility: 0.5648846626281738
","x: 293.2589416503906
y: 311.03515625
z: -0.472924143075943
visibility: 0.9160219430923462
","x: 235.36231994628906
y: 309.9869079589844
z: -0.36794742941856384
visibility: 0.607903778553009
","x: 293.5123291015625
y: 297.019775390625
z: -0.5126689672470093
visibility: 0.8686754703521729
","x: 235.22618103027344
y: 297.8823547363281
z: -0.4068065285682678
visibility: 0.6040846109390259
","x: 292.31890869140625
y: 294.8184509277344
z: -0.49740853905677795
visibility: 0.8635929226875305
","x: 237.35284423828125
y: 295.3381042480469
z: -0.4036964774131775
visibility: 0.6062366962432861
","x: 291.4428405761719
y: 299.96173095703125
z: -0.47176772356033325
visibility: 0.8192451000213623
","x: 237.63916015625
y: 299.8994140625
z: -0.3735693395137787
visibility: 0.5926791429519653
","x: 273.0052795410156
y: 408.86212158203125
z: -0.04002809152007103
visibility: 0.9997050762176514
","x: 254.70654296875
y: 406.07550048828125
z: 0.03994578868150711
visibility: 0.9995483756065369
","x: 278.4376220703125
y: 471.1553649902344
z: -0.04665612429380417
visibility: 0.9806394577026367
","x: 240.99462890625
y: 462.1658630371094
z: 0.059172313660383224
visibility: 0.8091238141059875
","x: 294.46148681640625
y: 521.542724609375
z: 0.09179080277681351
visibility: 0.9877297878265381
","x: 257.3240051269531
y: 515.4765625
z: 0.26053792238235474
visibility: 0.8909091949462891
","x: 299.3848571777344
y: 524.7022705078125
z: 0.10074665397405624
visibility: 0.927666962146759
","x: 260.8392028808594
y: 526.104248046875
z: 0.27578428387641907
visibility: 0.8926404118537903
","x: 291.4290466308594
y: 542.9417114257812
z: 0.0012457002885639668
visibility: 0.9788565039634705
","x: 239.77120971679688
y: 537.1160278320312
z: 0.1966259479522705
visibility: 0.8967758417129517
",,,,,,,,,,,,,,,,,,,,,,,,,,,,,,,,,,,,,,,,,,
14,"x: 262.22802734375
y: 279.0737609863281
z: -0.16626867651939392
visibility: 0.9987497329711914
","x: 263.9648132324219
y: 274.6056823730469
z: -0.1494859755039215
visibility: 0.9983323216438293
","x: 265.5208740234375
y: 274.7723083496094
z: -0.14945943653583527
visibility: 0.9984291195869446
","x: 267.16070556640625
y: 275.02081298828125
z: -0.149468332529068
visibility: 0.9985523819923401
","x: 259.80584716796875
y: 274.72119140625
z: -0.14755220711231232
visibility: 0.9975612759590149
","x: 258.3550109863281
y: 274.95458984375
z: -0.14759425818920135
visibility: 0.9975946545600891
","x: 256.87847900390625
y: 275.1493225097656
z: -0.14762017130851746
visibility: 0.9977987408638
","x: 269.0107116699219
y: 279.5410461425781
z: -0.07070879638195038
visibility: 0.9976236820220947
","x: 254.74427795410156
y: 279.613525390625
z: -0.058884263038635254
visibility: 0.9954260587692261
","x: 264.243408203125
y: 285.2965087890625
z: -0.13857188820838928
visibility: 0.9984790682792664
","x: 259.99871826171875
y: 286.35601806640625
z: -0.13586270809173584
visibility: 0.9981228709220886
","x: 282.1881103515625
y: 316.51312255859375
z: -0.04098940268158913
visibility: 0.9997273087501526
","x: 244.63980102539062
y: 319.0768737792969
z: -0.022785577923059464
visibility: 0.9996469020843506
","x: 291.5593566894531
y: 342.9834289550781
z: -0.14756734669208527
visibility: 0.9782868027687073
","x: 226.45831298828125
y: 340.9208679199219
z: -0.12084945291280746
visibility: 0.6081869006156921
","x: 286.5679931640625
y: 295.02197265625
z: -0.24087074398994446
visibility: 0.9228718876838684
","x: 236.8018035888672
y: 298.68359375
z: -0.26200002431869507
visibility: 0.64663165807724
","x: 286.2355651855469
y: 284.9950866699219
z: -0.26081138849258423
visibility: 0.8760102987289429
","x: 238.9246368408203
y: 286.64453125
z: -0.287216454744339
visibility: 0.6411266326904297
","x: 285.4693298339844
y: 283.1702880859375
z: -0.24202187359333038
visibility: 0.8700571060180664
","x: 240.92922973632812
y: 286.07672119140625
z: -0.29778003692626953
visibility: 0.6424335837364197
","x: 284.95172119140625
y: 287.27239990234375
z: -0.2358781397342682
visibility: 0.8270130753517151
","x: 241.353515625
y: 290.354736328125
z: -0.3042338788509369
visibility: 0.6293127536773682
","x: 271.5189514160156
y: 412.75225830078125
z: -0.01423837710171938
visibility: 0.9996986985206604
","x: 252.37203979492188
y: 412.1440124511719
z: 0.014126171357929707
visibility: 0.9995863437652588
","x: 279.6692810058594
y: 473.7561340332031
z: -0.04735913500189781
visibility: 0.9822878241539001
","x: 239.5826416015625
y: 464.8431396484375
z: -0.11863919347524643
visibility: 0.828116238117218
","x: 291.9651794433594
y: 523.639404296875
z: 0.09744152426719666
visibility: 0.9884952902793884
","x: 253.2928009033203
y: 520.6251220703125
z: 0.03753238543868065
visibility: 0.9016874432563782
","x: 294.24224853515625
y: 528.1239013671875
z: 0.10627822577953339
visibility: 0.9267977476119995
","x: 259.8635559082031
y: 531.4264526367188
z: 0.04860632121562958
visibility: 0.9018799066543579
","x: 294.72705078125
y: 543.0640258789062
z: 0.011050976812839508
visibility: 0.98014235496521
","x: 236.59158325195312
y: 539.02734375
z: -0.037164296954870224
visibility: 0.906835675239563
",,,,,,,,,,,,,,,,,,,,,,,,,,,,,,,,,,,,,,,,,,
15,"x: 257.9875793457031
y: 278.80194091796875
z: -0.15063725411891937
visibility: 0.9988618493080139
","x: 259.187744140625
y: 274.3099365234375
z: -0.13335755467414856
visibility: 0.9984791874885559
","x: 260.4475402832031
y: 274.38299560546875
z: -0.1333431601524353
visibility: 0.9985582828521729
","x: 261.67608642578125
y: 274.55224609375
z: -0.13335593044757843
visibility: 0.9986709356307983
","x: 255.4438934326172
y: 274.6749267578125
z: -0.13611340522766113
visibility: 0.9977865219116211
","x: 254.09829711914062
y: 274.9263916015625
z: -0.1361333429813385
visibility: 0.9978147745132446
","x: 252.75083923339844
y: 275.0805358886719
z: -0.13617251813411713
visibility: 0.9980031251907349
","x: 262.8858337402344
y: 278.6019287109375
z: -0.040443915873765945
visibility: 0.9978044629096985
","x: 250.5677032470703
y: 279.5882263183594
z: -0.053006432950496674
visibility: 0.9958698749542236
","x: 260.0310974121094
y: 284.6853332519531
z: -0.11655521392822266
visibility: 0.9986104369163513
","x: 255.75625610351562
y: 286.0504150390625
z: -0.12062337249517441
visibility: 0.9983012080192566
","x: 274.92718505859375
y: 310.9038391113281
z: 0.0098952641710639
visibility: 0.9996891617774963
","x: 239.73802185058594
y: 317.551513671875
z: -0.023677553981542587
visibility: 0.9996650218963623
","x: 289.2470397949219
y: 336.72796630859375
z: -0.09270133078098297
visibility: 0.9784279465675354
","x: 225.23098754882812
y: 335.6623840332031
z: -0.14170107245445251
visibility: 0.6470614671707153
","x: 274.49005126953125
y: 294.5306396484375
z: -0.21255385875701904
visibility: 0.9272480010986328
","x: 240.237060546875
y: 298.9944152832031
z: -0.24314001202583313
visibility: 0.6805558800697327
","x: 270.510009765625
y: 284.8324890136719
z: -0.23954682052135468
visibility: 0.8778915405273438
","x: 243.79617309570312
y: 287.28118896484375
z: -0.26986655592918396
visibility: 0.6706151962280273
","x: 268.5172424316406
y: 283.3067626953125
z: -0.22161802649497986
visibility: 0.8708508014678955
","x: 244.49964904785156
y: 287.2581787109375
z: -0.2766936123371124
visibility: 0.6704866290092468
","x: 269.3995056152344
y: 287.0184326171875
z: -0.20907476544380188
visibility: 0.8282536864280701
","x: 244.3089599609375
y: 292.0058898925781
z: -0.25332456827163696
visibility: 0.6559394598007202
","x: 270.49578857421875
y: 408.7174987792969
z: 0.018739711493253708
visibility: 0.9997031688690186
","x: 250.15771484375
y: 411.7906494140625
z: -0.018847953528165817
visibility: 0.9996125102043152
","x: 279.1295471191406
y: 473.54266357421875
z: 0.029551932588219643
visibility: 0.983378529548645
","x: 244.03414916992188
y: 469.9365539550781
z: -0.047615163028240204
visibility: 0.8448650240898132
","x: 284.37701416015625
y: 523.1971435546875
z: 0.18521098792552948
visibility: 0.9888491630554199
","x: 240.84085083007812
y: 523.5172729492188
z: 0.07957945019006729
visibility: 0.9110259413719177
","x: 277.7882385253906
y: 528.1292114257812
z: 0.1956576406955719
visibility: 0.9267171025276184
","x: 240.0843963623047
y: 531.9522705078125
z: 0.08707078546285629
visibility: 0.899962842464447
","x: 287.6722106933594
y: 541.9891967773438
z: 0.10491538047790527
visibility: 0.980665385723114
","x: 236.69522094726562
y: 541.6285400390625
z: -0.01193088199943304
visibility: 0.9151882529258728
",,,,,,,,,,,,,,,,,,,,,,,,,,,,,,,,,,,,,,,,,,
16,"x: 255.73110961914062
y: 287.65966796875
z: -0.16636981070041656
visibility: 0.9989638328552246
","x: 257.2513122558594
y: 283.57489013671875
z: -0.14921271800994873
visibility: 0.99861079454422
","x: 258.69500732421875
y: 283.91741943359375
z: -0.14922958612442017
visibility: 0.9986760020256042
","x: 260.1629333496094
y: 284.27642822265625
z: -0.14924739301204681
visibility: 0.9987756013870239
","x: 253.47576904296875
y: 283.29876708984375
z: -0.15330953896045685
visibility: 0.9979884624481201
","x: 252.19593811035156
y: 283.478271484375
z: -0.1533275693655014
visibility: 0.9980155229568481
","x: 250.89385986328125
y: 283.6241455078125
z: -0.15337732434272766
visibility: 0.9981854557991028
","x: 262.2215881347656
y: 288.0103454589844
z: -0.050246596336364746
visibility: 0.9979196190834045
","x: 248.46156311035156
y: 288.2763671875
z: -0.07111618667840958
visibility: 0.9962661862373352
","x: 258.34832763671875
y: 293.72607421875
z: -0.13001979887485504
visibility: 0.9987227916717529
","x: 253.6925048828125
y: 294.6273498535156
z: -0.13625659048557281
visibility: 0.9984593391418457
","x: 272.0834045410156
y: 320.3956604003906
z: 0.01897539757192135
visibility: 0.9996336102485657
","x: 239.65171813964844
y: 323.0798034667969
z: -0.06062890961766243
visibility: 0.9996886253356934
","x: 282.1604309082031
y: 345.76312255859375
z: -0.059095583856105804
visibility: 0.9662678241729736
","x: 230.9862060546875
y: 352.5941162109375
z: -0.1322201043367386
visibility: 0.6776382923126221
","x: 269.328369140625
y: 313.62152099609375
z: -0.20123252272605896
visibility: 0.9213760495185852
","x: 241.49407958984375
y: 358.6924743652344
z: -0.23750507831573486
visibility: 0.7007685303688049
","x: 266.1178283691406
y: 306.90625
z: -0.23302748799324036
visibility: 0.8691389560699463
","x: 242.10928344726562
y: 365.94842529296875
z: -0.2653352618217468
visibility: 0.6848593354225159
","x: 265.01177978515625
y: 302.8949279785156
z: -0.22446374595165253
visibility: 0.8616858720779419
","x: 243.72625732421875
y: 358.25433349609375
z: -0.2636832594871521
visibility: 0.6840066313743591
","x: 265.18426513671875
y: 306.9267578125
z: -0.20244280993938446
visibility: 0.8188744187355042
","x: 243.99072265625
y: 358.18017578125
z: -0.24270960688591003
visibility: 0.6661297082901001
","x: 268.85015869140625
y: 414.9322204589844
z: 0.03796623274683952
visibility: 0.9997183680534363
","x: 248.87429809570312
y: 414.540283203125
z: -0.03808019310235977
visibility: 0.9996429681777954
","x: 276.5602722167969
y: 473.8807373046875
z: 0.06696710735559464
visibility: 0.9813307523727417
","x: 246.11595153808594
y: 474.7155456542969
z: -0.08068536967039108
visibility: 0.8599115014076233
","x: 270.3558654785156
y: 522.931640625
z: 0.22934076189994812
visibility: 0.9876269102096558
","x: 235.05899047851562
y: 523.9462890625
z: 0.02312038093805313
visibility: 0.91934734582901
","x: 264.428955078125
y: 528.7320556640625
z: 0.2410242259502411
visibility: 0.9263753890991211
","x: 231.14163208007812
y: 531.7377319335938
z: 0.02917834185063839
visibility: 0.8993354439735413
","x: 284.061279296875
y: 542.0225219726562
z: 0.17068251967430115
visibility: 0.9802126884460449
","x: 236.77513122558594
y: 541.4849243164062
z: -0.06743193417787552
visibility: 0.9228038787841797
",,,,,,,,,,,,,,,,,,,,,,,,,,,,,,,,,,,,,,,,,,
17,"x: 256.36029052734375
y: 271.3940734863281
z: -0.14985692501068115
visibility: 0.998916506767273
","x: 258.066162109375
y: 265.2474060058594
z: -0.1319262683391571
visibility: 0.9985788464546204
","x: 259.3793029785156
y: 265.60693359375
z: -0.13193638622760773
visibility: 0.9985813498497009
","x: 260.6933898925781
y: 265.9344787597656
z: -0.1319328397512436
visibility: 0.9986943602561951
","x: 254.5913848876953
y: 264.6422119140625
z: -0.1379386931657791
visibility: 0.9979696869850159
","x: 253.4196319580078
y: 264.6676330566406
z: -0.13794879615306854
visibility: 0.9979891180992126
","x: 252.22964477539062
y: 264.80755615234375
z: -0.1380142867565155
visibility: 0.9981523156166077
","x: 262.6980895996094
y: 268.37982177734375
z: -0.025870680809020996
visibility: 0.9977076649665833
","x: 250.19113159179688
y: 267.7700500488281
z: -0.053600288927555084
visibility: 0.9964507222175598
","x: 258.567138671875
y: 277.2635192871094
z: -0.10973381996154785
visibility: 0.9987543821334839
","x: 254.41102600097656
y: 277.7666931152344
z: -0.11803505569696426
visibility: 0.9985223412513733
","x: 272.06915283203125
y: 301.18572998046875
z: 0.03335881605744362
visibility: 0.9995349049568176
","x: 241.1189727783203
y: 295.14593505859375
z: -0.058846764266490936
visibility: 0.9996177554130554
","x: 283.23089599609375
y: 320.60443115234375
z: -0.10350321233272552
visibility: 0.9628413915634155
","x: 236.10568237304688
y: 309.94451904296875
z: -0.2161697894334793
visibility: 0.708380401134491
","x: 271.81591796875
y: 301.2288513183594
z: -0.24043819308280945
visibility: 0.9216265082359314
","x: 250.2071533203125
y: 306.0068359375
z: -0.3616017997264862
visibility: 0.7280469536781311
","x: 268.80279541015625
y: 297.40802001953125
z: -0.2681906819343567
visibility: 0.8676581978797913
","x: 255.43679809570312
y: 309.2918701171875
z: -0.39926379919052124
visibility: 0.7103395462036133
","x: 267.16534423828125
y: 295.79693603515625
z: -0.2295314073562622
visibility: 0.8603202700614929
","x: 258.243896484375
y: 306.1346130371094
z: -0.389900803565979
visibility: 0.7089714407920837
","x: 267.4911804199219
y: 296.93292236328125
z: -0.23226304352283478
visibility: 0.81871497631073
","x: 257.0382995605469
y: 304.887939453125
z: -0.3611275553703308
visibility: 0.6896511316299438
","x: 266.43511962890625
y: 392.8179626464844
z: 0.028767714276909828
visibility: 0.9997316002845764
","x: 247.5900115966797
y: 391.5214538574219
z: -0.028836950659751892
visibility: 0.9996433854103088
","x: 269.22735595703125
y: 458.48980712890625
z: 0.0030434587970376015
visibility: 0.9796573519706726
","x: 244.4839630126953
y: 457.36627197265625
z: -0.06644753366708755
visibility: 0.8718217015266418
","x: 269.50115966796875
y: 517.7453002929688
z: 0.15288403630256653
visibility: 0.985359251499176
","x: 236.84109497070312
y: 509.2808532714844
z: 0.1258094161748886
visibility: 0.9246504306793213
","x: 266.7847595214844
y: 523.3110961914062
z: 0.1631736010313034
visibility: 0.9201471209526062
","x: 236.35372924804688
y: 514.0195922851562
z: 0.13795283436775208
visibility: 0.8790158629417419
","x: 277.93511962890625
y: 538.6254272460938
z: 0.09714125096797943
visibility: 0.9780011773109436
","x: 236.22561645507812
y: 533.936279296875
z: 0.016579758375883102
visibility: 0.926861047744751
",,,,,,,,,,,,,,,,,,,,,,,,,,,,,,,,,,,,,,,,,,
18,"x: 256.5860900878906
y: 258.28570556640625
z: -0.1936720609664917
visibility: 0.9989004731178284
","x: 258.5343017578125
y: 252.79641723632812
z: -0.17846161127090454
visibility: 0.9983037114143372
","x: 259.8166198730469
y: 252.97584533691406
z: -0.1785115748643875
visibility: 0.9982967376708984
","x: 261.02203369140625
y: 253.2333984375
z: -0.17852453887462616
visibility: 0.9984093308448792
","x: 254.84515380859375
y: 253.1155548095703
z: -0.18692274391651154
visibility: 0.9977544546127319
","x: 253.6659393310547
y: 253.46533203125
z: -0.18694671988487244
visibility: 0.9977962970733643
","x: 252.53680419921875
y: 253.8765869140625
z: -0.18703201413154602
visibility: 0.9979832768440247
","x: 262.27056884765625
y: 256.4581604003906
z: -0.05247806757688522
visibility: 0.9966382384300232
","x: 251.07421875
y: 256.975830078125
z: -0.112378790974617
visibility: 0.9961475729942322
","x: 258.74176025390625
y: 264.06683349609375
z: -0.15152201056480408
visibility: 0.9986954927444458
","x: 254.53497314453125
y: 264.7733154296875
z: -0.16433081030845642
visibility: 0.9984820485115051
","x: 272.2347717285156
y: 288.6380615234375
z: -0.0067257629707455635
visibility: 0.9995267987251282
","x: 241.53085327148438
y: 286.84063720703125
z: -0.06902629882097244
visibility: 0.9996309876441956
","x: 279.1175231933594
y: 321.74578857421875
z: 0.0378037691116333
visibility: 0.9392405152320862
","x: 238.38531494140625
y: 320.7126159667969
z: -0.04203533008694649
visibility: 0.7351557612419128
","x: 272.5476379394531
y: 354.42242431640625
z: -0.05751574784517288
visibility: 0.8846265077590942
","x: 239.5753173828125
y: 358.5638122558594
z: -0.10799858719110489
visibility: 0.7478107810020447
","x: 272.91412353515625
y: 363.6398620605469
z: -0.08039930462837219
visibility: 0.8267335295677185
","x: 239.80032348632812
y: 371.2332458496094
z: -0.133797749876976
visibility: 0.7264605164527893
","x: 270.71881103515625
y: 362.9133605957031
z: -0.10856274515390396
visibility: 0.8231145739555359
","x: 241.86395263671875
y: 372.23095703125
z: -0.15964654088020325
visibility: 0.725915253162384
","x: 268.30865478515625
y: 358.59661865234375
z: -0.07168085873126984
visibility: 0.783126175403595
","x: 243.28622436523438
y: 366.9340515136719
z: -0.11949379742145538
visibility: 0.7057511806488037
","x: 266.04571533203125
y: 379.471923828125
z: 0.021801723167300224
visibility: 0.9996206760406494
","x: 247.99058532714844
y: 377.3669128417969
z: -0.021802769973874092
visibility: 0.9995679259300232
","x: 264.9501037597656
y: 446.72674560546875
z: 0.001127235358580947
visibility: 0.9773095846176147
","x: 246.82852172851562
y: 447.25384521484375
z: -0.04575556889176369
visibility: 0.8821060657501221
","x: 262.61187744140625
y: 504.66107177734375
z: 0.14772865176200867
visibility: 0.9835867285728455
","x: 238.9214324951172
y: 502.09173583984375
z: 0.12230022251605988
visibility: 0.9299045205116272
","x: 258.6369323730469
y: 511.0491638183594
z: 0.15650275349617004
visibility: 0.9137237668037415
","x: 239.1766357421875
y: 507.1512145996094
z: 0.1315978765487671
visibility: 0.8661908507347107
","x: 269.65411376953125
y: 527.134521484375
z: 0.0629011020064354
visibility: 0.976720929145813
","x: 242.48828125
y: 524.0902099609375
z: 0.01580793596804142
visibility: 0.9314553737640381
",,,,,,,,,,,,,,,,,,,,,,,,,,,,,,,,,,,,,,,,,,
19,"x: 258.1029052734375
y: 264.43597412109375
z: -0.2185632437467575
visibility: 0.9989492893218994
","x: 259.7430725097656
y: 259.4178161621094
z: -0.2027336061000824
visibility: 0.9982922673225403
","x: 260.8399658203125
y: 259.6551513671875
z: -0.20278462767601013
visibility: 0.9983022212982178
","x: 261.8778991699219
y: 259.9649353027344
z: -0.20279482007026672
visibility: 0.9984007477760315
","x: 256.2146301269531
y: 259.5284729003906
z: -0.20880453288555145
visibility: 0.9977684020996094
","x: 254.94473266601562
y: 259.8055419921875
z: -0.20883238315582275
visibility: 0.9978115558624268
","x: 253.6942596435547
y: 260.13348388671875
z: -0.20890645682811737
visibility: 0.9979581236839294
","x: 262.4130859375
y: 263.4764404296875
z: -0.10816041380167007
visibility: 0.9964678883552551
","x: 251.1912078857422
y: 263.78460693359375
z: -0.14001129567623138
visibility: 0.9961397647857666
","x: 259.8354797363281
y: 270.0185546875
z: -0.18429884314537048
visibility: 0.9987553954124451
","x: 255.37496948242188
y: 271.03326416015625
z: -0.19286367297172546
visibility: 0.9985669851303101
","x: 272.502197265625
y: 300.2371520996094
z: -0.04266852140426636
visibility: 0.999549925327301
","x: 240.79656982421875
y: 293.66473388671875
z: -0.1118239015340805
visibility: 0.999652087688446
","x: 274.7839050292969
y: 354.0633544921875
z: -0.03037646785378456
visibility: 0.937173068523407
","x: 239.15328979492188
y: 345.91973876953125
z: -0.06906507909297943
visibility: 0.7582927942276001
","x: 269.1807861328125
y: 397.88916015625
z: -0.11167047172784805
visibility: 0.8837504386901855
","x: 241.96080017089844
y: 391.1277770996094
z: -0.1586238294839859
visibility: 0.7615928649902344
","x: 269.8897399902344
y: 410.8726501464844
z: -0.13707613945007324
visibility: 0.8255481123924255
","x: 242.21661376953125
y: 405.2420654296875
z: -0.18606826663017273
visibility: 0.7370611429214478
","x: 266.78936767578125
y: 410.42181396484375
z: -0.15813347697257996
visibility: 0.8231015801429749
","x: 245.11622619628906
y: 405.6908874511719
z: -0.20632119476795197
visibility: 0.7367412447929382
","x: 265.6665954589844
y: 405.12823486328125
z: -0.12193906307220459
visibility: 0.7846174240112305
","x: 246.33584594726562
y: 401.2338562011719
z: -0.1680295467376709
visibility: 0.7149143815040588
","x: 263.7176513671875
y: 383.9709777832031
z: 0.028060000389814377
visibility: 0.9996210932731628
","x: 246.17794799804688
y: 384.28533935546875
z: -0.028057387098670006
visibility: 0.9995830059051514
","x: 263.75360107421875
y: 447.4099426269531
z: 0.057358961552381516
visibility: 0.9682979583740234
","x: 247.6193389892578
y: 451.83905029296875
z: -0.04988309368491173
visibility: 0.8912432789802551
","x: 259.85150146484375
y: 508.2003173828125
z: 0.1966170370578766
visibility: 0.9784126281738281
","x: 242.5100860595703
y: 506.6332702636719
z: 0.07932598888874054
visibility: 0.9328681230545044
","x: 253.9664306640625
y: 514.1179809570312
z: 0.20517738163471222
visibility: 0.9056235551834106
","x: 239.38754272460938
y: 510.9785461425781
z: 0.08640475571155548
visibility: 0.847377598285675
","x: 267.89630126953125
y: 530.3040771484375
z: 0.12008849531412125
visibility: 0.9727674722671509
","x: 248.15652465820312
y: 526.9967041015625
z: -0.01788288541138172
visibility: 0.9337820410728455
",,,,,,,,,,,,,,,,,,,,,,,,,,,,,,,,,,,,,,,,,,
20,"x: 264.12371826171875
y: 283.8375549316406
z: -0.13089050352573395
visibility: 0.9989029169082642
","x: 263.1406555175781
y: 279.720703125
z: -0.11746422201395035
visibility: 0.9978459477424622
","x: 263.57861328125
y: 280.0079650878906
z: -0.11751874536275864
visibility: 0.9979413747787476
","x: 263.9981384277344
y: 280.32501220703125
z: -0.11755194514989853
visibility: 0.9978513717651367
","x: 261.1900634765625
y: 279.4015808105469
z: -0.13079489767551422
visibility: 0.997546911239624
","x: 260.07373046875
y: 279.44342041015625
z: -0.13084140419960022
visibility: 0.9976509809494019
","x: 259.1233215332031
y: 279.5970764160156
z: -0.1309448629617691
visibility: 0.997689425945282
","x: 262.58599853515625
y: 283.8984375
z: -0.05029711127281189
visibility: 0.9955498576164246
","x: 255.2116241455078
y: 282.9595031738281
z: -0.12410980463027954
visibility: 0.9958760738372803
","x: 264.5949401855469
y: 288.556396484375
z: -0.1054038256406784
visibility: 0.9985062479972839
","x: 262.0648498535156
y: 288.17279052734375
z: -0.12268606573343277
visibility: 0.9984627962112427
","x: 271.898681640625
y: 316.4952392578125
z: 0.0018804868450388312
visibility: 0.9994858503341675
","x: 242.7206268310547
y: 322.8558654785156
z: -0.09815838187932968
visibility: 0.9996576309204102
","x: 273.7510681152344
y: 361.9990234375
z: 0.04519624263048172
visibility: 0.8839834928512573
","x: 238.4690399169922
y: 370.0433654785156
z: -0.08799166232347488
visibility: 0.781785786151886
","x: 276.1818542480469
y: 392.1155090332031
z: -0.012827707454562187
visibility: 0.8418369889259338
","x: 230.09075927734375
y: 411.4083557128906
z: -0.13285839557647705
visibility: 0.784357488155365
","x: 280.80914306640625
y: 398.2043151855469
z: -0.023626888170838356
visibility: 0.7817701101303101
","x: 225.9752197265625
y: 421.7914123535156
z: -0.1476324498653412
visibility: 0.7609393000602722
","x: 280.7221374511719
y: 399.4409484863281
z: -0.04452437534928322
visibility: 0.783514142036438
","x: 226.14340209960938
y: 422.6618957519531
z: -0.16614218056201935
visibility: 0.7607930898666382
","x: 277.3073425292969
y: 397.5870056152344
z: -0.02408583089709282
visibility: 0.747442364692688
","x: 228.08692932128906
y: 419.77001953125
z: -0.1407235562801361
visibility: 0.7398003935813904
","x: 264.11279296875
y: 399.2869567871094
z: 0.028213635087013245
visibility: 0.9996457695960999
","x: 246.66549682617188
y: 403.9378662109375
z: -0.028154760599136353
visibility: 0.9995986819267273
","x: 274.298095703125
y: 447.25177001953125
z: -0.18489685654640198
visibility: 0.9696943759918213
","x: 248.69161987304688
y: 452.3562927246094
z: -0.05029676482081413
visibility: 0.8978002667427063
","x: 263.9385681152344
y: 506.21826171875
z: -0.08842303603887558
visibility: 0.9778852462768555
","x: 247.52442932128906
y: 508.450927734375
z: 0.11197102069854736
visibility: 0.9349684119224548
","x: 259.3746032714844
y: 511.68927001953125
z: -0.0817837193608284
visibility: 0.9100435972213745
","x: 245.9249725341797
y: 514.4060668945312
z: 0.12435051053762436
visibility: 0.836925208568573
","x: 270.718505859375
y: 525.510498046875
z: -0.16499461233615875
visibility: 0.9735608100891113
","x: 249.1689453125
y: 526.3809814453125
z: 0.044909603893756866
visibility: 0.9349127411842346
",,,,,,,,,,,,,,,,,,,,,,,,,,,,,,,,,,,,,,,,,,
21,"x: 268.4479064941406
y: 298.14581298828125
z: -0.15627947449684143
visibility: 0.9989476203918457
","x: 268.43878173828125
y: 294.10858154296875
z: -0.1439892053604126
visibility: 0.9978551864624023
","x: 268.77044677734375
y: 294.34600830078125
z: -0.14401783049106598
visibility: 0.9979667067527771
","x: 269.1576843261719
y: 294.6326599121094
z: -0.14402808248996735
visibility: 0.9978500008583069
","x: 266.5973815917969
y: 293.70703125
z: -0.15145167708396912
visibility: 0.9975771903991699
","x: 265.4927673339844
y: 293.6343688964844
z: -0.15148277580738068
visibility: 0.9977083802223206
","x: 264.38427734375
y: 293.6227722167969
z: -0.15155747532844543
visibility: 0.9977210164070129
","x: 267.986572265625
y: 298.5626220703125
z: -0.06775812059640884
visibility: 0.9956072568893433
","x: 260.85137939453125
y: 296.52105712890625
z: -0.12918230891227722
visibility: 0.9960291385650635
","x: 267.8083190917969
y: 304.2172546386719
z: -0.12825652956962585
visibility: 0.9985899329185486
","x: 265.4862976074219
y: 303.5228576660156
z: -0.13709242641925812
visibility: 0.9985803961753845
","x: 274.9032897949219
y: 332.52252197265625
z: -0.01895179972052574
visibility: 0.9995185136795044
","x: 244.87191772460938
y: 325.55853271484375
z: -0.11079700291156769
visibility: 0.9996840953826904
","x: 274.9185791015625
y: 373.5552673339844
z: -0.01730930805206299
visibility: 0.8859332203865051
","x: 235.30575561523438
y: 358.71173095703125
z: -0.18194139003753662
visibility: 0.8030869960784912
","x: 283.1827392578125
y: 408.06378173828125
z: -0.10788564383983612
visibility: 0.8493999242782593
","x: 232.7962646484375
y: 380.3854064941406
z: -0.31703129410743713
visibility: 0.8048162460327148
","x: 286.4193115234375
y: 418.3702087402344
z: -0.12966059148311615
visibility: 0.7910628914833069
","x: 228.36497497558594
y: 386.48919677734375
z: -0.355009526014328
visibility: 0.7827744483947754
","x: 286.3531188964844
y: 418.5113525390625
z: -0.14943459630012512
visibility: 0.7936586737632751
","x: 231.31320190429688
y: 388.5501403808594
z: -0.3615386188030243
visibility: 0.7826309204101562
","x: 284.37225341796875
y: 414.9713134765625
z: -0.11908109486103058
visibility: 0.7602011561393738
","x: 229.239501953125
y: 388.875
z: -0.3234473466873169
visibility: 0.7627304196357727
","x: 265.1095886230469
y: 409.0075988769531
z: 0.0293699000030756
visibility: 0.9996430277824402
","x: 248.56161499023438
y: 408.5785217285156
z: -0.029369279742240906
visibility: 0.9996122717857361
","x: 273.4041748046875
y: 451.420654296875
z: 0.04387012496590614
visibility: 0.9683292508125305
","x: 252.2489013671875
y: 454.27374267578125
z: -0.05982600897550583
visibility: 0.9069895148277283
","x: 274.8968811035156
y: 504.45849609375
z: 0.19235709309577942
visibility: 0.9757910370826721
","x: 247.65872192382812
y: 509.4524841308594
z: 0.06844545155763626
visibility: 0.9402655959129333
","x: 271.8830261230469
y: 511.28558349609375
z: 0.2034575641155243
visibility: 0.8995891213417053
","x: 245.8683624267578
y: 515.0638427734375
z: 0.07708850502967834
visibility: 0.840300977230072
","x: 281.74261474609375
y: 519.5302734375
z: 0.1300954520702362
visibility: 0.9725934267044067
","x: 252.0109405517578
y: 527.330322265625
z: -0.018110567703843117
visibility: 0.9398545622825623
",,,,,,,,,,,,,,,,,,,,,,,,,,,,,,,,,,,,,,,,,,
22,"x: 275.99310302734375
y: 295.46221923828125
z: -0.17609605193138123
visibility: 0.99892657995224
","x: 274.40057373046875
y: 292.614990234375
z: -0.16315650939941406
visibility: 0.9977986812591553
","x: 274.4515686035156
y: 292.6421203613281
z: -0.16316074132919312
visibility: 0.9979082345962524
","x: 274.4979248046875
y: 292.61346435546875
z: -0.16316726803779602
visibility: 0.9977204203605652
","x: 272.9599914550781
y: 292.90850830078125
z: -0.18606458604335785
visibility: 0.9976061582565308
","x: 272.0727844238281
y: 292.96923828125
z: -0.18610432744026184
visibility: 0.997742772102356
","x: 271.066650390625
y: 293.0633850097656
z: -0.18619541823863983
visibility: 0.9977191686630249
","x: 270.2397155761719
y: 295.3651123046875
z: -0.08891104906797409
visibility: 0.995554506778717
","x: 266.11163330078125
y: 296.12359619140625
z: -0.18374904990196228
visibility: 0.9961362481117249
","x: 274.0698547363281
y: 304.72576904296875
z: -0.1461285650730133
visibility: 0.9982894062995911
","x: 272.2756652832031
y: 305.1668701171875
z: -0.1754738986492157
visibility: 0.9984704852104187
","x: 272.0675354003906
y: 325.7294006347656
z: -0.013201707974076271
visibility: 0.9994565844535828
","x: 252.24952697753906
y: 327.39227294921875
z: -0.17426088452339172
visibility: 0.9996798634529114
","x: 268.5789794921875
y: 366.8398742675781
z: 0.06982234865427017
visibility: 0.8070845007896423
","x: 238.5276336669922
y: 364.0566711425781
z: -0.1785183846950531
visibility: 0.822274386882782
","x: 274.0032653808594
y: 383.0203857421875
z: 0.054960060864686966
visibility: 0.7934721112251282
","x: 224.2844696044922
y: 392.8531188964844
z: -0.19609534740447998
visibility: 0.8233941793441772
","x: 276.5943298339844
y: 389.1558532714844
z: 0.05657701566815376
visibility: 0.7400989532470703
","x: 218.41561889648438
y: 398.6458740234375
z: -0.2059117555618286
visibility: 0.8025954961776733
","x: 280.1543884277344
y: 389.4308166503906
z: 0.038003019988536835
visibility: 0.7447760105133057
","x: 218.5448455810547
y: 398.35015869140625
z: -0.221857950091362
visibility: 0.8025919198989868
","x: 276.5609130859375
y: 386.15380859375
z: 0.04627760872244835
visibility: 0.7133082151412964
","x: 220.70803833007812
y: 396.8952941894531
z: -0.201577827334404
visibility: 0.7833846807479858
","x: 264.7056579589844
y: 401.55804443359375
z: 0.04551578313112259
visibility: 0.9996559619903564
","x: 248.8699188232422
y: 407.3028564453125
z: -0.04550963267683983
visibility: 0.9995958209037781
","x: 277.36553955078125
y: 433.0311584472656
z: -0.10706961154937744
visibility: 0.9697825908660889
","x: 252.80496215820312
y: 455.06695556640625
z: -0.03203586861491203
visibility: 0.9125341773033142
","x: 273.8736572265625
y: 488.5938720703125
z: -0.043097443878650665
visibility: 0.9766566157341003
","x: 247.66116333007812
y: 509.38861083984375
z: 0.0868583619594574
visibility: 0.9440634250640869
","x: 270.1212463378906
y: 495.7801513671875
z: -0.03938042372465134
visibility: 0.9070379137992859
","x: 244.845947265625
y: 516.2025146484375
z: 0.09480969607830048
visibility: 0.8402884602546692
","x: 281.433349609375
y: 508.364501953125
z: -0.10900137573480606
visibility: 0.9744741320610046
","x: 254.49380493164062
y: 527.550048828125
z: -0.00128594518173486
visibility: 0.9432599544525146
",,,,,,,,,,,,,,,,,,,,,,,,,,,,,,,,,,,,,,,,,,
23,"x: 273.12554931640625
y: 304.2120666503906
z: -0.17590993642807007
visibility: 0.9990119338035583
","x: 272.7633056640625
y: 299.9974365234375
z: -0.16317033767700195
visibility: 0.9979602098464966
","x: 273.0964660644531
y: 300.2123107910156
z: -0.16317632794380188
visibility: 0.9980611205101013
","x: 273.4580078125
y: 300.32147216796875
z: -0.16318407654762268
visibility: 0.9978821873664856
","x: 270.85400390625
y: 299.2193298339844
z: -0.1814432144165039
visibility: 0.9977974891662598
","x: 269.7725830078125
y: 299.06640625
z: -0.18147841095924377
visibility: 0.9979248642921448
","x: 268.6552734375
y: 298.9532165527344
z: -0.18154864013195038
visibility: 0.9978979229927063
","x: 271.44903564453125
y: 302.3373107910156
z: -0.08863215148448944
visibility: 0.9958650469779968
","x: 264.8551940917969
y: 301.2169494628906
z: -0.1619924008846283
visibility: 0.9964635372161865
","x: 272.51727294921875
y: 309.6451416015625
z: -0.14602306485176086
visibility: 0.9984104633331299
","x: 270.1290283203125
y: 309.2076721191406
z: -0.16939109563827515
visibility: 0.9986024498939514
","x: 273.8487243652344
y: 333.4146423339844
z: -0.012516970746219158
visibility: 0.9994733333587646
","x: 251.4620361328125
y: 329.4287414550781
z: -0.1523750126361847
visibility: 0.9997050762176514
","x: 272.0258483886719
y: 372.65740966796875
z: 0.04283684864640236
visibility: 0.7764784693717957
","x: 238.12728881835938
y: 361.7968444824219
z: -0.1758844554424286
visibility: 0.8397208452224731
","x: 280.18084716796875
y: 402.4232482910156
z: -0.010970661416649818
visibility: 0.7804657816886902
","x: 236.3329315185547
y: 393.6451721191406
z: -0.216648668050766
visibility: 0.8392744064331055
","x: 283.71844482421875
y: 409.6824645996094
z: -0.02104760892689228
visibility: 0.7248244285583496
","x: 235.84828186035156
y: 404.103271484375
z: -0.23523418605327606
visibility: 0.8180292248725891
","x: 284.6778259277344
y: 409.8675231933594
z: -0.04484351724386215
visibility: 0.7320180535316467
","x: 238.47488403320312
y: 403.5703125
z: -0.24127276241779327
visibility: 0.8178317546844482
","x: 282.844482421875
y: 407.13385009765625
z: -0.022967590019106865
visibility: 0.7025081515312195
","x: 239.06314086914062
y: 400.9331970214844
z: -0.21895074844360352
visibility: 0.7980318069458008
","x: 264.7847595214844
y: 406.6343994140625
z: 0.04514312371611595
visibility: 0.9996418952941895
","x: 250.32308959960938
y: 408.2371520996094
z: -0.045112043619155884
visibility: 0.9996017217636108
","x: 275.6966552734375
y: 442.99212646484375
z: -0.010709409601986408
visibility: 0.9682720899581909
","x: 254.89837646484375
y: 458.5298156738281
z: -0.0728379562497139
visibility: 0.9204363822937012
","x: 267.8883361816406
y: 496.866943359375
z: 0.10483647882938385
visibility: 0.9755362868309021
","x: 246.286865234375
y: 512.378173828125
z: 0.019224122166633606
visibility: 0.948976993560791
","x: 263.6157531738281
y: 503.75927734375
z: 0.11320070177316666
visibility: 0.9080414175987244
","x: 240.9253387451172
y: 521.8316650390625
z: 0.02346755936741829
visibility: 0.8451261520385742
","x: 276.4735107421875
y: 515.7958374023438
z: 0.05399153381586075
visibility: 0.9746133685112
","x: 252.0010223388672
y: 528.0311889648438
z: -0.06938345730304718
visibility: 0.9478954672813416
",,,,,,,,,,,,,,,,,,,,,,,,,,,,,,,,,,,,,,,,,,
24,"x: 264.92926025390625
y: 299.8858947753906
z: -0.1739242821931839
visibility: 0.9991088509559631
","x: 267.0314636230469
y: 296.685791015625
z: -0.15756328403949738
visibility: 0.9981614351272583
","x: 268.1260986328125
y: 296.7611389160156
z: -0.15761706233024597
visibility: 0.998252272605896
","x: 269.1656188964844
y: 296.3987121582031
z: -0.15764345228672028
visibility: 0.9980910420417786
","x: 263.9034729003906
y: 294.9856262207031
z: -0.16265715658664703
visibility: 0.9980128407478333
","x: 262.8558349609375
y: 294.2272644042969
z: -0.16267485916614532
visibility: 0.9981270432472229
","x: 261.8905944824219
y: 293.6428527832031
z: -0.16270515322685242
visibility: 0.9981015920639038
","x: 271.1900329589844
y: 297.7816162109375
z: -0.06120320037007332
visibility: 0.9962721467018127
","x: 261.05072021484375
y: 296.4407043457031
z: -0.07752420008182526
visibility: 0.9968093037605286
","x: 266.938720703125
y: 309.28033447265625
z: -0.13876350224018097
visibility: 0.9985682964324951
","x: 263.1757507324219
y: 308.37823486328125
z: -0.14529858529567719
visibility: 0.9987412095069885
","x: 275.0592956542969
y: 327.83489990234375
z: 0.011245161294937134
visibility: 0.9995248317718506
","x: 250.96670532226562
y: 325.097900390625
z: -0.04356599226593971
visibility: 0.9997273087501526
","x: 278.12347412109375
y: 367.153564453125
z: -0.005218030419200659
visibility: 0.7959771752357483
","x: 238.1005096435547
y: 358.596923828125
z: -0.14610253274440765
visibility: 0.853807270526886
","x: 288.9172668457031
y: 374.1341552734375
z: -0.18470075726509094
visibility: 0.8016863465309143
","x: 240.757080078125
y: 340.8520812988281
z: -0.3143739402294159
visibility: 0.8538150787353516
","x: 292.3979797363281
y: 375.259033203125
z: -0.21658435463905334
visibility: 0.7510294318199158
","x: 242.80551147460938
y: 342.6193542480469
z: -0.35251328349113464
visibility: 0.8335107564926147
","x: 292.0177001953125
y: 366.23052978515625
z: -0.22907230257987976
visibility: 0.7575815916061401
","x: 244.76760864257812
y: 337.3774719238281
z: -0.3545020818710327
visibility: 0.8332237601280212
","x: 290.67572021484375
y: 365.37548828125
z: -0.1933826059103012
visibility: 0.7302553653717041
","x: 244.88973999023438
y: 339.12835693359375
z: -0.318991482257843
visibility: 0.8137719035148621
","x: 264.82769775390625
y: 401.84869384765625
z: 0.036345213651657104
visibility: 0.9996634125709534
","x: 250.30062866210938
y: 398.7750549316406
z: -0.036339353770017624
visibility: 0.9996291399002075
","x: 271.15728759765625
y: 447.40606689453125
z: -0.008117591962218285
visibility: 0.9654295444488525
","x: 253.39625549316406
y: 450.5262451171875
z: -0.1588103473186493
visibility: 0.9273374080657959
","x: 265.7137451171875
y: 499.9430847167969
z: 0.17181119322776794
visibility: 0.9712427854537964
","x: 246.59719848632812
y: 507.5540466308594
z: -0.04075850173830986
visibility: 0.952603816986084
","x: 262.04608154296875
y: 506.5692443847656
z: 0.18504765629768372
visibility: 0.8969307541847229
","x: 242.05015563964844
y: 512.978271484375
z: -0.03279747813940048
visibility: 0.8463039994239807
","x: 271.5030212402344
y: 517.8792114257812
z: 0.10992653667926788
visibility: 0.9694235920906067
","x: 252.38966369628906
y: 526.115234375
z: -0.13415440917015076
visibility: 0.9515213966369629
",,,,,,,,,,,,,,,,,,,,,,"x: 243.34707641601562
y: 348.88067626953125
z: 0.0
","x: 242.66934204101562
y: 342.2328186035156
z: 0.0027170046232640743
","x: 243.70144653320312
y: 336.862060546875
z: 0.002332441508769989
","x: 244.17417907714844
y: 332.9797668457031
z: 0.0008460879325866699
","x: 244.5985565185547
y: 330.3034973144531
z: -0.0002647737564984709
","x: 249.15887451171875
y: 337.33331298828125
z: 0.0019492004066705704
","x: 248.1917724609375
y: 330.42767333984375
z: -0.000452930573374033
","x: 246.35928344726562
y: 329.64202880859375
z: -0.0015570683171972632
","x: 244.97311401367188
y: 330.7606506347656
z: -0.0018957287538796663
","x: 249.06362915039062
y: 338.2061767578125
z: -0.0010331979719921947
","x: 247.7701416015625
y: 330.9264831542969
z: -0.003243768122047186
","x: 245.14697265625
y: 330.7967834472656
z: -0.003402646631002426
","x: 243.41256713867188
y: 332.3599548339844
z: -0.0031423349864780903
","x: 248.37152099609375
y: 338.39166259765625
z: -0.004164610989391804
","x: 246.85418701171875
y: 330.9472351074219
z: -0.0056178937666118145
","x: 244.37625122070312
y: 331.4107666015625
z: -0.0040481071919202805
","x: 243.0994873046875
y: 333.357177734375
z: -0.0027849755715578794
","x: 247.0996856689453
y: 338.07000732421875
z: -0.007301974110305309
","x: 245.9461212158203
y: 330.463134765625
z: -0.007868069224059582
","x: 244.3441162109375
y: 330.1636047363281
z: -0.006419973447918892
","x: 243.57896423339844
y: 331.5594787597656
z: -0.0051733762957155704
"
25,"x: 264.92926025390625
y: 299.8858947753906
z: -0.1739242821931839
visibility: 0.9991088509559631
","x: 267.0314636230469
y: 296.685791015625
z: -0.15756328403949738
visibility: 0.9981614351272583
","x: 268.1260986328125
y: 296.7611389160156
z: -0.15761706233024597
visibility: 0.998252272605896
","x: 269.1656188964844
y: 296.3987121582031
z: -0.15764345228672028
visibility: 0.9980910420417786
","x: 263.9034729003906
y: 294.9856262207031
z: -0.16265715658664703
visibility: 0.9980128407478333
","x: 262.8558349609375
y: 294.2272644042969
z: -0.16267485916614532
visibility: 0.9981270432472229
","x: 261.8905944824219
y: 293.6428527832031
z: -0.16270515322685242
visibility: 0.9981015920639038
","x: 271.1900329589844
y: 297.7816162109375
z: -0.06120320037007332
visibility: 0.9962721467018127
","x: 261.05072021484375
y: 296.4407043457031
z: -0.07752420008182526
visibility: 0.9968093037605286
","x: 266.938720703125
y: 309.28033447265625
z: -0.13876350224018097
visibility: 0.9985682964324951
","x: 263.1757507324219
y: 308.37823486328125
z: -0.14529858529567719
visibility: 0.9987412095069885
","x: 275.0592956542969
y: 327.83489990234375
z: 0.011245161294937134
visibility: 0.9995248317718506
","x: 250.96670532226562
y: 325.097900390625
z: -0.04356599226593971
visibility: 0.9997273087501526
","x: 278.12347412109375
y: 367.153564453125
z: -0.005218030419200659
visibility: 0.7959771752357483
","x: 238.1005096435547
y: 358.596923828125
z: -0.14610253274440765
visibility: 0.853807270526886
","x: 288.9172668457031
y: 374.1341552734375
z: -0.18470075726509094
visibility: 0.8016863465309143
","x: 240.757080078125
y: 340.8520812988281
z: -0.3143739402294159
visibility: 0.8538150787353516
","x: 292.3979797363281
y: 375.259033203125
z: -0.21658435463905334
visibility: 0.7510294318199158
","x: 242.80551147460938
y: 342.6193542480469
z: -0.35251328349113464
visibility: 0.8335107564926147
","x: 292.0177001953125
y: 366.23052978515625
z: -0.22907230257987976
visibility: 0.7575815916061401
","x: 244.76760864257812
y: 337.3774719238281
z: -0.3545020818710327
visibility: 0.8332237601280212
","x: 290.67572021484375
y: 365.37548828125
z: -0.1933826059103012
visibility: 0.7302553653717041
","x: 244.88973999023438
y: 339.12835693359375
z: -0.318991482257843
visibility: 0.8137719035148621
","x: 264.82769775390625
y: 401.84869384765625
z: 0.036345213651657104
visibility: 0.9996634125709534
","x: 250.30062866210938
y: 398.7750549316406
z: -0.036339353770017624
visibility: 0.9996291399002075
","x: 271.15728759765625
y: 447.40606689453125
z: -0.008117591962218285
visibility: 0.9654295444488525
","x: 253.39625549316406
y: 450.5262451171875
z: -0.1588103473186493
visibility: 0.9273374080657959
","x: 265.7137451171875
y: 499.9430847167969
z: 0.17181119322776794
visibility: 0.9712427854537964
","x: 246.59719848632812
y: 507.5540466308594
z: -0.04075850173830986
visibility: 0.952603816986084
","x: 262.04608154296875
y: 506.5692443847656
z: 0.18504765629768372
visibility: 0.8969307541847229
","x: 242.05015563964844
y: 512.978271484375
z: -0.03279747813940048
visibility: 0.8463039994239807
","x: 271.5030212402344
y: 517.8792114257812
z: 0.10992653667926788
visibility: 0.9694235920906067
","x: 252.38966369628906
y: 526.115234375
z: -0.13415440917015076
visibility: 0.9515213966369629
",,,,,,,,,,,,,,,,,,,,,,"x: 243.34707641601562
y: 348.88067626953125
z: 0.0
","x: 242.66934204101562
y: 342.2328186035156
z: 0.0027170046232640743
","x: 243.70144653320312
y: 336.862060546875
z: 0.002332441508769989
","x: 244.17417907714844
y: 332.9797668457031
z: 0.0008460879325866699
","x: 244.5985565185547
y: 330.3034973144531
z: -0.0002647737564984709
","x: 249.15887451171875
y: 337.33331298828125
z: 0.0019492004066705704
","x: 248.1917724609375
y: 330.42767333984375
z: -0.000452930573374033
","x: 246.35928344726562
y: 329.64202880859375
z: -0.0015570683171972632
","x: 244.97311401367188
y: 330.7606506347656
z: -0.0018957287538796663
","x: 249.06362915039062
y: 338.2061767578125
z: -0.0010331979719921947
","x: 247.7701416015625
y: 330.9264831542969
z: -0.003243768122047186
","x: 245.14697265625
y: 330.7967834472656
z: -0.003402646631002426
","x: 243.41256713867188
y: 332.3599548339844
z: -0.0031423349864780903
","x: 248.37152099609375
y: 338.39166259765625
z: -0.004164610989391804
","x: 246.85418701171875
y: 330.9472351074219
z: -0.0056178937666118145
","x: 244.37625122070312
y: 331.4107666015625
z: -0.0040481071919202805
","x: 243.0994873046875
y: 333.357177734375
z: -0.0027849755715578794
","x: 247.0996856689453
y: 338.07000732421875
z: -0.007301974110305309
","x: 245.9461212158203
y: 330.463134765625
z: -0.007868069224059582
","x: 244.3441162109375
y: 330.1636047363281
z: -0.006419973447918892
","x: 243.57896423339844
y: 331.5594787597656
z: -0.0051733762957155704
"
26,"x: 253.18699645996094
y: 274.51300048828125
z: -0.16225287318229675
visibility: 0.9991761445999146
","x: 255.9875946044922
y: 268.94183349609375
z: -0.157325878739357
visibility: 0.9982887506484985
","x: 256.9442443847656
y: 268.91693115234375
z: -0.1573575735092163
visibility: 0.9983708262443542
","x: 257.9762268066406
y: 268.89520263671875
z: -0.1573660671710968
visibility: 0.9982011914253235
","x: 254.15509033203125
y: 269.0485534667969
z: -0.15020433068275452
visibility: 0.998149037361145
","x: 253.79196166992188
y: 269.1372375488281
z: -0.15022780001163483
visibility: 0.9982564449310303
","x: 253.4566192626953
y: 269.2314453125
z: -0.15027090907096863
visibility: 0.99822998046875
","x: 263.1230773925781
y: 272.1809997558594
z: -0.10234105587005615
visibility: 0.9965218901634216
","x: 256.82611083984375
y: 272.0832214355469
z: -0.06818749010562897
visibility: 0.9970418810844421
","x: 255.3159942626953
y: 280.08984375
z: -0.1394272744655609
visibility: 0.9986857175827026
","x: 253.0176544189453
y: 280.11920166015625
z: -0.13022994995117188
visibility: 0.9988417625427246
","x: 274.46771240234375
y: 305.43017578125
z: -0.049700990319252014
visibility: 0.9995233416557312
","x: 247.4818878173828
y: 301.3528137207031
z: -0.014726242050528526
visibility: 0.9997458457946777
","x: 280.1451416015625
y: 344.2142333984375
z: -0.12807656824588776
visibility: 0.8118600845336914
","x: 237.04151916503906
y: 333.2701416015625
z: -0.07128007709980011
visibility: 0.8669018149375916
","x: 284.7630615234375
y: 324.90869140625
z: -0.27843034267425537
visibility: 0.8152497410774231
","x: 231.0128631591797
y: 312.0538024902344
z: -0.30031687021255493
visibility: 0.868037760257721
","x: 287.0271301269531
y: 320.16912841796875
z: -0.30577412247657776
visibility: 0.763461709022522
","x: 228.40310668945312
y: 306.58087158203125
z: -0.33623412251472473
visibility: 0.8491420745849609
","x: 286.4114990234375
y: 315.34466552734375
z: -0.306255042552948
visibility: 0.769340455532074
","x: 229.4908447265625
y: 300.42926025390625
z: -0.31372374296188354
visibility: 0.8488816022872925
","x: 285.0509948730469
y: 316.8523864746094
z: -0.2815726399421692
visibility: 0.740576446056366
","x: 230.7351837158203
y: 302.30047607421875
z: -0.2981935143470764
visibility: 0.8308694362640381
","x: 264.4162292480469
y: 380.4112243652344
z: -0.0042197080329060555
visibility: 0.9996167421340942
","x: 248.74087524414062
y: 377.01849365234375
z: 0.004149121232330799
visibility: 0.9996135830879211
","x: 264.50946044921875
y: 438.8915710449219
z: -0.018536077812314034
visibility: 0.9663673043251038
","x: 248.29043579101562
y: 433.5397644042969
z: -0.01026691310107708
visibility: 0.9326553344726562
","x: 265.2345275878906
y: 499.173095703125
z: 0.062340475618839264
visibility: 0.9727547764778137
","x: 245.80389404296875
y: 489.0899963378906
z: 0.09977386146783829
visibility: 0.9559244513511658
","x: 262.2536926269531
y: 504.307861328125
z: 0.06528889387845993
visibility: 0.8963263034820557
","x: 244.39132690429688
y: 496.1073303222656
z: 0.10602040588855743
visibility: 0.8498430252075195
","x: 268.9366760253906
y: 517.6216430664062
z: -0.028965502977371216
visibility: 0.9705489277839661
","x: 242.9967498779297
y: 507.6343994140625
z: 0.018884379416704178
visibility: 0.9548172354698181
",,,,,,,,,,,,,,,,,,,,,,,,,,,,,,,,,,,,,,,,,,
27,"x: 248.5313720703125
y: 269.5868225097656
z: -0.15933436155319214
visibility: 0.999139130115509
","x: 251.121337890625
y: 265.337158203125
z: -0.159018412232399
visibility: 0.9983795285224915
","x: 251.78878784179688
y: 265.6469421386719
z: -0.15908214449882507
visibility: 0.9984884262084961
","x: 252.48570251464844
y: 266.03021240234375
z: -0.15914113819599152
visibility: 0.9983164668083191
","x: 250.41058349609375
y: 264.8282165527344
z: -0.14551907777786255
visibility: 0.9981760382652283
","x: 250.49298095703125
y: 264.77398681640625
z: -0.1455371081829071
visibility: 0.9983097314834595
","x: 250.5905303955078
y: 264.7580261230469
z: -0.1455664336681366
visibility: 0.9982844591140747
","x: 256.39141845703125
y: 270.17913818359375
z: -0.14360933005809784
visibility: 0.9968303442001343
","x: 253.76211547851562
y: 268.5541076660156
z: -0.06319795548915863
visibility: 0.9972890019416809
","x: 249.75546264648438
y: 275.1132507324219
z: -0.14666549861431122
visibility: 0.9987861514091492
","x: 248.80099487304688
y: 274.5474548339844
z: -0.12727200984954834
visibility: 0.9988821744918823
","x: 264.44659423828125
y: 303.2181701660156
z: -0.14787817001342773
visibility: 0.9995642900466919
","x: 247.40968322753906
y: 298.33013916015625
z: 0.03390272334218025
visibility: 0.99965900182724
","x: 274.8367919921875
y: 338.1546630859375
z: -0.27567988634109497
visibility: 0.8296204805374146
","x: 241.68980407714844
y: 315.0851745605469
z: 0.16129469871520996
visibility: 0.8102592825889587
","x: 272.3810119628906
y: 327.3979187011719
z: -0.41812223196029663
visibility: 0.8299247622489929
","x: 232.56301879882812
y: 301.6525573730469
z: 0.22841456532478333
visibility: 0.8488775491714478
","x: 271.88250732421875
y: 323.01043701171875
z: -0.4492119252681732
visibility: 0.7795726656913757
","x: 230.49490356445312
y: 296.95758056640625
z: 0.24083387851715088
visibility: 0.8303033709526062
","x: 271.5175476074219
y: 317.84490966796875
z: -0.4480905532836914
visibility: 0.7846298217773438
","x: 231.7650604248047
y: 294.25360107421875
z: 0.23183362185955048
visibility: 0.831229567527771
","x: 270.8864440917969
y: 320.1595764160156
z: -0.4210588037967682
visibility: 0.752604067325592
","x: 232.85400390625
y: 296.6702575683594
z: 0.22591324150562286
visibility: 0.812171459197998
","x: 259.6943664550781
y: 381.4270324707031
z: -0.06183023005723953
visibility: 0.9995701909065247
","x: 247.84481811523438
y: 378.2977294921875
z: 0.061935752630233765
visibility: 0.9995200037956238
","x: 256.5356750488281
y: 436.13409423828125
z: -0.1031215637922287
visibility: 0.9676434397697449
","x: 242.27825927734375
y: 430.4068298339844
z: -0.0015134040731936693
visibility: 0.931084156036377
","x: 260.62127685546875
y: 496.29473876953125
z: -0.04382691904902458
visibility: 0.9748124480247498
","x: 250.62509155273438
y: 484.0014953613281
z: 0.09972335398197174
visibility: 0.9550802707672119
","x: 262.79302978515625
y: 503.63232421875
z: -0.04167050123214722
visibility: 0.9028738737106323
","x: 254.72528076171875
y: 489.6220397949219
z: 0.10514424741268158
visibility: 0.8564112782478333
","x: 251.15570068359375
y: 511.90753173828125
z: -0.1208239197731018
visibility: 0.9725666642189026
","x: 244.04562377929688
