uscmakers/ReverseChoreography/data/7_knife_talk_drake.csv
,NOSE,LEFT_EYE_INNER,LEFT_EYE,LEFT_EYE_OUTER,RIGHT_EYE_INNER,RIGHT_EYE,RIGHT_EYE_OUTER,LEFT_EAR,RIGHT_EAR,MOUTH_LEFT,MOUTH_RIGHT,LEFT_SHOULDER,RIGHT_SHOULDER,LEFT_ELBOW,RIGHT_ELBOW,LEFT_WRIST,RIGHT_WRIST,LEFT_PINKY,RIGHT_PINKY,LEFT_INDEX,RIGHT_INDEX,LEFT_THUMB,RIGHT_THUMB,LEFT_HIP,RIGHT_HIP,LEFT_KNEE,RIGHT_KNEE,LEFT_ANKLE,RIGHT_ANKLE,LEFT_HEEL,RIGHT_HEEL,LEFT_FOOT_INDEX,RIGHT_FOOT_INDEX,WRIST2,THUMB_CPC2,THUMB_MCP2,THUMB_IP2,THUMB_TIP2,INDEX_FINGER_MCP2,INDEX_FINGER_PIP2,INDEX_FINGER_DIP2,INDEX_FINGER_TIP2,MIDDLE_FINGER_MCP2,MIDDLE_FINGER_PIP2,MIDDLE_FINGER_DIP2,MIDDLE_FINGER_TIP2,RING_FINGER_PIP2,RING_FINGER_DIP2,RING_FINGER_TIP2,RING_FINGER_MCP2,PINKY_MCP2,PINKY_PIP2,PINKY_DIP2,PINKY_TIP2,WRIST,THUMB_CPC,THUMB_MCP,THUMB_IP,THUMB_TIP,INDEX_FINGER_MCP,INDEX_FINGER_PIP,INDEX_FINGER_DIP,INDEX_FINGER_TIP,MIDDLE_FINGER_MCP,MIDDLE_FINGER_PIP,MIDDLE_FINGER_DIP,MIDDLE_FINGER_TIP,RING_FINGER_PIP,RING_FINGER_DIP,RING_FINGER_TIP,RING_FINGER_MCP,PINKY_MCP,PINKY_PIP,PINKY_DIP,PINKY_TIP
0,"x: 254.26248168945312
y: 290.67803955078125
z: 0.031258389353752136
visibility: 0.9993950128555298
","x: 256.2373046875
y: 283.93701171875
z: 0.016543101519346237
visibility: 0.9995793700218201
","x: 256.8775329589844
y: 283.6048278808594
z: 0.016514450311660767
visibility: 0.9995301961898804
","x: 257.6012268066406
y: 283.2900695800781
z: 0.016533857211470604
visibility: 0.9996846914291382
","x: 255.57115173339844
y: 284.1598815917969
z: 0.04280010238289833
visibility: 0.9991962313652039
","x: 255.67543029785156
y: 284.008056640625
z: 0.0427878312766552
visibility: 0.9986997842788696
","x: 255.822021484375
y: 283.8583984375
z: 0.042796261608600616
visibility: 0.9989795088768005
","x: 262.5212097167969
y: 284.84991455078125
z: -0.02084900625050068
visibility: 0.9994184970855713
","x: 260.0518493652344
y: 284.94281005859375
z: 0.09813300520181656
visibility: 0.9965859651565552
","x: 255.76266479492188
y: 295.1072998046875
z: 0.019685305655002594
visibility: 0.9980704188346863
","x: 254.72317504882812
y: 295.85760498046875
z: 0.053616058081388474
visibility: 0.9962527751922607
","x: 267.46893310546875
y: 304.58270263671875
z: -0.10706515610218048
visibility: 0.9999631643295288
","x: 262.39678955078125
y: 310.2651672363281
z: 0.17738878726959229
visibility: 0.9985927939414978
","x: 247.84686279296875
y: 323.4315490722656
z: -0.1279142200946808
visibility: 0.9925137162208557
","x: 252.81002807617188
y: 340.0793762207031
z: 0.23791924118995667
visibility: 0.07770448178052902
","x: 231.57577514648438
y: 326.45233154296875
z: -0.017802070826292038
visibility: 0.975906491279602
","x: 237.70492553710938
y: 343.3097839355469
z: 0.21622459590435028
visibility: 0.2739100456237793
","x: 226.77304077148438
y: 330.1019592285156
z: -0.025146756321191788
visibility: 0.9532909989356995
","x: 233.73463439941406
y: 344.2049865722656
z: 0.22214552760124207
visibility: 0.30428531765937805
","x: 226.9903564453125
y: 326.77642822265625
z: -0.017575325444340706
visibility: 0.950625479221344
","x: 234.81594848632812
y: 341.9632568359375
z: 0.20615187287330627
visibility: 0.307904452085495
","x: 228.23715209960938
y: 325.9658203125
z: -0.009774575009942055
visibility: 0.926563024520874
","x: 236.31573486328125
y: 342.1943359375
z: 0.20782355964183807
visibility: 0.31786325573921204
","x: 269.0682067871094
y: 393.6539001464844
z: -0.08863544464111328
visibility: 0.9999772310256958
","x: 257.8572998046875
y: 392.4984436035156
z: 0.08853118866682053
visibility: 0.9999350309371948
","x: 267.7272033691406
y: 454.718505859375
z: -0.13537150621414185
visibility: 0.9939424395561218
","x: 245.546142578125
y: 436.87200927734375
z: 0.11755512654781342
visibility: 0.8512697815895081
","x: 291.8337707519531
y: 508.72930908203125
z: -0.15003898739814758
visibility: 0.9970946311950684
","x: 249.40887451171875
y: 495.6600341796875
z: 0.18418173491954803
visibility: 0.9433872699737549
","x: 300.1038818359375
y: 513.7275390625
z: -0.15060050785541534
visibility: 0.9843325614929199
","x: 253.9927215576172
y: 506.0927734375
z: 0.19001401960849762
visibility: 0.8916473984718323
","x: 284.8460693359375
y: 528.8158569335938
z: -0.21005554497241974
visibility: 0.997342050075531
","x: 237.65701293945312
y: 514.7537841796875
z: 0.1632377952337265
visibility: 0.9629114270210266
",,,,,,,,,,,,,,,,,,,,,,,,,,,,,,,,,,,,,,,,,,
1,"x: 249.48692321777344
y: 290.73443603515625
z: -0.13991610705852509
visibility: 0.999366283416748
","x: 250.96795654296875
y: 284.7684326171875
z: -0.13268569111824036
visibility: 0.999500572681427
","x: 252.05706787109375
y: 284.5709533691406
z: -0.13270676136016846
visibility: 0.999457597732544
","x: 253.2208709716797
y: 284.4125061035156
z: -0.1327190101146698
visibility: 0.9996002316474915
","x: 248.490234375
y: 285.373291015625
z: -0.12118693441152573
visibility: 0.9990997314453125
","x: 247.7629852294922
y: 285.6195068359375
z: -0.12120582908391953
visibility: 0.9986096024513245
","x: 247.03334045410156
y: 285.8777160644531
z: -0.12120041996240616
visibility: 0.9988534450531006
","x: 257.162841796875
y: 287.39019775390625
z: -0.07328025996685028
visibility: 0.999324381351471
","x: 248.0762939453125
y: 288.08984375
z: -0.018696065992116928
visibility: 0.996382474899292
","x: 252.2274627685547
y: 295.1746826171875
z: -0.11746664345264435
visibility: 0.9981838464736938
","x: 249.0426025390625
y: 295.96331787109375
z: -0.10209055244922638
visibility: 0.9964668154716492
","x: 267.9435119628906
y: 313.1002197265625
z: -0.07710398733615875
visibility: 0.9999297261238098
","x: 241.5718994140625
y: 316.74212646484375
z: 0.04595641791820526
visibility: 0.9986578226089478
","x: 279.2068176269531
y: 333.3794860839844
z: -0.2239484339952469
visibility: 0.9913956522941589
","x: 230.28378295898438
y: 331.36175537109375
z: -0.009667934849858284
visibility: 0.15859617292881012
","x: 271.0716552734375
y: 324.7516174316406
z: -0.39173731207847595
visibility: 0.9725261330604553
","x: 226.2814178466797
y: 321.9245910644531
z: -0.16995690762996674
visibility: 0.3416230082511902
","x: 267.2902526855469
y: 321.25994873046875
z: -0.4295375943183899
visibility: 0.9482256770133972
","x: 222.9664764404297
y: 320.8643798828125
z: -0.19715769588947296
visibility: 0.36570900678634644
","x: 264.21966552734375
y: 320.43402099609375
z: -0.42215457558631897
visibility: 0.945410966873169
","x: 223.55250549316406
y: 317.54742431640625
z: -0.20333850383758545
visibility: 0.36909857392311096
","x: 264.9836730957031
y: 320.2967834472656
z: -0.39271482825279236
visibility: 0.9189348816871643
","x: 225.85934448242188
y: 319.9276428222656
z: -0.17794418334960938
visibility: 0.3768068552017212
","x: 261.65216064453125
y: 404.2858581542969
z: -0.04504869133234024
visibility: 0.9999687075614929
","x: 244.62423706054688
y: 405.82635498046875
z: 0.0449955090880394
visibility: 0.9999163746833801
","x: 267.8853759765625
y: 459.466796875
z: -0.08641465753316879
visibility: 0.9941516518592834
","x: 231.86660766601562
y: 459.4765625
z: 0.08722830563783646
visibility: 0.8648644089698792
","x: 289.8677673339844
y: 515.2929077148438
z: -0.0009074624394997954
visibility: 0.9971010088920593
","x: 221.240478515625
y: 507.5067443847656
z: 0.23084251582622528
visibility: 0.9482203125953674
","x: 294.505859375
y: 520.5933227539062
z: 0.0024758975487202406
visibility: 0.9768121838569641
","x: 223.76919555664062
y: 515.102783203125
z: 0.2409786432981491
visibility: 0.8973022103309631
","x: 288.24652099609375
y: 537.7279052734375
z: -0.10499938577413559
visibility: 0.9969154000282288
","x: 212.93125915527344
y: 522.6085205078125
z: 0.16354921460151672
visibility: 0.9651379585266113
",,,,,,,,,,,,,,,,,,,,,,,,,,,,,,,,,,,,,,,,,,
2,"x: 254.06495666503906
y: 271.7508544921875
z: -0.2904776930809021
visibility: 0.9994246959686279
","x: 255.66827392578125
y: 265.5908203125
z: -0.27578991651535034
visibility: 0.9995273947715759
","x: 257.0858154296875
y: 265.5423278808594
z: -0.2757602334022522
visibility: 0.9994912147521973
","x: 258.398193359375
y: 265.54583740234375
z: -0.2757578194141388
visibility: 0.9996089339256287
","x: 250.7239990234375
y: 265.37152099609375
z: -0.2777816355228424
visibility: 0.9991684556007385
","x: 247.93161010742188
y: 265.16546630859375
z: -0.2778243124485016
visibility: 0.9987343549728394
","x: 249.13699340820312
y: 265.0039978027344
z: -0.2778112590312958
visibility: 0.9989550709724426
","x: 259.4822998046875
y: 266.7806396484375
z: -0.173679381608963
visibility: 0.9993400573730469
","x: 250.2459259033203
y: 266.14117431640625
z: -0.1834186315536499
visibility: 0.9967265725135803
","x: 256.51068115234375
y: 276.26171875
z: -0.2512478232383728
visibility: 0.9983569383621216
","x: 251.3380584716797
y: 276.6588134765625
z: -0.2540850043296814
visibility: 0.9968113899230957
","x: 270.4369812011719
y: 297.0871276855469
z: -0.08511611074209213
visibility: 0.9999309778213501
","x: 239.76315307617188
y: 295.7507629394531
z: -0.09508918225765228
visibility: 0.9987839460372925
","x: 280.72625732421875
y: 327.6419677734375
z: -0.0020062983967363834
visibility: 0.9896652102470398
","x: 226.69679260253906
y: 321.49102783203125
z: -0.018358450382947922
visibility: 0.24209508299827576
","x: 280.4599914550781
y: 357.42779541015625
z: -0.05608342960476875
visibility: 0.9579895734786987
","x: 226.68502807617188
y: 345.9080505371094
z: -0.04062705487012863
visibility: 0.4050544798374176
","x: 280.1527099609375
y: 366.43975830078125
z: -0.06757144629955292
visibility: 0.9148287177085876
","x: 226.0418701171875
y: 355.4963684082031
z: -0.05188564583659172
visibility: 0.42208704352378845
","x: 277.976318359375
y: 365.52056884765625
z: -0.10913852602243423
visibility: 0.915059506893158
","x: 226.79598999023438
y: 354.2689514160156
z: -0.06881919503211975
visibility: 0.42528289556503296
","x: 276.96063232421875
y: 362.5561828613281
z: -0.0735306665301323
visibility: 0.888807475566864
","x: 228.8756561279297
y: 351.3714599609375
z: -0.04654911532998085
visibility: 0.4306819438934326
","x: 263.4729309082031
y: 382.992431640625
z: -0.006703907158225775
visibility: 0.9999366998672485
","x: 246.6720733642578
y: 382.4678039550781
z: 0.0065999687649309635
visibility: 0.9998836517333984
","x: 265.7872314453125
y: 438.51763916015625
z: -0.05166368559002876
visibility: 0.9942883253097534
","x: 236.72564697265625
y: 442.78363037109375
z: 0.004963565617799759
visibility: 0.877410352230072
","x: 273.5033874511719
y: 496.68865966796875
z: 0.11673952639102936
visibility: 0.9968474507331848
","x: 225.93409729003906
y: 488.9183044433594
z: 0.2119482308626175
visibility: 0.9524369239807129
","x: 273.71246337890625
y: 502.0716552734375
z: 0.12789244949817657
visibility: 0.9685364365577698
","x: 236.07699584960938
y: 492.5273132324219
z: 0.2222272902727127
visibility: 0.8969281315803528
","x: 275.9336242675781
y: 522.1126708984375
z: 0.019523562863469124
visibility: 0.9964443445205688
","x: 236.35130310058594
y: 512.3163452148438
z: 0.12589813768863678
visibility: 0.9674819707870483
",,,,,,,,,,,,,,,,,,,,,,,,,,,,,,,,,,,,,,,,,,
3,"x: 255.82823181152344
y: 275.4573669433594
z: -0.24177531898021698
visibility: 0.9994758367538452
","x: 257.9542236328125
y: 269.2797546386719
z: -0.22699841856956482
visibility: 0.9995511770248413
","x: 259.3427429199219
y: 269.33489990234375
z: -0.22701530158519745
visibility: 0.9995174407958984
","x: 260.63214111328125
y: 269.4163818359375
z: -0.22701816260814667
visibility: 0.9996236562728882
","x: 253.13186645507812
y: 268.95098876953125
z: -0.23020365834236145
visibility: 0.9992293119430542
","x: 250.1469268798828
y: 268.7938537597656
z: -0.23023231327533722
visibility: 0.9988396167755127
","x: 249.53665161132812
y: 268.6902160644531
z: -0.23027284443378448
visibility: 0.9990360736846924
","x: 261.3990173339844
y: 271.9006042480469
z: -0.13761946558952332
visibility: 0.9993123412132263
","x: 251.60231018066406
y: 271.2508544921875
z: -0.15321917831897736
visibility: 0.9969936013221741
","x: 258.4234619140625
y: 280.89117431640625
z: -0.20805469155311584
visibility: 0.9985110759735107
","x: 252.4029083251953
y: 280.83880615234375
z: -0.2127658873796463
visibility: 0.9971206188201904
","x: 273.440185546875
y: 308.54083251953125
z: -0.06984716653823853
visibility: 0.9999198317527771
","x: 241.2234649658203
y: 307.79486083984375
z: -0.1056414246559143
visibility: 0.9988942742347717
","x: 278.352294921875
y: 355.6305236816406
z: -0.02052542194724083
visibility: 0.9856414198875427
","x: 232.69757080078125
y: 356.093505859375
z: -0.07823316752910614
visibility: 0.3125292956829071
","x: 280.5997314453125
y: 393.6227722167969
z: -0.060615379363298416
visibility: 0.9514959454536438
","x: 239.37808227539062
y: 391.66619873046875
z: -0.13800403475761414
visibility: 0.45019447803497314
","x: 282.0654296875
y: 405.3593444824219
z: -0.09037952125072479
visibility: 0.9046846628189087
","x: 238.58079528808594
y: 403.6495666503906
z: -0.1611960232257843
visibility: 0.4590052664279938
","x: 281.0080261230469
y: 406.3227844238281
z: -0.12486759573221207
visibility: 0.9062573909759521
","x: 239.55172729492188
y: 404.5873718261719
z: -0.18448276817798615
visibility: 0.4625472128391266
","x: 279.5622863769531
y: 402.5491027832031
z: -0.09006769210100174
visibility: 0.8799658417701721
","x: 240.65260314941406
y: 400.38336181640625
z: -0.1483016163110733
visibility: 0.46386000514030457
","x: 265.9325256347656
y: 386.86663818359375
z: 0.018907640129327774
visibility: 0.999862790107727
","x: 248.55194091796875
y: 387.21197509765625
z: -0.01896505057811737
visibility: 0.9998310804367065
","x: 266.9217224121094
y: 444.23773193359375
z: 0.032336849719285965
visibility: 0.9894691109657288
","x: 251.97705078125
y: 453.99560546875
z: -0.03138529136776924
visibility: 0.8869794011116028
","x: 262.2384948730469
y: 500.8772277832031
z: 0.19126847386360168
visibility: 0.9923787713050842
","x: 248.4542999267578
y: 505.870361328125
z: 0.1142704039812088
visibility: 0.9546232223510742
","x: 259.3369140625
y: 507.783935546875
z: 0.2021399289369583
visibility: 0.9574852585792542
","x: 244.99554443359375
y: 512.8527221679688
z: 0.1228925958275795
visibility: 0.8828787207603455
","x: 266.5989074707031
y: 522.900146484375
z: 0.11779943853616714
visibility: 0.992769181728363
","x: 253.97686767578125
y: 526.0960083007812
z: 0.020071620121598244
visibility: 0.9677164554595947
",,,,,,,,,,,,,,,,,,,,,,,,,,,,,,,,,,,,,,,,,,
4,"x: 264.395263671875
y: 285.1142578125
z: -0.1454702913761139
visibility: 0.9995267987251282
","x: 264.74072265625
y: 279.6300964355469
z: -0.13557419180870056
visibility: 0.9995920658111572
","x: 265.7065124511719
y: 279.5477600097656
z: -0.13559219241142273
visibility: 0.999561607837677
","x: 266.66021728515625
y: 279.5905456542969
z: -0.13558945059776306
visibility: 0.9996572136878967
","x: 261.2223815917969
y: 280.82891845703125
z: -0.13478772342205048
visibility: 0.9993025660514832
","x: 259.5164794921875
y: 281.586181640625
z: -0.13480457663536072
visibility: 0.9989514350891113
","x: 258.16143798828125
y: 282.4651794433594
z: -0.13482321798801422
visibility: 0.9991270303726196
","x: 266.5591735839844
y: 284.227783203125
z: -0.0356903113424778
visibility: 0.999373197555542
","x: 256.0521240234375
y: 286.8568115234375
z: -0.07071603834629059
visibility: 0.9972856044769287
","x: 266.2960510253906
y: 291.5539855957031
z: -0.12311603128910065
visibility: 0.9986572265625
","x: 262.2064208984375
y: 292.66253662109375
z: -0.1216021403670311
visibility: 0.9974063634872437
","x: 276.3061218261719
y: 321.9803466796875
z: 0.03217080608010292
visibility: 0.9999232292175293
","x: 244.8043975830078
y: 324.709228515625
z: -0.0615558922290802
visibility: 0.998994767665863
","x: 285.69610595703125
y: 357.545654296875
z: 0.013070193119347095
visibility: 0.9732834696769714
","x: 235.0952606201172
y: 361.1773376464844
z: -0.12130790948867798
visibility: 0.38044387102127075
","x: 298.1243591308594
y: 371.9857177734375
z: -0.1378593146800995
visibility: 0.9526547193527222
","x: 245.90151977539062
y: 391.2326354980469
z: -0.2304646074771881
visibility: 0.5021467804908752
","x: 301.28466796875
y: 375.00494384765625
z: -0.1710917055606842
visibility: 0.9094893932342529
","x: 245.31918334960938
y: 400.44793701171875
z: -0.2582610845565796
visibility: 0.5073176622390747
","x: 301.0647888183594
y: 372.3678283691406
z: -0.19185692071914673
visibility: 0.9117624759674072
","x: 247.26437377929688
y: 398.8340759277344
z: -0.26816603541374207
visibility: 0.510576069355011
","x: 299.75689697265625
y: 371.2507629394531
z: -0.15256789326667786
visibility: 0.8866838216781616
","x: 247.86378479003906
y: 395.71307373046875
z: -0.23621639609336853
visibility: 0.5089296102523804
","x: 274.3271484375
y: 401.86865234375
z: 0.03951786831021309
visibility: 0.9998700022697449
","x: 259.1661071777344
y: 406.29071044921875
z: -0.0394299142062664
visibility: 0.9998252987861633
","x: 290.1009216308594
y: 433.876953125
z: -0.16380365192890167
visibility: 0.989676833152771
","x: 260.7120361328125
y: 460.2757568359375
z: -0.03900052607059479
visibility: 0.8970420956611633
","x: 271.3321533203125
y: 483.87841796875
z: -0.035143863409757614
visibility: 0.990915834903717
","x: 250.60549926757812
y: 505.8780212402344
z: 0.11092523485422134
visibility: 0.95747309923172
","x: 266.9878845214844
y: 487.83868408203125
z: -0.023196808993816376
visibility: 0.9574886560440063
","x: 245.5123291015625
y: 513.3278198242188
z: 0.12088599056005478
visibility: 0.8791149258613586
","x: 269.3514404296875
y: 510.4085693359375
z: -0.09672849625349045
visibility: 0.9920084476470947
","x: 254.401123046875
y: 526.450439453125
z: 0.03996172174811363
visibility: 0.9682643413543701
",,,,,,,,,,,,,,,,,,,,,,,,,,,,,,,,,,,,,,,,,,
5,"x: 273.4853515625
y: 292.550537109375
z: -0.17706820368766785
visibility: 0.9995741248130798
","x: 272.7306823730469
y: 287.1856994628906
z: -0.15766921639442444
visibility: 0.9996328353881836
","x: 273.55389404296875
y: 287.20782470703125
z: -0.15765146911144257
visibility: 0.9996053576469421
","x: 274.3595275878906
y: 287.30853271484375
z: -0.1576600968837738
visibility: 0.9996914267539978
","x: 269.5694274902344
y: 287.8607482910156
z: -0.17690367996692657
visibility: 0.9993723034858704
","x: 268.19268798828125
y: 288.4268493652344
z: -0.17692428827285767
visibility: 0.9990562796592712
","x: 266.85162353515625
y: 289.13494873046875
z: -0.17695149779319763
visibility: 0.9992142915725708
","x: 273.4286193847656
y: 290.8663635253906
z: -0.0513351671397686
visibility: 0.9994356036186218
","x: 263.6202392578125
y: 293.2684020996094
z: -0.14490999281406403
visibility: 0.9975570440292358
","x: 274.94805908203125
y: 298.80322265625
z: -0.13851070404052734
visibility: 0.9987912178039551
","x: 271.33953857421875
y: 299.314208984375
z: -0.16407456994056702
visibility: 0.9976657032966614
","x: 276.3514404296875
y: 324.73260498046875
z: 0.047231532633304596
visibility: 0.9999237060546875
","x: 256.5862121582031
y: 323.99285888671875
z: -0.1447550654411316
visibility: 0.9990938305854797
","x: 282.5513000488281
y: 352.37255859375
z: 0.07495547086000443
visibility: 0.9372990727424622
","x: 242.04583740234375
y: 358.82684326171875
z: -0.19248656928539276
visibility: 0.4420270025730133
","x: 292.3393249511719
y: 324.02813720703125
z: -0.00060299999313429
visibility: 0.9515438675880432
","x: 254.61312866210938
y: 385.142333984375
z: -0.22861269116401672
visibility: 0.549867570400238
","x: 293.6778869628906
y: 313.58868408203125
z: -0.012842215597629547
visibility: 0.9094364047050476
","x: 257.20623779296875
y: 394.40325927734375
z: -0.24358947575092316
visibility: 0.5513041615486145
","x: 294.545654296875
y: 310.83551025390625
z: -0.01786920800805092
visibility: 0.9116808176040649
","x: 260.73046875
y: 390.8113098144531
z: -0.24963048100471497
visibility: 0.5539016127586365
","x: 293.0501708984375
y: 315.4211730957031
z: -0.0063268751837313175
visibility: 0.8861950039863586
","x: 260.3015441894531
y: 388.4580078125
z: -0.22948285937309265
visibility: 0.5491088032722473
","x: 278.2886657714844
y: 402.5322265625
z: 0.06765231490135193
visibility: 0.9998694658279419
","x: 267.119140625
y: 407.0779113769531
z: -0.06771445274353027
visibility: 0.9998186826705933
","x: 299.0851745605469
y: 428.8111877441406
z: -0.03741549700498581
visibility: 0.9892538189888
","x: 273.6796875
y: 461.3431396484375
z: -0.1465388834476471
visibility: 0.9072020649909973
","x: 290.8914489746094
y: 486.7016296386719
z: 0.026541035622358322
visibility: 0.99119633436203
","x: 249.24716186523438
y: 505.81048583984375
z: -0.10340487957000732
visibility: 0.9615728855133057
","x: 284.627197265625
y: 495.16595458984375
z: 0.02930213138461113
visibility: 0.9602393507957458
","x: 240.39305114746094
y: 512.2144165039062
z: -0.10180523246526718
visibility: 0.8886421918869019
","x: 306.4298095703125
y: 505.2496337890625
z: -0.02245563641190529
visibility: 0.9922233819961548
","x: 256.29400634765625
y: 526.5443115234375
z: -0.16966423392295837
visibility: 0.9711209535598755
",,,,,,,,,,,,,,,,,,,,,,,,,,,,,,,,,,,,,,,,,,
6,"x: 277.95892333984375
y: 304.6177978515625
z: -0.18125666677951813
visibility: 0.9996150135993958
","x: 278.1859130859375
y: 298.91302490234375
z: -0.16389624774456024
visibility: 0.9996667504310608
","x: 278.94403076171875
y: 299.11016845703125
z: -0.16391238570213318
visibility: 0.999640703201294
","x: 279.72235107421875
y: 299.3333740234375
z: -0.1639232337474823
visibility: 0.9997174143791199
","x: 275.6234130859375
y: 298.6136169433594
z: -0.17704364657402039
visibility: 0.9994336366653442
","x: 274.51336669921875
y: 298.67510986328125
z: -0.17710435390472412
visibility: 0.9991493225097656
","x: 273.3199462890625
y: 298.86224365234375
z: -0.17715851962566376
visibility: 0.9992916584014893
","x: 278.9833068847656
y: 301.71527099609375
z: -0.05662607401609421
visibility: 0.9994680285453796
","x: 269.79595947265625
y: 301.2350769042969
z: -0.12090971320867538
visibility: 0.9978006482124329
","x: 278.6751403808594
y: 309.58917236328125
z: -0.14138580858707428
visibility: 0.9989075064659119
","x: 275.5232238769531
y: 309.88385009765625
z: -0.1591368317604065
visibility: 0.9978983402252197
","x: 286.006103515625
y: 328.82684326171875
z: 0.03602418303489685
visibility: 0.9999122619628906
","x: 259.1993408203125
y: 329.5756530761719
z: -0.09598063677549362
visibility: 0.9991840720176697
","x: 293.9327392578125
y: 361.114013671875
z: 0.008557455614209175
visibility: 0.9149577021598816
","x: 247.30267333984375
y: 361.3156433105469
z: -0.12331216037273407
visibility: 0.49756088852882385
","x: 290.40374755859375
y: 354.441162109375
z: -0.1457643210887909
visibility: 0.9322448968887329
","x: 256.5682373046875
y: 384.9052734375
z: -0.19109293818473816
visibility: 0.5932489633560181
","x: 289.3548583984375
y: 353.5894470214844
z: -0.1755770891904831
visibility: 0.8894910216331482
","x: 260.24853515625
y: 394.1549987792969
z: -0.21381120383739471
visibility: 0.5923368334770203
","x: 287.8480529785156
y: 348.8878173828125
z: -0.18026117980480194
visibility: 0.8916467428207397
","x: 261.1421203613281
y: 391.3442687988281
z: -0.2218358963727951
visibility: 0.5945227742195129
","x: 287.34564208984375
y: 349.9537658691406
z: -0.15242740511894226
visibility: 0.8618662357330322
","x: 260.66094970703125
y: 387.5794677734375
z: -0.19340769946575165
visibility: 0.5874871015548706
","x: 284.3245849609375
y: 409.4596862792969
z: 0.0549943745136261
visibility: 0.9998633861541748
","x: 269.332763671875
y: 411.1401062011719
z: -0.05500844866037369
visibility: 0.9998318552970886
","x: 299.6371765136719
y: 448.37274169921875
z: 0.026255479082465172
visibility: 0.9886085987091064
","x: 272.1469421386719
y: 464.9956970214844
z: -0.1975916624069214
visibility: 0.9164224863052368
","x: 296.7926330566406
y: 495.6228332519531
z: 0.14576542377471924
visibility: 0.9914573431015015
","x: 249.8529052734375
y: 512.7416381835938
z: -0.15827453136444092
visibility: 0.9653481841087341
","x: 291.54486083984375
y: 506.1151123046875
z: 0.152445450425148
visibility: 0.9619389176368713
","x: 242.27125549316406
y: 516.401611328125
z: -0.15865184366703033
visibility: 0.8972266316413879
","x: 309.8952331542969
y: 512.0971069335938
z: 0.08888747543096542
visibility: 0.9920856952667236
","x: 254.80819702148438
y: 529.3173828125
z: -0.2508348822593689
visibility: 0.9738772511482239
",,,,,,,,,,,,,,,,,,,,,,,,,,,,,,,,,,,,,,,,,,
7,"x: 278.5679016113281
y: 299.3602600097656
z: -0.180017352104187
visibility: 0.999650239944458
","x: 279.90869140625
y: 294.362060546875
z: -0.16480520367622375
visibility: 0.9996917247772217
","x: 280.9793701171875
y: 294.52197265625
z: -0.16483016312122345
visibility: 0.999664306640625
","x: 282.1374206542969
y: 294.732666015625
z: -0.16487939655780792
visibility: 0.9997334480285645
","x: 276.9361572265625
y: 294.3802185058594
z: -0.1684349924325943
visibility: 0.9994843602180481
","x: 275.8451843261719
y: 294.5446472167969
z: -0.16847091913223267
visibility: 0.9992276430130005
","x: 274.7024230957031
y: 294.77099609375
z: -0.16850492358207703
visibility: 0.9993571043014526
","x: 283.7997741699219
y: 297.92376708984375
z: -0.07284113764762878
visibility: 0.9995021224021912
","x: 272.4283752441406
y: 297.793212890625
z: -0.0941552072763443
visibility: 0.998017430305481
","x: 280.4111328125
y: 304.6593933105469
z: -0.14676256477832794
visibility: 0.9990119338035583
","x: 276.7020568847656
y: 304.95220947265625
z: -0.15191103518009186
visibility: 0.9981063604354858
","x: 292.0368957519531
y: 324.5323486328125
z: -0.006181481294333935
visibility: 0.9998716115951538
","x: 260.77435302734375
y: 326.19049072265625
z: -0.05084790661931038
visibility: 0.9992597103118896
","x: 304.81927490234375
y: 353.0523376464844
z: -0.1494578868150711
visibility: 0.9212875962257385
","x: 249.2099151611328
y: 357.5419921875
z: -0.12958577275276184
visibility: 0.5443679094314575
","x: 298.70843505859375
y: 322.6614074707031
z: -0.3120797574520111
visibility: 0.9341071844100952
","x: 249.96531677246094
y: 361.90008544921875
z: -0.283738374710083
visibility: 0.6277710199356079
","x: 297.404541015625
y: 314.32611083984375
z: -0.34634971618652344
visibility: 0.8898801207542419
","x: 251.96656799316406
y: 369.2362060546875
z: -0.31525060534477234
visibility: 0.621803879737854
","x: 295.8785705566406
y: 311.876708984375
z: -0.33983510732650757
visibility: 0.8914613127708435
","x: 252.64852905273438
y: 369.1104431152344
z: -0.3225947916507721
visibility: 0.6238896250724792
","x: 295.5413513183594
y: 316.32806396484375
z: -0.31490230560302734
visibility: 0.8595755696296692
","x: 252.47683715820312
y: 360.6385498046875
z: -0.29148536920547485
visibility: 0.6147803664207458
","x: 287.47589111328125
y: 408.0171203613281
z: 0.03643495589494705
visibility: 0.9998571872711182
","x: 268.3703918457031
y: 407.3607177734375
z: -0.03702011704444885
visibility: 0.999845027923584
","x: 301.6592102050781
y: 453.472412109375
z: -0.10286124795675278
visibility: 0.9894269704818726
","x: 259.2956237792969
y: 450.2864990234375
z: -0.21214556694030762
visibility: 0.9247211813926697
","x: 298.56134033203125
y: 497.6794128417969
z: 0.05294714495539665
visibility: 0.9918132424354553
","x: 251.33546447753906
y: 506.1544494628906
z: -0.06395285576581955
visibility: 0.9687402844429016
","x: 293.13751220703125
y: 509.4956970214844
z: 0.06076142191886902
visibility: 0.9619583487510681
","x: 253.4296417236328
y: 515.8696899414062
z: -0.054476041346788406
visibility: 0.9066120982170105
","x: 310.0595397949219
y: 514.5899658203125
z: -0.016052257269620895
visibility: 0.9916957020759583
","x: 246.83987426757812
y: 521.9454345703125
z: -0.1474047750234604
visibility: 0.976292610168457
","x: 297.7501525878906
y: 316.5010070800781
z: 0.0
","x: 294.9396667480469
y: 316.1761169433594
z: 0.00031726653105579317
","x: 292.2328796386719
y: 314.9566345214844
z: -0.00047673139488324523
","x: 290.3927001953125
y: 314.2353515625
z: -0.0016868310049176216
","x: 289.1963806152344
y: 313.9600830078125
z: -0.002762686228379607
","x: 292.9825744628906
y: 308.2154235839844
z: -0.0008964154403656721
","x: 291.859130859375
y: 303.0624084472656
z: -0.002221902133896947
","x: 291.55755615234375
y: 300.9700012207031
z: -0.002474613720551133
","x: 291.4755859375
y: 300.11895751953125
z: -0.0024658730253577232
","x: 294.67974853515625
y: 306.77667236328125
z: -0.002268769545480609
","x: 293.9442443847656
y: 301.4419860839844
z: -0.0035020497161895037
","x: 294.0176696777344
y: 299.6431884765625
z: -0.0031822468154132366
","x: 294.2879333496094
y: 298.9708557128906
z: -0.002839446533471346
","x: 296.5263366699219
y: 306.2499694824219
z: -0.003668974619358778
","x: 296.7165832519531
y: 301.2536926269531
z: -0.00512669375166297
","x: 297.04803466796875
y: 299.2443542480469
z: -0.004815495572984219
","x: 297.3534240722656
y: 298.2381591796875
z: -0.004371370188891888
","x: 298.2806091308594
y: 306.53515625
z: -0.005140348337590694
","x: 298.9627380371094
y: 302.71044921875
z: -0.00644605653360486
","x: 299.4495544433594
y: 300.71282958984375
z: -0.0064171417616307735
","x: 299.8446044921875
y: 299.3817443847656
z: -0.006123414728790522
",,,,,,,,,,,,,,,,,,,,,
8,"x: 278.5679016113281
y: 299.3602600097656
z: -0.180017352104187
visibility: 0.999650239944458
","x: 279.90869140625
y: 294.362060546875
z: -0.16480520367622375
visibility: 0.9996917247772217
","x: 280.9793701171875
y: 294.52197265625
z: -0.16483016312122345
visibility: 0.999664306640625
","x: 282.1374206542969
y: 294.732666015625
z: -0.16487939655780792
visibility: 0.9997334480285645
","x: 276.9361572265625
y: 294.3802185058594
z: -0.1684349924325943
visibility: 0.9994843602180481
","x: 275.8451843261719
y: 294.5446472167969
z: -0.16847091913223267
visibility: 0.9992276430130005
","x: 274.7024230957031
y: 294.77099609375
z: -0.16850492358207703
visibility: 0.9993571043014526
","x: 283.7997741699219
y: 297.92376708984375
z: -0.07284113764762878
visibility: 0.9995021224021912
","x: 272.4283752441406
y: 297.793212890625
z: -0.0941552072763443
visibility: 0.998017430305481
","x: 280.4111328125
y: 304.6593933105469
z: -0.14676256477832794
visibility: 0.9990119338035583
","x: 276.7020568847656
y: 304.95220947265625
z: -0.15191103518009186
visibility: 0.9981063604354858
","x: 292.0368957519531
y: 324.5323486328125
z: -0.006181481294333935
visibility: 0.9998716115951538
","x: 260.77435302734375
y: 326.19049072265625
z: -0.05084790661931038
visibility: 0.9992597103118896
","x: 304.81927490234375
y: 353.0523376464844
z: -0.1494578868150711
visibility: 0.9212875962257385
","x: 249.2099151611328
y: 357.5419921875
z: -0.12958577275276184
visibility: 0.5443679094314575
","x: 298.70843505859375
y: 322.6614074707031
z: -0.3120797574520111
visibility: 0.9341071844100952
","x: 249.96531677246094
y: 361.90008544921875
z: -0.283738374710083
visibility: 0.6277710199356079
","x: 297.404541015625
y: 314.32611083984375
z: -0.34634971618652344
visibility: 0.8898801207542419
","x: 251.96656799316406
y: 369.2362060546875
z: -0.31525060534477234
visibility: 0.621803879737854
","x: 295.8785705566406
y: 311.876708984375
z: -0.33983510732650757
visibility: 0.8914613127708435
","x: 252.64852905273438
y: 369.1104431152344
z: -0.3225947916507721
visibility: 0.6238896250724792
","x: 295.5413513183594
y: 316.32806396484375
z: -0.31490230560302734
visibility: 0.8595755696296692
","x: 252.47683715820312
y: 360.6385498046875
z: -0.29148536920547485
visibility: 0.6147803664207458
","x: 287.47589111328125
y: 408.0171203613281
z: 0.03643495589494705
visibility: 0.9998571872711182
","x: 268.3703918457031
y: 407.3607177734375
z: -0.03702011704444885
visibility: 0.999845027923584
","x: 301.6592102050781
y: 453.472412109375
z: -0.10286124795675278
visibility: 0.9894269704818726
","x: 259.2956237792969
y: 450.2864990234375
z: -0.21214556694030762
visibility: 0.9247211813926697
","x: 298.56134033203125
y: 497.6794128417969
z: 0.05294714495539665
visibility: 0.9918132424354553
","x: 251.33546447753906
y: 506.1544494628906
z: -0.06395285576581955
visibility: 0.9687402844429016
","x: 293.13751220703125
y: 509.4956970214844
z: 0.06076142191886902
visibility: 0.9619583487510681
","x: 253.4296417236328
y: 515.8696899414062
z: -0.054476041346788406
visibility: 0.9066120982170105
","x: 310.0595397949219
y: 514.5899658203125
z: -0.016052257269620895
visibility: 0.9916957020759583
","x: 246.83987426757812
y: 521.9454345703125
z: -0.1474047750234604
visibility: 0.976292610168457
","x: 297.7501525878906
y: 316.5010070800781
z: 0.0
","x: 294.9396667480469
y: 316.1761169433594
z: 0.00031726653105579317
","x: 292.2328796386719
y: 314.9566345214844
z: -0.00047673139488324523
","x: 290.3927001953125
y: 314.2353515625
z: -0.0016868310049176216
","x: 289.1963806152344
y: 313.9600830078125
z: -0.002762686228379607
","x: 292.9825744628906
y: 308.2154235839844
z: -0.0008964154403656721
","x: 291.859130859375
y: 303.0624084472656
z: -0.002221902133896947
","x: 291.55755615234375
y: 300.9700012207031
z: -0.002474613720551133
","x: 291.4755859375
y: 300.11895751953125
z: -0.0024658730253577232
","x: 294.67974853515625
y: 306.77667236328125
z: -0.002268769545480609
","x: 293.9442443847656
y: 301.4419860839844
z: -0.0035020497161895037
","x: 294.0176696777344
y: 299.6431884765625
z: -0.0031822468154132366
","x: 294.2879333496094
y: 298.9708557128906
z: -0.002839446533471346
","x: 296.5263366699219
y: 306.2499694824219
z: -0.003668974619358778
","x: 296.7165832519531
y: 301.2536926269531
z: -0.00512669375166297
","x: 297.04803466796875
y: 299.2443542480469
z: -0.004815495572984219
","x: 297.3534240722656
y: 298.2381591796875
z: -0.004371370188891888
","x: 298.2806091308594
y: 306.53515625
z: -0.005140348337590694
","x: 298.9627380371094
y: 302.71044921875
z: -0.00644605653360486
","x: 299.4495544433594
y: 300.71282958984375
z: -0.0064171417616307735
","x: 299.8446044921875
y: 299.3817443847656
z: -0.006123414728790522
",,,,,,,,,,,,,,,,,,,,,
9,"x: 278.120361328125
y: 302.42138671875
z: -0.1798592209815979
visibility: 0.9996781945228577
","x: 279.7961120605469
y: 298.4716491699219
z: -0.16678807139396667
visibility: 0.9997097849845886
","x: 280.85284423828125
y: 298.8790283203125
z: -0.16680386662483215
visibility: 0.999686062335968
","x: 281.9322509765625
y: 299.3094482421875
z: -0.16682012379169464
visibility: 0.9997477531433105
","x: 276.9756774902344
y: 297.92779541015625
z: -0.1661827564239502
visibility: 0.9995154738426208
","x: 275.97027587890625
y: 297.9808654785156
z: -0.16621556878089905
visibility: 0.9992830753326416
","x: 274.9449157714844
y: 298.07965087890625
z: -0.16625092923641205
visibility: 0.9993985891342163
","x: 283.7867126464844
y: 303.00628662109375
z: -0.08593373745679855
visibility: 0.9995321035385132
","x: 273.5263671875
y: 301.8652648925781
z: -0.08460904657840729
visibility: 0.9981750845909119
","x: 279.9978332519531
y: 307.7377014160156
z: -0.14980092644691467
visibility: 0.9991031289100647
","x: 276.6665954589844
y: 307.8296203613281
z: -0.1492767482995987
visibility: 0.9982824921607971
","x: 292.186767578125
y: 332.90234375
z: -0.045897502452135086
visibility: 0.9998759627342224
","x: 262.84259033203125
y: 329.7160339355469
z: -0.03660864010453224
visibility: 0.99929279088974
","x: 302.5579528808594
y: 370.0299377441406
z: -0.16037456691265106
visibility: 0.9279430508613586
","x: 253.53433227539062
y: 363.7442626953125
z: -0.12463756650686264
visibility: 0.5865570902824402
","x: 299.4462890625
y: 330.5663757324219
z: -0.31577932834625244
visibility: 0.9393237233161926
","x: 251.5355224609375
y: 332.3878479003906
z: -0.28620821237564087
visibility: 0.6632217168807983
","x: 299.39117431640625
y: 325.34857177734375
z: -0.34622737765312195
visibility: 0.8974978923797607
","x: 252.4362335205078
y: 323.79132080078125
z: -0.3193957209587097
visibility: 0.6555367708206177
","x: 299.0174560546875
y: 322.2143859863281
z: -0.33882126212120056
visibility: 0.8987742066383362
","x: 252.89808654785156
y: 322.37298583984375
z: -0.31685250997543335
visibility: 0.6572193503379822
","x: 298.232177734375
y: 325.7257385253906
z: -0.3166380524635315
visibility: 0.8682496547698975
","x: 253.17689514160156
y: 324.6658020019531
z: -0.29020100831985474
visibility: 0.6475107669830322
","x: 285.8880615234375
y: 410.2205810546875
z: -0.0034637656062841415
visibility: 0.9998571276664734
","x: 267.84649658203125
y: 408.34600830078125
z: 0.003260452765971422
visibility: 0.9998377561569214
","x: 293.5309143066406
y: 458.09881591796875
z: -0.06128161400556564
visibility: 0.9902662634849548
","x: 256.4412536621094
y: 451.2539367675781
z: -0.008922620676457882
visibility: 0.9319084286689758
","x: 308.0510559082031
y: 498.3041687011719
z: 0.08162190020084381
visibility: 0.9923431277275085
","x: 250.57333374023438
y: 496.06365966796875
z: 0.17819905281066895
visibility: 0.971253514289856
","x: 309.767822265625
y: 506.1439514160156
z: 0.09133923053741455
visibility: 0.9529697895050049
","x: 252.17596435546875
y: 503.0970458984375
z: 0.19370171427726746
visibility: 0.9084295034408569
","x: 306.24554443359375
y: 513.1218872070312
z: -0.001496566692367196
visibility: 0.9919214844703674
","x: 244.26718139648438
y: 511.6104736328125
z: 0.12083549797534943
visibility: 0.977647066116333
","x: 299.25909423828125
y: 331.3537902832031
z: 0.0
","x: 296.6148681640625
y: 330.5639343261719
z: -0.0004343768523540348
","x: 294.4037780761719
y: 329.6351318359375
z: -0.001982439076527953
","x: 292.4365539550781
y: 329.5462646484375
z: -0.003853030037134886
","x: 290.7637023925781
y: 329.5196228027344
z: -0.005833954084664583
","x: 295.7171325683594
y: 325.0804443359375
z: -0.0035781254991889
","x: 294.745361328125
y: 320.83758544921875
z: -0.005588894709944725
","x: 294.73779296875
y: 318.9803771972656
z: -0.006178388372063637
","x: 294.8992919921875
y: 318.2229919433594
z: -0.006362755782902241
","x: 297.4449157714844
y: 324.0650634765625
z: -0.004831942729651928
","x: 296.7298583984375
y: 318.6757507324219
z: -0.006368742790073156
","x: 296.8535461425781
y: 315.934814453125
z: -0.0064361197873950005
","x: 297.12164306640625
y: 314.256591796875
z: -0.006595010403543711
","x: 299.3087463378906
y: 324.0334777832031
z: -0.005983602721244097
","x: 299.4377136230469
y: 319.5027770996094
z: -0.007659469731152058
","x: 299.8058776855469
y: 317.02923583984375
z: -0.007894974201917648
","x: 300.161376953125
y: 315.291259765625
z: -0.008043691515922546
","x: 301.1040344238281
y: 324.781494140625
z: -0.007174418307840824
","x: 301.89764404296875
y: 322.3288269042969
z: -0.008588647469878197
","x: 302.2401428222656
y: 321.02264404296875
z: -0.008838951587677002
","x: 302.4236145019531
y: 320.07269287109375
z: -0.008938427083194256
",,,,,,,,,,,,,,,,,,,,,
10,"x: 278.120361328125
y: 302.42138671875
z: -0.1798592209815979
visibility: 0.9996781945228577
","x: 279.7961120605469
y: 298.4716491699219
z: -0.16678807139396667
visibility: 0.9997097849845886
","x: 280.85284423828125
y: 298.8790283203125
z: -0.16680386662483215
visibility: 0.999686062335968
","x: 281.9322509765625
y: 299.3094482421875
z: -0.16682012379169464
visibility: 0.9997477531433105
","x: 276.9756774902344
y: 297.92779541015625
z: -0.1661827564239502
visibility: 0.9995154738426208
","x: 275.97027587890625
y: 297.9808654785156
z: -0.16621556878089905
visibility: 0.9992830753326416
","x: 274.9449157714844
y: 298.07965087890625
z: -0.16625092923641205
visibility: 0.9993985891342163
","x: 283.7867126464844
y: 303.00628662109375
z: -0.08593373745679855
visibility: 0.9995321035385132
","x: 273.5263671875
y: 301.8652648925781
z: -0.08460904657840729
visibility: 0.9981750845909119
","x: 279.9978332519531
y: 307.7377014160156
z: -0.14980092644691467
visibility: 0.9991031289100647
","x: 276.6665954589844
y: 307.8296203613281
z: -0.1492767482995987
visibility: 0.9982824921607971
","x: 292.186767578125
y: 332.90234375
z: -0.045897502452135086
visibility: 0.9998759627342224
","x: 262.84259033203125
y: 329.7160339355469
z: -0.03660864010453224
visibility: 0.99929279088974
","x: 302.5579528808594
y: 370.0299377441406
z: -0.16037456691265106
visibility: 0.9279430508613586
","x: 253.53433227539062
y: 363.7442626953125
z: -0.12463756650686264
visibility: 0.5865570902824402
","x: 299.4462890625
y: 330.5663757324219
z: -0.31577932834625244
visibility: 0.9393237233161926
","x: 251.5355224609375
y: 332.3878479003906
z: -0.28620821237564087
visibility: 0.6632217168807983
","x: 299.39117431640625
y: 325.34857177734375
z: -0.34622737765312195
visibility: 0.8974978923797607
","x: 252.4362335205078
y: 323.79132080078125
z: -0.3193957209587097
visibility: 0.6555367708206177
","x: 299.0174560546875
y: 322.2143859863281
z: -0.33882126212120056
visibility: 0.8987742066383362
","x: 252.89808654785156
y: 322.37298583984375
z: -0.31685250997543335
visibility: 0.6572193503379822
","x: 298.232177734375
y: 325.7257385253906
z: -0.3166380524635315
visibility: 0.8682496547698975
","x: 253.17689514160156
y: 324.6658020019531
z: -0.29020100831985474
visibility: 0.6475107669830322
","x: 285.8880615234375
y: 410.2205810546875
z: -0.0034637656062841415
visibility: 0.9998571276664734
","x: 267.84649658203125
y: 408.34600830078125
z: 0.003260452765971422
visibility: 0.9998377561569214
","x: 293.5309143066406
y: 458.09881591796875
z: -0.06128161400556564
visibility: 0.9902662634849548
","x: 256.4412536621094
y: 451.2539367675781
z: -0.008922620676457882
visibility: 0.9319084286689758
","x: 308.0510559082031
y: 498.3041687011719
z: 0.08162190020084381
visibility: 0.9923431277275085
","x: 250.57333374023438
y: 496.06365966796875
z: 0.17819905281066895
visibility: 0.971253514289856
","x: 309.767822265625
y: 506.1439514160156
z: 0.09133923053741455
visibility: 0.9529697895050049
","x: 252.17596435546875
y: 503.0970458984375
z: 0.19370171427726746
visibility: 0.9084295034408569
","x: 306.24554443359375
y: 513.1218872070312
z: -0.001496566692367196
visibility: 0.9919214844703674
","x: 244.26718139648438
y: 511.6104736328125
z: 0.12083549797534943
visibility: 0.977647066116333
","x: 299.25909423828125
y: 331.3537902832031
z: 0.0
","x: 296.6148681640625
y: 330.5639343261719
z: -0.0004343768523540348
","x: 294.4037780761719
y: 329.6351318359375
z: -0.001982439076527953
","x: 292.4365539550781
y: 329.5462646484375
z: -0.003853030037134886
","x: 290.7637023925781
y: 329.5196228027344
z: -0.005833954084664583
","x: 295.7171325683594
y: 325.0804443359375
z: -0.0035781254991889
","x: 294.745361328125
y: 320.83758544921875
z: -0.005588894709944725
","x: 294.73779296875
y: 318.9803771972656
z: -0.006178388372063637
","x: 294.8992919921875
y: 318.2229919433594
z: -0.006362755782902241
","x: 297.4449157714844
y: 324.0650634765625
z: -0.004831942729651928
","x: 296.7298583984375
y: 318.6757507324219
z: -0.006368742790073156
","x: 296.8535461425781
y: 315.934814453125
z: -0.0064361197873950005
","x: 297.12164306640625
y: 314.256591796875
z: -0.006595010403543711
","x: 299.3087463378906
y: 324.0334777832031
z: -0.005983602721244097
","x: 299.4377136230469
y: 319.5027770996094
z: -0.007659469731152058
","x: 299.8058776855469
y: 317.02923583984375
z: -0.007894974201917648
","x: 300.161376953125
y: 315.291259765625
z: -0.008043691515922546
","x: 301.1040344238281
y: 324.781494140625
z: -0.007174418307840824
","x: 301.89764404296875
y: 322.3288269042969
z: -0.008588647469878197
","x: 302.2401428222656
y: 321.02264404296875
z: -0.008838951587677002
","x: 302.4236145019531
y: 320.07269287109375
z: -0.008938427083194256
",,,,,,,,,,,,,,,,,,,,,
11,"x: 275.331298828125
y: 299.56121826171875
z: -0.16887736320495605
visibility: 0.9997097253799438
","x: 277.10546875
y: 294.93841552734375
z: -0.15760384500026703
visibility: 0.9997370839118958
","x: 278.2381896972656
y: 295.1839599609375
z: -0.157622829079628
visibility: 0.9997157454490662
","x: 279.40863037109375
y: 295.45013427734375
z: -0.1576133817434311
visibility: 0.9997707605361938
","x: 274.1246337890625
y: 294.67266845703125
z: -0.15458612143993378
visibility: 0.9995611310005188
","x: 273.1883239746094
y: 294.77337646484375
z: -0.1546037495136261
visibility: 0.999351441860199
","x: 272.2692565917969
y: 294.9362487792969
z: -0.15461930632591248
visibility: 0.9994547367095947
","x: 282.0865783691406
y: 298.6642761230469
z: -0.08432885259389877
visibility: 0.9995744228363037
","x: 271.3153381347656
y: 298.482177734375
z: -0.08095778524875641
visibility: 0.9983495473861694
","x: 277.8551330566406
y: 304.83380126953125
z: -0.14149776101112366
visibility: 0.9991908669471741
","x: 273.7669372558594
y: 305.1083068847656
z: -0.13796466588974
visibility: 0.9984519481658936
","x: 290.488037109375
y: 329.71807861328125
z: -0.0486677922308445
visibility: 0.9998838901519775
","x: 262.74334716796875
y: 328.08160400390625
z: -0.02225942723453045
visibility: 0.9993544220924377
","x: 293.6526794433594
y: 367.1814270019531
z: -0.1469782441854477
visibility: 0.9339444637298584
","x: 251.24087524414062
y: 359.0526123046875
z: -0.10101810842752457
visibility: 0.6256796717643738
","x: 299.270751953125
y: 333.78271484375
z: -0.30272769927978516
visibility: 0.9450740814208984
","x: 250.4173583984375
y: 322.1159362792969
z: -0.2748352587223053
visibility: 0.6964151263237
","x: 303.2166748046875
y: 328.1102294921875
z: -0.332425594329834
visibility: 0.9069889783859253
","x: 250.0356903076172
y: 311.98504638671875
z: -0.30753690004348755
visibility: 0.6887019872665405
","x: 303.67498779296875
y: 324.162353515625
z: -0.33121317625045776
visibility: 0.9081360101699829
","x: 251.06787109375
y: 310.5154113769531
z: -0.30498194694519043
visibility: 0.6901311874389648
","x: 302.0377502441406
y: 326.85772705078125
z: -0.3059321641921997
visibility: 0.8801917433738708
","x: 251.9019775390625
y: 313.74713134765625
z: -0.2787910997867584
visibility: 0.6809049844741821
","x: 283.8288879394531
y: 408.84283447265625
z: -0.010018282569944859
visibility: 0.9998622536659241
","x: 266.4759521484375
y: 407.7342224121094
z: 0.009862424805760384
visibility: 0.9998453259468079
","x: 291.0506591796875
y: 459.6263427734375
z: -0.0012244003592059016
visibility: 0.9909313917160034
","x: 256.1490173339844
y: 453.2421569824219
z: -0.01129125989973545
visibility: 0.938490629196167
","x: 306.0491638183594
y: 501.27850341796875
z: 0.14407595992088318
visibility: 0.9927247762680054
","x: 250.14352416992188
y: 496.7060852050781
z: 0.14578860998153687
visibility: 0.9738165736198425
","x: 307.94293212890625
y: 507.29144287109375
z: 0.15402184426784515
visibility: 0.9464728236198425
","x: 251.82684326171875
y: 503.0596618652344
z: 0.15854810178279877
visibility: 0.9135867357254028
","x: 306.9148864746094
y: 514.4535522460938
z: 0.06677816808223724
visibility: 0.9919939041137695
","x: 243.52557373046875
y: 510.7340087890625
z: 0.08084391802549362
visibility: 0.9794089794158936
","x: 297.9174499511719
y: 333.1673583984375
z: 0.0
","x: 298.50091552734375
y: 327.46343994140625
z: -0.0007242221035994589
","x: 299.7676086425781
y: 322.38043212890625
z: -0.001812248956412077
","x: 300.720703125
y: 318.2765808105469
z: -0.0033739134669303894
","x: 301.30120849609375
y: 314.90087890625
z: -0.004896094091236591
","x: 304.9718017578125
y: 322.14984130859375
z: 0.00014026250573806465
","x: 307.6387023925781
y: 318.79168701171875
z: -0.0017136792885139585
","x: 308.95172119140625
y: 316.95928955078125
z: -0.003075504209846258
","x: 310.015380859375
y: 315.3460998535156
z: -0.003991917707026005
","x: 305.63934326171875
y: 324.29864501953125
z: -0.0014332195278257132
","x: 308.7357482910156
y: 321.7546081542969
z: -0.002967452397570014
","x: 310.2503967285156
y: 320.0663757324219
z: -0.004089158494025469
","x: 311.4404602050781
y: 318.4940490722656
z: -0.005001707933843136
","x: 305.67608642578125
y: 326.91986083984375
z: -0.003406400326639414
","x: 308.79644775390625
y: 325.50811767578125
z: -0.005278021562844515
","x: 310.38275146484375
y: 324.3053894042969
z: -0.006341459229588509
","x: 311.573974609375
y: 323.10748291015625
z: -0.0070674242451786995
","x: 305.097900390625
y: 329.8744201660156
z: -0.005623182747513056
","x: 307.6697082519531
y: 330.2593994140625
z: -0.007253527641296387
","x: 309.1860046386719
y: 330.15826416015625
z: -0.007943945936858654
","x: 310.39599609375
y: 329.8331298828125
z: -0.008404037915170193
","x: 249.6934356689453
y: 319.98809814453125
z: 0.0
","x: 252.6501007080078
y: 315.78424072265625
z: 0.0001236045063706115
","x: 254.1780242919922
y: 310.5540771484375
z: 0.0004413819406181574
","x: 255.2867889404297
y: 306.88214111328125
z: 0.0003872829838655889
","x: 255.7119598388672
y: 304.9219055175781
z: 0.000593256379943341
","x: 249.78799438476562
y: 304.52099609375
z: 0.0023923369590193033
","x: 249.3184356689453
y: 298.23663330078125
z: 0.0021967163775116205
","x: 249.60960388183594
y: 296.99859619140625
z: 0.0024213013239204884
","x: 249.83164978027344
y: 297.2694091796875
z: 0.0028510175179690123
","x: 247.716064453125
y: 304.657470703125
z: 0.0017386112594977021
","x: 246.97174072265625
y: 297.4750061035156
z: 0.0017264990601688623
","x: 247.282958984375
y: 295.992919921875
z: 0.0021067694760859013
","x: 247.59649658203125
y: 296.34246826171875
z: 0.002644930500537157
","x: 245.9304656982422
y: 305.7744140625
z: 0.0007607100997120142
","x: 245.070068359375
y: 299.1754150390625
z: 0.00023844708630349487
","x: 245.1477813720703
y: 297.3592834472656
z: 0.00024813428171910346
","x: 245.36659240722656
y: 296.95599365234375
z: 0.0005714328144676983
","x: 244.42359924316406
y: 307.6407165527344
z: -0.00039444901631213725
","x: 243.2348175048828
y: 303.1280517578125
z: -0.0011298870667815208
","x: 243.0708770751953
y: 301.5965270996094
z: -0.0012750319438055158
","x: 243.2420196533203
y: 301.0140686035156
z: -0.001033781678415835
"
12,"x: 275.331298828125
y: 299.56121826171875
z: -0.16887736320495605
visibility: 0.9997097253799438
","x: 277.10546875
y: 294.93841552734375
z: -0.15760384500026703
visibility: 0.9997370839118958
","x: 278.2381896972656
y: 295.1839599609375
z: -0.157622829079628
visibility: 0.9997157454490662
","x: 279.40863037109375
y: 295.45013427734375
z: -0.1576133817434311
visibility: 0.9997707605361938
","x: 274.1246337890625
y: 294.67266845703125
z: -0.15458612143993378
visibility: 0.9995611310005188
","x: 273.1883239746094
y: 294.77337646484375
z: -0.1546037495136261
visibility: 0.999351441860199
","x: 272.2692565917969
y: 294.9362487792969
z: -0.15461930632591248
visibility: 0.9994547367095947
","x: 282.0865783691406
y: 298.6642761230469
z: -0.08432885259389877
visibility: 0.9995744228363037
","x: 271.3153381347656
y: 298.482177734375
z: -0.08095778524875641
visibility: 0.9983495473861694
","x: 277.8551330566406
y: 304.83380126953125
z: -0.14149776101112366
visibility: 0.9991908669471741
","x: 273.7669372558594
y: 305.1083068847656
z: -0.13796466588974
visibility: 0.9984519481658936
","x: 290.488037109375
y: 329.71807861328125
z: -0.0486677922308445
visibility: 0.9998838901519775
","x: 262.74334716796875
y: 328.08160400390625
z: -0.02225942723453045
visibility: 0.9993544220924377
","x: 293.6526794433594
y: 367.1814270019531
z: -0.1469782441854477
visibility: 0.9339444637298584
","x: 251.24087524414062
y: 359.0526123046875
z: -0.10101810842752457
visibility: 0.6256796717643738
","x: 299.270751953125
y: 333.78271484375
z: -0.30272769927978516
visibility: 0.9450740814208984
","x: 250.4173583984375
y: 322.1159362792969
z: -0.2748352587223053
visibility: 0.6964151263237
","x: 303.2166748046875
y: 328.1102294921875
z: -0.332425594329834
visibility: 0.9069889783859253
","x: 250.0356903076172
y: 311.98504638671875
z: -0.30753690004348755
visibility: 0.6887019872665405
","x: 303.67498779296875
y: 324.162353515625
z: -0.33121317625045776
visibility: 0.9081360101699829
","x: 251.06787109375
y: 310.5154113769531
z: -0.30498194694519043
visibility: 0.6901311874389648
","x: 302.0377502441406
y: 326.85772705078125
z: -0.3059321641921997
visibility: 0.8801917433738708
","x: 251.9019775390625
y: 313.74713134765625
z: -0.2787910997867584
visibility: 0.6809049844741821
","x: 283.8288879394531
y: 408.84283447265625
z: -0.010018282569944859
visibility: 0.9998622536659241
","x: 266.4759521484375
y: 407.7342224121094
z: 0.009862424805760384
visibility: 0.9998453259468079
","x: 291.0506591796875
y: 459.6263427734375
z: -0.0012244003592059016
visibility: 0.9909313917160034
","x: 256.1490173339844
y: 453.2421569824219
z: -0.01129125989973545
visibility: 0.938490629196167
","x: 306.0491638183594
y: 501.27850341796875
z: 0.14407595992088318
visibility: 0.9927247762680054
","x: 250.14352416992188
y: 496.7060852050781
z: 0.14578860998153687
visibility: 0.9738165736198425
","x: 307.94293212890625
y: 507.29144287109375
z: 0.15402184426784515
visibility: 0.9464728236198425
","x: 251.82684326171875
y: 503.0596618652344
z: 0.15854810178279877
visibility: 0.9135867357254028
","x: 306.9148864746094
y: 514.4535522460938
z: 0.06677816808223724
visibility: 0.9919939041137695
","x: 243.52557373046875
y: 510.7340087890625
z: 0.08084391802549362
visibility: 0.9794089794158936
","x: 297.9174499511719
y: 333.1673583984375
z: 0.0
","x: 298.50091552734375
y: 327.46343994140625
z: -0.0007242221035994589
","x: 299.7676086425781
y: 322.38043212890625
z: -0.001812248956412077
","x: 300.720703125
y: 318.2765808105469
z: -0.0033739134669303894
","x: 301.30120849609375
y: 314.90087890625
z: -0.004896094091236591
","x: 304.9718017578125
y: 322.14984130859375
z: 0.00014026250573806465
","x: 307.6387023925781
y: 318.79168701171875
z: -0.0017136792885139585
","x: 308.95172119140625
y: 316.95928955078125
z: -0.003075504209846258
","x: 310.015380859375
y: 315.3460998535156
z: -0.003991917707026005
","x: 305.63934326171875
y: 324.29864501953125
z: -0.0014332195278257132
","x: 308.7357482910156
y: 321.7546081542969
z: -0.002967452397570014
","x: 310.2503967285156
y: 320.0663757324219
z: -0.004089158494025469
","x: 311.4404602050781
y: 318.4940490722656
z: -0.005001707933843136
","x: 305.67608642578125
y: 326.91986083984375
z: -0.003406400326639414
","x: 308.79644775390625
y: 325.50811767578125
z: -0.005278021562844515
","x: 310.38275146484375
y: 324.3053894042969
z: -0.006341459229588509
","x: 311.573974609375
y: 323.10748291015625
z: -0.0070674242451786995
","x: 305.097900390625
y: 329.8744201660156
z: -0.005623182747513056
","x: 307.6697082519531
y: 330.2593994140625
z: -0.007253527641296387
","x: 309.1860046386719
y: 330.15826416015625
z: -0.007943945936858654
","x: 310.39599609375
y: 329.8331298828125
z: -0.008404037915170193
","x: 249.6934356689453
y: 319.98809814453125
z: 0.0
","x: 252.6501007080078
y: 315.78424072265625
z: 0.0001236045063706115
","x: 254.1780242919922
y: 310.5540771484375
z: 0.0004413819406181574
","x: 255.2867889404297
y: 306.88214111328125
z: 0.0003872829838655889
","x: 255.7119598388672
y: 304.9219055175781
z: 0.000593256379943341
","x: 249.78799438476562
y: 304.52099609375
z: 0.0023923369590193033
","x: 249.3184356689453
y: 298.23663330078125
z: 0.0021967163775116205
","x: 249.60960388183594
y: 296.99859619140625
z: 0.0024213013239204884
","x: 249.83164978027344
y: 297.2694091796875
z: 0.0028510175179690123
","x: 247.716064453125
y: 304.657470703125
z: 0.0017386112594977021
","x: 246.97174072265625
y: 297.4750061035156
z: 0.0017264990601688623
","x: 247.282958984375
y: 295.992919921875
z: 0.0021067694760859013
","x: 247.59649658203125
y: 296.34246826171875
z: 0.002644930500537157
","x: 245.9304656982422
y: 305.7744140625
z: 0.0007607100997120142
","x: 245.070068359375
y: 299.1754150390625
z: 0.00023844708630349487
","x: 245.1477813720703
y: 297.3592834472656
z: 0.00024813428171910346
","x: 245.36659240722656
y: 296.95599365234375
z: 0.0005714328144676983
","x: 244.42359924316406
y: 307.6407165527344
z: -0.00039444901631213725
","x: 243.2348175048828
y: 303.1280517578125
z: -0.0011298870667815208
","x: 243.0708770751953
y: 301.5965270996094
z: -0.0012750319438055158
","x: 243.2420196533203
y: 301.0140686035156
z: -0.001033781678415835
"
13,"x: 275.331298828125
y: 299.56121826171875
z: -0.16887736320495605
visibility: 0.9997097253799438
","x: 277.10546875
y: 294.93841552734375
z: -0.15760384500026703
visibility: 0.9997370839118958
","x: 278.2381896972656
y: 295.1839599609375
z: -0.157622829079628
visibility: 0.9997157454490662
","x: 279.40863037109375
y: 295.45013427734375
z: -0.1576133817434311
visibility: 0.9997707605361938
","x: 274.1246337890625
y: 294.67266845703125
z: -0.15458612143993378
visibility: 0.9995611310005188
","x: 273.1883239746094
y: 294.77337646484375
z: -0.1546037495136261
visibility: 0.999351441860199
","x: 272.2692565917969
y: 294.9362487792969
z: -0.15461930632591248
visibility: 0.9994547367095947
","x: 282.0865783691406
y: 298.6642761230469
z: -0.08432885259389877
visibility: 0.9995744228363037
","x: 271.3153381347656
y: 298.482177734375
z: -0.08095778524875641
visibility: 0.9983495473861694
","x: 277.8551330566406
y: 304.83380126953125
z: -0.14149776101112366
visibility: 0.9991908669471741
","x: 273.7669372558594
y: 305.1083068847656
z: -0.13796466588974
visibility: 0.9984519481658936
","x: 290.488037109375
y: 329.71807861328125
z: -0.0486677922308445
visibility: 0.9998838901519775
","x: 262.74334716796875
y: 328.08160400390625
z: -0.02225942723453045
visibility: 0.9993544220924377
","x: 293.6526794433594
y: 367.1814270019531
z: -0.1469782441854477
visibility: 0.9339444637298584
","x: 251.24087524414062
y: 359.0526123046875
z: -0.10101810842752457
visibility: 0.6256796717643738
","x: 299.270751953125
y: 333.78271484375
z: -0.30272769927978516
visibility: 0.9450740814208984
","x: 250.4173583984375
y: 322.1159362792969
z: -0.2748352587223053
visibility: 0.6964151263237
","x: 303.2166748046875
y: 328.1102294921875
z: -0.332425594329834
visibility: 0.9069889783859253
","x: 250.0356903076172
y: 311.98504638671875
z: -0.30753690004348755
visibility: 0.6887019872665405
","x: 303.67498779296875
y: 324.162353515625
z: -0.33121317625045776
visibility: 0.9081360101699829
","x: 251.06787109375
y: 310.5154113769531
z: -0.30498194694519043
visibility: 0.6901311874389648
","x: 302.0377502441406
y: 326.85772705078125
z: -0.3059321641921997
visibility: 0.8801917433738708
","x: 251.9019775390625
y: 313.74713134765625
z: -0.2787910997867584
visibility: 0.6809049844741821
","x: 283.8288879394531
y: 408.84283447265625
z: -0.010018282569944859
visibility: 0.9998622536659241
","x: 266.4759521484375
y: 407.7342224121094
z: 0.009862424805760384
visibility: 0.9998453259468079
","x: 291.0506591796875
y: 459.6263427734375
z: -0.0012244003592059016
visibility: 0.9909313917160034
","x: 256.1490173339844
y: 453.2421569824219
z: -0.01129125989973545
visibility: 0.938490629196167
","x: 306.0491638183594
y: 501.27850341796875
z: 0.14407595992088318
visibility: 0.9927247762680054
","x: 250.14352416992188
y: 496.7060852050781
z: 0.14578860998153687
visibility: 0.9738165736198425
","x: 307.94293212890625
y: 507.29144287109375
z: 0.15402184426784515
visibility: 0.9464728236198425
","x: 251.82684326171875
y: 503.0596618652344
z: 0.15854810178279877
visibility: 0.9135867357254028
","x: 306.9148864746094
y: 514.4535522460938
z: 0.06677816808223724
visibility: 0.9919939041137695
","x: 243.52557373046875
y: 510.7340087890625
z: 0.08084391802549362
visibility: 0.9794089794158936
","x: 297.9174499511719
y: 333.1673583984375
z: 0.0
","x: 298.50091552734375
y: 327.46343994140625
z: -0.0007242221035994589
","x: 299.7676086425781
y: 322.38043212890625
z: -0.001812248956412077
","x: 300.720703125
y: 318.2765808105469
z: -0.0033739134669303894
","x: 301.30120849609375
y: 314.90087890625
z: -0.004896094091236591
","x: 304.9718017578125
y: 322.14984130859375
z: 0.00014026250573806465
","x: 307.6387023925781
y: 318.79168701171875
z: -0.0017136792885139585
","x: 308.95172119140625
y: 316.95928955078125
z: -0.003075504209846258
","x: 310.015380859375
y: 315.3460998535156
z: -0.003991917707026005
","x: 305.63934326171875
y: 324.29864501953125
z: -0.0014332195278257132
","x: 308.7357482910156
y: 321.7546081542969
z: -0.002967452397570014
","x: 310.2503967285156
y: 320.0663757324219
z: -0.004089158494025469
","x: 311.4404602050781
y: 318.4940490722656
z: -0.005001707933843136
","x: 305.67608642578125
y: 326.91986083984375
z: -0.003406400326639414
","x: 308.79644775390625
y: 325.50811767578125
z: -0.005278021562844515
","x: 310.38275146484375
y: 324.3053894042969
z: -0.006341459229588509
","x: 311.573974609375
y: 323.10748291015625
z: -0.0070674242451786995
","x: 305.097900390625
y: 329.8744201660156
z: -0.005623182747513056
","x: 307.6697082519531
y: 330.2593994140625
z: -0.007253527641296387
","x: 309.1860046386719
y: 330.15826416015625
z: -0.007943945936858654
","x: 310.39599609375
y: 329.8331298828125
z: -0.008404037915170193
","x: 249.6934356689453
y: 319.98809814453125
z: 0.0
","x: 252.6501007080078
y: 315.78424072265625
z: 0.0001236045063706115
","x: 254.1780242919922
y: 310.5540771484375
z: 0.0004413819406181574
","x: 255.2867889404297
y: 306.88214111328125
z: 0.0003872829838655889
","x: 255.7119598388672
y: 304.9219055175781
z: 0.000593256379943341
","x: 249.78799438476562
y: 304.52099609375
z: 0.0023923369590193033
","x: 249.3184356689453
y: 298.23663330078125
z: 0.0021967163775116205
","x: 249.60960388183594
y: 296.99859619140625
z: 0.0024213013239204884
","x: 249.83164978027344
y: 297.2694091796875
z: 0.0028510175179690123
","x: 247.716064453125
y: 304.657470703125
z: 0.0017386112594977021
","x: 246.97174072265625
y: 297.4750061035156
z: 0.0017264990601688623
","x: 247.282958984375
y: 295.992919921875
z: 0.0021067694760859013
","x: 247.59649658203125
y: 296.34246826171875
z: 0.002644930500537157
","x: 245.9304656982422
y: 305.7744140625
z: 0.0007607100997120142
","x: 245.070068359375
y: 299.1754150390625
z: 0.00023844708630349487
","x: 245.1477813720703
y: 297.3592834472656
z: 0.00024813428171910346
","x: 245.36659240722656
y: 296.95599365234375
z: 0.0005714328144676983
","x: 244.42359924316406
y: 307.6407165527344
z: -0.00039444901631213725
","x: 243.2348175048828
y: 303.1280517578125
z: -0.0011298870667815208
","x: 243.0708770751953
y: 301.5965270996094
z: -0.0012750319438055158
","x: 243.2420196533203
y: 301.0140686035156
z: -0.001033781678415835
"
14,"x: 273.7808532714844
y: 280.7619934082031
z: -0.1455613523721695
visibility: 0.999733030796051
","x: 276.0990295410156
y: 276.48681640625
z: -0.14096514880657196
visibility: 0.9997542500495911
","x: 277.3876647949219
y: 276.92535400390625
z: -0.14101317524909973
visibility: 0.9997349381446838
","x: 278.6673889160156
y: 277.435791015625
z: -0.14098778367042542
visibility: 0.9997833371162415
","x: 273.0837097167969
y: 276.1336975097656
z: -0.1269976645708084
visibility: 0.9995970129966736
","x: 272.2618408203125
y: 276.2323913574219
z: -0.12699279189109802
visibility: 0.9994062781333923
","x: 271.4681091308594
y: 276.3199157714844
z: -0.12700298428535461
visibility: 0.9994975924491882
","x: 281.5999755859375
y: 281.7699890136719
z: -0.08269381523132324
visibility: 0.9996058940887451
","x: 271.6825866699219
y: 278.5179443359375
z: -0.03487075865268707
visibility: 0.998475968837738
","x: 276.3698425292969
y: 287.9091796875
z: -0.12831294536590576
visibility: 0.9992527365684509
","x: 272.2891845703125
y: 287.23199462890625
z: -0.1099173054099083
visibility: 0.9985823631286621
","x: 288.7212219238281
y: 307.54217529296875
z: -0.0971703976392746
visibility: 0.9998286366462708
","x: 266.3070983886719
y: 309.24859619140625
z: 0.03996746242046356
visibility: 0.9993556141853333
","x: 283.0788269042969
y: 336.9480895996094
z: -0.18756084144115448
visibility: 0.9394797682762146
","x: 258.1964416503906
y: 333.12420654296875
z: -0.05778468772768974
visibility: 0.6415267586708069
","x: 270.33038330078125
y: 305.136962890625
z: -0.2465166300535202
visibility: 0.9490066766738892
","x: 257.0755920410156
y: 310.214111328125
z: -0.2240777313709259
visibility: 0.7172749638557434
","x: 268.0422058105469
y: 298.80322265625
z: -0.2709331512451172
visibility: 0.9129752516746521
","x: 255.96737670898438
y: 304.85589599609375
z: -0.25097984075546265
visibility: 0.7043724656105042
","x: 268.64752197265625
y: 296.1141052246094
z: -0.2674182057380676
visibility: 0.9138240218162537
","x: 257.38580322265625
y: 303.83966064453125
z: -0.25157052278518677
visibility: 0.704675018787384
","x: 269.6715393066406
y: 298.279541015625
z: -0.24576780200004578
visibility: 0.8860173225402832
","x: 260.0104064941406
y: 304.4621887207031
z: -0.229975625872612
visibility: 0.6932845115661621
","x: 284.4349060058594
y: 388.68939208984375
z: -0.04119638353586197
visibility: 0.9998501539230347
","x: 268.7417907714844
y: 389.39105224609375
z: 0.041151709854602814
visibility: 0.9998392462730408
","x: 289.9522705078125
y: 441.71124267578125
z: -0.01829882338643074
visibility: 0.9915947318077087
","x: 258.5787353515625
y: 437.27117919921875
z: 0.06172941252589226
visibility: 0.9439670443534851
","x: 300.7909851074219
y: 497.05938720703125
z: 0.008663253858685493
visibility: 0.9932467937469482
","x: 255.2680206298828
y: 492.437744140625
z: 0.15624743700027466
visibility: 0.9760552048683167
","x: 301.82763671875
y: 503.537109375
z: 0.008278882130980492
visibility: 0.9467207193374634
","x: 257.8365478515625
y: 499.9617004394531
z: 0.16069050133228302
visibility: 0.9191675186157227
","x: 303.36279296875
y: 512.5806884765625
z: -0.08161698281764984
visibility: 0.9925159811973572
","x: 245.4502716064453
y: 508.4776306152344
z: 0.09340036660432816
visibility: 0.9808640480041504
",,,,,,,,,,,,,,,,,,,,,,,,,,,,,,,,,,,,,,,,,,
15,"x: 274.4454650878906
y: 273.07049560546875
z: -0.11081500351428986
visibility: 0.9997534155845642
","x: 277.0381774902344
y: 268.3511657714844
z: -0.10275210440158844
visibility: 0.9997716546058655
","x: 278.33319091796875
y: 268.6518249511719
z: -0.10281632840633392
visibility: 0.9997531175613403
","x: 279.5668029785156
y: 268.9685363769531
z: -0.10284872353076935
visibility: 0.9997981190681458
","x: 273.89715576171875
y: 267.9479064941406
z: -0.09390869736671448
visibility: 0.999628484249115
","x: 273.0419921875
y: 267.9549560546875
z: -0.09391849488019943
visibility: 0.9994522929191589
","x: 272.2307434082031
y: 267.922607421875
z: -0.09390054643154144
visibility: 0.9995356202125549
","x: 282.3780517578125
y: 272.18133544921875
z: -0.044399913400411606
visibility: 0.999640166759491
","x: 272.8084411621094
y: 269.92340087890625
z: -0.007958616130053997
visibility: 0.9986000061035156
","x: 276.9923400878906
y: 279.1068115234375
z: -0.0895744264125824
visibility: 0.9993215203285217
","x: 273.0040283203125
y: 278.7334289550781
z: -0.07877835631370544
visibility: 0.9987135529518127
","x: 288.3095703125
y: 299.4039611816406
z: -0.07424268126487732
visibility: 0.9998394250869751
","x: 267.1417541503906
y: 300.60357666015625
z: 0.07481498271226883
visibility: 0.9993507862091064
","x: 279.7305603027344
y: 331.13690185546875
z: -0.15863782167434692
visibility: 0.945137619972229
","x: 254.7548065185547
y: 316.73028564453125
z: 0.0053540607914328575
visibility: 0.6401569247245789
","x: 259.7226867675781
y: 317.618408203125
z: -0.23459947109222412
visibility: 0.9534175395965576
","x: 237.28199768066406
y: 310.35693359375
z: -0.21225769817829132
visibility: 0.7224988341331482
","x: 254.62606811523438
y: 314.125
z: -0.26532047986984253
visibility: 0.9200631380081177
","x: 231.48941040039062
y: 310.853515625
z: -0.2232610434293747
visibility: 0.7069958448410034
","x: 254.4375457763672
y: 311.0958251953125
z: -0.25968843698501587
visibility: 0.9207703471183777
","x: 232.7891845703125
y: 309.538818359375
z: -0.22299309074878693
visibility: 0.7086093425750732
","x: 256.5621643066406
y: 312.6395263671875
z: -0.23335357010364532
visibility: 0.894201934337616
","x: 235.682861328125
y: 310.63031005859375
z: -0.2034425288438797
visibility: 0.6982208490371704
","x: 284.1652526855469
y: 373.1361083984375
z: -0.04326319694519043
visibility: 0.9998167753219604
","x: 270.16070556640625
y: 375.0569152832031
z: 0.04322313144803047
visibility: 0.9997800588607788
","x: 282.58465576171875
y: 432.6352233886719
z: -0.07533285766839981
visibility: 0.9905750751495361
","x: 265.2354736328125
y: 433.4698791503906
z: 0.00634498056024313
visibility: 0.9355838894844055
","x: 288.0060729980469
y: 491.45794677734375
z: -0.0156727097928524
visibility: 0.992302417755127
","x: 272.00177001953125
y: 491.4921875
z: 0.07556403428316116
visibility: 0.9710835814476013
","x: 291.3604736328125
y: 498.7057189941406
z: -0.013302383944392204
visibility: 0.9387415051460266
","x: 275.0076904296875
y: 499.693115234375
z: 0.07735283672809601
visibility: 0.9083792567253113
","x: 282.93829345703125
y: 508.2773132324219
z: -0.09383447468280792
visibility: 0.9914975762367249
","x: 270.1824951171875
y: 506.93988037109375
z: 0.006756255868822336
visibility: 0.9751610159873962
",,,,,,,,,,,,,,,,,,,,,,,,,,,,,,,,,,,,,,,,,,
16,"x: 275.14691162109375
y: 278.22442626953125
z: -0.13328225910663605
visibility: 0.9997589588165283
","x: 277.52362060546875
y: 273.02618408203125
z: -0.13040480017662048
visibility: 0.9997652769088745
","x: 278.6933288574219
y: 273.14959716796875
z: -0.13052107393741608
visibility: 0.9997432827949524
","x: 279.8651123046875
y: 273.3607177734375
z: -0.13057135045528412
visibility: 0.9997779726982117
","x: 274.7289733886719
y: 272.9567565917969
z: -0.11230073124170303
visibility: 0.9996315240859985
","x: 273.97613525390625
y: 273.00518798828125
z: -0.11222847551107407
visibility: 0.9994608759880066
","x: 273.2803955078125
y: 273.03350830078125
z: -0.11230006068944931
visibility: 0.9995397925376892
","x: 282.8218078613281
y: 275.8945617675781
z: -0.08713430911302567
visibility: 0.9996144771575928
","x: 273.8134460449219
y: 275.3137512207031
z: -0.022391997277736664
visibility: 0.9986662864685059
","x: 277.44183349609375
y: 283.79168701171875
z: -0.11892968416213989
visibility: 0.9993534088134766
","x: 273.8101501464844
y: 283.84832763671875
z: -0.09743740409612656
visibility: 0.9988043308258057
","x: 289.2647705078125
y: 299.7464599609375
z: -0.09013505280017853
visibility: 0.9996739625930786
","x: 268.8548583984375
y: 301.18536376953125
z: 0.03840378671884537
visibility: 0.999363899230957
","x: 282.7790222167969
y: 348.76580810546875
z: -0.16983476281166077
visibility: 0.9440014362335205
","x: 260.3152770996094
y: 333.4591064453125
z: 0.05311548709869385
visibility: 0.6585793495178223
","x: 268.3773498535156
y: 323.38232421875
z: -0.28671014308929443
visibility: 0.9533520340919495
","x: 243.0565185546875
y: 323.32379150390625
z: -0.033080555498600006
visibility: 0.7469902038574219
","x: 255.75616455078125
y: 314.67266845703125
z: -0.3147066831588745
visibility: 0.9207908511161804
","x: 236.64535522460938
y: 321.2899169921875
z: -0.04341750591993332
visibility: 0.7314217686653137
","x: 270.55096435546875
y: 316.26422119140625
z: -0.3119099736213684
visibility: 0.9214024543762207
","x: 238.95321655273438
y: 317.5863952636719
z: -0.05636739730834961
visibility: 0.733096718788147
","x: 268.82977294921875
y: 317.2415771484375
z: -0.28808242082595825
visibility: 0.8939045071601868
","x: 240.6910858154297
y: 318.69287109375
z: -0.040843524038791656
visibility: 0.7228116989135742
","x: 283.19036865234375
y: 381.06805419921875
z: -0.03758719563484192
visibility: 0.9994648694992065
","x: 271.90960693359375
y: 384.5141296386719
z: 0.03754504397511482
visibility: 0.9995248317718506
","x: 282.3196105957031
y: 438.0194091796875
z: -0.019997909665107727
visibility: 0.9648734927177429
","x: 273.81585693359375
y: 438.0591125488281
z: 0.05456656217575073
visibility: 0.9224677681922913
","x: 284.294921875
y: 493.3441467285156
z: 0.07481086254119873
visibility: 0.9770622849464417
","x: 277.8717346191406
y: 492.3931579589844
z: 0.15197184681892395
visibility: 0.9568188190460205
","x: 285.18896484375
y: 500.3951416015625
z: 0.08087579905986786
visibility: 0.9248919486999512
","x: 279.002685546875
y: 500.6594543457031
z: 0.15840987861156464
visibility: 0.8921878337860107
","x: 283.74420166015625
y: 504.01409912109375
z: 0.017742522060871124
visibility: 0.9806846976280212
","x: 275.5960693359375
y: 504.6020202636719
z: 0.0995817482471466
visibility: 0.9629889726638794
",,,,,,,,,,,,,,,,,,,,,,,,,,,,,,,,,,,,,,,,,,
17,"x: 275.7417907714844
y: 279.1365661621094
z: -0.14026400446891785
visibility: 0.9997490048408508
","x: 277.6373596191406
y: 274.20416259765625
z: -0.13460402190685272
visibility: 0.9997349381446838
","x: 278.927490234375
y: 274.517822265625
z: -0.13471169769763947
visibility: 0.9997159838676453
","x: 280.1978454589844
y: 274.74468994140625
z: -0.13478325307369232
visibility: 0.9997425675392151
","x: 274.635009765625
y: 273.699462890625
z: -0.12165281921625137
visibility: 0.9995875954627991
","x: 273.8079528808594
y: 274.4989929199219
z: -0.12157168239355087
visibility: 0.9994057416915894
","x: 273.0169372558594
y: 275.3360595703125
z: -0.12162435054779053
visibility: 0.999454915523529
","x: 282.8771667480469
y: 277.0379333496094
z: -0.08203143626451492
visibility: 0.9996009469032288
","x: 272.8309326171875
y: 278.5303955078125
z: -0.026647094637155533
visibility: 0.9986034035682678
","x: 278.4466857910156
y: 285.9349365234375
z: -0.12155188620090485
visibility: 0.9993917346000671
","x: 274.38421630859375
y: 285.42022705078125
z: -0.10582613945007324
visibility: 0.9988757967948914
","x: 290.003173828125
y: 301.9408264160156
z: -0.07633988559246063
visibility: 0.9996607899665833
","x: 267.8876037597656
y: 310.5335693359375
z: 0.0351359024643898
visibility: 0.9993250966072083
","x: 287.4991149902344
y: 349.18218994140625
z: -0.1597202569246292
visibility: 0.9461769461631775
","x: 260.34515380859375
y: 341.4530944824219
z: 0.0007265889435075223
visibility: 0.6619933843612671
","x: 275.9603271484375
y: 320.5777587890625
z: -0.2675429582595825
visibility: 0.9540764689445496
","x: 252.58274841308594
y: 324.36871337890625
z: -0.15553145110607147
visibility: 0.7605941295623779
","x: 269.58367919921875
y: 312.7747802734375
z: -0.29410725831985474
visibility: 0.9216570258140564
","x: 249.2571258544922
y: 317.0223388671875
z: -0.17856305837631226
visibility: 0.743414580821991
","x: 276.4908447265625
y: 310.2707824707031
z: -0.2886230945587158
visibility: 0.9217260479927063
","x: 249.7634735107422
y: 315.3887939453125
z: -0.18214985728263855
visibility: 0.7445846199989319
","x: 276.2901916503906
y: 313.10504150390625
z: -0.26731249690055847
visibility: 0.8931810259819031
","x: 251.51821899414062
y: 317.5431213378906
z: -0.16220715641975403
visibility: 0.733291506767273
","x: 283.3489074707031
y: 383.2901306152344
z: -0.032945528626441956
visibility: 0.9994710087776184
","x: 271.4674987792969
y: 386.62042236328125
z: 0.03307562321424484
visibility: 0.9994986057281494
","x: 282.9639892578125
y: 439.4781799316406
z: -0.021907202899456024
visibility: 0.9643294215202332
","x: 274.5419616699219
y: 438.17584228515625
z: 0.041500601917505264
visibility: 0.9236793518066406
","x: 285.50079345703125
y: 492.8280029296875
z: 0.09777059406042099
visibility: 0.9737123847007751
","x: 278.74688720703125
y: 489.34271240234375
z: 0.17342226207256317
visibility: 0.9549933075904846
","x: 286.0835876464844
y: 499.2958068847656
z: 0.10562117397785187
visibility: 0.9014476537704468
","x: 281.3349609375
y: 497.9288330078125
z: 0.18317237496376038
visibility: 0.8826949596405029
","x: 285.75390625
y: 504.5596923828125
z: 0.02769516408443451
visibility: 0.976310133934021
","x: 276.4529113769531
y: 502.8532409667969
z: 0.11282113939523697
visibility: 0.9604406356811523
",,,,,,,,,,,,,,,,,,,,,,,,,,,,,,,,,,,,,,,,,,
18,"x: 274.2182312011719
y: 280.9979248046875
z: -0.1548512876033783
visibility: 0.9997504949569702
","x: 276.1591491699219
y: 275.58087158203125
z: -0.14868506789207458
visibility: 0.9997227191925049
","x: 277.5435485839844
y: 275.5443420410156
z: -0.14875897765159607
visibility: 0.9997069239616394
","x: 279.11077880859375
y: 275.2305908203125
z: -0.14880993962287903
visibility: 0.9997239112854004
","x: 273.5827331542969
y: 275.6771240234375
z: -0.13751834630966187
visibility: 0.9995793700218201
","x: 272.95709228515625
y: 276.4150390625
z: -0.1374979466199875
visibility: 0.9994035363197327
","x: 272.3162536621094
y: 277.15765380859375
z: -0.13753071427345276
visibility: 0.9994295239448547
","x: 282.3397216796875
y: 278.55328369140625
z: -0.09464005380868912
visibility: 0.9996029734611511
","x: 272.4217529296875
y: 280.30560302734375
z: -0.039773158729076385
visibility: 0.9985904097557068
","x: 276.8328857421875
y: 287.4068603515625
z: -0.1342238187789917
visibility: 0.9994288086891174
","x: 273.6812438964844
y: 287.47186279296875
z: -0.12029607594013214
visibility: 0.9989473819732666
","x: 289.2111511230469
y: 304.45050048828125
z: -0.0935274139046669
visibility: 0.999642550945282
","x: 266.4186096191406
y: 310.8681640625
z: 0.02897169068455696
visibility: 0.9992987513542175
","x: 286.93646240234375
y: 350.8317565917969
z: -0.18204836547374725
visibility: 0.9494937658309937
","x: 259.6876220703125
y: 343.4390869140625
z: -0.011383509263396263
visibility: 0.6605772972106934
","x: 275.34027099609375
y: 322.94427490234375
z: -0.2830039858818054
visibility: 0.9558373093605042
","x: 252.5601806640625
y: 325.9103698730469
z: -0.18869519233703613
visibility: 0.7694319486618042
","x: 270.9583740234375
y: 315.4474182128906
z: -0.3110887408256531
visibility: 0.9242116808891296
","x: 249.15802001953125
y: 318.21875
z: -0.21338064968585968
visibility: 0.7503103017807007
","x: 273.71124267578125
y: 312.1864013671875
z: -0.30553197860717773
visibility: 0.9241252541542053
","x: 250.13717651367188
y: 316.42022705078125
z: -0.21823374927043915
visibility: 0.7506892681121826
","x: 274.4724426269531
y: 314.2641296386719
z: -0.28218594193458557
visibility: 0.8947723507881165
","x: 251.35374450683594
y: 319.1561279296875
z: -0.196142315864563
visibility: 0.7372125387191772
","x: 284.5682678222656
y: 383.8562316894531
z: -0.037153810262680054
visibility: 0.999373197555542
","x: 272.57257080078125
y: 388.4056396484375
z: 0.03717964515089989
visibility: 0.999381422996521
","x: 284.3073425292969
y: 441.0784606933594
z: -0.031489476561546326
visibility: 0.9625430107116699
","x: 276.28973388671875
y: 440.08135986328125
z: 0.06274012476205826
visibility: 0.9180418848991394
","x: 285.83050537109375
y: 493.4248046875
z: 0.0775706097483635
visibility: 0.9707565307617188
","x: 278.7160949707031
y: 488.16790771484375
z: 0.1862543374300003
visibility: 0.9508451819419861
","x: 286.3687744140625
y: 499.48797607421875
z: 0.08398298919200897
visibility: 0.8915486931800842
","x: 281.9643249511719
y: 497.2427062988281
z: 0.194591224193573
visibility: 0.8779991865158081
","x: 282.6385498046875
y: 506.3359375
z: 0.003211598377674818
visibility: 0.9739201068878174
","x: 274.83807373046875
y: 503.110107421875
z: 0.12679095566272736
visibility: 0.9579458236694336
",,,,,,,,,,,,,,,,,,,,,,,,,,,,,,,,,,,,,,,,,,
19,"x: 272.3653259277344
y: 289.2107238769531
z: -0.17432446777820587
visibility: 0.9997701644897461
","x: 273.7371826171875
y: 282.31805419921875
z: -0.17357489466667175
visibility: 0.9997434020042419
","x: 274.98199462890625
y: 281.9750061035156
z: -0.17363117635250092
visibility: 0.9997302293777466
","x: 276.4670715332031
y: 281.569580078125
z: -0.1736816167831421
visibility: 0.9997434020042419
","x: 271.5268859863281
y: 282.8368225097656
z: -0.15990397334098816
visibility: 0.9996122717857361
","x: 271.04595947265625
y: 283.06549072265625
z: -0.15990613400936127
visibility: 0.9994513392448425
","x: 270.5474853515625
y: 283.26171875
z: -0.15992139279842377
visibility: 0.9994682669639587
","x: 280.73675537109375
y: 283.78277587890625
z: -0.13226397335529327
visibility: 0.9996387362480164
","x: 271.3331604003906
y: 284.9877014160156
z: -0.06985265016555786
visibility: 0.9987015724182129
","x: 274.9772033691406
y: 293.8495178222656
z: -0.15654215216636658
visibility: 0.9994779229164124
","x: 272.8974609375
y: 293.6292724609375
z: -0.13914170861244202
visibility: 0.9990330338478088
","x: 288.9200134277344
y: 311.90399169921875
z: -0.13674180209636688
visibility: 0.9996653199195862
","x: 266.9725341796875
y: 315.07379150390625
z: 0.023803170770406723
visibility: 0.999311625957489
","x: 285.2742614746094
y: 356.0576171875
z: -0.19070596992969513
visibility: 0.9529991745948792
","x: 261.86090087890625
y: 350.9783935546875
z: -0.017352072522044182
visibility: 0.6438512206077576
","x: 272.5298156738281
y: 325.0381164550781
z: -0.2301204949617386
visibility: 0.9582954049110413
","x: 258.67742919921875
y: 327.2949523925781
z: -0.1759856790304184
visibility: 0.7766461968421936
","x: 269.86468505859375
y: 317.8250427246094
z: -0.24547910690307617
visibility: 0.9279962182044983
","x: 256.6358642578125
y: 318.793212890625
z: -0.19818666577339172
visibility: 0.7562459111213684
","x: 271.27325439453125
y: 314.4380798339844
z: -0.24356451630592346
visibility: 0.927817165851593
","x: 256.5413513183594
y: 316.51019287109375
z: -0.2096560001373291
visibility: 0.7553959488868713
","x: 272.0545349121094
y: 316.44451904296875
z: -0.22710373997688293
visibility: 0.8989709615707397
","x: 258.2640380859375
y: 319.28948974609375
z: -0.1822969764471054
visibility: 0.7396060824394226
","x: 284.92303466796875
y: 390.06158447265625
z: -0.0495733767747879
visibility: 0.9993394613265991
","x: 273.6688537597656
y: 391.32391357421875
z: 0.04960639029741287
visibility: 0.9993439316749573
","x: 285.73370361328125
y: 442.05633544921875
z: -0.016644369810819626
visibility: 0.9635578989982605
","x: 275.4881896972656
y: 440.5205993652344
z: 0.11704037338495255
visibility: 0.9117618799209595
","x: 287.0876159667969
y: 493.9178771972656
z: 0.07681450247764587
visibility: 0.9712691307067871
","x: 279.228759765625
y: 489.26580810546875
z: 0.24271199107170105
visibility: 0.9473210573196411
","x: 288.29296875
y: 500.0865478515625
z: 0.08231078833341599
visibility: 0.894243061542511
","x: 282.3930969238281
y: 498.2733154296875
z: 0.25167423486709595
visibility: 0.8767945170402527
","x: 280.7220764160156
y: 507.4102478027344
z: 0.009341474622488022
visibility: 0.9748338460922241
","x: 271.8458557128906
y: 504.73138427734375
z: 0.20047709345817566
visibility: 0.9572088122367859
",,,,,,,,,,,,,,,,,,,,,,,,,,,,,,,,,,,,,,,,,,
20,"x: 269.78875732421875
y: 289.48822021484375
z: -0.1286303699016571
visibility: 0.999724268913269
","x: 271.2351379394531
y: 283.32525634765625
z: -0.12619535624980927
visibility: 0.999657928943634
","x: 272.3704528808594
y: 283.14862060546875
z: -0.1262822300195694
visibility: 0.9996515512466431
","x: 273.6814880371094
y: 282.9539794921875
z: -0.12632815539836884
visibility: 0.9996665716171265
","x: 269.0407409667969
y: 283.6891784667969
z: -0.11484215408563614
visibility: 0.999505877494812
","x: 268.5006408691406
y: 283.8792724609375
z: -0.11482413858175278
visibility: 0.9993032813072205
","x: 267.9315490722656
y: 284.08984375
z: -0.11486134678125381
visibility: 0.9992573857307434
","x: 277.78466796875
y: 285.68792724609375
z: -0.08999399840831757
visibility: 0.9995782375335693
","x: 268.64892578125
y: 286.2950744628906
z: -0.0359821692109108
visibility: 0.9983707070350647
","x: 272.5774230957031
y: 294.3468017578125
z: -0.11275609582662582
visibility: 0.9994466304779053
","x: 270.21820068359375
y: 294.6791687011719
z: -0.09836564213037491
visibility: 0.998971700668335
","x: 286.5675354003906
y: 312.1466979980469
z: -0.122818723320961
visibility: 0.9995839595794678
","x: 266.3169860839844
y: 316.27056884765625
z: 0.028965000063180923
visibility: 0.9992141127586365
","x: 282.6663513183594
y: 351.05120849609375
z: -0.16896024346351624
visibility: 0.953258216381073
","x: 261.2068786621094
y: 347.6048278808594
z: -0.019323036074638367
visibility: 0.6282511949539185
","x: 269.3846130371094
y: 321.23760986328125
z: -0.2302054613828659
visibility: 0.9588327407836914
","x: 255.64218139648438
y: 327.0025329589844
z: -0.1712746024131775
visibility: 0.7673048377037048
","x: 266.2815246582031
y: 314.2489013671875
z: -0.25073862075805664
visibility: 0.9288625121116638
","x: 253.66172790527344
y: 321.5289001464844
z: -0.1936170756816864
visibility: 0.7455596923828125
","x: 267.9933166503906
y: 310.3598327636719
z: -0.24839849770069122
visibility: 0.9284793734550476
","x: 253.62493896484375
y: 317.7288513183594
z: -0.2013322412967682
visibility: 0.7439361214637756
","x: 268.9154357910156
y: 312.4666748046875
z: -0.22871796786785126
visibility: 0.8988395929336548
","x: 255.38890075683594
y: 321.0282897949219
z: -0.17809276282787323
visibility: 0.726787805557251
","x: 285.1499938964844
y: 391.1473083496094
z: -0.02881866693496704
visibility: 0.9991855025291443
","x: 274.46826171875
y: 391.6470947265625
z: 0.028895456343889236
visibility: 0.9992222785949707
","x: 285.7372741699219
y: 442.1182861328125
z: -0.007643996737897396
visibility: 0.9584768414497375
","x: 276.5706787109375
y: 440.74560546875
z: 0.09971629828214645
visibility: 0.914117157459259
","x: 284.150634765625
y: 493.8580017089844
z: 0.08486881107091904
visibility: 0.964680552482605
","x: 278.7249450683594
y: 492.6842041015625
z: 0.13715149462223053
visibility: 0.9458038210868835
","x: 282.9700012207031
y: 500.48291015625
z: 0.08993633091449738
visibility: 0.8837041854858398
","x: 278.7297668457031
y: 501.9091796875
z: 0.1415260136127472
visibility: 0.8659868836402893
","x: 282.54144287109375
y: 505.2503967285156
z: 0.018950574100017548
visibility: 0.969476580619812
","x: 275.67437744140625
y: 508.4825439453125
z: 0.0751485675573349
visibility: 0.9533824920654297
",,,,,,,,,,,,,,,,,,,,,,,,,,,,,,,,,,,,,,,,,,
21,"x: 269.40472412109375
y: 288.1614990234375
z: -0.11512033641338348
visibility: 0.9997142553329468
","x: 271.4836120605469
y: 283.1057434082031
z: -0.11658690124750137
visibility: 0.9996306300163269
","x: 272.65765380859375
y: 283.1146545410156
z: -0.11665167659521103
visibility: 0.9996304512023926
","x: 273.9656982421875
y: 282.98162841796875
z: -0.11668957769870758
visibility: 0.9996333718299866
","x: 269.184326171875
y: 282.811767578125
z: -0.10210176557302475
visibility: 0.9994862675666809
","x: 268.61505126953125
y: 282.7944030761719
z: -0.10210418701171875
visibility: 0.9992983341217041
","x: 268.0204162597656
y: 282.788330078125
z: -0.10213414579629898
visibility: 0.9992405772209167
","x: 277.8485107421875
y: 286.873779296875
z: -0.09489552676677704
visibility: 0.9995604753494263
","x: 269.3059387207031
y: 285.924560546875
z: -0.03230297565460205
visibility: 0.9983908534049988
","x: 271.8723449707031
y: 294.2396240234375
z: -0.10654833167791367
visibility: 0.999457836151123
","x: 269.13934326171875
y: 293.7844543457031
z: -0.08816786110401154
visibility: 0.9989990592002869
","x: 286.50372314453125
y: 313.2596740722656
z: -0.11562633514404297
visibility: 0.9995356798171997
","x: 266.4737854003906
y: 318.4149475097656
z: 0.03495197370648384
visibility: 0.9992080330848694
","x: 282.8677062988281
y: 350.9923095703125
z: -0.18262121081352234
visibility: 0.9552062749862671
","x: 259.9377136230469
y: 347.78814697265625
z: 0.007632862776517868
visibility: 0.630092978477478
","x: 267.0931396484375
y: 322.13629150390625
z: -0.23053014278411865
visibility: 0.9599558711051941
","x: 254.3286590576172
y: 326.2564697265625
z: -0.11709289252758026
visibility: 0.7784772515296936
","x: 262.72186279296875
y: 314.989501953125
z: -0.2529051899909973
visibility: 0.9311931729316711
","x: 252.6197967529297
y: 317.6064758300781
z: -0.13691963255405426
visibility: 0.7552000284194946
","x: 263.6502685546875
y: 312.2421569824219
z: -0.25043946504592896
visibility: 0.9305872321128845
","x: 252.64898681640625
y: 314.808837890625
z: -0.13783200085163116
visibility: 0.753021240234375
","x: 265.2891540527344
y: 314.0679931640625
z: -0.22966428101062775
visibility: 0.9005234837532043
","x: 254.66543579101562
y: 317.72088623046875
z: -0.12224266678094864
visibility: 0.7344520092010498
","x: 285.49639892578125
y: 393.2916564941406
z: -0.038063742220401764
visibility: 0.9991706609725952
","x: 273.65838623046875
y: 392.98236083984375
z: 0.03805654123425484
visibility: 0.9992362856864929
","x: 286.376708984375
y: 446.068359375
z: -0.0005208943039178848
visibility: 0.9596595168113708
","x: 276.1451110839844
y: 442.374755859375
z: 0.08037323504686356
visibility: 0.9163730144500732
","x: 285.5390625
y: 494.1910095214844
z: 0.11690226942300797
visibility: 0.9652391672134399
","x: 278.4874267578125
y: 493.1510925292969
z: 0.1949281394481659
visibility: 0.9471672177314758
","x: 284.5876159667969
y: 500.727294921875
z: 0.12490876764059067
visibility: 0.881945013999939
","x: 279.78692626953125
y: 501.9107360839844
z: 0.20343998074531555
visibility: 0.8673076033592224
","x: 284.40936279296875
y: 505.7354431152344
z: 0.05656067281961441
visibility: 0.9699392914772034
","x: 274.1243896484375
y: 508.5263366699219
z: 0.1475512534379959
visibility: 0.9548476338386536
",,,,,,,,,,,,,,,,,,,,,,,,,,,,,,,,,,,,,,,,,,
22,"x: 271.7367858886719
y: 285.75030517578125
z: -0.1201845183968544
visibility: 0.9997298717498779
","x: 274.129150390625
y: 280.54388427734375
z: -0.1216677874326706
visibility: 0.9996439218521118
","x: 275.5890197753906
y: 280.6556091308594
z: -0.12172172218561172
visibility: 0.99964439868927
","x: 277.0190734863281
y: 280.7989501953125
z: -0.1217408999800682
visibility: 0.9996445178985596
","x: 270.8692626953125
y: 280.41180419921875
z: -0.10487653315067291
visibility: 0.9995103478431702
","x: 270.1025695800781
y: 280.5099182128906
z: -0.10487110912799835
visibility: 0.9993365406990051
","x: 269.38507080078125
y: 280.665771484375
z: -0.10503864288330078
visibility: 0.9992783069610596
","x: 279.8293762207031
y: 284.61236572265625
z: -0.08719588071107864
visibility: 0.9995915293693542
","x: 270.1944580078125
y: 284.2919006347656
z: -0.035643287003040314
visibility: 0.9984650611877441
","x: 274.70062255859375
y: 292.2384033203125
z: -0.11188991367816925
visibility: 0.9995037913322449
","x: 270.6430969238281
y: 291.90667724609375
z: -0.09367847442626953
visibility: 0.9990814924240112
","x: 287.8485107421875
y: 313.35595703125
z: -0.09619677066802979
visibility: 0.9995608329772949
","x: 266.6854553222656
y: 317.1560363769531
z: 0.03861771151423454
visibility: 0.9992077946662903
","x: 286.28118896484375
y: 354.5813293457031
z: -0.12957066297531128
visibility: 0.9583764672279358
","x: 259.97210693359375
y: 348.77294921875
z: 0.005037008784711361
visibility: 0.6239570379257202
","x: 267.7830810546875
y: 344.5433349609375
z: -0.18153178691864014
visibility: 0.9610757231712341
","x: 253.8719024658203
y: 326.7937927246094
z: -0.13358458876609802
visibility: 0.7839151620864868
","x: 263.19757080078125
y: 342.9588623046875
z: -0.20095095038414001
visibility: 0.9319358468055725
","x: 251.714111328125
y: 316.3644104003906
z: -0.15435127913951874
visibility: 0.7591671347618103
","x: 263.59381103515625
y: 336.7861633300781
z: -0.19918622076511383
visibility: 0.931163489818573
","x: 251.9306640625
y: 313.0783386230469
z: -0.1571774184703827
visibility: 0.7562175393104553
","x: 264.9835510253906
y: 336.5308837890625
z: -0.17987647652626038
visibility: 0.9000924229621887
","x: 253.76675415039062
y: 316.6103515625
z: -0.13933107256889343
visibility: 0.7355753779411316
","x: 285.17041015625
y: 392.2196044921875
z: -0.036326270550489426
visibility: 0.9991282224655151
","x: 273.02435302734375
y: 391.9088439941406
z: 0.03633520379662514
visibility: 0.9991863369941711
","x: 286.2077331542969
y: 446.529541015625
z: -0.014441919513046741
visibility: 0.9622662663459778
","x: 275.1166076660156
y: 443.5660400390625
z: 0.05802423506975174
visibility: 0.9220758080482483
","x: 286.2464294433594
y: 494.2454528808594
z: 0.09481766819953918
visibility: 0.9670811891555786
","x: 278.368896484375
y: 495.09503173828125
z: 0.17645753920078278
visibility: 0.9504377245903015
","x: 285.52203369140625
y: 500.8436584472656
z: 0.1016630083322525
visibility: 0.8779709339141846
","x: 280.48077392578125
y: 502.6287841796875
z: 0.18802934885025024
visibility: 0.870740532875061
","x: 284.5699768066406
y: 505.8782653808594
z: 0.02546529471874237
visibility: 0.9709169268608093
","x: 275.1717224121094
y: 508.7542724609375
z: 0.12498228251934052
visibility: 0.9569883346557617
",,,,,,,,,,,,,,,,,,,,,,,,,,,,,,,,,,,,,,,,,,
23,"x: 273.725830078125
y: 285.5389709472656
z: -0.12445014715194702
visibility: 0.999755322933197
","x: 275.7289733886719
y: 280.305419921875
z: -0.12528999149799347
visibility: 0.9996776580810547
","x: 277.1518859863281
y: 280.35650634765625
z: -0.1253064125776291
visibility: 0.9996780753135681
","x: 278.5560607910156
y: 280.4817810058594
z: -0.12531547248363495
visibility: 0.9996778964996338
","x: 272.5517578125
y: 280.36602783203125
z: -0.11191418021917343
visibility: 0.999556839466095
","x: 271.7621154785156
y: 280.52880859375
z: -0.11193666607141495
visibility: 0.9993996620178223
","x: 271.00360107421875
y: 280.75311279296875
z: -0.11209563910961151
visibility: 0.9993469715118408
","x: 281.3186950683594
y: 283.7323303222656
z: -0.07865694910287857
visibility: 0.9996309876441956
","x: 271.5115966796875
y: 284.11407470703125
z: -0.03367241844534874
visibility: 0.9986119866371155
","x: 276.54791259765625
y: 291.4812927246094
z: -0.11458848416805267
visibility: 0.9995521306991577
","x: 272.5064392089844
y: 291.578857421875
z: -0.09975088387727737
visibility: 0.9991710186004639
","x: 288.7109069824219
y: 313.47027587890625
z: -0.0765591710805893
visibility: 0.9995933771133423
","x: 268.32781982421875
y: 316.198486328125
z: 0.05108146741986275
visibility: 0.9992510676383972
","x: 289.9293518066406
y: 353.2119445800781
z: -0.14402702450752258
visibility: 0.9605223536491394
","x: 261.5509948730469
y: 348.59814453125
z: 0.013398532755672932
visibility: 0.6340029835700989
","x: 285.0094299316406
y: 339.8642578125
z: -0.28031134605407715
visibility: 0.962303638458252
","x: 253.76976013183594
y: 329.332275390625
z: -0.14831645786762238
visibility: 0.800065279006958
","x: 283.54913330078125
y: 338.3534240722656
z: -0.31075042486190796
visibility: 0.9343866109848022
","x: 250.31968688964844
y: 318.1577453613281
z: -0.17390558123588562
visibility: 0.7762748003005981
","x: 284.1072082519531
y: 332.4344482421875
z: -0.3130900263786316
visibility: 0.9337480068206787
","x: 251.36244201660156
y: 314.7765808105469
z: -0.18246611952781677
visibility: 0.7737190127372742
","x: 284.19696044921875
y: 333.30120849609375
z: -0.28349772095680237
visibility: 0.9030566811561584
","x: 253.0867462158203
y: 317.9604797363281
z: -0.1575096994638443
visibility: 0.7531739473342896
","x: 282.521240234375
y: 390.9629821777344
z: -0.03961951285600662
visibility: 0.9991133809089661
","x: 271.6392517089844
y: 391.01092529296875
z: 0.03959398716688156
visibility: 0.9991450905799866
","x: 283.27716064453125
y: 446.296875
z: -0.03046010434627533
visibility: 0.9633301496505737
","x: 274.74749755859375
y: 443.6632995605469
z: 0.05182812362909317
visibility: 0.9252276420593262
","x: 286.1596984863281
y: 494.40411376953125
z: 0.065617635846138
visibility: 0.968661367893219
","x: 278.5966796875
y: 496.2237548828125
z: 0.15194043517112732
visibility: 0.952308177947998
","x: 285.9135437011719
y: 500.9985046386719
z: 0.07041554152965546
visibility: 0.8804911971092224
","x: 282.98248291015625
y: 503.2349853515625
z: 0.15704582631587982
visibility: 0.8754222989082336
","x: 283.0660095214844
y: 506.5922546386719
z: -0.008795028552412987
visibility: 0.9719114303588867
","x: 274.8915710449219
y: 508.69989013671875
z: 0.08749618381261826
visibility: 0.9583701491355896
",,,,,,,,,,,,,,,,,,,,,,,,,,,,,,,,,,,,,,,,,,
24,"x: 274.2041015625
y: 285.03765869140625
z: -0.15969356894493103
visibility: 0.9997783899307251
","x: 276.2916259765625
y: 279.35546875
z: -0.15504373610019684
visibility: 0.9997077584266663
","x: 277.7916564941406
y: 279.2497863769531
z: -0.15508775413036346
visibility: 0.999708354473114
","x: 279.26544189453125
y: 279.26055908203125
z: -0.15514908730983734
visibility: 0.9997077584266663
","x: 273.02386474609375
y: 279.66265869140625
z: -0.1429997980594635
visibility: 0.9995975494384766
","x: 272.2300720214844
y: 279.8055114746094
z: -0.1430063247680664
visibility: 0.9994555115699768
","x: 271.46630859375
y: 280.0018615722656
z: -0.14305131137371063
visibility: 0.999407172203064
","x: 282.2229309082031
y: 281.9048767089844
z: -0.1043892651796341
visibility: 0.9996660947799683
","x: 272.1706848144531
y: 283.08343505859375
z: -0.04937446862459183
visibility: 0.9987455606460571
","x: 277.2467041015625
y: 290.6583251953125
z: -0.14072176814079285
visibility: 0.999596118927002
","x: 273.18017578125
y: 291.1285705566406
z: -0.12501615285873413
visibility: 0.9992514848709106
","x: 291.472900390625
y: 311.9922790527344
z: -0.107333242893219
visibility: 0.9996327757835388
","x: 268.3262634277344
y: 314.96173095703125
z: 0.04101773351430893
visibility: 0.9993188381195068
","x: 301.9753112792969
y: 338.2445068359375
z: -0.22230717539787292
visibility: 0.9643809199333191
","x: 264.2444763183594
y: 348.4564208984375
z: 0.08217120915651321
visibility: 0.6439443230628967
","x: 284.19537353515625
y: 329.74200439453125
z: -0.35225874185562134
visibility: 0.9657078385353088
","x: 251.39356994628906
y: 354.869140625
z: 0.022324953228235245
visibility: 0.8157831430435181
","x: 279.0975341796875
y: 332.3799133300781
z: -0.3844655156135559
visibility: 0.939968466758728
","x: 245.4207000732422
y: 359.73944091796875
z: 0.01644069515168667
visibility: 0.7932884693145752
","x: 278.8466796875
y: 328.74139404296875
z: -0.3708808422088623
visibility: 0.9393442273139954
","x: 245.04135131835938
y: 357.8456115722656
z: -0.006081128492951393
visibility: 0.7915045619010925
","x: 280.016845703125
y: 329.592041015625
z: -0.34865960478782654
visibility: 0.9110747575759888
","x: 246.89151000976562
y: 356.05242919921875
z: 0.011764487251639366
visibility: 0.7722245454788208
","x: 282.0566711425781
y: 390.6080322265625
z: -0.057486969977617264
visibility: 0.999199390411377
","x: 271.4957275390625
y: 390.3913879394531
z: 0.05742383748292923
visibility: 0.9992215633392334
","x: 270.810302734375
y: 440.6976013183594
z: -0.11671344935894012
visibility: 0.9655760526657104
","x: 273.6661376953125
y: 442.78997802734375
z: 0.05208315700292587
visibility: 0.9077630639076233
","x: 280.6698913574219
y: 488.76947021484375
z: -0.003960322123020887
visibility: 0.9704582095146179
","x: 286.9015808105469
y: 486.56732177734375
z: 0.1568487286567688
visibility: 0.9517040252685547
","x: 284.8385009765625
y: 491.546142578125
z: 0.0067568011581897736
visibility: 0.8903186917304993
","x: 291.76824951171875
y: 488.2150573730469
z: 0.1650027632713318
visibility: 0.8828712105751038
","x: 278.2351379394531
y: 507.01708984375
z: -0.034413255751132965
visibility: 0.9731557965278625
","x: 285.6860046386719
y: 507.9330139160156
z: 0.12427444756031036
visibility: 0.9581108093261719
",,,,,,,,,,,,,,,,,,,,,,,,,,,,,,,,,,,,,,,,,,
25,"x: 273.8638610839844
y: 289.0497131347656
z: -0.010064231231808662
visibility: 0.9997984170913696
","x: 276.0
y: 283.81805419921875
z: 0.001556537696160376
visibility: 0.9997329711914062
","x: 277.5618591308594
y: 283.955810546875
z: 0.0014999759150668979
visibility: 0.999733030796051
","x: 279.1244201660156
y: 284.1848449707031
z: 0.0014542308636009693
visibility: 0.9997338652610779
","x: 272.7792663574219
y: 283.8614807128906
z: 0.009707259945571423
visibility: 0.9996340274810791
","x: 272.01324462890625
y: 284.0292053222656
z: 0.009718773886561394
visibility: 0.9995033740997314
","x: 271.2670593261719
y: 284.2620849609375
z: 0.009771039709448814
visibility: 0.9994610548019409
","x: 282.0682067871094
y: 287.4911193847656
z: 0.053314000368118286
visibility: 0.9996955990791321
","x: 272.13153076171875
y: 287.9392395019531
z: 0.09032820165157318
visibility: 0.998856246471405
","x: 277.1709289550781
y: 294.5585021972656
z: 0.007582816295325756
visibility: 0.9996349811553955
","x: 272.8505554199219
y: 295.21435546875
z: 0.01817065104842186
visibility: 0.9993234276771545
","x: 291.4230651855469
y: 312.42449951171875
z: 0.01633784919977188
visibility: 0.9996692538261414
","x: 265.13739013671875
y: 318.18603515625
z: 0.14916463196277618
visibility: 0.9993742108345032
","x: 301.4815368652344
y: 327.9520263671875
z: -0.09627066552639008
visibility: 0.9676113724708557
