uscmakers/ReverseChoreography/data/7_levitating_dua_lipa.csv
,NOSE,LEFT_EYE_INNER,LEFT_EYE,LEFT_EYE_OUTER,RIGHT_EYE_INNER,RIGHT_EYE,RIGHT_EYE_OUTER,LEFT_EAR,RIGHT_EAR,MOUTH_LEFT,MOUTH_RIGHT,LEFT_SHOULDER,RIGHT_SHOULDER,LEFT_ELBOW,RIGHT_ELBOW,LEFT_WRIST,RIGHT_WRIST,LEFT_PINKY,RIGHT_PINKY,LEFT_INDEX,RIGHT_INDEX,LEFT_THUMB,RIGHT_THUMB,LEFT_HIP,RIGHT_HIP,LEFT_KNEE,RIGHT_KNEE,LEFT_ANKLE,RIGHT_ANKLE,LEFT_HEEL,RIGHT_HEEL,LEFT_FOOT_INDEX,RIGHT_FOOT_INDEX,WRIST,THUMB_CPC,THUMB_MCP,THUMB_IP,THUMB_TIP,INDEX_FINGER_MCP,INDEX_FINGER_PIP,INDEX_FINGER_DIP,INDEX_FINGER_TIP,MIDDLE_FINGER_MCP,MIDDLE_FINGER_PIP,MIDDLE_FINGER_DIP,MIDDLE_FINGER_TIP,RING_FINGER_PIP,RING_FINGER_DIP,RING_FINGER_TIP,RING_FINGER_MCP,PINKY_MCP,PINKY_PIP,PINKY_DIP,PINKY_TIP,WRIST2,THUMB_CPC2,THUMB_MCP2,THUMB_IP2,THUMB_TIP2,INDEX_FINGER_MCP2,INDEX_FINGER_PIP2,INDEX_FINGER_DIP2,INDEX_FINGER_TIP2,MIDDLE_FINGER_MCP2,MIDDLE_FINGER_PIP2,MIDDLE_FINGER_DIP2,MIDDLE_FINGER_TIP2,RING_FINGER_PIP2,RING_FINGER_DIP2,RING_FINGER_TIP2,RING_FINGER_MCP2,PINKY_MCP2,PINKY_PIP2,PINKY_DIP2,PINKY_TIP2
0,"x: 218.45169067382812
y: 297.8462829589844
z: -0.10417276620864868
visibility: 0.9998923540115356
","x: 219.9309844970703
y: 291.67919921875
z: -0.10535313934087753
visibility: 0.9997757077217102
","x: 220.81805419921875
y: 291.0546569824219
z: -0.10539425909519196
visibility: 0.9997853636741638
","x: 221.800048828125
y: 290.4072265625
z: -0.1054471954703331
visibility: 0.9997876286506653
","x: 218.73394775390625
y: 292.8119201660156
z: -0.09007620811462402
visibility: 0.9996715784072876
","x: 218.71615600585938
y: 292.9525451660156
z: -0.09008895605802536
visibility: 0.9996676445007324
","x: 218.75656127929688
y: 292.99676513671875
z: -0.09008821099996567
visibility: 0.999618411064148
","x: 227.75015258789062
y: 290.1976318359375
z: -0.07836338132619858
visibility: 0.9998538494110107
","x: 223.36598205566406
y: 292.41290283203125
z: -0.00643032044172287
visibility: 0.9993776679039001
","x: 222.01693725585938
y: 302.0120544433594
z: -0.09231708198785782
visibility: 0.9999175071716309
","x: 220.12850952148438
y: 302.93048095703125
z: -0.07152136415243149
visibility: 0.9997374415397644
","x: 249.47207641601562
y: 311.0934753417969
z: -0.04083133116364479
visibility: 0.9999746084213257
","x: 219.57728576660156
y: 323.3128356933594
z: 0.04140118509531021
visibility: 0.9997718930244446
","x: 267.9026184082031
y: 331.6134033203125
z: -0.07545126974582672
visibility: 0.9907536506652832
","x: 215.38668823242188
y: 357.8446960449219
z: 0.029009783640503883
visibility: 0.8410481810569763
","x: 282.3493347167969
y: 346.7342834472656
z: -0.1774335652589798
visibility: 0.9737208485603333
","x: 218.20782470703125
y: 373.9595031738281
z: -0.11407079547643661
visibility: 0.9075050950050354
","x: 287.71728515625
y: 352.7855224609375
z: -0.20306627452373505
visibility: 0.9504457116127014
","x: 218.35696411132812
y: 376.97442626953125
z: -0.13711588084697723
visibility: 0.8708264231681824
","x: 285.4703369140625
y: 352.79656982421875
z: -0.2211388647556305
visibility: 0.9558020234107971
","x: 217.8778839111328
y: 370.34722900390625
z: -0.15578162670135498
visibility: 0.8788133263587952
","x: 283.1722106933594
y: 351.3421936035156
z: -0.1866162121295929
visibility: 0.9380431771278381
","x: 219.2951202392578
y: 370.31182861328125
z: -0.12559261918067932
visibility: 0.8437944054603577
","x: 252.63156127929688
y: 397.3782653808594
z: -0.020519958809018135
visibility: 0.9999504089355469
","x: 233.56549072265625
y: 400.400146484375
z: 0.02061273530125618
visibility: 0.9998670816421509
","x: 265.975830078125
y: 443.39971923828125
z: -0.19595877826213837
visibility: 0.9983841180801392
","x: 221.33702087402344
y: 449.6212463378906
z: -0.019507357850670815
visibility: 0.996927797794342
","x: 265.0144348144531
y: 501.6776123046875
z: -0.09295616298913956
visibility: 0.9967682361602783
","x: 212.15647888183594
y: 505.61053466796875
z: 0.09038165211677551
visibility: 0.9967600703239441
","x: 262.441650390625
y: 508.02532958984375
z: -0.08752811700105667
visibility: 0.9707565307617188
","x: 215.66546630859375
y: 516.5775146484375
z: 0.09650901705026627
visibility: 0.9714217782020569
","x: 272.5445861816406
y: 526.1807861328125
z: -0.18241247534751892
visibility: 0.9939926266670227
","x: 198.30319213867188
y: 518.5968627929688
z: 0.024095743894577026
visibility: 0.9938352108001709
",,,,,,,,,,,,,,,,,,,,,,,,,,,,,,,,,,,,,,,,,,
1,"x: 258.4515686035156
y: 284.2016296386719
z: -0.21407124400138855
visibility: 0.9999020099639893
","x: 260.2097473144531
y: 279.83868408203125
z: -0.19571851193904877
visibility: 0.9997942447662354
","x: 261.2347717285156
y: 280.32696533203125
z: -0.1956675946712494
visibility: 0.9998013973236084
","x: 262.2315368652344
y: 280.72174072265625
z: -0.19563829898834229
visibility: 0.9998013973236084
","x: 257.203125
y: 278.161865234375
z: -0.20328426361083984
visibility: 0.9997020363807678
","x: 255.97303771972656
y: 277.583984375
z: -0.20334458351135254
visibility: 0.99969881772995
","x: 254.67279052734375
y: 277.0982666015625
z: -0.20339040458202362
visibility: 0.9996544122695923
","x: 262.8206481933594
y: 283.1402587890625
z: -0.09222546964883804
visibility: 0.9998605847358704
","x: 251.519287109375
y: 280.0113220214844
z: -0.130100280046463
visibility: 0.9994364380836487
","x: 259.78277587890625
y: 289.69378662109375
z: -0.1751529723405838
visibility: 0.999923050403595
","x: 255.682861328125
y: 288.8830261230469
z: -0.1863645613193512
visibility: 0.999762773513794
","x: 269.1671447753906
y: 312.9391784667969
z: -0.025972211733460426
visibility: 0.9999540448188782
","x: 240.02442932128906
y: 309.6297607421875
z: -0.09667356312274933
visibility: 0.9997919201850891
","x: 278.4247131347656
y: 345.17474365234375
z: 0.007304642349481583
visibility: 0.9802212119102478
","x: 225.92042541503906
y: 335.8975830078125
z: -0.21767660975456238
visibility: 0.8568773865699768
","x: 292.66705322265625
y: 356.8212585449219
z: -0.07865945994853973
visibility: 0.9714406728744507
","x: 234.25338745117188
y: 333.3483581542969
z: -0.3894624412059784
visibility: 0.9165398478507996
","x: 296.4545593261719
y: 361.0824279785156
z: -0.09540294110774994
visibility: 0.9475374221801758
","x: 237.11805725097656
y: 333.4843444824219
z: -0.42464694380760193
visibility: 0.8829038143157959
","x: 297.2649841308594
y: 359.8708801269531
z: -0.119145467877388
visibility: 0.9532920122146606
","x: 238.81906127929688
y: 330.1292724609375
z: -0.4196954667568207
visibility: 0.8900659680366516
","x: 295.9014587402344
y: 358.70343017578125
z: -0.09028731286525726
visibility: 0.9361931085586548
","x: 238.33383178710938
y: 330.5041809082031
z: -0.39066606760025024
visibility: 0.8580536842346191
","x: 269.6024169921875
y: 388.8656005859375
z: 0.023694626986980438
visibility: 0.9999279975891113
","x: 253.91824340820312
y: 394.2907409667969
z: -0.02369765378534794
visibility: 0.9998600482940674
","x: 277.0318298339844
y: 434.8434753417969
z: -0.12290360778570175
visibility: 0.998273491859436
","x: 257.23870849609375
y: 449.3573303222656
z: -0.030160149559378624
visibility: 0.9967864751815796
","x: 271.7823486328125
y: 466.361572265625
z: 0.11137013137340546
visibility: 0.9942072033882141
","x: 254.26791381835938
y: 503.6951904296875
z: 0.12385016679763794
visibility: 0.9965711832046509
","x: 267.9153747558594
y: 469.109130859375
z: 0.13333800435066223
visibility: 0.9670341610908508
","x: 252.59503173828125
y: 511.3002014160156
z: 0.13568396866321564
visibility: 0.967154324054718
","x: 279.542724609375
y: 491.7602844238281
z: 0.07599667459726334
visibility: 0.9927358031272888
","x: 261.8262023925781
y: 518.8621215820312
z: 0.04277860373258591
visibility: 0.9934073090553284
",,,,,,,,,,,,,,,,,,,,,,,,,,,,,,,,,,,,,,,,,,
2,"x: 262.6104736328125
y: 283.2897644042969
z: -0.1904100775718689
visibility: 0.9999074935913086
","x: 263.99468994140625
y: 278.31317138671875
z: -0.17402783036231995
visibility: 0.999801516532898
","x: 265.0218200683594
y: 278.5827331542969
z: -0.174021378159523
visibility: 0.9998031258583069
","x: 266.0316162109375
y: 278.8592224121094
z: -0.17399881780147552
visibility: 0.9998008608818054
","x: 260.8326721191406
y: 277.4603576660156
z: -0.18377020955085754
visibility: 0.9997236728668213
","x: 259.6155700683594
y: 277.1512451171875
z: -0.1838170439004898
visibility: 0.9997207522392273
","x: 258.30523681640625
y: 276.86322021484375
z: -0.18388548493385315
visibility: 0.9996798038482666
","x: 266.311279296875
y: 281.9896545410156
z: -0.08210162818431854
visibility: 0.9997937083244324
","x: 255.59097290039062
y: 279.43353271484375
z: -0.12588977813720703
visibility: 0.9994821548461914
","x: 264.0005798339844
y: 289.1092834472656
z: -0.15395255386829376
visibility: 0.9999207854270935
","x: 260.0921325683594
y: 288.6814270019531
z: -0.16775713860988617
visibility: 0.9997825026512146
","x: 273.8260192871094
y: 316.0708923339844
z: 0.0015992441913112998
visibility: 0.9999338388442993
","x: 244.7792510986328
y: 309.0697937011719
z: -0.10387583076953888
visibility: 0.9998098015785217
","x: 283.8150939941406
y: 352.73260498046875
z: 0.05161479115486145
visibility: 0.9693161845207214
","x: 238.85104370117188
y: 343.2318115234375
z: -0.18061602115631104
visibility: 0.8705630302429199
","x: 296.00909423828125
y: 375.85894775390625
z: -0.019763298332691193
visibility: 0.9653064608573914
","x: 252.0957794189453
y: 351.00146484375
z: -0.316668301820755
visibility: 0.9237163662910461
","x: 301.2135009765625
y: 383.6671447753906
z: -0.035744938999414444
visibility: 0.9384760856628418
","x: 256.9422302246094
y: 352.6228332519531
z: -0.3501659035682678
visibility: 0.8920765519142151
","x: 302.16253662109375
y: 382.2701721191406
z: -0.05978203937411308
visibility: 0.9455173015594482
","x: 259.8170166015625
y: 346.7181701660156
z: -0.35745447874069214
visibility: 0.8984667062759399
","x: 300.2966613769531
y: 380.1578369140625
z: -0.03174394741654396
visibility: 0.9282805919647217
","x: 258.4692077636719
y: 347.8221130371094
z: -0.3214796185493469
visibility: 0.868011474609375
","x: 273.1898498535156
y: 390.6277770996094
z: 0.0314406082034111
visibility: 0.9999291896820068
","x: 256.9796447753906
y: 395.14501953125
z: -0.031427353620529175
visibility: 0.9998646974563599
","x: 279.1180725097656
y: 441.43572998046875
z: 0.008349590003490448
visibility: 0.9955546259880066
","x: 259.9154052734375
y: 449.38409423828125
z: 0.055015385150909424
visibility: 0.9947940111160278
","x: 283.6930847167969
y: 498.6783142089844
z: 0.07405438274145126
visibility: 0.9928932785987854
","x: 258.3174133300781
y: 501.3316345214844
z: 0.23308055102825165
visibility: 0.9947435259819031
","x: 282.5106506347656
y: 513.60498046875
z: 0.07617456465959549
visibility: 0.9657676815986633
","x: 257.8538513183594
y: 507.9116516113281
z: 0.2453751564025879
visibility: 0.9567406177520752
","x: 294.4212951660156
y: 505.691650390625
z: -0.01548771746456623
visibility: 0.9920386672019958
","x: 261.91290283203125
y: 518.8682250976562
z: 0.15665140748023987
visibility: 0.9915207624435425
",,,,,,,,,,,,,,,,,,,,,,,,,,,,,,,,,,,,,,,,,,
3,"x: 269.78985595703125
y: 285.3310852050781
z: -0.21534638106822968
visibility: 0.9999135136604309
","x: 270.94482421875
y: 280.2389221191406
z: -0.20115458965301514
visibility: 0.9998079538345337
","x: 272.0196533203125
y: 280.3585510253906
z: -0.20120494067668915
visibility: 0.9998079538345337
","x: 273.10479736328125
y: 280.4696960449219
z: -0.2012161910533905
visibility: 0.9998001456260681
","x: 267.93865966796875
y: 279.92852783203125
z: -0.20846137404441833
visibility: 0.9997398257255554
","x: 266.80194091796875
y: 279.85003662109375
z: -0.20847995579242706
visibility: 0.9997358322143555
","x: 265.6037292480469
y: 279.7683410644531
z: -0.20854416489601135
visibility: 0.9996924996376038
","x: 273.88970947265625
y: 283.20257568359375
z: -0.11025045812129974
visibility: 0.9997344017028809
","x: 263.42108154296875
y: 281.9910888671875
z: -0.14651793241500854
visibility: 0.9995155930519104
","x: 271.70745849609375
y: 291.04791259765625
z: -0.18131445348262787
visibility: 0.9999217987060547
","x: 268.05291748046875
y: 290.96551513671875
z: -0.1914897859096527
visibility: 0.9997998476028442
","x: 282.2540283203125
y: 318.5113525390625
z: -0.03296599164605141
visibility: 0.9999351501464844
","x: 251.89759826660156
y: 312.1435241699219
z: -0.10788668692111969
visibility: 0.9998261332511902
","x: 289.465576171875
y: 356.21954345703125
z: -0.0331403911113739
visibility: 0.9635764956474304
","x: 248.64598083496094
y: 355.4906921386719
z: -0.14166490733623505
visibility: 0.8817098140716553
","x: 302.4243469238281
y: 368.96380615234375
z: -0.20033101737499237
visibility: 0.9666969180107117
","x: 251.70704650878906
y: 387.4403076171875
z: -0.2604547142982483
visibility: 0.9294023513793945
","x: 307.47808837890625
y: 367.7337646484375
z: -0.23194046318531036
visibility: 0.9418032765388489
","x: 251.47764587402344
y: 399.4166259765625
z: -0.2887099087238312
visibility: 0.899715006351471
","x: 307.53680419921875
y: 359.9200744628906
z: -0.2518391013145447
visibility: 0.9485957622528076
","x: 253.5862274169922
y: 398.487060546875
z: -0.308133065700531
visibility: 0.905748188495636
","x: 305.8072814941406
y: 360.1739501953125
z: -0.21302466094493866
visibility: 0.931865930557251
","x: 254.32858276367188
y: 393.69677734375
z: -0.27023229002952576
visibility: 0.8773255944252014
","x: 276.4659729003906
y: 401.5975341796875
z: 0.02363656833767891
visibility: 0.9999306201934814
","x: 261.39923095703125
y: 402.64208984375
z: -0.02366832084953785
visibility: 0.99986732006073
","x: 281.8316955566406
y: 456.0415344238281
z: 0.021855250000953674
visibility: 0.9928025007247925
","x: 260.0979919433594
y: 458.29296875
z: 0.07886939495801926
visibility: 0.9921615719795227
","x: 291.50372314453125
y: 510.20318603515625
z: 0.11022011190652847
visibility: 0.9917389154434204
","x: 258.2853088378906
y: 501.7315368652344
z: 0.2916083037853241
visibility: 0.9901841878890991
","x: 290.39404296875
y: 521.2255249023438
z: 0.11424507200717926
visibility: 0.9627634882926941
","x: 257.45086669921875
y: 509.1041259765625
z: 0.30784252285957336
visibility: 0.9386723637580872
","x: 304.84490966796875
y: 510.2005310058594
z: 0.02566729485988617
visibility: 0.9907052516937256
","x: 261.4981689453125
y: 519.0506591796875
z: 0.22968801856040955
visibility: 0.986602246761322
",,,,,,,,,,,,,,,,,,,,,,,,,,,,,,,,,,,,,,,,,,
4,"x: 277.56890869140625
y: 286.67230224609375
z: -0.1750398427248001
visibility: 0.9999194741249084
","x: 278.6966552734375
y: 281.800048828125
z: -0.18870529532432556
visibility: 0.9998193979263306
","x: 279.52093505859375
y: 281.68634033203125
z: -0.18899700045585632
visibility: 0.9998180270195007
","x: 280.349365234375
y: 281.42974853515625
z: -0.18909499049186707
visibility: 0.9998101592063904
","x: 275.6128234863281
y: 281.4710388183594
z: -0.16313718259334564
visibility: 0.9997599124908447
","x: 274.24737548828125
y: 281.231201171875
z: -0.16315962374210358
visibility: 0.9997546672821045
","x: 272.880859375
y: 280.99365234375
z: -0.16319352388381958
visibility: 0.9997149705886841
","x: 279.9490966796875
y: 283.8808898925781
z: -0.055832285434007645
visibility: 0.9997194409370422
","x: 269.37127685546875
y: 283.0255432128906
z: -0.09863691031932831
visibility: 0.9995608925819397
","x: 278.34051513671875
y: 292.0270080566406
z: -0.15078547596931458
visibility: 0.9999238848686218
","x: 274.5141296386719
y: 291.33953857421875
z: -0.14578574895858765
visibility: 0.9998177886009216
","x: 284.91229248046875
y: 317.7974853515625
z: -0.0005678398301824927
visibility: 0.999936044216156
","x: 255.29737854003906
y: 312.80206298828125
z: -0.054520897567272186
visibility: 0.9998415112495422
","x: 295.001708984375
y: 355.3815002441406
z: -0.06815909594297409
visibility: 0.965276300907135
","x: 247.4112548828125
y: 353.2430419921875
z: -0.0307800080627203
visibility: 0.8906041383743286
","x: 295.2523498535156
y: 308.71435546875
z: -0.22810468077659607
visibility: 0.9680500626564026
","x: 250.0143280029297
y: 382.42535400390625
z: -0.04784885793924332
visibility: 0.9246708154678345
","x: 288.4588623046875
y: 296.174560546875
z: -0.26075637340545654
visibility: 0.9422194957733154
","x: 251.0680694580078
y: 393.6965637207031
z: -0.057852644473314285
visibility: 0.8888713121414185
","x: 288.0361022949219
y: 293.2203369140625
z: -0.25760117173194885
visibility: 0.9481329917907715
","x: 253.65704345703125
y: 390.9754638671875
z: -0.07640884071588516
visibility: 0.8941043019294739
","x: 289.03216552734375
y: 296.9164733886719
z: -0.23175910115242004
visibility: 0.9303178191184998
","x: 253.7420654296875
y: 386.8114013671875
z: -0.0542493537068367
visibility: 0.8641521334648132
","x: 278.1408386230469
y: 401.4581298828125
z: 0.022427964955568314
visibility: 0.9999322891235352
","x: 260.70013427734375
y: 402.54144287109375
z: -0.022440820932388306
visibility: 0.9998728632926941
","x: 283.4264831542969
y: 457.5445251464844
z: 0.002739300951361656
visibility: 0.991523265838623
","x: 259.904296875
y: 456.4799499511719
z: 0.0033989001531153917
visibility: 0.9921146631240845
","x: 292.3970031738281
y: 514.6118774414062
z: 0.06026364117860794
visibility: 0.9912393689155579
","x: 259.734130859375
y: 501.9815673828125
z: 0.22858378291130066
visibility: 0.9891026020050049
","x: 290.6920166015625
y: 527.9547119140625
z: 0.06192343682050705
visibility: 0.9620391726493835
","x: 259.55059814453125
y: 509.1161804199219
z: 0.2234739065170288
visibility: 0.9297645092010498
","x: 307.7978210449219
y: 512.400146484375
z: -0.024066004902124405
visibility: 0.9900940656661987
","x: 261.1951599121094
y: 519.0558471679688
z: 0.15569938719272614
visibility: 0.9851770401000977
",,,,,,,,,,,,,,,,,,,,,,,,,,,,,,,,,,,,,,,,,,
5,"x: 273.57659912109375
y: 287.2387390136719
z: -0.19147221744060516
visibility: 0.9999240040779114
","x: 275.3328857421875
y: 282.0130310058594
z: -0.18163800239562988
visibility: 0.9998282790184021
","x: 276.55047607421875
y: 282.08526611328125
z: -0.1817058026790619
visibility: 0.9998267292976379
","x: 277.7852783203125
y: 282.0338134765625
z: -0.1817537099123001
visibility: 0.9998176693916321
","x: 271.87109375
y: 281.0478820800781
z: -0.1806940734386444
visibility: 0.9997760057449341
","x: 270.5633239746094
y: 280.6207580566406
z: -0.18067456781864166
visibility: 0.9997689723968506
","x: 269.2377624511719
y: 280.29547119140625
z: -0.1806771606206894
visibility: 0.9997307658195496
","x: 279.39276123046875
y: 284.4045715332031
z: -0.09133649617433548
visibility: 0.9997223615646362
","x: 266.3354797363281
y: 282.80816650390625
z: -0.10470615327358246
visibility: 0.9995995759963989
","x: 275.31890869140625
y: 292.6822204589844
z: -0.16025234758853912
visibility: 0.9999265670776367
","x: 271.1267395019531
y: 291.93609619140625
z: -0.1618129312992096
visibility: 0.9998332858085632
","x: 286.5850830078125
y: 317.421630859375
z: -0.046424709260463715
visibility: 0.9999375343322754
","x: 256.3096008300781
y: 313.39971923828125
z: -0.044963277876377106
visibility: 0.9998524785041809
","x: 299.02490234375
y: 343.84844970703125
z: -0.1441006064414978
visibility: 0.9682918787002563
","x: 247.3931121826172
y: 352.4825439453125
z: 0.010803714394569397
visibility: 0.8948280215263367
","x: 287.4474792480469
y: 302.8308410644531
z: -0.2873259484767914
visibility: 0.9699087142944336
","x: 249.33599853515625
y: 381.784912109375
z: 0.0063892812468111515
visibility: 0.9121598601341248
","x: 281.3392028808594
y: 292.27117919921875
z: -0.3195078372955322
visibility: 0.9433238506317139
","x: 250.74334716796875
y: 393.4736633300781
z: 0.00038341048639267683
visibility: 0.8673599362373352
","x: 280.56549072265625
y: 289.53985595703125
z: -0.3102577030658722
visibility: 0.9481858015060425
","x: 253.0665283203125
y: 391.05523681640625
z: -0.017101885750889778
visibility: 0.8716674447059631
","x: 281.4910888671875
y: 293.1835632324219
z: -0.287544310092926
visibility: 0.9293304085731506
","x: 252.97659301757812
y: 387.0716857910156
z: 0.00048300219350494444
visibility: 0.8404948115348816
","x: 276.4725646972656
y: 402.45751953125
z: 0.019079048186540604
visibility: 0.99993497133255
","x: 258.57373046875
y: 402.138671875
z: -0.019244512543082237
visibility: 0.9998759031295776
","x: 283.52545166015625
y: 458.9175109863281
z: 0.02101517841219902
visibility: 0.9914261698722839
","x: 258.1631774902344
y: 456.41290283203125
z: 0.06658706068992615
visibility: 0.9920543432235718
","x: 291.67071533203125
y: 512.3731079101562
z: 0.10221902281045914
visibility: 0.9913718700408936
","x: 260.4662170410156
y: 502.0971984863281
z: 0.23928403854370117
visibility: 0.9888613820075989
","x: 291.1972961425781
y: 525.0617065429688
z: 0.10605140030384064
visibility: 0.960582435131073
","x: 261.65704345703125
y: 508.7576599121094
z: 0.2512161135673523
visibility: 0.9252849221229553
","x: 298.4286804199219
y: 518.8781127929688
z: 0.013889851979911327
visibility: 0.9899360537528992
","x: 260.3354187011719
y: 519.1676025390625
z: 0.17211531102657318
visibility: 0.98482745885849
",,,,,,,,,,,,,,,,,,,,,,,,,,,,,,,,,,,,,,,,,,
6,"x: 266.1852722167969
y: 285.63177490234375
z: -0.1748553216457367
visibility: 0.999911904335022
","x: 266.4762268066406
y: 280.8570556640625
z: -0.16915416717529297
visibility: 0.9998211860656738
","x: 267.45281982421875
y: 280.93603515625
z: -0.1692221760749817
visibility: 0.999822735786438
","x: 268.43572998046875
y: 280.9857482910156
z: -0.1692931205034256
visibility: 0.999813437461853
","x: 264.2729797363281
y: 280.9537658691406
z: -0.18023058772087097
visibility: 0.9997545480728149
","x: 263.5331115722656
y: 281.01544189453125
z: -0.180049866437912
visibility: 0.9997356534004211
","x: 262.6842041015625
y: 281.0239562988281
z: -0.17994746565818787
visibility: 0.9996932744979858
","x: 270.9977111816406
y: 283.95123291015625
z: -0.12964293360710144
visibility: 0.9997307658195496
","x: 262.33282470703125
y: 283.3448486328125
z: -0.05748221278190613
visibility: 0.9995658993721008
","x: 268.89434814453125
y: 290.7208557128906
z: -0.1528630554676056
visibility: 0.9999123811721802
","x: 265.6885681152344
y: 291.2096862792969
z: -0.14787621796131134
visibility: 0.9998049736022949
","x: 280.13262939453125
y: 316.82086181640625
z: -0.13513049483299255
visibility: 0.9999371767044067
","x: 262.34124755859375
y: 313.65850830078125
z: 0.04114072397351265
visibility: 0.9998242259025574
","x: 291.949951171875
y: 353.47833251953125
z: -0.2646350562572479
visibility: 0.970628023147583
","x: 258.9335021972656
y: 352.5326843261719
z: 0.03064168058335781
visibility: 0.8213385939598083
","x: 281.8454895019531
y: 319.7073059082031
z: -0.3767617344856262
visibility: 0.9682515263557434
","x: 257.62127685546875
y: 366.9283752441406
z: -0.09133406728506088
visibility: 0.8566169738769531
","x: 279.5484313964844
y: 309.65679931640625
z: -0.4121665358543396
visibility: 0.941161572933197
","x: 256.7986755371094
y: 371.5006103515625
z: -0.10757386684417725
visibility: 0.8216230273246765
","x: 279.3262939453125
y: 307.4454040527344
z: -0.3972177803516388
visibility: 0.9451885223388672
","x: 257.41864013671875
y: 367.80810546875
z: -0.1241927295923233
visibility: 0.825961172580719
","x: 279.56158447265625
y: 311.1078796386719
z: -0.3733130097389221
visibility: 0.9232914447784424
","x: 258.0101623535156
y: 366.4692687988281
z: -0.10029617697000504
visibility: 0.795506477355957
","x: 272.4431457519531
y: 399.3270263671875
z: -0.0700441524386406
visibility: 0.999921441078186
","x: 263.9336853027344
y: 395.9426574707031
z: 0.07013638317584991
visibility: 0.9998372793197632
","x: 263.5360412597656
y: 457.1546936035156
z: -0.11065375804901123
visibility: 0.9877979159355164
","x: 258.619140625
y: 451.1816711425781
z: 0.05144057795405388
visibility: 0.9472132921218872
","x: 282.7353820800781
y: 511.62158203125
z: -0.07567458599805832
visibility: 0.9905772805213928
","x: 266.86798095703125
y: 501.9598693847656
z: 0.15233002603054047
visibility: 0.9672747254371643
","x: 285.1973571777344
y: 516.800048828125
z: -0.07446981221437454
visibility: 0.9616315960884094
","x: 271.1632080078125
y: 509.0496520996094
z: 0.1565745621919632
visibility: 0.9153711199760437
","x: 269.32086181640625
y: 519.7584838867188
z: -0.1446518898010254
visibility: 0.988966703414917
","x: 258.239990234375
y: 518.2059936523438
z: 0.10425297170877457
visibility: 0.9706197381019592
",,,,,,,,,,,,,,,,,,,,,,,,,,,,,,,,,,,,,,,,,,
7,"x: 264.5167236328125
y: 285.75604248046875
z: -0.16338984668254852
visibility: 0.999846339225769
","x: 266.0000915527344
y: 281.1048583984375
z: -0.16296011209487915
visibility: 0.9997552037239075
","x: 267.00689697265625
y: 281.308349609375
z: -0.16301444172859192
visibility: 0.9997538924217224
","x: 268.07073974609375
y: 281.4721374511719
z: -0.16307242214679718
visibility: 0.999728798866272
","x: 263.8943176269531
y: 281.1070556640625
z: -0.14858080446720123
visibility: 0.9996882677078247
","x: 263.3974914550781
y: 281.26416015625
z: -0.14847847819328308
visibility: 0.9996429085731506
","x: 262.8526306152344
y: 281.3716735839844
z: -0.14847007393836975
visibility: 0.9995875358581543
","x: 271.4289245605469
y: 284.5917053222656
z: -0.1368914693593979
visibility: 0.9996510148048401
","x: 264.6112976074219
y: 283.59423828125
z: -0.041609976440668106
visibility: 0.9993991851806641
","x: 266.9195861816406
y: 291.38726806640625
z: -0.14687713980674744
visibility: 0.9997217059135437
","x: 263.995361328125
y: 291.5047912597656
z: -0.12242009490728378
visibility: 0.9995616674423218
","x: 276.96697998046875
y: 316.76129150390625
z: -0.16640155017375946
visibility: 0.9999169111251831
","x: 273.1313781738281
y: 313.5378723144531
z: 0.07732270658016205
visibility: 0.9997457265853882
","x: 271.9813537597656
y: 355.51202392578125
z: -0.2262585610151291
visibility: 0.9639542102813721
","x: 268.9016418457031
y: 353.34161376953125
z: 0.13829420506954193
visibility: 0.7424861192703247
","x: 264.14422607421875
y: 374.3525695800781
z: -0.26975125074386597
visibility: 0.9432416558265686
","x: 262.0632019042969
y: 375.1039123535156
z: 0.08774115145206451
visibility: 0.7814662456512451
","x: 263.23077392578125
y: 380.3608703613281
z: -0.2976999282836914
visibility: 0.9168638586997986
","x: 260.2962646484375
y: 381.9696044921875
z: 0.0901365578174591
visibility: 0.7549623847007751
","x: 262.93695068359375
y: 377.0118408203125
z: -0.29845261573791504
visibility: 0.920502245426178
","x: 259.3516845703125
y: 380.080322265625
z: 0.06501271575689316
visibility: 0.7593830823898315
","x: 263.5430908203125
y: 375.8984680175781
z: -0.2714138627052307
visibility: 0.8927580118179321
","x: 260.150146484375
y: 378.09332275390625
z: 0.07644261419773102
visibility: 0.7314403057098389
","x: 270.2755126953125
y: 400.3199768066406
z: -0.08552418649196625
visibility: 0.9998821020126343
","x: 271.2786865234375
y: 396.48138427734375
z: 0.08558168262243271
visibility: 0.9997425675392151
","x: 258.25408935546875
y: 456.62286376953125
z: -0.0881960317492485
visibility: 0.9873809814453125
","x: 261.0769958496094
y: 451.222900390625
z: 0.14616331458091736
visibility: 0.9116378426551819
","x: 273.1736145019531
y: 513.064208984375
z: -0.03846319019794464
visibility: 0.9902133941650391
","x: 269.7953796386719
y: 502.9312744140625
z: 0.22844469547271729
visibility: 0.9529702663421631
","x: 282.3258972167969
y: 519.2383422851562
z: -0.035694368183612823
visibility: 0.9646470546722412
","x: 273.4087829589844
y: 511.655029296875
z: 0.233686164021492
visibility: 0.9131343364715576
","x: 260.71551513671875
y: 523.66748046875
z: -0.10547041893005371
visibility: 0.9878324270248413
","x: 258.60595703125
y: 518.0383911132812
z: 0.20753976702690125
visibility: 0.9580618739128113
",,,,,,,,,,,,,,,,,,,,,,,,,,,,,,,,,,,,,,,,,,
8,"x: 265.7908020019531
y: 279.2234191894531
z: -0.10415073484182358
visibility: 0.9998598098754883
","x: 267.53240966796875
y: 273.5324401855469
z: -0.09587083011865616
visibility: 0.999776303768158
","x: 268.7400207519531
y: 273.403076171875
z: -0.09593509137630463
visibility: 0.9997751712799072
","x: 270.0400085449219
y: 273.3553466796875
z: -0.095962755382061
visibility: 0.9997532963752747
","x: 264.8021545410156
y: 273.7537841796875
z: -0.08372710645198822
visibility: 0.9997142553329468
","x: 264.0462341308594
y: 273.79833984375
z: -0.08370237052440643
visibility: 0.9996711611747742
","x: 263.2785949707031
y: 273.9142150878906
z: -0.08367494493722916
visibility: 0.9996221661567688
","x: 272.7838439941406
y: 275.5270080566406
z: -0.0421416312456131
visibility: 0.9996824264526367
","x: 263.5025939941406
y: 275.8564453125
z: 0.014950287528336048
visibility: 0.9994471669197083
","x: 268.0729064941406
y: 283.85809326171875
z: -0.08360125869512558
visibility: 0.9997464418411255
","x: 264.7623596191406
y: 284.83001708984375
z: -0.06725434958934784
visibility: 0.9995981454849243
","x: 278.7582092285156
y: 298.3854064941406
z: -0.10732145607471466
visibility: 0.9999246001243591
","x: 260.9292297363281
y: 306.7926940917969
z: 0.1047842726111412
visibility: 0.9997426271438599
","x: 272.7744140625
y: 319.2855224609375
z: -0.1952361762523651
visibility: 0.9671959280967712
","x: 253.76919555664062
y: 330.8216552734375
z: 0.09967832267284393
visibility: 0.7256606817245483
","x: 254.18875122070312
y: 323.72943115234375
z: -0.2912291884422302
visibility: 0.9484543800354004
","x: 252.5528564453125
y: 364.89373779296875
z: -0.004544123075902462
visibility: 0.7818049192428589
","x: 250.41683959960938
y: 327.50506591796875
z: -0.32635074853897095
visibility: 0.9241500496864319
","x: 253.539794921875
y: 374.4366149902344
z: -0.02399764209985733
visibility: 0.7555304765701294
","x: 248.89248657226562
y: 325.9220886230469
z: -0.3203407824039459
visibility: 0.9273421764373779
","x: 252.4015350341797
y: 371.97265625
z: -0.03792303055524826
visibility: 0.760308563709259
","x: 250.9908447265625
y: 325.25836181640625
z: -0.29041507840156555
visibility: 0.9014403820037842
","x: 253.0262908935547
y: 370.04595947265625
z: -0.014211918227374554
visibility: 0.7330170273780823
","x: 275.28631591796875
y: 389.8663635253906
z: -0.060526102781295776
visibility: 0.9998900890350342
","x: 264.5189514160156
y: 388.0117492675781
z: 0.060462843626737595
visibility: 0.9997573494911194
","x: 263.82855224609375
y: 451.61181640625
z: -0.0989476814866066
visibility: 0.9870449900627136
","x: 255.90676879882812
y: 440.9130554199219
z: -0.013121990486979485
visibility: 0.919046938419342
","x: 268.3489685058594
y: 510.8969421386719
z: -0.0016949696000665426
visibility: 0.9907387495040894
","x: 275.18231201171875
y: 485.7279968261719
z: 0.10284502804279327
visibility: 0.9565675258636475
","x: 271.4310607910156
y: 518.0182495117188
z: 0.006879860069602728
visibility: 0.9636718034744263
","x: 280.2478942871094
y: 487.1904296875
z: 0.11218951642513275
visibility: 0.9189735054969788
","x: 261.4854736328125
y: 523.607177734375
z: -0.06848649680614471
visibility: 0.9884512424468994
","x: 270.6613464355469
y: 509.18157958984375
z: 0.06636112928390503
visibility: 0.961016833782196
",,,,,,,,,,,,,,,,,,,,,,,,,,,,,,,,,,,,,,,,,,
9,"x: 266.83477783203125
y: 276.29766845703125
z: -0.1216849684715271
visibility: 0.9998533725738525
","x: 269.0484924316406
y: 270.4922790527344
z: -0.11354199796915054
visibility: 0.9997636675834656
","x: 270.4193420410156
y: 270.45318603515625
z: -0.11359065771102905
visibility: 0.9997614026069641
","x: 271.8082275390625
y: 270.4122314453125
z: -0.11363524198532104
visibility: 0.9997422695159912
","x: 265.6693115234375
y: 270.0587158203125
z: -0.10284067690372467
visibility: 0.9997050762176514
","x: 264.74822998046875
y: 269.85260009765625
z: -0.10283313691616058
visibility: 0.9996492862701416
","x: 263.8802185058594
y: 269.7241516113281
z: -0.10281846672296524
visibility: 0.9996123313903809
","x: 274.3429870605469
y: 271.7950134277344
z: -0.05176234245300293
visibility: 0.9996735453605652
","x: 264.01959228515625
y: 270.8017272949219
z: -0.002360513200983405
visibility: 0.9993667602539062
","x: 269.2345275878906
y: 281.7879638671875
z: -0.09790624678134918
visibility: 0.9997428059577942
","x: 265.3563537597656
y: 281.56256103515625
z: -0.08387672156095505
visibility: 0.9995956420898438
","x: 280.3729553222656
y: 298.4071044921875
z: -0.09907204657793045
visibility: 0.9999232292175293
","x: 261.3004455566406
y: 297.8619689941406
z: 0.09819667041301727
visibility: 0.9997137784957886
","x: 275.1662292480469
y: 327.7853088378906
z: -0.16011060774326324
visibility: 0.967366635799408
","x: 254.177978515625
y: 328.22796630859375
z: 0.09964310377836227
visibility: 0.6952129006385803
","x: 262.7090148925781
y: 340.5611572265625
z: -0.21543721854686737
visibility: 0.9424352645874023
","x: 253.9481964111328
y: 355.5972595214844
z: -0.013295930810272694
visibility: 0.7518569231033325
","x: 260.7326965332031
y: 348.66998291015625
z: -0.24851009249687195
visibility: 0.9172684550285339
","x: 253.2034454345703
y: 365.1554870605469
z: -0.03156403452157974
visibility: 0.7265841364860535
","x: 260.2124938964844
y: 343.93170166015625
z: -0.24872490763664246
visibility: 0.9204604029655457
","x: 254.7982940673828
y: 363.6446533203125
z: -0.047461360692977905
visibility: 0.7317190766334534
","x: 260.5788269042969
y: 341.92864990234375
z: -0.21654868125915527
visibility: 0.8896268606185913
","x: 256.3408508300781
y: 361.0943908691406
z: -0.02292851358652115
visibility: 0.7051198482513428
","x: 278.0728759765625
y: 377.9394836425781
z: -0.06846102327108383
visibility: 0.9998725056648254
","x: 267.444091796875
y: 378.5177001953125
z: 0.06855285167694092
visibility: 0.9997280836105347
","x: 257.21337890625
y: 426.30084228515625
z: -0.17139193415641785
visibility: 0.9874707460403442
","x: 268.930419921875
y: 438.0563049316406
z: 0.04971487447619438
visibility: 0.9121565818786621
","x: 262.9563903808594
y: 484.0753479003906
z: -0.12663935124874115
visibility: 0.9913834929466248
","x: 285.66351318359375
y: 490.17822265625
z: 0.12849067151546478
visibility: 0.9592494368553162
","x: 266.9565124511719
y: 491.3114013671875
z: -0.12565188109874725
visibility: 0.9647361040115356
","x: 291.05670166015625
y: 494.2699890136719
z: 0.13284346461296082
visibility: 0.9247008562088013
","x: 252.20289611816406
y: 505.6094055175781
z: -0.2007763832807541
visibility: 0.9891692399978638
","x: 278.9937438964844
y: 509.4173889160156
z: 0.07433252036571503
visibility: 0.9630339741706848
",,,,,,,,,,,,,,,,,,,,,,,,,,,,,,,,,,,,,,,,,,
10,"x: 269.05609130859375
y: 277.4248046875
z: -0.1460220217704773
visibility: 0.9998670816421509
","x: 271.41888427734375
y: 272.96319580078125
z: -0.1353687345981598
visibility: 0.9997847080230713
","x: 272.6470642089844
y: 273.7655029296875
z: -0.13540618121623993
visibility: 0.9997832179069519
","x: 273.8389587402344
y: 274.4815673828125
z: -0.13544560968875885
visibility: 0.9997657537460327
","x: 268.06475830078125
y: 270.7372741699219
z: -0.12752529978752136
visibility: 0.9997310638427734
","x: 267.0374755859375
y: 270.2239990234375
z: -0.12753573060035706
visibility: 0.9996801614761353
","x: 266.1298522949219
y: 269.8264465332031
z: -0.12749890983104706
visibility: 0.9996464848518372
","x: 276.68316650390625
y: 278.40069580078125
z: -0.06738899648189545
visibility: 0.9997040629386902
","x: 266.0859069824219
y: 273.630615234375
z: -0.03638584539294243
visibility: 0.9994206428527832
","x: 271.4472351074219
y: 285.2811279296875
z: -0.12256039679050446
visibility: 0.9997677803039551
","x: 267.0859680175781
y: 282.4080810546875
z: -0.11284177005290985
visibility: 0.9996345639228821
","x: 283.8295593261719
y: 309.4791259765625
z: -0.08943275362253189
visibility: 0.9999298453330994
","x: 259.0910949707031
y: 302.7783203125
z: 0.0616028718650341
visibility: 0.9997349381446838
","x: 288.62738037109375
y: 350.0149841308594
z: -0.09153963625431061
visibility: 0.9703447818756104
","x: 254.84707641601562
y: 335.75738525390625
z: 0.0901840478181839
visibility: 0.706525981426239
","x: 288.4595642089844
y: 393.6163635253906
z: -0.1124393567442894
visibility: 0.9446101784706116
","x: 254.71810913085938
y: 370.02734375
z: 0.028022686019539833
visibility: 0.7626320123672485
","x: 288.3691711425781
y: 404.9736328125
z: -0.1305832713842392
visibility: 0.9182535409927368
","x: 253.4608612060547
y: 379.8011474609375
z: 0.018774719908833504
visibility: 0.7365370392799377
","x: 285.45062255859375
y: 404.2689208984375
z: -0.14385849237442017
visibility: 0.9211328029632568
","x: 254.94036865234375
y: 379.2602233886719
z: -0.00199551647529006
visibility: 0.7418110370635986
","x: 284.4150390625
y: 399.51239013671875
z: -0.11722512543201447
visibility: 0.8905496001243591
","x: 256.3505859375
y: 376.1184387207031
z: 0.018542489036917686
visibility: 0.7153890132904053
","x: 277.6199645996094
y: 380.73895263671875
z: -0.058995168656110764
visibility: 0.999879002571106
","x: 267.69573974609375
y: 382.427490234375
z: 0.059039406478405
visibility: 0.9997457265853882
","x: 255.1859130859375
y: 429.4256591796875
z: -0.16079387068748474
visibility: 0.9876837730407715
","x: 279.3941345214844
y: 438.9798278808594
z: 0.043190848082304
visibility: 0.9103040099143982
","x: 253.56301879882812
y: 484.0707092285156
z: -0.11348588764667511
visibility: 0.991991400718689
","x: 293.6317443847656
y: 496.9156494140625
z: 0.10231137275695801
visibility: 0.9623337388038635
","x: 257.2185363769531
y: 492.40521240234375
z: -0.11231674253940582
visibility: 0.9668020606040955
","x: 299.435302734375
y: 506.47265625
z: 0.1038866639137268
visibility: 0.9308713674545288
","x: 241.3647918701172
y: 502.7629089355469
z: -0.1790027767419815
visibility: 0.9898207783699036
","x: 281.49273681640625
y: 512.1565551757812
z: 0.0452958419919014
visibility: 0.9655673503875732
",,,,,,,,,,,,,,,,,,,,,,,,,,,,,,,,,,,,,,,,,,
11,"x: 269.0427551269531
y: 288.14044189453125
z: -0.193270742893219
visibility: 0.9998794198036194
","x: 271.45733642578125
y: 283.78314208984375
z: -0.1840324103832245
visibility: 0.9998040795326233
","x: 272.6626281738281
y: 284.38543701171875
z: -0.18408794701099396
visibility: 0.9998031258583069
","x: 273.7961120605469
y: 285.00775146484375
z: -0.18417714536190033
visibility: 0.9997876286506653
","x: 268.08782958984375
y: 282.30615234375
z: -0.1751837432384491
visibility: 0.9997549057006836
","x: 267.0963134765625
y: 282.0325012207031
z: -0.17519181966781616
visibility: 0.9997077584266663
","x: 266.1882629394531
y: 281.8233947753906
z: -0.17515352368354797
visibility: 0.9996764659881592
","x: 276.1844482421875
y: 289.02728271484375
z: -0.11862216144800186
visibility: 0.9997323751449585
","x: 265.95318603515625
y: 285.41290283203125
z: -0.08020752668380737
visibility: 0.9994679689407349
","x: 271.3101806640625
y: 295.306396484375
z: -0.16925330460071564
visibility: 0.9997904896736145
","x: 266.806884765625
y: 293.6614685058594
z: -0.15815268456935883
visibility: 0.9996696710586548
","x: 284.5068664550781
y: 322.48358154296875
z: -0.11596523225307465
visibility: 0.9999364018440247
","x: 258.0675048828125
y: 315.31854248046875
z: 0.02650667354464531
visibility: 0.9997460842132568
","x: 293.93157958984375
y: 364.27099609375
z: -0.1070001870393753
visibility: 0.9731065630912781
","x: 255.56573486328125
y: 348.14105224609375
z: 0.06495898216962814
visibility: 0.684393048286438
","x: 303.0851135253906
y: 402.2916259765625
z: -0.15344837307929993
visibility: 0.94619220495224
","x: 252.51084899902344
y: 378.06634521484375
z: -0.012703947722911835
visibility: 0.7445916533470154
","x: 305.2098083496094
y: 410.9693908691406
z: -0.1739354431629181
visibility: 0.9189797043800354
","x: 251.3742218017578
y: 386.0711364746094
z: -0.025400713086128235
visibility: 0.7207396626472473
","x: 304.06414794921875
y: 411.65362548828125
z: -0.19178003072738647
visibility: 0.9221028089523315
","x: 252.9923095703125
y: 380.622314453125
z: -0.04565766453742981
visibility: 0.7270979285240173
","x: 302.9879150390625
y: 408.23486328125
z: -0.1609211415052414
visibility: 0.8922528624534607
","x: 253.98667907714844
y: 383.68719482421875
z: -0.023117363452911377
visibility: 0.7011266350746155
","x: 278.8415832519531
y: 391.7542724609375
z: -0.05949850752949715
visibility: 0.9998890161514282
","x: 267.335693359375
y: 394.5203857421875
z: 0.059584181755781174
visibility: 0.9997636675834656
","x: 256.95361328125
y: 431.3406677246094
z: -0.18132808804512024
visibility: 0.9874948263168335
","x: 279.576171875
y: 447.035888671875
z: 0.06467651575803757
visibility: 0.901507556438446
","x: 248.2106170654297
y: 493.0279235839844
z: -0.17058227956295013
visibility: 0.992668628692627
","x: 297.0237731933594
y: 502.791748046875
z: 0.13687536120414734
visibility: 0.9639782309532166
","x: 250.718017578125
y: 507.9251708984375
z: -0.17370638251304626
visibility: 0.9686877131462097
","x: 302.598876953125
y: 511.9018249511719
z: 0.13278429210186005
visibility: 0.934893012046814
","x: 235.1611785888672
y: 504.40875244140625
z: -0.2652953267097473
visibility: 0.990628182888031
","x: 283.75006103515625
y: 517.7681884765625
z: 0.057977575808763504
visibility: 0.9673300385475159
",,,,,,,,,,,,,,,,,,,,,,,,,,,,,,,,,,,,,,,,,,
12,"x: 266.5215148925781
y: 289.779541015625
z: -0.13746502995491028
visibility: 0.9998909831047058
","x: 268.69097900390625
y: 285.73388671875
z: -0.1289931684732437
visibility: 0.9998230338096619
","x: 269.8888244628906
y: 286.44989013671875
z: -0.12906737625598907
visibility: 0.999822199344635
","x: 271.07562255859375
y: 287.16497802734375
z: -0.1291578859090805
visibility: 0.9998083710670471
","x: 265.6792297363281
y: 284.2547302246094
z: -0.11757020652294159
visibility: 0.9997783303260803
","x: 264.8172912597656
y: 284.0860900878906
z: -0.11755052953958511
visibility: 0.9997352361679077
","x: 263.9907531738281
y: 283.96527099609375
z: -0.11749328672885895
visibility: 0.9997072219848633
","x: 273.4812316894531
y: 291.10400390625
z: -0.07394913583993912
visibility: 0.9997586011886597
","x: 263.79461669921875
y: 287.86151123046875
z: -0.026116088032722473
visibility: 0.9995185732841492
","x: 268.7809753417969
y: 296.9759521484375
z: -0.11792644113302231
visibility: 0.9998112320899963
","x: 264.7585144042969
y: 295.21990966796875
z: -0.10385008901357651
visibility: 0.9997022151947021
","x: 281.90869140625
y: 323.94122314453125
z: -0.08099496364593506
visibility: 0.9999426007270813
","x: 255.48997497558594
y: 317.1413879394531
z: 0.06144795939326286
visibility: 0.9997640252113342
","x: 290.1867980957031
y: 362.2953796386719
z: -0.10635282099246979
visibility: 0.9749619364738464
","x: 253.3502197265625
y: 351.8662109375
z: 0.06379739195108414
visibility: 0.6590172648429871
","x: 302.72833251953125
y: 383.52239990234375
z: -0.18323010206222534
visibility: 0.9488255977630615
","x: 252.433349609375
y: 376.11126708984375
z: -0.03797383978962898
visibility: 0.7373220920562744
","x: 308.0115051269531
y: 386.47393798828125
z: -0.20845094323158264
visibility: 0.922835648059845
","x: 250.44244384765625
y: 383.8013000488281
z: -0.057607501745224
visibility: 0.7149832844734192
","x: 309.1484069824219
y: 383.89630126953125
z: -0.20106884837150574
visibility: 0.9262051582336426
","x: 252.4556884765625
y: 379.65997314453125
z: -0.06785409152507782
visibility: 0.7230305671691895
","x: 306.7738037109375
y: 383.22100830078125
z: -0.18802312016487122
visibility: 0.8978932499885559
","x: 253.7930450439453
y: 380.269775390625
z: -0.046716973185539246
visibility: 0.6974321007728577
","x: 271.4749450683594
y: 396.6256103515625
z: -0.05737566947937012
visibility: 0.9998990297317505
","x: 261.6570129394531
y: 399.1526794433594
z: 0.05752621963620186
visibility: 0.9997791051864624
","x: 254.04238891601562
y: 449.0807800292969
z: -0.17280519008636475
visibility: 0.9859773516654968
","x: 271.8297424316406
y: 455.5908508300781
z: 0.0833473801612854
visibility: 0.8780205845832825
","x: 247.5253143310547
y: 511.34173583984375
z: -0.1488119661808014
visibility: 0.9931049942970276
","x: 288.60894775390625
y: 497.55499267578125
z: 0.20758545398712158
visibility: 0.9579964876174927
","x: 250.2903594970703
y: 520.76953125
z: -0.14928318560123444
visibility: 0.969635009765625
","x: 296.1211853027344
y: 496.0860595703125
z: 0.21666327118873596
visibility: 0.9351319670677185
","x: 239.88571166992188
y: 522.3037109375
z: -0.2347382754087448
visibility: 0.9909946918487549
","x: 282.2192687988281
y: 516.593505859375
z: 0.16417618095874786
visibility: 0.9641621112823486
",,,,,,,,,,,,,,,,,,,,,,,,,,,,,,,,,,,,,,,,,,
13,"x: 261.2840881347656
y: 289.2593688964844
z: -0.18729177117347717
visibility: 0.999901533126831
","x: 264.01605224609375
y: 285.16851806640625
z: -0.17299196124076843
visibility: 0.9998400211334229
","x: 265.13519287109375
y: 285.8482666015625
z: -0.17304207384586334
visibility: 0.9998393654823303
","x: 266.43609619140625
y: 286.5445251464844
z: -0.17309311032295227
visibility: 0.9998268485069275
","x: 261.2938537597656
y: 283.775390625
z: -0.1671893149614334
visibility: 0.9997991323471069
","x: 260.4811096191406
y: 283.59307861328125
z: -0.1671709269285202
visibility: 0.9997597932815552
","x: 259.6192321777344
y: 283.4803161621094
z: -0.1671980917453766
visibility: 0.9997339248657227
","x: 269.2608337402344
y: 290.607666015625
z: -0.09203746169805527
visibility: 0.99978107213974
","x: 259.6064147949219
y: 286.9942932128906
z: -0.06822923570871353
visibility: 0.9995642304420471
","x: 262.9920654296875
y: 296.1535339355469
z: -0.15867219865322113
visibility: 0.999829888343811
","x: 259.55072021484375
y: 294.66387939453125
z: -0.15169426798820496
visibility: 0.9997314810752869
","x: 274.8184509277344
y: 326.8451232910156
z: -0.07037769258022308
visibility: 0.9999479651451111
","x: 246.22251892089844
y: 316.67547607421875
z: 0.0040205358527600765
visibility: 0.9997814893722534
","x: 280.0866394042969
y: 365.3895263671875
z: -0.15017171204090118
visibility: 0.9746391177177429
","x: 237.926025390625
y: 352.2854309082031
z: 0.0406012162566185
visibility: 0.6829147934913635
","x: 293.26458740234375
y: 355.57379150390625
z: -0.34631773829460144
visibility: 0.9528383612632751
","x: 238.28399658203125
y: 379.92633056640625
z: -0.03515191748738289
visibility: 0.7521902918815613
","x: 295.7714538574219
y: 348.9984436035156
z: -0.3854962885379791
visibility: 0.9291613101959229
","x: 237.74127197265625
y: 390.8916015625
z: -0.04777223989367485
visibility: 0.7273831367492676
","x: 295.36322021484375
y: 343.345458984375
z: -0.39329227805137634
visibility: 0.9322804808616638
","x: 239.8422088623047
y: 388.9697570800781
z: -0.06526920199394226
visibility: 0.7353611588478088
","x: 294.13348388671875
y: 344.62481689453125
z: -0.35432595014572144
visibility: 0.9054116010665894
","x: 240.80569458007812
y: 384.9348449707031
z: -0.04366963356733322
visibility: 0.7090643048286438
","x: 265.58782958984375
y: 399.5588684082031
z: -0.03458794206380844
visibility: 0.9999082684516907
","x: 249.72132873535156
y: 399.0078125
z: 0.0346679650247097
visibility: 0.9997919201850891
","x: 253.60525512695312
y: 454.77545166015625
z: -0.18402540683746338
visibility: 0.9846715331077576
","x: 233.5890655517578
y: 453.9710998535156
z: 0.01758209802210331
visibility: 0.8839845657348633
","x: 247.91342163085938
y: 513.0853881835938
z: -0.10069862753152847
visibility: 0.9920209050178528
","x: 249.23678588867188
y: 484.3412780761719
z: 0.2942523658275604
visibility: 0.9046235680580139
","x: 250.03048706054688
y: 521.6329345703125
z: -0.10094606876373291
visibility: 0.9500525593757629
","x: 252.80799865722656
y: 482.42730712890625
z: 0.3208640515804291
visibility: 0.888962984085083
","x: 239.61717224121094
y: 525.7145385742188
z: -0.18511809408664703
visibility: 0.9891884922981262
","x: 246.94973754882812
y: 506.9343566894531
z: 0.28235989809036255
visibility: 0.9285881519317627
",,,,,,,,,,,,,,,,,,,,,,,,,,,,,,,,,,,,,,,,,,
14,"x: 252.84158325195312
y: 289.04315185546875
z: -0.2572224736213684
visibility: 0.9999027252197266
","x: 255.71957397460938
y: 284.6668395996094
z: -0.24653032422065735
visibility: 0.9998177886009216
","x: 257.0314636230469
y: 285.241943359375
z: -0.24652747809886932
visibility: 0.9998140335083008
","x: 258.3165283203125
y: 285.8379821777344
z: -0.2465299814939499
visibility: 0.999793529510498
","x: 252.57691955566406
y: 283.4671936035156
z: -0.24204976856708527
visibility: 0.9997926950454712
","x: 251.69151306152344
y: 283.3330993652344
z: -0.24208085238933563
visibility: 0.999760627746582
","x: 250.900390625
y: 283.27484130859375
z: -0.24210122227668762
visibility: 0.999742865562439
","x: 261.230224609375
y: 289.7000427246094
z: -0.1683754026889801
visibility: 0.9997357130050659
","x: 251.24388122558594
y: 286.5035705566406
z: -0.1460387408733368
visibility: 0.9995850324630737
","x: 254.90560913085938
y: 295.7775573730469
z: -0.2268313616514206
visibility: 0.9998366832733154
","x: 250.95957946777344
y: 294.41796875
z: -0.2203778773546219
visibility: 0.9997493624687195
","x: 271.287841796875
y: 323.45025634765625
z: -0.1097579225897789
visibility: 0.9999431371688843
","x: 238.58197021484375
y: 317.2169189453125
z: -0.060126710683107376
visibility: 0.9997942447662354
","x: 284.05389404296875
y: 348.1915588378906
z: -0.09779451787471771
visibility: 0.9749596118927002
","x: 226.12217712402344
y: 352.4520263671875
z: -0.010338510386645794
visibility: 0.7104465365409851
","x: 286.2796630859375
y: 365.725830078125
z: -0.18335294723510742
visibility: 0.9270060062408447
","x: 230.6062774658203
y: 379.44281005859375
z: -0.08789415657520294
visibility: 0.7679787874221802
","x: 283.0838623046875
y: 379.67852783203125
z: -0.20531049370765686
visibility: 0.8920510411262512
","x: 230.79869079589844
y: 390.81414794921875
z: -0.11117652803659439
visibility: 0.7365691661834717
","x: 280.4979553222656
y: 376.11773681640625
z: -0.22323289513587952
visibility: 0.8950871825218201
","x: 234.1318817138672
y: 387.19012451171875
z: -0.12900228798389435
visibility: 0.7437121272087097
","x: 279.97412109375
y: 372.9207763671875
z: -0.1916946917772293
visibility: 0.8663133382797241
","x: 234.78878784179688
y: 382.9963684082031
z: -0.09625603258609772
visibility: 0.7168484926223755
","x: 259.3165588378906
y: 401.2737731933594
z: -0.028590386733412743
visibility: 0.9998824000358582
","x: 241.25619506835938
y: 398.39215087890625
z: 0.028560712933540344
visibility: 0.9997808337211609
","x: 250.85269165039062
y: 455.4577941894531
z: -0.07469455897808075
visibility: 0.9854626059532166
","x: 225.56979370117188
y: 446.55938720703125
z: -0.04448344558477402
visibility: 0.8951238989830017
","x: 248.4922332763672
y: 511.2569580078125
z: 0.07266165316104889
visibility: 0.9924435615539551
","x: 223.37745666503906
y: 487.7611083984375
z: 0.15149976313114166
visibility: 0.9137331247329712
","x: 251.09095764160156
y: 520.5803833007812
z: 0.08009863644838333
visibility: 0.9356334209442139
","x: 227.25933837890625
y: 490.31854248046875
z: 0.16689778864383698
visibility: 0.8970803618431091
","x: 238.82530212402344
y: 526.3363037109375
z: -0.026583487167954445
visibility: 0.9894366264343262
","x: 214.80003356933594
y: 508.6328125
z: 0.08245019614696503
visibility: 0.9352647662162781
",,,,,,,,,,,,,,,,,,,,,,,,,,,,,,,,,,,,,,,,,,
15,"x: 245.2323760986328
y: 288.8607482910156
z: -0.20944297313690186
visibility: 0.9999111294746399
","x: 248.0522918701172
y: 284.51055908203125
z: -0.1990395337343216
visibility: 0.9998297095298767
","x: 249.36544799804688
y: 285.11065673828125
z: -0.19907444715499878
visibility: 0.9998267889022827
","x: 250.68508911132812
y: 285.77545166015625
z: -0.19909808039665222
visibility: 0.999807596206665
","x: 245.3688201904297
y: 283.43426513671875
z: -0.1937386393547058
visibility: 0.999807596206665
","x: 244.72323608398438
y: 283.2645263671875
z: -0.19374343752861023
visibility: 0.9997785687446594
","x: 244.11329650878906
y: 283.1908874511719
z: -0.19373847544193268
visibility: 0.9997605681419373
","x: 253.9450225830078
y: 289.0786437988281
z: -0.12994316220283508
visibility: 0.9997518658638
","x: 245.19662475585938
y: 286.12548828125
z: -0.10528850555419922
visibility: 0.9996132850646973
","x: 247.3844757080078
y: 295.642333984375
z: -0.18371142446994781
visibility: 0.9998509287834167
","x: 244.02780151367188
y: 294.3542785644531
z: -0.17661011219024658
visibility: 0.9997712969779968
","x: 264.77349853515625
y: 322.8503723144531
z: -0.094008669257164
visibility: 0.9999463558197021
","x: 233.44766235351562
y: 317.7059326171875
z: -0.045336008071899414
visibility: 0.9998067021369934
","x: 282.8483581542969
y: 348.23773193359375
z: -0.09361708909273148
visibility: 0.9767714142799377
","x: 223.6241912841797
y: 351.89404296875
z: -0.04983346909284592
visibility: 0.7365811467170715
","x: 296.25946044921875
y: 367.28875732421875
z: -0.19681523740291595
visibility: 0.9310847520828247
","x: 225.54786682128906
y: 380.01165771484375
z: -0.1565045863389969
visibility: 0.7856502532958984
","x: 302.2909240722656
y: 374.9114990234375
z: -0.2220536768436432
visibility: 0.8958683013916016
","x: 226.4724884033203
y: 392.1592712402344
z: -0.17816010117530823
visibility: 0.7512763142585754
","x: 302.43695068359375
y: 373.1350402832031
z: -0.24023082852363586
visibility: 0.8998816609382629
","x: 228.9917449951172
y: 388.8882751464844
z: -0.19642242789268494
visibility: 0.7582371234893799
","x: 299.4732971191406
y: 371.3633728027344
z: -0.2068345993757248
visibility: 0.873146116733551
","x: 229.2333984375
y: 384.1741943359375
z: -0.1658969670534134
visibility: 0.7318588495254517
","x: 255.13833618164062
y: 402.8370361328125
z: -0.017870159819722176
visibility: 0.9998804330825806
","x: 236.8795166015625
y: 399.2005615234375
z: 0.017887074500322342
visibility: 0.9997638463973999
","x: 250.2609405517578
y: 459.54241943359375
z: -0.07238931208848953
visibility: 0.9860719442367554
","x: 224.25082397460938
y: 451.76806640625
z: 0.037788357585668564
visibility: 0.9044663310050964
","x: 249.4630584716797
y: 515.3316040039062
z: 0.027755577117204666
visibility: 0.9924293160438538
","x: 210.36154174804688
y: 493.4665222167969
z: 0.19269543886184692
visibility: 0.9210178256034851
","x: 249.78407287597656
y: 523.443603515625
z: 0.03139062598347664
visibility: 0.9256593585014343
","x: 210.07473754882812
y: 501.5478820800781
z: 0.20281410217285156
visibility: 0.8962373733520508
","x: 245.34945678710938
y: 527.7312622070312
z: -0.07233180850744247
visibility: 0.9886217713356018
","x: 205.55630493164062
y: 512.9601440429688
z: 0.09868957102298737
visibility: 0.9399164915084839
",,,,,,,,,,,,,,,,,,,,,,,,,,,,,,,,,,,,,,,,,,
16,"x: 243.36679077148438
y: 288.96490478515625
z: -0.2063611000776291
visibility: 0.9999160170555115
","x: 245.41494750976562
y: 284.2322692871094
z: -0.197737455368042
visibility: 0.9998301863670349
","x: 246.56976318359375
y: 284.8287353515625
z: -0.19776007533073425
visibility: 0.9998261332511902
","x: 247.69615173339844
y: 285.716796875
z: -0.1977710872888565
visibility: 0.9998086094856262
","x: 242.3549041748047
y: 283.66680908203125
z: -0.19282352924346924
visibility: 0.9998143911361694
","x: 241.4656219482422
y: 283.67755126953125
z: -0.1928156018257141
visibility: 0.9997876286506653
","x: 240.61837768554688
y: 283.77386474609375
z: -0.1928109973669052
visibility: 0.9997700452804565
","x: 250.99310302734375
y: 289.0127258300781
z: -0.13211332261562347
visibility: 0.9997429251670837
","x: 241.0162353515625
y: 286.49951171875
z: -0.10917273908853531
visibility: 0.999629020690918
","x: 245.85008239746094
y: 295.33868408203125
z: -0.18155628442764282
visibility: 0.999860405921936
","x: 242.04734802246094
y: 294.5076599121094
z: -0.17485788464546204
visibility: 0.9997882843017578
","x: 262.70172119140625
y: 322.251220703125
z: -0.0921698659658432
visibility: 0.9999474883079529
","x: 231.75692749023438
y: 317.78277587890625
z: -0.046013299375772476
visibility: 0.9998219013214111
","x: 280.6835632324219
y: 345.4603271484375
z: -0.07575365900993347
visibility: 0.9779341816902161
","x: 223.46607971191406
y: 353.0054931640625
z: -0.019429219886660576
visibility: 0.757905900478363
","x: 295.7799072265625
y: 373.0453796386719
z: -0.16792047023773193
visibility: 0.9327362179756165
","x: 225.6173858642578
y: 383.40411376953125
z: -0.1017226129770279
visibility: 0.7974647283554077
","x: 297.16180419921875
y: 382.70166015625
z: -0.1884886473417282
visibility: 0.8956487774848938
","x: 226.3011932373047
y: 394.70849609375
z: -0.119562067091465
visibility: 0.7583835124969482
","x: 296.80279541015625
y: 383.06561279296875
z: -0.20988023281097412
visibility: 0.9004712104797363
","x: 228.846923828125
y: 390.6917724609375
z: -0.13730262219905853
visibility: 0.7652680277824402
","x: 295.7950744628906
y: 380.3456115722656
z: -0.1782395839691162
visibility: 0.8745176792144775
","x: 229.33197021484375
y: 386.6328430175781
z: -0.11048480123281479
visibility: 0.7389487624168396
","x: 253.8978271484375
y: 404.1133117675781
z: -0.010743875056505203
visibility: 0.9998723864555359
","x: 236.5792694091797
y: 400.15362548828125
z: 0.010708251968026161
visibility: 0.9997678995132446
","x: 252.55628967285156
y: 460.7963562011719
z: 0.0094307791441679
visibility: 0.9869557619094849
","x: 223.757080078125
y: 454.66290283203125
z: 0.035685762763023376
visibility: 0.9137890338897705
","x: 251.55355834960938
y: 514.5440063476562
z: 0.12216881662607193
visibility: 0.992800235748291
","x: 211.84649658203125
y: 499.34466552734375
z: 0.17241595685482025
visibility: 0.9286260008811951
","x: 249.86183166503906
y: 522.6544799804688
z: 0.12748372554779053
visibility: 0.9240543842315674
","x: 213.04237365722656
y: 506.0526123046875
z: 0.17930510640144348
visibility: 0.9004384875297546
","x: 254.88555908203125
y: 527.5818481445312
z: 0.03358665481209755
visibility: 0.9889509677886963
","x: 205.16995239257812
y: 516.5045776367188
z: 0.08957193791866302
visibility: 0.9454028606414795
",,,,,,,,,,,,,,,,,,,,,,,,,,,,,,,,,,,,,,,,,,
17,"x: 248.7296905517578
y: 289.6365966796875
z: -0.19924387335777283
visibility: 0.9999238848686218
","x: 250.87449645996094
y: 284.9611511230469
z: -0.17527052760124207
visibility: 0.9998451471328735
","x: 252.04617309570312
y: 285.56353759765625
z: -0.175299271941185
visibility: 0.9998406171798706
","x: 253.21592712402344
y: 286.3179931640625
z: -0.17532353103160858
visibility: 0.9998248219490051
","x: 247.88311767578125
y: 284.21270751953125
z: -0.17731758952140808
visibility: 0.9998314380645752
","x: 246.961669921875
y: 284.19720458984375
z: -0.17739099264144897
visibility: 0.9998071193695068
","x: 246.0718994140625
y: 284.2333984375
z: -0.17745491862297058
visibility: 0.99979168176651
","x: 256.2066650390625
y: 290.31842041015625
z: -0.084576316177845
visibility: 0.9997616410255432
","x: 245.72671508789062
y: 287.3699951171875
z: -0.08111043274402618
visibility: 0.9996647834777832
","x: 251.05067443847656
y: 296.5618591308594
z: -0.1594659388065338
visibility: 0.9998736381530762
","x: 247.1234588623047
y: 295.4895935058594
z: -0.16356052458286285
visibility: 0.9998090267181396
","x: 266.103271484375
y: 321.57562255859375
z: -0.0549653060734272
visibility: 0.9999502301216125
","x: 236.3214569091797
y: 319.7927551269531
z: -0.032253868877887726
visibility: 0.9998380541801453
","x: 273.3702392578125
y: 358.85552978515625
z: -0.08491390198469162
visibility: 0.9788496494293213
","x: 225.29421997070312
y: 352.96240234375
z: -0.0015388164902105927
visibility: 0.77785724401474
","x: 251.86781311035156
y: 372.38592529296875
z: -0.2377360761165619
visibility: 0.937310516834259
","x: 230.7201385498047
y: 382.35516357421875
z: -0.09675799310207367
visibility: 0.8066591620445251
","x: 246.75167846679688
y: 376.4611511230469
z: -0.2719219923019409
visibility: 0.9017392992973328
","x: 231.2259521484375
y: 392.3045349121094
z: -0.12090364843606949
visibility: 0.7652295827865601
","x: 245.4075927734375
y: 366.3778381347656
z: -0.27163439989089966
visibility: 0.9060466289520264
","x: 233.52725219726562
y: 388.64031982421875
z: -0.13376477360725403
visibility: 0.7712478637695312
","x: 246.8075714111328
y: 366.5968017578125
z: -0.23941504955291748
visibility: 0.8788776993751526
","x: 233.97637939453125
y: 384.9126892089844
z: -0.10369573533535004
visibility: 0.743108868598938
","x: 258.48858642578125
y: 405.7754211425781
z: -0.011495720595121384
visibility: 0.9998779296875
","x: 241.7460479736328
y: 400.5159912109375
z: 0.011498969979584217
visibility: 0.9997896552085876
","x: 254.7018585205078
y: 464.4073181152344
z: -0.06322982162237167
visibility: 0.9873262047767639
","x: 229.7172088623047
y: 445.7354736328125
z: -0.2140870839357376
visibility: 0.9222695231437683
","x: 252.53363037109375
y: 512.7642822265625
z: 0.14007137715816498
visibility: 0.992222785949707
","x: 231.641845703125
y: 496.5196533203125
z: -0.04018475115299225
visibility: 0.9354049563407898
","x: 250.12693786621094
y: 522.0950927734375
z: 0.15690258145332336
visibility: 0.9210699200630188
","x: 234.93191528320312
y: 503.05316162109375
z: -0.027382150292396545
visibility: 0.9067639708518982
","x: 256.07073974609375
y: 528.0650634765625
z: 0.06475292146205902
visibility: 0.9878812432289124
","x: 224.50515747070312
y: 520.174560546875
z: -0.1235218420624733
visibility: 0.9503054618835449
",,,,,,,,,,,,,,,,,,,,,,,,,,,,,,,,,,,,,,,,,,
18,"x: 253.201904296875
y: 298.8702392578125
z: -0.1524813026189804
visibility: 0.9999268054962158
","x: 255.34658813476562
y: 293.63031005859375
z: -0.13522927463054657
visibility: 0.9998466372489929
","x: 256.7682800292969
y: 293.9673156738281
z: -0.13529857993125916
visibility: 0.9998403191566467
","x: 258.25030517578125
y: 294.43719482421875
z: -0.1353539526462555
visibility: 0.9998272657394409
","x: 251.9830780029297
y: 293.18115234375
z: -0.13330912590026855
visibility: 0.9998381733894348
","x: 250.83741760253906
y: 293.1935729980469
z: -0.13336992263793945
visibility: 0.9998164176940918
","x: 249.55389404296875
y: 293.33477783203125
z: -0.13349175453186035
visibility: 0.9998059272766113
","x: 260.41021728515625
y: 297.409912109375
z: -0.051879603415727615
visibility: 0.9997352361679077
","x: 247.09657287597656
y: 295.5148620605469
z: -0.04286752641201019
visibility: 0.9996864795684814
","x: 254.86090087890625
y: 305.3121643066406
z: -0.12075153738260269
visibility: 0.999880313873291
","x: 251.47962951660156
y: 304.8357238769531
z: -0.11912723630666733
visibility: 0.9998254179954529
","x: 268.6331787109375
y: 329.9215087890625
z: -0.03743526339530945
visibility: 0.9999421834945679
","x: 238.80035400390625
y: 325.3039855957031
z: 0.0010719033889472485
visibility: 0.99985271692276
","x: 271.7090148925781
y: 373.72125244140625
z: -0.09705036878585815
visibility: 0.9772834181785583
","x: 229.36732482910156
y: 360.0823669433594
z: -0.010450481437146664
visibility: 0.7905760407447815
","x: 247.73812866210938
y: 371.0412902832031
z: -0.22494177520275116
visibility: 0.9372585415840149
","x: 232.22560119628906
y: 386.7096252441406
z: -0.131598100066185
visibility: 0.8056042194366455
","x: 242.63394165039062
y: 374.00274658203125
z: -0.2668549418449402
visibility: 0.9027050733566284
","x: 234.11639404296875
y: 396.0021667480469
z: -0.15918408334255219
visibility: 0.7605053782463074
","x: 241.90675354003906
y: 366.0537109375
z: -0.2434680461883545
visibility: 0.9072568416595459
","x: 237.79843139648438
y: 392.24224853515625
z: -0.1677270382642746
visibility: 0.766032338142395
","x: 243.70680236816406
y: 366.3559265136719
z: -0.21761579811573029
visibility: 0.8745121359825134
","x: 237.29598999023438
y: 389.3572998046875
z: -0.1371711790561676
visibility: 0.7354604601860046
","x: 262.724609375
y: 412.37469482421875
z: -0.00788333360105753
visibility: 0.9998165965080261
","x: 242.85716247558594
y: 406.0624694824219
z: 0.007899338379502296
visibility: 0.9998062252998352
","x: 259.0380554199219
y: 465.4298095703125
z: -0.06846696883440018
visibility: 0.9474289417266846
","x: 238.8932647705078
y: 446.189453125
z: -0.32187753915786743
visibility: 0.9132682085037231
","x: 254.2880401611328
y: 512.2413330078125
z: 0.11123649030923843
visibility: 0.9208447337150574
","x: 251.83985900878906
y: 505.84857177734375
z: -0.24156901240348816
visibility: 0.9239807724952698
","x: 252.0554656982422
y: 520.8916625976562
z: 0.1253805011510849
visibility: 0.8569429516792297
","x: 254.2585906982422
y: 518.0467529296875
z: -0.23795047402381897
visibility: 0.8574758768081665
","x: 256.4593505859375
y: 524.5914306640625
z: 0.03788658231496811
visibility: 0.9321210980415344
","x: 251.9412841796875
y: 520.3645629882812
z: -0.36002832651138306
visibility: 0.9398468732833862
",,,,,,,,,,,,,,,,,,,,,,,,,,,,,,,,,,,,,,,,,,
19,"x: 258.1439514160156
y: 308.03741455078125
z: -0.31677359342575073
visibility: 0.9999337196350098
","x: 260.56201171875
y: 302.8709716796875
z: -0.30037105083465576
visibility: 0.9998597502708435
","x: 261.9477233886719
y: 303.44049072265625
z: -0.3004375100135803
visibility: 0.9998546242713928
","x: 263.40496826171875
y: 304.1639404296875
z: -0.3005056083202362
visibility: 0.9998422861099243
","x: 257.1670227050781
y: 302.2510986328125
z: -0.29750674962997437
visibility: 0.9998525381088257
","x: 256.0735168457031
y: 302.31707763671875
z: -0.29752713441848755
visibility: 0.9998332262039185
","x: 254.92251586914062
y: 302.4480285644531
z: -0.2975706458091736
visibility: 0.9998233318328857
","x: 265.4146728515625
y: 307.2711181640625
z: -0.1978021264076233
visibility: 0.9997571706771851
","x: 253.54147338867188
y: 304.63214111328125
z: -0.18440592288970947
visibility: 0.9997155666351318
","x: 259.83636474609375
y: 313.883544921875
z: -0.27777209877967834
visibility: 0.999891996383667
","x: 256.0522766113281
y: 313.22576904296875
z: -0.27425044775009155
visibility: 0.9998427629470825
","x: 275.5967102050781
y: 342.5291748046875
z: -0.14755389094352722
visibility: 0.9999476075172424
","x: 241.83045959472656
y: 337.8060607910156
z: -0.09890604019165039
visibility: 0.9998672604560852
","x: 285.1781921386719
y: 381.3301086425781
z: -0.23476989567279816
visibility: 0.9793459177017212
","x: 234.44232177734375
y: 375.5268859863281
z: -0.09347651898860931
visibility: 0.8088183403015137
","x: 264.0483093261719
y: 381.2257080078125
z: -0.3957580626010895
visibility: 0.9427552819252014
","x: 238.5083770751953
y: 404.6145324707031
z: -0.23172065615653992
visibility: 0.8205321431159973
","x: 261.1526184082031
y: 380.9288330078125
z: -0.43994465470314026
visibility: 0.9111945033073425
","x: 239.61209106445312
y: 413.36669921875
z: -0.26782673597335815
visibility: 0.778652548789978
","x: 260.400390625
y: 372.4078674316406
z: -0.4388639032840729
visibility: 0.9154229164123535
","x: 242.46868896484375
y: 410.796142578125
z: -0.2819322645664215
visibility: 0.7841914892196655
","x: 261.3915100097656
y: 372.4854736328125
z: -0.3975602090358734
visibility: 0.8840658068656921
","x: 242.2615509033203
y: 407.40130615234375
z: -0.24039673805236816
visibility: 0.7537257671356201
","x: 268.7997741699219
y: 424.36297607421875
z: 0.001598579459823668
visibility: 0.9998241662979126
","x: 249.56614685058594
y: 420.14886474609375
z: -0.0016450353432446718
visibility: 0.9998252391815186
","x: 266.74676513671875
y: 484.0959167480469
z: 0.011777072213590145
visibility: 0.9490894675254822
","x: 255.45489501953125
y: 465.9412841796875
z: -0.303844153881073
visibility: 0.921197772026062
","x: 253.88380432128906
y: 513.0057373046875
z: 0.3298313319683075
visibility: 0.9176313281059265
","x: 270.549072265625
y: 515.5491333007812
z: -0.1350216269493103
visibility: 0.9310392141342163
","x: 247.90037536621094
y: 517.357421875
z: 0.3587645888328552
visibility: 0.8520190715789795
","x: 274.4845275878906
y: 521.1121215820312
z: -0.12342743575572968
visibility: 0.856812059879303
","x: 251.88394165039062
y: 531.4763793945312
z: 0.2733413875102997
visibility: 0.9283097982406616
","x: 270.93621826171875
y: 533.6002807617188
z: -0.25131651759147644
visibility: 0.9449917674064636
",,,,,,,,,,,,,,,,,,,,,,,,,,,,,,,,,,,,,,,,,,
20,"x: 261.87310791015625
y: 302.32965087890625
z: -0.2934809625148773
visibility: 0.9999396800994873
","x: 263.63751220703125
y: 297.2675476074219
z: -0.24366207420825958
visibility: 0.999871015548706
","x: 264.8882141113281
y: 297.6935119628906
z: -0.2438163459300995
visibility: 0.9998666644096375
","x: 266.1868896484375
y: 298.23785400390625
z: -0.2437743842601776
visibility: 0.9998552799224854
","x: 260.3734130859375
y: 296.8362731933594
z: -0.2852413058280945
visibility: 0.9998649954795837
","x: 259.36138916015625
y: 296.91619873046875
z: -0.2846366763114929
visibility: 0.999847412109375
","x: 258.329345703125
y: 297.05072021484375
z: -0.28500616550445557
visibility: 0.9998384714126587
","x: 268.1456298828125
y: 301.5567321777344
z: -0.10971830040216446
visibility: 0.9997735619544983
","x: 257.2008361816406
y: 299.78167724609375
z: -0.12681147456169128
visibility: 0.9997400045394897
","x: 264.09649658203125
y: 308.3521728515625
z: -0.21847781538963318
visibility: 0.9999020099639893
","x: 259.9259338378906
y: 307.7686767578125
z: -0.26917868852615356
visibility: 0.9998580813407898
","x: 277.81878662109375
y: 335.37255859375
z: -0.06988321244716644
visibility: 0.999951183795929
","x: 245.86624145507812
y: 332.0636291503906
z: -0.07510296255350113
visibility: 0.9998798966407776
","x: 285.49456787109375
y: 372.94488525390625
z: -0.16539299488067627
visibility: 0.9806448221206665
","x: 240.12571716308594
y: 371.57904052734375
z: -0.03680761158466339
visibility: 0.819450318813324
","x: 268.24090576171875
y: 360.86260986328125
z: -0.3185759484767914
visibility: 0.9470815062522888
","x: 243.73963928222656
y: 399.76177978515625
z: -0.22740502655506134
visibility: 0.8251721262931824
","x: 264.8900146484375
y: 356.1455078125
z: -0.35811275243759155
visibility: 0.9174874424934387
","x: 243.8992919921875
y: 408.7342529296875
z: -0.19339385628700256
visibility: 0.782554566860199
","x: 264.6924133300781
y: 349.9042053222656
z: -0.35766416788101196
visibility: 0.9213885068893433
","x: 245.98446655273438
y: 405.41015625
z: -0.2022460401058197
visibility: 0.7877975702285767
","x: 265.5912170410156
y: 351.341796875
z: -0.32127845287323
visibility: 0.890040934085846
","x: 246.207763671875
y: 402.2979431152344
z: -0.22790417075157166
visibility: 0.7541120052337646
","x: 272.0972900390625
y: 417.9617614746094
z: 0.0022825782652944326
visibility: 0.9998227953910828
","x: 254.28785705566406
y: 413.6099548339844
z: -0.0023162965662777424
visibility: 0.9998418092727661
","x: 268.7991027832031
y: 477.703369140625
z: 0.023342249915003777
visibility: 0.9495274424552917
","x: 259.4686584472656
y: 460.86407470703125
z: -0.24425768852233887
visibility: 0.9285845160484314
","x: 254.12600708007812
y: 512.7691040039062
z: 0.26906073093414307
visibility: 0.9122426509857178
","x: 272.8634033203125
y: 514.7980346679688
z: -0.14598695933818817
visibility: 0.9374752640724182
","x: 248.37701416015625
y: 513.4056396484375
z: 0.2902194559574127
visibility: 0.8421885967254639
","x: 276.54583740234375
y: 521.440673828125
z: -0.14140205085277557
visibility: 0.8599234819412231
","x: 253.49964904785156
y: 530.951904296875
z: 0.2080203741788864
visibility: 0.9252428412437439
","x: 272.57379150390625
y: 534.1097412109375
z: -0.26409974694252014
visibility: 0.9497430324554443
",,,,,,,,,,,,,,,,,,,,,,,,,,,,,,,,,,,,,,,,,,
21,"x: 263.86419677734375
y: 286.3601379394531
z: -0.3155394196510315
visibility: 0.9999362826347351
","x: 265.3742980957031
y: 279.9526672363281
z: -0.30058643221855164
visibility: 0.9998539090156555
","x: 266.53399658203125
y: 279.7171630859375
z: -0.3006301522254944
visibility: 0.9998520016670227
","x: 267.6754455566406
y: 279.6308288574219
z: -0.30068260431289673
visibility: 0.9998345971107483
","x: 262.0572814941406
y: 280.627197265625
z: -0.3008185029029846
visibility: 0.999852180480957
","x: 260.9246520996094
y: 280.6976013183594
z: -0.3008209466934204
visibility: 0.9998369812965393
","x: 259.7588806152344
y: 280.768310546875
z: -0.30087175965309143
visibility: 0.9998265504837036
","x: 269.63671875
y: 280.74652099609375
z: -0.194737046957016
visibility: 0.9997187852859497
","x: 258.70159912109375
y: 281.5444641113281
z: -0.1906926929950714
visibility: 0.9997407793998718
","x: 266.08367919921875
y: 290.17291259765625
z: -0.27338480949401855
visibility: 0.9999035000801086
","x: 262.2394714355469
y: 290.69256591796875
z: -0.27400797605514526
visibility: 0.9998686909675598
","x: 279.47576904296875
y: 309.17864990234375
z: -0.12022677809000015
visibility: 0.9999490976333618
","x: 248.56381225585938
y: 307.58160400390625
z: -0.1057337298989296
visibility: 0.9998903274536133
","x: 285.763427734375
y: 351.7034912109375
z: -0.20375165343284607
visibility: 0.9796038866043091
","x: 240.43565368652344
y: 349.1235656738281
z: -0.09714268893003464
visibility: 0.8348206281661987
","x: 273.9225158691406
y: 337.5631408691406
z: -0.3938736617565155
visibility: 0.9445507526397705
","x: 246.98704528808594
y: 372.35589599609375
z: -0.21912674605846405
visibility: 0.8290910720825195
","x: 269.2869873046875
y: 334.15460205078125
z: -0.43892914056777954
visibility: 0.9142494797706604
","x: 248.2284393310547
y: 380.9580078125
z: -0.24924588203430176
visibility: 0.7831782102584839
","x: 268.44671630859375
y: 325.4574890136719
z: -0.44089049100875854
visibility: 0.9179842472076416
","x: 250.84866333007812
y: 375.3233642578125
z: -0.263743132352829
visibility: 0.7880898118019104
","x: 270.7876281738281
y: 327.5759582519531
z: -0.39870673418045044
visibility: 0.8807958364486694
","x: 250.59963989257812
y: 371.59136962890625
z: -0.22660818696022034
visibility: 0.7510930895805359
","x: 274.71380615234375
y: 390.5186767578125
z: 0.009435980580747128
visibility: 0.9997667670249939
","x: 257.81396484375
y: 390.1737060546875
z: -0.009412490762770176
visibility: 0.9998413920402527
","x: 273.2142333984375
y: 455.1745300292969
z: 0.030640417709946632
visibility: 0.9446865320205688
","x: 264.19622802734375
y: 444.4775695800781
z: -0.17520548403263092
visibility: 0.934251606464386
","x: 263.86431884765625
y: 498.5820007324219
z: 0.26034706830978394
visibility: 0.9062999486923218
","x: 267.3058776855469
y: 500.5248718261719
z: -0.010708732530474663
visibility: 0.9419544339179993
","x: 257.6800231933594
y: 500.91973876953125
z: 0.2787632346153259
visibility: 0.8287907242774963
","x: 267.8043212890625
y: 507.3466796875
z: 0.0013006569352000952
visibility: 0.852771520614624
","x: 266.8014221191406
y: 521.7894897460938
z: 0.18542170524597168
visibility: 0.9219642877578735
","x: 269.7431640625
y: 524.4634399414062
z: -0.18560241162776947
visibility: 0.9525952935218811
",,,,,,,,,,,,,,,,,,,,,,,,,,,,,,,,,,,,,,,,,,
22,"x: 265.52325439453125
y: 283.8475341796875
z: -0.15269508957862854
visibility: 0.9999412894248962
","x: 267.02508544921875
y: 277.1230773925781
z: -0.1369878351688385
visibility: 0.99986332654953
","x: 268.1654968261719
y: 276.8419189453125
z: -0.13705801963806152
visibility: 0.999861478805542
","x: 269.3450012207031
y: 276.6652526855469
z: -0.13709035515785217
visibility: 0.9998460412025452
","x: 263.8728332519531
y: 277.5714416503906
z: -0.13406425714492798
visibility: 0.999862015247345
","x: 262.84222412109375
y: 277.5503845214844
z: -0.13405923545360565
visibility: 0.9998478889465332
","x: 261.817138671875
y: 277.55609130859375
z: -0.13410285115242004
visibility: 0.9998398423194885
","x: 271.5693664550781
y: 278.34405517578125
z: -0.053028397262096405
visibility: 0.9997223019599915
","x: 261.003173828125
y: 278.84869384765625
z: -0.039654362946748734
visibility: 0.9997617602348328
","x: 267.6980285644531
y: 287.8599853515625
z: -0.12124059349298477
visibility: 0.9999101758003235
","x: 264.0145263671875
y: 288.2457580566406
z: -0.1178397536277771
visibility: 0.9998805522918701
","x: 280.6691589355469
y: 306.4242248535156
z: -0.02277246303856373
visibility: 0.9999486207962036
","x: 252.26431274414062
y: 302.7106018066406
z: 0.02221139892935753
visibility: 0.9998992085456848
","x: 284.8377380371094
y: 336.447509765625
z: -0.14393149316310883
visibility: 0.9804216623306274
","x: 243.08274841308594
y: 338.175537109375
z: 0.06491325050592422
visibility: 0.848207414150238
","x: 273.63775634765625
y: 325.59796142578125
z: -0.31684571504592896
visibility: 0.9486142992973328
","x: 249.10641479492188
y: 364.6742248535156
z: 0.013822582550346851
visibility: 0.8394181728363037
","x: 269.2202453613281
y: 322.9098815917969
z: -0.3541649580001831
visibility: 0.9198357462882996
","x: 249.94451904296875
y: 373.6716003417969
z: -0.0005011914181523025
visibility: 0.7929978966712952
","x: 268.61016845703125
y: 317.1341247558594
z: -0.38177862763404846
visibility: 0.9229736924171448
","x: 252.34414672851562
y: 370.091552734375
z: -0.013674499467015266
visibility: 0.7974280118942261
","x: 270.145263671875
y: 318.4366149902344
z: -0.3230094015598297
visibility: 0.8866271376609802
","x: 252.33438110351562
y: 367.4600524902344
z: 0.008807163685560226
visibility: 0.760501503944397
","x: 274.495849609375
y: 387.3453369140625
z: 0.003021471668034792
visibility: 0.9997755885124207
","x: 258.2481384277344
y: 384.8411560058594
z: -0.0030595071148127317
visibility: 0.9998533129692078
","x: 272.149658203125
y: 450.64447021484375
z: -0.012296272441744804
visibility: 0.9459194540977478
","x: 265.546142578125
y: 429.721435546875
z: -0.2413019835948944
visibility: 0.9404350519180298
","x: 264.7991638183594
y: 499.8248291015625
z: 0.13504675030708313
visibility: 0.9129447937011719
","x: 269.1095886230469
y: 486.0948181152344
z: -0.15598618984222412
visibility: 0.9469208717346191
","x: 261.8036193847656
y: 505.0204162597656
z: 0.14299717545509338
visibility: 0.8296937346458435
","x: 270.15545654296875
y: 492.3087158203125
z: -0.1509348452091217
visibility: 0.8565982580184937
","x: 266.41485595703125
y: 519.4115600585938
z: 0.04812180995941162
visibility: 0.9264572858810425
","x: 268.91510009765625
y: 510.113037109375
z: -0.2594752907752991
visibility: 0.9565315246582031
",,,,,,,,,,,,,,,,,,,,,,,,,,,,,,,,,,,,,,,,,,
23,"x: 271.62030029296875
y: 283.0072326660156
z: -0.16727778315544128
visibility: 0.999911367893219
","x: 273.2327880859375
y: 277.3155517578125
z: -0.15006837248802185
visibility: 0.9997832179069519
","x: 274.42498779296875
y: 277.43511962890625
z: -0.15020784735679626
visibility: 0.9997583627700806
","x: 275.54107666015625
y: 277.6461181640625
z: -0.15051931142807007
visibility: 0.9997373223304749
","x: 269.46575927734375
y: 277.1584167480469
z: -0.18442007899284363
visibility: 0.9998176097869873
","x: 268.07818603515625
y: 277.15740966796875
z: -0.18446435034275055
visibility: 0.9998003840446472
","x: 266.6875915527344
y: 277.2508544921875
z: -0.18460877239704132
visibility: 0.9998075366020203
","x: 276.2262268066406
y: 280.1218566894531
z: -0.08871498703956604
visibility: 0.9993324875831604
","x: 264.38232421875
y: 279.1822509765625
z: -0.1260637789964676
visibility: 0.999714195728302
","x: 273.05181884765625
y: 288.23638916015625
z: -0.1499090939760208
visibility: 0.9998443126678467
","x: 268.7671813964844
y: 288.4344482421875
z: -0.16611838340759277
visibility: 0.9998671412467957
","x: 282.8984375
y: 310.5391845703125
z: -0.020970236510038376
visibility: 0.9998056292533875
","x: 253.24147033691406
y: 306.2612609863281
z: -0.08483924716711044
visibility: 0.999902606010437
","x: 284.36871337890625
y: 344.5728759765625
z: 0.00921180285513401
visibility: 0.9291912317276001
","x: 246.72125244140625
y: 344.5498046875
z: -0.06801240146160126
visibility: 0.8595964908599854
","x: 280.06414794921875
y: 378.76519775390625
z: -0.07350064814090729
visibility: 0.8853799700737
","x: 252.92916870117188
y: 369.0790100097656
z: -0.12425979226827621
visibility: 0.8423988819122314
","x: 279.795166015625
y: 390.9405517578125
z: -0.09348258376121521
visibility: 0.8594592809677124
","x: 254.8922576904297
y: 380.5053405761719
z: -0.14801877737045288
visibility: 0.7932987213134766
","x: 278.7317810058594
y: 389.25213623046875
z: -0.1158023327589035
visibility: 0.8635406494140625
","x: 257.40045166015625
y: 374.7900085449219
z: -0.1638403981924057
visibility: 0.7975739240646362
","x: 277.9790954589844
y: 384.5111083984375
z: -0.08452998101711273
visibility: 0.8271499872207642
","x: 257.0473937988281
y: 371.7619323730469
z: -0.1299760341644287
visibility: 0.7600287795066833
","x: 276.2958068847656
y: 393.0516052246094
z: 0.025195157155394554
visibility: 0.9990589618682861
","x: 261.42431640625
y: 389.9839782714844
z: -0.025154972448945045
visibility: 0.9997690320014954
","x: 273.196044921875
y: 453.65789794921875
z: 0.0624983087182045
visibility: 0.9266797304153442
","x: 268.00201416015625
y: 449.71795654296875
z: -0.1029389351606369
visibility: 0.9392759799957275
","x: 263.4820251464844
y: 500.7193603515625
z: 0.18490703403949738
visibility: 0.9013364315032959
","x: 276.4078369140625
y: 509.1514587402344
z: -0.06001971289515495
visibility: 0.9491365551948547
","x: 260.11761474609375
y: 506.5165710449219
z: 0.1915709674358368
visibility: 0.8219009637832642
","x: 277.34130859375
y: 520.263916015625
z: -0.050994087010622025
visibility: 0.8556880354881287
","x: 267.82269287109375
y: 520.484130859375
z: 0.11053554713726044
visibility: 0.9179860949516296
","x: 276.54449462890625
y: 522.5090942382812
z: -0.15595249831676483
visibility: 0.9567315578460693
",,,,,,,,,,,,,,,,,,,,,,,,,,,,,,,,,,,,,,,,,,
24,"x: 275.62506103515625
y: 288.86181640625
z: -0.18891482055187225
visibility: 0.9995511174201965
","x: 276.2271728515625
y: 282.8846435546875
z: -0.1728413999080658
visibility: 0.9984473586082458
","x: 276.7398681640625
y: 282.5547180175781
z: -0.1729186773300171
visibility: 0.9982724189758301
","x: 277.2318115234375
y: 282.2080383300781
z: -0.17310534417629242
visibility: 0.9981951713562012
","x: 274.11248779296875
y: 282.9358825683594
z: -0.19508762657642365
visibility: 0.999060869216919
","x: 273.09283447265625
y: 282.5884704589844
z: -0.19512435793876648
visibility: 0.9990031123161316
","x: 271.95257568359375
y: 282.1648864746094
z: -0.19528181850910187
visibility: 0.9991482496261597
","x: 275.838623046875
y: 281.81378173828125
z: -0.0979665070772171
visibility: 0.9943674802780151
","x: 268.0440368652344
y: 281.281494140625
z: -0.14613096415996552
visibility: 0.9986468553543091
","x: 275.57244873046875
y: 292.99615478515625
z: -0.16313908994197845
visibility: 0.9991255402565002
","x: 273.1235656738281
y: 293.313232421875
z: -0.17658384144306183
visibility: 0.9995994567871094
","x: 283.3216247558594
y: 312.88275146484375
z: -0.03510235622525215
visibility: 0.9995924830436707
","x: 254.213623046875
y: 309.1900939941406
z: -0.09127478301525116
visibility: 0.9998912811279297
","x: 283.60870361328125
y: 347.7725524902344
z: 0.006277351640164852
visibility: 0.8732009530067444
","x: 247.5717010498047
y: 347.7022705078125
z: -0.0623059943318367
visibility: 0.8680744767189026
","x: 281.4872131347656
y: 379.739501953125
z: -0.0660804957151413
visibility: 0.8220738768577576
","x: 252.3028564453125
y: 378.4497375488281
z: -0.11205454915761948
visibility: 0.8423424959182739
","x: 281.6322937011719
y: 390.0736999511719
z: -0.08399838954210281
visibility: 0.8000317215919495
","x: 253.4382781982422
y: 389.079345703125
z: -0.13160912692546844
visibility: 0.7910191416740417
","x: 280.8157043457031
y: 387.25958251953125
z: -0.1048915758728981
visibility: 0.8047712445259094
","x: 256.19580078125
y: 384.3460693359375
z: -0.1465596705675125
visibility: 0.7954580783843994
","x: 279.9815979003906
y: 383.13104248046875
z: -0.07622615993022919
visibility: 0.769197940826416
","x: 256.2655944824219
y: 381.66021728515625
z: -0.11701011657714844
visibility: 0.7563393712043762
","x: 277.5505065917969
y: 395.14239501953125
z: 0.015522494912147522
visibility: 0.9984106421470642
","x: 264.1346740722656
y: 395.4339294433594
z: -0.015460491180419922
visibility: 0.9996667504310608
","x: 271.85125732421875
y: 454.93994140625
z: 0.07112043350934982
visibility: 0.9205771088600159
","x: 269.64990234375
y: 455.0406494140625
z: -0.05775000900030136
visibility: 0.9375319480895996
","x: 263.50054931640625
y: 500.98870849609375
z: 0.21903617680072784
visibility: 0.9026250839233398
","x: 276.43060302734375
y: 513.969482421875
z: 0.025727247819304466
visibility: 0.9512510895729065
","x: 260.3798828125
y: 507.7302551269531
z: 0.22943973541259766
visibility: 0.8236907720565796
","x: 277.0146484375
y: 522.7214965820312
z: 0.02940269373357296
visibility: 0.8576757311820984
","x: 264.69012451171875
y: 526.1009521484375
z: 0.15326495468616486
visibility: 0.9184043407440186
","x: 276.2809753417969
y: 527.8087768554688
z: -0.07045581936836243
visibility: 0.9577198028564453
",,,,,,,,,,,,,,,,,,,,,,,,,,,,,,,,,,,,,,,,,,
25,"x: 280.7032775878906
y: 285.43988037109375
z: -0.14925308525562286
visibility: 0.999572217464447
","x: 279.7955322265625
y: 281.1986389160156
z: -0.13689306378364563
visibility: 0.9985382556915283
","x: 279.8376159667969
y: 281.1771240234375
z: -0.13690510392189026
visibility: 0.998371422290802
","x: 279.8250427246094
y: 281.14837646484375
z: -0.13689465820789337
visibility: 0.9982916116714478
","x: 278.3597717285156
y: 280.96954345703125
z: -0.15682652592658997
visibility: 0.999111533164978
","x: 277.3367919921875
y: 280.7436828613281
z: -0.15686874091625214
visibility: 0.9990641474723816
","x: 276.1297912597656
y: 280.47052001953125
z: -0.1569480299949646
visibility: 0.9992018342018127
","x: 276.678955078125
y: 282.6787109375
z: -0.06115912273526192
visibility: 0.9947109222412109
","x: 271.348388671875
y: 281.7149963378906
z: -0.14369770884513855
visibility: 0.9987572431564331
","x: 279.9849853515625
y: 290.51904296875
z: -0.11863668262958527
visibility: 0.9991866946220398
","x: 278.2038879394531
y: 290.479248046875
z: -0.14396315813064575
visibility: 0.999629020690918
","x: 284.7950439453125
y: 313.9644775390625
z: 0.007503183092921972
visibility: 0.9996128082275391
","x: 253.99403381347656
y: 310.03863525390625
z: -0.12229534238576889
visibility: 0.9998989105224609
","x: 283.8293762207031
y: 349.31939697265625
z: 0.05902662128210068
visibility: 0.8203815817832947
","x: 248.12831115722656
y: 351.0980529785156
z: -0.08884232491254807
visibility: 0.8808450102806091
","x: 283.8846130371094
y: 384.2680358886719
z: -0.0227530337870121
visibility: 0.7625309824943542
","x: 253.949951171875
y: 383.05535888671875
z: -0.07401980459690094
visibility: 0.8537784814834595
","x: 283.5673828125
y: 395.8776550292969
z: -0.04133350029587746
visibility: 0.7399033904075623
","x: 256.77056884765625
y: 393.847412109375
z: -0.087872214615345
visibility: 0.8020026683807373
","x: 284.7497863769531
y: 396.1728515625
z: -0.060853857547044754
visibility: 0.7461322546005249
","x: 259.04180908203125
y: 389.515625
z: -0.09818175435066223
visibility: 0.8059720993041992
","x: 282.9578552246094
y: 390.2334289550781
z: -0.034389737993478775
visibility: 0.7137984037399292
","x: 258.62982177734375
y: 385.9662170410156
z: -0.07599985599517822
visibility: 0.7677305936813354
","x: 279.35784912109375
y: 396.5279846191406
z: 0.029662257060408592
visibility: 0.9985038042068481
","x: 264.1035461425781
y: 395.5020446777344
z: -0.029617007821798325
visibility: 0.9996403455734253
","x: 276.46844482421875
y: 455.69573974609375
z: 0.041412096470594406
visibility: 0.9244433045387268
","x: 269.2889404296875
y: 455.2752990722656
z: -0.005088138394057751
visibility: 0.9391842484474182
","x: 268.7848205566406
y: 506.7913513183594
z: 0.19967155158519745
visibility: 0.9087049961090088
","x: 270.8913879394531
y: 512.433349609375
z: 0.16695807874202728
visibility: 0.9521076083183289
","x: 267.3628845214844
y: 512.453125
z: 0.21135394275188446
visibility: 0.8276588916778564
","x: 272.4635314941406
y: 519.5255126953125
z: 0.17969414591789246
visibility: 0.8485244512557983
","x: 272.5755920410156
y: 527.688232421875
z: 0.13181088864803314
visibility: 0.9239841103553772
","x: 271.75762939453125
y: 526.8609008789062
z: 0.09190501272678375
visibility: 0.9587660431861877
",,,,,,,,,,,,,,,,,,,,,,,,,,,,,,,,,,,,,,,,,,
26,"x: 282.22100830078125
y: 284.2078857421875
z: -0.13879413902759552
visibility: 0.9995678663253784
","x: 280.96466064453125
y: 280.0753479003906
z: -0.12627167999744415
visibility: 0.9985765218734741
","x: 280.9300537109375
y: 280.08111572265625
z: -0.1262919008731842
visibility: 0.9984150528907776
","x: 280.83172607421875
y: 280.0658874511719
z: -0.1262729912996292
visibility: 0.9983338713645935
","x: 279.7502746582031
y: 279.955810546875
z: -0.14685913920402527
visibility: 0.9991263747215271
","x: 278.80340576171875
y: 279.8428649902344
z: -0.14690354466438293
visibility: 0.9990872740745544
","x: 277.66802978515625
y: 279.67242431640625
z: -0.1469816416501999
visibility: 0.9992231726646423
","x: 277.2555236816406
y: 282.2597961425781
z: -0.05071032792329788
visibility: 0.9949332475662231
","x: 272.6399841308594
y: 281.58258056640625
z: -0.14232191443443298
visibility: 0.9988332986831665
","x: 281.7674560546875
y: 289.6340637207031
z: -0.10801587998867035
visibility: 0.9992128610610962
","x: 280.1886901855469
y: 289.4332580566406
z: -0.1349720060825348
visibility: 0.9996432065963745
","x: 284.77313232421875
y: 314.5458068847656
z: 0.01580730453133583
visibility: 0.9996153116226196
","x: 254.15130615234375
y: 310.635009765625
z: -0.1266484558582306
visibility: 0.9999033808708191
","x: 283.7883605957031
y: 349.71063232421875
z: 0.059104710817337036
visibility: 0.7675512433052063
","x: 248.64561462402344
y: 355.77215576171875
z: -0.1000346690416336
visibility: 0.8923607468605042
","x: 283.45709228515625
y: 384.6171569824219
z: -0.028963640332221985
visibility: 0.7081696391105652
","x: 255.00994873046875
y: 385.52850341796875
z: -0.08803557604551315
visibility: 0.8652825951576233
","x: 284.3385314941406
y: 397.6734924316406
z: -0.04756808653473854
visibility: 0.6860342025756836
","x: 258.0197448730469
y: 396.0840148925781
z: -0.10511362552642822
visibility: 0.8147479891777039
","x: 284.1577453613281
y: 395.589599609375
z: -0.06722739338874817
visibility: 0.6936705112457275
","x: 260.1578674316406
y: 391.626953125
z: -0.1149766594171524
visibility: 0.8183478116989136
","x: 283.08453369140625
y: 391.185791015625
z: -0.04066500812768936
visibility: 0.6641908884048462
","x: 259.72967529296875
y: 388.05364990234375
z: -0.09087125957012177
visibility: 0.7809855341911316
","x: 279.594970703125
y: 397.4529724121094
z: 0.03500599041581154
visibility: 0.9985466599464417
","x: 264.70452880859375
y: 395.65625
z: -0.03494589030742645
visibility: 0.9996033310890198
","x: 277.8719787597656
y: 455.9819030761719
z: 0.034391436725854874
visibility: 0.9251695871353149
","x: 269.3538513183594
y: 455.6930236816406
z: -0.021206503733992577
visibility: 0.9399584531784058
","x: 268.71893310546875
y: 507.0767822265625
z: 0.19818046689033508
visibility: 0.9116559624671936
","x: 269.8652038574219
y: 511.7753601074219
z: 0.14489814639091492
visibility: 0.9528520107269287
","x: 264.8009948730469
y: 512.5101318359375
z: 0.2107178270816803
visibility: 0.8308223485946655
","x: 270.2918701171875
y: 517.8504638671875
z: 0.15674424171447754
visibility: 0.8442662954330444
","x: 272.6062316894531
y: 527.4669189453125
z: 0.1355287879705429
visibility: 0.9275105595588684
","x: 272.51654052734375
y: 526.2943725585938
z: 0.06813200563192368
visibility: 0.9592374563217163
",,,,,,,,,,,,,,,,,,,,,,,,,,,,,,,,,,,,,,,,,,
27,"x: 282.0284729003906
y: 287.485107421875
z: -0.15505509078502655
visibility: 0.9995306134223938
","x: 281.5320129394531
y: 283.2176513671875
z: -0.1415105164051056
visibility: 0.9985390305519104
","x: 281.6812438964844
y: 283.1844787597656
z: -0.1415252387523651
visibility: 0.9983686208724976
","x: 281.7848815917969
y: 283.1561584472656
z: -0.14150026440620422
visibility: 0.9982772469520569
","x: 279.9622497558594
y: 282.8367919921875
z: -0.16124022006988525
visibility: 0.9991233348846436
","x: 278.9282531738281
y: 282.50543212890625
z: -0.16129185259342194
visibility: 0.9990890622138977
","x: 277.7846374511719
y: 282.148193359375
z: -0.16137495636940002
visibility: 0.9992313385009766
","x: 278.7264709472656
y: 284.3881530761719
z: -0.059420060366392136
visibility: 0.9948482513427734
","x: 273.00830078125
y: 283.1971130371094
z: -0.15562036633491516
visibility: 0.9989026188850403
","x: 281.5714111328125
y: 293.1506042480469
z: -0.12181524932384491
visibility: 0.999154269695282
","x: 279.55303955078125
y: 292.81378173828125
z: -0.14757058024406433
visibility: 0.9996411800384521
","x: 285.0921325683594
y: 314.9520263671875
z: 0.018161604180932045
visibility: 0.9994716048240662
","x: 255.17568969726562
y: 311.71240234375
z: -0.13603250682353973
visibility: 0.9999080896377563
","x: 283.3627624511719
y: 350.20611572265625
z: 0.0642574280500412
visibility: 0.7061147093772888
","x: 248.71453857421875
y: 358.1100158691406
z: -0.10293513536453247
visibility: 0.902671217918396
","x: 283.03997802734375
y: 386.5616149902344
z: -0.015811854973435402
visibility: 0.6467048525810242
","x: 256.5774841308594
y: 387.8428955078125
z: -0.08093531429767609
visibility: 0.8740135431289673
","x: 282.8999938964844
y: 395.362548828125
z: -0.030485820025205612
visibility: 0.6271924376487732
","x: 259.4140319824219
y: 397.1113586425781
z: -0.09318094700574875
visibility: 0.8230668306350708
","x: 283.447998046875
y: 395.2058410644531
z: -0.04934530705213547
visibility: 0.634777843952179
","x: 261.7123718261719
y: 392.8332214355469
z: -0.10117286443710327
visibility: 0.8261958956718445
","x: 282.3724060058594
y: 390.9399108886719
z: -0.026893239468336105
visibility: 0.6080347895622253
","x: 261.3540954589844
y: 389.5705871582031
z: -0.08156820386648178
visibility: 0.7888607382774353
","x: 279.72265625
y: 398.20977783203125
z: 0.0381748341023922
visibility: 0.9981450438499451
","x: 264.7530212402344
y: 398.4495544433594
z: -0.03806333988904953
visibility: 0.9995594024658203
","x: 277.53961181640625
y: 456.2624816894531
z: 0.0459013506770134
visibility: 0.9227962493896484
","x: 271.4915771484375
y: 455.5340576171875
z: -0.06204435974359512
visibility: 0.9423143267631531
","x: 266.75738525390625
y: 507.74554443359375
z: 0.1802832931280136
visibility: 0.9151197075843811
","x: 274.88470458984375
y: 514.568603515625
z: 0.04018393158912659
visibility: 0.9555732607841492
","x: 264.3104553222656
y: 512.7974853515625
z: 0.18472124636173248
visibility: 0.839701771736145
","x: 275.8736267089844
y: 523.8409423828125
z: 0.0427066795527935
visibility: 0.8526681661605835
","x: 269.8982238769531
y: 527.3477783203125
z: 0.12317053228616714
visibility: 0.9305021166801453
","x: 276.0185241699219
y: 528.5875854492188
z: -0.05453499034047127
visibility: 0.9610675573348999
",,,,,,,,,,,,,,,,,,,,,,,,,,,,,,,,,,,,,,,,,,
28,"x: 280.54486083984375
y: 298.4212646484375
z: -0.2406536042690277
visibility: 0.9993907809257507
","x: 280.06280517578125
y: 293.4176940917969
z: -0.22392936050891876
visibility: 0.9981051683425903
","x: 280.29730224609375
y: 293.3875732421875
z: -0.22399243712425232
visibility: 0.9979458451271057
","x: 280.5399169921875
y: 293.355712890625
z: -0.22401610016822815
visibility: 0.9977709054946899
","x: 278.39898681640625
y: 293.05364990234375
z: -0.23694443702697754
visibility: 0.9989231824874878
","x: 277.3453369140625
y: 292.720703125
z: -0.2369789332151413
visibility: 0.9988942742347717
","x: 276.1920471191406
y: 292.3702392578125
z: -0.23708102107048035
visibility: 0.9990569949150085
","x: 277.9666442871094
y: 293.72735595703125
z: -0.12743578851222992
visibility: 0.9928972721099854
","x: 271.5491027832031
y: 292.6291198730469
z: -0.18788781762123108
visibility: 0.9986950159072876
","x: 280.0054626464844
y: 303.3691711425781
z: -0.20317897200584412
visibility: 0.9989063143730164
","x: 278.0986633300781
y: 303.0569152832031
z: -0.2206309735774994
visibility: 0.9996035695075989
","x: 285.0390930175781
y: 320.5360107421875
z: -0.06448708474636078
visibility: 0.9993599653244019
","x: 255.49143981933594
y: 323.0529479980469
z: -0.12806418538093567
visibility: 0.9999060034751892
","x: 283.52996826171875
y: 356.7854309082031
z: -0.04090855270624161
visibility: 0.6715939044952393
","x: 248.24632263183594
y: 365.4202880859375
z: -0.08632469922304153
visibility: 0.9054401516914368
","x: 282.7366943359375
y: 383.5483093261719
z: -0.12877608835697174
visibility: 0.603736400604248
","x: 255.63641357421875
y: 395.317138671875
z: -0.0980481505393982
visibility: 0.8624842166900635
","x: 282.6717224121094
y: 390.9388732910156
z: -0.1525864452123642
visibility: 0.5913425087928772
","x: 257.8018493652344
y: 404.80780029296875
z: -0.11420343071222305
visibility: 0.8096131682395935
","x: 282.5223388671875
y: 388.1424560546875
z: -0.17238758504390717
visibility: 0.5995962023735046
","x: 260.10174560546875
y: 401.65606689453125
z: -0.1266726553440094
visibility: 0.8123688101768494
","x: 281.7395324707031
y: 384.86041259765625
z: -0.13976949453353882
visibility: 0.5689337849617004
","x: 259.71685791015625
y: 396.96002197265625
z: -0.10132358223199844
visibility: 0.7703018188476562
","x: 279.78875732421875
y: 406.068115234375
z: 0.028526101261377335
visibility: 0.9979335069656372
","x: 264.44073486328125
y: 405.67437744140625
z: -0.02846578322350979
visibility: 0.9995797872543335
","x: 278.92498779296875
y: 461.5435791015625
z: 0.05713307112455368
visibility: 0.9191855788230896
","x: 270.3970947265625
y: 457.84259033203125
z: -0.19088438153266907
visibility: 0.9462971091270447
","x: 265.86627197265625
y: 507.6487731933594
z: 0.2707257568836212
visibility: 0.9093154072761536
","x: 274.9191589355469
y: 517.254638671875
z: -0.08747945725917816
visibility: 0.9590780735015869
","x: 262.2562255859375
y: 512.661376953125
z: 0.28800222277641296
visibility: 0.8326711654663086
","x: 275.9758605957031
y: 527.9807739257812
z: -0.08293575793504715
visibility: 0.8565521240234375
","x: 268.7518615722656
y: 529.4182739257812
z: 0.21478529274463654
visibility: 0.9260459542274475
","x: 274.7301330566406
y: 532.1805419921875
z: -0.20105132460594177
visibility: 0.9635878801345825
",,,,,,,,,,,,,,,,,,,,,,,,,,,,,,,,,,,,,,,,,,
29,"x: 278.7688293457031
y: 298.4917297363281
z: -0.14015313982963562
visibility: 0.9994488954544067
","x: 278.0315246582031
y: 293.3587951660156
z: -0.12330589443445206
visibility: 0.9982835650444031
","x: 278.3197326660156
y: 293.3655700683594
z: -0.12328360229730606
visibility: 0.9981357455253601
","x: 278.66351318359375
y: 293.348876953125
z: -0.12328948825597763
visibility: 0.9979752898216248
","x: 276.380615234375
y: 293.2618408203125
z: -0.14288614690303802
visibility: 0.9990273714065552
","x: 275.362060546875
y: 293.20037841796875
z: -0.14291362464427948
visibility: 0.9990014433860779
","x: 274.27020263671875
y: 293.1203918457031
z: -0.14300452172756195
visibility: 0.9991487264633179
","x: 277.6163330078125
y: 294.99078369140625
z: -0.03497026115655899
visibility: 0.9935738444328308
","x: 269.95562744140625
y: 294.8754577636719
z: -0.12623639404773712
visibility: 0.9988242983818054
","x: 278.2787170410156
y: 303.66497802734375
z: -0.10546920448541641
visibility: 0.999002993106842
","x: 276.2835388183594
y: 303.9981384277344
z: -0.13145777583122253
visibility: 0.999640703201294
","x: 284.7652282714844
y: 321.4217834472656
z: 0.028703946620225906
visibility: 0.9993370175361633
","x: 254.65716552734375
y: 328.5145263671875
z: -0.1113368421792984
visibility: 0.9999029636383057
","x: 287.2102966308594
y: 340.58367919921875
z: 0.07001861184835434
visibility: 0.6630663871765137
","x: 247.6939697265625
y: 368.9800720214844
z: -0.09246822446584702
visibility: 0.9135416746139526
","x: 282.7652587890625
y: 303.9988098144531
z: 0.034736569970846176
visibility: 0.5987421274185181
","x: 255.29502868652344
y: 393.6389465332031
z: -0.10143377631902695
visibility: 0.8701532483100891
","x: 285.1124572753906
y: 295.3213806152344
z: 0.024664267897605896
visibility: 0.5719351768493652
","x: 258.07666015625
y: 402.9857177734375
z: -0.11512117087841034
visibility: 0.8154581189155579
","x: 284.7900695800781
y: 291.08856201171875
z: 0.02186499908566475
visibility: 0.5791260004043579
","x: 259.73779296875
y: 399.080078125
z: -0.12622953951358795
visibility: 0.8173521757125854
","x: 284.7074890136719
y: 294.4906921386719
z: 0.030099209398031235
visibility: 0.5503818988800049
","x: 259.2157897949219
y: 395.5383605957031
z: -0.10286885499954224
visibility: 0.7743863463401794
