uscmakers/ReverseChoreography/data/7_lite_spots_kaytranada.csv
,NOSE,LEFT_EYE_INNER,LEFT_EYE,LEFT_EYE_OUTER,RIGHT_EYE_INNER,RIGHT_EYE,RIGHT_EYE_OUTER,LEFT_EAR,RIGHT_EAR,MOUTH_LEFT,MOUTH_RIGHT,LEFT_SHOULDER,RIGHT_SHOULDER,LEFT_ELBOW,RIGHT_ELBOW,LEFT_WRIST,RIGHT_WRIST,LEFT_PINKY,RIGHT_PINKY,LEFT_INDEX,RIGHT_INDEX,LEFT_THUMB,RIGHT_THUMB,LEFT_HIP,RIGHT_HIP,LEFT_KNEE,RIGHT_KNEE,LEFT_ANKLE,RIGHT_ANKLE,LEFT_HEEL,RIGHT_HEEL,LEFT_FOOT_INDEX,RIGHT_FOOT_INDEX,WRIST,THUMB_CPC,THUMB_MCP,THUMB_IP,THUMB_TIP,INDEX_FINGER_MCP,INDEX_FINGER_PIP,INDEX_FINGER_DIP,INDEX_FINGER_TIP,MIDDLE_FINGER_MCP,MIDDLE_FINGER_PIP,MIDDLE_FINGER_DIP,MIDDLE_FINGER_TIP,RING_FINGER_PIP,RING_FINGER_DIP,RING_FINGER_TIP,RING_FINGER_MCP,PINKY_MCP,PINKY_PIP,PINKY_DIP,PINKY_TIP,WRIST2,THUMB_CPC2,THUMB_MCP2,THUMB_IP2,THUMB_TIP2,INDEX_FINGER_MCP2,INDEX_FINGER_PIP2,INDEX_FINGER_DIP2,INDEX_FINGER_TIP2,MIDDLE_FINGER_MCP2,MIDDLE_FINGER_PIP2,MIDDLE_FINGER_DIP2,MIDDLE_FINGER_TIP2,RING_FINGER_PIP2,RING_FINGER_DIP2,RING_FINGER_TIP2,RING_FINGER_MCP2,PINKY_MCP2,PINKY_PIP2,PINKY_DIP2,PINKY_TIP2
0,"x: 269.7276306152344
y: 297.0156555175781
z: -0.3358774781227112
visibility: 0.999416708946228
","x: 271.4803466796875
y: 290.16766357421875
z: -0.32342854142189026
visibility: 0.998611330986023
","x: 272.5294189453125
y: 290.33087158203125
z: -0.32343432307243347
visibility: 0.9986404776573181
","x: 273.6263122558594
y: 290.53961181640625
z: -0.3234894871711731
visibility: 0.9988889098167419
","x: 268.11614990234375
y: 290.0924377441406
z: -0.3210153877735138
visibility: 0.9981666803359985
","x: 266.7579040527344
y: 290.187255859375
z: -0.3210691809654236
visibility: 0.9979769587516785
","x: 265.3579406738281
y: 290.3516845703125
z: -0.3210505247116089
visibility: 0.9980200529098511
","x: 275.105712890625
y: 292.96624755859375
z: -0.23142912983894348
visibility: 0.9979861974716187
","x: 262.94024658203125
y: 292.57623291015625
z: -0.21909105777740479
visibility: 0.9922887682914734
","x: 271.7236022949219
y: 303.27166748046875
z: -0.3001859486103058
visibility: 0.999294638633728
","x: 267.53619384765625
y: 304.03045654296875
z: -0.29693737626075745
visibility: 0.9985672235488892
","x: 286.52032470703125
y: 326.28228759765625
z: -0.19702889025211334
visibility: 0.999922513961792
","x: 251.9346923828125
y: 327.7313232421875
z: -0.12008310854434967
visibility: 0.9994818568229675
","x: 298.2913818359375
y: 362.6951904296875
z: -0.256649374961853
visibility: 0.991897702217102
","x: 247.22642517089844
y: 363.030517578125
z: -0.14786562323570251
visibility: 0.8950802683830261
","x: 287.6546630859375
y: 391.7605285644531
z: -0.37925654649734497
visibility: 0.9339954257011414
","x: 249.93788146972656
y: 394.96392822265625
z: -0.30965420603752136
visibility: 0.7905569076538086
","x: 285.2179870605469
y: 403.1017761230469
z: -0.4237198233604431
visibility: 0.8705184459686279
","x: 249.01470947265625
y: 403.0944519042969
z: -0.34565719962120056
visibility: 0.7150646448135376
","x: 281.6690673828125
y: 397.8381042480469
z: -0.43137016892433167
visibility: 0.873688280582428
","x: 250.52301025390625
y: 401.8001708984375
z: -0.3697863519191742
visibility: 0.7250163555145264
","x: 281.9949035644531
y: 394.3741455078125
z: -0.38513118028640747
visibility: 0.8168008923530579
","x: 252.3070068359375
y: 398.0722351074219
z: -0.32379865646362305
visibility: 0.6882007122039795
","x: 280.248779296875
y: 406.5878601074219
z: -0.035957057029008865
visibility: 0.9996274709701538
","x: 260.833984375
y: 404.68408203125
z: 0.03596585616469383
visibility: 0.9992850422859192
","x: 274.7904052734375
y: 456.6780090332031
z: -0.1401824802160263
visibility: 0.9902296662330627
","x: 252.96844482421875
y: 452.7686767578125
z: 0.02245786413550377
visibility: 0.9494951367378235
","x: 289.66485595703125
y: 510.4061584472656
z: -0.012199638411402702
visibility: 0.987874448299408
","x: 248.85655212402344
y: 509.47119140625
z: 0.18490128219127655
visibility: 0.9716395139694214
","x: 292.3554382324219
y: 515.730712890625
z: -0.005920924246311188
visibility: 0.7686081528663635
","x: 251.3334503173828
y: 517.5985107421875
z: 0.19456081092357635
visibility: 0.872891902923584
","x: 286.4539489746094
y: 530.4003295898438
z: -0.12143455445766449
visibility: 0.9768417477607727
","x: 238.99758911132812
y: 527.5031127929688
z: 0.09651672840118408
visibility: 0.9666379690170288
",,,,,,,,,,,,,,,,,,,,,,,,,,,,,,,,,,,,,,,,,,
1,"x: 279.982666015625
y: 288.2098388671875
z: -0.28445881605148315
visibility: 0.9994710683822632
","x: 281.620849609375
y: 282.87652587890625
z: -0.27136605978012085
visibility: 0.9987318515777588
","x: 282.5960693359375
y: 283.0121765136719
z: -0.27138927578926086
visibility: 0.9987618327140808
","x: 283.5514221191406
y: 283.1814270019531
z: -0.27145397663116455
visibility: 0.998985767364502
","x: 278.38983154296875
y: 282.843994140625
z: -0.2704951763153076
visibility: 0.9983243346214294
","x: 277.0916442871094
y: 282.96478271484375
z: -0.2705131769180298
visibility: 0.9981505274772644
","x: 275.796875
y: 283.0862731933594
z: -0.27050527930259705
visibility: 0.9981773495674133
","x: 285.3581237792969
y: 286.4555969238281
z: -0.18198053538799286
visibility: 0.9981731176376343
","x: 274.5152893066406
y: 285.728515625
z: -0.17582574486732483
visibility: 0.9929533004760742
","x: 282.134033203125
y: 294.151123046875
z: -0.24987995624542236
visibility: 0.9993599653244019
","x: 277.5481262207031
y: 294.5785827636719
z: -0.24843236804008484
visibility: 0.9986927509307861
","x: 296.57208251953125
y: 318.6203918457031
z: -0.13283680379390717
visibility: 0.9999294877052307
","x: 263.8614501953125
y: 315.98638916015625
z: -0.09556563943624496
visibility: 0.9994941353797913
","x: 306.1400146484375
y: 359.4152526855469
z: -0.11645708233118057
visibility: 0.9920538663864136
","x: 263.0491027832031
y: 354.5773620605469
z: -0.11261991411447525
visibility: 0.8706270456314087
","x: 317.49029541015625
y: 389.1274719238281
z: -0.18642157316207886
visibility: 0.9371393918991089
","x: 268.118408203125
y: 378.8519287109375
z: -0.23881760239601135
visibility: 0.7654902338981628
","x: 321.3151550292969
y: 397.8971862792969
z: -0.20973947644233704
visibility: 0.8767911791801453
","x: 267.83880615234375
y: 388.3856506347656
z: -0.26734015345573425
visibility: 0.6924773454666138
","x: 321.01446533203125
y: 397.3785095214844
z: -0.235891193151474
visibility: 0.8804776668548584
","x: 268.9129638671875
y: 395.33489990234375
z: -0.2922583222389221
visibility: 0.7034893035888672
","x: 319.2751159667969
y: 394.08319091796875
z: -0.19829703867435455
visibility: 0.8273411989212036
","x: 269.9827575683594
y: 391.0702819824219
z: -0.25256234407424927
visibility: 0.6675742864608765
","x: 293.8860168457031
y: 396.791259765625
z: -0.029737314209342003
visibility: 0.9996580481529236
","x: 275.51678466796875
y: 399.3009948730469
z: 0.029752489179372787
visibility: 0.9993338584899902
","x: 292.2817077636719
y: 452.18853759765625
z: -0.14016617834568024
visibility: 0.9910176992416382
","x: 272.5649719238281
y: 454.86248779296875
z: 0.04990940913558006
visibility: 0.9522804021835327
","x: 303.607421875
y: 506.73968505859375
z: -0.023878924548625946
visibility: 0.9888980388641357
","x: 277.661376953125
y: 508.943359375
z: 0.2275179624557495
visibility: 0.9735538363456726
","x: 307.3672180175781
y: 513.5411987304688
z: -0.019472165033221245
visibility: 0.778319776058197
","x: 281.047119140625
y: 516.3978271484375
z: 0.2380620539188385
visibility: 0.8802434802055359
","x: 296.8936767578125
y: 530.0255737304688
z: -0.14220280945301056
visibility: 0.9787794947624207
","x: 266.75701904296875
y: 528.0169677734375
z: 0.14669044315814972
visibility: 0.9689967632293701
","x: 273.1534423828125
y: 373.2651062011719
z: 0.0
","x: 277.42803955078125
y: 384.6085205078125
z: 0.004587662871927023
","x: 277.7855529785156
y: 393.66845703125
z: 0.004303834401071072
","x: 276.7773742675781
y: 399.52325439453125
z: 0.0024764961563050747
","x: 275.01483154296875
y: 402.21087646484375
z: 0.001465351670049131
","x: 270.23004150390625
y: 403.66986083984375
z: 0.0030778555665165186
","x: 274.78338623046875
y: 408.41973876953125
z: 0.0009131022961810231
","x: 276.4667053222656
y: 404.96923828125
z: 0.000285653950413689
","x: 276.45391845703125
y: 402.00653076171875
z: 0.00012473030074033886
","x: 269.4333190917969
y: 402.263671875
z: -0.0016184989362955093
","x: 276.4505615234375
y: 405.6019287109375
z: -0.003144515212625265
","x: 277.42236328125
y: 401.9299621582031
z: -0.0023731105029582977
","x: 276.5596923828125
y: 398.9252014160156
z: -0.0020158521365374327
","x: 269.805419921875
y: 399.41461181640625
z: -0.006408815737813711
","x: 276.7469787597656
y: 401.7052001953125
z: -0.0071746730245649815
","x: 277.30670166015625
y: 397.51959228515625
z: -0.004948887508362532
","x: 276.3659973144531
y: 394.33489990234375
z: -0.003696223720908165
","x: 270.9931640625
y: 395.61468505859375
z: -0.011156568303704262
","x: 276.2593078613281
y: 397.5019836425781
z: -0.010968090035021305
","x: 276.6885986328125
y: 394.10772705078125
z: -0.008907918818295002
","x: 275.84027099609375
y: 391.18902587890625
z: -0.007546984124928713
",,,,,,,,,,,,,,,,,,,,,
2,"x: 279.982666015625
y: 288.2098388671875
z: -0.28445881605148315
visibility: 0.9994710683822632
","x: 281.620849609375
y: 282.87652587890625
z: -0.27136605978012085
visibility: 0.9987318515777588
","x: 282.5960693359375
y: 283.0121765136719
z: -0.27138927578926086
visibility: 0.9987618327140808
","x: 283.5514221191406
y: 283.1814270019531
z: -0.27145397663116455
visibility: 0.998985767364502
","x: 278.38983154296875
y: 282.843994140625
z: -0.2704951763153076
visibility: 0.9983243346214294
","x: 277.0916442871094
y: 282.96478271484375
z: -0.2705131769180298
visibility: 0.9981505274772644
","x: 275.796875
y: 283.0862731933594
z: -0.27050527930259705
visibility: 0.9981773495674133
","x: 285.3581237792969
y: 286.4555969238281
z: -0.18198053538799286
visibility: 0.9981731176376343
","x: 274.5152893066406
y: 285.728515625
z: -0.17582574486732483
visibility: 0.9929533004760742
","x: 282.134033203125
y: 294.151123046875
z: -0.24987995624542236
visibility: 0.9993599653244019
","x: 277.5481262207031
y: 294.5785827636719
z: -0.24843236804008484
visibility: 0.9986927509307861
","x: 296.57208251953125
y: 318.6203918457031
z: -0.13283680379390717
visibility: 0.9999294877052307
","x: 263.8614501953125
y: 315.98638916015625
z: -0.09556563943624496
visibility: 0.9994941353797913
","x: 306.1400146484375
y: 359.4152526855469
z: -0.11645708233118057
visibility: 0.9920538663864136
","x: 263.0491027832031
y: 354.5773620605469
z: -0.11261991411447525
visibility: 0.8706270456314087
","x: 317.49029541015625
y: 389.1274719238281
z: -0.18642157316207886
visibility: 0.9371393918991089
","x: 268.118408203125
y: 378.8519287109375
z: -0.23881760239601135
visibility: 0.7654902338981628
","x: 321.3151550292969
y: 397.8971862792969
z: -0.20973947644233704
visibility: 0.8767911791801453
","x: 267.83880615234375
y: 388.3856506347656
z: -0.26734015345573425
visibility: 0.6924773454666138
","x: 321.01446533203125
y: 397.3785095214844
z: -0.235891193151474
visibility: 0.8804776668548584
","x: 268.9129638671875
y: 395.33489990234375
z: -0.2922583222389221
visibility: 0.7034893035888672
","x: 319.2751159667969
y: 394.08319091796875
z: -0.19829703867435455
visibility: 0.8273411989212036
","x: 269.9827575683594
y: 391.0702819824219
z: -0.25256234407424927
visibility: 0.6675742864608765
","x: 293.8860168457031
y: 396.791259765625
z: -0.029737314209342003
visibility: 0.9996580481529236
","x: 275.51678466796875
y: 399.3009948730469
z: 0.029752489179372787
visibility: 0.9993338584899902
","x: 292.2817077636719
y: 452.18853759765625
z: -0.14016617834568024
visibility: 0.9910176992416382
","x: 272.5649719238281
y: 454.86248779296875
z: 0.04990940913558006
visibility: 0.9522804021835327
","x: 303.607421875
y: 506.73968505859375
z: -0.023878924548625946
visibility: 0.9888980388641357
","x: 277.661376953125
y: 508.943359375
z: 0.2275179624557495
visibility: 0.9735538363456726
","x: 307.3672180175781
y: 513.5411987304688
z: -0.019472165033221245
visibility: 0.778319776058197
","x: 281.047119140625
y: 516.3978271484375
z: 0.2380620539188385
visibility: 0.8802434802055359
","x: 296.8936767578125
y: 530.0255737304688
z: -0.14220280945301056
visibility: 0.9787794947624207
","x: 266.75701904296875
y: 528.0169677734375
z: 0.14669044315814972
visibility: 0.9689967632293701
","x: 273.1534423828125
y: 373.2651062011719
z: 0.0
","x: 277.42803955078125
y: 384.6085205078125
z: 0.004587662871927023
","x: 277.7855529785156
y: 393.66845703125
z: 0.004303834401071072
","x: 276.7773742675781
y: 399.52325439453125
z: 0.0024764961563050747
","x: 275.01483154296875
y: 402.21087646484375
z: 0.001465351670049131
","x: 270.23004150390625
y: 403.66986083984375
z: 0.0030778555665165186
","x: 274.78338623046875
y: 408.41973876953125
z: 0.0009131022961810231
","x: 276.4667053222656
y: 404.96923828125
z: 0.000285653950413689
","x: 276.45391845703125
y: 402.00653076171875
z: 0.00012473030074033886
","x: 269.4333190917969
y: 402.263671875
z: -0.0016184989362955093
","x: 276.4505615234375
y: 405.6019287109375
z: -0.003144515212625265
","x: 277.42236328125
y: 401.9299621582031
z: -0.0023731105029582977
","x: 276.5596923828125
y: 398.9252014160156
z: -0.0020158521365374327
","x: 269.805419921875
y: 399.41461181640625
z: -0.006408815737813711
","x: 276.7469787597656
y: 401.7052001953125
z: -0.0071746730245649815
","x: 277.30670166015625
y: 397.51959228515625
z: -0.004948887508362532
","x: 276.3659973144531
y: 394.33489990234375
z: -0.003696223720908165
","x: 270.9931640625
y: 395.61468505859375
z: -0.011156568303704262
","x: 276.2593078613281
y: 397.5019836425781
z: -0.010968090035021305
","x: 276.6885986328125
y: 394.10772705078125
z: -0.008907918818295002
","x: 275.84027099609375
y: 391.18902587890625
z: -0.007546984124928713
",,,,,,,,,,,,,,,,,,,,,
3,"x: 279.7004089355469
y: 287.48443603515625
z: -0.19912688434123993
visibility: 0.9994406700134277
","x: 281.80963134765625
y: 281.1578063964844
z: -0.19466260075569153
visibility: 0.998587965965271
","x: 283.0445861816406
y: 280.99261474609375
z: -0.19471195340156555
visibility: 0.9986114501953125
","x: 284.33099365234375
y: 280.92022705078125
z: -0.19474342465400696
visibility: 0.9988119602203369
","x: 278.8245849609375
y: 281.73748779296875
z: -0.18244342505931854
visibility: 0.9982615113258362
","x: 277.9691467285156
y: 281.90667724609375
z: -0.18246953189373016
visibility: 0.9980770349502563
","x: 277.15216064453125
y: 282.0870361328125
z: -0.1824912130832672
visibility: 0.9981495141983032
","x: 287.5343322753906
y: 283.80010986328125
z: -0.14112097024917603
visibility: 0.9980674982070923
","x: 277.9627380371094
y: 284.4041748046875
z: -0.08353885263204575
visibility: 0.9930434823036194
","x: 282.4852294921875
y: 292.690185546875
z: -0.1774655282497406
visibility: 0.9993252754211426
","x: 278.6665344238281
y: 293.1505432128906
z: -0.16088756918907166
visibility: 0.9986957907676697
","x: 300.19342041015625
y: 314.1631774902344
z: -0.13354718685150146
visibility: 0.9999275207519531
","x: 270.3231201171875
y: 317.9967956542969
z: 0.017913777381181717
visibility: 0.9995279908180237
","x: 312.7490539550781
y: 345.545654296875
z: -0.1698167473077774
visibility: 0.9922912120819092
","x: 261.74945068359375
y: 355.6820373535156
z: 0.06949067860841751
visibility: 0.8663477897644043
","x: 305.6839294433594
y: 371.5018310546875
z: -0.2493448257446289
visibility: 0.9375650882720947
","x: 261.83514404296875
y: 383.6002197265625
z: -0.013736280612647533
visibility: 0.7791984677314758
","x: 304.44683837890625
y: 383.6695861816406
z: -0.27957862615585327
visibility: 0.8768343329429626
","x: 254.83274841308594
y: 392.197998046875
z: -0.030778784304857254
visibility: 0.7078016400337219
","x: 302.1654968261719
y: 380.1570129394531
z: -0.2871883809566498
visibility: 0.8801701664924622
","x: 255.2724609375
y: 395.0975341796875
z: -0.05758066102862358
visibility: 0.7189491391181946
","x: 302.16943359375
y: 375.55029296875
z: -0.25342297554016113
visibility: 0.8276005387306213
","x: 256.43304443359375
y: 392.02886962890625
z: -0.02744651772081852
visibility: 0.6859826445579529
","x: 295.2652893066406
y: 398.3266906738281
z: -0.05468020960688591
visibility: 0.9996070265769958
","x: 278.7146301269531
y: 399.767822265625
z: 0.05475382134318352
visibility: 0.9993626475334167
","x: 292.25579833984375
y: 455.2415771484375
z: -0.07854654639959335
visibility: 0.9878354668617249
","x: 273.4893493652344
y: 456.3908386230469
z: -0.006655462086200714
visibility: 0.9456157088279724
","x: 303.3963317871094
y: 506.9554443359375
z: 0.0391397699713707
visibility: 0.9872268438339233
","x: 277.46136474609375
y: 514.4653930664062
z: 0.09450139105319977
visibility: 0.9726812243461609
","x: 307.2568664550781
y: 513.6363525390625
z: 0.04658012092113495
visibility: 0.7811989188194275
","x: 284.9777526855469
y: 527.0702514648438
z: 0.09926388412714005
visibility: 0.8843290209770203
","x: 297.4922790527344
y: 530.0385131835938
z: -0.03160228952765465
visibility: 0.9779074192047119
","x: 268.0201110839844
y: 529.3980712890625
z: 0.023953132331371307
visibility: 0.9689285159111023
",,,,,,,,,,,,,,,,,,,,,,,,,,,,,,,,,,,,,,,,,,
4,"x: 277.44915771484375
y: 284.9198303222656
z: -0.06876326352357864
visibility: 0.9994676113128662
","x: 279.5917053222656
y: 279.1894836425781
z: -0.07717994600534439
visibility: 0.9987086057662964
","x: 280.61688232421875
y: 279.1590576171875
z: -0.0772375613451004
visibility: 0.9987308979034424
","x: 281.7203369140625
y: 279.141357421875
z: -0.07726820558309555
visibility: 0.9989160299301147
","x: 277.80145263671875
y: 279.15887451171875
z: -0.05449802428483963
visibility: 0.9983996748924255
","x: 277.66119384765625
y: 279.1326599121094
z: -0.054521024227142334
visibility: 0.9982290267944336
","x: 277.6554870605469
y: 279.0662536621094
z: -0.05457543209195137
visibility: 0.9983029961585999
","x: 285.6492004394531
y: 282.16375732421875
z: -0.08134891092777252
visibility: 0.9982402324676514
","x: 282.2572937011719
y: 281.8293151855469
z: 0.01970849558711052
visibility: 0.9936705231666565
","x: 279.85260009765625
y: 291.7510986328125
z: -0.06844845414161682
visibility: 0.9993751049041748
","x: 277.4077453613281
y: 291.73486328125
z: -0.03922530636191368
visibility: 0.9987687468528748
","x: 296.1133728027344
y: 308.0289001464844
z: -0.10896811634302139
visibility: 0.9999280571937561
","x: 280.1611633300781
y: 315.2384033203125
z: 0.10358371585607529
visibility: 0.9994446039199829
","x: 308.3362731933594
y: 349.17852783203125
z: -0.15776093304157257
visibility: 0.9895226955413818
","x: 272.02215576171875
y: 348.890380859375
z: 0.13460196554660797
visibility: 0.8004150390625
","x: 300.9425964355469
y: 377.8641357421875
z: -0.20858970284461975
visibility: 0.9307577013969421
","x: 261.14971923828125
y: 354.9642639160156
z: 0.04203486070036888
visibility: 0.7455276846885681
","x: 300.0682067871094
y: 389.559814453125
z: -0.2313709706068039
visibility: 0.8723657727241516
","x: 256.9038391113281
y: 357.2792053222656
z: 0.03266211971640587
visibility: 0.6844258308410645
","x: 297.4040832519531
y: 385.496826171875
z: -0.23627504706382751
visibility: 0.875084400177002
","x: 256.1575622558594
y: 352.7492980957031
z: 0.012610780075192451
visibility: 0.6973946690559387
","x: 297.2903137207031
y: 381.4092712402344
z: -0.21013960242271423
visibility: 0.8218415975570679
","x: 257.5145568847656
y: 352.66107177734375
z: 0.029990816488862038
visibility: 0.6665241718292236
","x: 291.71099853515625
y: 393.49591064453125
z: -0.06943158805370331
visibility: 0.9996277093887329
","x: 284.4740905761719
y: 395.78021240234375
z: 0.06950435042381287
visibility: 0.9993503093719482
","x: 283.85028076171875
y: 450.33984375
z: -0.08771657943725586
visibility: 0.9868124723434448
","x: 277.6961669921875
y: 453.31378173828125
z: 0.030182167887687683
visibility: 0.9400836229324341
","x: 288.5415344238281
y: 509.4443054199219
z: -0.07094994187355042
visibility: 0.9877975583076477
","x: 292.7241516113281
y: 487.4997253417969
z: 0.12386850267648697
visibility: 0.9554318785667419
","x: 292.1186218261719
y: 518.8453979492188
z: -0.06831051409244537
visibility: 0.8007530570030212
","x: 298.5728759765625
y: 489.3891906738281
z: 0.12565362453460693
visibility: 0.8818764686584473
","x: 280.2197570800781
y: 530.3367919921875
z: -0.11964882910251617
visibility: 0.9789569973945618
","x: 292.875
y: 504.1877746582031
z: 0.16334204375743866
visibility: 0.9539896845817566
",,,,,,,,,,,,,,,,,,,,,,,,,,,,,,,,,,,,,,,,,,
5,"x: 276.7242736816406
y: 284.8324279785156
z: -0.11358968168497086
visibility: 0.9993664026260376
","x: 278.9158630371094
y: 278.99755859375
z: -0.1211518868803978
visibility: 0.9986779689788818
","x: 279.8908386230469
y: 278.8928527832031
z: -0.1212112307548523
visibility: 0.9987346529960632
","x: 280.9293212890625
y: 278.84039306640625
z: -0.12127270549535751
visibility: 0.9989162683486938
","x: 277.3051452636719
y: 279.15863037109375
z: -0.09965077042579651
visibility: 0.9983178973197937
","x: 277.13397216796875
y: 279.1551513671875
z: -0.09966041147708893
visibility: 0.9981463551521301
","x: 277.0115966796875
y: 279.1376037597656
z: -0.09969739615917206
visibility: 0.9981984496116638
","x: 285.3217468261719
y: 281.8258361816406
z: -0.12012135982513428
visibility: 0.9983400702476501
","x: 281.53570556640625
y: 281.3072509765625
z: -0.02438673935830593
visibility: 0.9935945868492126
","x: 279.0919189453125
y: 291.03143310546875
z: -0.11149748414754868
visibility: 0.9993093609809875
","x: 276.9481201171875
y: 291.1684875488281
z: -0.08381710201501846
visibility: 0.9985349774360657
","x: 294.6236572265625
y: 311.6134948730469
z: -0.13651874661445618
visibility: 0.9999027252197266
","x: 278.93377685546875
y: 316.46588134765625
z: 0.057264477014541626
visibility: 0.9990938901901245
","x: 302.9413757324219
y: 351.05322265625
z: -0.1735420525074005
visibility: 0.9881277680397034
","x: 277.3577880859375
y: 350.8143310546875
z: 0.08482199907302856
visibility: 0.7235729098320007
","x: 300.6359558105469
y: 385.8749694824219
z: -0.19403214752674103
visibility: 0.917320728302002
","x: 273.1812744140625
y: 359.4143981933594
z: -0.01529692392796278
visibility: 0.6789868474006653
","x: 298.351806640625
y: 391.7211608886719
z: -0.2159559428691864
visibility: 0.8574857711791992
","x: 272.08941650390625
y: 362.2714538574219
z: -0.026873936876654625
visibility: 0.627981960773468
","x: 295.3751525878906
y: 391.09271240234375
z: -0.22128260135650635
visibility: 0.8595615029335022
","x: 271.4848937988281
y: 358.4137268066406
z: -0.0472482293844223
visibility: 0.6406392455101013
","x: 295.3231201171875
y: 387.2335510253906
z: -0.19540846347808838
visibility: 0.8033559918403625
","x: 272.00860595703125
y: 357.4671936035156
z: -0.02751145139336586
visibility: 0.6125012040138245
","x: 290.5672607421875
y: 394.0006103515625
z: -0.06464452296495438
visibility: 0.9995775818824768
","x: 280.34368896484375
y: 394.3013916015625
z: 0.06473594903945923
visibility: 0.9992258548736572
","x: 284.3567199707031
y: 449.8028869628906
z: -0.12329050153493881
visibility: 0.9865219593048096
","x: 275.901123046875
y: 453.4450988769531
z: 0.03239165619015694
visibility: 0.9218801856040955
","x: 288.080810546875
y: 509.60791015625
z: -0.09253622591495514
visibility: 0.9882643818855286
","x: 284.5101318359375
y: 506.22265625
z: 0.08019506931304932
visibility: 0.9531371593475342
","x: 292.0320129394531
y: 518.7854614257812
z: -0.0915050134062767
visibility: 0.8178262114524841
","x: 289.1592712402344
y: 513.6924438476562
z: 0.0797983780503273
visibility: 0.8817872405052185
","x: 280.2979736328125
y: 530.445556640625
z: -0.16285112500190735
visibility: 0.9801297187805176
","x: 276.7375793457031
y: 526.4027099609375
z: 0.020063277333974838
visibility: 0.9533634185791016
",,,,,,,,,,,,,,,,,,,,,,,,,,,,,,,,,,,,,,,,,,
6,"x: 276.64776611328125
y: 285.3502197265625
z: -0.08875878900289536
visibility: 0.9994071125984192
","x: 278.6865234375
y: 279.44708251953125
z: -0.09576559066772461
visibility: 0.9987826943397522
","x: 279.5618591308594
y: 279.2147521972656
z: -0.09583669155836105
visibility: 0.9988422393798828
","x: 280.51739501953125
y: 278.99261474609375
z: -0.09589331597089767
visibility: 0.9990065693855286
","x: 277.4481506347656
y: 279.76239013671875
z: -0.07546340674161911
visibility: 0.9984350800514221
","x: 277.42694091796875
y: 279.76361083984375
z: -0.07545803487300873
visibility: 0.9982712268829346
","x: 277.448486328125
y: 279.7305603027344
z: -0.07545308768749237
visibility: 0.9983094930648804
","x: 285.1627502441406
y: 281.1574401855469
z: -0.08782720565795898
visibility: 0.9984985589981079
","x: 281.72955322265625
y: 281.5121765136719
z: 0.004173168912529945
visibility: 0.9941025376319885
","x: 278.96954345703125
y: 290.9171142578125
z: -0.08327633887529373
visibility: 0.9993548393249512
","x: 277.34454345703125
y: 291.4051513671875
z: -0.05687934160232544
visibility: 0.9985820055007935
","x: 297.2286376953125
y: 310.1986083984375
z: -0.11138331890106201
visibility: 0.9999105930328369
","x: 279.1377258300781
y: 314.8251037597656
z: 0.10433081537485123
visibility: 0.9989249110221863
","x: 303.3359069824219
y: 346.3980407714844
z: -0.16691310703754425
visibility: 0.9891701936721802
","x: 277.7324523925781
y: 316.0666809082031
z: 0.16888177394866943
visibility: 0.6626163125038147
","x: 306.05804443359375
y: 377.7156982421875
z: -0.19618459045886993
visibility: 0.924447238445282
","x: 278.50897216796875
y: 293.07318115234375
z: 0.1421479880809784
visibility: 0.643761157989502
","x: 308.7070617675781
y: 384.9255065917969
z: -0.21156057715415955
visibility: 0.8683590292930603
","x: 278.2646789550781
y: 288.1692199707031
z: 0.13972674310207367
visibility: 0.5944798588752747
","x: 307.042724609375
y: 383.7415771484375
z: -0.22601750493049622
visibility: 0.8703875541687012
","x: 279.0465393066406
y: 287.1236572265625
z: 0.1327281892299652
visibility: 0.605795681476593
","x: 305.4283447265625
y: 380.9312744140625
z: -0.20033037662506104
visibility: 0.8175197839736938
","x: 279.3558349609375
y: 288.80364990234375
z: 0.13637764751911163
visibility: 0.5795338153839111
","x: 291.77587890625
y: 394.352783203125
z: -0.06705053150653839
visibility: 0.9996045231819153
","x: 280.061279296875
y: 394.85089111328125
z: 0.06713543832302094
visibility: 0.9992955923080444
","x: 285.80731201171875
y: 450.48687744140625
z: -0.09303055703639984
visibility: 0.9874215126037598
","x: 271.4314880371094
y: 449.5574951171875
z: -0.021381668746471405
visibility: 0.9271571040153503
","x: 295.1161193847656
y: 510.612548828125
z: -0.03923659771680832
visibility: 0.9889883399009705
","x: 277.5897216796875
y: 509.1490478515625
z: 0.001522091100923717
visibility: 0.9570379257202148
","x: 301.006103515625
y: 519.9876098632812
z: -0.038158807903528214
visibility: 0.8323202133178711
","x: 286.46697998046875
y: 522.35693359375
z: -0.0021089904475957155
visibility: 0.8910113573074341
","x: 281.10699462890625
y: 531.2116088867188
z: -0.09110816568136215
visibility: 0.9816041588783264
","x: 256.9833068847656
y: 524.2399291992188
z: -0.0668855756521225
visibility: 0.9572634696960449
",,,,,,,,,,,,,,,,,,,,,,,,,,,,,,,,,,,,,,,,,,
7,"x: 276.47662353515625
y: 290.3998718261719
z: -0.1094808354973793
visibility: 0.999442994594574
","x: 278.433349609375
y: 283.8038330078125
z: -0.11650831997394562
visibility: 0.9988795518875122
","x: 279.2933349609375
y: 283.3343505859375
z: -0.11657748371362686
visibility: 0.9989433288574219
","x: 280.23284912109375
y: 282.8612976074219
z: -0.11665304750204086
visibility: 0.9990886449813843
","x: 277.1852111816406
y: 284.29913330078125
z: -0.09436465054750443
visibility: 0.9985427260398865
","x: 277.1446533203125
y: 284.1951904296875
z: -0.09437398612499237
visibility: 0.9983960390090942
","x: 277.1407775878906
y: 284.063232421875
z: -0.09439405053853989
visibility: 0.9983991980552673
","x: 285.30938720703125
y: 283.4891357421875
z: -0.11050063371658325
visibility: 0.9986392855644226
","x: 281.86163330078125
y: 284.9642333984375
z: -0.010671545751392841
visibility: 0.9945520758628845
","x: 279.20574951171875
y: 295.5221252441406
z: -0.10586174577474594
visibility: 0.9993999004364014
","x: 277.7046203613281
y: 296.2615661621094
z: -0.07685111463069916
visibility: 0.9986205101013184
","x: 300.3721008300781
y: 316.377685546875
z: -0.11135576665401459
visibility: 0.9999154806137085
","x: 278.9758605957031
y: 316.8805847167969
z: 0.06506909430027008
visibility: 0.9987840056419373
","x: 308.2647705078125
y: 364.1412048339844
z: -0.1810891330242157
visibility: 0.9886614084243774
","x: 275.5095520019531
y: 334.057373046875
z: 0.08720983564853668
visibility: 0.6163665652275085
","x: 319.5444641113281
y: 372.2296142578125
z: -0.2575128376483917
visibility: 0.9272844791412354
","x: 278.07537841796875
y: 319.3804626464844
z: 0.024310166016221046
visibility: 0.6155009865760803
","x: 323.68603515625
y: 372.0798034667969
z: -0.2671583294868469
visibility: 0.8732712268829346
","x: 278.64276123046875
y: 314.3002624511719
z: 0.019628489390015602
visibility: 0.5683649778366089
","x: 323.7643127441406
y: 366.7779846191406
z: -0.29102468490600586
visibility: 0.876070499420166
","x: 279.2645568847656
y: 311.5074462890625
z: 0.013911505229771137
visibility: 0.5791794657707214
","x: 321.2975158691406
y: 367.33905029296875
z: -0.26615527272224426
visibility: 0.8237731456756592
","x: 279.27685546875
y: 313.0959777832031
z: 0.01913570798933506
visibility: 0.5524438619613647
","x: 293.397705078125
y: 403.8742370605469
z: -0.06350798159837723
visibility: 0.9996313452720642
","x: 280.7093505859375
y: 403.1327819824219
z: 0.06331463158130646
visibility: 0.9993236064910889
","x: 296.25286865234375
y: 454.3571472167969
z: -0.2215891182422638
visibility: 0.988173246383667
","x: 271.3456115722656
y: 455.3167419433594
z: 0.06851553171873093
visibility: 0.9270177483558655
","x: 300.9693908691406
y: 514.42578125
z: -0.21015560626983643
visibility: 0.9895978569984436
","x: 265.9512939453125
y: 513.3854370117188
z: 0.1537792682647705
visibility: 0.9562196731567383
","x: 304.85577392578125
y: 525.7086791992188
z: -0.21318013966083527
visibility: 0.8462823033332825
","x: 268.492919921875
y: 525.14990234375
z: 0.15506041049957275
visibility: 0.8899799585342407
","x: 284.8880920410156
y: 533.0382080078125
z: -0.31499797105789185
visibility: 0.9828563928604126
","x: 250.91943359375
y: 523.058349609375
z: 0.08948034793138504
visibility: 0.9560629725456238
",,,,,,,,,,,,,,,,,,,,,,,,,,,,,,,,,,,,,,,,,,
8,"x: 276.4072570800781
y: 292.126708984375
z: -0.1380736380815506
visibility: 0.9993430376052856
","x: 277.97613525390625
y: 286.43035888671875
z: -0.14092493057250977
visibility: 0.9988515377044678
","x: 278.72894287109375
y: 285.6719665527344
z: -0.14100655913352966
visibility: 0.9989323616027832
","x: 279.5859680175781
y: 284.82952880859375
z: -0.1410839706659317
visibility: 0.9990560412406921
","x: 276.7054443359375
y: 287.21368408203125
z: -0.1206107959151268
visibility: 0.998406708240509
","x: 276.42633056640625
y: 287.0566101074219
z: -0.12063185125589371
visibility: 0.9982480406761169
","x: 276.3031311035156
y: 286.8542175292969
z: -0.12061593681573868
visibility: 0.9982740879058838
","x: 284.61480712890625
y: 283.9173583984375
z: -0.11076655238866806
visibility: 0.9986874461174011
","x: 280.4962158203125
y: 285.8684997558594
z: -0.015949461609125137
visibility: 0.9945541620254517
","x: 278.833251953125
y: 296.24884033203125
z: -0.12455795705318451
visibility: 0.9994224309921265
","x: 277.1692810058594
y: 297.18951416015625
z: -0.09731923043727875
visibility: 0.9985936284065247
","x: 301.1982727050781
y: 312.4191589355469
z: -0.10315731912851334
visibility: 0.9999224543571472
","x: 277.15728759765625
y: 316.9766540527344
z: 0.07565455138683319
visibility: 0.998802125453949
","x: 312.7585754394531
y: 339.9471435546875
z: -0.21784675121307373
visibility: 0.9893766045570374
","x: 270.937744140625
y: 351.8870849609375
z: 0.04162236303091049
visibility: 0.6396191716194153
","x: 313.58447265625
y: 351.7040710449219
z: -0.36675214767456055
visibility: 0.9326291084289551
","x: 271.46478271484375
y: 335.17828369140625
z: -0.16339817643165588
visibility: 0.6507778763771057
","x: 315.3887023925781
y: 355.87579345703125
z: -0.403369277715683
visibility: 0.8818504810333252
","x: 271.18609619140625
y: 330.69134521484375
z: -0.19028079509735107
visibility: 0.6067659854888916
","x: 313.1861572265625
y: 352.159912109375
z: -0.405010461807251
visibility: 0.8845364451408386
","x: 272.2427978515625
y: 325.07373046875
z: -0.18800553679466248
visibility: 0.6164190173149109
","x: 311.28826904296875
y: 351.27197265625
z: -0.36960941553115845
visibility: 0.834038257598877
","x: 272.79925537109375
y: 327.3147277832031
z: -0.16762126982212067
visibility: 0.5897566080093384
","x: 294.34954833984375
y: 400.045166015625
z: -0.06611917912960052
visibility: 0.9996551275253296
","x: 280.3436584472656
y: 400.83984375
z: 0.06615085154771805
visibility: 0.9993224740028381
","x: 295.56939697265625
y: 453.1985168457031
z: -0.203839972615242
visibility: 0.9870803356170654
","x: 276.0050048828125
y: 455.52789306640625
z: 0.07829113304615021
visibility: 0.9032561182975769
","x: 300.8610534667969
y: 508.5775146484375
z: -0.11877445876598358
visibility: 0.9889424443244934
","x: 289.7886657714844
y: 500.83880615234375
z: 0.2480085790157318
visibility: 0.9342077970504761
","x: 304.61865234375
y: 514.3187255859375
z: -0.1136777251958847
visibility: 0.8537810444831848
","x: 295.2750244140625
y: 504.68707275390625
z: 0.2624250054359436
visibility: 0.8823537826538086
","x: 287.02099609375
y: 532.9381713867188
z: -0.20389854907989502
visibility: 0.9821562767028809
","x: 285.8992919921875
y: 521.9739990234375
z: 0.2044908106327057
visibility: 0.9414668679237366
",,,,,,,,,,,,,,,,,,,,,,,,,,,,,,,,,,,,,,,,,,
9,"x: 276.0037536621094
y: 296.93121337890625
z: -0.07730274647474289
visibility: 0.9993762373924255
","x: 277.417236328125
y: 290.3814392089844
z: -0.07964295893907547
visibility: 0.9989050030708313
","x: 278.298583984375
y: 289.3546142578125
z: -0.07971683889627457
visibility: 0.9989848732948303
","x: 279.2214050292969
y: 288.257080078125
z: -0.07977534085512161
visibility: 0.9990965723991394
","x: 276.017578125
y: 291.90045166015625
z: -0.0614977590739727
visibility: 0.9984979033470154
","x: 275.859130859375
y: 292.0231018066406
z: -0.06148844212293625
visibility: 0.998336672782898
","x: 275.8765869140625
y: 292.1157531738281
z: -0.061474137008190155
visibility: 0.9983542561531067
","x: 284.4723815917969
y: 286.7509765625
z: -0.05315091088414192
visibility: 0.9987795352935791
","x: 279.27587890625
y: 290.7311096191406
z: 0.031694911420345306
visibility: 0.9948952198028564
","x: 278.6104736328125
y: 300.0882263183594
z: -0.06519250571727753
visibility: 0.9994609355926514
","x: 276.72149658203125
y: 302.5195617675781
z: -0.04077821224927902
visibility: 0.9986810684204102
","x: 300.0642395019531
y: 313.4110412597656
z: -0.05319024249911308
visibility: 0.9999276399612427
","x: 276.4040832519531
y: 318.2056884765625
z: 0.10710562765598297
visibility: 0.9988808631896973
","x: 311.57073974609375
y: 342.9941101074219
z: -0.13709606230258942
visibility: 0.9888508319854736
","x: 277.2287292480469
y: 357.0704345703125
z: 0.11158233880996704
visibility: 0.5902286767959595
","x: 309.2967834472656
y: 362.0330505371094
z: -0.23406550288200378
visibility: 0.9085052609443665
","x: 279.3215026855469
y: 381.1395568847656
z: -0.01821306347846985
visibility: 0.6064373254776001
","x: 313.9750061035156
y: 368.05377197265625
z: -0.2671738266944885
visibility: 0.8552520871162415
","x: 279.85546875
y: 388.9327392578125
z: -0.037539105862379074
visibility: 0.5707175135612488
","x: 311.8856201171875
y: 363.0616455078125
z: -0.2639731466770172
visibility: 0.857183039188385
","x: 280.40875244140625
y: 385.4700012207031
z: -0.05539597198367119
visibility: 0.579951286315918
","x: 307.90484619140625
y: 361.17352294921875
z: -0.23419436812400818
visibility: 0.8004087209701538
","x: 280.9006042480469
y: 382.4822998046875
z: -0.028747152537107468
visibility: 0.5529090762138367
","x: 295.138427734375
y: 399.8069763183594
z: -0.06620266288518906
visibility: 0.9996845126152039
","x: 281.4776916503906
y: 400.2611999511719
z: 0.0663658007979393
visibility: 0.9993593096733093
","x: 289.8985595703125
y: 453.2027893066406
z: -0.19046828150749207
visibility: 0.9876784682273865
","x: 285.0525207519531
y: 457.23699951171875
z: 0.09804591536521912
visibility: 0.8924185633659363
","x: 274.2395324707031
y: 515.8607177734375
z: -0.2131466418504715
visibility: 0.9898480176925659
","x: 294.376953125
y: 507.9915771484375
z: 0.19131219387054443
visibility: 0.935590922832489
","x: 273.9838562011719
y: 524.2981567382812
z: -0.21925143897533417
visibility: 0.8671048283576965
","x: 298.8604736328125
y: 517.0130004882812
z: 0.20144693553447723
visibility: 0.8890889286994934
","x: 268.099609375
y: 532.8115234375
z: -0.3144407272338867
visibility: 0.9835057854652405
","x: 283.546875
y: 526.34130859375
z: 0.13369742035865784
visibility: 0.9422394037246704
",,,,,,,,,,,,,,,,,,,,,,,,,,,,,,,,,,,,,,,,,,
10,"x: 274.3722839355469
y: 297.17401123046875
z: -0.09509287029504776
visibility: 0.9994159936904907
","x: 275.7208251953125
y: 291.0846862792969
z: -0.09670909494161606
visibility: 0.998968243598938
","x: 276.56500244140625
y: 290.2030029296875
z: -0.09675775468349457
visibility: 0.9990526437759399
","x: 277.47418212890625
y: 289.2236328125
z: -0.09682061523199081
visibility: 0.9991573095321655
","x: 274.6032409667969
y: 292.156494140625
z: -0.08033151924610138
visibility: 0.9985842108726501
","x: 274.5880126953125
y: 292.1362609863281
z: -0.0803273469209671
visibility: 0.9984238743782043
","x: 274.73175048828125
y: 292.0506896972656
z: -0.08033120632171631
visibility: 0.9984198808670044
","x: 282.548828125
y: 287.91357421875
z: -0.07343228906393051
visibility: 0.9988797903060913
","x: 279.1231689453125
y: 291.1351318359375
z: 0.0025179488584399223
visibility: 0.9950175285339355
","x: 277.1651916503906
y: 300.7330017089844
z: -0.08443757891654968
visibility: 0.9994880557060242
","x: 275.61077880859375
y: 302.5336608886719
z: -0.06270719319581985
visibility: 0.9987115263938904
","x: 299.0052185058594
y: 317.53863525390625
z: -0.07614654302597046
visibility: 0.999930739402771
","x: 275.06072998046875
y: 319.5111083984375
z: 0.07558555901050568
visibility: 0.9988672733306885
","x: 305.3280944824219
y: 356.0078430175781
z: -0.0963074117898941
visibility: 0.989241898059845
","x: 278.8525695800781
y: 360.7955322265625
z: 0.10553459823131561
visibility: 0.5397316813468933
","x: 308.9490966796875
y: 388.6178894042969
z: -0.1113416776061058
visibility: 0.906836211681366
","x: 281.53936767578125
y: 392.6318054199219
z: 0.028130516409873962
visibility: 0.5592470169067383
","x: 312.6878356933594
y: 399.78076171875
z: -0.12953439354896545
visibility: 0.852048397064209
","x: 282.1250305175781
y: 402.0948486328125
z: 0.0169987715780735
visibility: 0.5304321050643921
","x: 310.04559326171875
y: 399.6053771972656
z: -0.1384023129940033
visibility: 0.8541584610939026
","x: 282.5628356933594
y: 400.6473388671875
z: -0.0030681034550070763
visibility: 0.5391708016395569
","x: 306.7413330078125
y: 396.2694091796875
z: -0.113670215010643
visibility: 0.7972317337989807
","x: 283.04150390625
y: 396.7168884277344
z: 0.017724640667438507
visibility: 0.5129536390304565
","x: 293.9676513671875
y: 399.06201171875
z: -0.06462763994932175
visibility: 0.9997077584266663
","x: 280.0810546875
y: 400.182861328125
z: 0.06479893624782562
visibility: 0.9993904829025269
","x: 288.07611083984375
y: 451.75128173828125
z: -0.2138938456773758
visibility: 0.9879938960075378
","x: 281.76898193359375
y: 457.52117919921875
z: 0.05560292676091194
visibility: 0.8818528652191162
","x: 278.9325256347656
y: 510.1913757324219
z: -0.19969233870506287
visibility: 0.9902917742729187
","x: 285.4060363769531
y: 510.48077392578125
z: 0.09879373759031296
visibility: 0.9366474151611328
","x: 275.5789489746094
y: 517.9200439453125
z: -0.20119711756706238
visibility: 0.877241313457489
","x: 290.12548828125
y: 526.414306640625
z: 0.09912525862455368
visibility: 0.8894062638282776
","x: 271.8627014160156
y: 532.73486328125
z: -0.28457680344581604
visibility: 0.9845924377441406
","x: 276.47845458984375
y: 530.3746948242188
z: 0.03755868971347809
visibility: 0.9431301355361938
",,,,,,,,,,,,,,,,,,,,,,,,,,,,,,,,,,,,,,,,,,
11,"x: 274.0124816894531
y: 296.49530029296875
z: -0.26952284574508667
visibility: 0.9993930459022522
","x: 275.53057861328125
y: 290.45574951171875
z: -0.26739194989204407
visibility: 0.9989235997200012
","x: 276.424072265625
y: 289.76068115234375
z: -0.26741260290145874
visibility: 0.9990091323852539
","x: 277.3642578125
y: 289.015380859375
z: -0.26748162508010864
visibility: 0.9991384148597717
","x: 274.2184753417969
y: 291.3266296386719
z: -0.254951536655426
visibility: 0.9984908103942871
","x: 274.1510314941406
y: 291.3119201660156
z: -0.2549991309642792
visibility: 0.9982876181602478
","x: 274.2353515625
y: 291.24847412109375
z: -0.2550790309906006
visibility: 0.9982836842536926
","x: 282.2169189453125
y: 289.32550048828125
z: -0.21598222851753235
visibility: 0.9987855553627014
","x: 278.32220458984375
y: 291.49542236328125
z: -0.15788611769676208
visibility: 0.9946709275245667
","x: 276.7708435058594
y: 300.470703125
z: -0.24766400456428528
visibility: 0.9994927048683167
","x: 274.9754943847656
y: 301.9910583496094
z: -0.2309301793575287
visibility: 0.998597264289856
","x: 298.4752197265625
y: 319.7449645996094
z: -0.1646091490983963
visibility: 0.9999255537986755
","x: 272.2432861328125
y: 320.7197265625
z: -0.08269543200731277
visibility: 0.9988117218017578
","x: 302.43267822265625
y: 362.9036865234375
z: -0.14551229774951935
visibility: 0.983640193939209
","x: 277.2331237792969
y: 363.5072326660156
z: -0.04660112410783768
visibility: 0.541940450668335
","x: 303.60260009765625
y: 396.5644836425781
z: -0.2072344720363617
visibility: 0.8831984996795654
","x: 276.26763916015625
y: 398.8980407714844
z: -0.1103953868150711
visibility: 0.5336481928825378
","x: 304.6878356933594
y: 408.8682556152344
z: -0.22979755699634552
visibility: 0.8270806670188904
","x: 276.31170654296875
y: 409.9209289550781
z: -0.12822706997394562
visibility: 0.502716064453125
","x: 302.8717956542969
y: 408.5067138671875
z: -0.24441054463386536
visibility: 0.8311257362365723
","x: 277.9489440917969
y: 410.2362060546875
z: -0.15329912304878235
visibility: 0.5117205381393433
","x: 301.39361572265625
y: 405.8536376953125
z: -0.2128642052412033
visibility: 0.7723140716552734
","x: 278.36724853515625
y: 406.1334228515625
z: -0.12204396724700928
visibility: 0.4855767786502838
","x: 293.61663818359375
y: 399.85601806640625
z: -0.03897464647889137
visibility: 0.9997277855873108
","x: 278.5058898925781
y: 400.80572509765625
z: 0.03904090076684952
visibility: 0.9993902444839478
","x: 286.28179931640625
y: 457.2170715332031
z: -0.19084733724594116
visibility: 0.9872874617576599
","x: 270.4889831542969
y: 458.54852294921875
z: 0.01749376766383648
visibility: 0.8900809288024902
","x: 276.59796142578125
y: 511.49517822265625
z: -0.09265896677970886
visibility: 0.9903037548065186
","x: 283.18524169921875
y: 488.4879150390625
z: 0.2716779112815857
visibility: 0.9216629266738892
","x: 276.1562194824219
y: 523.1832275390625
z: -0.08702365309000015
visibility: 0.8762578368186951
","x: 288.1833801269531
y: 489.6400146484375
z: 0.2962570786476135
visibility: 0.8779961466789246
","x: 273.2218017578125
y: 532.743896484375
z: -0.20050013065338135
visibility: 0.9840616583824158
","x: 279.3854064941406
y: 518.251220703125
z: 0.25212541222572327
visibility: 0.929495096206665
",,,,,,,,,,,,,,,,,,,,,,,,,,,,,,,,,,,,,,,,,,
12,"x: 275.10064697265625
y: 298.8028869628906
z: -0.1915120929479599
visibility: 0.9994496703147888
","x: 276.5093688964844
y: 292.3233337402344
z: -0.17742615938186646
visibility: 0.9990236759185791
","x: 277.54925537109375
y: 291.640869140625
z: -0.1774589568376541
visibility: 0.9991004467010498
","x: 278.6043701171875
y: 290.9466552734375
z: -0.17747214436531067
visibility: 0.99921715259552
","x: 274.471923828125
y: 293.2004089355469
z: -0.17229117453098297
visibility: 0.9986329674720764
","x: 274.1966857910156
y: 293.1551818847656
z: -0.17230366170406342
visibility: 0.9984468817710876
","x: 274.1935119628906
y: 293.08001708984375
z: -0.1723480075597763
visibility: 0.9984433650970459
","x: 282.8046875
y: 290.8465881347656
z: -0.10363344103097916
visibility: 0.9989001154899597
","x: 277.2301940917969
y: 292.9813537597656
z: -0.060809046030044556
visibility: 0.9951772689819336
","x: 278.0748596191406
y: 302.5916442871094
z: -0.1547422707080841
visibility: 0.9995403289794922
","x: 275.55865478515625
y: 303.728759765625
z: -0.14576202630996704
visibility: 0.9987304210662842
","x: 298.20660400390625
y: 319.6812744140625
z: -0.07888985425233841
visibility: 0.9999319314956665
","x: 269.5205078125
y: 320.73150634765625
z: 0.019650382921099663
visibility: 0.9989168643951416
","x: 302.3323669433594
y: 360.0895690917969
z: -0.10729779303073883
visibility: 0.9835303425788879
","x: 262.4325256347656
y: 354.6567077636719
z: 0.0005029296735301614
visibility: 0.5697821974754333
","x: 295.58868408203125
y: 388.9889221191406
z: -0.20248186588287354
visibility: 0.8878962397575378
","x: 258.1853942871094
y: 384.4412841796875
z: -0.10241234302520752
visibility: 0.5650022625923157
","x: 294.6912536621094
y: 403.643310546875
z: -0.2335388958454132
visibility: 0.8338264226913452
","x: 256.95904541015625
y: 391.36663818359375
z: -0.12719354033470154
visibility: 0.5327789783477783
","x: 291.40667724609375
y: 401.9018249511719
z: -0.2462809979915619
visibility: 0.8378577828407288
","x: 259.0517883300781
y: 390.287841796875
z: -0.1470470130443573
visibility: 0.5418498516082764
","x: 291.26318359375
y: 403.49505615234375
z: -0.20851030945777893
visibility: 0.7799709439277649
","x: 260.176025390625
y: 387.75164794921875
z: -0.1139441505074501
visibility: 0.5157700777053833
","x: 292.7199401855469
y: 400.94293212890625
z: -0.04138936847448349
visibility: 0.9997451901435852
","x: 276.88165283203125
y: 402.5330810546875
z: 0.04148466885089874
visibility: 0.9994103908538818
","x: 285.03826904296875
y: 456.730712890625
z: -0.18501277267932892
visibility: 0.9870538115501404
","x: 270.7691955566406
y: 458.6343078613281
z: 0.020572984591126442
visibility: 0.8927764892578125
","x: 279.14630126953125
y: 511.6573486328125
z: -0.09636998921632767
visibility: 0.9902001619338989
","x: 283.494140625
y: 494.5994873046875
z: 0.20686249434947968
visibility: 0.9208092093467712
","x: 279.8238830566406
y: 523.6580810546875
z: -0.09020225703716278
visibility: 0.8808673024177551
","x: 288.0990295410156
y: 498.51751708984375
z: 0.21866893768310547
visibility: 0.8774077892303467
","x: 274.4477844238281
y: 532.448486328125
z: -0.20507438480854034
visibility: 0.9841840863227844
","x: 277.001708984375
y: 520.5565795898438
z: 0.15943937003612518
visibility: 0.9282191395759583
",,,,,,,,,,,,,,,,,,,,,,,,,,,,,,,,,,,,,,,,,,
13,"x: 275.55474853515625
y: 298.7224426269531
z: -0.1863718330860138
visibility: 0.9994989037513733
","x: 276.80609130859375
y: 292.09515380859375
z: -0.18028871715068817
visibility: 0.9991079568862915
","x: 277.8238220214844
y: 291.4749450683594
z: -0.1803259253501892
visibility: 0.9991776347160339
","x: 278.9110107421875
y: 290.79278564453125
z: -0.18035081028938293
visibility: 0.999283492565155
","x: 274.5380859375
y: 292.78985595703125
z: -0.16975346207618713
visibility: 0.9987534284591675
","x: 274.1915283203125
y: 292.7139892578125
z: -0.1697765737771988
visibility: 0.9985815286636353
","x: 274.0663757324219
y: 292.61663818359375
z: -0.16979551315307617
visibility: 0.9985774755477905
","x: 283.340087890625
y: 290.8037109375
z: -0.11357218027114868
visibility: 0.9989975094795227
","x: 276.0894470214844
y: 292.611083984375
z: -0.07076580822467804
visibility: 0.995593249797821
","x: 278.29779052734375
y: 302.2348327636719
z: -0.16135956346988678
visibility: 0.9995807409286499
","x: 275.6434631347656
y: 302.8603820800781
z: -0.14728529751300812
visibility: 0.99884432554245
","x: 297.97137451171875
y: 319.467041015625
z: -0.10154365003108978
visibility: 0.9999375939369202
","x: 268.6292724609375
y: 320.64306640625
z: 0.015296610072255135
visibility: 0.999011754989624
","x: 303.07257080078125
y: 358.779296875
z: -0.13186673820018768
visibility: 0.9849438667297363
","x: 256.7032775878906
y: 350.2708435058594
z: 0.004444287624210119
visibility: 0.6033489108085632
","x: 296.42486572265625
y: 390.81903076171875
z: -0.19245964288711548
visibility: 0.897665798664093
","x: 244.02528381347656
y: 379.77685546875
z: -0.08128205686807632
visibility: 0.6011123657226562
","x: 296.08721923828125
y: 403.3021545410156
z: -0.21836860477924347
visibility: 0.8468865156173706
","x: 240.17724609375
y: 386.7113952636719
z: -0.10232250392436981
visibility: 0.567301869392395
","x: 294.0235595703125
y: 401.57354736328125
z: -0.23200130462646484
visibility: 0.8507104516029358
","x: 241.39013671875
y: 386.0096435546875
z: -0.13911423087120056
visibility: 0.5766995549201965
","x: 293.8488464355469
y: 399.08209228515625
z: -0.19819018244743347
visibility: 0.7972639203071594
","x: 243.26234436035156
y: 383.2679443359375
z: -0.09782909601926804
visibility: 0.5529407858848572
","x: 292.4659729003906
y: 400.7645263671875
z: -0.04262028634548187
visibility: 0.9997310638427734
","x: 276.81573486328125
y: 400.9833068847656
z: 0.042553048580884933
visibility: 0.9993820786476135
","x: 285.7554931640625
y: 456.4242248535156
z: -0.09300260990858078
visibility: 0.9838629961013794
","x: 278.8326110839844
y: 458.4074401855469
z: 0.04637998715043068
visibility: 0.8776553273200989
","x: 279.7178649902344
y: 511.9884948730469
z: -0.020578471943736076
visibility: 0.9888235926628113
","x: 286.4474792480469
y: 498.8073425292969
z: 0.15977713465690613
visibility: 0.9188592433929443
","x: 280.052001953125
y: 522.5589599609375
z: -0.018053507432341576
visibility: 0.8828507661819458
","x: 291.0220031738281
y: 501.7379455566406
z: 0.1653517782688141
visibility: 0.8784933090209961
","x: 275.8719482421875
y: 532.3948974609375
z: -0.10277833789587021
visibility: 0.9830767512321472
","x: 277.3650207519531
y: 521.6591186523438
z: 0.09885327517986298
visibility: 0.9283132553100586
",,,,,,,,,,,,,,,,,,,,,,,,,,,,,,,,,,,,,,,,,,
14,"x: 277.00238037109375
y: 298.2992248535156
z: -0.20804373919963837
visibility: 0.999548077583313
","x: 278.5382385253906
y: 291.4932556152344
z: -0.2024080753326416
visibility: 0.9991948008537292
","x: 279.7197570800781
y: 290.9046630859375
z: -0.20243242383003235
visibility: 0.9992579221725464
","x: 281.0190734863281
y: 290.30670166015625
z: -0.20246568322181702
visibility: 0.9993529319763184
","x: 275.9841003417969
y: 292.2906799316406
z: -0.1912648230791092
visibility: 0.9988741278648376
","x: 275.3384704589844
y: 292.27276611328125
z: -0.19129571318626404
visibility: 0.9987190365791321
","x: 274.81256103515625
y: 292.23406982421875
z: -0.19124945998191833
visibility: 0.99871426820755
","x: 285.1671447753906
y: 290.57080078125
z: -0.1427617073059082
visibility: 0.9990967512130737
","x: 276.1689758300781
y: 292.24920654296875
z: -0.09309728443622589
visibility: 0.996019721031189
","x: 279.5394592285156
y: 302.1473388671875
z: -0.18445047736167908
visibility: 0.9996218085289001
","x: 276.49407958984375
y: 302.43951416015625
z: -0.16984447836875916
visibility: 0.9989569783210754
","x: 298.45849609375
y: 320.6169128417969
z: -0.13747261464595795
visibility: 0.9999434947967529
","x: 268.945556640625
y: 320.81182861328125
z: 0.013850659132003784
visibility: 0.9990999698638916
","x: 307.72186279296875
y: 358.8625793457031
z: -0.1460062861442566
visibility: 0.9863991141319275
","x: 258.6324157714844
y: 350.2548828125
z: 0.004630297422409058
visibility: 0.632030725479126
","x: 309.79766845703125
y: 393.177490234375
z: -0.2115081548690796
visibility: 0.9075978398323059
","x: 242.70567321777344
y: 348.7777404785156
z: -0.1468912810087204
visibility: 0.6396260261535645
","x: 310.7439880371094
y: 404.702392578125
z: -0.23542234301567078
visibility: 0.8612772822380066
","x: 237.09429931640625
y: 348.50054931640625
z: -0.1668497622013092
visibility: 0.6084102392196655
","x: 307.5507507324219
y: 403.63671875
z: -0.24870295822620392
visibility: 0.8648402094841003
","x: 237.7082977294922
y: 344.9832458496094
z: -0.1870020478963852
visibility: 0.6171614527702332
","x: 306.4512023925781
y: 400.552978515625
z: -0.21690130233764648
visibility: 0.8165287971496582
","x: 239.86134338378906
y: 345.2684020996094
z: -0.16012641787528992
visibility: 0.5954685211181641
","x: 293.7925109863281
y: 400.1295166015625
z: -0.05501021817326546
visibility: 0.9997444152832031
","x: 278.491943359375
y: 400.569580078125
z: 0.05486724525690079
visibility: 0.9994199872016907
","x: 285.7422180175781
y: 453.94512939453125
z: -0.11848728358745575
visibility: 0.9850847125053406
","x: 283.9499816894531
y: 456.8394470214844
z: 0.07136990129947662
visibility: 0.8805083632469177
","x: 296.06988525390625
y: 498.07373046875
z: 0.006208375096321106
visibility: 0.9895514845848083
","x: 295.811767578125
y: 496.3173828125
z: 0.18611368536949158
visibility: 0.9252109527587891
","x: 301.1380615234375
y: 499.62542724609375
z: 0.01632601022720337
visibility: 0.8928092122077942
","x: 300.04248046875
y: 501.0706787109375
z: 0.1933317631483078
visibility: 0.8884952068328857
","x: 290.37554931640625
y: 524.1708984375
z: -0.04274040833115578
visibility: 0.9842159748077393
","x: 287.6891784667969
y: 519.0885620117188
z: 0.14286956191062927
visibility: 0.9338011741638184
",,,,,,,,,,,,,,,,,,,,,,"x: 313.2854919433594
y: 396.31463623046875
z: 0.0
","x: 310.3048400878906
y: 396.6775207519531
z: -0.0019624936394393444
","x: 307.36236572265625
y: 397.5816650390625
z: -0.003885462414473295
","x: 305.7111511230469
y: 398.41583251953125
z: -0.006005320232361555
","x: 305.4831237792969
y: 399.6460266113281
z: -0.007699693087488413
","x: 307.05712890625
y: 409.263916015625
z: -0.0019973802845925093
","x: 307.0892028808594
y: 408.57501220703125
z: -0.004423903301358223
","x: 307.8926086425781
y: 405.0521545410156
z: -0.005400673486292362
","x: 308.3802795410156
y: 402.68804931640625
z: -0.0056821443140506744
","x: 309.2661437988281
y: 410.9920959472656
z: -0.002711005276069045
","x: 309.20172119140625
y: 410.6460876464844
z: -0.005033258348703384
","x: 309.8224182128906
y: 406.76898193359375
z: -0.00499297771602869
","x: 310.2600402832031
y: 404.1058654785156
z: -0.004567957017570734
","x: 311.6827392578125
y: 411.2406921386719
z: -0.003838229225948453
","x: 311.6871643066406
y: 411.3488464355469
z: -0.005890204571187496
","x: 312.0303039550781
y: 408.02154541015625
z: -0.0051117572002112865
","x: 312.15936279296875
y: 405.8270568847656
z: -0.0041803475469350815
","x: 314.1246337890625
y: 410.3731994628906
z: -0.005326163489371538
","x: 314.1415100097656
y: 410.9964599609375
z: -0.006486373022198677
","x: 314.0519714355469
y: 408.4488525390625
z: -0.005893921945244074
","x: 313.8254089355469
y: 406.6886901855469
z: -0.00507964426651597
"
15,"x: 277.00238037109375
y: 298.2992248535156
z: -0.20804373919963837
visibility: 0.999548077583313
","x: 278.5382385253906
y: 291.4932556152344
z: -0.2024080753326416
visibility: 0.9991948008537292
","x: 279.7197570800781
y: 290.9046630859375
z: -0.20243242383003235
visibility: 0.9992579221725464
","x: 281.0190734863281
y: 290.30670166015625
z: -0.20246568322181702
visibility: 0.9993529319763184
","x: 275.9841003417969
y: 292.2906799316406
z: -0.1912648230791092
visibility: 0.9988741278648376
","x: 275.3384704589844
y: 292.27276611328125
z: -0.19129571318626404
visibility: 0.9987190365791321
","x: 274.81256103515625
y: 292.23406982421875
z: -0.19124945998191833
visibility: 0.99871426820755
","x: 285.1671447753906
y: 290.57080078125
z: -0.1427617073059082
visibility: 0.9990967512130737
","x: 276.1689758300781
y: 292.24920654296875
z: -0.09309728443622589
visibility: 0.996019721031189
","x: 279.5394592285156
y: 302.1473388671875
z: -0.18445047736167908
visibility: 0.9996218085289001
","x: 276.49407958984375
y: 302.43951416015625
z: -0.16984447836875916
visibility: 0.9989569783210754
","x: 298.45849609375
y: 320.6169128417969
z: -0.13747261464595795
visibility: 0.9999434947967529
","x: 268.945556640625
y: 320.81182861328125
z: 0.013850659132003784
visibility: 0.9990999698638916
","x: 307.72186279296875
y: 358.8625793457031
z: -0.1460062861442566
visibility: 0.9863991141319275
","x: 258.6324157714844
y: 350.2548828125
z: 0.004630297422409058
visibility: 0.632030725479126
","x: 309.79766845703125
y: 393.177490234375
z: -0.2115081548690796
visibility: 0.9075978398323059
","x: 242.70567321777344
y: 348.7777404785156
z: -0.1468912810087204
visibility: 0.6396260261535645
","x: 310.7439880371094
y: 404.702392578125
z: -0.23542234301567078
visibility: 0.8612772822380066
","x: 237.09429931640625
y: 348.50054931640625
z: -0.1668497622013092
visibility: 0.6084102392196655
","x: 307.5507507324219
y: 403.63671875
z: -0.24870295822620392
visibility: 0.8648402094841003
","x: 237.7082977294922
y: 344.9832458496094
z: -0.1870020478963852
visibility: 0.6171614527702332
","x: 306.4512023925781
y: 400.552978515625
z: -0.21690130233764648
visibility: 0.8165287971496582
","x: 239.86134338378906
y: 345.2684020996094
z: -0.16012641787528992
visibility: 0.5954685211181641
","x: 293.7925109863281
y: 400.1295166015625
z: -0.05501021817326546
visibility: 0.9997444152832031
","x: 278.491943359375
y: 400.569580078125
z: 0.05486724525690079
visibility: 0.9994199872016907
","x: 285.7422180175781
y: 453.94512939453125
z: -0.11848728358745575
visibility: 0.9850847125053406
","x: 283.9499816894531
y: 456.8394470214844
z: 0.07136990129947662
visibility: 0.8805083632469177
","x: 296.06988525390625
y: 498.07373046875
z: 0.006208375096321106
visibility: 0.9895514845848083
","x: 295.811767578125
y: 496.3173828125
z: 0.18611368536949158
visibility: 0.9252109527587891
","x: 301.1380615234375
y: 499.62542724609375
z: 0.01632601022720337
visibility: 0.8928092122077942
","x: 300.04248046875
y: 501.0706787109375
z: 0.1933317631483078
visibility: 0.8884952068328857
","x: 290.37554931640625
y: 524.1708984375
z: -0.04274040833115578
visibility: 0.9842159748077393
","x: 287.6891784667969
y: 519.0885620117188
z: 0.14286956191062927
visibility: 0.9338011741638184
",,,,,,,,,,,,,,,,,,,,,,"x: 313.2854919433594
y: 396.31463623046875
z: 0.0
","x: 310.3048400878906
y: 396.6775207519531
z: -0.0019624936394393444
","x: 307.36236572265625
y: 397.5816650390625
z: -0.003885462414473295
","x: 305.7111511230469
y: 398.41583251953125
z: -0.006005320232361555
","x: 305.4831237792969
y: 399.6460266113281
z: -0.007699693087488413
","x: 307.05712890625
y: 409.263916015625
z: -0.0019973802845925093
","x: 307.0892028808594
y: 408.57501220703125
z: -0.004423903301358223
","x: 307.8926086425781
y: 405.0521545410156
z: -0.005400673486292362
","x: 308.3802795410156
y: 402.68804931640625
z: -0.0056821443140506744
","x: 309.2661437988281
y: 410.9920959472656
z: -0.002711005276069045
","x: 309.20172119140625
y: 410.6460876464844
z: -0.005033258348703384
","x: 309.8224182128906
y: 406.76898193359375
z: -0.00499297771602869
","x: 310.2600402832031
y: 404.1058654785156
z: -0.004567957017570734
","x: 311.6827392578125
y: 411.2406921386719
z: -0.003838229225948453
","x: 311.6871643066406
y: 411.3488464355469
z: -0.005890204571187496
","x: 312.0303039550781
y: 408.02154541015625
z: -0.0051117572002112865
","x: 312.15936279296875
y: 405.8270568847656
z: -0.0041803475469350815
","x: 314.1246337890625
y: 410.3731994628906
z: -0.005326163489371538
","x: 314.1415100097656
y: 410.9964599609375
z: -0.006486373022198677
","x: 314.0519714355469
y: 408.4488525390625
z: -0.005893921945244074
","x: 313.8254089355469
y: 406.6886901855469
z: -0.00507964426651597
"
16,"x: 278.452880859375
y: 293.2418518066406
z: -0.25766274333000183
visibility: 0.9995920062065125
","x: 280.17156982421875
y: 286.7682189941406
z: -0.251757949590683
visibility: 0.9992728233337402
","x: 281.4795837402344
y: 286.42291259765625
z: -0.251814067363739
visibility: 0.9993302226066589
","x: 282.9320068359375
y: 286.1220703125
z: -0.2518919110298157
visibility: 0.9994155168533325
","x: 277.3473815917969
y: 287.2147521972656
z: -0.2405049055814743
visibility: 0.9989794492721558
","x: 276.5536804199219
y: 287.21173095703125
z: -0.24052171409130096
visibility: 0.9988393187522888
","x: 275.8310241699219
y: 287.2201232910156
z: -0.2404816597700119
visibility: 0.9988324642181396
","x: 286.52764892578125
y: 287.367431640625
z: -0.18580187857151031
visibility: 0.9991863369941711
","x: 276.5548095703125
y: 288.57672119140625
z: -0.1338994801044464
visibility: 0.9963972568511963
","x: 281.05859375
y: 297.79425048828125
z: -0.23143920302391052
visibility: 0.9996590614318848
","x: 277.42669677734375
y: 297.9184265136719
z: -0.2163628786802292
visibility: 0.9990565180778503
","x: 299.2533874511719
y: 318.9450988769531
z: -0.1587786227464676
visibility: 0.999949038028717
","x: 269.0382385253906
y: 319.58758544921875
z: -0.018650246784090996
visibility: 0.9991612434387207
","x: 310.781494140625
y: 358.1295471191406
z: -0.18480899930000305
visibility: 0.9876593351364136
","x: 259.24322509765625
y: 349.386962890625
z: -0.01847206801176071
visibility: 0.6652079224586487
","x: 323.37994384765625
y: 392.299560546875
z: -0.28332045674324036
visibility: 0.9165804982185364
","x: 242.61984252929688
y: 324.5660705566406
z: -0.15907622873783112
visibility: 0.6751958131790161
","x: 326.5361022949219
y: 400.0135498046875
z: -0.3064831495285034
visibility: 0.8743273615837097
","x: 236.7081756591797
y: 321.7996826171875
z: -0.17560337483882904
visibility: 0.6464881300926208
","x: 326.3444519042969
y: 401.08984375
z: -0.3292199671268463
visibility: 0.8776592016220093
","x: 237.36361694335938
y: 317.8872985839844
z: -0.19095143675804138
visibility: 0.6544451713562012
","x: 325.0630187988281
y: 397.6985168457031
z: -0.29359886050224304
visibility: 0.8339385986328125
","x: 239.8334503173828
y: 318.64794921875
z: -0.16968779265880585
visibility: 0.6346579194068909
","x: 296.9224548339844
y: 398.83282470703125
z: -0.046626489609479904
visibility: 0.9997683763504028
","x: 279.28936767578125
y: 400.4145812988281
z: 0.0465371236205101
visibility: 0.9994703531265259
","x: 292.66302490234375
y: 454.2120666503906
z: -0.1947384774684906
visibility: 0.9863995909690857
","x: 280.4399108886719
y: 457.23406982421875
z: 0.04776890203356743
visibility: 0.890555202960968
","x: 300.46722412109375
y: 498.208251953125
z: -0.010678255930542946
visibility: 0.9903205633163452
","x: 290.3185729980469
y: 494.00323486328125
z: 0.2762749195098877
visibility: 0.9304242134094238
","x: 302.9058532714844
y: 502.47259521484375
z: 0.0037729423493146896
visibility: 0.8996437191963196
","x: 294.4065856933594
y: 496.6812438964844
z: 0.2965224087238312
visibility: 0.8942224383354187
","x: 294.65313720703125
y: 523.6378784179688
z: -0.08140610158443451
visibility: 0.9854304790496826
","x: 285.1534423828125
y: 518.8240356445312
z: 0.24413952231407166
visibility: 0.9383284449577332
",,,,,,,,,,,,,,,,,,,,,,,,,,,,,,,,,,,,,,,,,,
17,"x: 279.27337646484375
y: 292.3438720703125
z: -0.30984798073768616
visibility: 0.9996303915977478
","x: 280.7098693847656
y: 285.9421081542969
z: -0.30040979385375977
visibility: 0.9993398785591125
","x: 282.02215576171875
y: 285.5375061035156
z: -0.30044978857040405
visibility: 0.9993917942047119
","x: 283.46307373046875
y: 285.2181701660156
z: -0.30053234100341797
visibility: 0.9994670748710632
","x: 277.8099365234375
y: 286.6723937988281
z: -0.29246607422828674
visibility: 0.9990721940994263
","x: 276.93328857421875
y: 286.7715759277344
z: -0.2925250828266144
visibility: 0.9989457726478577
","x: 276.11956787109375
y: 286.8485412597656
z: -0.2925104796886444
visibility: 0.9989359378814697
","x: 286.6969299316406
y: 286.396728515625
z: -0.21922168135643005
visibility: 0.9992648959159851
","x: 276.53704833984375
y: 288.32989501953125
z: -0.18173709511756897
visibility: 0.9967295527458191
","x: 282.0042724609375
y: 296.84686279296875
z: -0.2775711715221405
visibility: 0.9996907711029053
","x: 278.13116455078125
y: 297.14117431640625
z: -0.26686251163482666
visibility: 0.9991418719291687
","x: 299.01068115234375
y: 318.3990173339844
z: -0.16517286002635956
visibility: 0.99995356798172
","x: 268.86376953125
y: 318.98675537109375
z: -0.07811843603849411
visibility: 0.9992343187332153
","x: 313.2727966308594
y: 355.3324890136719
z: -0.1765645146369934
visibility: 0.9886242747306824
","x: 257.1627197265625
y: 347.7264709472656
z: -0.12015439569950104
visibility: 0.6960790753364563
","x: 330.821044921875
y: 374.38311767578125
z: -0.2608579397201538
visibility: 0.9241785407066345
","x: 240.5107421875
y: 329.45703125
z: -0.3110639452934265
visibility: 0.7071138024330139
","x: 336.53387451171875
y: 379.7120361328125
z: -0.2943030297756195
visibility: 0.8849840760231018
","x: 234.7617645263672
y: 326.8196105957031
z: -0.33882027864456177
visibility: 0.6806426644325256
","x: 337.27423095703125
y: 379.30413818359375
z: -0.3002161681652069
visibility: 0.8883090615272522
","x: 235.15731811523438
y: 322.1502380371094
z: -0.3559601604938507
visibility: 0.6879294514656067
","x: 335.4103698730469
y: 378.090087890625
z: -0.2657507061958313
visibility: 0.8485995531082153
","x: 237.63194274902344
y: 323.35455322265625
z: -0.3237958550453186
visibility: 0.6699316501617432
","x: 296.9151916503906
y: 396.1839599609375
z: -0.03941301256418228
visibility: 0.9997835755348206
","x: 279.2687072753906
y: 398.47412109375
z: 0.0393916480243206
visibility: 0.9995049238204956
","x: 293.8847351074219
y: 453.86962890625
z: -0.13221625983715057
visibility: 0.9872254133224487
","x: 279.1186218261719
y: 456.2586669921875
z: 0.048755861818790436
visibility: 0.8918970823287964
","x: 300.8948669433594
y: 496.70172119140625
z: 0.06893934309482574
visibility: 0.9903742074966431
","x: 289.4993591308594
y: 495.63800048828125
z: 0.2539311647415161
visibility: 0.9337537288665771
","x: 302.6679992675781
y: 502.141357421875
z: 0.08398155122995377
visibility: 0.8993725776672363
","x: 293.96661376953125
y: 499.66802978515625
z: 0.2698577344417572
visibility: 0.8956941962242126
","x: 295.97882080078125
y: 521.1708374023438
z: -0.007016356103122234
visibility: 0.9856601357460022
","x: 281.697998046875
y: 519.9654541015625
z: 0.1906086504459381
visibility: 0.9418507814407349
",,,,,,,,,,,,,,,,,,,,,,,,,,,,,,,,,,,,,,,,,,
18,"x: 279.5988464355469
y: 291.61004638671875
z: -0.35307878255844116
visibility: 0.9996502995491028
","x: 281.2624206542969
y: 285.34613037109375
z: -0.34099990129470825
visibility: 0.9993412494659424
","x: 282.573486328125
y: 284.9853515625
z: -0.34106749296188354
visibility: 0.9993869662284851
","x: 283.92706298828125
y: 284.7450866699219
z: -0.34116131067276
visibility: 0.9994267821311951
","x: 278.1602783203125
y: 286.15045166015625
z: -0.3395288586616516
visibility: 0.9991093873977661
","x: 277.1544189453125
y: 286.2851257324219
z: -0.33962151408195496
visibility: 0.9990001916885376
","x: 276.2156066894531
y: 286.391357421875
z: -0.3396758437156677
visibility: 0.9989825487136841
","x: 286.69598388671875
y: 286.04730224609375
z: -0.24436557292938232
visibility: 0.9992278814315796
","x: 276.15802001953125
y: 287.8320007324219
z: -0.23864421248435974
visibility: 0.9969735145568848
","x: 282.24005126953125
y: 296.08935546875
z: -0.31530243158340454
visibility: 0.9996737241744995
","x: 278.1667785644531
y: 296.53509521484375
z: -0.3137219548225403
visibility: 0.9991903305053711
","x: 298.83612060546875
y: 318.0514831542969
z: -0.16172771155834198
visibility: 0.9999278783798218
","x: 266.8890380859375
y: 318.496826171875
z: -0.15005074441432953
visibility: 0.999299168586731
","x: 314.5446472167969
y: 349.5392150878906
z: -0.1714937835931778
visibility: 0.9875829219818115
","x: 251.70367431640625
y: 347.0189208984375
z: -0.1920023262500763
visibility: 0.7247554659843445
","x: 334.3359680175781
y: 361.339599609375
z: -0.27432721853256226
visibility: 0.9264098405838013
","x: 236.21185302734375
y: 342.42822265625
z: -0.3633657991886139
visibility: 0.7349889278411865
","x: 340.6758728027344
y: 361.1763916015625
z: -0.29867348074913025
visibility: 0.8865958452224731
","x: 231.2970733642578
y: 342.56707763671875
z: -0.39435356855392456
visibility: 0.7099642753601074
","x: 341.65765380859375
y: 358.6690673828125
z: -0.32302170991897583
visibility: 0.8915120959281921
","x: 231.71923828125
y: 338.73846435546875
z: -0.41573476791381836
visibility: 0.7169520854949951
","x: 339.6888122558594
y: 359.52520751953125
z: -0.2876136898994446
visibility: 0.8553605079650879
","x: 233.7653045654297
y: 339.0946960449219
z: -0.37673279643058777
visibility: 0.7002986669540405
","x: 296.87078857421875
y: 392.4081726074219
z: -0.008370881900191307
visibility: 0.9993367791175842
","x: 279.0953369140625
y: 393.833251953125
z: 0.008455533534288406
visibility: 0.9994494915008545
","x: 294.8873596191406
y: 452.5545959472656
z: -0.02810906432569027
visibility: 0.9777231216430664
","x: 282.3302917480469
y: 454.8678283691406
z: -0.09361899644136429
visibility: 0.8909388780593872
","x: 299.6910400390625
y: 499.31256103515625
z: 0.14430788159370422
visibility: 0.9780171513557434
","x: 288.11102294921875
y: 510.3834228515625
z: 0.025321995839476585
visibility: 0.9333201050758362
","x: 300.43310546875
y: 504.64910888671875
z: 0.1556423157453537
visibility: 0.8715681433677673
","x: 290.0305480957031
y: 518.1995849609375
z: 0.03131694346666336
visibility: 0.874001681804657
","x: 299.52496337890625
y: 522.425537109375
z: 0.06224661320447922
visibility: 0.9727028608322144
","x: 284.62078857421875
y: 528.297607421875
z: -0.08564720302820206
visibility: 0.9394578337669373
","x: 234.1258087158203
y: 352.5101318359375
z: 0.0
","x: 234.58396911621094
y: 348.03228759765625
z: -0.00012910798250231892
","x: 234.30050659179688
y: 343.3154602050781
z: -0.0008391705341637135
","x: 233.5792999267578
y: 340.447265625
z: -0.002201551105827093
","x: 232.46124267578125
y: 339.1817932128906
z: -0.003218277357518673
","x: 230.99728393554688
y: 340.2748107910156
z: 0.0008750124834477901
","x: 229.181884765625
y: 336.4220886230469
z: -0.0010058279149234295
","x: 229.96096801757812
y: 335.82275390625
z: -0.0017715258290991187
","x: 231.04449462890625
y: 336.64990234375
z: -0.001899276627227664
","x: 230.04193115234375
y: 341.74237060546875
z: -0.0002921090635936707
","x: 228.41244506835938
y: 337.58367919921875
z: -0.0023367833346128464
","x: 229.77650451660156
y: 337.9250793457031
z: -0.002832411089912057
","x: 231.1489715576172
y: 339.6716003417969
z: -0.002538589993491769
","x: 229.237060546875
y: 343.78143310546875
z: -0.0018262667581439018
","x: 228.71592712402344
y: 341.1047668457031
z: -0.0035359328612685204
","x: 230.56834411621094
y: 342.669921875
z: -0.0032522580586373806
","x: 231.93690490722656
y: 344.669921875
z: -0.0024548079818487167
","x: 228.71629333496094
y: 346.2738037109375
z: -0.0036075273528695107
","x: 228.6266326904297
y: 344.026123046875
z: -0.0043536340817809105
","x: 230.1767120361328
y: 344.91552734375
z: -0.004000317305326462
","x: 231.47422790527344
y: 346.4465026855469
z: -0.003333849599584937
",,,,,,,,,,,,,,,,,,,,,
19,"x: 279.5988464355469
y: 291.61004638671875
z: -0.35307878255844116
visibility: 0.9996502995491028
","x: 281.2624206542969
y: 285.34613037109375
z: -0.34099990129470825
visibility: 0.9993412494659424
","x: 282.573486328125
y: 284.9853515625
z: -0.34106749296188354
visibility: 0.9993869662284851
","x: 283.92706298828125
y: 284.7450866699219
z: -0.34116131067276
visibility: 0.9994267821311951
","x: 278.1602783203125
y: 286.15045166015625
z: -0.3395288586616516
visibility: 0.9991093873977661
","x: 277.1544189453125
y: 286.2851257324219
z: -0.33962151408195496
visibility: 0.9990001916885376
","x: 276.2156066894531
y: 286.391357421875
z: -0.3396758437156677
visibility: 0.9989825487136841
","x: 286.69598388671875
y: 286.04730224609375
z: -0.24436557292938232
visibility: 0.9992278814315796
","x: 276.15802001953125
y: 287.8320007324219
z: -0.23864421248435974
visibility: 0.9969735145568848
","x: 282.24005126953125
y: 296.08935546875
z: -0.31530243158340454
visibility: 0.9996737241744995
","x: 278.1667785644531
y: 296.53509521484375
z: -0.3137219548225403
visibility: 0.9991903305053711
","x: 298.83612060546875
y: 318.0514831542969
z: -0.16172771155834198
visibility: 0.9999278783798218
","x: 266.8890380859375
y: 318.496826171875
z: -0.15005074441432953
visibility: 0.999299168586731
","x: 314.5446472167969
y: 349.5392150878906
z: -0.1714937835931778
visibility: 0.9875829219818115
","x: 251.70367431640625
y: 347.0189208984375
z: -0.1920023262500763
visibility: 0.7247554659843445
","x: 334.3359680175781
y: 361.339599609375
z: -0.27432721853256226
visibility: 0.9264098405838013
","x: 236.21185302734375
y: 342.42822265625
z: -0.3633657991886139
visibility: 0.7349889278411865
","x: 340.6758728027344
y: 361.1763916015625
z: -0.29867348074913025
visibility: 0.8865958452224731
","x: 231.2970733642578
y: 342.56707763671875
z: -0.39435356855392456
visibility: 0.7099642753601074
","x: 341.65765380859375
y: 358.6690673828125
z: -0.32302170991897583
visibility: 0.8915120959281921
","x: 231.71923828125
y: 338.73846435546875
z: -0.41573476791381836
visibility: 0.7169520854949951
","x: 339.6888122558594
y: 359.52520751953125
z: -0.2876136898994446
visibility: 0.8553605079650879
","x: 233.7653045654297
y: 339.0946960449219
z: -0.37673279643058777
visibility: 0.7002986669540405
","x: 296.87078857421875
y: 392.4081726074219
z: -0.008370881900191307
visibility: 0.9993367791175842
","x: 279.0953369140625
y: 393.833251953125
z: 0.008455533534288406
visibility: 0.9994494915008545
","x: 294.8873596191406
y: 452.5545959472656
z: -0.02810906432569027
visibility: 0.9777231216430664
","x: 282.3302917480469
y: 454.8678283691406
z: -0.09361899644136429
visibility: 0.8909388780593872
","x: 299.6910400390625
y: 499.31256103515625
z: 0.14430788159370422
visibility: 0.9780171513557434
","x: 288.11102294921875
y: 510.3834228515625
z: 0.025321995839476585
visibility: 0.9333201050758362
","x: 300.43310546875
y: 504.64910888671875
z: 0.1556423157453537
visibility: 0.8715681433677673
","x: 290.0305480957031
y: 518.1995849609375
z: 0.03131694346666336
visibility: 0.874001681804657
","x: 299.52496337890625
y: 522.425537109375
z: 0.06224661320447922
visibility: 0.9727028608322144
","x: 284.62078857421875
y: 528.297607421875
z: -0.08564720302820206
visibility: 0.9394578337669373
","x: 234.1258087158203
y: 352.5101318359375
z: 0.0
","x: 234.58396911621094
y: 348.03228759765625
z: -0.00012910798250231892
","x: 234.30050659179688
y: 343.3154602050781
z: -0.0008391705341637135
","x: 233.5792999267578
y: 340.447265625
z: -0.002201551105827093
","x: 232.46124267578125
y: 339.1817932128906
z: -0.003218277357518673
","x: 230.99728393554688
y: 340.2748107910156
z: 0.0008750124834477901
","x: 229.181884765625
y: 336.4220886230469
z: -0.0010058279149234295
","x: 229.96096801757812
y: 335.82275390625
z: -0.0017715258290991187
","x: 231.04449462890625
y: 336.64990234375
z: -0.001899276627227664
","x: 230.04193115234375
y: 341.74237060546875
z: -0.0002921090635936707
","x: 228.41244506835938
y: 337.58367919921875
z: -0.0023367833346128464
","x: 229.77650451660156
y: 337.9250793457031
z: -0.002832411089912057
","x: 231.1489715576172
y: 339.6716003417969
z: -0.002538589993491769
","x: 229.237060546875
y: 343.78143310546875
z: -0.0018262667581439018
","x: 228.71592712402344
y: 341.1047668457031
z: -0.0035359328612685204
","x: 230.56834411621094
y: 342.669921875
z: -0.0032522580586373806
","x: 231.93690490722656
y: 344.669921875
z: -0.0024548079818487167
","x: 228.71629333496094
y: 346.2738037109375
z: -0.0036075273528695107
","x: 228.6266326904297
y: 344.026123046875
z: -0.0043536340817809105
","x: 230.1767120361328
y: 344.91552734375
z: -0.004000317305326462
","x: 231.47422790527344
y: 346.4465026855469
z: -0.003333849599584937
",,,,,,,,,,,,,,,,,,,,,
20,"x: 279.2799987792969
y: 289.564697265625
z: -0.40420088171958923
visibility: 0.9996803998947144
","x: 281.0639343261719
y: 283.4543151855469
z: -0.3917810320854187
visibility: 0.9993714690208435
","x: 282.3520812988281
y: 283.2186279296875
z: -0.39183956384658813
visibility: 0.9994242787361145
","x: 283.6751708984375
y: 283.1111755371094
z: -0.3919156491756439
visibility: 0.9994403719902039
","x: 277.989501953125
y: 284.20782470703125
z: -0.3911634385585785
visibility: 0.999160647392273
","x: 277.0391540527344
y: 284.4430847167969
z: -0.3912368714809418
visibility: 0.9990708827972412
","x: 276.1078186035156
y: 284.7045593261719
z: -0.3912919759750366
visibility: 0.999036431312561
","x: 286.5922546386719
y: 285.467529296875
z: -0.29361075162887573
visibility: 0.9992403388023376
","x: 276.12457275390625
y: 287.0321350097656
z: -0.29068464040756226
visibility: 0.9972338676452637
","x: 281.9589538574219
y: 294.3026123046875
z: -0.36590978503227234
visibility: 0.9996964931488037
","x: 277.9751281738281
y: 295.1195068359375
z: -0.3651687502861023
visibility: 0.9992650747299194
","x: 298.74713134765625
y: 319.4111328125
z: -0.2019195556640625
visibility: 0.9999305605888367
","x: 265.1272888183594
y: 319.2358703613281
z: -0.20394086837768555
visibility: 0.9993657469749451
","x: 313.9291076660156
y: 347.6239013671875
z: -0.22893476486206055
visibility: 0.9877099394798279
","x: 249.6543731689453
y: 347.67449951171875
z: -0.1928051859140396
visibility: 0.751837968826294
","x: 334.006591796875
y: 350.78607177734375
z: -0.37190937995910645
visibility: 0.9316551089286804
","x: 232.8833770751953
y: 371.2102966308594
z: -0.282766729593277
visibility: 0.7604605555534363
","x: 340.722412109375
y: 349.3890686035156
z: -0.4024741053581238
visibility: 0.8937292695045471
","x: 227.04551696777344
y: 373.3151550292969
z: -0.3068416118621826
visibility: 0.7362274527549744
","x: 341.39239501953125
y: 344.87493896484375
z: -0.4288923144340515
visibility: 0.8987916111946106
","x: 226.3282470703125
y: 371.7984619140625
z: -0.3331841826438904
visibility: 0.7428673505783081
","x: 338.83709716796875
y: 345.7737731933594
z: -0.38703444600105286
visibility: 0.8656187057495117
","x: 228.9466552734375
y: 372.3118591308594
z: -0.29605308175086975
visibility: 0.72748863697052
","x: 295.50128173828125
y: 393.0815124511719
z: 0.00791957601904869
visibility: 0.9992616176605225
","x: 276.629150390625
y: 394.5846252441406
z: -0.0078390222042799
visibility: 0.9994199275970459
","x: 296.3028564453125
y: 456.5769958496094
z: 0.01781831495463848
visibility: 0.9678089022636414
","x: 283.4106750488281
y: 454.946533203125
z: -0.09673713147640228
visibility: 0.8969742655754089
","x: 297.6542663574219
y: 499.7825622558594
z: 0.2534793019294739
visibility: 0.967449426651001
","x: 287.48846435546875
y: 515.101318359375
z: 0.07527028024196625
visibility: 0.9357998371124268
","x: 295.19342041015625
y: 506.380126953125
z: 0.2703140079975128
visibility: 0.8428080081939697
","x: 283.9263916015625
y: 522.837158203125
z: 0.0859767273068428
visibility: 0.862496018409729
","x: 295.2355651855469
y: 522.6856689453125
z: 0.16213937103748322
visibility: 0.9632682800292969
","x: 287.1226501464844
y: 532.1123657226562
z: -0.0444907508790493
visibility: 0.9415373802185059
",,,,,,,,,,,,,,,,,,,,,,,,,,,,,,,,,,,,,,,,,,
21,"x: 278.9820251464844
y: 288.5277404785156
z: -0.3116057217121124
visibility: 0.999708890914917
","x: 280.7829284667969
y: 282.3215637207031
z: -0.301503986120224
visibility: 0.9994123578071594
","x: 282.066650390625
y: 282.1666564941406
z: -0.30156126618385315
visibility: 0.999469518661499
","x: 283.4008483886719
y: 282.14691162109375
z: -0.30161556601524353
visibility: 0.9994727373123169
","x: 277.7801818847656
y: 282.99737548828125
z: -0.29763686656951904
visibility: 0.9992145299911499
","x: 276.89788818359375
y: 283.2691650390625
z: -0.29768937826156616
visibility: 0.9991369843482971
","x: 276.0797424316406
y: 283.59088134765625
z: -0.29773926734924316
visibility: 0.9990852475166321
","x: 286.3974304199219
y: 285.0150146484375
z: -0.22831864655017853
visibility: 0.999284029006958
","x: 275.6093444824219
y: 286.6140441894531
z: -0.19638745486736298
visibility: 0.9974914193153381
","x: 281.65472412109375
y: 293.61553955078125
z: -0.27798694372177124
visibility: 0.9997231364250183
","x: 277.9265441894531
y: 294.375244140625
z: -0.2722879946231842
visibility: 0.9993352890014648
","x: 298.4651794433594
y: 319.8026428222656
z: -0.12323959916830063
visibility: 0.9999349117279053
","x: 264.97735595703125
y: 319.2705383300781
z: -0.11612564325332642
visibility: 0.9994279742240906
","x: 307.9009704589844
y: 350.41436767578125
z: -0.1968068927526474
visibility: 0.9853693842887878
","x: 249.61404418945312
y: 348.05303955078125
z: -0.14826759696006775
visibility: 0.7761096358299255
","x: 326.8536071777344
y: 346.62579345703125
z: -0.38654178380966187
visibility: 0.933448076248169
","x: 229.627685546875
y: 373.25274658203125
z: -0.11340475082397461
visibility: 0.7829315662384033
","x: 330.2572021484375
y: 341.6903381347656
z: -0.4197149872779846
visibility: 0.8969446420669556
","x: 223.60813903808594
y: 375.5670166015625
z: -0.12418968975543976
visibility: 0.7587935924530029
","x: 329.5655822753906
y: 338.02972412109375
z: -0.43622809648513794
visibility: 0.9025304317474365
","x: 222.493408203125
y: 374.07659912109375
z: -0.1505577564239502
visibility: 0.7653289437294006
","x: 328.0442810058594
y: 338.5887451171875
z: -0.3983699679374695
visibility: 0.8706575036048889
","x: 225.15541076660156
y: 374.3546142578125
z: -0.12501409649848938
visibility: 0.7513566017150879
","x: 290.08172607421875
y: 396.5121765136719
z: 0.01950310543179512
visibility: 0.9992913007736206
","x: 272.1042785644531
y: 395.2159118652344
z: -0.019467871636152267
visibility: 0.9994666576385498
","x: 292.6092834472656
y: 459.935546875
z: 0.02851354144513607
visibility: 0.944057047367096
","x: 281.8196716308594
y: 454.9960021972656
z: -0.15294614434242249
visibility: 0.9054436087608337
","x: 278.0179138183594
y: 503.9029541015625
z: 0.24756789207458496
visibility: 0.9596684575080872
","x: 286.4185485839844
y: 511.59661865234375
z: 0.014268741011619568
visibility: 0.9408592581748962
","x: 273.54376220703125
y: 507.0511169433594
z: 0.2642661929130554
visibility: 0.8388996124267578
","x: 284.3289794921875
y: 520.5870361328125
z: 0.026305492967367172
visibility: 0.8663286566734314
","x: 281.94378662109375
y: 527.2469482421875
z: 0.17356739938259125
visibility: 0.955554187297821
","x: 285.9791564941406
y: 531.6876831054688
z: -0.08497217297554016
visibility: 0.9458359479904175
",,,,,,,,,,,,,,,,,,,,,,,,,,,,,,,,,,,,,,,,,,
22,"x: 276.3745422363281
y: 287.9172058105469
z: -0.2554553151130676
visibility: 0.9996901154518127
","x: 277.81475830078125
y: 281.8341369628906
z: -0.24510984122753143
visibility: 0.9993282556533813
","x: 279.0622863769531
y: 281.72552490234375
z: -0.2451663762331009
visibility: 0.9993901252746582
","x: 280.47369384765625
y: 281.7230224609375
z: -0.24519404768943787
visibility: 0.9993696212768555
","x: 274.83331298828125
y: 282.3873291015625
z: -0.24450182914733887
visibility: 0.999142587184906
","x: 273.757568359375
y: 282.6663513183594
z: -0.24457737803459167
visibility: 0.9990913271903992
","x: 272.66131591796875
y: 282.9980773925781
z: -0.24462397396564484
visibility: 0.9990410804748535
","x: 283.76751708984375
y: 284.6765441894531
z: -0.16765189170837402
visibility: 0.9991071224212646
","x: 271.4771728515625
y: 286.1570129394531
z: -0.1691901534795761
visibility: 0.9975458979606628
","x: 278.6192321777344
y: 293.1444091796875
z: -0.2245905101299286
visibility: 0.9996861219406128
","x: 275.1003723144531
y: 293.7322082519531
z: -0.22382232546806335
visibility: 0.999346911907196
","x: 295.3146057128906
y: 318.8654479980469
z: -0.0989835113286972
visibility: 0.9999077916145325
","x: 262.123046875
y: 319.3295593261719
z: -0.09088173508644104
visibility: 0.9994673728942871
","x: 306.1910705566406
y: 350.3603820800781
z: -0.12124786525964737
visibility: 0.9838249087333679
","x: 246.84213256835938
y: 348.33331298828125
z: -0.1026592031121254
visibility: 0.7969303727149963
","x: 310.85882568359375
y: 373.91290283203125
z: -0.24113090336322784
visibility: 0.9282919764518738
","x: 225.89764404296875
y: 353.6619873046875
z: -0.22716078162193298
visibility: 0.8031469583511353
","x: 312.89666748046875
y: 383.69403076171875
z: -0.26622703671455383
visibility: 0.8857778310775757
","x: 220.15536499023438
y: 350.8704833984375
z: -0.25390002131462097
visibility: 0.780029833316803
","x: 309.4031066894531
y: 381.24609375
z: -0.28166478872299194
visibility: 0.8931023478507996
","x: 219.98512268066406
y: 347.4648742675781
z: -0.2763649821281433
visibility: 0.7864368557929993
","x: 307.8688659667969
y: 377.2694091796875
z: -0.25014954805374146
visibility: 0.8637708425521851
","x: 222.26181030273438
y: 348.8704833984375
z: -0.23999610543251038
visibility: 0.7733769416809082
","x: 284.38189697265625
y: 397.95208740234375
z: 0.01065332256257534
visibility: 0.9990898370742798
","x: 267.23248291015625
y: 394.44024658203125
z: -0.010666964575648308
visibility: 0.9993548393249512
","x: 281.51025390625
y: 460.1432800292969
z: -0.005212312564253807
visibility: 0.9283493161201477
","x: 269.0567321777344
y: 452.5654296875
z: -0.11987106502056122
visibility: 0.9083905220031738
","x: 274.63287353515625
y: 513.090576171875
z: 0.11690306663513184
visibility: 0.951474130153656
","x: 265.4131774902344
y: 510.2127380371094
z: -0.02505495771765709
visibility: 0.9384298920631409
","x: 271.3922424316406
y: 519.7327880859375
z: 0.12938882410526276
visibility: 0.8221471905708313
","x: 264.126708984375
y: 518.3341674804688
z: -0.020442716777324677
visibility: 0.8445976972579956
","x: 276.6354064941406
y: 527.938720703125
z: 0.03635278344154358
visibility: 0.9484599232673645
","x: 268.5954895019531
y: 531.3805541992188
z: -0.11964631080627441
visibility: 0.9439448118209839
",,,,,,,,,,,,,,,,,,,,,,,,,,,,,,,,,,,,,,,,,,
23,"x: 273.2724304199219
y: 285.5693359375
z: -0.22197644412517548
visibility: 0.9996961951255798
","x: 274.70892333984375
y: 280.16253662109375
z: -0.21142148971557617
visibility: 0.9993338584899902
","x: 275.82708740234375
y: 280.0416259765625
z: -0.2114986926317215
visibility: 0.9993926286697388
","x: 277.0711669921875
y: 279.99798583984375
z: -0.21155619621276855
visibility: 0.9993770718574524
","x: 271.6253356933594
y: 280.6788024902344
z: -0.20681539177894592
visibility: 0.9991329908370972
","x: 270.4666748046875
y: 280.94403076171875
z: -0.20683331787586212
visibility: 0.9990789294242859
","x: 269.2353515625
y: 281.2508850097656
z: -0.20682983100414276
visibility: 0.9990218281745911
","x: 280.1221008300781
y: 283.5241394042969
z: -0.13860686123371124
visibility: 0.9991565942764282
","x: 268.4993591308594
y: 284.65106201171875
z: -0.11762374639511108
visibility: 0.9975094199180603
","x: 275.4058532714844
y: 291.1986083984375
z: -0.1944064348936081
visibility: 0.9997053742408752
","x: 271.74530029296875
y: 291.9130859375
z: -0.18827776610851288
visibility: 0.9993798136711121
","x: 290.83038330078125
y: 317.86566162109375
z: -0.10618148744106293
visibility: 0.9999129772186279
","x: 258.1455993652344
y: 318.0813903808594
z: -0.03586020693182945
visibility: 0.9994432330131531
","x: 303.7327575683594
y: 349.98590087890625
z: -0.13553524017333984
visibility: 0.9851114153862
","x: 243.33326721191406
y: 339.83050537109375
z: -0.08136425912380219
visibility: 0.8142026662826538
","x: 311.12811279296875
y: 379.7523193359375
z: -0.24753844738006592
visibility: 0.9342119693756104
","x: 225.3523406982422
y: 332.49139404296875
z: -0.2443537414073944
visibility: 0.8218827843666077
","x: 313.576171875
y: 388.53021240234375
z: -0.2756696939468384
visibility: 0.8937867879867554
","x: 219.91615295410156
y: 328.5418701171875
z: -0.2753273844718933
visibility: 0.800222635269165
","x: 311.9332275390625
y: 388.1507568359375
z: -0.2932402491569519
visibility: 0.9007032513618469
","x: 220.2948760986328
y: 323.0308532714844
z: -0.2943532168865204
visibility: 0.8062071204185486
","x: 310.5625915527344
y: 384.8494873046875
z: -0.25690680742263794
visibility: 0.8738592267036438
","x: 222.599853515625
y: 324.8910217285156
z: -0.258002907037735
visibility: 0.7941948771476746
","x: 280.8558044433594
y: 400.4393005371094
z: -0.010692842304706573
visibility: 0.9991416335105896
","x: 264.1118469238281
y: 396.63226318359375
z: 0.01053524762392044
visibility: 0.9993492960929871
","x: 278.268798828125
y: 462.5487060546875
z: -0.0010701225837692618
visibility: 0.9342218637466431
","x: 263.9389343261719
y: 455.33734130859375
z: 0.06096450611948967
visibility: 0.913879930973053
","x: 275.9942321777344
y: 512.832763671875
z: 0.1812611073255539
visibility: 0.9540008902549744
","x: 264.8517150878906
y: 505.13604736328125
z: 0.24845337867736816
visibility: 0.9416834115982056
","x: 275.1457824707031
y: 518.248291015625
z: 0.19428680837154388
visibility: 0.818373441696167
","x: 267.2159423828125
y: 509.6844482421875
z: 0.26303035020828247
visibility: 0.8484337329864502
","x: 274.9237365722656
y: 528.0308837890625
z: 0.10601748526096344
visibility: 0.9506559371948242
","x: 261.0545654296875
y: 523.9232788085938
z: 0.18277281522750854
visibility: 0.9471322894096375
",,,,,,,,,,,,,,,,,,,,,,,,,,,,,,,,,,,,,,,,,,
24,"x: 269.5033264160156
y: 285.8131103515625
z: -0.3022260069847107
visibility: 0.999724805355072
","x: 271.0307312011719
y: 280.4976501464844
z: -0.293878972530365
visibility: 0.9993966817855835
","x: 272.0290832519531
y: 280.4368896484375
z: -0.2939417362213135
visibility: 0.9994508028030396
","x: 273.1113586425781
y: 280.4349365234375
z: -0.2940238118171692
visibility: 0.99943608045578
","x: 268.076171875
y: 280.72625732421875
z: -0.28590601682662964
visibility: 0.9992115497589111
","x: 266.9566650390625
y: 280.8611145019531
z: -0.2859489619731903
visibility: 0.9991630911827087
","x: 265.77166748046875
y: 281.04022216796875
z: -0.28590038418769836
visibility: 0.9991105198860168
","x: 276.189208984375
y: 283.7331848144531
z: -0.2240062654018402
visibility: 0.999238908290863
","x: 264.68572998046875
y: 284.06524658203125
z: -0.1882108449935913
visibility: 0.997745931148529
","x: 271.4381103515625
y: 291.3113708496094
z: -0.27545422315597534
visibility: 0.9997333884239197
","x: 267.6239013671875
y: 291.742431640625
z: -0.2650179862976074
visibility: 0.999437153339386
","x: 286.25079345703125
y: 318.50347900390625
z: -0.19781018793582916
visibility: 0.9999212622642517
","x: 254.1818084716797
y: 315.25616455078125
z: -0.06555617600679398
visibility: 0.9994850158691406
","x: 302.5148620605469
y: 352.30426025390625
z: -0.2138414829969406
visibility: 0.9865788817405701
","x: 238.98373413085938
y: 332.9754943847656
z: 0.058391354978084564
visibility: 0.8281801342964172
","x: 314.8923034667969
y: 385.50860595703125
z: -0.3052438497543335
visibility: 0.9406282901763916
","x: 224.39974975585938
y: 331.13397216796875
z: 0.09931579232215881
visibility: 0.8385064005851746
","x: 320.0068054199219
y: 393.0119323730469
z: -0.3281800150871277
visibility: 0.9035730957984924
","x: 219.49427795410156
y: 330.9255676269531
z: 0.10655812174081802
visibility: 0.8176685571670532
","x: 320.0599670410156
y: 392.5149230957031
z: -0.35561445355415344
visibility: 0.9099639058113098
","x: 220.2410125732422
y: 328.05975341796875
z: 0.08334144204854965
visibility: 0.8233926296234131
","x: 317.5302429199219
y: 389.78826904296875
z: -0.3193240761756897
visibility: 0.8857035040855408
","x: 222.08074951171875
y: 328.5616455078125
z: 0.09066511690616608
visibility: 0.8125666975975037
","x: 276.173095703125
y: 400.35589599609375
z: -0.04860767349600792
visibility: 0.9992063045501709
","x: 261.8039245605469
y: 397.7381591796875
z: 0.048613011837005615
visibility: 0.9993996620178223
","x: 271.90020751953125
y: 461.0635070800781
z: -0.008081741631031036
visibility: 0.9385257363319397
","x: 263.93212890625
y: 456.7622375488281
z: 0.10583597421646118
visibility: 0.9079580307006836
","x: 273.19427490234375
y: 504.4835205078125
z: 0.15612712502479553
visibility: 0.9565078020095825
","x: 270.3701171875
y: 507.17431640625
z: 0.25880318880081177
visibility: 0.943534255027771
","x: 276.9247741699219
y: 507.67169189453125
z: 0.16972625255584717
visibility: 0.8316753506660461
","x: 273.0271301269531
y: 513.5968627929688
z: 0.269813597202301
visibility: 0.8572145700454712
","x: 273.82025146484375
y: 522.259033203125
z: 0.09923919290304184
visibility: 0.9538528323173523
","x: 263.84197998046875
y: 523.3760986328125
z: 0.1961866170167923
visibility: 0.9496265053749084
",,,,,,,,,,,,,,,,,,,,,,,,,,,,,,,,,,,,,,,,,,
25,"x: 266.2083740234375
y: 286.16259765625
z: -0.3612012565135956
visibility: 0.9997518658638
","x: 267.66058349609375
y: 280.76239013671875
z: -0.3552963435649872
visibility: 0.9994561076164246
","x: 268.65350341796875
y: 280.6177673339844
z: -0.35533949732780457
visibility: 0.9995048642158508
","x: 269.6517333984375
y: 280.5257568359375
z: -0.3554287850856781
visibility: 0.9994914531707764
","x: 264.70648193359375
y: 281.0653991699219
z: -0.3454095721244812
visibility: 0.9992890954017639
","x: 263.6025695800781
y: 281.20843505859375
z: -0.3454659879207611
visibility: 0.999245285987854
","x: 262.5203857421875
y: 281.3946228027344
z: -0.34544622898101807
visibility: 0.9991978406906128
","x: 272.4461975097656
y: 283.96728515625
z: -0.28474682569503784
visibility: 0.9993141889572144
","x: 261.8973083496094
y: 284.28973388671875
z: -0.2399033010005951
visibility: 0.9979693293571472
","x: 268.3467102050781
y: 291.6534729003906
z: -0.33293166756629944
visibility: 0.9997598528862
","x: 264.7199401855469
y: 292.11376953125
z: -0.32005181908607483
visibility: 0.9994930624961853
","x: 282.9111328125
y: 321.7248229980469
z: -0.23622778058052063
visibility: 0.9999289512634277
","x: 251.2503662109375
y: 314.77252197265625
z: -0.128654345870018
visibility: 0.9995357990264893
","x: 297.7052307128906
y: 356.11993408203125
z: -0.26955482363700867
visibility: 0.9877768754959106
","x: 235.7868194580078
y: 337.3169250488281
z: -0.05733560398221016
visibility: 0.8437829613685608
","x: 315.6860046386719
y: 381.2509765625
z: -0.3905988335609436
visibility: 0.946086585521698
","x: 229.39845275878906
y: 368.252197265625
z: -0.08829046785831451
visibility: 0.8529040813446045
","x: 321.78662109375
y: 382.8457336425781
z: -0.4236154556274414
visibility: 0.912078320980072
","x: 224.4634246826172
y: 376.6524658203125
z: -0.1007855162024498
visibility: 0.831671416759491
","x: 322.6788024902344
y: 379.7677001953125
z: -0.44504618644714355
visibility: 0.9180119037628174
","x: 221.89590454101562
y: 376.79852294921875
z: -0.12226680666208267
visibility: 0.8372057676315308
","x: 320.3893127441406
y: 379.3076171875
z: -0.40259218215942383
visibility: 0.8956423401832581
","x: 225.28269958496094
y: 374.1628723144531
z: -0.0993473082780838
visibility: 0.8274911642074585
","x: 274.46356201171875
y: 397.768310546875
z: -0.04670149087905884
visibility: 0.9992756843566895
","x: 258.49322509765625
y: 396.496826171875
z: 0.04675633832812309
visibility: 0.9994435906410217
","x: 266.3114013671875
y: 457.327880859375
z: -0.09297972172498703
visibility: 0.9437460899353027
","x: 259.85504150390625
y: 456.9679260253906
z: 0.08577332645654678
visibility: 0.907751202583313
","x: 268.5955505371094
y: 502.59686279296875
z: 0.0646461695432663
visibility: 0.960066556930542
","x: 268.91632080078125
y: 505.4985046386719
z: 0.28087884187698364
visibility: 0.943281352519989
","x: 270.6808776855469
y: 508.0221862792969
z: 0.07615504413843155
visibility: 0.8403439521789551
","x: 273.55328369140625
y: 512.9261474609375
z: 0.29611262679100037
visibility: 0.8649439811706543
","x: 266.23272705078125
y: 526.041748046875
z: -0.021529028192162514
visibility: 0.9567245244979858
","x: 262.36590576171875
y: 523.2486572265625
z: 0.20979353785514832
visibility: 0.9494978189468384
",,,,,,,,,,,,,,,,,,,,,,,,,,,,,,,,,,,,,,,,,,
26,"x: 264.7875061035156
y: 285.09197998046875
z: -0.31366854906082153
visibility: 0.9997706413269043
","x: 265.9940185546875
y: 280.0054626464844
z: -0.3044894337654114
visibility: 0.9994690418243408
","x: 267.0963134765625
y: 280.0386962890625
z: -0.30454182624816895
visibility: 0.999525785446167
","x: 268.24542236328125
y: 280.1507568359375
z: -0.30461403727531433
visibility: 0.9994960427284241
","x: 263.0221252441406
y: 280.4827880859375
z: -0.2984887659549713
visibility: 0.9993110299110413
","x: 261.86572265625
y: 280.8490905761719
z: -0.2985321879386902
visibility: 0.9992838501930237
","x: 260.6519775390625
y: 281.25048828125
z: -0.2985515594482422
visibility: 0.9992230534553528
","x: 270.6559143066406
y: 284.03277587890625
z: -0.2567614018917084
visibility: 0.9993076920509338
","x: 259.1018981933594
y: 284.4225769042969
z: -0.20135411620140076
visibility: 0.9981212019920349
","x: 266.8922119140625
y: 290.9841003417969
z: -0.283665269613266
visibility: 0.9997755289077759
","x: 263.2193298339844
y: 291.59814453125
z: -0.27654746174812317
visibility: 0.9995341300964355
","x: 280.9753723144531
y: 321.37896728515625
z: -0.1544630378484726
visibility: 0.9999301433563232
","x: 249.02752685546875
y: 316.7892150878906
z: -0.12175633758306503
visibility: 0.9995704293251038
","x: 289.84063720703125
y: 357.82611083984375
z: -0.18321846425533295
visibility: 0.9815779328346252
","x: 239.27764892578125
y: 356.8697509765625
z: -0.12152067571878433
visibility: 0.8531829118728638
","x: 307.90765380859375
y: 367.93817138671875
z: -0.3314475119113922
visibility: 0.938520610332489
","x: 235.81939697265625
y: 391.15704345703125
z: -0.2325979471206665
visibility: 0.8543755412101746
","x: 313.8666076660156
y: 369.6086120605469
z: -0.36178916692733765
visibility: 0.9041382074356079
","x: 235.05841064453125
y: 402.5106201171875
z: -0.25980013608932495
visibility: 0.8278234601020813
","x: 315.5008850097656
y: 364.2957763671875
z: -0.3832499384880066
visibility: 0.9121155738830566
","x: 235.59852600097656
y: 402.298583984375
z: -0.2812052369117737
visibility: 0.8340660333633423
","x: 312.5600891113281
y: 363.788330078125
z: -0.3430666923522949
visibility: 0.888732373714447
","x: 237.41966247558594
y: 399.6581726074219
z: -0.24379131197929382
visibility: 0.8233046531677246
","x: 273.6535339355469
y: 398.3175354003906
z: -0.017472106963396072
visibility: 0.9993216395378113
","x: 255.68795776367188
y: 396.4437255859375
z: 0.01747768744826317
visibility: 0.9994741678237915
","x: 267.37957763671875
y: 460.7107849121094
z: -0.08734196424484253
visibility: 0.946705162525177
","x: 252.60694885253906
y: 454.8203125
z: -0.07195212692022324
visibility: 0.9156553745269775
","x: 266.25567626953125
y: 505.804443359375
z: 0.1741541028022766
visibility: 0.9621959924697876
","x: 255.37474060058594
y: 501.2075500488281
z: 0.26471927762031555
visibility: 0.9467465877532959
","x: 265.65631103515625
y: 509.9467468261719
z: 0.1915757954120636
visibility: 0.8315902352333069
","x: 257.681396484375
y: 506.1697998046875
z: 0.23009352385997772
visibility: 0.8648979067802429
","x: 261.2029724121094
y: 526.119873046875
z: 0.09042514115571976
visibility: 0.9578717947006226
","x: 252.54335021972656
y: 523.2781372070312
z: 0.16007444262504578
visibility: 0.9521740674972534
",,,,,,,,,,,,,,,,,,,,,,,,,,,,,,,,,,,,,,,,,,
27,"x: 262.90057373046875
y: 285.29278564453125
z: -0.23893161118030548
visibility: 0.9997851848602295
","x: 263.6676025390625
y: 279.9825744628906
z: -0.22491267323493958
visibility: 0.9994938969612122
","x: 264.5910949707031
y: 279.93670654296875
z: -0.22498393058776855
visibility: 0.9995526075363159
","x: 265.587890625
y: 279.99078369140625
z: -0.22502104938030243
visibility: 0.9995203614234924
","x: 261.1125183105469
y: 280.675048828125
z: -0.22345373034477234
visibility: 0.9993342757225037
","x: 260.12017822265625
y: 281.07855224609375
z: -0.22344544529914856
visibility: 0.9993029832839966
