uscmakers/ReverseChoreography/data/7_peaches_justin_bieber.csv
,NOSE,LEFT_EYE_INNER,LEFT_EYE,LEFT_EYE_OUTER,RIGHT_EYE_INNER,RIGHT_EYE,RIGHT_EYE_OUTER,LEFT_EAR,RIGHT_EAR,MOUTH_LEFT,MOUTH_RIGHT,LEFT_SHOULDER,RIGHT_SHOULDER,LEFT_ELBOW,RIGHT_ELBOW,LEFT_WRIST,RIGHT_WRIST,LEFT_PINKY,RIGHT_PINKY,LEFT_INDEX,RIGHT_INDEX,LEFT_THUMB,RIGHT_THUMB,LEFT_HIP,RIGHT_HIP,LEFT_KNEE,RIGHT_KNEE,LEFT_ANKLE,RIGHT_ANKLE,LEFT_HEEL,RIGHT_HEEL,LEFT_FOOT_INDEX,RIGHT_FOOT_INDEX,WRIST2,THUMB_CPC2,THUMB_MCP2,THUMB_IP2,THUMB_TIP2,INDEX_FINGER_MCP2,INDEX_FINGER_PIP2,INDEX_FINGER_DIP2,INDEX_FINGER_TIP2,MIDDLE_FINGER_MCP2,MIDDLE_FINGER_PIP2,MIDDLE_FINGER_DIP2,MIDDLE_FINGER_TIP2,RING_FINGER_PIP2,RING_FINGER_DIP2,RING_FINGER_TIP2,RING_FINGER_MCP2,PINKY_MCP2,PINKY_PIP2,PINKY_DIP2,PINKY_TIP2,WRIST,THUMB_CPC,THUMB_MCP,THUMB_IP,THUMB_TIP,INDEX_FINGER_MCP,INDEX_FINGER_PIP,INDEX_FINGER_DIP,INDEX_FINGER_TIP,MIDDLE_FINGER_MCP,MIDDLE_FINGER_PIP,MIDDLE_FINGER_DIP,MIDDLE_FINGER_TIP,RING_FINGER_PIP,RING_FINGER_DIP,RING_FINGER_TIP,RING_FINGER_MCP,PINKY_MCP,PINKY_PIP,PINKY_DIP,PINKY_TIP
0,"x: 276.8314514160156
y: 282.55572509765625
z: -0.19356779754161835
visibility: 0.998602569103241
","x: 278.2391662597656
y: 278.1143798828125
z: -0.1757415235042572
visibility: 0.9948949217796326
","x: 279.2700500488281
y: 278.52008056640625
z: -0.17576783895492554
visibility: 0.9941457509994507
","x: 280.3531799316406
y: 278.88446044921875
z: -0.1757977306842804
visibility: 0.9944519400596619
","x: 275.087646484375
y: 277.31787109375
z: -0.1815938502550125
visibility: 0.9945952296257019
","x: 273.86016845703125
y: 277.23773193359375
z: -0.1816217005252838
visibility: 0.994549572467804
","x: 272.658935546875
y: 277.1901550292969
z: -0.18166470527648926
visibility: 0.9953867793083191
","x: 281.9179382324219
y: 282.7099304199219
z: -0.07496032118797302
visibility: 0.9855077862739563
","x: 270.14532470703125
y: 280.88775634765625
z: -0.10372422635555267
visibility: 0.9902178645133972
","x: 278.8135070800781
y: 288.8550720214844
z: -0.15543095767498016
visibility: 0.9964278340339661
","x: 274.24822998046875
y: 288.6629333496094
z: -0.16377860307693481
visibility: 0.997300922870636
","x: 290.70135498046875
y: 314.97271728515625
z: -0.010125933215022087
visibility: 0.9985982775688171
","x: 257.2290344238281
y: 313.3313293457031
z: -0.06268510222434998
visibility: 0.999666690826416
","x: 296.82220458984375
y: 357.8896789550781
z: 0.025704706087708473
visibility: 0.6689864993095398
","x: 256.03875732421875
y: 361.267578125
z: -0.07518192380666733
visibility: 0.971960723400116
","x: 303.50091552734375
y: 386.7142028808594
z: -0.06359374523162842
visibility: 0.6137987971305847
","x: 265.6710510253906
y: 392.6964111328125
z: -0.17193269729614258
visibility: 0.9249054789543152
","x: 305.9245910644531
y: 398.4735107421875
z: -0.08579378575086594
visibility: 0.5370586514472961
","x: 267.92474365234375
y: 405.3924560546875
z: -0.20000560581684113
visibility: 0.8713209629058838
","x: 305.15875244140625
y: 397.0340576171875
z: -0.10873053222894669
visibility: 0.5523111820220947
","x: 270.92437744140625
y: 403.1222229003906
z: -0.21314558386802673
visibility: 0.8726291060447693
","x: 303.6236572265625
y: 392.8153076171875
z: -0.07551650702953339
visibility: 0.5074227452278137
","x: 271.0334777832031
y: 398.9000244140625
z: -0.1791999638080597
visibility: 0.8409450650215149
","x: 292.09906005859375
y: 406.0263366699219
z: 0.013966749422252178
visibility: 0.9992871880531311
","x: 272.5260009765625
y: 407.18927001953125
z: -0.013860167935490608
visibility: 0.9994317889213562
","x: 301.8209228515625
y: 442.99200439453125
z: -0.21588090062141418
visibility: 0.9707689881324768
","x: 271.70794677734375
y: 454.1837158203125
z: -0.22104939818382263
visibility: 0.9822080731391907
","x: 292.92669677734375
y: 501.819091796875
z: -0.05005744844675064
visibility: 0.9301197528839111
","x: 271.26611328125
y: 506.26483154296875
z: -0.06414343416690826
visibility: 0.9714866876602173
","x: 288.2113952636719
y: 509.94891357421875
z: -0.03838716819882393
visibility: 0.8196722865104675
","x: 273.0821838378906
y: 514.5404052734375
z: -0.05389360338449478
visibility: 0.8150278925895691
","x: 301.23907470703125
y: 522.359130859375
z: -0.13349902629852295
visibility: 0.932806134223938
","x: 268.58251953125
y: 526.2200927734375
z: -0.16095446050167084
visibility: 0.967220664024353
",,,,,,,,,,,,,,,,,,,,,,,,,,,,,,,,,,,,,,,,,,
1,"x: 297.38140869140625
y: 283.34722900390625
z: -0.09554686397314072
visibility: 0.9983013868331909
","x: 297.6031799316406
y: 278.23040771484375
z: -0.08063610643148422
visibility: 0.9947106838226318
","x: 297.8812255859375
y: 278.5419006347656
z: -0.08067461848258972
visibility: 0.9937697052955627
","x: 298.15936279296875
y: 278.8811340332031
z: -0.0807081088423729
visibility: 0.9941162467002869
","x: 295.86712646484375
y: 277.4078369140625
z: -0.10566748678684235
visibility: 0.9946846961975098
","x: 294.8265686035156
y: 277.23992919921875
z: -0.10571743547916412
visibility: 0.9946573972702026
","x: 293.7029113769531
y: 277.13568115234375
z: -0.10576625168323517
visibility: 0.9954936504364014
","x: 295.50634765625
y: 281.31707763671875
z: -0.005845795385539532
visibility: 0.9833366870880127
","x: 289.484375
y: 279.56866455078125
z: -0.11208494007587433
visibility: 0.9908690452575684
","x: 296.5989990234375
y: 289.2620849609375
z: -0.06542947888374329
visibility: 0.9942521452903748
","x: 294.38031005859375
y: 288.8148193359375
z: -0.0982329398393631
visibility: 0.9960759878158569
","x: 290.8215637207031
y: 311.29815673828125
z: 0.08615625649690628
visibility: 0.9974625706672668
","x: 279.7381591796875
y: 308.2607727050781
z: -0.15293724834918976
visibility: 0.9996538758277893
","x: 287.41375732421875
y: 353.5317687988281
z: 0.1334225982427597
visibility: 0.6042130589485168
","x: 288.96331787109375
y: 354.93658447265625
z: -0.15753895044326782
visibility: 0.9727590084075928
","x: 284.5247802734375
y: 374.8184509277344
z: 0.09900860488414764
visibility: 0.5544882416725159
","x: 305.7453308105469
y: 369.982421875
z: -0.12467217445373535
visibility: 0.9218476414680481
","x: 283.20367431640625
y: 382.716552734375
z: 0.09586763381958008
visibility: 0.48608484864234924
","x: 308.5294189453125
y: 373.2291259765625
z: -0.14069509506225586
visibility: 0.869627833366394
","x: 284.98358154296875
y: 378.0209655761719
z: 0.07958853244781494
visibility: 0.5001028776168823
","x: 308.7721862792969
y: 370.2123718261719
z: -0.13805867731571198
visibility: 0.8710981607437134
","x: 285.36724853515625
y: 375.0028991699219
z: 0.08917683362960815
visibility: 0.4596342146396637
","x: 306.9477233886719
y: 368.6636962890625
z: -0.12124653160572052
visibility: 0.8341339230537415
","x: 292.33428955078125
y: 399.2554931640625
z: 0.06470559537410736
visibility: 0.9992561340332031
","x: 278.8860778808594
y: 396.158447265625
z: -0.06468917429447174
visibility: 0.9993832111358643
","x: 295.6588134765625
y: 451.0797424316406
z: 0.0024199120234698057
visibility: 0.9648851752281189
","x: 270.70068359375
y: 450.2670593261719
z: -0.09039241820573807
visibility: 0.9828285574913025
","x: 288.7549743652344
y: 511.5321044921875
z: 0.06764455139636993
visibility: 0.9336962103843689
","x: 247.5966796875
y: 500.57489013671875
z: 0.016274986788630486
visibility: 0.973617672920227
","x: 283.54815673828125
y: 522.79248046875
z: 0.06974472850561142
visibility: 0.8314335942268372
","x: 244.0779571533203
y: 502.9597473144531
z: 0.024069765582680702
visibility: 0.826468825340271
","x: 301.4241638183594
y: 525.8680419921875
z: 0.012676127254962921
visibility: 0.936430037021637
","x: 244.963134765625
y: 524.6683349609375
z: -0.03793395310640335
visibility: 0.9695392847061157
",,,,,,,,,,,,,,,,,,,,,,,,,,,,,,,,,,,,,,,,,,
2,"x: 297.4542541503906
y: 293.3353271484375
z: -0.11429568380117416
visibility: 0.9984572529792786
","x: 297.2623596191406
y: 288.4561462402344
z: -0.09617435187101364
visibility: 0.9952191710472107
","x: 297.4634094238281
y: 288.62890625
z: -0.0962018296122551
visibility: 0.9943639039993286
","x: 297.644287109375
y: 288.8152770996094
z: -0.09623290598392487
visibility: 0.9946714639663696
","x: 295.71490478515625
y: 287.86688232421875
z: -0.1199355348944664
visibility: 0.9951997399330139
","x: 294.8175354003906
y: 287.6578063964844
z: -0.11996414512395859
visibility: 0.9951751828193665
","x: 293.8677062988281
y: 287.4458923339844
z: -0.1199837177991867
visibility: 0.9959287643432617
","x: 294.79351806640625
y: 290.4261169433594
z: -0.007880841381847858
visibility: 0.9848784804344177
","x: 289.7496337890625
y: 288.9275817871094
z: -0.11365541070699692
visibility: 0.991766631603241
","x: 296.6005554199219
y: 298.6227111816406
z: -0.07817032188177109
visibility: 0.9945210814476013
","x: 294.5981140136719
y: 298.0174560546875
z: -0.1089843139052391
visibility: 0.9962904453277588
","x: 286.66162109375
y: 315.7666320800781
z: 0.10556118190288544
visibility: 0.9974402785301208
","x: 284.2821960449219
y: 314.55987548828125
z: -0.16204431653022766
visibility: 0.9996768236160278
","x: 278.2100830078125
y: 366.41766357421875
z: 0.1490667164325714
visibility: 0.5456198453903198
","x: 289.4571838378906
y: 362.67095947265625
z: -0.17472681403160095
visibility: 0.9747424125671387
","x: 281.1504821777344
y: 396.9844970703125
z: 0.11755196005105972
visibility: 0.501500129699707
","x: 303.96392822265625
y: 384.1627197265625
z: -0.13154993951320648
visibility: 0.9247718453407288
","x: 282.6523742675781
y: 406.3609313964844
z: 0.11957912147045135
visibility: 0.4404606223106384
","x: 306.12884521484375
y: 381.440673828125
z: -0.14761771261692047
visibility: 0.8741109371185303
","x: 284.5650634765625
y: 404.16180419921875
z: 0.10214489698410034
visibility: 0.4533170461654663
","x: 306.8251953125
y: 374.283447265625
z: -0.14390990138053894
visibility: 0.8757163882255554
","x: 284.11798095703125
y: 401.0270690917969
z: 0.107415571808815
visibility: 0.41684165596961975
","x: 306.0555725097656
y: 377.0997314453125
z: -0.12772151827812195
visibility: 0.8361896276473999
","x: 286.6285705566406
y: 406.97271728515625
z: 0.07324443757534027
visibility: 0.9992648363113403
","x: 278.46533203125
y: 402.8238525390625
z: -0.07328185439109802
visibility: 0.9993644952774048
","x: 295.46337890625
y: 455.4703063964844
z: 0.0093009565025568
visibility: 0.9566082954406738
","x: 269.4352722167969
y: 455.23065185546875
z: -0.06618752330541611
visibility: 0.9833628535270691
","x: 288.5483093261719
y: 514.2901000976562
z: 0.0399123951792717
visibility: 0.9350670576095581
","x: 245.73606872558594
y: 502.7551574707031
z: 0.0012921113520860672
visibility: 0.9749993085861206
","x: 282.0699157714844
y: 525.9373779296875
z: 0.03945223614573479
visibility: 0.8395828008651733
","x: 241.33352661132812
y: 508.53662109375
z: 0.005425647832453251
visibility: 0.8346790075302124
","x: 301.4415283203125
y: 526.686279296875
z: -0.007868142798542976
visibility: 0.9391772150993347
","x: 242.64987182617188
y: 524.7730102539062
z: -0.04597872868180275
visibility: 0.971042811870575
",,,,,,,,,,,,,,,,,,,,,,,,,,,,,,,,,,,,,,,,,,
3,"x: 292.9453430175781
y: 291.7416687011719
z: -0.12345626205205917
visibility: 0.9985976815223694
","x: 293.4530029296875
y: 286.8468017578125
z: -0.1187644973397255
visibility: 0.9956719279289246
","x: 294.1228942871094
y: 287.10498046875
z: -0.11873973906040192
visibility: 0.9948940277099609
","x: 294.75225830078125
y: 287.37249755859375
z: -0.11870576441287994
visibility: 0.9951739311218262
","x: 290.7225646972656
y: 286.18731689453125
z: -0.1233782023191452
visibility: 0.99565589427948
","x: 289.5370788574219
y: 285.997802734375
z: -0.12310924381017685
visibility: 0.9956308007240295
","x: 288.2698974609375
y: 285.8243103027344
z: -0.1229841485619545
visibility: 0.9963022470474243
","x: 293.2110595703125
y: 289.99237060546875
z: -0.03178344666957855
visibility: 0.9862911701202393
","x: 284.6362609863281
y: 288.2108459472656
z: -0.11303941905498505
visibility: 0.9925405979156494
","x: 293.2843322753906
y: 297.71746826171875
z: -0.09894256293773651
visibility: 0.9949826002120972
","x: 289.9796142578125
y: 297.2887878417969
z: -0.1185901015996933
visibility: 0.9965744018554688
","x: 292.31787109375
y: 321.5771179199219
z: 0.06579294800758362
visibility: 0.9976375102996826
","x: 277.12042236328125
y: 316.782470703125
z: -0.13658872246742249
visibility: 0.9996161460876465
","x: 294.3125
y: 365.07073974609375
z: 0.12506721913814545
visibility: 0.5257450938224792
","x: 279.2876281738281
y: 362.1499938964844
z: -0.1795874536037445
visibility: 0.9728444218635559
","x: 306.4109191894531
y: 384.28668212890625
z: 0.08911269158124924
visibility: 0.5229409337043762
","x: 290.35333251953125
y: 393.46490478515625
z: -0.21589672565460205
visibility: 0.922500491142273
","x: 310.6655578613281
y: 392.5777893066406
z: 0.08337587118148804
visibility: 0.46332764625549316
","x: 292.5041198730469
y: 395.6962585449219
z: -0.24087361991405487
visibility: 0.8713414072990417
","x: 311.50091552734375
y: 393.1890563964844
z: 0.057996831834316254
visibility: 0.47818148136138916
","x: 293.8503112792969
y: 397.74285888671875
z: -0.24770621955394745
visibility: 0.8725559115409851
","x: 309.3508605957031
y: 389.8592529296875
z: 0.07676230370998383
visibility: 0.4411281943321228
","x: 293.4806823730469
y: 395.90386962890625
z: -0.21883690357208252
visibility: 0.8288965821266174
","x: 287.8157653808594
y: 408.1112365722656
z: 0.06004014611244202
visibility: 0.9993276596069336
","x: 275.9776306152344
y: 403.3446960449219
z: -0.05997855216264725
visibility: 0.9993964433670044
","x: 296.5548095703125
y: 458.1947021484375
z: -0.03831278160214424
visibility: 0.9585420489311218
","x: 265.01654052734375
y: 456.1773681640625
z: -0.03689219430088997
visibility: 0.9843652248382568
","x: 287.8895263671875
y: 515.738525390625
z: 0.019740888848900795
visibility: 0.9401658773422241
","x: 245.03648376464844
y: 504.404541015625
z: 0.07333943992853165
visibility: 0.977040708065033
","x: 282.0953674316406
y: 526.6826171875
z: 0.02129288576543331
visibility: 0.8527852892875671
","x: 241.66845703125
y: 510.6062316894531
z: 0.07965958118438721
visibility: 0.8430877327919006
","x: 301.4854736328125
y: 527.34716796875
z: -0.04666929692029953
visibility: 0.9438264966011047
","x: 240.16696166992188
y: 524.8245849609375
z: 0.008186375722289085
visibility: 0.9730287790298462
",,,,,,,,,,,,,,,,,,,,,,,,,,,,,,,,,,,,,,,,,,
4,"x: 290.3655700683594
y: 291.7297668457031
z: -0.18103477358818054
visibility: 0.9987371563911438
","x: 290.9249267578125
y: 286.51495361328125
z: -0.1658344566822052
visibility: 0.9961032271385193
","x: 291.6269836425781
y: 286.6978759765625
z: -0.1658059060573578
visibility: 0.9954013824462891
","x: 292.32720947265625
y: 286.9075927734375
z: -0.16577968001365662
visibility: 0.9956525564193726
","x: 288.248046875
y: 286.19854736328125
z: -0.17811277508735657
visibility: 0.9960897564888
","x: 287.0701904296875
y: 286.1550598144531
z: -0.17808644473552704
visibility: 0.9960671067237854
","x: 285.8335266113281
y: 286.1797790527344
z: -0.1781150996685028
visibility: 0.9966716170310974
","x: 291.543212890625
y: 289.7293395996094
z: -0.07041703909635544
visibility: 0.9876495003700256
","x: 282.56591796875
y: 289.0289001464844
z: -0.1335097700357437
visibility: 0.9932861924171448
","x: 291.1557312011719
y: 297.64471435546875
z: -0.1456754207611084
visibility: 0.9954793453216553
","x: 287.8456726074219
y: 297.80560302734375
z: -0.16322572529315948
visibility: 0.996915876865387
","x: 292.084716796875
y: 321.3894958496094
z: 0.05690506100654602
visibility: 0.9978034496307373
","x: 276.130615234375
y: 320.9109802246094
z: -0.1338779330253601
visibility: 0.9996508955955505
","x: 303.1575927734375
y: 343.982421875
z: 0.09699892997741699
visibility: 0.49945271015167236
","x: 277.71343994140625
y: 365.3505859375
z: -0.148945152759552
visibility: 0.9706629514694214
","x: 305.193115234375
y: 337.15948486328125
z: 0.08079034835100174
visibility: 0.5119820237159729
","x: 270.334716796875
y: 408.147216796875
z: -0.1608162373304367
visibility: 0.9190786480903625
","x: 306.4858703613281
y: 336.1094665527344
z: 0.07798020541667938
visibility: 0.4490109980106354
","x: 267.46142578125
y: 419.3865661621094
z: -0.1712738573551178
visibility: 0.8664563298225403
","x: 306.75146484375
y: 334.64422607421875
z: 0.07126801460981369
visibility: 0.46210241317749023
","x: 270.0478820800781
y: 418.6509704589844
z: -0.190861314535141
visibility: 0.8673548102378845
","x: 305.26287841796875
y: 335.3460998535156
z: 0.07654999196529388
visibility: 0.42671042680740356
","x: 271.5893249511719
y: 415.0753479003906
z: -0.16646574437618256
visibility: 0.825206458568573
","x: 284.8566589355469
y: 409.9726867675781
z: 0.0552142933011055
visibility: 0.9993626475334167
","x: 280.06182861328125
y: 409.451904296875
z: -0.05525701120495796
visibility: 0.9994293451309204
","x: 292.867431640625
y: 459.7904052734375
z: 0.10951945930719376
visibility: 0.9452285766601562
","x: 265.1134033203125
y: 461.8931579589844
z: 0.013181464746594429
visibility: 0.9831006526947021
","x: 287.412841796875
y: 513.9520874023438
z: 0.19110141694545746
visibility: 0.9422293305397034
","x: 246.00271606445312
y: 506.197509765625
z: 0.13490942120552063
visibility: 0.9777819514274597
","x: 281.90167236328125
y: 524.9534912109375
z: 0.19510675966739655
visibility: 0.8629116415977478
","x: 245.1265869140625
y: 512.1070556640625
z: 0.14427471160888672
visibility: 0.8522132039070129
","x: 300.9900207519531
y: 526.5941772460938
z: 0.14644035696983337
visibility: 0.9462120532989502
","x: 241.2356719970703
y: 525.9008178710938
z: 0.08909758925437927
visibility: 0.973190188407898
",,,,,,,,,,,,,,,,,,,,,,,,,,,,,,,,,,,,,,,,,,
5,"x: 286.3142395019531
y: 290.798095703125
z: -0.20146450400352478
visibility: 0.9988613128662109
","x: 288.5035095214844
y: 285.7712097167969
z: -0.1863783597946167
visibility: 0.9964855313301086
","x: 289.6851501464844
y: 286.0777893066406
z: -0.18638889491558075
visibility: 0.9958534240722656
","x: 290.7967529296875
y: 286.4268798828125
z: -0.1864023208618164
visibility: 0.9960761666297913
","x: 284.86627197265625
y: 285.27398681640625
z: -0.19143229722976685
visibility: 0.9964748024940491
","x: 283.6564636230469
y: 285.20062255859375
z: -0.19144150614738464
visibility: 0.9964547157287598
","x: 282.4261779785156
y: 285.18206787109375
z: -0.19148708879947662
visibility: 0.9969977736473083
","x: 290.9770812988281
y: 289.7701416015625
z: -0.0941225066781044
visibility: 0.9888516068458557
","x: 280.38922119140625
y: 288.12762451171875
z: -0.12500415742397308
visibility: 0.9939537048339844
","x: 288.19384765625
y: 296.7755126953125
z: -0.1670951545238495
visibility: 0.9959253072738647
","x: 283.22760009765625
y: 296.8558044433594
z: -0.17451784014701843
visibility: 0.9972220659255981
","x: 293.8106384277344
y: 322.42547607421875
z: -0.02574077621102333
visibility: 0.998008131980896
","x: 268.6532287597656
y: 320.4005126953125
z: -0.07410489767789841
visibility: 0.9996842741966248
","x: 301.70660400390625
y: 348.69744873046875
z: -0.09517227113246918
visibility: 0.5441994071006775
","x: 257.8005676269531
y: 364.86199951171875
z: -0.061197925359010696
visibility: 0.9720694422721863
","x: 304.3709411621094
y: 324.1639709472656
z: -0.2597864270210266
visibility: 0.5563054084777832
","x: 253.77914428710938
y: 403.6888122558594
z: -0.10671800374984741
visibility: 0.9222434759140015
","x: 305.0809326171875
y: 315.67822265625
z: -0.29212772846221924
visibility: 0.49425479769706726
","x: 253.445068359375
y: 415.788818359375
z: -0.11826390027999878
visibility: 0.8691683411598206
","x: 306.4675598144531
y: 309.63031005859375
z: -0.2933379113674164
visibility: 0.5058319568634033
","x: 256.09149169921875
y: 415.3936767578125
z: -0.13917972147464752
visibility: 0.869953989982605
","x: 305.0809020996094
y: 313.7451171875
z: -0.2653786242008209
visibility: 0.4705650806427002
","x: 257.24072265625
y: 412.0504150390625
z: -0.11466819047927856
visibility: 0.8291168212890625
","x: 285.41864013671875
y: 409.6527099609375
z: 0.0233833696693182
visibility: 0.9994163513183594
","x: 272.84991455078125
y: 409.2663269042969
z: -0.023440446704626083
visibility: 0.9994800686836243
","x: 294.29541015625
y: 460.658203125
z: -0.01656443439424038
visibility: 0.9500406384468079
","x: 260.82672119140625
y: 460.7615661621094
z: -0.03993286192417145
visibility: 0.9845829010009766
","x: 287.58837890625
y: 514.1126708984375
z: 0.11413999646902084
visibility: 0.9472408890724182
","x: 247.00132751464844
y: 506.7471923828125
z: 0.08639191091060638
visibility: 0.9797141551971436
","x: 282.3766174316406
y: 524.7564086914062
z: 0.12238959968090057
visibility: 0.8734747767448425
","x: 246.90435791015625
y: 512.1748657226562
z: 0.09341996908187866
visibility: 0.8607166409492493
","x: 300.6114501953125
y: 526.6307373046875
z: 0.04217861592769623
visibility: 0.950445294380188
","x: 238.16067504882812
y: 525.9439697265625
z: 0.004122257232666016
visibility: 0.9752211570739746
",,,,,,,,,,,,,,,,,,,,,,,,,,,,,,,,,,,,,,,,,,
6,"x: 281.702392578125
y: 291.126953125
z: -0.21031275391578674
visibility: 0.9989744424819946
","x: 283.86676025390625
y: 286.3388671875
z: -0.19552955031394958
visibility: 0.9968344569206238
","x: 285.1871032714844
y: 286.6059265136719
z: -0.19553788006305695
visibility: 0.9962654113769531
","x: 286.4327697753906
y: 286.8897705078125
z: -0.19556286931037903
visibility: 0.9964649081230164
","x: 280.2106018066406
y: 285.7787780761719
z: -0.1974855661392212
visibility: 0.9968245625495911
","x: 279.1283874511719
y: 285.624755859375
z: -0.19748757779598236
visibility: 0.9968060255050659
","x: 278.00787353515625
y: 285.51629638671875
z: -0.19752249121665955
visibility: 0.9972935914993286
","x: 288.02362060546875
y: 289.9197692871094
z: -0.10508713871240616
visibility: 0.9899565577507019
","x: 275.9355773925781
y: 288.4507141113281
z: -0.12190638482570648
visibility: 0.9945548176765442
","x: 284.0865173339844
y: 296.67425537109375
z: -0.17658351361751556
visibility: 0.9963298439979553
","x: 279.294189453125
y: 296.59783935546875
z: -0.17987766861915588
visibility: 0.997498095035553
","x: 293.3262634277344
y: 323.7287902832031
z: -0.04047856479883194
visibility: 0.9982003569602966
","x: 263.2242431640625
y: 319.85162353515625
z: -0.06206020712852478
visibility: 0.9997126460075378
","x: 299.75701904296875
y: 362.3690185546875
z: -0.09563440829515457
visibility: 0.5869086980819702
","x: 252.7479248046875
y: 362.3687438964844
z: -0.053779833018779755
visibility: 0.9724698662757874
","x: 304.6074523925781
y: 331.80487060546875
z: -0.2478046715259552
visibility: 0.5997769832611084
","x: 251.17727661132812
y: 403.59552001953125
z: -0.10684547573328018
visibility: 0.9255445003509521
","x: 306.18389892578125
y: 323.3914489746094
z: -0.27760738134384155
visibility: 0.5425952672958374
","x: 250.80465698242188
y: 413.05780029296875
z: -0.11779861152172089
visibility: 0.8725950717926025
","x: 306.4741516113281
y: 317.5528564453125
z: -0.28362223505973816
visibility: 0.5531200170516968
","x: 252.53482055664062
y: 411.67706298828125
z: -0.13791228830814362
visibility: 0.8735124468803406
","x: 305.21942138671875
y: 320.95599365234375
z: -0.25455722212791443
visibility: 0.5202222466468811
","x: 253.51927185058594
y: 408.3407287597656
z: -0.11505893617868423
visibility: 0.8349018096923828
","x: 286.2755432128906
y: 409.37762451171875
z: 0.013387931510806084
visibility: 0.9994655847549438
","x: 269.0662841796875
y: 408.7397766113281
z: -0.013401907868683338
visibility: 0.9995232820510864
","x: 295.01837158203125
y: 459.9070739746094
z: -0.05622208118438721
visibility: 0.95457923412323
","x: 257.39404296875
y: 459.7481994628906
z: -0.0347985178232193
visibility: 0.9858518838882446
","x: 287.91387939453125
y: 513.6634521484375
z: 0.062394194304943085
visibility: 0.9518717527389526
","x: 247.13101196289062
y: 507.9423522949219
z: 0.1007077693939209
visibility: 0.9814228415489197
","x: 282.734130859375
y: 523.649169921875
z: 0.06800855696201324
visibility: 0.8836889863014221
","x: 248.38711547851562
y: 514.8040161132812
z: 0.10837779939174652
visibility: 0.8692153096199036
","x: 300.51611328125
y: 526.8744506835938
z: -0.025583824142813683
visibility: 0.9543092846870422
","x: 237.31509399414062
y: 525.9400024414062
z: 0.02360006794333458
visibility: 0.9768944382667542
",,,,,,,,,,,,,,,,,,,,,,,,,,,,,,,,,,,,,,,,,,
7,"x: 280.94390869140625
y: 290.68408203125
z: -0.2267666757106781
visibility: 0.9990742802619934
","x: 283.20013427734375
y: 286.0445251464844
z: -0.21290802955627441
visibility: 0.9971408843994141
","x: 284.4299621582031
y: 286.39984130859375
z: -0.21291863918304443
visibility: 0.9966287016868591
","x: 285.63165283203125
y: 286.7990417480469
z: -0.21292941272258759
visibility: 0.9968050718307495
","x: 279.7445373535156
y: 285.33477783203125
z: -0.2145988941192627
visibility: 0.9971337914466858
","x: 278.6684875488281
y: 285.1693115234375
z: -0.21461760997772217
visibility: 0.9971182942390442
","x: 277.5567626953125
y: 285.0541076660156
z: -0.21463553607463837
visibility: 0.9975563287734985
","x: 287.4788513183594
y: 290.31939697265625
z: -0.12282909452915192
visibility: 0.9909314513206482
","x: 275.67425537109375
y: 288.1378479003906
z: -0.13158121705055237
visibility: 0.9950896501541138
","x: 283.14874267578125
y: 296.3705749511719
z: -0.193087637424469
visibility: 0.9966913461685181
","x: 278.28363037109375
y: 296.2635192871094
z: -0.1957983821630478
visibility: 0.997745156288147
","x: 294.25018310546875
y: 323.0072326660156
z: -0.06901815533638
visibility: 0.9983698725700378
","x: 264.03558349609375
y: 320.54443359375
z: -0.06960074603557587
visibility: 0.9997374415397644
","x: 306.0555419921875
y: 353.1797790527344
z: -0.15648627281188965
visibility: 0.6270437836647034
","x: 256.528076171875
y: 362.14959716796875
z: -0.07332216203212738
visibility: 0.9699628949165344
","x: 304.6960144042969
y: 323.7095642089844
z: -0.3246564269065857
visibility: 0.6364220380783081
","x: 253.58218383789062
y: 392.1325378417969
z: -0.16790315508842468
visibility: 0.9212350249290466
","x: 305.02618408203125
y: 314.7606506347656
z: -0.3612229824066162
visibility: 0.5792236328125
","x: 252.3375244140625
y: 403.2232666015625
z: -0.19247877597808838
visibility: 0.8663310408592224
","x: 302.54351806640625
y: 311.61004638671875
z: -0.35993462800979614
visibility: 0.5882394313812256
","x: 254.98345947265625
y: 403.4285888671875
z: -0.21266953647136688
visibility: 0.8678388595581055
","x: 302.5577392578125
y: 315.0264892578125
z: -0.3289206624031067
visibility: 0.5548578500747681
","x: 256.9056396484375
y: 400.40283203125
z: -0.17830726504325867
visibility: 0.8289021253585815
","x: 288.1452331542969
y: 408.39007568359375
z: 0.0012927309144288301
visibility: 0.9995046854019165
","x: 270.1425476074219
y: 406.7968444824219
z: -0.0013404632918536663
visibility: 0.9995659589767456
","x: 295.0789489746094
y: 458.4566955566406
z: 0.05029928684234619
visibility: 0.9587035775184631
","x: 259.2156982421875
y: 456.7142333984375
z: -0.025103937834501266
visibility: 0.987107515335083
","x: 291.9746398925781
y: 511.3663330078125
z: 0.22245557606220245
visibility: 0.9561437964439392
","x: 246.7088165283203
y: 508.00042724609375
z: 0.09805610775947571
visibility: 0.9831229448318481
","x: 288.6068115234375
y: 518.5390625
z: 0.23420372605323792
visibility: 0.8870611786842346
","x: 247.93817138671875
y: 515.1380004882812
z: 0.1044655591249466
visibility: 0.8775392770767212
","x: 297.3648376464844
y: 526.7105712890625
z: 0.14343401789665222
visibility: 0.9580239653587341
","x: 237.1230010986328
y: 525.9423828125
z: 0.00637773284688592
visibility: 0.9788764119148254
",,,,,,,,,,,,,,,,,,,,,,,,,,,,,,,,,,,,,,,,,,
8,"x: 281.6413879394531
y: 290.4604797363281
z: -0.21807904541492462
visibility: 0.9991631507873535
","x: 284.0871887207031
y: 285.81451416015625
z: -0.20211556553840637
visibility: 0.9974159002304077
","x: 285.3100280761719
y: 286.1340637207031
z: -0.20213837921619415
visibility: 0.9969543814659119
","x: 286.4841003417969
y: 286.51171875
z: -0.20216457545757294
visibility: 0.9971127510070801
","x: 280.54669189453125
y: 285.3397216796875
z: -0.2030065804719925
visibility: 0.9974104166030884
","x: 279.4256286621094
y: 285.3370361328125
z: -0.203043133020401
visibility: 0.9973973631858826
","x: 278.2722473144531
y: 285.38018798828125
z: -0.20306387543678284
visibility: 0.99779212474823
","x: 288.5780334472656
y: 290.00421142578125
z: -0.11057516187429428
visibility: 0.9918216466903687
","x: 276.61175537109375
y: 289.0899353027344
z: -0.11472771316766739
visibility: 0.995568573474884
","x: 284.42169189453125
y: 296.1614074707031
z: -0.18429192900657654
visibility: 0.9970186948776245
","x: 279.71563720703125
y: 296.1372985839844
z: -0.1853281855583191
visibility: 0.9979672431945801
","x: 299.0036926269531
y: 321.44384765625
z: -0.07009650766849518
visibility: 0.9985261559486389
","x: 267.2888488769531
y: 324.6025085449219
z: -0.04967343807220459
visibility: 0.999755322933197
","x: 316.0299377441406
y: 344.65167236328125
z: -0.17953774333000183
visibility: 0.6640004515647888
","x: 258.5995788574219
y: 365.3640441894531
z: -0.07510192692279816
visibility: 0.967697024345398
","x: 304.2314453125
y: 331.21484375
z: -0.34244707226753235
visibility: 0.6709873080253601
","x: 257.59228515625
y: 391.34747314453125
z: -0.1957668960094452
visibility: 0.9173391461372375
","x: 299.4247741699219
y: 330.89410400390625
z: -0.38049012422561646
visibility: 0.6156171560287476
","x: 256.2857971191406
y: 401.90386962890625
z: -0.22375544905662537
visibility: 0.8614721894264221
","x: 296.4836730957031
y: 326.7486267089844
z: -0.374538391828537
visibility: 0.6233044266700745
","x: 258.0440979003906
y: 401.2408447265625
z: -0.24227428436279297
visibility: 0.8630760908126831
","x: 297.53326416015625
y: 327.54986572265625
z: -0.34382128715515137
visibility: 0.5894792079925537
","x: 259.0230407714844
y: 397.2416687011719
z: -0.20604205131530762
visibility: 0.8227230310440063
","x: 292.26507568359375
y: 407.78118896484375
z: -0.003907947335392237
visibility: 0.9995425343513489
","x: 271.3154602050781
y: 405.1309814453125
z: 0.00390737084671855
visibility: 0.9996023774147034
","x: 295.3218994140625
y: 455.42828369140625
z: -0.13840898871421814
visibility: 0.962310254573822
","x: 261.9521179199219
y: 448.5373229980469
z: -0.18422363698482513
visibility: 0.9880910515785217
","x: 292.4150695800781
y: 509.896484375
z: 0.00911785289645195
visibility: 0.9594623446464539
","x: 252.78384399414062
y: 507.94439697265625
z: -0.07468175888061523
visibility: 0.9844657778739929
","x: 288.9095458984375
y: 516.9476928710938
z: 0.017934996634721756
visibility: 0.8907226920127869
","x: 255.2474822998047
y: 516.0556640625
z: -0.07009361684322357
visibility: 0.8848690390586853
","x: 294.5791015625
y: 525.9683837890625
z: -0.09200157970190048
visibility: 0.9606870412826538
","x: 241.28134155273438
y: 523.31982421875
z: -0.18515178561210632
visibility: 0.9804137945175171
",,,,,,,,,,,,,,,,,,,,,,,,,,,,,,,,,,,,,,,,,,
9,"x: 281.982177734375
y: 293.052734375
z: -0.20789167284965515
visibility: 0.9992051124572754
","x: 284.205810546875
y: 287.8567199707031
z: -0.19107726216316223
visibility: 0.9974729418754578
","x: 285.3759765625
y: 287.9566650390625
z: -0.19109424948692322
visibility: 0.9970477223396301
","x: 286.50927734375
y: 288.1209716796875
z: -0.1911185085773468
visibility: 0.9971780180931091
","x: 280.82525634765625
y: 287.810302734375
z: -0.19660809636116028
visibility: 0.9974712133407593
","x: 279.7056579589844
y: 287.84381103515625
z: -0.19669421017169952
visibility: 0.9974691271781921
","x: 278.5233154296875
y: 287.94989013671875
z: -0.1967429518699646
visibility: 0.9978418946266174
","x: 288.57928466796875
y: 291.0674743652344
z: -0.10194820165634155
visibility: 0.992164671421051
","x: 276.9996032714844
y: 291.36822509765625
z: -0.096947580575943
visibility: 0.9957021474838257
","x: 284.5367736816406
y: 298.09686279296875
z: -0.17268842458724976
visibility: 0.9972795248031616
","x: 279.9727478027344
y: 298.26287841796875
z: -0.17721089720726013
visibility: 0.9981278777122498
","x: 300.2948913574219
y: 321.3557434082031
z: -0.061284758150577545
visibility: 0.9986681938171387
","x: 268.18194580078125
y: 326.6894836425781
z: -0.03969187289476395
visibility: 0.999764621257782
","x: 312.8385314941406
y: 346.9781799316406
z: -0.10158423334360123
visibility: 0.695523738861084
","x: 261.8642578125
y: 369.4398193359375
z: -0.026202211156487465
visibility: 0.9679306745529175
","x: 302.55291748046875
y: 357.75439453125
z: -0.23463542759418488
visibility: 0.69954913854599
","x: 260.48760986328125
y: 397.2108459472656
z: -0.12192907184362411
visibility: 0.9206854104995728
","x: 298.09271240234375
y: 369.3577575683594
z: -0.2694948613643646
visibility: 0.6456708908081055
","x: 259.7741394042969
y: 411.529052734375
z: -0.1515946388244629
visibility: 0.8674668073654175
","x: 295.31085205078125
y: 365.8648376464844
z: -0.27933555841445923
visibility: 0.6527059078216553
","x: 261.9867858886719
y: 410.7638854980469
z: -0.17351284623146057
visibility: 0.8691173791885376
","x: 295.8704528808594
y: 362.566162109375
z: -0.24112732708454132
visibility: 0.6186757683753967
","x: 262.78216552734375
y: 405.7661437988281
z: -0.13277673721313477
visibility: 0.8307613730430603
","x: 294.57177734375
y: 407.75811767578125
z: -0.0029395525343716145
visibility: 0.9995642304420471
","x: 275.1571044921875
y: 406.1544189453125
z: 0.00295906700193882
visibility: 0.9996232390403748
","x: 297.0719909667969
y: 459.35174560546875
z: -0.10674752295017242
visibility: 0.9640009999275208
","x: 270.4421081542969
y: 454.469482421875
z: -0.1730695515871048
visibility: 0.9885927438735962
","x: 292.5158386230469
y: 509.78143310546875
z: 0.09295760840177536
visibility: 0.9580897688865662
","x: 274.6061096191406
y: 505.685546875
z: 0.034427303820848465
visibility: 0.9823856949806213
","x: 289.2162780761719
y: 514.8111572265625
z: 0.10923665761947632
visibility: 0.8789718151092529
","x: 276.46160888671875
y: 510.94537353515625
z: 0.056109629571437836
visibility: 0.8756461143493652
","x: 295.11590576171875
y: 525.7655639648438
z: 0.02501215599477291
visibility: 0.9572545289993286
","x: 272.64849853515625
y: 520.8873291015625
z: -0.02199671044945717
visibility: 0.9780603647232056
",,,,,,,,,,,,,,,,,,,,,,,,,,,,,,,,,,,,,,,,,,
10,"x: 283.2962341308594
y: 292.4883117675781
z: -0.22437545657157898
visibility: 0.9992759227752686
","x: 285.0796203613281
y: 287.4570617675781
z: -0.21037623286247253
visibility: 0.997687578201294
","x: 286.04644775390625
y: 287.6540832519531
z: -0.21039989590644836
visibility: 0.997300386428833
","x: 287.0119323730469
y: 287.8976745605469
z: -0.21041958034038544
visibility: 0.997418999671936
","x: 282.05865478515625
y: 287.3320617675781
z: -0.21521726250648499
visibility: 0.9976828098297119
","x: 280.90484619140625
y: 287.4945373535156
z: -0.21522705256938934
visibility: 0.9976739883422852
","x: 279.6974792480469
y: 287.8040771484375
z: -0.21525073051452637
visibility: 0.9980024099349976
","x: 288.6047058105469
y: 290.8245544433594
z: -0.12382914870977402
visibility: 0.9928670525550842
","x: 277.347412109375
y: 291.2215576171875
z: -0.14241021871566772
visibility: 0.9960009455680847
","x: 285.2293701171875
y: 297.7174072265625
z: -0.19071230292320251
visibility: 0.9975422024726868
","x: 280.82696533203125
y: 297.8454284667969
z: -0.19679495692253113
visibility: 0.998303234577179
","x: 298.76519775390625
y: 321.19091796875
z: -0.0712331011891365
visibility: 0.9987987875938416
","x: 267.0054626464844
y: 325.14892578125
z: -0.07973606884479523
visibility: 0.9997707605361938
","x: 308.97747802734375
y: 354.7933349609375
z: -0.0537528321146965
visibility: 0.7243441343307495
","x: 263.7759094238281
y: 368.2909851074219
z: -0.0559617280960083
visibility: 0.9654138684272766
","x: 307.47247314453125
y: 390.33154296875
z: -0.1355361044406891
visibility: 0.7266589999198914
","x: 266.7216796875
y: 396.83087158203125
z: -0.12833064794540405
visibility: 0.9208770990371704
","x: 306.5117492675781
y: 403.90631103515625
z: -0.16303488612174988
visibility: 0.6754286885261536
","x: 267.501953125
y: 410.27325439453125
z: -0.15514419972896576
visibility: 0.8695686459541321
","x: 303.9079895019531
y: 402.2507019042969
z: -0.19119811058044434
visibility: 0.6820559501647949
","x: 269.1823425292969
y: 409.86309814453125
z: -0.17760571837425232
visibility: 0.8713982701301575
","x: 303.2234802246094
y: 397.668701171875
z: -0.14772112667560577
visibility: 0.6501437425613403
","x: 269.557373046875
y: 404.08056640625
z: -0.13896708190441132
visibility: 0.8342038989067078
","x: 296.2239685058594
y: 406.60137939453125
z: 1.032953332469333e-05
visibility: 0.9995934367179871
","x: 276.87188720703125
y: 406.3912353515625
z: 3.397566979401745e-05
visibility: 0.9996329545974731
","x: 303.5712585449219
y: 459.1529846191406
z: -0.018269214779138565
visibility: 0.9671155214309692
","x: 275.9686584472656
y: 456.9861145019531
z: 0.045140400528907776
visibility: 0.9885481595993042
","x: 296.72735595703125
y: 504.2359924316406
z: 0.18057957291603088
visibility: 0.9605845212936401
","x: 281.51318359375
y: 504.5340270996094
z: 0.26467329263687134
visibility: 0.9829899668693542
","x: 293.99853515625
y: 508.58990478515625
z: 0.1956843137741089
visibility: 0.8801923394203186
","x: 284.8189392089844
y: 509.70391845703125
z: 0.2816867232322693
visibility: 0.8789238333702087
","x: 297.5436096191406
y: 522.5037231445312
z: 0.11143078655004501
visibility: 0.9596883654594421
","x: 275.63824462890625
y: 521.367431640625
z: 0.20256344974040985
visibility: 0.9787653088569641
",,,,,,,,,,,,,,,,,,,,,,,,,,,,,,,,,,,,,,,,,,
11,"x: 284.0806579589844
y: 292.1298522949219
z: -0.24878565967082977
visibility: 0.9993463158607483
","x: 285.6360168457031
y: 287.1967468261719
z: -0.23586297035217285
visibility: 0.9979117512702942
","x: 286.6173095703125
y: 287.4405517578125
z: -0.2358362376689911
visibility: 0.9975608587265015
","x: 287.5806884765625
y: 287.7295227050781
z: -0.23582229018211365
visibility: 0.997665524482727
","x: 282.419189453125
y: 286.9616394042969
z: -0.2422066479921341
visibility: 0.9979100227355957
","x: 281.1847839355469
y: 287.08392333984375
z: -0.24225112795829773
visibility: 0.9979022741317749
","x: 279.9510498046875
y: 287.3447265625
z: -0.2422875612974167
visibility: 0.9981979131698608
","x: 288.7575378417969
y: 290.75872802734375
z: -0.14524716138839722
visibility: 0.9935580492019653
","x: 277.3851318359375
y: 290.703857421875
z: -0.17482157051563263
visibility: 0.9963937401771545
","x: 285.9903564453125
y: 297.51483154296875
z: -0.21325471997261047
visibility: 0.9977846145629883
","x: 281.4732666015625
y: 297.505859375
z: -0.2220640480518341
visibility: 0.9984710812568665
","x: 297.89447021484375
y: 323.2031555175781
z: -0.0650220513343811
visibility: 0.9989062547683716
","x: 266.36883544921875
y: 324.309814453125
z: -0.13253642618656158
visibility: 0.9997904896736145
","x: 305.58453369140625
y: 364.00775146484375
z: -0.011319367215037346
visibility: 0.738972544670105
","x: 263.7159729003906
y: 368.0746154785156
z: -0.21802222728729248
visibility: 0.9681122303009033
","x: 308.4547424316406
y: 397.2054443359375
z: -0.07395114749670029
visibility: 0.7364522814750671
","x: 273.1822204589844
y: 360.3778381347656
z: -0.3865512013435364
visibility: 0.9281582236289978
","x: 310.22283935546875
y: 408.13775634765625
z: -0.0887383446097374
visibility: 0.68280428647995
","x: 276.9357604980469
y: 359.3587646484375
z: -0.4267387390136719
visibility: 0.8813578486442566
","x: 309.79962158203125
y: 408.07318115234375
z: -0.11389907449483871
visibility: 0.6896318793296814
","x: 277.6397705078125
y: 353.8770751953125
z: -0.4287433624267578
visibility: 0.8829143643379211
","x: 308.2940368652344
y: 404.5928649902344
z: -0.08547278493642807
visibility: 0.6587284803390503
","x: 277.0191650390625
y: 353.4240417480469
z: -0.3907783329486847
visibility: 0.8483351469039917
","x: 296.41455078125
y: 406.374267578125
z: 0.0007628378225490451
visibility: 0.9996311664581299
","x: 277.64349365234375
y: 407.3814697265625
z: -0.0009711182792671025
visibility: 0.9996653199195862
","x: 306.6331787109375
y: 458.6402587890625
z: -0.0019548912532627583
visibility: 0.9702935814857483
","x: 276.6767883300781
y: 461.26751708984375
z: 0.0810590535402298
visibility: 0.9894067645072937
","x: 308.3182678222656
y: 504.93182373046875
z: 0.16427212953567505
visibility: 0.9642511010169983
","x: 281.38372802734375
y: 503.860107421875
z: 0.31309857964515686
visibility: 0.9843100309371948
","x: 305.1875915527344
y: 509.7596740722656
z: 0.17595934867858887
visibility: 0.8895353674888611
","x: 284.2703857421875
y: 508.5392761230469
z: 0.3319125175476074
visibility: 0.8850630521774292
","x: 312.91864013671875
y: 522.6719360351562
z: 0.07828353345394135
visibility: 0.9634175896644592
","x: 276.9562683105469
y: 521.6492309570312
z: 0.24466459453105927
visibility: 0.9803286790847778
",,,,,,,,,,,,,,,,,,,,,,,,,,,,,,,,,,,,,,,,,,
12,"x: 285.58343505859375
y: 291.9189147949219
z: -0.20493344962596893
visibility: 0.9994015097618103
","x: 286.7904357910156
y: 287.14031982421875
z: -0.19113415479660034
visibility: 0.9980921745300293
","x: 287.63458251953125
y: 287.3656311035156
z: -0.19108760356903076
visibility: 0.9977698922157288
","x: 288.44635009765625
y: 287.6329345703125
z: -0.1910470873117447
visibility: 0.9978585839271545
","x: 283.7610778808594
y: 286.92681884765625
z: -0.20002654194831848
visibility: 0.9980970621109009
","x: 282.4396057128906
y: 286.9827575683594
z: -0.20004765689373016
visibility: 0.9980924129486084
","x: 281.0634765625
y: 287.14605712890625
z: -0.20010265707969666
visibility: 0.998357892036438
","x: 288.85845947265625
y: 290.66485595703125
z: -0.09992243349552155
visibility: 0.9941424131393433
","x: 277.6608581542969
y: 290.0329284667969
z: -0.14633280038833618
visibility: 0.9967274069786072
","x: 286.9637756347656
y: 297.3608093261719
z: -0.16895493865013123
visibility: 0.9979959726333618
","x: 282.64520263671875
y: 297.32830810546875
z: -0.18097594380378723
visibility: 0.9986168146133423
","x: 297.4441223144531
y: 323.7097473144531
z: -0.02488229237496853
visibility: 0.9990043044090271
","x: 266.4110107421875
y: 321.01934814453125
z: -0.10694022476673126
visibility: 0.9998010396957397
","x: 304.67291259765625
y: 365.8172607421875
z: 0.0262864138931036
visibility: 0.7548209428787231
","x: 263.6015930175781
y: 359.2281799316406
z: -0.20956067740917206
visibility: 0.9707944393157959
","x: 309.0524597167969
y: 396.64678955078125
z: -0.023845819756388664
visibility: 0.7496786713600159
","x: 278.48748779296875
y: 342.16204833984375
z: -0.3646330237388611
visibility: 0.9348782300949097
","x: 310.78118896484375
y: 408.24151611328125
z: -0.03468959406018257
visibility: 0.694115936756134
","x: 284.05389404296875
y: 339.8283386230469
z: -0.4024016261100769
visibility: 0.8921263813972473
","x: 310.5981140136719
y: 407.891845703125
z: -0.057048749178647995
visibility: 0.7006531953811646
","x: 284.2923889160156
y: 335.8096618652344
z: -0.3979725241661072
visibility: 0.8934168219566345
","x: 309.247314453125
y: 404.2132568359375
z: -0.03376777470111847
visibility: 0.6707081198692322
","x: 282.7533874511719
y: 336.5487060546875
z: -0.36587458848953247
visibility: 0.8613171577453613
","x: 295.8637390136719
y: 405.2436828613281
z: 0.0025012940168380737
visibility: 0.9996656775474548
","x: 277.2852478027344
y: 407.2967834472656
z: -0.002599399769678712
visibility: 0.999694287776947
","x: 305.3044738769531
y: 459.90960693359375
z: -0.012273353524506092
visibility: 0.9731823801994324
","x: 276.7251892089844
y: 462.7427673339844
z: 0.06560879945755005
visibility: 0.9901288747787476
","x: 307.9618225097656
y: 505.39117431640625
z: 0.14955584704875946
visibility: 0.9675539135932922
","x: 280.6678771972656
y: 503.9337463378906
z: 0.2927524745464325
visibility: 0.9854142069816589
","x: 305.2502746582031
y: 511.2083435058594
z: 0.16095712780952454
visibility: 0.896691083908081
","x: 283.63232421875
y: 508.1475830078125
z: 0.3116861879825592
visibility: 0.8895642161369324
","x: 312.8170166015625
y: 522.8541259765625
z: 0.06525315344333649
visibility: 0.9667242169380188
","x: 276.4049987792969
y: 522.6717529296875
z: 0.23022715747356415
visibility: 0.9817394018173218
",,,,,,,,,,,,,,,,,,,,,,,,,,,,,,,,,,,,,,,,,,
13,"x: 285.4676208496094
y: 291.891357421875
z: -0.13326400518417358
visibility: 0.9994399547576904
","x: 286.9321594238281
y: 286.80059814453125
z: -0.11744064092636108
visibility: 0.9982355237007141
","x: 287.95831298828125
y: 287.14349365234375
z: -0.11744747310876846
visibility: 0.9979380369186401
","x: 288.9828186035156
y: 287.5206298828125
z: -0.11747364699840546
visibility: 0.9980238080024719
","x: 283.79052734375
y: 285.9548645019531
z: -0.12192919105291367
visibility: 0.9982190728187561
","x: 282.4786682128906
y: 285.70294189453125
z: -0.12193602323532104
visibility: 0.9982103705406189
","x: 281.1104431152344
y: 285.5852966308594
z: -0.1219915896654129
visibility: 0.9984394907951355
","x: 290.14459228515625
y: 290.6229553222656
z: -0.026965320110321045
visibility: 0.9946539402008057
","x: 277.9183349609375
y: 288.07879638671875
z: -0.04863706976175308
visibility: 0.9969314932823181
","x: 286.95440673828125
y: 297.2409973144531
z: -0.09841866791248322
visibility: 0.998177170753479
","x: 282.5909118652344
y: 297.2520751953125
z: -0.10488666594028473
visibility: 0.99871826171875
","x: 297.1639709472656
y: 324.0240173339844
z: 0.0392734631896019
visibility: 0.9990812540054321
","x: 269.3956604003906
y: 311.6043701171875
z: -0.05280252546072006
visibility: 0.9997895956039429
","x: 304.28143310546875
y: 364.2495422363281
z: 0.06997741013765335
visibility: 0.7480348348617554
","x: 275.2943420410156
y: 340.47369384765625
z: -0.16185420751571655
visibility: 0.9709947109222412
","x: 308.7679443359375
y: 396.4136047363281
z: 0.015560688450932503
visibility: 0.736427366733551
","x: 290.64019775390625
y: 356.9625549316406
z: -0.2233642339706421
visibility: 0.9325593709945679
","x: 310.60345458984375
y: 407.60137939453125
z: 0.004080904182046652
visibility: 0.680135190486908
","x: 293.7064514160156
y: 364.5780944824219
z: -0.25010162591934204
visibility: 0.8895765542984009
","x: 310.0275573730469
y: 407.44183349609375
z: -0.018796291202306747
visibility: 0.6881460547447205
","x: 295.6322937011719
y: 362.35528564453125
z: -0.24244561791419983
visibility: 0.8903523087501526
","x: 308.7218933105469
y: 403.9346618652344
z: 0.005608061794191599
visibility: 0.6592336297035217
","x: 295.04058837890625
y: 360.337646484375
z: -0.22001402080059052
visibility: 0.8549798727035522
","x: 295.28936767578125
y: 400.55804443359375
z: 0.010497144423425198
visibility: 0.9996975660324097
","x: 277.2645263671875
y: 399.87591552734375
z: -0.010358138009905815
visibility: 0.9997179508209229
","x: 298.7382507324219
y: 451.28350830078125
z: -0.18900945782661438
visibility: 0.9738563895225525
","x: 275.6622314453125
y: 459.1134338378906
z: 0.006728466600179672
visibility: 0.9873639345169067
","x: 293.6235046386719
y: 504.92388916015625
z: -0.08331573009490967
visibility: 0.9654171466827393
","x: 278.6185607910156
y: 503.606689453125
z: 0.18185053765773773
visibility: 0.9725938439369202
","x: 290.6519470214844
y: 510.5932312011719
z: -0.07575184106826782
visibility: 0.8942914605140686
","x: 279.3241882324219
y: 508.1717224121094
z: 0.19560495018959045
visibility: 0.8457255363464355
","x: 295.25018310546875
y: 522.7962646484375
z: -0.17391905188560486
visibility: 0.9660990834236145
","x: 278.42510986328125
y: 520.6343383789062
z: 0.11006341874599457
visibility: 0.9687978029251099
",,,,,,,,,,,,,,,,,,,,,,,,,,,,,,,,,,,,,,,,,,
14,"x: 285.5663757324219
y: 291.48431396484375
z: -0.1638406664133072
visibility: 0.9994310736656189
","x: 286.9566345214844
y: 286.431396484375
z: -0.14674429595470428
visibility: 0.9982538223266602
","x: 287.9558410644531
y: 286.6893310546875
z: -0.14677104353904724
visibility: 0.9979603290557861
","x: 288.9610900878906
y: 286.9916076660156
z: -0.1467905193567276
visibility: 0.998039186000824
","x: 283.8830261230469
y: 285.8755798339844
z: -0.15412697196006775
visibility: 0.998214602470398
","x: 282.6034240722656
y: 285.6754150390625
z: -0.15413573384284973
visibility: 0.9982253313064575
","x: 281.26470947265625
y: 285.49847412109375
z: -0.1541859358549118
visibility: 0.9984114766120911
","x: 290.0667419433594
y: 290.3752746582031
z: -0.05062102526426315
visibility: 0.9946271777153015
","x: 278.23876953125
y: 288.0416259765625
z: -0.08437077701091766
visibility: 0.9970240592956543
","x: 287.19805908203125
y: 296.8854064941406
z: -0.12740162014961243
visibility: 0.9982496500015259
","x: 283.0035095214844
y: 297.0561828613281
z: -0.13708294928073883
visibility: 0.9987319111824036
","x: 297.0004577636719
y: 323.863525390625
z: 0.030103255063295364
visibility: 0.9991033673286438
","x: 270.7462158203125
y: 312.92962646484375
z: -0.08654938638210297
visibility: 0.9997748732566833
","x: 303.2925109863281
y: 363.0907897949219
z: 0.05487125366926193
visibility: 0.7270616292953491
","x: 275.186767578125
y: 347.3901672363281
z: -0.13722270727157593
visibility: 0.9694867134094238
","x: 307.9406433105469
y: 393.7790222167969
z: -0.014838908798992634
visibility: 0.7165160179138184
","x: 284.8849182128906
y: 374.5509338378906
z: -0.19088487327098846
visibility: 0.9267836809158325
","x: 309.17474365234375
y: 404.5562744140625
z: -0.030442673712968826
visibility: 0.6595181226730347
","x: 288.77099609375
y: 393.17083740234375
z: -0.2194245308637619
visibility: 0.8812557458877563
","x: 308.4986572265625
y: 405.01025390625
z: -0.0550566203892231
visibility: 0.6687520742416382
","x: 290.7621154785156
y: 393.42718505859375
z: -0.22731967270374298
visibility: 0.8816859722137451
","x: 307.40032958984375
y: 401.5317077636719
z: -0.027263794094324112
visibility: 0.6409991979598999
","x: 290.565673828125
y: 389.53619384765625
z: -0.194845050573349
visibility: 0.8438791632652283
","x: 292.3404541015625
y: 401.2948913574219
z: 0.030350303277373314
visibility: 0.9997024536132812
","x: 276.0822448730469
y: 399.8312072753906
z: -0.03024235926568508
visibility: 0.9997193813323975
","x: 292.8752746582031
y: 458.975830078125
z: 0.005921155214309692
visibility: 0.9737454652786255
","x: 268.1280212402344
y: 457.17340087890625
z: -0.05234505608677864
visibility: 0.9880973100662231
","x: 284.2795104980469
y: 506.45703125
z: 0.14658132195472717
visibility: 0.9664045572280884
","x: 259.06939697265625
y: 500.4055480957031
z: 0.10502076148986816
visibility: 0.9745271801948547
","x: 279.0009460449219
y: 511.1658020019531
z: 0.1553805023431778
visibility: 0.8962023258209229
","x: 258.4032897949219
y: 504.9218444824219
z: 0.11596473306417465
visibility: 0.849348783493042
","x: 290.9705505371094
y: 524.1356201171875
z: 0.07977422326803207
visibility: 0.9664514064788818
","x: 255.36231994628906
y: 520.6873779296875
z: 0.030306290835142136
visibility: 0.9707489609718323
",,,,,,,,,,,,,,,,,,,,,,,,,,,,,,,,,,,,,,,,,,
15,"x: 285.5252380371094
y: 291.36602783203125
z: -0.1706717312335968
visibility: 0.9994584321975708
","x: 286.9372863769531
y: 286.37762451171875
z: -0.15393739938735962
visibility: 0.998358964920044
","x: 287.8709716796875
y: 286.6422119140625
z: -0.1539647877216339
visibility: 0.9980860948562622
","x: 288.8135681152344
y: 286.9452819824219
z: -0.15398229658603668
visibility: 0.9981585741043091
","x: 283.8399353027344
y: 285.85662841796875
z: -0.16330376267433167
visibility: 0.9983212351799011
","x: 282.59051513671875
y: 285.725341796875
z: -0.16331712901592255
visibility: 0.9983425736427307
","x: 281.30712890625
y: 285.6514892578125
z: -0.16336354613304138
visibility: 0.9985020756721497
","x: 289.8074035644531
y: 290.3980407714844
z: -0.05844460800290108
visibility: 0.9948999285697937
","x: 278.48321533203125
y: 288.73187255859375
z: -0.09183578193187714
visibility: 0.9972485303878784
","x: 287.15887451171875
y: 296.8687744140625
z: -0.13427898287773132
visibility: 0.9983767867088318
","x: 283.1001281738281
y: 296.94732666015625
z: -0.14651153981685638
visibility: 0.9988178014755249
","x: 296.77642822265625
y: 325.15594482421875
z: 0.030679812654852867
visibility: 0.9991661310195923
","x: 270.372314453125
y: 313.36309814453125
z: -0.11335153877735138
visibility: 0.9997859001159668
","x: 301.24456787109375
y: 362.9212646484375
z: 0.06814537197351456
visibility: 0.7119746804237366
","x: 273.15765380859375
y: 348.2088928222656
z: -0.15169715881347656
visibility: 0.9705111384391785
","x: 307.5560607910156
y: 392.0137939453125
z: 0.002292885445058346
visibility: 0.7070167064666748
","x: 282.1070556640625
y: 390.72808837890625
z: -0.20456430315971375
visibility: 0.9270056486129761
","x: 308.5102844238281
y: 402.3698425292969
z: -0.01295208465307951
visibility: 0.6495465040206909
","x: 283.96075439453125
y: 403.8855285644531
z: -0.23581597208976746
visibility: 0.8812636137008667
","x: 307.7625732421875
y: 402.6712341308594
z: -0.03944811597466469
visibility: 0.6602554321289062
","x: 286.1917724609375
y: 404.3975830078125
z: -0.2455192357301712
visibility: 0.8813870549201965
","x: 306.84197998046875
y: 398.93414306640625
z: -0.011037485674023628
visibility: 0.6333374977111816
","x: 286.2540283203125
y: 400.0856018066406
z: -0.20896592736244202
visibility: 0.8422990441322327
","x: 289.6433410644531
y: 403.32757568359375
z: 0.04230091720819473
visibility: 0.999718964099884
","x: 274.12255859375
y: 400.51568603515625
z: -0.04223022609949112
visibility: 0.9997339248657227
","x: 291.45916748046875
y: 460.3796081542969
z: 0.047207124531269073
visibility: 0.9743804931640625
","x: 265.26910400390625
y: 457.6414794921875
z: -0.06471846252679825
visibility: 0.9890127778053284
","x: 283.9988098144531
y: 506.9100646972656
z: 0.19479040801525116
visibility: 0.9686344265937805
","x: 250.19085693359375
y: 500.86383056640625
z: 0.06909752637147903
visibility: 0.9767293930053711
","x: 278.8288879394531
y: 512.212890625
z: 0.20441193878650665
visibility: 0.9016984105110168
","x: 247.13853454589844
y: 503.746337890625
z: 0.077863410115242
visibility: 0.8561046719551086
","x: 290.9200744628906
y: 524.6312866210938
z: 0.13242943584918976
visibility: 0.968238115310669
","x: 249.48672485351562
y: 520.937744140625
z: -0.008296261541545391
visibility: 0.9730873703956604
",,,,,,,,,,,,,,,,,,,,,,,,,,,,,,,,,,,,,,,,,,
16,"x: 284.1579895019531
y: 288.61474609375
z: -0.17743399739265442
visibility: 0.9993908405303955
","x: 285.5718688964844
y: 284.5089416503906
z: -0.16335569322109222
visibility: 0.998263955116272
","x: 286.5745849609375
y: 284.90411376953125
z: -0.1634027659893036
visibility: 0.9979629516601562
","x: 287.5702209472656
y: 285.3801574707031
z: -0.16340026259422302
visibility: 0.9980278611183167
","x: 282.4474792480469
y: 284.3134765625
z: -0.16431769728660583
visibility: 0.9982553720474243
","x: 281.27911376953125
y: 284.5177001953125
z: -0.16434334218502045
visibility: 0.9982743859291077
","x: 280.0866394042969
y: 284.7641296386719
z: -0.16444405913352966
visibility: 0.9984205365180969
","x: 288.8934631347656
y: 289.7628479003906
z: -0.07902305573225021
visibility: 0.9946601986885071
","x: 277.68133544921875
y: 288.37451171875
z: -0.09743952751159668
visibility: 0.9971698522567749
","x: 286.08782958984375
y: 295.0032653808594
z: -0.1461077183485031
visibility: 0.9984326958656311
","x: 281.6376037597656
y: 294.9754638671875
z: -0.14740875363349915
visibility: 0.9988325238227844
","x: 296.7539978027344
y: 323.8157958984375
z: -0.032870061695575714
visibility: 0.9991922974586487
","x: 268.85150146484375
y: 313.6358337402344
z: -0.08802853524684906
visibility: 0.9997750520706177
","x: 300.25250244140625
y: 361.519287109375
z: -0.07911119610071182
visibility: 0.7327514290809631
","x: 272.43170166015625
y: 354.16680908203125
z: -0.11778396368026733
visibility: 0.9676394462585449
","x: 287.9270324707031
y: 377.9687805175781
z: -0.20476102828979492
visibility: 0.7229262590408325
","x: 281.68988037109375
y: 387.7022705078125
z: -0.1925095021724701
visibility: 0.9177535772323608
","x: 283.2437744140625
y: 385.55291748046875
z: -0.2380295991897583
visibility: 0.665134847164154
","x: 284.2575988769531
y: 399.2126770019531
z: -0.22346679866313934
visibility: 0.869387686252594
","x: 281.5908508300781
y: 380.13800048828125
z: -0.24387022852897644
visibility: 0.6749461889266968
","x: 286.24285888671875
y: 403.7454833984375
z: -0.23292574286460876
visibility: 0.8687627911567688
","x: 283.7217102050781
y: 378.5414123535156
z: -0.20986151695251465
visibility: 0.6454743146896362
","x: 285.88507080078125
y: 396.94964599609375
z: -0.19751620292663574
visibility: 0.8270479440689087
","x: 289.780029296875
y: 403.5086669921875
z: 0.020970335230231285
visibility: 0.9997296929359436
","x: 272.6231994628906
y: 401.0569763183594
z: -0.020960167050361633
visibility: 0.999744176864624
","x: 290.8977355957031
y: 460.14752197265625
z: 0.03427766636013985
visibility: 0.9746870994567871
","x: 264.6567077636719
y: 456.8307189941406
z: 0.020282115787267685
visibility: 0.9891263246536255
","x: 284.9843444824219
y: 507.3739318847656
z: 0.18791013956069946
visibility: 0.9689521789550781
","x: 255.50013732910156
y: 498.4346923828125
z: 0.1889103204011917
visibility: 0.9777212738990784
","x: 280.8862609863281
y: 514.3768310546875
z: 0.19896596670150757
visibility: 0.8980751633644104
","x: 255.75242614746094
y: 503.2533264160156
z: 0.20148658752441406
visibility: 0.8548126816749573
","x: 291.1570129394531
y: 524.6254272460938
z: 0.1178189292550087
visibility: 0.968026340007782
","x: 251.00967407226562
y: 518.5701904296875
z: 0.1180800050497055
visibility: 0.9738154411315918
",,,,,,,,,,,,,,,,,,,,,,,,,,,,,,,,,,,,,,,,,,
17,"x: 282.2593078613281
y: 284.9623718261719
z: -0.1076347827911377
visibility: 0.9994212985038757
","x: 283.3536376953125
y: 281.7216796875
z: -0.08936052769422531
visibility: 0.9983797073364258
","x: 284.35101318359375
y: 282.2086181640625
z: -0.08944004774093628
visibility: 0.9980994462966919
","x: 285.37750244140625
y: 282.80511474609375
z: -0.08947823941707611
visibility: 0.9981662631034851
","x: 280.390869140625
y: 281.6983337402344
z: -0.0941309779882431
visibility: 0.9983838200569153
","x: 279.2991943359375
y: 282.14617919921875
z: -0.0941474661231041
visibility: 0.9984005689620972
","x: 278.1695251464844
y: 282.6637878417969
z: -0.0942164808511734
visibility: 0.9985450506210327
","x: 286.5299072265625
y: 287.4368896484375
z: -0.0005281364428810775
visibility: 0.995042085647583
","x: 275.97015380859375
y: 286.6754150390625
z: -0.02201928198337555
visibility: 0.9974064230918884
","x: 284.1968078613281
y: 291.34197998046875
z: -0.0750369280576706
visibility: 0.9985470771789551
","x: 279.9447021484375
y: 291.5014953613281
z: -0.08126087486743927
visibility: 0.9989279508590698
","x: 295.5474548339844
y: 318.8305969238281
z: 0.028116265311837196
visibility: 0.9991942048072815
","x: 265.4671325683594
y: 313.9963073730469
z: -0.0068612233735620975
visibility: 0.9997880458831787
","x: 297.1099548339844
y: 352.94964599609375
z: -0.044701315462589264
visibility: 0.7188145518302917
","x: 268.437744140625
y: 354.411376953125
z: -0.06221213936805725
visibility: 0.963779628276825
","x: 293.66888427734375
y: 370.5823974609375
z: -0.19797667860984802
visibility: 0.6967284679412842
","x: 280.37579345703125
y: 386.1695556640625
z: -0.16854014992713928
visibility: 0.9100309014320374
","x: 292.9077453613281
y: 377.82293701171875
z: -0.23290793597698212
visibility: 0.6490198373794556
","x: 282.3117370605469
y: 397.4337158203125
z: -0.20159292221069336
visibility: 0.8621125817298889
","x: 291.3725891113281
y: 373.25506591796875
z: -0.24457566440105438
visibility: 0.6590932607650757
","x: 284.66473388671875
y: 398.0299072265625
z: -0.207973912358284
visibility: 0.8609034419059753
","x: 291.1079406738281
y: 371.0215759277344
z: -0.2071019858121872
visibility: 0.6255066990852356
","x: 284.4797058105469
y: 393.194091796875
z: -0.17306223511695862
visibility: 0.816737174987793
","x: 289.9998779296875
y: 396.9032287597656
z: 0.012042204849421978
visibility: 0.9996508359909058
","x: 272.84503173828125
y: 396.21112060546875
z: -0.011893239803612232
visibility: 0.9997442960739136
","x: 294.3425598144531
y: 455.1483154296875
z: -0.06574271619319916
visibility: 0.9705237746238708
","x: 271.1609191894531
y: 454.4598388671875
z: -0.21481439471244812
visibility: 0.9887742400169373
","x: 286.63482666015625
y: 507.20599365234375
z: 0.03407347574830055
visibility: 0.9558665156364441
","x: 276.5463562011719
y: 507.1630859375
z: -0.14270880818367004
visibility: 0.9769578576087952
","x: 285.1385192871094
y: 514.4060668945312
z: 0.038464076817035675
visibility: 0.8727348446846008
","x: 278.05718994140625
y: 516.8207397460938
z: -0.14091476798057556
visibility: 0.8443688154220581
","x: 292.71795654296875
y: 521.8029174804688
z: -0.05564821884036064
visibility: 0.9539697766304016
","x: 276.2700500488281
y: 521.3142700195312
z: -0.25285112857818604
visibility: 0.9722678065299988
",,,,,,,,,,,,,,,,,,,,,,,,,,,,,,,,,,,,,,,,,,
18,"x: 280.8126525878906
y: 280.5270690917969
z: -0.1662357896566391
visibility: 0.999478280544281
","x: 282.5343017578125
y: 278.103759765625
z: -0.15073828399181366
visibility: 0.998537003993988
","x: 283.65802001953125
y: 278.8991394042969
z: -0.15079215168952942
visibility: 0.9982843399047852
","x: 284.7555236816406
y: 279.81768798828125
z: -0.15082183480262756
visibility: 0.9983435869216919
","x: 279.1769714355469
y: 277.48968505859375
z: -0.14859625697135925
visibility: 0.9985412359237671
","x: 277.9727478027344
y: 277.76385498046875
z: -0.14859338104724884
visibility: 0.9985558390617371
","x: 276.7854919433594
y: 278.0843200683594
z: -0.1485801339149475
visibility: 0.998685359954834
","x: 285.9714050292969
y: 285.6453857421875
z: -0.06897103786468506
visibility: 0.9955225586891174
","x: 274.3454284667969
y: 283.0139465332031
z: -0.05050305649638176
visibility: 0.9976568222045898
","x: 282.6015930175781
y: 287.5793151855469
z: -0.13691583275794983
visibility: 0.9986894726753235
","x: 278.0291748046875
y: 287.05010986328125
z: -0.1359965056180954
visibility: 0.9990331530570984
","x: 294.0044860839844
y: 318.75018310546875
z: -0.028646472841501236
visibility: 0.9992700815200806
","x: 262.5487976074219
y: 314.49774169921875
z: -0.042128536850214005
visibility: 0.9998071193695068
","x: 297.7828674316406
y: 354.05084228515625
z: -0.03349011391401291
visibility: 0.741814136505127
","x: 258.86505126953125
y: 354.31878662109375
z: -0.06120835989713669
visibility: 0.9606335163116455
","x: 307.1868591308594
y: 373.0599365234375
z: -0.14237263798713684
visibility: 0.7219310998916626
","x: 260.9142150878906
y: 385.4024963378906
z: -0.16335375607013702
visibility: 0.9106164574623108
","x: 311.60107421875
y: 380.494873046875
z: -0.16766569018363953
visibility: 0.6760656833648682
","x: 261.5140380859375
y: 396.6248779296875
z: -0.1915893405675888
visibility: 0.8630098104476929
","x: 312.3057861328125
y: 378.3912658691406
z: -0.1862078607082367
visibility: 0.6858881711959839
","x: 263.29644775390625
y: 396.1986083984375
z: -0.20847657322883606
visibility: 0.8625847697257996
","x: 310.2502136230469
y: 375.5057067871094
z: -0.15297262370586395
visibility: 0.6539590358734131
","x: 263.5679016113281
y: 391.4207458496094
z: -0.17305488884449005
visibility: 0.8212387561798096
","x: 291.0044250488281
y: 396.5657958984375
z: 0.004351324401795864
visibility: 0.9996663331985474
","x: 273.1580505371094
y: 397.40887451171875
z: -0.004331757314503193
visibility: 0.9997656345367432
","x: 301.57037353515625
y: 447.72113037109375
z: -0.011195964179933071
visibility: 0.9730252027511597
","x: 275.3780517578125
y: 453.048828125
z: -0.134352445602417
visibility: 0.9896942377090454
","x: 304.9671325683594
y: 497.3182678222656
z: 0.16070179641246796
visibility: 0.9596013426780701
","x: 282.3896484375
y: 506.5562744140625
z: 0.008083892054855824
visibility: 0.9790356755256653
","x: 302.04510498046875
y: 506.3687438964844
z: 0.17214705049991608
visibility: 0.8763523697853088
","x: 286.3240966796875
y: 514.7937622070312
z: 0.016812723129987717
visibility: 0.8560147881507874
","x: 313.1351623535156
y: 515.1231079101562
z: 0.0848340094089508
visibility: 0.9574579000473022
","x: 277.339599609375
y: 522.4359130859375
z: -0.08138848841190338
visibility: 0.9746864438056946
",,,,,,,,,,,,,,,,,,,,,,,,,,,,,,,,,,,,,,,,,,
19,"x: 280.09710693359375
y: 280.68804931640625
z: -0.22425369918346405
visibility: 0.9995296001434326
","x: 282.1680603027344
y: 277.37286376953125
z: -0.20934239029884338
visibility: 0.9986801147460938
","x: 283.3034973144531
y: 278.0709533691406
z: -0.20935845375061035
visibility: 0.998452365398407
","x: 284.3833312988281
y: 278.8204040527344
z: -0.20936711132526398
visibility: 0.9985047578811646
","x: 278.47161865234375
y: 276.245849609375
z: -0.211801677942276
visibility: 0.9986844062805176
","x: 277.1133117675781
y: 276.14202880859375
z: -0.21182122826576233
visibility: 0.9986972212791443
","x: 275.8223571777344
y: 276.11492919921875
z: -0.21181461215019226
visibility: 0.9988132119178772
","x: 285.48162841796875
y: 283.7122802734375
z: -0.12027917802333832
visibility: 0.9959630966186523
","x: 273.468017578125
y: 280.75970458984375
z: -0.13253891468048096
visibility: 0.9978854656219482
","x: 281.93096923828125
y: 287.5015869140625
z: -0.19087615609169006
visibility: 0.9988186359405518
","x: 277.1600646972656
y: 286.8347473144531
z: -0.1949736773967743
visibility: 0.999128520488739
","x: 293.5388488769531
y: 317.6385803222656
z: -0.0685766190290451
visibility: 0.9993396401405334
","x: 261.1708068847656
y: 314.7798767089844
z: -0.07508791238069534
visibility: 0.999822199344635
","x: 299.91156005859375
y: 354.61553955078125
z: -0.062171198427677155
visibility: 0.7662011981010437
","x: 254.18988037109375
y: 354.408447265625
z: -0.13482047617435455
visibility: 0.9620339274406433
","x: 310.842529296875
y: 378.95709228515625
z: -0.16966649889945984
visibility: 0.7474890947341919
","x: 258.7225646972656
y: 362.77349853515625
z: -0.30500608682632446
visibility: 0.9174730777740479
","x: 314.0877380371094
y: 388.2294006347656
z: -0.19819673895835876
visibility: 0.7040229439735413
","x: 259.58062744140625
y: 368.7342834472656
z: -0.34184208512306213
visibility: 0.8733380436897278
","x: 314.0792541503906
y: 387.4420471191406
z: -0.22110779583454132
visibility: 0.7133175134658813
","x: 261.3699645996094
y: 361.4779968261719
z: -0.35410743951797485
visibility: 0.8731412887573242
","x: 312.5914306640625
y: 383.787109375
z: -0.18158379197120667
visibility: 0.6837732791900635
","x: 261.34088134765625
y: 358.819091796875
z: -0.31379735469818115
visibility: 0.8348181843757629
","x: 292.0125427246094
y: 394.94989013671875
z: 0.0004243908333592117
visibility: 0.9996827840805054
","x: 273.921875
y: 398.1689758300781
z: -0.0004334143304731697
visibility: 0.9997766613960266
","x: 302.5979919433594
y: 445.6025390625
z: 0.005401987582445145
visibility: 0.9754741191864014
","x: 278.5340576171875
y: 454.6903076171875
z: 0.04227915406227112
visibility: 0.9900264143943787
","x: 313.4548645019531
y: 494.78631591796875
z: 0.1397021859884262
visibility: 0.9631797075271606
","x: 283.87774658203125
y: 507.02032470703125
z: 0.19922161102294922
visibility: 0.9806342124938965
","x: 313.19549560546875
y: 504.7634582519531
z: 0.14805349707603455
visibility: 0.8836240172386169
","x: 287.2580871582031
y: 514.4984741210938
z: 0.20944814383983612
visibility: 0.8645321130752563
","x: 320.135009765625
y: 510.5097961425781
z: 0.059704363346099854
visibility: 0.9610727429389954
","x: 276.9029846191406
y: 523.0662841796875
z: 0.1226794496178627
visibility: 0.9763450622558594
",,,,,,,,,,,,,,,,,,,,,,,,,,,,,,,,,,,,,,,,,,
20,"x: 280.0247497558594
y: 281.74481201171875
z: -0.19210626184940338
visibility: 0.9994525909423828
","x: 282.0395812988281
y: 278.02642822265625
z: -0.18125666677951813
visibility: 0.9984793663024902
","x: 283.1962890625
y: 278.6998596191406
z: -0.1813151240348816
visibility: 0.9981865286827087
","x: 284.3601379394531
y: 279.4201354980469
z: -0.1813616156578064
visibility: 0.9982472658157349
","x: 278.5453796386719
y: 276.92193603515625
z: -0.18377359211444855
visibility: 0.9985623955726624
","x: 277.250244140625
y: 276.8670959472656
z: -0.1837855875492096
visibility: 0.998557448387146
","x: 275.9676208496094
y: 276.9148864746094
z: -0.18383800983428955
visibility: 0.99872225522995
","x: 285.64813232421875
y: 284.11822509765625
z: -0.10638418048620224
visibility: 0.9955337047576904
","x: 273.29248046875
y: 281.4071044921875
z: -0.11886761337518692
visibility: 0.9977591037750244
","x: 281.8374328613281
y: 288.4305114746094
z: -0.16348427534103394
visibility: 0.9987069368362427
","x: 277.2768859863281
y: 287.8164978027344
z: -0.16617326438426971
visibility: 0.9990540146827698
","x: 293.5892639160156
y: 313.866455078125
z: -0.04056528955698013
visibility: 0.9991575479507446
","x: 262.4178771972656
y: 315.52471923828125
z: -0.05785674974322319
visibility: 0.9997637867927551
","x: 299.1817626953125
y: 350.3669738769531
z: -0.003510829759761691
visibility: 0.733369767665863
","x: 261.3673095703125
y: 355.966064453125
z: -0.0374322310090065
visibility: 0.946293830871582
","x: 297.6397705078125
y: 372.56890869140625
z: -0.06376871466636658
visibility: 0.6855241060256958
","x: 270.8799133300781
y: 368.14874267578125
z: -0.07443855702877045
visibility: 0.8813666105270386
","x: 297.58856201171875
y: 380.9317321777344
z: -0.08431240171194077
visibility: 0.6469298005104065
","x: 273.4473571777344
y: 375.03759765625
z: -0.09445539861917496
visibility: 0.8349477648735046
","x: 296.9214782714844
y: 377.8358154296875
z: -0.10503529012203217
visibility: 0.6557368040084839
","x: 271.72418212890625
y: 370.3665771484375
z: -0.11217036098241806
visibility: 0.8355384469032288
","x: 295.99267578125
y: 374.1514892578125
z: -0.07436392456293106
visibility: 0.629065990447998
","x: 271.53302001953125
y: 367.4443054199219
z: -0.08240298181772232
visibility: 0.7984281778335571
","x: 293.5379638671875
y: 393.6843566894531
z: -0.0014359011547639966
visibility: 0.9995529055595398
","x: 275.3620910644531
y: 396.8353271484375
z: 0.0015367550076916814
visibility: 0.999687135219574
","x: 301.45550537109375
y: 446.08404541015625
z: -0.0015884427120909095
visibility: 0.9773378968238831
","x: 278.9925231933594
y: 454.5408935546875
z: 0.030745917931199074
visibility: 0.9902600049972534
","x: 307.610107421875
y: 499.945556640625
z: 0.13037899136543274
visibility: 0.9659690856933594
","x: 283.9056091308594
y: 507.0340270996094
z: 0.17060402035713196
visibility: 0.9820107221603394
","x: 311.9649658203125
y: 505.6484375
z: 0.14273738861083984
visibility: 0.8838009238243103
","x: 286.05316162109375
y: 514.0928955078125
z: 0.17882010340690613
visibility: 0.8715571761131287
","x: 304.310546875
y: 513.0599365234375
z: 0.045826371759176254
visibility: 0.9635541439056396
","x: 276.843994140625
y: 523.7431640625
z: 0.09194211661815643
visibility: 0.9778256416320801
",,,,,,,,,,,,,,,,,,,,,,,,,,,,,,,,,,,,,,,,,,
21,"x: 280.2583923339844
y: 287.7768249511719
z: -0.19411608576774597
visibility: 0.999377429485321
","x: 282.20989990234375
y: 283.2366027832031
z: -0.1819615662097931
visibility: 0.9982900023460388
","x: 283.4895324707031
y: 283.96783447265625
z: -0.18199586868286133
visibility: 0.9979619979858398
","x: 284.8630676269531
y: 284.72113037109375
z: -0.18200868368148804
visibility: 0.9979709386825562
","x: 278.82574462890625
y: 281.34326171875
z: -0.18410201370716095
visibility: 0.9984804391860962
","x: 277.67279052734375
y: 280.6995544433594
z: -0.18412156403064728
visibility: 0.9984798431396484
","x: 276.3511962890625
y: 280.2171936035156
z: -0.18417105078697205
visibility: 0.9986701011657715
","x: 286.8130187988281
y: 288.2397766113281
z: -0.10270647704601288
visibility: 0.9948698878288269
","x: 273.4150390625
y: 284.173583984375
z: -0.11246989667415619
visibility: 0.9976855516433716
","x: 282.1393737792969
y: 294.58978271484375
z: -0.16367734968662262
visibility: 0.9985437989234924
","x: 277.36865234375
y: 293.2693176269531
z: -0.1661801040172577
visibility: 0.9989736676216125
","x: 294.8024597167969
y: 314.897705078125
z: -0.05869222804903984
visibility: 0.9987831711769104
","x: 263.30267333984375
y: 319.65118408203125
z: -0.06066928058862686
visibility: 0.9997369050979614
","x: 299.26324462890625
y: 351.55322265625
z: -0.09143341332674026
visibility: 0.732032060623169
","x: 263.7052307128906
y: 364.296875
z: -0.06979148834943771
visibility: 0.9485543966293335
","x: 284.6654357910156
y: 364.2877502441406
z: -0.20740363001823425
visibility: 0.6612111926078796
","x: 282.74029541015625
y: 361.9949951171875
z: -0.13845545053482056
visibility: 0.8862127065658569
","x: 280.8439025878906
y: 370.02679443359375
z: -0.23647744953632355
visibility: 0.6219268441200256
","x: 286.07965087890625
y: 361.78289794921875
z: -0.1626097410917282
visibility: 0.8381927609443665
","x: 280.3588562011719
y: 363.9258117675781
z: -0.24272818863391876
visibility: 0.6297146081924438
","x: 286.3714599609375
y: 357.198974609375
z: -0.168902188539505
visibility: 0.83792644739151
","x: 281.33782958984375
y: 361.23126220703125
z: -0.21262378990650177
visibility: 0.6013756990432739
","x: 285.22540283203125
y: 357.1205139160156
z: -0.14163699746131897
visibility: 0.79891037940979
","x: 293.6699523925781
y: 394.9853515625
z: -0.00643343199044466
visibility: 0.9994346499443054
","x: 275.8797302246094
y: 397.3559875488281
z: 0.006477584596723318
visibility: 0.9996023774147034
","x: 297.0546875
y: 450.27935791015625
z: -0.000775490771047771
visibility: 0.9779602289199829
","x: 278.460693359375
y: 453.3397216796875
z: 0.052935320883989334
visibility: 0.9898838996887207
","x: 297.1593933105469
y: 508.0604248046875
z: 0.11333124339580536
visibility: 0.9677008986473083
","x: 282.7757873535156
y: 506.7972106933594
z: 0.18668271601200104
visibility: 0.9824220538139343
","x: 300.1390075683594
y: 512.6436767578125
z: 0.11928869783878326
visibility: 0.883094847202301
","x: 284.4891662597656
y: 513.7107543945312
z: 0.19522324204444885
visibility: 0.8734155893325806
","x: 295.37237548828125
y: 520.139892578125
z: 0.027631497010588646
visibility: 0.9651258587837219
","x: 277.2659606933594
y: 523.8253173828125
z: 0.11481797695159912
visibility: 0.9782111644744873
",,,,,,,,,,,,,,,,,,,,,,,,,,,,,,,,,,,,,,,,,,
22,"x: 285.0068054199219
y: 287.5682373046875
z: -0.23561856150627136
visibility: 0.9994044899940491
","x: 286.6459045410156
y: 282.840087890625
z: -0.2231014519929886
visibility: 0.9983457326889038
","x: 287.8221130371094
y: 283.4414978027344
z: -0.22312185168266296
visibility: 0.9980403780937195
","x: 288.950439453125
y: 284.0658874511719
z: -0.22313061356544495
visibility: 0.9980282783508301
","x: 283.0596008300781
y: 281.3012390136719
z: -0.22546353936195374
visibility: 0.9985458254814148
","x: 281.8094787597656
y: 280.7018127441406
z: -0.22549477219581604
visibility: 0.9985430240631104
","x: 280.5068054199219
y: 280.23455810546875
z: -0.2255425751209259
visibility: 0.998720109462738
","x: 290.25335693359375
y: 287.91094970703125
z: -0.14331120252609253
visibility: 0.9950724840164185
","x: 278.3631286621094
y: 284.1864318847656
z: -0.15488003194332123
visibility: 0.9977918267250061
","x: 286.73828125
y: 294.09490966796875
z: -0.20510061085224152
visibility: 0.9986436367034912
","x: 282.547119140625
y: 293.2092590332031
z: -0.20843903720378876
visibility: 0.9990466833114624
","x: 298.73199462890625
y: 315.1031188964844
z: -0.0986575186252594
visibility: 0.9988781213760376
","x: 266.4249267578125
y: 319.8428955078125
z: -0.09712575376033783
visibility: 0.9997491836547852
","x: 304.6127014160156
y: 355.94647216796875
z: -0.08853607624769211
visibility: 0.7555238604545593
","x: 261.5329895019531
y: 362.6454162597656
z: -0.07994110882282257
visibility: 0.9525262713432312
","x: 288.3466491699219
y: 383.3116149902344
z: -0.17826862633228302
visibility: 0.6888821721076965
","x: 272.584228515625
y: 387.5111389160156
z: -0.1549893617630005
visibility: 0.8939234614372253
","x: 288.90167236328125
y: 395.4037780761719
z: -0.20846307277679443
visibility: 0.649207592010498
","x: 274.6083679199219
y: 396.7843017578125
z: -0.18162685632705688
visibility: 0.8471722602844238
","x: 290.3099060058594
y: 389.0307922363281
z: -0.22549903392791748
visibility: 0.6563104391098022
","x: 277.7834167480469
y: 392.1252136230469
z: -0.19661641120910645
visibility: 0.8468780517578125
","x: 290.06964111328125
y: 384.7542724609375
z: -0.18693646788597107
visibility: 0.6281448006629944
","x: 277.4521789550781
y: 388.1087951660156
z: -0.16253450512886047
visibility: 0.8101651072502136
","x: 294.05712890625
y: 399.3418884277344
z: -0.006462073884904385
visibility: 0.9994516372680664
","x: 276.9442443847656
y: 400.4252624511719
z: 0.006492088548839092
visibility: 0.9996172785758972
","x: 295.4656677246094
y: 457.02947998046875
z: 0.04223142936825752
visibility: 0.9781392812728882
","x: 279.0407409667969
y: 455.9414367675781
z: 0.05598294734954834
visibility: 0.9883479475975037
","x: 293.4614562988281
y: 509.486083984375
z: 0.17570096254348755
visibility: 0.9685405492782593
","x: 282.07720947265625
y: 506.9643859863281
z: 0.20931336283683777
visibility: 0.9818419218063354
","x: 294.0543212890625
y: 514.4219360351562
z: 0.18410199880599976
visibility: 0.8827498555183411
","x: 283.73883056640625
y: 513.8364868164062
z: 0.22000917792320251
visibility: 0.8732714056968689
","x: 295.7847595214844
y: 523.3075561523438
z: 0.10488606989383698
visibility: 0.9659386873245239
","x: 277.4622497558594
y: 524.6559448242188
z: 0.1412397176027298
visibility: 0.9776433706283569
",,,,,,,,,,,,,,,,,,,,,,,,,,,,,,,,,,,,,,,,,,
23,"x: 286.0570983886719
y: 284.28515625
z: -0.18202269077301025
visibility: 0.9994429349899292
","x: 287.8265686035156
y: 279.112060546875
z: -0.16936254501342773
visibility: 0.9984583258628845
","x: 289.04913330078125
y: 279.627685546875
z: -0.16942670941352844
visibility: 0.9981765151023865
","x: 290.1468505859375
y: 280.236572265625
z: -0.169458270072937
visibility: 0.9981621503829956
","x: 284.1992492675781
y: 278.029052734375
z: -0.16989019513130188
visibility: 0.9986454248428345
","x: 282.9434814453125
y: 277.72210693359375
z: -0.16987815499305725
visibility: 0.9986382126808167
","x: 281.6155700683594
y: 277.5501708984375
z: -0.16990232467651367
visibility: 0.9988026022911072
","x: 291.1029357910156
y: 284.6268310546875
z: -0.09599293768405914
visibility: 0.99545818567276
","x: 279.53570556640625
y: 281.2843933105469
z: -0.09572820365428925
visibility: 0.9979493618011475
","x: 287.742431640625
y: 290.8092956542969
z: -0.1536545306444168
visibility: 0.9987617135047913
","x: 283.7285461425781
y: 289.8260192871094
z: -0.1541139930486679
visibility: 0.999127984046936
","x: 299.0421447753906
y: 314.59747314453125
z: -0.062911756336689
visibility: 0.9989771842956543
","x: 268.2833251953125
y: 317.67138671875
z: -0.026827823370695114
visibility: 0.9997568726539612
","x: 307.2347106933594
y: 350.75372314453125
z: -0.10534628480672836
visibility: 0.7774842381477356
","x: 262.005859375
y: 360.3306884765625
z: -0.0009075689013116062
visibility: 0.9509413838386536
","x: 289.50872802734375
y: 354.9530029296875
z: -0.2580764889717102
visibility: 0.7151300311088562
","x: 268.32489013671875
y: 388.202880859375
z: -0.07490594685077667
visibility: 0.8946153521537781
","x: 293.4969482421875
y: 358.95159912109375
z: -0.2951714098453522
visibility: 0.6766821146011353
","x: 269.9640197753906
y: 398.3505554199219
z: -0.0969114676117897
visibility: 0.8464727997779846
","x: 293.43634033203125
y: 353.40869140625
z: -0.3010805547237396
visibility: 0.6830741763114929
","x: 272.3515625
y: 394.5062561035156
z: -0.11665091663599014
visibility: 0.8466476202011108
","x: 293.060791015625
y: 351.02606201171875
z: -0.2638108432292938
visibility: 0.6545743942260742
","x: 272.07574462890625
y: 390.4888610839844
z: -0.08386627584695816
visibility: 0.8110658526420593
","x: 294.2240905761719
y: 399.3244934082031
z: -0.01615346036851406
visibility: 0.9994423389434814
","x: 277.4775390625
y: 400.2015380859375
z: 0.01617126353085041
visibility: 0.9995850920677185
","x: 294.47857666015625
y: 456.90252685546875
z: 0.025139179080724716
visibility: 0.9778127670288086
","x: 279.2923278808594
y: 455.9370422363281
z: 0.05521556735038757
visibility: 0.9850949048995972
","x: 293.8729553222656
y: 509.945556640625
z: 0.1560429036617279
visibility: 0.9681349992752075
","x: 282.7921142578125
y: 507.1429138183594
z: 0.1915915310382843
visibility: 0.9799124002456665
","x: 294.32745361328125
y: 515.203369140625
z: 0.16408777236938477
visibility: 0.8648484945297241
","x: 284.8961486816406
y: 513.8684692382812
z: 0.20058520138263702
visibility: 0.8707211017608643
","x: 292.2279968261719
y: 523.9271240234375
z: 0.08192867040634155
visibility: 0.964351236820221
","x: 276.81268310546875
y: 524.736083984375
z: 0.12448849529027939
visibility: 0.9757830500602722
","x: 295.28253173828125
y: 350.8575439453125
z: 0.0
","x: 295.4793701171875
y: 351.9012145996094
z: -0.0023175696842372417
","x: 294.6000671386719
y: 354.2772216796875
z: -0.005267394240945578
","x: 294.10205078125
y: 355.4039306640625
z: -0.008132673799991608
","x: 294.1224365234375
y: 356.654052734375
z: -0.0110502103343606
","x: 292.42718505859375
y: 355.49102783203125
z: -0.010024619288742542
","x: 290.86224365234375
y: 357.2179870605469
z: -0.01392284408211708
","x: 290.5359191894531
y: 357.27557373046875
z: -0.015660259872674942
","x: 290.2342529296875
y: 357.0787048339844
z: -0.01648399978876114
","x: 291.51788330078125
y: 354.8276062011719
z: -0.010700836777687073
","x: 289.06561279296875
y: 356.73663330078125
z: -0.014075600542128086
","x: 288.9214782714844
y: 356.331298828125
z: -0.013855979777872562
","x: 288.88250732421875
y: 356.0146484375
z: -0.01404354814440012
","x: 291.1877136230469
y: 354.04071044921875
z: -0.010774387046694756
","x: 288.87152099609375
y: 355.5452880859375
z: -0.01377215888351202
","x: 288.6590270996094
y: 355.27239990234375
z: -0.012479822151362896
","x: 288.6672668457031
y: 355.18408203125
z: -0.011756553314626217
","x: 291.1302490234375
y: 352.7945251464844
z: -0.010972704738378525
","x: 289.2475280761719
y: 353.58984375
z: -0.013034704141318798
","x: 288.7530822753906
y: 353.7931823730469
z: -0.012149466201663017
","x: 288.47857666015625
y: 354.2027282714844
z: -0.011450313031673431
",,,,,,,,,,,,,,,,,,,,,
24,"x: 286.0570983886719
y: 284.28515625
z: -0.18202269077301025
visibility: 0.9994429349899292
","x: 287.8265686035156
y: 279.112060546875
z: -0.16936254501342773
visibility: 0.9984583258628845
","x: 289.04913330078125
y: 279.627685546875
z: -0.16942670941352844
visibility: 0.9981765151023865
","x: 290.1468505859375
y: 280.236572265625
z: -0.169458270072937
visibility: 0.9981621503829956
","x: 284.1992492675781
y: 278.029052734375
z: -0.16989019513130188
visibility: 0.9986454248428345
","x: 282.9434814453125
y: 277.72210693359375
z: -0.16987815499305725
visibility: 0.9986382126808167
","x: 281.6155700683594
y: 277.5501708984375
z: -0.16990232467651367
visibility: 0.9988026022911072
","x: 291.1029357910156
y: 284.6268310546875
z: -0.09599293768405914
visibility: 0.99545818567276
","x: 279.53570556640625
y: 281.2843933105469
z: -0.09572820365428925
visibility: 0.9979493618011475
","x: 287.742431640625
y: 290.8092956542969
z: -0.1536545306444168
visibility: 0.9987617135047913
","x: 283.7285461425781
y: 289.8260192871094
z: -0.1541139930486679
visibility: 0.999127984046936
","x: 299.0421447753906
y: 314.59747314453125
z: -0.062911756336689
visibility: 0.9989771842956543
","x: 268.2833251953125
y: 317.67138671875
z: -0.026827823370695114
visibility: 0.9997568726539612
","x: 307.2347106933594
y: 350.75372314453125
z: -0.10534628480672836
visibility: 0.7774842381477356
","x: 262.005859375
y: 360.3306884765625
z: -0.0009075689013116062
visibility: 0.9509413838386536
","x: 289.50872802734375
y: 354.9530029296875
z: -0.2580764889717102
visibility: 0.7151300311088562
","x: 268.32489013671875
y: 388.202880859375
z: -0.07490594685077667
visibility: 0.8946153521537781
","x: 293.4969482421875
y: 358.95159912109375
z: -0.2951714098453522
visibility: 0.6766821146011353
","x: 269.9640197753906
y: 398.3505554199219
z: -0.0969114676117897
visibility: 0.8464727997779846
","x: 293.43634033203125
y: 353.40869140625
z: -0.3010805547237396
visibility: 0.6830741763114929
","x: 272.3515625
y: 394.5062561035156
z: -0.11665091663599014
visibility: 0.8466476202011108
","x: 293.060791015625
y: 351.02606201171875
z: -0.2638108432292938
visibility: 0.6545743942260742
","x: 272.07574462890625
y: 390.4888610839844
z: -0.08386627584695816
visibility: 0.8110658526420593
","x: 294.2240905761719
y: 399.3244934082031
z: -0.01615346036851406
visibility: 0.9994423389434814
","x: 277.4775390625
y: 400.2015380859375
z: 0.01617126353085041
visibility: 0.9995850920677185
","x: 294.47857666015625
y: 456.90252685546875
z: 0.025139179080724716
visibility: 0.9778127670288086
","x: 279.2923278808594
y: 455.9370422363281
z: 0.05521556735038757
visibility: 0.9850949048995972
","x: 293.8729553222656
y: 509.945556640625
z: 0.1560429036617279
visibility: 0.9681349992752075
","x: 282.7921142578125
y: 507.1429138183594
z: 0.1915915310382843
visibility: 0.9799124002456665
","x: 294.32745361328125
y: 515.203369140625
z: 0.16408777236938477
visibility: 0.8648484945297241
","x: 284.8961486816406
y: 513.8684692382812
z: 0.20058520138263702
visibility: 0.8707211017608643
","x: 292.2279968261719
y: 523.9271240234375
z: 0.08192867040634155
visibility: 0.964351236820221
","x: 276.81268310546875
y: 524.736083984375
z: 0.12448849529027939
visibility: 0.9757830500602722
","x: 295.28253173828125
y: 350.8575439453125
z: 0.0
","x: 295.4793701171875
y: 351.9012145996094
z: -0.0023175696842372417
","x: 294.6000671386719
y: 354.2772216796875
z: -0.005267394240945578
","x: 294.10205078125
y: 355.4039306640625
z: -0.008132673799991608
","x: 294.1224365234375
y: 356.654052734375
z: -0.0110502103343606
","x: 292.42718505859375
y: 355.49102783203125
z: -0.010024619288742542
","x: 290.86224365234375
y: 357.2179870605469
z: -0.01392284408211708
","x: 290.5359191894531
y: 357.27557373046875
z: -0.015660259872674942
","x: 290.2342529296875
y: 357.0787048339844
z: -0.01648399978876114
","x: 291.51788330078125
y: 354.8276062011719
z: -0.010700836777687073
","x: 289.06561279296875
y: 356.73663330078125
z: -0.014075600542128086
","x: 288.9214782714844
y: 356.331298828125
z: -0.013855979777872562
","x: 288.88250732421875
y: 356.0146484375
z: -0.01404354814440012
","x: 291.1877136230469
y: 354.04071044921875
z: -0.010774387046694756
","x: 288.87152099609375
y: 355.5452880859375
z: -0.01377215888351202
","x: 288.6590270996094
y: 355.27239990234375
z: -0.012479822151362896
","x: 288.6672668457031
y: 355.18408203125
z: -0.011756553314626217
","x: 291.1302490234375
y: 352.7945251464844
z: -0.010972704738378525
","x: 289.2475280761719
y: 353.58984375
z: -0.013034704141318798
","x: 288.7530822753906
y: 353.7931823730469
z: -0.012149466201663017
","x: 288.47857666015625
y: 354.2027282714844
z: -0.011450313031673431
",,,,,,,,,,,,,,,,,,,,,
25,"x: 286.5165100097656
y: 281.6452331542969
z: -0.1826111525297165
visibility: 0.9994510412216187
","x: 288.1103210449219
y: 276.69195556640625
z: -0.169405996799469
visibility: 0.9984875321388245
","x: 289.32110595703125
y: 277.0767517089844
z: -0.16946744918823242
visibility: 0.9982304573059082
","x: 290.4870910644531
y: 277.555419921875
z: -0.16950079798698425
visibility: 0.99820876121521
","x: 284.6324768066406
y: 276.2225036621094
z: -0.17037084698677063
visibility: 0.9986741542816162
","x: 283.41107177734375
y: 276.25146484375
z: -0.17036810517311096
visibility: 0.9986578226089478
","x: 282.11956787109375
y: 276.384765625
z: -0.17039868235588074
visibility: 0.9988107681274414
","x: 291.4698181152344
y: 282.2572021484375
z: -0.09456328302621841
visibility: 0.9957268238067627
","x: 279.9124755859375
y: 280.31573486328125
z: -0.09359385073184967
visibility: 0.9980000257492065
","x: 288.1629333496094
y: 288.10247802734375
z: -0.15296003222465515
visibility: 0.9988478422164917
","x: 284.1845397949219
y: 287.681396484375
z: -0.15385213494300842
visibility: 0.9991801381111145
","x: 299.8631286621094
y: 314.0499572753906
z: -0.06011189892888069
visibility: 0.9990620613098145
","x: 268.99102783203125
y: 316.9201354980469
z: -0.023938126862049103
visibility: 0.9997475743293762
","x: 308.81646728515625
y: 350.203369140625
z: -0.11029426753520966
visibility: 0.797814667224884
","x: 262.0408935546875
y: 359.6368408203125
z: 0.0015132265398278832
visibility: 0.9447086453437805
","x: 293.55047607421875
y: 353.9053649902344
z: -0.253874808549881
visibility: 0.7381295561790466
","x: 268.25311279296875
y: 388.412841796875
z: -0.07487156242132187
visibility: 0.8872546553611755
","x: 293.5905456542969
y: 356.569091796875
z: -0.2894954979419708
visibility: 0.6997396945953369
","x: 269.90850830078125
y: 399.0475769042969
z: -0.09700954705476761
visibility: 0.8356985449790955
","x: 293.2319641113281
y: 350.228515625
z: -0.2946370542049408
visibility: 0.7053883671760559
","x: 271.863037109375
y: 395.6622009277344
z: -0.11775984615087509
visibility: 0.8365447521209717
","x: 293.76153564453125
y: 348.5682678222656
z: -0.2588464617729187
visibility: 0.675736665725708
","x: 271.6889953613281
y: 391.59539794921875
z: -0.08453304320573807
visibility: 0.8014987111091614
","x: 294.5657653808594
y: 399.3652648925781
z: -0.019668390974402428
visibility: 0.9993647933006287
","x: 277.7796325683594
y: 400.23309326171875
z: 0.01971389167010784
visibility: 0.99950110912323
","x: 294.64227294921875
y: 457.25457763671875
z: 0.021009279415011406
visibility: 0.9786487817764282
","x: 279.4019470214844
y: 456.1875915527344
z: 0.05285980552434921
visibility: 0.9838017225265503
","x: 294.1135559082031
y: 511.2271423339844
z: 0.14466354250907898
visibility: 0.9694637060165405
","x: 283.1325378417969
y: 509.07611083984375
z: 0.180801123380661
visibility: 0.9798868894577026
","x: 294.8410339355469
y: 517.0716552734375
z: 0.15263161063194275
visibility: 0.8539799451828003
","x: 285.131103515625
y: 515.9224853515625
z: 0.188225656747818
visibility: 0.8727285861968994
","x: 291.8640441894531
y: 524.6317749023438
z: 0.07159682363271713
visibility: 0.9649407267570496
","x: 276.2090148925781
y: 525.0379638671875
z: 0.10757659375667572
visibility: 0.975753903388977
",,,,,,,,,,,,,,,,,,,,,,,,,,,,,,,,,,,,,,,,,,
26,"x: 286.4830017089844
y: 281.6826477050781
z: -0.1837036907672882
visibility: 0.9994305372238159
","x: 287.9532165527344
y: 277.00665283203125
z: -0.17028722167015076
visibility: 0.9984167814254761
","x: 289.10137939453125
y: 277.4399108886719
z: -0.17033863067626953
visibility: 0.9981842637062073
","x: 290.2293395996094
y: 277.9718017578125
z: -0.17036619782447815
visibility: 0.9981435537338257
","x: 284.7181396484375
y: 276.403076171875
z: -0.17179147899150848
visibility: 0.9986047148704529
","x: 283.5633544921875
y: 276.35784912109375
z: -0.17179052531719208
visibility: 0.9985844492912292
","x: 282.373291015625
y: 276.4340515136719
z: -0.17182758450508118
visibility: 0.9987329244613647
","x: 291.2176818847656
y: 282.7313537597656
z: -0.09384846687316895
visibility: 0.9957239627838135
","x: 280.12884521484375
y: 280.634033203125
z: -0.0941392332315445
visibility: 0.9979650974273682
","x: 288.0545959472656
y: 288.5074157714844
z: -0.15342602133750916
visibility: 0.9989144802093506
","x: 284.3390197753906
y: 288.0575256347656
z: -0.15449079871177673
visibility: 0.9992232322692871
","x: 299.9071044921875
y: 312.74127197265625
z: -0.057697128504514694
visibility: 0.9991438984870911
","x: 269.23114013671875
y: 316.7612609863281
z: -0.028396323323249817
visibility: 0.9997547268867493
","x: 311.38385009765625
y: 344.78570556640625
z: -0.12418820708990097
visibility: 0.8157492876052856
","x: 262.308837890625
y: 359.38458251953125
z: -0.004736976698040962
visibility: 0.9472705721855164
","x: 298.5524597167969
y: 346.13037109375
z: -0.2969202995300293
visibility: 0.7600911259651184
","x: 267.8069763183594
y: 390.2470703125
z: -0.07972186803817749
visibility: 0.8928188681602478
","x: 296.6315612792969
y: 351.323486328125
z: -0.33697590231895447
visibility: 0.722537636756897
","x: 269.7610778808594
y: 400.4568786621094
z: -0.10303078591823578
visibility: 0.8418177962303162
","x: 294.1627197265625
y: 347.58245849609375
z: -0.34271368384361267
visibility: 0.7275019288063049
","x: 271.7493896484375
y: 396.7288513183594
z: -0.12211181968450546
visibility: 0.8427503705024719
","x: 294.98504638671875
y: 345.4988098144531
z: -0.3029598593711853
visibility: 0.6973870992660522
","x: 271.4048156738281
y: 393.1872253417969
z: -0.08824232965707779
visibility: 0.8084357380867004
","x: 294.9716491699219
y: 399.10040283203125
z: -0.0145805012434721
visibility: 0.9993616938591003
","x: 277.7655334472656
y: 399.8511962890625
z: 0.014608199708163738
visibility: 0.9994789361953735
","x: 294.59088134765625
y: 458.12200927734375
z: 0.015661178156733513
visibility: 0.9790353178977966
","x: 279.0751037597656
y: 456.5040283203125
z: 0.037857964634895325
visibility: 0.9830395579338074
","x: 294.27789306640625
y: 511.34381103515625
z: 0.15272775292396545
visibility: 0.9698959589004517
","x: 282.0717468261719
y: 509.9115295410156
z: 0.179681196808815
visibility: 0.979229748249054
","x: 294.8147888183594
y: 516.8323974609375
z: 0.161635622382164
visibility: 0.8469079732894897
","x: 283.7966003417969
y: 516.2329711914062
z: 0.18888863921165466
visibility: 0.8679713010787964
","x: 293.3537292480469
y: 524.9520263671875
z: 0.07414551824331284
visibility: 0.9647493362426758
","x: 276.52972412109375
y: 525.301025390625
z: 0.10418369621038437
visibility: 0.9750667810440063
",,,,,,,,,,,,,,,,,,,,,,,,,,,,,,,,,,,,,,,,,,
27,"x: 286.37396240234375
y: 281.1056213378906
z: -0.18442031741142273
visibility: 0.99947190284729
","x: 287.7332763671875
y: 276.8704528808594
z: -0.17084437608718872
visibility: 0.998521089553833
","x: 288.823974609375
y: 277.2552185058594
z: -0.17089363932609558
visibility: 0.9982985854148865
","x: 289.9083557128906
y: 277.73065185546875
z: -0.1709202229976654
visibility: 0.9982564449310303
","x: 284.5267028808594
y: 276.4249267578125
z: -0.1732199490070343
visibility: 0.9987072944641113
","x: 283.3152770996094
y: 276.465576171875
z: -0.1732458770275116
visibility: 0.9986936450004578
","x: 282.0648193359375
y: 276.587646484375
z: -0.17328715324401855
visibility: 0.9988337755203247
","x: 290.9425354003906
y: 282.66717529296875
z: -0.09367616474628448
visibility: 0.995982825756073
","x: 279.8713684082031
y: 280.9110107421875
z: -0.1097879409790039
visibility: 0.9981271624565125
","x: 287.9502258300781
y: 287.763427734375
z: -0.15373589098453522
visibility: 0.9990106225013733
","x: 284.0189514160156
y: 287.474853515625
z: -0.15753258764743805
visibility: 0.9992936253547668
","x: 299.97357177734375
y: 313.31689453125
z: -0.043764617294073105
visibility: 0.9992191195487976
","x: 269.2101745605469
y: 317.2814636230469
z: -0.05856282263994217
visibility: 0.9997714161872864
","x: 310.754638671875
y: 343.8406066894531
z: -0.0009844102896749973
visibility: 0.826695442199707
","x: 262.4386291503906
y: 360.8439636230469
z: -0.029460078105330467
visibility: 0.9512814879417419
","x: 302.5690002441406
y: 350.05029296875
z: -0.07720977067947388
visibility: 0.7621904611587524
","x: 267.7601318359375
y: 393.51824951171875
z: -0.08717063814401627
visibility: 0.898307204246521
","x: 301.0119323730469
y: 360.466796875
z: -0.10126233100891113
visibility: 0.718006432056427
","x: 269.3754577636719
y: 404.5448303222656
z: -0.11017543077468872
visibility: 0.8478182554244995
","x: 298.4441223144531
y: 354.7070007324219
z: -0.12022073566913605
visibility: 0.7233640551567078
","x: 271.3707275390625
y: 402.1121826171875
z: -0.13112017512321472
visibility: 0.8487961292266846
","x: 298.7123718261719
y: 348.6303405761719
z: -0.08649752289056778
visibility: 0.6925513744354248
","x: 271.2128601074219
y: 398.14190673828125
z: -0.0960521325469017
visibility: 0.815585196018219
","x: 295.7164611816406
y: 399.1500244140625
z: -0.002448764629662037
visibility: 0.9993956089019775
","x: 277.936767578125
y: 399.8572082519531
z: 0.0024384616408497095
visibility: 0.9994984269142151
","x: 295.189697265625
y: 458.1869201660156
z: 0.021357912570238113
visibility: 0.9799437522888184
","x: 278.7509765625
y: 455.8915710449219
z: 0.028490442782640457
visibility: 0.9832355976104736
","x: 294.4046936035156
y: 510.429443359375
z: 0.19796092808246613
visibility: 0.9708477258682251
","x: 277.6414794921875
y: 506.1327819824219
z: 0.2055002748966217
visibility: 0.9792819619178772
","x: 293.7722473144531
y: 512.24853515625
z: 0.21092239022254944
visibility: 0.8467188477516174
","x: 277.4606018066406
y: 510.5004577636719
z: 0.21898715198040009
visibility: 0.8641824722290039
","x: 293.75128173828125
y: 524.7875366210938
z: 0.12083635479211807
visibility: 0.965703010559082
","x: 276.04840087890625
y: 525.04296875
z: 0.12878932058811188
visibility: 0.9752387404441833
",,,,,,,,,,,,,,,,,,,,,,,,,,,,,,,,,,,,,,,,,,
28,"x: 285.8469543457031
y: 281.3808288574219
z: -0.21572820842266083
visibility: 0.9995153546333313
","x: 287.00579833984375
y: 277.3186950683594
z: -0.20279166102409363
visibility: 0.9986268281936646
","x: 287.90753173828125
y: 277.68719482421875
z: -0.2027834951877594
visibility: 0.9984211325645447
","x: 288.8027038574219
y: 278.095458984375
z: -0.2027570903301239
visibility: 0.9983769059181213
","x: 284.03106689453125
y: 276.7276611328125
z: -0.2086402177810669
visibility: 0.9988071322441101
","x: 282.77081298828125
y: 276.7060546875
z: -0.20867332816123962
visibility: 0.9987999200820923
","x: 281.5240783691406
y: 276.7575378417969
z: -0.20870664715766907
visibility: 0.9989261627197266
","x: 289.4249572753906
y: 282.70111083984375
z: -0.12059345096349716
visibility: 0.9962427616119385
","x: 278.3251647949219
y: 281.109130859375
z: -0.1484808623790741
visibility: 0.9982702732086182
","x: 287.4692687988281
y: 288.24200439453125
z: -0.18417611718177795
visibility: 0.9990965127944946
","x: 283.2081604003906
y: 288.03363037109375
z: -0.19220232963562012
visibility: 0.9993550181388855
","x: 298.8993225097656
y: 313.9370422363281
z: -0.058477453887462616
visibility: 0.9992874264717102
","x: 266.2431945800781
y: 318.3008117675781
z: -0.09774906188249588
visibility: 0.9997864365577698
","x: 309.4497375488281
y: 345.73187255859375
z: -0.008254949003458023
visibility: 0.8409767150878906
","x: 262.2652893066406
y: 363.5169982910156
z: -0.06905099004507065
visibility: 0.954301118850708
","x: 307.09991455078125
y: 380.0924072265625
z: -0.0773346871137619
visibility: 0.777359127998352
","x: 266.1646728515625
y: 395.35986328125
z: -0.12501397728919983
visibility: 0.9032506942749023
","x: 306.8629150390625
y: 391.5897216796875
z: -0.09682632982730865
visibility: 0.730503499507904
","x: 266.97918701171875
y: 406.5291748046875
z: -0.14520466327667236
visibility: 0.8543789982795715
","x: 304.6737976074219
y: 389.62884521484375
z: -0.11893763393163681
visibility: 0.7364550232887268
","x: 269.138427734375
y: 404.4170837402344
z: -0.17300434410572052
visibility: 0.8555780053138733
","x: 303.54376220703125
y: 385.2588195800781
z: -0.0875687375664711
visibility: 0.7067789435386658
","x: 269.3021240234375
y: 399.94073486328125
z: -0.13621412217617035
visibility: 0.8233188986778259
","x: 295.5238037109375
y: 399.5687561035156
z: 0.003633283544331789
visibility: 0.9994275569915771
","x: 277.80712890625
y: 400.60791015625
z: -0.00367259094491601
visibility: 0.9995165467262268
","x: 295.3316345214844
y: 458.47265625
z: 0.027297403663396835
visibility: 0.9811128973960876
","x: 278.6859436035156
y: 457.2523193359375
z: 0.03068307414650917
visibility: 0.9838719367980957
","x: 294.4734191894531
y: 510.2492980957031
z: 0.17789839208126068
visibility: 0.9726338982582092
","x: 274.42645263671875
y: 504.9300537109375
z: 0.19704672694206238
visibility: 0.9799569845199585
","x: 293.77423095703125
y: 512.3246459960938
z: 0.1877165287733078
