uscmakers/ReverseChoreography/data/7_power_little_mix.csv
,NOSE,LEFT_EYE_INNER,LEFT_EYE,LEFT_EYE_OUTER,RIGHT_EYE_INNER,RIGHT_EYE,RIGHT_EYE_OUTER,LEFT_EAR,RIGHT_EAR,MOUTH_LEFT,MOUTH_RIGHT,LEFT_SHOULDER,RIGHT_SHOULDER,LEFT_ELBOW,RIGHT_ELBOW,LEFT_WRIST,RIGHT_WRIST,LEFT_PINKY,RIGHT_PINKY,LEFT_INDEX,RIGHT_INDEX,LEFT_THUMB,RIGHT_THUMB,LEFT_HIP,RIGHT_HIP,LEFT_KNEE,RIGHT_KNEE,LEFT_ANKLE,RIGHT_ANKLE,LEFT_HEEL,RIGHT_HEEL,LEFT_FOOT_INDEX,RIGHT_FOOT_INDEX,WRIST,THUMB_CPC,THUMB_MCP,THUMB_IP,THUMB_TIP,INDEX_FINGER_MCP,INDEX_FINGER_PIP,INDEX_FINGER_DIP,INDEX_FINGER_TIP,MIDDLE_FINGER_MCP,MIDDLE_FINGER_PIP,MIDDLE_FINGER_DIP,MIDDLE_FINGER_TIP,RING_FINGER_PIP,RING_FINGER_DIP,RING_FINGER_TIP,RING_FINGER_MCP,PINKY_MCP,PINKY_PIP,PINKY_DIP,PINKY_TIP,WRIST2,THUMB_CPC2,THUMB_MCP2,THUMB_IP2,THUMB_TIP2,INDEX_FINGER_MCP2,INDEX_FINGER_PIP2,INDEX_FINGER_DIP2,INDEX_FINGER_TIP2,MIDDLE_FINGER_MCP2,MIDDLE_FINGER_PIP2,MIDDLE_FINGER_DIP2,MIDDLE_FINGER_TIP2,RING_FINGER_PIP2,RING_FINGER_DIP2,RING_FINGER_TIP2,RING_FINGER_MCP2,PINKY_MCP2,PINKY_PIP2,PINKY_DIP2,PINKY_TIP2
0,"x: 276.3572082519531
y: 300.02459716796875
z: -0.26265060901641846
visibility: 0.9998576641082764
","x: 277.2353820800781
y: 295.39532470703125
z: -0.2520836889743805
visibility: 0.9995620846748352
","x: 277.6028747558594
y: 295.51287841796875
z: -0.25213372707366943
visibility: 0.9994747042655945
","x: 278.15155029296875
y: 295.72821044921875
z: -0.25223174691200256
visibility: 0.9992352724075317
","x: 275.2084655761719
y: 294.93182373046875
z: -0.2549237012863159
visibility: 0.9996911287307739
","x: 274.0234375
y: 294.71826171875
z: -0.25491493940353394
visibility: 0.9996212720870972
","x: 273.2529602050781
y: 294.5382995605469
z: -0.2549537420272827
visibility: 0.9995744824409485
","x: 276.9408874511719
y: 298.1142883300781
z: -0.17733336985111237
visibility: 0.9990904331207275
","x: 270.4048156738281
y: 296.520263671875
z: -0.18949387967586517
visibility: 0.9997938275337219
","x: 276.0411682128906
y: 305.13507080078125
z: -0.23290836811065674
visibility: 0.9997631907463074
","x: 273.8338623046875
y: 304.94482421875
z: -0.2365385740995407
visibility: 0.999860405921936
","x: 284.7954406738281
y: 324.8323059082031
z: -0.1422964483499527
visibility: 0.999705970287323
","x: 257.0001220703125
y: 333.88739013671875
z: -0.12583178281784058
visibility: 0.9985054731369019
","x: 300.0860900878906
y: 308.5257263183594
z: -0.19344082474708557
visibility: 0.9444023966789246
","x: 253.62501525878906
y: 373.08111572265625
z: -0.10008807480335236
visibility: 0.6004737615585327
","x: 315.22723388671875
y: 285.3808898925781
z: -0.27386921644210815
visibility: 0.8303363919258118
","x: 254.93768310546875
y: 414.95343017578125
z: -0.136074498295784
visibility: 0.40508463978767395
","x: 319.8593444824219
y: 278.1912841796875
z: -0.3010622560977936
visibility: 0.7855532169342041
","x: 253.33714294433594
y: 427.74658203125
z: -0.14675778150558472
visibility: 0.3967054486274719
","x: 319.7254943847656
y: 278.61767578125
z: -0.3128759264945984
visibility: 0.777568519115448
","x: 255.3267059326172
y: 427.3045349121094
z: -0.16639076173305511
visibility: 0.3924539089202881
","x: 317.71563720703125
y: 282.447509765625
z: -0.28285419940948486
visibility: 0.7253899574279785
","x: 256.651611328125
y: 422.63128662109375
z: -0.14402541518211365
visibility: 0.3702697157859802
","x: 278.1600036621094
y: 409.6713562011719
z: -0.021857276558876038
visibility: 0.9999557733535767
","x: 261.43719482421875
y: 410.631103515625
z: 0.021822353824973106
visibility: 0.9996805191040039
","x: 269.96044921875
y: 462.09539794921875
z: -0.12055684626102448
visibility: 0.9917632341384888
","x: 256.2559814453125
y: 472.6061706542969
z: 0.016259951516985893
visibility: 0.8935494422912598
","x: 268.7578430175781
y: 519.0752563476562
z: 0.04995821788907051
visibility: 0.9885317087173462
","x: 271.9910888671875
y: 497.10809326171875
z: 0.28227198123931885
visibility: 0.8547489643096924
","x: 268.3848876953125
y: 524.3780517578125
z: 0.062419336289167404
visibility: 0.9352787733078003
","x: 275.7298583984375
y: 498.1737976074219
z: 0.30621421337127686
visibility: 0.861320436000824
","x: 266.95355224609375
y: 531.5952758789062
z: -0.025881055742502213
visibility: 0.9604832530021667
","x: 271.2309265136719
y: 515.510986328125
z: 0.2474711388349533
visibility: 0.792712926864624
",,,,,,,,,,,,,,,,,,,,,,,,,,,,,,,,,,,,,,,,,,
1,"x: 274.3122863769531
y: 293.552490234375
z: -0.23020383715629578
visibility: 0.9998717904090881
","x: 275.48529052734375
y: 289.9114685058594
z: -0.21253836154937744
visibility: 0.9996057152748108
","x: 276.4779052734375
y: 289.9629821777344
z: -0.212556391954422
visibility: 0.9995270371437073
","x: 277.4549255371094
y: 290.01800537109375
z: -0.21262547373771667
visibility: 0.9993115663528442
","x: 272.23089599609375
y: 290.2882995605469
z: -0.2075997292995453
visibility: 0.9997217655181885
","x: 271.10089111328125
y: 290.63067626953125
z: -0.2076810896396637
visibility: 0.9996587634086609
","x: 270.0161437988281
y: 291.0709533691406
z: -0.2076927125453949
visibility: 0.9996166825294495
","x: 277.69244384765625
y: 293.7540283203125
z: -0.12270096689462662
visibility: 0.9991811513900757
","x: 268.680908203125
y: 294.6734313964844
z: -0.10266916453838348
visibility: 0.9998138546943665
","x: 276.0144958496094
y: 299.84478759765625
z: -0.19799375534057617
visibility: 0.9997866749763489
","x: 272.4649353027344
y: 300.32635498046875
z: -0.19248460233211517
visibility: 0.999873697757721
","x: 288.13922119140625
y: 332.65020751953125
z: -0.0925414115190506
visibility: 0.9997225403785706
","x: 259.1039123535156
y: 324.04315185546875
z: -0.04923789203166962
visibility: 0.9986357688903809
","x: 292.7850646972656
y: 379.0596008300781
z: -0.1013265997171402
visibility: 0.9419122934341431
","x: 242.9927978515625
y: 298.5495910644531
z: -0.14531944692134857
visibility: 0.6391514539718628
","x: 296.2608642578125
y: 416.70159912109375
z: -0.14292065799236298
visibility: 0.8298900127410889
","x: 228.5900115966797
y: 271.900390625
z: -0.32787084579467773
visibility: 0.46347397565841675
","x: 298.7095031738281
y: 427.34814453125
z: -0.1563720703125
visibility: 0.7798149585723877
","x: 222.5946044921875
y: 266.4180908203125
z: -0.36287325620651245
visibility: 0.4546680450439453
","x: 298.0267333984375
y: 427.7010803222656
z: -0.17304767668247223
visibility: 0.7748806476593018
","x: 223.4384765625
y: 265.2645568847656
z: -0.3710162341594696
visibility: 0.4509141147136688
","x: 296.405029296875
y: 423.60064697265625
z: -0.1505117267370224
visibility: 0.7259737253189087
","x: 225.80638122558594
y: 267.9165954589844
z: -0.3387969732284546
visibility: 0.4310166537761688
","x: 281.3560485839844
y: 411.13287353515625
z: -0.021997233852744102
visibility: 0.9999568462371826
","x: 264.48370361328125
y: 410.6463623046875
z: 0.021943585947155952
visibility: 0.9997097253799438
","x: 275.63330078125
y: 465.5072326660156
z: -0.13382773101329803
visibility: 0.9885887503623962
","x: 256.456787109375
y: 466.4289855957031
z: -0.06004006788134575
visibility: 0.897158682346344
","x: 277.2231140136719
y: 521.1019287109375
z: -0.01114367600530386
visibility: 0.9869586825370789
","x: 276.1719665527344
y: 500.223876953125
z: 0.17971280217170715
visibility: 0.8465490341186523
","x: 277.7611083984375
y: 529.427490234375
z: -0.002479201415553689
visibility: 0.9287671446800232
","x: 280.4383544921875
y: 503.8083190917969
z: 0.20137710869312286
visibility: 0.8428366780281067
","x: 274.7886047363281
y: 536.4190063476562
z: -0.09003148972988129
visibility: 0.960805356502533
","x: 275.0762939453125
y: 524.5227661132812
z: 0.14611385762691498
visibility: 0.7916118502616882
",,,,,,,,,,,,,,,,,,,,,,,,,,,,,,,,,,,,,,,,,,
2,"x: 273.6379089355469
y: 275.240478515625
z: -0.2726891040802002
visibility: 0.9998838305473328
","x: 275.1497802734375
y: 269.2826232910156
z: -0.2602671682834625
visibility: 0.999640166759491
","x: 276.27880859375
y: 269.3231506347656
z: -0.26027947664260864
visibility: 0.9995695948600769
","x: 277.3408203125
y: 269.4228820800781
z: -0.2603013217449188
visibility: 0.9993752241134644
","x: 271.54498291015625
y: 269.89361572265625
z: -0.2574653923511505
visibility: 0.9997437000274658
","x: 270.353271484375
y: 270.29833984375
z: -0.25754472613334656
visibility: 0.9996867775917053
","x: 269.20294189453125
y: 270.75128173828125
z: -0.2575726807117462
visibility: 0.9996493458747864
","x: 278.3257751464844
y: 273.1312255859375
z: -0.1680922508239746
visibility: 0.9992561340332031
","x: 267.43310546875
y: 274.3105773925781
z: -0.1153506264090538
visibility: 0.9998273849487305
","x: 275.9541931152344
y: 281.79364013671875
z: -0.23740747570991516
visibility: 0.9998064637184143
","x: 271.7545166015625
y: 281.83123779296875
z: -0.2328253537416458
visibility: 0.9998847842216492
","x: 287.9795227050781
y: 311.72509765625
z: -0.10956767946481705
visibility: 0.9997492432594299
","x: 257.14544677734375
y: 301.0113220214844
z: -0.08424677699804306
visibility: 0.9987710118293762
","x: 295.2086486816406
y: 350.5184326171875
z: -0.11381342262029648
visibility: 0.9466206431388855
","x: 234.6070556640625
y: 318.207763671875
z: -0.08131825923919678
visibility: 0.6747980713844299
","x: 310.7065734863281
y: 372.8917236328125
z: -0.21308188140392303
visibility: 0.8448195457458496
","x: 216.50845336914062
y: 338.1828308105469
z: -0.19211077690124512
visibility: 0.5162402391433716
","x: 317.1426086425781
y: 376.50469970703125
z: -0.23570987582206726
visibility: 0.7978740334510803
","x: 210.1023406982422
y: 345.2659606933594
z: -0.23238691687583923
visibility: 0.5063996315002441
","x: 318.13116455078125
y: 373.6729736328125
z: -0.18550501763820648
visibility: 0.7941346764564514
","x: 210.27439880371094
y: 345.7483215332031
z: -0.3297383487224579
visibility: 0.5034652352333069
","x: 315.7649230957031
y: 372.9367370605469
z: -0.21540887653827667
visibility: 0.7493353486061096
","x: 212.8450927734375
y: 343.70263671875
z: -0.2207043170928955
visibility: 0.4855822026729584
","x: 278.9638671875
y: 393.5386962890625
z: -0.014755981974303722
visibility: 0.99994295835495
","x: 259.6036682128906
y: 389.2433166503906
z: 0.014749599620699883
visibility: 0.9997277855873108
","x: 278.5909118652344
y: 457.4591369628906
z: -0.12388249486684799
visibility: 0.9893500804901123
","x: 246.71104431152344
y: 444.9625244140625
z: -0.1572871059179306
visibility: 0.9072518348693848
","x: 284.95989990234375
y: 517.982666015625
z: 0.012341657653450966
visibility: 0.9880430102348328
","x: 248.80133056640625
y: 499.83697509765625
z: 0.012617459520697594
visibility: 0.8616449236869812
","x: 284.9598388671875
y: 524.5249633789062
z: 0.019520733505487442
visibility: 0.9218007326126099
","x: 253.71018981933594
y: 503.3508605957031
z: 0.023464569821953773
visibility: 0.855634868144989
","x: 286.8390197753906
y: 535.92626953125
z: -0.09598386287689209
visibility: 0.964086651802063
","x: 239.94154357910156
y: 523.5689697265625
z: -0.08066973835229874
visibility: 0.8120585680007935
",,,,,,,,,,,,,,,,,,,,,,,,,,,,,,,,,,,,,,,,,,
3,"x: 266.0013732910156
y: 279.623779296875
z: -0.19714534282684326
visibility: 0.9998952746391296
","x: 267.65985107421875
y: 274.8308410644531
z: -0.181105375289917
visibility: 0.9996755719184875
","x: 268.94140625
y: 274.9538269042969
z: -0.1811441034078598
visibility: 0.9996121525764465
","x: 270.2911071777344
y: 275.1730041503906
z: -0.18117406964302063
visibility: 0.9994370341300964
","x: 264.4488220214844
y: 275.0150451660156
z: -0.18131200969219208
visibility: 0.9997685551643372
","x: 263.3409729003906
y: 275.21240234375
z: -0.18129892647266388
visibility: 0.9997173547744751
","x: 262.1379699707031
y: 275.4736633300781
z: -0.18129591643810272
visibility: 0.999683141708374
","x: 273.14141845703125
y: 279.7322998046875
z: -0.0868426188826561
visibility: 0.999329149723053
","x: 260.79449462890625
y: 279.5941467285156
z: -0.08787901699542999
visibility: 0.9998434782028198
","x: 268.23223876953125
y: 286.3178405761719
z: -0.16246244311332703
visibility: 0.9998252987861633
","x: 264.53790283203125
y: 286.3018493652344
z: -0.16338449716567993
visibility: 0.9998957514762878
","x: 281.86468505859375
y: 316.0302429199219
z: -0.03040599450469017
visibility: 0.9997731447219849
","x: 250.56295776367188
y: 307.9205627441406
z: -0.040359996259212494
visibility: 0.9988894462585449
","x: 292.1880798339844
y: 353.27886962890625
z: -0.10092686116695404
visibility: 0.9501631855964661
","x: 240.19369506835938
y: 333.2614440917969
z: -0.07039715349674225
visibility: 0.6844133734703064
","x: 308.34771728515625
y: 342.9211730957031
z: -0.25183460116386414
visibility: 0.8594313859939575
","x: 225.2679443359375
y: 374.8584289550781
z: -0.18925577402114868
visibility: 0.5316674113273621
","x: 313.7681884765625
y: 346.8717956542969
z: -0.28679534792900085
visibility: 0.8160193562507629
","x: 221.28199768066406
y: 388.5380859375
z: -0.2156078815460205
visibility: 0.5169055461883545
","x: 313.521240234375
y: 349.2471618652344
z: -0.2876438498497009
visibility: 0.8128509521484375
","x: 226.13250732421875
y: 390.6402893066406
z: -0.2465299814939499
visibility: 0.5158437490463257
","x: 311.1255187988281
y: 350.5509948730469
z: -0.2600172162055969
visibility: 0.7716359496116638
","x: 229.6878204345703
y: 386.0890197753906
z: -0.20342060923576355
visibility: 0.496234267950058
","x: 273.8612060546875
y: 398.617919921875
z: 0.00025245887809433043
visibility: 0.9999436140060425
","x: 254.2499237060547
y: 396.30291748046875
z: -0.00025187511346302927
visibility: 0.9997516870498657
","x: 279.7923583984375
y: 459.76666259765625
z: 0.023417530581355095
visibility: 0.9898809194564819
","x: 235.6774139404297
y: 452.7751159667969
z: -0.08096323162317276
visibility: 0.9164157509803772
","x: 287.23931884765625
y: 517.2696533203125
z: 0.18559964001178741
visibility: 0.9887075424194336
","x: 219.7126007080078
y: 505.203857421875
z: 0.028577303513884544
visibility: 0.8753130435943604
","x: 285.6915283203125
y: 523.9220581054688
z: 0.19593054056167603
visibility: 0.920117199420929
","x: 220.01487731933594
y: 511.3719482421875
z: 0.03348540887236595
visibility: 0.8628427386283875
","x: 290.9642028808594
y: 535.9618530273438
z: 0.10514382272958755
visibility: 0.9664945006370544
","x: 214.5684051513672
y: 527.2305908203125
z: -0.06679581850767136
visibility: 0.8304368853569031
",,,,,,,,,,,,,,,,,,,,,,,,,,,,,,,,,,,,,,,,,,
4,"x: 251.9546661376953
y: 279.8419189453125
z: -0.21781420707702637
visibility: 0.9999046921730042
","x: 253.27606201171875
y: 276.9024963378906
z: -0.20495450496673584
visibility: 0.9997050166130066
","x: 254.4088592529297
y: 277.68487548828125
z: -0.20497384667396545
visibility: 0.9996479749679565
","x: 255.517333984375
y: 278.48870849609375
z: -0.2049914300441742
visibility: 0.9994897246360779
","x: 250.216796875
y: 276.5338134765625
z: -0.20337840914726257
visibility: 0.9997891187667847
","x: 249.19180297851562
y: 277.83721923828125
z: -0.2033936083316803
visibility: 0.9997431039810181
","x: 248.0921173095703
y: 278.8876953125
z: -0.2033941000699997
visibility: 0.9997122287750244
","x: 258.2287902832031
y: 283.18096923828125
z: -0.11992685496807098
visibility: 0.9993898272514343
","x: 247.40982055664062
y: 281.0720520019531
z: -0.11104917526245117
visibility: 0.9998573660850525
","x: 254.55628967285156
y: 287.7621154785156
z: -0.1859346479177475
visibility: 0.9998416304588318
","x: 250.5809783935547
y: 288.4853820800781
z: -0.18366999924182892
visibility: 0.999905526638031
","x: 271.0876770019531
y: 317.9157409667969
z: -0.07191216945648193
visibility: 0.9997897148132324
","x: 237.7222137451172
y: 312.7993469238281
z: -0.06167672201991081
visibility: 0.9989994168281555
","x: 284.7657165527344
y: 344.77484130859375
z: -0.1882772296667099
visibility: 0.9534300565719604
","x: 224.89962768554688
y: 340.20587158203125
z: -0.11873902380466461
visibility: 0.7156357169151306
","x: 288.5439453125
y: 337.29931640625
z: -0.40080738067626953
visibility: 0.8697811365127563
","x: 228.95901489257812
y: 374.809814453125
z: -0.26895084977149963
visibility: 0.5773903727531433
","x: 290.4563293457031
y: 338.121337890625
z: -0.446032851934433
visibility: 0.8279848694801331
","x: 228.74649047851562
y: 387.30206298828125
z: -0.3029671907424927
visibility: 0.5623477101325989
","x: 287.6152038574219
y: 335.8546142578125
z: -0.4522700309753418
visibility: 0.8254490494728088
","x: 232.0831298828125
y: 386.161865234375
z: -0.3122060298919678
visibility: 0.5613417029380798
","x: 285.9320983886719
y: 336.6566162109375
z: -0.40953129529953003
visibility: 0.7858930826187134
","x: 233.03199768066406
y: 382.0985412597656
z: -0.2757107615470886
visibility: 0.5426154136657715
","x: 263.1988830566406
y: 404.1587829589844
z: -0.0016982837114483118
visibility: 0.9999385476112366
","x: 243.66590881347656
y: 400.6219177246094
z: 0.001635130262002349
visibility: 0.9997684359550476
","x: 278.91766357421875
y: 463.21795654296875
z: -0.01611623913049698
visibility: 0.9904633164405823
","x: 228.2282257080078
y: 455.83758544921875
z: -0.055115699768066406
visibility: 0.9246221780776978
","x: 287.6070556640625
y: 518.2145385742188
z: 0.11004169285297394
visibility: 0.9894049763679504
","x: 217.44967651367188
y: 513.5973510742188
z: 0.0901644378900528
visibility: 0.8874191641807556
","x: 286.38775634765625
y: 525.410400390625
z: 0.1171770691871643
visibility: 0.9208133816719055
","x: 217.47015380859375
y: 520.2486572265625
z: 0.09863333404064178
visibility: 0.8677403926849365
","x: 291.82098388671875
y: 535.8117065429688
z: 0.01858418807387352
visibility: 0.9686576128005981
","x: 212.24575805664062
y: 531.3892822265625
z: -0.0037661436945199966
visibility: 0.8464429378509521
",,,,,,,,,,,,,,,,,,,,,,,,,,,,,,,,,,,,,,,,,,
5,"x: 246.26162719726562
y: 293.0082092285156
z: -0.20603041350841522
visibility: 0.9998907446861267
","x: 247.44921875
y: 288.04083251953125
z: -0.1922946572303772
visibility: 0.9996618032455444
","x: 248.5832061767578
y: 288.1011047363281
z: -0.1923275887966156
visibility: 0.9996026754379272
","x: 249.70750427246094
y: 288.2384948730469
z: -0.19236373901367188
visibility: 0.999453067779541
","x: 244.09478759765625
y: 289.2342529296875
z: -0.19465026259422302
visibility: 0.9997521042823792
","x: 242.85218811035156
y: 290.31390380859375
z: -0.1946861296892166
visibility: 0.9997095465660095
","x: 241.72059631347656
y: 291.36541748046875
z: -0.19472314417362213
visibility: 0.9996929168701172
","x: 251.5414276123047
y: 291.8430480957031
z: -0.10569056123495102
visibility: 0.9992035627365112
","x: 240.32589721679688
y: 295.2994079589844
z: -0.11505454778671265
visibility: 0.9998136162757874
","x: 248.77561950683594
y: 298.3151550292969
z: -0.17283204197883606
visibility: 0.9997685551643372
","x: 244.63502502441406
y: 300.528076171875
z: -0.17576804757118225
visibility: 0.9998713135719299
","x: 261.6103515625
y: 320.1768493652344
z: -0.03868203982710838
visibility: 0.9996545314788818
","x: 232.8163604736328
y: 326.96185302734375
z: -0.0632721483707428
visibility: 0.9990816116333008
","x: 262.707763671875
y: 359.9803161621094
z: 0.007566311862319708
visibility: 0.9049179553985596
","x: 219.03515625
y: 356.18768310546875
z: -0.05408294126391411
visibility: 0.7424392104148865
","x: 262.5931396484375
y: 387.7129821777344
z: -0.04393736273050308
visibility: 0.807178258895874
","x: 228.63357543945312
y: 379.248046875
z: -0.11547114700078964
visibility: 0.6106123924255371
","x: 263.8668212890625
y: 395.6425476074219
z: -0.05945993587374687
visibility: 0.7663036584854126
","x: 229.9110870361328
y: 389.05999755859375
z: -0.13773725926876068
visibility: 0.5870770812034607
","x: 263.5502624511719
y: 395.4985046386719
z: -0.0793105810880661
visibility: 0.764869749546051
","x: 232.9724884033203
y: 386.63201904296875
z: -0.14889554679393768
visibility: 0.5858777165412903
","x: 262.2631530761719
y: 392.2700500488281
z: -0.05365360900759697
visibility: 0.7272489666938782
","x: 232.74270629882812
y: 382.1744384765625
z: -0.1207575649023056
visibility: 0.5657873749732971
","x: 257.2498474121094
y: 409.614013671875
z: 0.001805590116418898
visibility: 0.9998520612716675
","x: 238.07032775878906
y: 408.10601806640625
z: -0.0018160039326176047
visibility: 0.9997519850730896
","x: 277.6338806152344
y: 463.57647705078125
z: -0.044691938906908035
visibility: 0.991032600402832
","x: 224.84474182128906
y: 458.5394592285156
z: -0.09287898987531662
visibility: 0.9320216774940491
","x: 286.1724548339844
y: 519.3773193359375
z: 0.1030740961432457
visibility: 0.9901993870735168
","x: 217.36582946777344
y: 515.9173583984375
z: 0.04292931407690048
visibility: 0.8985195159912109
","x: 284.43231201171875
y: 528.14501953125
z: 0.09380970150232315
visibility: 0.9243860244750977
","x: 218.4117431640625
y: 523.2775268554688
z: 0.05188588425517082
visibility: 0.877056360244751
","x: 295.2161560058594
y: 536.0625610351562
z: -0.006865809205919504
visibility: 0.9708967804908752
","x: 212.2122802734375
y: 532.5635986328125
z: -0.045839376747608185
visibility: 0.8612497448921204
",,,,,,,,,,,,,,,,,,,,,,,,,,,,,,,,,,,,,,,,,,
6,"x: 247.57261657714844
y: 294.83209228515625
z: -0.19123123586177826
visibility: 0.9998980164527893
","x: 248.08396911621094
y: 290.47137451171875
z: -0.17530043423175812
visibility: 0.999683678150177
","x: 249.13221740722656
y: 290.33099365234375
z: -0.17531786859035492
visibility: 0.9996284246444702
","x: 250.2678985595703
y: 290.16925048828125
z: -0.17533984780311584
visibility: 0.9994880557060242
","x: 245.32928466796875
y: 291.78546142578125
z: -0.17417168617248535
visibility: 0.9997693300247192
","x: 244.32852172851562
y: 292.71441650390625
z: -0.17419205605983734
visibility: 0.9997318387031555
","x: 243.247314453125
y: 293.57861328125
z: -0.17422102391719818
visibility: 0.9997171759605408
","x: 252.81617736816406
y: 293.8008728027344
z: -0.08851483464241028
visibility: 0.9992351531982422
","x: 241.63558959960938
y: 298.11590576171875
z: -0.08204986155033112
visibility: 0.9998248815536499
","x: 250.2152862548828
y: 299.61163330078125
z: -0.1597302258014679
visibility: 0.9997707009315491
","x: 246.30465698242188
y: 301.45001220703125
z: -0.15807224810123444
visibility: 0.999875545501709
","x: 263.7423095703125
y: 322.20159912109375
z: -0.03196696564555168
visibility: 0.9995850324630737
","x: 234.50091552734375
y: 329.13720703125
z: -0.04489509016275406
visibility: 0.9991616606712341
","x: 270.5697326660156
y: 349.4146423339844
z: -0.022452669218182564
visibility: 0.877987265586853
","x: 222.81146240234375
y: 364.52093505859375
z: -0.06583449244499207
visibility: 0.7655215263366699
","x: 275.0870666503906
y: 374.81561279296875
z: -0.08730371296405792
visibility: 0.7795494794845581
","x: 229.57044982910156
y: 379.066650390625
z: -0.15203453600406647
visibility: 0.6423236727714539
","x: 277.46722412109375
y: 378.1088562011719
z: -0.10603393614292145
visibility: 0.7360787391662598
","x: 230.860107421875
y: 391.47662353515625
z: -0.1748165488243103
visibility: 0.6138916015625
","x: 276.60357666015625
y: 368.9770202636719
z: -0.12109231948852539
visibility: 0.7360448837280273
","x: 233.61859130859375
y: 386.1663818359375
z: -0.18811029195785522
visibility: 0.6126227974891663
","x: 275.53076171875
y: 366.3352966308594
z: -0.09601987153291702
visibility: 0.6995725631713867
","x: 233.46392822265625
y: 382.6420593261719
z: -0.15903300046920776
visibility: 0.5912671089172363
","x: 258.69256591796875
y: 411.8564453125
z: 0.0029197423718869686
visibility: 0.9998560547828674
","x: 239.91091918945312
y: 410.2720947265625
z: -0.002972251735627651
visibility: 0.9997692704200745
","x: 277.82330322265625
y: 463.9070129394531
z: -0.02698851004242897
visibility: 0.9915512800216675
","x: 227.16357421875
y: 460.7542419433594
z: -0.07171349227428436
visibility: 0.9386932253837585
","x: 285.3310241699219
y: 519.3770141601562
z: 0.11303993314504623
visibility: 0.9909141659736633
","x: 218.08840942382812
y: 513.359130859375
z: 0.09031115472316742
visibility: 0.9084947109222412
","x: 282.817626953125
y: 527.88037109375
z: 0.1196771040558815
visibility: 0.9283913373947144
","x: 218.98558044433594
y: 520.0069580078125
z: 0.10069543123245239
visibility: 0.8848512768745422
","x: 293.9043884277344
y: 535.930419921875
z: 0.027951758354902267
visibility: 0.9730981588363647
","x: 214.01341247558594
y: 530.9400024414062
z: 0.012976288795471191
visibility: 0.874653697013855
",,,,,,,,,,,,,,,,,,,,,,,,,,,,,,,,,,,,,,,,,,
7,"x: 253.32766723632812
y: 288.33892822265625
z: -0.20496556162834167
visibility: 0.9999071359634399
","x: 254.8715362548828
y: 285.1770324707031
z: -0.18948104977607727
visibility: 0.9997124075889587
","x: 255.8992156982422
y: 285.84100341796875
z: -0.18951532244682312
visibility: 0.9996622204780579
","x: 256.9873352050781
y: 286.48699951171875
z: -0.18954625725746155
visibility: 0.9995355606079102
","x: 252.06053161621094
y: 284.1211242675781
z: -0.18983355164527893
visibility: 0.9997895956039429
","x: 250.99717712402344
y: 284.0234069824219
z: -0.18985052406787872
visibility: 0.999755322933197
","x: 249.9281005859375
y: 283.8647766113281
z: -0.1898776888847351
visibility: 0.9997419118881226
","x: 258.87530517578125
y: 291.9350891113281
z: -0.09860976785421371
visibility: 0.999301552772522
","x: 247.7664794921875
y: 287.92822265625
z: -0.10202324390411377
visibility: 0.9998393654823303
","x: 254.9672088623047
y: 294.8611755371094
z: -0.17149171233177185
visibility: 0.9997917413711548
","x: 251.0304718017578
y: 294.34625244140625
z: -0.17255768179893494
visibility: 0.9998870491981506
","x: 267.54852294921875
y: 320.5069580078125
z: -0.05533194541931152
visibility: 0.9996212124824524
","x: 235.37005615234375
y: 320.30517578125
z: -0.040014296770095825
visibility: 0.9992430806159973
","x: 275.574951171875
y: 359.7437744140625
z: -0.13759325444698334
visibility: 0.8891541361808777
","x: 226.91424560546875
y: 364.29888916015625
z: -0.07295738160610199
visibility: 0.7838966250419617
","x: 274.90673828125
y: 353.6404724121094
z: -0.31636661291122437
visibility: 0.8011153936386108
","x: 231.7240447998047
y: 374.6167297363281
z: -0.21266961097717285
visibility: 0.6731410026550293
","x: 275.2657165527344
y: 359.9619140625
z: -0.35558947920799255
visibility: 0.7614458203315735
","x: 232.34652709960938
y: 385.29730224609375
z: -0.24455420672893524
visibility: 0.644366443157196
","x: 274.7593078613281
y: 354.9607849121094
z: -0.3567292392253876
visibility: 0.7614230513572693
","x: 234.59417724609375
y: 380.2976989746094
z: -0.2563122510910034
visibility: 0.6433517932891846
","x: 273.876220703125
y: 358.5206604003906
z: -0.3208891451358795
visibility: 0.7276139259338379
","x: 235.15476989746094
y: 376.587158203125
z: -0.22041749954223633
visibility: 0.6217909455299377
","x: 262.70501708984375
y: 407.4556884765625
z: -0.0006286689313128591
visibility: 0.9998584985733032
","x: 242.76483154296875
y: 405.1922302246094
z: 0.0005667970981448889
visibility: 0.9997895359992981
","x: 277.48046875
y: 462.3619079589844
z: -0.037566445767879486
visibility: 0.9921298623085022
","x: 227.46096801757812
y: 453.0885009765625
z: -0.152690589427948
visibility: 0.9447456002235413
","x: 286.22210693359375
y: 519.42822265625
z: 0.10580208152532578
visibility: 0.9915848970413208
","x: 224.7534942626953
y: 508.5965576171875
z: -0.0009949245722964406
visibility: 0.9175628423690796
","x: 284.3787841796875
y: 528.0786743164062
z: 0.11376158148050308
visibility: 0.9315160512924194
","x: 227.77435302734375
y: 518.823486328125
z: 0.00867129024118185
visibility: 0.8948865532875061
","x: 292.36407470703125
y: 535.03564453125
z: 0.017422378063201904
visibility: 0.9751771092414856
","x: 215.17185974121094
y: 528.8572387695312
z: -0.08851548284292221
visibility: 0.8869713544845581
",,,,,,,,,,,,,,,,,,,,,,,,,,,,,,,,,,,,,,,,,,
8,"x: 255.6671905517578
y: 288.66815185546875
z: -0.16731446981430054
visibility: 0.9999158978462219
","x: 257.1257629394531
y: 285.39080810546875
z: -0.15326543152332306
visibility: 0.9997381567955017
","x: 258.0627136230469
y: 285.9698791503906
z: -0.15328145027160645
visibility: 0.9996931552886963
","x: 259.0250244140625
y: 286.5455322265625
z: -0.15326961874961853
visibility: 0.9995787739753723
","x: 254.389404296875
y: 284.34344482421875
z: -0.15166714787483215
visibility: 0.9998077750205994
","x: 253.35479736328125
y: 284.14910888671875
z: -0.1516517549753189
visibility: 0.9997763633728027
","x: 252.34027099609375
y: 283.9222106933594
z: -0.15166887640953064
visibility: 0.999764084815979
","x: 260.3664855957031
y: 291.65234375
z: -0.07509447634220123
visibility: 0.9993624687194824
","x: 250.38485717773438
y: 287.584716796875
z: -0.06843380630016327
visibility: 0.9998529553413391
","x: 257.1808166503906
y: 295.0350646972656
z: -0.13845643401145935
visibility: 0.9998111128807068
","x: 253.65194702148438
y: 294.48895263671875
z: -0.13678884506225586
visibility: 0.9998975396156311
","x: 267.76556396484375
y: 320.56451416015625
z: -0.057659875601530075
visibility: 0.9996578097343445
","x: 237.02182006835938
y: 315.55963134765625
z: -0.01264459639787674
visibility: 0.9993178844451904
","x: 276.8639831542969
y: 345.2603454589844
z: -0.1759573519229889
visibility: 0.8996634483337402
","x: 225.75379943847656
y: 347.62152099609375
z: 0.016814718022942543
visibility: 0.8049612641334534
","x: 282.08935546875
y: 325.55548095703125
z: -0.37524348497390747
visibility: 0.8207764625549316
","x: 232.70681762695312
y: 372.17486572265625
z: 0.0009499324369244277
visibility: 0.7048448324203491
","x: 284.0734558105469
y: 323.47186279296875
z: -0.4138680100440979
visibility: 0.7848123908042908
","x: 233.22999572753906
y: 383.02984619140625
z: -0.00935059878975153
visibility: 0.6768457293510437
","x: 281.28045654296875
y: 319.0082092285156
z: -0.42371731996536255
visibility: 0.7848299145698547
","x: 235.26011657714844
y: 380.6895751953125
z: -0.01971336081624031
visibility: 0.6760440468788147
","x: 277.9398498535156
y: 320.833740234375
z: -0.38492292165756226
visibility: 0.7540705800056458
","x: 236.1553192138672
y: 376.7352600097656
z: -0.003198464633896947
visibility: 0.6558377146720886
","x: 263.1930236816406
y: 404.97247314453125
z: -0.00781734474003315
visibility: 0.9998703598976135
","x: 243.1466064453125
y: 402.1861267089844
z: 0.007718713488429785
visibility: 0.9998100399971008
","x: 273.9632568359375
y: 462.055419921875
z: -0.01652717962861061
visibility: 0.9917770624160767
","x: 225.51315307617188
y: 446.9931640625
z: -0.13352367281913757
visibility: 0.9502043128013611
","x: 285.9755554199219
y: 518.6565551757812
z: 0.14551962912082672
visibility: 0.9917479753494263
","x: 225.7788543701172
y: 498.6983642578125
z: 0.024676790460944176
visibility: 0.9256542325019836
","x: 283.1501770019531
y: 528.0518798828125
z: 0.15647414326667786
visibility: 0.9296894669532776
","x: 229.51268005371094
y: 508.30670166015625
z: 0.03576650097966194
visibility: 0.9034834504127502
","x: 291.2811584472656
y: 535.001953125
z: 0.06235222890973091
visibility: 0.976543664932251
","x: 216.533203125
y: 521.2636108398438
z: -0.05079013109207153
visibility: 0.8980294466018677
",,,,,,,,,,,,,,,,,,,,,,,,,,,,,,,,,,,,,,,,,,
9,"x: 250.08413696289062
y: 294.0091857910156
z: -0.19410330057144165
visibility: 0.9999228715896606
","x: 252.26760864257812
y: 290.347900390625
z: -0.1801547110080719
visibility: 0.9997590184211731
","x: 253.49412536621094
y: 291.12939453125
z: -0.1801876276731491
visibility: 0.999718427658081
","x: 254.73760986328125
y: 291.9184265136719
z: -0.18021537363529205
visibility: 0.9996126890182495
","x: 249.07504272460938
y: 289.2080383300781
z: -0.1798379123210907
visibility: 0.9998229146003723
","x: 248.03709411621094
y: 289.2557678222656
z: -0.1798427700996399
visibility: 0.9997950196266174
","x: 246.96539306640625
y: 289.330078125
z: -0.1798655092716217
visibility: 0.9997840523719788
","x: 256.9568786621094
y: 297.955810546875
z: -0.09579203277826309
visibility: 0.9994116425514221
","x: 245.56764221191406
y: 295.5298767089844
z: -0.09608927369117737
visibility: 0.9998664855957031
","x: 252.5278778076172
y: 301.5411071777344
z: -0.16298942267894745
visibility: 0.9998281002044678
","x: 248.09080505371094
y: 300.8847351074219
z: -0.16297130286693573
visibility: 0.9999072551727295
","x: 267.29437255859375
y: 328.1419372558594
z: -0.06153779476881027
visibility: 0.9996758699417114
","x: 233.0756072998047
y: 326.4579772949219
z: -0.030385097488760948
visibility: 0.9993852376937866
","x: 277.35174560546875
y: 355.97344970703125
z: -0.16019617021083832
visibility: 0.9074018597602844
","x: 214.2075653076172
y: 353.61810302734375
z: -0.027176927775144577
visibility: 0.8242658376693726
","x: 280.919189453125
y: 323.5589294433594
z: -0.33264172077178955
visibility: 0.8344510793685913
","x: 226.02474975585938
y: 384.28509521484375
z: -0.10284779965877533
visibility: 0.7328339219093323
","x: 281.3111572265625
y: 314.7692565917969
z: -0.3668709695339203
visibility: 0.7972710728645325
","x: 227.93646240234375
y: 395.7585144042969
z: -0.12737829983234406
visibility: 0.7036588788032532
","x: 280.6763610839844
y: 310.29974365234375
z: -0.36484748125076294
visibility: 0.7970482707023621
","x: 230.92552185058594
y: 393.4485168457031
z: -0.14343369007110596
visibility: 0.7026689648628235
","x: 278.3350830078125
y: 316.769775390625
z: -0.3369376063346863
visibility: 0.7655272483825684
","x: 230.96585083007812
y: 389.7179870605469
z: -0.11580567061901093
visibility: 0.6826989650726318
","x: 259.5102844238281
y: 415.57489013671875
z: 0.0002861051179934293
visibility: 0.9998740553855896
","x: 238.94436645507812
y: 413.46185302734375
z: -0.0004132716858293861
visibility: 0.9998232126235962
","x: 276.5417785644531
y: 466.33673095703125
z: -0.06672497093677521
visibility: 0.9922932386398315
","x: 223.48406982421875
y: 468.7276916503906
z: -0.10025477409362793
visibility: 0.9550910592079163
","x: 284.76483154296875
y: 518.6077270507812
z: 0.11890242993831635
visibility: 0.9922528266906738
","x: 214.35360717773438
y: 511.2958068847656
z: 0.0732826516032219
visibility: 0.9328815937042236
","x: 282.8296813964844
y: 527.7034912109375
z: 0.13168570399284363
visibility: 0.9332691431045532
","x: 215.15272521972656
y: 517.96240234375
z: 0.0925079956650734
visibility: 0.9086902141571045
","x: 292.3409423828125
y: 535.1996459960938
z: 0.04013422131538391
visibility: 0.9780034422874451
","x: 209.63616943359375
y: 527.7778930664062
z: -0.041162606328725815
visibility: 0.9076180458068848
",,,,,,,,,,,,,,,,,,,,,,,,,,,,,,,,,,,,,,,,,,
10,"x: 246.41839599609375
y: 313.81512451171875
z: -0.19848522543907166
visibility: 0.9999294877052307
","x: 248.81675720214844
y: 309.0900573730469
z: -0.1872381567955017
visibility: 0.9997798204421997
","x: 250.22581481933594
y: 309.3710632324219
z: -0.1872946321964264
visibility: 0.9997425675392151
","x: 251.69020080566406
y: 309.7140808105469
z: -0.1873347908258438
visibility: 0.9996464848518372
","x: 245.29786682128906
y: 309.0257873535156
z: -0.18737268447875977
visibility: 0.9998378753662109
","x: 244.28744506835938
y: 309.19451904296875
z: -0.1873546838760376
visibility: 0.99981290102005
","x: 243.3258819580078
y: 309.3999938964844
z: -0.18739017844200134
visibility: 0.9998033046722412
","x: 254.5222625732422
y: 314.3188171386719
z: -0.10414339601993561
visibility: 0.9994633197784424
","x: 242.4390869140625
y: 313.76507568359375
z: -0.10359355062246323
visibility: 0.9998783469200134
","x: 248.6446990966797
y: 320.2815246582031
z: -0.1657065451145172
visibility: 0.9998437762260437
","x: 244.63717651367188
y: 320.5603332519531
z: -0.16848571598529816
visibility: 0.999915599822998
","x: 265.121337890625
y: 342.2839050292969
z: -0.07990322262048721
visibility: 0.999690592288971
","x: 231.27415466308594
y: 345.56390380859375
z: -0.07591776549816132
visibility: 0.9994451999664307
","x: 277.47064208984375
y: 351.9796447753906
z: -0.21208146214485168
visibility: 0.9142997860908508
","x: 212.9413604736328
y: 367.8211975097656
z: -0.17147275805473328
visibility: 0.841576337814331
","x: 270.375732421875
y: 338.4476318359375
z: -0.3777727782726288
visibility: 0.841408371925354
","x: 220.21092224121094
y: 391.926513671875
z: -0.2992885112762451
visibility: 0.7577059864997864
","x: 268.9810791015625
y: 337.0538635253906
z: -0.41831135749816895
visibility: 0.7988252639770508
","x: 222.87704467773438
y: 403.74462890625
z: -0.3326861262321472
visibility: 0.7284805178642273
","x: 266.3898010253906
y: 337.0468444824219
z: -0.4114759564399719
visibility: 0.7985543608665466
","x: 226.32102966308594
y: 401.6905517578125
z: -0.3335290849208832
visibility: 0.7274028658866882
","x: 266.6441955566406
y: 339.6363525390625
z: -0.3810671865940094
visibility: 0.7660073637962341
","x: 225.84317016601562
y: 397.19122314453125
z: -0.3033464252948761
visibility: 0.7079265117645264
","x: 258.36212158203125
y: 427.72528076171875
z: 0.0029738363809883595
visibility: 0.9998831748962402
","x: 237.8832550048828
y: 427.0321960449219
z: -0.0031595404725521803
visibility: 0.9998370409011841
","x: 278.40887451171875
y: 470.4473571777344
z: -0.1535966694355011
visibility: 0.9925143718719482
","x: 216.6943817138672
y: 475.3643493652344
z: -0.14044173061847687
visibility: 0.9592903256416321
","x: 284.396484375
y: 518.6826171875
z: 0.056215010583400726
visibility: 0.9919695854187012
","x: 210.27622985839844
y: 511.4175109863281
z: 0.08111230283975601
visibility: 0.9383630156517029
","x: 282.6299743652344
y: 527.6260986328125
z: 0.07345996797084808
visibility: 0.9326494336128235
","x: 211.30540466308594
y: 516.897705078125
z: 0.09964708983898163
visibility: 0.9033915400505066
","x: 293.525146484375
y: 535.9802856445312
z: -0.008441125974059105
visibility: 0.9778501987457275
","x: 208.133544921875
y: 529.0619506835938
z: -0.0023483627010136843
visibility: 0.9137161374092102
",,,,,,,,,,,,,,,,,,,,,,,,,,,,,,,,,,,,,,,,,,
11,"x: 251.26416015625
y: 306.3944396972656
z: -0.267438679933548
visibility: 0.9999088048934937
","x: 253.40394592285156
y: 301.8655090332031
z: -0.25721579790115356
visibility: 0.9997114539146423
","x: 254.862548828125
y: 302.1231994628906
z: -0.25722986459732056
visibility: 0.9996592998504639
","x: 256.20550537109375
y: 302.4376220703125
z: -0.2572691738605499
visibility: 0.9995704293251038
","x: 249.99835205078125
y: 301.8223876953125
z: -0.2508231997489929
visibility: 0.9997743368148804
","x: 249.17730712890625
y: 302.0162658691406
z: -0.25087031722068787
visibility: 0.9997599124908447
","x: 248.1887664794922
y: 302.25701904296875
z: -0.2509046196937561
visibility: 0.9997654557228088
","x: 260.11614990234375
y: 306.8203430175781
z: -0.1852298378944397
visibility: 0.9993338584899902
","x: 248.32835388183594
y: 306.3287048339844
z: -0.1527707576751709
visibility: 0.9997851848602295
","x: 254.1172637939453
y: 312.631103515625
z: -0.23976004123687744
visibility: 0.9998410940170288
","x: 250.00076293945312
y: 312.9477844238281
z: -0.23049704730510712
visibility: 0.9999061822891235
","x: 274.3497619628906
y: 339.69073486328125
z: -0.1592765748500824
visibility: 0.9997092485427856
","x: 238.8639678955078
y: 339.21014404296875
z: -0.08439293503761292
visibility: 0.999495267868042
","x: 286.9321594238281
y: 334.57049560546875
z: -0.2706310749053955
visibility: 0.9187793135643005
","x: 229.31304931640625
y: 372.8184509277344
z: -0.157213032245636
visibility: 0.8541170358657837
","x: 277.6456298828125
y: 352.3995666503906
z: -0.43320232629776
visibility: 0.8338907957077026
","x: 230.6172637939453
y: 406.009521484375
z: -0.2155432254076004
visibility: 0.7752568125724792
","x: 276.6774597167969
y: 363.0887451171875
z: -0.4772440791130066
visibility: 0.7843331694602966
","x: 231.3360595703125
y: 419.5364685058594
z: -0.2357662469148636
visibility: 0.7447360754013062
","x: 273.8427429199219
y: 361.48931884765625
z: -0.4790290296077728
visibility: 0.7836577296257019
","x: 235.16156005859375
y: 416.27923583984375
z: -0.24415433406829834
visibility: 0.7439735531806946
","x: 273.8217468261719
y: 357.2560119628906
z: -0.4386409819126129
visibility: 0.7470393776893616
","x: 235.82606506347656
y: 411.6670227050781
z: -0.21803505718708038
visibility: 0.7239413857460022
","x: 270.7400207519531
y: 422.06103515625
z: -0.013246278278529644
visibility: 0.999890148639679
","x: 250.44512939453125
y: 421.3354187011719
z: 0.013064295053482056
visibility: 0.9998469948768616
","x: 281.76751708984375
y: 471.8349609375
z: -0.10450510680675507
visibility: 0.9901944994926453
","x: 233.42987060546875
y: 473.01513671875
z: -0.022858984768390656
visibility: 0.9613876938819885
","x: 284.8891296386719
y: 509.2721252441406
z: 0.16288168728351593
visibility: 0.9853858351707458
","x: 217.92965698242188
y: 512.492919921875
z: 0.18635493516921997
visibility: 0.9426828026771545
","x: 284.00164794921875
y: 513.9069213867188
z: 0.18552617728710175
visibility: 0.8988704681396484
","x: 219.02911376953125
y: 518.9041748046875
z: 0.20348207652568817
visibility: 0.8963960409164429
","x: 292.4567565917969
y: 532.2435302734375
z: 0.09931888431310654
visibility: 0.9680850505828857
","x: 209.43983459472656
y: 529.0665283203125
z: 0.11160890012979507
visibility: 0.9193130731582642
",,,,,,,,,,,,,,,,,,,,,,,,,,,,,,,,,,,,,,,,,,
12,"x: 264.1965637207031
y: 283.860107421875
z: -0.20425979793071747
visibility: 0.9999174475669861
","x: 265.578857421875
y: 278.88555908203125
z: -0.18375131487846375
visibility: 0.9997386932373047
","x: 266.7455749511719
y: 279.0215759277344
z: -0.18379971385002136
visibility: 0.999691367149353
","x: 267.9710998535156
y: 279.2982177734375
z: -0.18385764956474304
visibility: 0.9996109008789062
","x: 262.1153564453125
y: 279.95648193359375
z: -0.18611228466033936
visibility: 0.9997955560684204
","x: 260.8725891113281
y: 280.62506103515625
z: -0.18613961338996887
visibility: 0.9997825622558594
","x: 259.60498046875
y: 281.2481384277344
z: -0.18616677820682526
visibility: 0.9997876286506653
","x: 270.7906188964844
y: 284.3077392578125
z: -0.07945797592401505
visibility: 0.9993942379951477
","x: 258.9857177734375
y: 285.8017883300781
z: -0.09049109369516373
visibility: 0.9998058676719666
","x: 267.1419372558594
y: 289.97113037109375
z: -0.1655484437942505
visibility: 0.9998559355735779
","x: 262.53887939453125
y: 291.0021667480469
z: -0.1689286231994629
visibility: 0.9999150633811951
","x: 282.133056640625
y: 316.22088623046875
z: -0.01686486229300499
visibility: 0.9997325539588928
","x: 249.51473999023438
y: 320.07586669921875
z: -0.05053115636110306
visibility: 0.9995427131652832
","x: 294.867431640625
y: 336.83355712890625
z: -0.05488960072398186
visibility: 0.9218474626541138
","x: 238.4252471923828
y: 358.11944580078125
z: -0.13506634533405304
visibility: 0.8680834174156189
","x: 307.7994384765625
y: 351.684814453125
z: -0.19592489302158356
visibility: 0.8482477068901062
","x: 253.8947296142578
y: 358.0766296386719
z: -0.28877371549606323
visibility: 0.7965937256813049
","x: 314.092041015625
y: 356.8577575683594
z: -0.22507548332214355
visibility: 0.8021085262298584
","x: 258.74798583984375
y: 360.5255432128906
z: -0.32542291283607483
visibility: 0.7671164274215698
","x: 314.7292785644531
y: 346.52587890625
z: -0.24257807433605194
visibility: 0.8018777370452881
","x: 260.5492858886719
y: 354.0814514160156
z: -0.32434800267219543
visibility: 0.7662431597709656
","x: 311.63397216796875
y: 345.4837646484375
z: -0.20722270011901855
visibility: 0.7679245471954346
","x: 259.3622131347656
y: 353.4195251464844
z: -0.2915368676185608
visibility: 0.7467116117477417
","x: 279.4183349609375
y: 404.6237487792969
z: -0.00047388271195814013
visibility: 0.9998912215232849
","x: 259.54315185546875
y: 403.9399719238281
z: 0.0005666738143190742
visibility: 0.999859631061554
","x: 285.2170104980469
y: 466.67364501953125
z: -0.062151432037353516
visibility: 0.9905760884284973
","x: 251.8309326171875
y: 455.703857421875
z: -0.22469623386859894
visibility: 0.9651768207550049
","x: 285.1177062988281
y: 510.75299072265625
z: 0.18339350819587708
visibility: 0.9857972860336304
","x: 260.38385009765625
y: 505.82269287109375
z: -0.014867794699966908
visibility: 0.9481136798858643
","x: 283.33544921875
y: 516.6805419921875
z: 0.20187349617481232
visibility: 0.9027127623558044
","x: 264.65142822265625
y: 509.7882385253906
z: 0.0024580564349889755
visibility: 0.9032950401306152
","x: 292.9543762207031
y: 532.3095703125
z: 0.11090656369924545
visibility: 0.9693908095359802
","x: 258.4297790527344
y: 529.0452880859375
z: -0.0975780338048935
visibility: 0.9268937706947327
",,,,,,,,,,,,,,,,,,,,,,,,,,,,,,,,,,,,,,,,,,
13,"x: 272.2569580078125
y: 278.4119567871094
z: -0.2158447951078415
visibility: 0.9999241828918457
","x: 273.72601318359375
y: 272.95037841796875
z: -0.19524843990802765
visibility: 0.999760091304779
","x: 274.9123840332031
y: 273.1177978515625
z: -0.19524002075195312
visibility: 0.9997171759605408
","x: 276.219970703125
y: 273.456787109375
z: -0.19529688358306885
visibility: 0.9996441006660461
","x: 270.8140563964844
y: 273.4638366699219
z: -0.20321610569953918
visibility: 0.9998105764389038
","x: 269.7887878417969
y: 273.8681640625
z: -0.20324957370758057
visibility: 0.9997987151145935
","x: 268.6814270019531
y: 274.3038024902344
z: -0.20328772068023682
visibility: 0.999802827835083
","x: 278.5406799316406
y: 278.9381103515625
z: -0.09840536117553711
visibility: 0.9994485974311829
","x: 267.0925598144531
y: 279.4153137207031
z: -0.12371401488780975
visibility: 0.9998172521591187
","x: 274.7756652832031
y: 285.09039306640625
z: -0.1748654544353485
visibility: 0.9998679757118225
","x: 270.842041015625
y: 285.9583740234375
z: -0.18654580414295197
visibility: 0.9999207854270935
","x: 288.4505615234375
y: 312.8480224609375
z: -0.049405183643102646
visibility: 0.9997512698173523
","x: 258.0274353027344
y: 315.0855712890625
z: -0.07819215953350067
visibility: 0.9995637536048889
","x: 298.7085266113281
y: 343.5700988769531
z: -0.10935860872268677
visibility: 0.9276330471038818
","x: 247.72604370117188
y: 353.56195068359375
z: -0.20816358923912048
visibility: 0.8804197907447815
","x: 311.92913818359375
y: 322.7479248046875
z: -0.2532781958580017
visibility: 0.8628535866737366
","x: 248.82510375976562
y: 313.4866027832031
z: -0.40767112374305725
visibility: 0.8166773915290833
","x: 317.6148681640625
y: 310.3140563964844
z: -0.2814655900001526
visibility: 0.8205231428146362
","x: 248.40322875976562
y: 303.8710632324219
z: -0.44611233472824097
visibility: 0.7897078990936279
","x: 317.1842346191406
y: 307.20086669921875
z: -0.28885817527770996
visibility: 0.8203704357147217
","x: 249.9080352783203
y: 300.4420166015625
z: -0.44237440824508667
visibility: 0.7888669967651367
","x: 314.832275390625
y: 310.03680419921875
z: -0.26089218258857727
visibility: 0.7891867160797119
","x: 250.40347290039062
y: 303.64178466796875
z: -0.41196298599243164
visibility: 0.7707929015159607
","x: 288.5180358886719
y: 398.2710266113281
z: -0.0007219404214993119
visibility: 0.9998926520347595
","x: 269.2679138183594
y: 401.3937072753906
z: 0.0007623439887538552
visibility: 0.9998603463172913
","x: 296.0852355957031
y: 455.57635498046875
z: -0.18033289909362793
visibility: 0.991382360458374
","x: 267.5213317871094
y: 457.526123046875
z: -0.18632695078849792
visibility: 0.9684085845947266
","x: 293.8209533691406
y: 510.08795166015625
z: -0.012197375297546387
visibility: 0.9868379831314087
","x: 279.7212219238281
y: 505.9012451171875
z: 0.09016299992799759
visibility: 0.9526641964912415
","x: 292.69769287109375
y: 515.7921142578125
z: -0.0010338103165850043
visibility: 0.90789794921875
","x: 283.95477294921875
y: 510.1708679199219
z: 0.10820287466049194
visibility: 0.9088320136070251
","x: 298.1072998046875
y: 530.3356323242188
z: -0.10910455882549286
visibility: 0.9719178080558777
","x: 273.9735107421875
y: 530.251708984375
z: 0.022879432886838913
visibility: 0.9333198666572571
",,,,,,,,,,,,,,,,,,,,,,,,,,,,,,,,,,,,,,,,,,
14,"x: 286.41278076171875
y: 281.922119140625
z: -0.22458305954933167
visibility: 0.9999291300773621
","x: 288.5865478515625
y: 277.1066589355469
z: -0.20937924087047577
visibility: 0.9997753500938416
","x: 289.88885498046875
y: 277.4251708984375
z: -0.20940867066383362
visibility: 0.9997331500053406
","x: 291.1045837402344
y: 277.81988525390625
z: -0.2094334065914154
visibility: 0.9996641278266907
","x: 284.6937561035156
y: 276.8687744140625
z: -0.2105148285627365
visibility: 0.9998246431350708
","x: 283.4391174316406
y: 276.95977783203125
z: -0.210567906498909
visibility: 0.9998130202293396
","x: 282.23089599609375
y: 277.0814208984375
z: -0.21059730648994446
visibility: 0.9998170733451843
","x: 292.98992919921875
y: 282.5265808105469
z: -0.12193447351455688
visibility: 0.9994741082191467
","x: 280.3451232910156
y: 280.8977355957031
z: -0.12312225252389908
visibility: 0.999830424785614
","x: 288.6534729003906
y: 288.2689208984375
z: -0.1904037743806839
visibility: 0.9998766183853149
","x: 283.814453125
y: 288.586669921875
z: -0.19197386503219604
visibility: 0.9999258518218994
","x: 302.69140625
y: 314.3321533203125
z: -0.08424902707338333
visibility: 0.9997378587722778
","x: 268.1589660644531
y: 316.8100280761719
z: -0.062225837260484695
visibility: 0.999605119228363
","x: 318.6383056640625
y: 333.76202392578125
z: -0.19842399656772614
visibility: 0.9316598176956177
","x: 255.59632873535156
y: 350.8584289550781
z: -0.09120376408100128
visibility: 0.891758918762207
","x: 317.0010681152344
y: 322.614013671875
z: -0.3897600769996643
visibility: 0.8634437918663025
","x: 244.3911895751953
y: 347.1865539550781
z: -0.2404165267944336
visibility: 0.8345993161201477
","x: 317.8977966308594
y: 318.6111755371094
z: -0.4295387268066406
visibility: 0.817463755607605
","x: 238.48304748535156
y: 350.518798828125
z: -0.2655126750469208
visibility: 0.8097226023674011
","x: 312.19903564453125
y: 314.645751953125
z: -0.4289332330226898
visibility: 0.8172540068626404
","x: 237.84454345703125
y: 347.164794921875
z: -0.3193212151527405
visibility: 0.8090774416923523
","x: 311.70074462890625
y: 316.2350769042969
z: -0.3954777121543884
visibility: 0.784581184387207
","x: 240.75613403320312
y: 345.518310546875
z: -0.26408517360687256
visibility: 0.7925627827644348
","x: 298.6494140625
y: 401.80499267578125
z: -0.015758512541651726
visibility: 0.9998958706855774
","x: 279.35321044921875
y: 403.28350830078125
z: 0.015738125890493393
visibility: 0.999866247177124
","x: 314.4491882324219
y: 457.54437255859375
z: -0.12364058196544647
visibility: 0.9919853210449219
","x: 275.574951171875
y: 462.0608825683594
z: 0.05049862340092659
visibility: 0.9711115956306458
","x: 325.6551208496094
y: 511.1407470703125
z: -0.028399955481290817
visibility: 0.9879048466682434
","x: 281.35113525390625
y: 506.5451354980469
z: 0.2848558723926544
visibility: 0.9566460847854614
","x: 325.26104736328125
y: 522.3204345703125
z: -0.026265094056725502
visibility: 0.9123947620391846
","x: 286.3522644042969
y: 511.5533447265625
z: 0.3032107651233673
visibility: 0.9149324297904968
","x: 338.20458984375
y: 529.6477661132812
z: -0.13471853733062744
visibility: 0.9740977883338928
","x: 274.0915222167969
y: 531.559814453125
z: 0.22969870269298553
visibility: 0.9388617277145386
",,,,,,,,,,,,,,,,,,,,,,,,,,,,,,,,,,,,,,,,,,
15,"x: 296.6780700683594
y: 301.12109375
z: -0.3092089891433716
visibility: 0.9999351501464844
","x: 298.1216125488281
y: 296.5365905761719
z: -0.2961063086986542
visibility: 0.9997917413711548
","x: 299.38092041015625
y: 296.5830383300781
z: -0.29608070850372314
visibility: 0.9997509717941284
","x: 300.7104187011719
y: 296.6747741699219
z: -0.29613035917282104
visibility: 0.9996883273124695
","x: 294.8194885253906
y: 296.5860595703125
z: -0.3025178015232086
visibility: 0.9998394846916199
","x: 293.6199035644531
y: 296.66180419921875
z: -0.30259644985198975
visibility: 0.9998289942741394
","x: 292.3477783203125
y: 296.70928955078125
z: -0.30262118577957153
visibility: 0.9998328685760498
","x: 302.37945556640625
y: 300.23480224609375
z: -0.1989583969116211
visibility: 0.9995097517967224
","x: 290.0497741699219
y: 299.2293701171875
z: -0.22855019569396973
visibility: 0.9998449087142944
","x: 298.90667724609375
y: 307.174560546875
z: -0.2710719704627991
visibility: 0.9998874068260193
","x: 294.88262939453125
y: 307.08453369140625
z: -0.27990201115608215
visibility: 0.9999322891235352
","x: 313.2077941894531
y: 329.68377685546875
z: -0.10972213745117188
visibility: 0.9997613430023193
","x: 277.9659118652344
y: 326.172119140625
z: -0.18187087774276733
visibility: 0.9996436834335327
","x: 333.3470153808594
y: 347.5540466308594
z: -0.07816463708877563
visibility: 0.9373136758804321
","x: 259.08172607421875
y: 349.2074890136719
z: -0.2716425061225891
visibility: 0.9023833274841309
","x: 351.986572265625
y: 365.1383056640625
z: -0.1545879989862442
visibility: 0.8734938502311707
","x: 269.53546142578125
y: 363.58746337890625
z: -0.4368954598903656
visibility: 0.849865198135376
","x: 357.4537353515625
y: 367.4166259765625
z: -0.17386725544929504
visibility: 0.8275883793830872
","x: 271.4724426269531
y: 373.57952880859375
z: -0.47684425115585327
visibility: 0.8249428868293762
","x: 357.77728271484375
y: 366.257080078125
z: -0.20106163620948792
visibility: 0.8287791013717651
","x: 275.2383728027344
y: 375.1135559082031
z: -0.4842894971370697
visibility: 0.8243219256401062
","x: 355.1396484375
y: 366.2324523925781
z: -0.16861584782600403
visibility: 0.7983343005180359
","x: 273.96429443359375
y: 367.8438720703125
z: -0.44397228956222534
visibility: 0.808085024356842
","x: 307.6819763183594
y: 414.437744140625
z: 0.0035211308859288692
visibility: 0.9999014735221863
","x: 287.29156494140625
y: 415.1570129394531
z: -0.0035771362017840147
visibility: 0.9998740553855896
","x: 323.6304016113281
y: 469.0771789550781
z: -0.04509668052196503
visibility: 0.9926705360412598
","x: 275.37408447265625
y: 473.8574523925781
z: 0.01611069217324257
visibility: 0.9738593697547913
","x: 340.2150573730469
y: 517.869140625
z: 0.1182854175567627
visibility: 0.9888678789138794
","x: 277.6899108886719
y: 507.6529541015625
z: 0.31522583961486816
visibility: 0.9599831104278564
","x: 338.7223815917969
y: 526.2029418945312
z: 0.1295360028743744
visibility: 0.9160876274108887
","x: 280.7877502441406
y: 511.5955810546875
z: 0.34160083532333374
visibility: 0.9141787886619568
","x: 349.5820007324219
y: 534.5563354492188
z: 0.02410617098212242
visibility: 0.9761316776275635
","x: 273.658203125
y: 532.4804077148438
z: 0.2676777243614197
visibility: 0.9430527091026306
","x: 262.9954528808594
y: 364.5884704589844
z: 0.0
","x: 268.1976623535156
y: 365.9390563964844
z: 0.0009071464301086962
","x: 272.88677978515625
y: 369.4877624511719
z: -0.0007933523156680167
","x: 276.0514831542969
y: 372.8075866699219
z: -0.003599870717152953
","x: 278.1661682128906
y: 376.0366516113281
z: -0.0061104814521968365
","x: 273.0578308105469
y: 379.1030578613281
z: -0.0015304869739338756
","x: 276.8109436035156
y: 382.0765380859375
z: -0.005532983690500259
","x: 279.2384338378906
y: 381.9926452636719
z: -0.007663375698029995
","x: 280.83551025390625
y: 381.5452575683594
z: -0.008809038437902927
","x: 270.7434387207031
y: 380.3851318359375
z: -0.004847281146794558
","x: 274.5798034667969
y: 380.27203369140625
z: -0.009421642869710922
","x: 275.3377380371094
y: 375.3996276855469
z: -0.009855459444224834
","x: 275.0791015625
y: 371.354248046875
z: -0.009414330124855042
","x: 268.0528259277344
y: 380.3644104003906
z: -0.008418948389589787
","x: 271.8849792480469
y: 379.06378173828125
z: -0.012173195369541645
","x: 272.7612609863281
y: 374.0246276855469
z: -0.010700427927076817
","x: 272.6349182128906
y: 369.7674865722656
z: -0.009144720621407032
","x: 265.1649169921875
y: 379.041748046875
z: -0.01224579382687807
","x: 268.64752197265625
y: 377.7679748535156
z: -0.014463802799582481
","x: 270.2914733886719
y: 373.8435363769531
z: -0.013293071649968624
","x: 270.96917724609375
y: 370.0500793457031
z: -0.012002791278064251
",,,,,,,,,,,,,,,,,,,,,
16,"x: 296.6780700683594
y: 301.12109375
z: -0.3092089891433716
visibility: 0.9999351501464844
","x: 298.1216125488281
y: 296.5365905761719
z: -0.2961063086986542
visibility: 0.9997917413711548
","x: 299.38092041015625
y: 296.5830383300781
z: -0.29608070850372314
visibility: 0.9997509717941284
","x: 300.7104187011719
y: 296.6747741699219
z: -0.29613035917282104
visibility: 0.9996883273124695
","x: 294.8194885253906
y: 296.5860595703125
z: -0.3025178015232086
visibility: 0.9998394846916199
","x: 293.6199035644531
y: 296.66180419921875
z: -0.30259644985198975
visibility: 0.9998289942741394
","x: 292.3477783203125
y: 296.70928955078125
z: -0.30262118577957153
visibility: 0.9998328685760498
","x: 302.37945556640625
y: 300.23480224609375
z: -0.1989583969116211
visibility: 0.9995097517967224
","x: 290.0497741699219
y: 299.2293701171875
z: -0.22855019569396973
visibility: 0.9998449087142944
","x: 298.90667724609375
y: 307.174560546875
z: -0.2710719704627991
visibility: 0.9998874068260193
","x: 294.88262939453125
y: 307.08453369140625
z: -0.27990201115608215
visibility: 0.9999322891235352
","x: 313.2077941894531
y: 329.68377685546875
z: -0.10972213745117188
visibility: 0.9997613430023193
","x: 277.9659118652344
y: 326.172119140625
z: -0.18187087774276733
visibility: 0.9996436834335327
","x: 333.3470153808594
y: 347.5540466308594
z: -0.07816463708877563
visibility: 0.9373136758804321
","x: 259.08172607421875
y: 349.2074890136719
z: -0.2716425061225891
visibility: 0.9023833274841309
","x: 351.986572265625
y: 365.1383056640625
z: -0.1545879989862442
visibility: 0.8734938502311707
","x: 269.53546142578125
y: 363.58746337890625
z: -0.4368954598903656
visibility: 0.849865198135376
","x: 357.4537353515625
y: 367.4166259765625
z: -0.17386725544929504
visibility: 0.8275883793830872
","x: 271.4724426269531
y: 373.57952880859375
z: -0.47684425115585327
visibility: 0.8249428868293762
","x: 357.77728271484375
y: 366.257080078125
z: -0.20106163620948792
visibility: 0.8287791013717651
","x: 275.2383728027344
y: 375.1135559082031
z: -0.4842894971370697
visibility: 0.8243219256401062
","x: 355.1396484375
y: 366.2324523925781
z: -0.16861584782600403
visibility: 0.7983343005180359
","x: 273.96429443359375
y: 367.8438720703125
z: -0.44397228956222534
visibility: 0.808085024356842
","x: 307.6819763183594
y: 414.437744140625
z: 0.0035211308859288692
visibility: 0.9999014735221863
","x: 287.29156494140625
y: 415.1570129394531
z: -0.0035771362017840147
visibility: 0.9998740553855896
","x: 323.6304016113281
y: 469.0771789550781
z: -0.04509668052196503
visibility: 0.9926705360412598
","x: 275.37408447265625
y: 473.8574523925781
z: 0.01611069217324257
visibility: 0.9738593697547913
","x: 340.2150573730469
y: 517.869140625
z: 0.1182854175567627
visibility: 0.9888678789138794
","x: 277.6899108886719
y: 507.6529541015625
z: 0.31522583961486816
visibility: 0.9599831104278564
","x: 338.7223815917969
y: 526.2029418945312
z: 0.1295360028743744
visibility: 0.9160876274108887
","x: 280.7877502441406
y: 511.5955810546875
z: 0.34160083532333374
visibility: 0.9141787886619568
","x: 349.5820007324219
y: 534.5563354492188
z: 0.02410617098212242
visibility: 0.9761316776275635
","x: 273.658203125
y: 532.4804077148438
z: 0.2676777243614197
visibility: 0.9430527091026306
","x: 262.9954528808594
y: 364.5884704589844
z: 0.0
","x: 268.1976623535156
y: 365.9390563964844
z: 0.0009071464301086962
","x: 272.88677978515625
y: 369.4877624511719
z: -0.0007933523156680167
","x: 276.0514831542969
y: 372.8075866699219
z: -0.003599870717152953
","x: 278.1661682128906
y: 376.0366516113281
z: -0.0061104814521968365
","x: 273.0578308105469
y: 379.1030578613281
z: -0.0015304869739338756
","x: 276.8109436035156
y: 382.0765380859375
z: -0.005532983690500259
","x: 279.2384338378906
y: 381.9926452636719
z: -0.007663375698029995
","x: 280.83551025390625
y: 381.5452575683594
z: -0.008809038437902927
","x: 270.7434387207031
y: 380.3851318359375
z: -0.004847281146794558
","x: 274.5798034667969
y: 380.27203369140625
z: -0.009421642869710922
","x: 275.3377380371094
y: 375.3996276855469
z: -0.009855459444224834
","x: 275.0791015625
y: 371.354248046875
z: -0.009414330124855042
","x: 268.0528259277344
y: 380.3644104003906
z: -0.008418948389589787
","x: 271.8849792480469
y: 379.06378173828125
z: -0.012173195369541645
","x: 272.7612609863281
y: 374.0246276855469
z: -0.010700427927076817
","x: 272.6349182128906
y: 369.7674865722656
z: -0.009144720621407032
","x: 265.1649169921875
y: 379.041748046875
z: -0.01224579382687807
","x: 268.64752197265625
y: 377.7679748535156
z: -0.014463802799582481
","x: 270.2914733886719
y: 373.8435363769531
z: -0.013293071649968624
","x: 270.96917724609375
y: 370.0500793457031
z: -0.012002791278064251
",,,,,,,,,,,,,,,,,,,,,
17,"x: 297.2781982421875
y: 304.0694885253906
z: -0.27162817120552063
visibility: 0.999941349029541
","x: 298.2473449707031
y: 299.0580139160156
z: -0.26533737778663635
visibility: 0.999811053276062
","x: 299.15069580078125
y: 299.0273742675781
z: -0.26556771993637085
visibility: 0.9997743368148804
","x: 300.04571533203125
y: 299.0661315917969
z: -0.2656325101852417
visibility: 0.9997171759605408
","x: 295.19927978515625
y: 299.2651672363281
z: -0.25206050276756287
visibility: 0.999854564666748
","x: 294.0188293457031
y: 299.2952575683594
z: -0.2521088719367981
visibility: 0.9998452067375183
","x: 292.76934814453125
y: 299.3240966796875
z: -0.2521366775035858
visibility: 0.9998480677604675
","x: 299.91839599609375
y: 302.96624755859375
z: -0.15540288388729095
visibility: 0.9995562434196472
","x: 289.90631103515625
y: 301.4879150390625
z: -0.18639051914215088
visibility: 0.9998597502708435
","x: 298.31768798828125
y: 309.9905090332031
z: -0.2593540549278259
visibility: 0.9998980164527893
","x: 294.82879638671875
y: 310.5819091796875
z: -0.2327001392841339
visibility: 0.9999387264251709
","x: 308.1313171386719
y: 339.9932556152344
z: -0.058652788400650024
visibility: 0.9997842907905579
","x: 277.31591796875
y: 326.1023254394531
z: -0.16115309298038483
visibility: 0.9996786117553711
","x: 327.36871337890625
y: 359.131591796875
z: -0.03283832222223282
visibility: 0.94282466173172
","x: 255.31167602539062
y: 334.10357666015625
z: -0.28447243571281433
visibility: 0.9114922285079956
","x: 346.1197814941406
y: 353.1847839355469
z: -0.10737816989421844
visibility: 0.8857863545417786
","x: 261.76727294921875
y: 358.78924560546875
z: -0.46026474237442017
visibility: 0.8637396097183228
","x: 353.45037841796875
y: 351.87841796875
z: -0.11970040947198868
visibility: 0.8438814878463745
","x: 262.7955322265625
y: 364.7674865722656
z: -0.49773353338241577
visibility: 0.839889645576477
","x: 354.1318664550781
y: 349.41339111328125
z: -0.14160825312137604
visibility: 0.8450747132301331
","x: 267.51080322265625
y: 366.1386413574219
z: -0.49764665961265564
visibility: 0.8393328785896301
","x: 351.610107421875
y: 350.15283203125
z: -0.1195446029305458
visibility: 0.8174405097961426
","x: 267.49493408203125
y: 363.4512939453125
z: -0.46516484022140503
visibility: 0.8241556286811829
","x: 301.86322021484375
y: 418.5132141113281
z: 0.01748301088809967
visibility: 0.9999095797538757
","x: 281.665771484375
y: 419.4348449707031
z: -0.01755516044795513
visibility: 0.9998841285705566
","x: 318.82666015625
y: 470.2518005371094
z: -0.03448522463440895
visibility: 0.993273138999939
","x: 275.3429870605469
y: 477.34423828125
z: 0.012929348275065422
visibility: 0.9761260151863098
","x: 337.55108642578125
y: 521.449462890625
z: 0.06404419243335724
visibility: 0.989785373210907
","x: 277.727294921875
y: 515.478271484375
z: 0.2663481831550598
visibility: 0.9633033275604248
","x: 337.0057373046875
y: 530.16015625
z: 0.06813506782054901
visibility: 0.9231529831886292
","x: 281.0048828125
y: 521.7140502929688
z: 0.28735122084617615
visibility: 0.9190149903297424
","x: 350.0334777832031
y: 535.6525268554688
z: -0.03251517191529274
visibility: 0.9783304333686829
","x: 274.79638671875
y: 533.0576171875
z: 0.21168828010559082
visibility: 0.9476118087768555
",,,,,,,,,,,,,,,,,,,,,,,,,,,,,,,,,,,,,,,,,,
18,"x: 287.63873291015625
y: 288.3057861328125
z: -0.2572125792503357
visibility: 0.999927818775177
","x: 289.02020263671875
y: 282.69659423828125
z: -0.24314729869365692
visibility: 0.9997446537017822
","x: 290.1676025390625
y: 282.8124084472656
z: -0.2432146817445755
visibility: 0.9997013211250305
","x: 291.2696838378906
y: 283.00067138671875
z: -0.24327144026756287
visibility: 0.9996564388275146
","x: 285.71942138671875
y: 282.2109375
z: -0.24155232310295105
visibility: 0.9997928738594055
","x: 284.6028137207031
y: 281.9747619628906
z: -0.24158528447151184
visibility: 0.99976646900177
","x: 283.45635986328125
y: 281.78521728515625
z: -0.2416110336780548
visibility: 0.9997609853744507
","x: 292.61016845703125
y: 285.9905700683594
z: -0.1459236890077591
visibility: 0.9995022416114807
","x: 281.5735168457031
y: 284.02239990234375
z: -0.172544926404953
visibility: 0.9996772408485413
","x: 289.4391784667969
y: 294.05633544921875
z: -0.22706134617328644
visibility: 0.9998877048492432
","x: 285.61151123046875
y: 293.67877197265625
z: -0.22324807941913605
visibility: 0.9999217391014099
","x: 301.8951416015625
y: 324.7796936035156
z: -0.06996147334575653
visibility: 0.9997894167900085
","x: 268.26763916015625
y: 306.9989318847656
z: -0.1103946715593338
visibility: 0.9996792674064636
","x: 320.2327575683594
y: 341.579833984375
z: -0.08360827714204788
visibility: 0.947563648223877
","x: 254.92532348632812
y: 317.3645324707031
z: -0.13778728246688843
visibility: 0.9198874235153198
","x: 335.75860595703125
y: 355.07421875
z: -0.20341774821281433
visibility: 0.8926765322685242
","x: 239.00181579589844
y: 352.220703125
z: -0.2500301003456116
visibility: 0.873160719871521
","x: 340.39288330078125
y: 362.1556396484375
z: -0.22961390018463135
visibility: 0.848531186580658
","x: 236.41354370117188
y: 360.4767150878906
z: -0.2754518985748291
visibility: 0.8443094491958618
","x: 338.6767272949219
y: 361.0802001953125
z: -0.24710237979888916
visibility: 0.851275622844696
","x: 238.9815216064453
y: 362.8033447265625
z: -0.2928192615509033
visibility: 0.8448948264122009
","x: 336.616943359375
y: 359.2796630859375
z: -0.2146649807691574
visibility: 0.8256927132606506
","x: 240.8174285888672
y: 360.69561767578125
z: -0.26048240065574646
visibility: 0.8301416039466858
","x: 293.6874694824219
y: 403.9538879394531
z: 0.010480419732630253
visibility: 0.9998973608016968
","x: 273.8170166015625
y: 404.799072265625
z: -0.010546110570430756
visibility: 0.9998540878295898
","x: 311.2655029296875
y: 457.1016845703125
z: -0.20018747448921204
visibility: 0.9929836988449097
","x: 271.24920654296875
y: 467.30419921875
z: -0.05793090537190437
visibility: 0.9767349362373352
","x: 302.17962646484375
y: 507.4438781738281
z: 0.0016608837759122252
visibility: 0.9886559844017029
","x: 277.0663757324219
y: 514.2171630859375
z: 0.15270815789699554
visibility: 0.964646577835083
","x: 296.4446716308594
y: 513.7294311523438
z: 0.017314760014414787
visibility: 0.9244207739830017
","x: 279.2684020996094
y: 520.160888671875
z: 0.16715076565742493
visibility: 0.9131379723548889
","x: 307.72430419921875
y: 530.9224853515625
z: -0.08779287338256836
visibility: 0.9782865643501282
","x: 273.4024353027344
y: 532.6093139648438
z: 0.05871075391769409
visibility: 0.9492395520210266
",,,,,,,,,,,,,,,,,,,,,,,,,,,,,,,,,,,,,,,,,,
19,"x: 276.4333190917969
y: 281.2768859863281
z: -0.23396697640419006
visibility: 0.9997826814651489
","x: 278.49871826171875
y: 274.23358154296875
z: -0.22384516894817352
visibility: 0.9993740916252136
","x: 279.780029296875
y: 274.0469665527344
z: -0.22393660247325897
visibility: 0.9992899894714355
","x: 280.9544677734375
y: 273.9809875488281
z: -0.22401142120361328
visibility: 0.9992310404777527
","x: 274.83465576171875
y: 274.31353759765625
z: -0.21779687702655792
visibility: 0.9994192719459534
","x: 273.68450927734375
y: 274.1928405761719
z: -0.21780934929847717
visibility: 0.9993244409561157
","x: 272.59564208984375
y: 274.15576171875
z: -0.2178453654050827
visibility: 0.9994074106216431
","x: 282.24969482421875
y: 276.3721008300781
z: -0.14341410994529724
visibility: 0.9987570643424988
","x: 271.6771545410156
y: 276.1101989746094
z: -0.12375495582818985
visibility: 0.9992722868919373
","x: 278.4071044921875
y: 287.24041748046875
z: -0.20498283207416534
visibility: 0.999693751335144
","x: 274.4698181152344
y: 287.4245910644531
z: -0.19638977944850922
visibility: 0.9997685551643372
","x: 292.6727600097656
y: 307.90130615234375
z: -0.08276082575321198
visibility: 0.9997014403343201
","x: 260.3895568847656
y: 306.233154296875
z: -0.053851716220378876
visibility: 0.9996748566627502
","x: 310.0207214355469
y: 335.0225830078125
z: -0.19344043731689453
visibility: 0.9503757357597351
","x: 247.012939453125
y: 326.3967590332031
z: -0.06727591902017593
visibility: 0.9268181324005127
","x: 299.2925720214844
y: 325.8438720703125
z: -0.36770299077033997
visibility: 0.8972161412239075
","x: 225.76260375976562
y: 309.3277587890625
z: -0.18054954707622528
visibility: 0.8848951458930969
","x: 297.2484436035156
y: 325.6598205566406
z: -0.4016849398612976
visibility: 0.8514886498451233
","x: 220.58090209960938
y: 304.9435119628906
z: -0.20761916041374207
visibility: 0.8574995398521423
","x: 294.1518859863281
y: 321.27197265625
z: -0.39830273389816284
visibility: 0.8533497452735901
","x: 221.5041961669922
y: 300.4303283691406
z: -0.2204967737197876
visibility: 0.8582037687301636
","x: 293.9025573730469
y: 322.1846008300781
z: -0.37080544233322144
visibility: 0.8269144296646118
","x: 223.6488037109375
y: 302.06561279296875
z: -0.19010303914546967
visibility: 0.8442849516868591
","x: 280.2914733886719
y: 399.621826171875
z: 0.0015628921100869775
visibility: 0.9998635649681091
","x: 262.3616638183594
y: 394.2132873535156
z: -0.0015123119810596108
visibility: 0.9998549222946167
","x: 280.81951904296875
y: 457.7715759277344
z: -0.028643300756812096
visibility: 0.992139458656311
","x: 253.3804931640625
y: 451.6852111816406
z: -0.14781519770622253
visibility: 0.9788731336593628
","x: 273.73175048828125
y: 508.27691650390625
z: 0.15060541033744812
visibility: 0.9881000518798828
","x: 246.82107543945312
y: 506.6539306640625
z: -0.021651754155755043
visibility: 0.967875599861145
","x: 269.99755859375
y: 515.141357421875
z: 0.16331028938293457
visibility: 0.9195806980133057
","x: 248.892578125
y: 516.3446044921875
z: -0.013780402950942516
visibility: 0.9163601398468018
","x: 277.73077392578125
y: 530.669921875
z: 0.0746069923043251
visibility: 0.9777097105979919
","x: 238.5875244140625
y: 529.9617309570312
z: -0.11649544537067413
visibility: 0.9538130760192871
",,,,,,,,,,,,,,,,,,,,,,,,,,,,,,,,,,,,,,,,,,
20,"x: 266.8614501953125
y: 283.8235168457031
z: -0.217838853597641
visibility: 0.9998028874397278
","x: 268.4227294921875
y: 277.8050842285156
z: -0.20315465331077576
visibility: 0.9994332790374756
","x: 269.60382080078125
y: 277.74395751953125
z: -0.20318034291267395
visibility: 0.9993568658828735
","x: 270.8851318359375
y: 277.7709045410156
z: -0.20324239134788513
visibility: 0.9993032217025757
","x: 265.2947082519531
y: 277.85028076171875
z: -0.20318207144737244
visibility: 0.9994736313819885
","x: 264.2060852050781
y: 277.819091796875
z: -0.20318374037742615
visibility: 0.9993879795074463
","x: 263.03009033203125
y: 277.84063720703125
z: -0.20319092273712158
visibility: 0.9994623064994812
","x: 273.13287353515625
y: 280.66046142578125
z: -0.11038269847631454
visibility: 0.9988709092140198
","x: 261.244140625
y: 280.20562744140625
z: -0.11575029045343399
visibility: 0.9993380904197693
","x: 268.8439636230469
y: 289.71728515625
z: -0.18377132713794708
visibility: 0.999719500541687
","x: 265.1732177734375
y: 289.89080810546875
z: -0.18479135632514954
visibility: 0.9997881650924683
","x: 280.3620910644531
y: 312.6025085449219
z: -0.03973821923136711
visibility: 0.9997209906578064
","x: 249.41836547851562
y: 310.4976501464844
z: -0.0648803561925888
visibility: 0.9996911287307739
","x: 290.7308044433594
y: 350.8733825683594
z: -0.07962554693222046
visibility: 0.9531490802764893
","x: 236.94561767578125
y: 333.04669189453125
z: -0.16693028807640076
visibility: 0.9322389364242554
","x: 300.6944885253906
y: 324.7537536621094
z: -0.2065618932247162
visibility: 0.906872034072876
","x: 233.20848083496094
y: 316.00177001953125
z: -0.36468809843063354
visibility: 0.8948883414268494
","x: 304.33795166015625
y: 319.7530212402344
z: -0.23243288695812225
visibility: 0.864590048789978
","x: 229.81988525390625
y: 309.69476318359375
z: -0.4021728038787842
visibility: 0.8679829239845276
","x: 303.45355224609375
y: 313.6596984863281
z: -0.23967047035694122
visibility: 0.8663392663002014
","x: 232.12265014648438
y: 307.4595947265625
z: -0.4010094702243805
visibility: 0.8684960603713989
","x: 301.7310791015625
y: 315.7978210449219
z: -0.21372640132904053
visibility: 0.8418517708778381
","x: 233.6407928466797
y: 309.5520324707031
z: -0.3698105216026306
visibility: 0.8546133041381836
","x: 272.2829284667969
y: 401.58978271484375
z: 0.0076638562604784966
visibility: 0.9998656511306763
","x: 253.26654052734375
y: 398.5403747558594
z: -0.007660838775336742
visibility: 0.9998629689216614
","x: 276.1509704589844
y: 462.0341796875
z: 0.039718154817819595
visibility: 0.9926421642303467
","x: 240.4965057373047
y: 455.69287109375
z: -0.038849446922540665
visibility: 0.9808562397956848
","x: 270.88421630859375
y: 509.4863586425781
z: 0.23174962401390076
visibility: 0.988727867603302
","x: 226.74110412597656
y: 506.835205078125
z: 0.08632012456655502
visibility: 0.9709030985832214
","x: 266.7310485839844
y: 516.6356201171875
z: 0.2459583282470703
visibility: 0.9225919246673584
","x: 228.36415100097656
y: 516.1357421875
z: 0.09664158523082733
visibility: 0.9198328256607056
","x: 277.775146484375
y: 531.6876831054688
z: 0.16930469870567322
visibility: 0.9789256453514099
","x: 218.39999389648438
y: 529.635498046875
z: 0.0037301848642528057
visibility: 0.9580395221710205
",,,,,,,,,,,,,,,,,,,,,,,,,,,,,,,,,,,,,,,,,,
21,"x: 260.86102294921875
y: 295.08831787109375
z: -0.2755888104438782
visibility: 0.9997908473014832
","x: 262.8639831542969
y: 290.30810546875
z: -0.25868749618530273
visibility: 0.9994012713432312
","x: 263.98101806640625
y: 290.6014709472656
z: -0.25871214270591736
visibility: 0.9993308782577515
","x: 265.0272216796875
y: 291.00286865234375
z: -0.25875499844551086
visibility: 0.999286949634552
","x: 259.71197509765625
y: 290.0941162109375
z: -0.2606092691421509
visibility: 0.9994089603424072
","x: 258.6278381347656
y: 290.15081787109375
z: -0.2606636583805084
visibility: 0.9993305206298828
","x: 257.5695495605469
y: 290.23077392578125
z: -0.2607170045375824
visibility: 0.9993985295295715
","x: 266.51849365234375
y: 295.3292541503906
z: -0.1622709184885025
visibility: 0.9988065361976624
","x: 256.3876953125
y: 292.5176086425781
z: -0.17366763949394226
visibility: 0.9991229176521301
","x: 262.1756286621094
y: 301.6171569824219
z: -0.2401926964521408
visibility: 0.9997158646583557
","x: 258.6333312988281
y: 301.3573913574219
z: -0.24358034133911133
visibility: 0.9997706413269043
","x: 274.4154052734375
y: 332.29925537109375
z: -0.11041203886270523
visibility: 0.9997413754463196
","x: 242.06964111328125
y: 321.7758483886719
z: -0.10946112871170044
visibility: 0.9996804594993591
","x: 281.5359191894531
y: 373.06640625
z: -0.10310663282871246
visibility: 0.9553220272064209
","x: 224.1382293701172
y: 348.0691833496094
z: -0.13477405905723572
visibility: 0.9369625449180603
","x: 278.5814208984375
y: 404.7469482421875
z: -0.20565517246723175
visibility: 0.9116799235343933
","x: 212.0439453125
y: 365.1722717285156
z: -0.25430601835250854
visibility: 0.8998052477836609
","x: 276.6313781738281
y: 415.41259765625
z: -0.23423559963703156
visibility: 0.8690546154975891
","x: 207.51329040527344
y: 368.405029296875
z: -0.2909618616104126
visibility: 0.8709439635276794
","x: 273.8862609863281
y: 412.5073547363281
z: -0.2533871829509735
visibility: 0.8708950877189636
","x: 207.81471252441406
y: 368.98846435546875
z: -0.3148699402809143
visibility: 0.8722666501998901
","x: 273.50030517578125
y: 408.763427734375
z: -0.21564820408821106
visibility: 0.8466084599494934
","x: 209.55825805664062
y: 368.9861755371094
z: -0.26805585622787476
visibility: 0.8588053584098816
","x: 263.42169189453125
y: 414.6517639160156
z: 0.007196263410151005
visibility: 0.999869704246521
","x: 244.8692626953125
y: 410.0098876953125
z: -0.007165292743593454
visibility: 0.9998692870140076
","x: 269.2918701171875
y: 473.7205810546875
z: -0.001656295033171773
visibility: 0.9927217960357666
","x: 231.45924377441406
y: 461.6722106933594
z: -0.05787491798400879
visibility: 0.9822484254837036
","x: 272.8853454589844
y: 510.09136962890625
z: 0.2567402422428131
visibility: 0.9879740476608276
","x: 221.74331665039062
y: 507.0086975097656
z: 0.1593405306339264
visibility: 0.97265625
","x: 270.5190734863281
y: 515.5476684570312
z: 0.2786919176578522
visibility: 0.9101612567901611
","x: 222.08987426757812
y: 514.3636474609375
z: 0.17906808853149414
visibility: 0.9104877710342407
","x: 276.4394226074219
y: 532.014404296875
z: 0.19334712624549866
visibility: 0.9776992797851562
","x: 215.79222106933594
y: 529.444580078125
z: 0.08545692265033722
visibility: 0.9601521492004395
",,,,,,,,,,,,,,,,,,,,,,"x: 279.8363952636719
y: 400.73565673828125
z: 0.0
","x: 280.9308166503906
y: 407.5347900390625
z: -0.00036794759216718376
","x: 279.80047607421875
y: 414.750732421875
z: -0.0013877477031201124
","x: 278.0087890625
y: 418.5821838378906
z: -0.0029601019341498613
","x: 276.4676513671875
y: 420.93951416015625
z: -0.004334819037467241
","x: 275.2401123046875
y: 416.7923278808594
z: -0.0003880116273649037
","x: 273.5384826660156
y: 422.266845703125
z: -0.003249669913202524
","x: 272.5747375488281
y: 426.7802429199219
z: -0.005276093725115061
","x: 272.0572509765625
y: 430.1597900390625
z: -0.006612772587686777
","x: 273.621337890625
y: 413.76556396484375
z: -0.0023126760497689247
","x: 271.7608947753906
y: 417.95770263671875
z: -0.005607426166534424
","x: 271.64678955078125
y: 421.1946105957031
z: -0.007156918291002512
","x: 272.1968994140625
y: 423.1304626464844
z: -0.00806830357760191
","x: 272.79913330078125
y: 409.83642578125
z: -0.0045341430231928825
","x: 273.5228271484375
y: 412.7205810546875
z: -0.00743476115167141
","x: 275.7818908691406
y: 413.59368896484375
z: -0.007336693815886974
","x: 277.82086181640625
y: 413.4189453125
z: -0.006820798851549625
","x: 272.8117370605469
y: 405.2536315917969
z: -0.007100200280547142
","x: 274.0898132324219
y: 407.40679931640625
z: -0.009086240082979202
","x: 275.9503173828125
y: 408.1181640625
z: -0.009004171937704086
","x: 277.6171569824219
y: 407.8453369140625
z: -0.008562391623854637
"
22,"x: 260.86102294921875
y: 295.08831787109375
z: -0.2755888104438782
visibility: 0.9997908473014832
","x: 262.8639831542969
y: 290.30810546875
z: -0.25868749618530273
visibility: 0.9994012713432312
","x: 263.98101806640625
y: 290.6014709472656
z: -0.25871214270591736
visibility: 0.9993308782577515
","x: 265.0272216796875
y: 291.00286865234375
z: -0.25875499844551086
visibility: 0.999286949634552
","x: 259.71197509765625
y: 290.0941162109375
z: -0.2606092691421509
visibility: 0.9994089603424072
","x: 258.6278381347656
y: 290.15081787109375
z: -0.2606636583805084
visibility: 0.9993305206298828
","x: 257.5695495605469
y: 290.23077392578125
z: -0.2607170045375824
visibility: 0.9993985295295715
","x: 266.51849365234375
y: 295.3292541503906
z: -0.1622709184885025
visibility: 0.9988065361976624
","x: 256.3876953125
y: 292.5176086425781
z: -0.17366763949394226
visibility: 0.9991229176521301
","x: 262.1756286621094
y: 301.6171569824219
z: -0.2401926964521408
visibility: 0.9997158646583557
","x: 258.6333312988281
y: 301.3573913574219
z: -0.24358034133911133
visibility: 0.9997706413269043
","x: 274.4154052734375
y: 332.29925537109375
z: -0.11041203886270523
visibility: 0.9997413754463196
","x: 242.06964111328125
y: 321.7758483886719
z: -0.10946112871170044
visibility: 0.9996804594993591
","x: 281.5359191894531
y: 373.06640625
z: -0.10310663282871246
visibility: 0.9553220272064209
","x: 224.1382293701172
y: 348.0691833496094
z: -0.13477405905723572
visibility: 0.9369625449180603
","x: 278.5814208984375
y: 404.7469482421875
z: -0.20565517246723175
visibility: 0.9116799235343933
","x: 212.0439453125
y: 365.1722717285156
z: -0.25430601835250854
visibility: 0.8998052477836609
","x: 276.6313781738281
y: 415.41259765625
z: -0.23423559963703156
visibility: 0.8690546154975891
","x: 207.51329040527344
y: 368.405029296875
z: -0.2909618616104126
visibility: 0.8709439635276794
","x: 273.8862609863281
y: 412.5073547363281
z: -0.2533871829509735
visibility: 0.8708950877189636
","x: 207.81471252441406
y: 368.98846435546875
z: -0.3148699402809143
visibility: 0.8722666501998901
","x: 273.50030517578125
y: 408.763427734375
z: -0.21564820408821106
visibility: 0.8466084599494934
","x: 209.55825805664062
y: 368.9861755371094
z: -0.26805585622787476
visibility: 0.8588053584098816
","x: 263.42169189453125
y: 414.6517639160156
z: 0.007196263410151005
visibility: 0.999869704246521
","x: 244.8692626953125
y: 410.0098876953125
z: -0.007165292743593454
visibility: 0.9998692870140076
","x: 269.2918701171875
y: 473.7205810546875
z: -0.001656295033171773
visibility: 0.9927217960357666
","x: 231.45924377441406
y: 461.6722106933594
z: -0.05787491798400879
visibility: 0.9822484254837036
","x: 272.8853454589844
y: 510.09136962890625
z: 0.2567402422428131
visibility: 0.9879740476608276
","x: 221.74331665039062
y: 507.0086975097656
z: 0.1593405306339264
visibility: 0.97265625
","x: 270.5190734863281
y: 515.5476684570312
z: 0.2786919176578522
visibility: 0.9101612567901611
","x: 222.08987426757812
y: 514.3636474609375
z: 0.17906808853149414
visibility: 0.9104877710342407
","x: 276.4394226074219
y: 532.014404296875
z: 0.19334712624549866
visibility: 0.9776992797851562
","x: 215.79222106933594
y: 529.444580078125
z: 0.08545692265033722
visibility: 0.9601521492004395
",,,,,,,,,,,,,,,,,,,,,,"x: 279.8363952636719
y: 400.73565673828125
z: 0.0
","x: 280.9308166503906
y: 407.5347900390625
z: -0.00036794759216718376
","x: 279.80047607421875
y: 414.750732421875
z: -0.0013877477031201124
","x: 278.0087890625
y: 418.5821838378906
z: -0.0029601019341498613
","x: 276.4676513671875
y: 420.93951416015625
z: -0.004334819037467241
","x: 275.2401123046875
y: 416.7923278808594
z: -0.0003880116273649037
","x: 273.5384826660156
y: 422.266845703125
z: -0.003249669913202524
","x: 272.5747375488281
y: 426.7802429199219
z: -0.005276093725115061
","x: 272.0572509765625
y: 430.1597900390625
z: -0.006612772587686777
","x: 273.621337890625
y: 413.76556396484375
z: -0.0023126760497689247
","x: 271.7608947753906
y: 417.95770263671875
z: -0.005607426166534424
","x: 271.64678955078125
y: 421.1946105957031
z: -0.007156918291002512
","x: 272.1968994140625
y: 423.1304626464844
z: -0.00806830357760191
","x: 272.79913330078125
y: 409.83642578125
z: -0.0045341430231928825
","x: 273.5228271484375
y: 412.7205810546875
z: -0.00743476115167141
","x: 275.7818908691406
y: 413.59368896484375
z: -0.007336693815886974
","x: 277.82086181640625
y: 413.4189453125
z: -0.006820798851549625
","x: 272.8117370605469
y: 405.2536315917969
z: -0.007100200280547142
","x: 274.0898132324219
y: 407.40679931640625
z: -0.009086240082979202
","x: 275.9503173828125
y: 408.1181640625
z: -0.009004171937704086
","x: 277.6171569824219
y: 407.8453369140625
z: -0.008562391623854637
"
23,"x: 261.0910949707031
y: 291.66021728515625
z: -0.23856671154499054
visibility: 0.9997406005859375
","x: 261.9373474121094
y: 285.88787841796875
z: -0.23232944309711456
visibility: 0.9992603063583374
","x: 262.9131164550781
y: 285.6114501953125
z: -0.23238413035869598
visibility: 0.999198317527771
","x: 263.9840393066406
y: 285.4700622558594
z: -0.2323666512966156
visibility: 0.9991422891616821
","x: 259.2135314941406
y: 287.43780517578125
z: -0.22436198592185974
visibility: 0.9992614984512329
","x: 258.1823425292969
y: 288.2015686035156
z: -0.2244383990764618
visibility: 0.999173104763031
","x: 257.1422424316406
y: 289.0355224609375
z: -0.2245180904865265
visibility: 0.9992668032646179
","x: 266.85919189453125
y: 289.1452941894531
z: -0.15191179513931274
visibility: 0.998481035232544
","x: 256.8255310058594
y: 292.3196716308594
z: -0.13390420377254486
visibility: 0.9988132119178772
","x: 263.3767395019531
y: 296.8795471191406
z: -0.21429145336151123
visibility: 0.9996498823165894
","x: 260.0284118652344
y: 297.7474365234375
z: -0.20365194976329803
visibility: 0.9996958374977112
","x: 277.68475341796875
y: 321.3843994140625
z: -0.1183011382818222
visibility: 0.9997327923774719
","x: 246.5811767578125
y: 321.520263671875
z: -0.05780092999339104
visibility: 0.9997003078460693
","x: 279.27288818359375
y: 362.1148376464844
z: -0.16742587089538574
visibility: 0.9523124098777771
","x: 229.45362854003906
y: 347.23004150390625
z: -0.024511562660336494
visibility: 0.939215362071991
","x: 257.10272216796875
y: 370.75872802734375
z: -0.28079864382743835
visibility: 0.9098206758499146
","x: 214.18365478515625
y: 366.9051513671875
z: -0.08871348202228546
visibility: 0.8991383910179138
","x: 251.87879943847656
y: 374.39959716796875
z: -0.31035417318344116
visibility: 0.8652837872505188
","x: 208.62286376953125
y: 373.04986572265625
z: -0.1098543256521225
visibility: 0.8652880787849426
","x: 251.17642211914062
y: 370.69232177734375
z: -0.31639522314071655
visibility: 0.8666725158691406
","x: 209.50320434570312
y: 373.3254699707031
z: -0.13043169677257538
visibility: 0.8678100109100342
","x: 252.5543975830078
y: 369.7977294921875
z: -0.28469541668891907
visibility: 0.8374647498130798
","x: 211.6160430908203
y: 372.0848083496094
z: -0.10002197325229645
visibility: 0.8548443913459778
","x: 268.5099792480469
y: 410.3612976074219
z: -0.006110069807618856
visibility: 0.9997941851615906
","x: 250.23135375976562
y: 404.63909912109375
z: 0.0060479482635855675
visibility: 0.999870240688324
","x: 268.4302978515625
y: 471.6197509765625
z: 0.014620947651565075
visibility: 0.9922545552253723
","x: 238.12686157226562
y: 456.46624755859375
z: -0.10855350643396378
visibility: 0.9838017821311951
","x: 274.75958251953125
y: 509.06427001953125
z: 0.21541151404380798
visibility: 0.987822949886322
","x: 232.25477600097656
y: 506.676025390625
z: 0.014437573961913586
visibility: 0.9749908447265625
","x: 274.513916015625
y: 511.64654541015625
z: 0.2309122085571289
visibility: 0.8980281352996826
","x: 234.41954040527344
y: 512.732421875
z: 0.02232186868786812
visibility: 0.9081030488014221
","x: 277.5131530761719
y: 531.3146362304688
z: 0.14306911826133728
visibility: 0.9773995280265808
","x: 227.2561798095703
y: 527.6990356445312
z: -0.07891317456960678
visibility: 0.9633668065071106
",,,,,,,,,,,,,,,,,,,,,,,,,,,,,,,,,,,,,,,,,,
24,"x: 262.8646240234375
y: 281.61370849609375
z: -0.26557084918022156
visibility: 0.9997595548629761
","x: 264.28466796875
y: 275.9051513671875
z: -0.25227946043014526
visibility: 0.9993149638175964
","x: 265.4604187011719
y: 275.73773193359375
z: -0.2523338794708252
visibility: 0.999259352684021
","x: 266.62164306640625
y: 275.6944885253906
z: -0.2523511052131653
visibility: 0.9992056488990784
","x: 260.905029296875
y: 276.9769287109375
z: -0.24588751792907715
visibility: 0.999310314655304
","x: 259.760009765625
y: 277.51690673828125
z: -0.24593384563922882
visibility: 0.999225378036499
","x: 258.61138916015625
y: 278.2052307128906
z: -0.24596810340881348
visibility: 0.999308705329895
","x: 269.0136413574219
y: 278.89019775390625
z: -0.16273683309555054
visibility: 0.9985883235931396
","x: 258.08148193359375
y: 282.3199157714844
z: -0.13547000288963318
visibility: 0.9988709688186646
","x: 265.41064453125
y: 287.88818359375
z: -0.23227925598621368
visibility: 0.9996766448020935
","x: 261.185791015625
y: 288.9847106933594
z: -0.2234911471605301
visibility: 0.9997144341468811
","x: 279.350341796875
y: 311.44012451171875
z: -0.1284807175397873
visibility: 0.9997570514678955
","x: 248.76097106933594
y: 316.4793701171875
z: -0.05610942095518112
visibility: 0.999725878238678
","x: 278.7080993652344
y: 361.65228271484375
z: -0.19235964119434357
visibility: 0.9528295993804932
","x: 232.29112243652344
y: 346.0749816894531
z: -0.004234118852764368
visibility: 0.9416771531105042
","x: 252.41961669921875
y: 362.0316162109375
z: -0.3315111994743347
visibility: 0.9150177240371704
","x: 218.77078247070312
y: 370.7791748046875
z: -0.05930357053875923
visibility: 0.901607871055603
","x: 247.71475219726562
y: 364.6304626464844
z: -0.36643633246421814
visibility: 0.8720981478691101
","x: 213.66224670410156
y: 379.4453430175781
z: -0.07966354489326477
visibility: 0.8664884567260742
","x: 246.22071838378906
y: 360.66607666015625
z: -0.3719256520271301
visibility: 0.8733031749725342
","x: 214.55484008789062
y: 379.5534973144531
z: -0.10256950557231903
visibility: 0.8696496486663818
","x: 248.06024169921875
y: 360.2685241699219
z: -0.3356446623802185
visibility: 0.8425220251083374
","x: 216.6335906982422
y: 377.06561279296875
z: -0.07094684988260269
visibility: 0.8566888570785522
","x: 271.6667785644531
y: 400.9609375
z: -0.005251646973192692
visibility: 0.9998069405555725
","x: 252.97817993164062
y: 398.60479736328125
z: 0.005160329397767782
visibility: 0.9998798966407776
","x: 272.35113525390625
y: 469.6420593261719
z: -0.015766609460115433
visibility: 0.9890069961547852
","x: 252.9921112060547
y: 455.615966796875
z: -0.1417660266160965
visibility: 0.9843429327011108
","x: 275.49114990234375
y: 507.2378845214844
z: 0.2285265475511551
visibility: 0.979598879814148
","x: 255.63119506835938
y: 506.717041015625
z: 0.06969154626131058
visibility: 0.9712584614753723
","x: 275.2962951660156
y: 508.68902587890625
z: 0.2508530020713806
visibility: 0.8642002940177917
","x: 256.9334716796875
y: 512.7781982421875
z: 0.08761069923639297
visibility: 0.8769952654838562
","x: 276.8551940917969
y: 530.03271484375
z: 0.17349925637245178
visibility: 0.9697416424751282
","x: 259.12744140625
y: 533.933349609375
z: 5.514566510100849e-05
visibility: 0.9614777565002441
",,,,,,,,,,,,,,,,,,,,,,,,,,,,,,,,,,,,,,,,,,
25,"x: 264.6507568359375
y: 278.80792236328125
z: -0.2097584754228592
visibility: 0.9995043873786926
","x: 266.2743835449219
y: 273.63433837890625
z: -0.1959940642118454
visibility: 0.9982633590698242
","x: 267.4515380859375
y: 273.8692626953125
z: -0.19606781005859375
visibility: 0.9979636073112488
","x: 268.6078796386719
y: 274.1922302246094
z: -0.19610267877578735
visibility: 0.9977070093154907
","x: 262.85870361328125
y: 273.4991149902344
z: -0.1976584941148758
visibility: 0.9987031817436218
","x: 261.6688537597656
y: 273.6618347167969
z: -0.19767504930496216
visibility: 0.9985322952270508
","x: 260.5072021484375
y: 273.9935607910156
z: -0.19775444269180298
visibility: 0.9987705945968628
","x: 270.66400146484375
y: 278.2132263183594
z: -0.11135367304086685
visibility: 0.9936707615852356
","x: 259.54925537109375
y: 278.1526794433594
z: -0.11734535545110703
visibility: 0.9978412389755249
","x: 267.0072021484375
y: 285.71246337890625
z: -0.17761602997779846
visibility: 0.9990089535713196
","x: 262.63226318359375
y: 285.63861083984375
z: -0.17956402897834778
visibility: 0.9995091557502747
","x: 279.4400634765625
y: 310.3408203125
z: -0.05038630962371826
visibility: 0.9993994235992432
","x: 248.96177673339844
y: 312.08184814453125
z: -0.06347232311964035
visibility: 0.9997416734695435
","x: 277.223388671875
y: 361.5121765136719
z: -0.02362448163330555
visibility: 0.8825411796569824
","x: 236.58099365234375
y: 349.9329833984375
z: -0.04769778996706009
visibility: 0.9432811141014099
","x: 274.8664245605469
y: 372.9317932128906
z: -0.1076679676771164
visibility: 0.8373296856880188
","x: 238.7801055908203
y: 386.77960205078125
z: -0.11563073098659515
visibility: 0.8995498418807983
","x: 274.52044677734375
y: 380.1440734863281
z: -0.12732845544815063
visibility: 0.8000731468200684
","x: 237.1732177734375
y: 396.4967041015625
z: -0.1366921067237854
visibility: 0.8617638349533081
","x: 273.3291931152344
y: 378.0546569824219
z: -0.14750361442565918
visibility: 0.801575779914856
","x: 240.06480407714844
y: 395.898193359375
z: -0.15202030539512634
visibility: 0.8648563027381897
","x: 273.2057800292969
y: 375.2714538574219
z: -0.11823321878910065
visibility: 0.7726141810417175
","x: 241.3867645263672
y: 393.093505859375
z: -0.12299156188964844
visibility: 0.8506351709365845
","x: 273.1319580078125
y: 398.01141357421875
z: 0.009486173279583454
visibility: 0.9992682337760925
","x: 255.04420471191406
y: 399.755615234375
z: -0.009492400102317333
visibility: 0.9997246265411377
","x: 284.4622802734375
y: 452.87237548828125
z: -0.012961326166987419
visibility: 0.9837706685066223
","x: 268.3038330078125
y: 456.7418212890625
z: -0.06556970626115799
visibility: 0.9815731644630432
","x: 294.7767333984375
y: 505.798583984375
z: 0.10100716352462769
visibility: 0.9773319959640503
","x: 274.6425476074219
y: 515.4808349609375
z: 0.05697350576519966
visibility: 0.9709389805793762
","x: 293.30181884765625
y: 510.037109375
z: 0.1063757911324501
visibility: 0.8602716326713562
","x: 273.9919128417969
y: 523.5492553710938
z: 0.06305758655071259
visibility: 0.871687650680542
","x: 307.16473388671875
y: 519.8895874023438
z: 0.018968313932418823
visibility: 0.9676266312599182
","x: 276.70458984375
y: 533.27978515625
z: -0.035609014332294464
visibility: 0.960572361946106
",,,,,,,,,,,,,,,,,,,,,,,,,,,,,,,,,,,,,,,,,,
26,"x: 265.0071716308594
y: 280.4351806640625
z: -0.25508880615234375
visibility: 0.9995353817939758
","x: 266.60699462890625
y: 275.6875915527344
z: -0.24865178763866425
visibility: 0.9983548521995544
","x: 267.7463684082031
y: 275.90936279296875
z: -0.2487063705921173
visibility: 0.9981008172035217
","x: 268.8922424316406
y: 276.21038818359375
z: -0.2488071620464325
visibility: 0.997852087020874
","x: 263.34075927734375
y: 275.5987243652344
z: -0.2432100772857666
visibility: 0.9987553954124451
","x: 262.224365234375
y: 275.7767028808594
z: -0.2432190477848053
visibility: 0.9986125230789185
","x: 261.1295166015625
y: 276.0811767578125
z: -0.24323312938213348
visibility: 0.9988202452659607
","x: 270.9057312011719
y: 280.2562255859375
z: -0.1883508265018463
visibility: 0.994232177734375
","x: 260.0386047363281
y: 280.0746765136719
z: -0.16350404918193817
visibility: 0.9979920983314514
","x: 267.45831298828125
y: 286.8416748046875
z: -0.23276381194591522
visibility: 0.9990931153297424
","x: 263.0074768066406
y: 286.83502197265625
z: -0.225358247756958
visibility: 0.9995455741882324
","x: 280.5323791503906
y: 311.3238525390625
z: -0.13595493137836456
visibility: 0.9994571208953857
","x: 248.772705078125
y: 312.3929443359375
z: -0.10055570304393768
visibility: 0.9997618198394775
","x: 301.7419738769531
y: 340.26898193359375
z: -0.11130154132843018
visibility: 0.8930020332336426
","x: 238.49392700195312
y: 351.6314392089844
z: 0.013329612091183662
visibility: 0.9339438080787659
","x: 321.9743957519531
y: 354.5124816894531
z: -0.1994641125202179
visibility: 0.8464831709861755
","x: 244.95054626464844
y: 385.4781494140625
z: 0.07959367334842682
visibility: 0.8819738030433655
","x: 326.57305908203125
y: 359.00341796875
z: -0.2208072692155838
visibility: 0.8024495840072632
","x: 244.7192840576172
y: 393.908935546875
z: 0.0824393555521965
visibility: 0.8399193286895752
","x: 326.3180236816406
y: 366.1813659667969
z: -0.24149875342845917
visibility: 0.804757297039032
","x: 247.5146484375
y: 393.3437805175781
z: 0.06713567674160004
visibility: 0.8434633612632751
","x: 324.26873779296875
y: 360.245849609375
z: -0.21012473106384277
visibility: 0.7767829895019531
","x: 248.21682739257812
y: 390.0512390136719
z: 0.07557742297649384
visibility: 0.8284922242164612
","x: 274.7606201171875
y: 398.9880676269531
z: 0.008293580263853073
visibility: 0.9993133544921875
","x: 256.20587158203125
y: 405.2205810546875
z: -0.008055588230490685
visibility: 0.9997456073760986
","x: 292.4646911621094
y: 447.240234375
z: 0.07810993492603302
visibility: 0.9839491844177246
","x: 268.76568603515625
y: 471.5141296386719
z: 0.048079028725624084
visibility: 0.9828733801841736
","x: 299.439453125
y: 458.2393798828125
z: 0.4015637934207916
visibility: 0.9746451377868652
","x: 277.5209045410156
y: 518.2381591796875
z: 0.2856077253818512
visibility: 0.9731990694999695
","x: 299.0934753417969
y: 454.1723937988281
z: 0.4322938323020935
visibility: 0.8610758781433105
","x: 279.13653564453125
y: 522.44970703125
z: 0.3056557774543762
visibility: 0.87910395860672
","x: 308.11968994140625
y: 481.67236328125
z: 0.3706919848918915
visibility: 0.9664739966392517
","x: 278.3144836425781
y: 534.3041381835938
z: 0.21686740219593048
visibility: 0.963344931602478
",,,,,,,,,,,,,,,,,,,,,,,,,,,,,,,,,,,,,,,,,,
27,"x: 265.6075439453125
y: 281.67333984375
z: -0.24073036015033722
visibility: 0.9995574951171875
","x: 267.09271240234375
y: 276.8368835449219
z: -0.22765055298805237
visibility: 0.9984312653541565
","x: 268.2064514160156
y: 276.9932861328125
z: -0.22767159342765808
visibility: 0.9981645941734314
","x: 269.31195068359375
y: 277.2243957519531
z: -0.22774061560630798
visibility: 0.9979389309883118
","x: 263.87066650390625
y: 276.7947998046875
z: -0.23379501700401306
visibility: 0.9988487362861633
","x: 262.74713134765625
y: 276.8444519042969
z: -0.2338082492351532
visibility: 0.9987231492996216
","x: 261.6534729003906
y: 276.88336181640625
z: -0.23388025164604187
visibility: 0.9989181756973267
","x: 271.3086242675781
y: 281.2618103027344
z: -0.14412853121757507
visibility: 0.9946147203445435
","x: 260.3204650878906
y: 281.04718017578125
z: -0.15896816551685333
visibility: 0.9981529712677002
","x: 267.98095703125
y: 287.8951416015625
z: -0.20983009040355682
visibility: 0.9991594552993774
","x: 263.635009765625
y: 288.0850830078125
z: -0.2190643548965454
visibility: 0.9995824098587036
","x: 281.2630920410156
y: 313.1473388671875
z: -0.06389793753623962
visibility: 0.9994112253189087
","x: 249.2295684814453
y: 317.8024597167969
z: -0.10625489056110382
visibility: 0.9997805953025818
","x: 298.8929138183594
y: 340.66180419921875
z: 0.049474965780973434
visibility: 0.8849411606788635
","x: 241.4736328125
y: 356.611083984375
z: -0.02202531322836876
visibility: 0.9385121464729309
","x: 300.0721740722656
y: 360.1343994140625
z: 0.050231851637363434
visibility: 0.797362208366394
","x: 251.2926025390625
y: 386.7989807128906
z: -0.08761673420667648
visibility: 0.8817878365516663
","x: 296.8761901855469
y: 365.27703857421875
z: 0.04425743594765663
visibility: 0.7478027939796448
","x: 252.96014404296875
y: 397.0353698730469
z: -0.1053512915968895
visibility: 0.8348675966262817
","x: 295.75299072265625
y: 363.785888671875
z: 0.024360554292798042
visibility: 0.7510132789611816
","x: 255.18679809570312
y: 393.0710144042969
z: -0.1191696748137474
visibility: 0.8377988338470459
","x: 295.9294128417969
y: 361.2497253417969
z: 0.04274512454867363
visibility: 0.7251942753791809
","x: 255.2945098876953
y: 389.32818603515625
z: -0.09401030838489532
visibility: 0.8191323280334473
","x: 275.99945068359375
y: 400.27392578125
z: 0.010340842418372631
visibility: 0.9992150068283081
","x: 259.72198486328125
y: 404.6223449707031
z: -0.010190893895924091
visibility: 0.9997521042823792
","x: 281.98321533203125
y: 451.07476806640625
z: 0.054491717368364334
visibility: 0.9638609290122986
","x: 267.0852355957031
y: 469.28546142578125
z: -0.009860972873866558
visibility: 0.9796161651611328
","x: 273.236083984375
y: 455.42437744140625
z: 0.3522503972053528
visibility: 0.8987138271331787
","x: 274.4370422363281
y: 519.4376220703125
z: 0.13041646778583527
visibility: 0.9701007008552551
","x: 270.67205810546875
y: 450.59063720703125
z: 0.3814259469509125
visibility: 0.8048571348190308
","x: 274.71563720703125
y: 524.4732666015625
z: 0.13827301561832428
visibility: 0.8718914985656738
","x: 271.6568603515625
y: 473.838134765625
z: 0.3426138162612915
visibility: 0.8984745740890503
","x: 275.52935791015625
y: 535.1708984375
z: 0.046389129012823105
visibility: 0.9559068083763123
