uscmakers/ReverseChoreography/data/7_sad_girlz_luv_money_amaarae.csv
,NOSE,LEFT_EYE_INNER,LEFT_EYE,LEFT_EYE_OUTER,RIGHT_EYE_INNER,RIGHT_EYE,RIGHT_EYE_OUTER,LEFT_EAR,RIGHT_EAR,MOUTH_LEFT,MOUTH_RIGHT,LEFT_SHOULDER,RIGHT_SHOULDER,LEFT_ELBOW,RIGHT_ELBOW,LEFT_WRIST,RIGHT_WRIST,LEFT_PINKY,RIGHT_PINKY,LEFT_INDEX,RIGHT_INDEX,LEFT_THUMB,RIGHT_THUMB,LEFT_HIP,RIGHT_HIP,LEFT_KNEE,RIGHT_KNEE,LEFT_ANKLE,RIGHT_ANKLE,LEFT_HEEL,RIGHT_HEEL,LEFT_FOOT_INDEX,RIGHT_FOOT_INDEX,WRIST,THUMB_CPC,THUMB_MCP,THUMB_IP,THUMB_TIP,INDEX_FINGER_MCP,INDEX_FINGER_PIP,INDEX_FINGER_DIP,INDEX_FINGER_TIP,MIDDLE_FINGER_MCP,MIDDLE_FINGER_PIP,MIDDLE_FINGER_DIP,MIDDLE_FINGER_TIP,RING_FINGER_PIP,RING_FINGER_DIP,RING_FINGER_TIP,RING_FINGER_MCP,PINKY_MCP,PINKY_PIP,PINKY_DIP,PINKY_TIP,WRIST2,THUMB_CPC2,THUMB_MCP2,THUMB_IP2,THUMB_TIP2,INDEX_FINGER_MCP2,INDEX_FINGER_PIP2,INDEX_FINGER_DIP2,INDEX_FINGER_TIP2,MIDDLE_FINGER_MCP2,MIDDLE_FINGER_PIP2,MIDDLE_FINGER_DIP2,MIDDLE_FINGER_TIP2,RING_FINGER_PIP2,RING_FINGER_DIP2,RING_FINGER_TIP2,RING_FINGER_MCP2,PINKY_MCP2,PINKY_PIP2,PINKY_DIP2,PINKY_TIP2
0,"x: 268.5948486328125
y: 290.96612548828125
z: -0.275317519903183
visibility: 0.9890992641448975
","x: 270.473388671875
y: 285.19146728515625
z: -0.26489341259002686
visibility: 0.9601485729217529
","x: 271.59930419921875
y: 285.05657958984375
z: -0.26490622758865356
visibility: 0.9597397446632385
","x: 272.8130798339844
y: 284.917236328125
z: -0.26494213938713074
visibility: 0.9562082886695862
","x: 267.6878662109375
y: 285.45770263671875
z: -0.26644575595855713
visibility: 0.96296226978302
","x: 266.7298278808594
y: 285.513916015625
z: -0.26647982001304626
visibility: 0.9646880626678467
","x: 265.8089904785156
y: 285.5477294921875
z: -0.2665400803089142
visibility: 0.9682334661483765
","x: 274.938232421875
y: 286.5588073730469
z: -0.17618025839328766
visibility: 0.8847596645355225
","x: 264.56353759765625
y: 286.99359130859375
z: -0.18269875645637512
visibility: 0.9300185441970825
","x: 270.3616638183594
y: 296.3536682128906
z: -0.23932628333568573
visibility: 0.9707667231559753
","x: 267.1459655761719
y: 296.7383728027344
z: -0.24128472805023193
visibility: 0.9752814173698425
","x: 282.18670654296875
y: 317.1499938964844
z: -0.0924447700381279
visibility: 0.9960263967514038
","x: 254.2449188232422
y: 313.031494140625
z: -0.13058285415172577
visibility: 0.9989504814147949
","x: 279.2936096191406
y: 361.94146728515625
z: -0.05197985842823982
visibility: 0.5999029278755188
","x: 253.62181091308594
y: 358.2205505371094
z: -0.11203894764184952
visibility: 0.9662914276123047
","x: 271.5196533203125
y: 388.96929931640625
z: -0.1438632607460022
visibility: 0.4912477731704712
","x: 260.3022155761719
y: 388.2021484375
z: -0.18569137156009674
visibility: 0.8837610483169556
","x: 271.6048583984375
y: 400.4364318847656
z: -0.16911689937114716
visibility: 0.4283430278301239
","x: 261.3956604003906
y: 399.1825866699219
z: -0.21556882560253143
visibility: 0.801058292388916
","x: 269.58355712890625
y: 396.890625
z: -0.19228343665599823
visibility: 0.4402359426021576
","x: 263.09576416015625
y: 398.8375549316406
z: -0.225788876414299
visibility: 0.7988158464431763
","x: 269.04241943359375
y: 393.86468505859375
z: -0.1559663563966751
visibility: 0.4099169373512268
","x: 262.85675048828125
y: 394.89056396484375
z: -0.19135767221450806
visibility: 0.7633838653564453
","x: 270.46221923828125
y: 398.8254089355469
z: 0.011675749905407429
visibility: 0.9982988238334656
","x: 253.1801300048828
y: 393.1445007324219
z: -0.011681248433887959
visibility: 0.9989569187164307
","x: 271.5206298828125
y: 458.49957275390625
z: -0.003834967967122793
visibility: 0.914455235004425
","x: 249.28121948242188
y: 453.09161376953125
z: -0.031558964401483536
visibility: 0.9667304158210754
","x: 262.5663757324219
y: 502.1019287109375
z: 0.18866080045700073
visibility: 0.8610665202140808
","x: 240.92068481445312
y: 498.4014587402344
z: 0.15601210296154022
visibility: 0.9483290910720825
","x: 257.91375732421875
y: 503.554443359375
z: 0.20457220077514648
visibility: 0.6035628318786621
","x: 240.2711944580078
y: 501.74151611328125
z: 0.17158563435077667
visibility: 0.6843267679214478
","x: 265.6739196777344
y: 522.099853515625
z: 0.12243248522281647
visibility: 0.8622766137123108
","x: 237.65469360351562
y: 523.9002075195312
z: 0.07809589058160782
visibility: 0.9339958429336548
",,,,,,,,,,,,,,,,,,,,,,,,,,,,,,,,,,,,,,,,,,
1,"x: 263.5672302246094
y: 297.9939880371094
z: -0.24986740946769714
visibility: 0.9901755452156067
","x: 264.60986328125
y: 292.05841064453125
z: -0.23842723667621613
visibility: 0.9640721082687378
","x: 265.576904296875
y: 291.7997131347656
z: -0.23846372961997986
visibility: 0.9637053608894348
","x: 266.56451416015625
y: 291.5444641113281
z: -0.2385425865650177
visibility: 0.9605259299278259
","x: 261.8252258300781
y: 292.3270263671875
z: -0.23982663452625275
visibility: 0.9665869474411011
","x: 260.81512451171875
y: 292.21630859375
z: -0.23984618484973907
visibility: 0.968128502368927
","x: 259.7469177246094
y: 292.1282043457031
z: -0.2398531138896942
visibility: 0.9712952971458435
","x: 267.93133544921875
y: 292.0701904296875
z: -0.15009936690330505
visibility: 0.8961799144744873
","x: 258.1396484375
y: 292.453369140625
z: -0.15616685152053833
visibility: 0.9367992877960205
","x: 264.96612548828125
y: 302.7906494140625
z: -0.21471337974071503
visibility: 0.9736708402633667
","x: 261.97509765625
y: 302.6991882324219
z: -0.2168000042438507
visibility: 0.9777202010154724
","x: 276.8541259765625
y: 321.5515441894531
z: -0.0857820212841034
visibility: 0.996422529220581
","x: 247.34988403320312
y: 313.9527587890625
z: -0.1010093092918396
visibility: 0.9990434646606445
","x: 281.5444030761719
y: 363.113037109375
z: -0.05168222635984421
visibility: 0.6384732723236084
","x: 237.79165649414062
y: 346.45574951171875
z: -0.1660815328359604
visibility: 0.966331958770752
","x: 294.9787292480469
y: 389.50726318359375
z: -0.13053257763385773
visibility: 0.540303111076355
","x: 240.60545349121094
y: 373.68096923828125
z: -0.3300006687641144
visibility: 0.8888906240463257
","x: 299.3815002441406
y: 398.75628662109375
z: -0.15403605997562408
visibility: 0.48170748353004456
","x: 241.04953002929688
y: 381.7884826660156
z: -0.365894615650177
visibility: 0.8097069263458252
","x: 300.51806640625
y: 396.8417053222656
z: -0.1786060631275177
visibility: 0.4930759072303772
","x: 243.52346801757812
y: 380.15496826171875
z: -0.3812240958213806
visibility: 0.8080639243125916
","x: 298.64483642578125
y: 393.97149658203125
z: -0.14303353428840637
visibility: 0.4648391604423523
","x: 243.97149658203125
y: 377.80322265625
z: -0.34087127447128296
visibility: 0.7739944458007812
","x: 270.00341796875
y: 401.13916015625
z: -0.006838212721049786
visibility: 0.998449981212616
","x: 253.1553497314453
y: 401.4530029296875
z: 0.00691447127610445
visibility: 0.9989997148513794
","x: 270.4825439453125
y: 458.86376953125
z: -0.040064841508865356
visibility: 0.921154797077179
","x: 255.60450744628906
y: 457.0875244140625
z: 0.07559705525636673
visibility: 0.957310140132904
","x: 272.2999572753906
y: 509.65228271484375
z: 0.060637325048446655
visibility: 0.8724336624145508
","x: 260.83251953125
y: 502.94378662109375
z: 0.2656494379043579
visibility: 0.9416709542274475
","x: 271.60723876953125
y: 515.5115356445312
z: 0.06557022035121918
visibility: 0.6214204430580139
","x: 263.0676574707031
y: 509.48876953125
z: 0.28031453490257263
visibility: 0.6898077726364136
","x: 273.2069396972656
y: 524.16748046875
z: -0.041891977190971375
visibility: 0.8734776973724365
","x: 258.7685241699219
y: 521.714111328125
z: 0.1995970755815506
visibility: 0.9315806031227112
",,,,,,,,,,,,,,,,,,,,,,,,,,,,,,,,,,,,,,,,,,
2,"x: 262.69537353515625
y: 294.10321044921875
z: -0.20336270332336426
visibility: 0.991145133972168
","x: 264.2470397949219
y: 288.0098876953125
z: -0.1923907846212387
visibility: 0.967617928981781
","x: 265.22039794921875
y: 287.6623840332031
z: -0.19245615601539612
visibility: 0.9672983884811401
","x: 266.1686706542969
y: 287.3584289550781
z: -0.19251587986946106
visibility: 0.9644353985786438
","x: 261.5003967285156
y: 287.74261474609375
z: -0.18819773197174072
visibility: 0.9698601961135864
","x: 260.5605163574219
y: 287.22772216796875
z: -0.18818721175193787
visibility: 0.9712387323379517
","x: 259.58367919921875
y: 286.76483154296875
z: -0.18817438185214996
visibility: 0.9740774035453796
","x: 268.1717529296875
y: 288.0284423828125
z: -0.11004169285297394
visibility: 0.9065181612968445
","x: 258.6739196777344
y: 287.3534851074219
z: -0.09001724421977997
visibility: 0.9429973363876343
","x: 264.7640686035156
y: 297.9158935546875
z: -0.17126141488552094
visibility: 0.9762932658195496
","x: 261.2040100097656
y: 297.10699462890625
z: -0.16575844585895538
visibility: 0.9799330830574036
","x: 277.7491760253906
y: 316.0977783203125
z: -0.07732036709785461
visibility: 0.9967793226242065
","x: 248.09080505371094
y: 309.51531982421875
z: -0.01020131167024374
visibility: 0.9991280436515808
","x: 289.01934814453125
y: 343.04791259765625
z: -0.1385827511548996
visibility: 0.6741507649421692
","x: 237.14300537109375
y: 334.2799377441406
z: -0.005105296149849892
visibility: 0.9669591784477234
","x: 299.1814270019531
y: 353.59356689453125
z: -0.3099896311759949
visibility: 0.585110604763031
","x: 236.46583557128906
y: 364.5716857910156
z: -0.11299745738506317
visibility: 0.8952564597129822
","x: 302.2936706542969
y: 357.720703125
z: -0.3525700569152832
visibility: 0.5310035347938538
","x: 237.75497436523438
y: 373.970458984375
z: -0.13736861944198608
visibility: 0.8196014761924744
","x: 301.7491149902344
y: 355.6939697265625
z: -0.36847975850105286
visibility: 0.5415394902229309
","x: 240.25926208496094
y: 372.6402282714844
z: -0.1547669768333435
visibility: 0.8186637163162231
","x: 300.1846008300781
y: 354.6933288574219
z: -0.32120996713638306
visibility: 0.5150820016860962
","x: 240.5133819580078
y: 370.0347595214844
z: -0.12278296798467636
visibility: 0.7864893078804016
","x: 270.1765441894531
y: 393.87127685546875
z: -0.024569813162088394
visibility: 0.9985804557800293
","x: 253.92471313476562
y: 398.76580810546875
z: 0.024682994931936264
visibility: 0.9990516901016235
","x: 267.8106994628906
y: 444.192626953125
z: -0.07090726494789124
visibility: 0.9278414249420166
","x: 254.6389617919922
y: 453.2810974121094
z: 0.02331515960395336
visibility: 0.9583350419998169
","x: 272.6011047363281
y: 501.4154052734375
z: 0.08283795416355133
visibility: 0.8838907480239868
","x: 261.0688171386719
y: 502.6484375
z: 0.22969575226306915
visibility: 0.9443337917327881
","x: 273.310791015625
y: 506.2391357421875
z: 0.09418363124132156
visibility: 0.6470955014228821
","x: 263.5557861328125
y: 509.2593688964844
z: 0.21879160404205322
visibility: 0.7082810997962952
","x: 271.3974914550781
y: 523.6242065429688
z: -0.0036714437883347273
visibility: 0.8847904205322266
","x: 261.2716369628906
y: 521.5130615234375
z: 0.13419419527053833
visibility: 0.9352646470069885
",,,,,,,,,,,,,,,,,,,,,,,,,,,,,,,,,,,,,,,,,,
3,"x: 263.1432800292969
y: 295.29962158203125
z: -0.2273501455783844
visibility: 0.9918205738067627
","x: 264.8585205078125
y: 288.77239990234375
z: -0.2046968638896942
visibility: 0.9700043201446533
","x: 265.89129638671875
y: 288.3877258300781
z: -0.2044847309589386
visibility: 0.9697825312614441
","x: 266.9289245605469
y: 288.02899169921875
z: -0.20444270968437195
visibility: 0.9671385884284973
","x: 262.0616760253906
y: 288.5760192871094
z: -0.2234853059053421
visibility: 0.9721241593360901
","x: 261.16314697265625
y: 288.1182556152344
z: -0.2234969586133957
visibility: 0.9733633995056152
","x: 260.2732238769531
y: 287.697509765625
z: -0.22352156043052673
visibility: 0.976026713848114
","x: 269.2258605957031
y: 288.23291015625
z: -0.1515764743089676
visibility: 0.9149059653282166
","x: 259.59210205078125
y: 287.68804931640625
z: -0.13107991218566895
visibility: 0.9478065371513367
","x: 265.2426452636719
y: 298.7835998535156
z: -0.18057408928871155
visibility: 0.9784413576126099
","x: 261.6623840332031
y: 298.3643798828125
z: -0.2002832442522049
visibility: 0.9817073345184326
","x: 279.4187316894531
y: 315.8191223144531
z: -0.1205153688788414
visibility: 0.997071385383606
","x: 248.70352172851562
y: 311.48486328125
z: -0.040550556033849716
visibility: 0.9991880059242249
","x: 290.345458984375
y: 342.0328063964844
z: -0.15923799574375153
visibility: 0.6990411877632141
","x: 240.0089569091797
y: 339.9388427734375
z: -0.01355723012238741
visibility: 0.9576194882392883
","x: 293.14630126953125
y: 363.3207702636719
z: -0.28984585404396057
visibility: 0.5899208784103394
","x: 241.50643920898438
y: 371.056640625
z: -0.11570680141448975
visibility: 0.8903500437736511
","x: 295.09375
y: 370.428955078125
z: -0.32380321621894836
visibility: 0.533645510673523
","x: 240.4095001220703
y: 381.6119384765625
z: -0.13955682516098022
visibility: 0.813655436038971
","x: 293.6123046875
y: 367.60821533203125
z: -0.3411405086517334
visibility: 0.5449773669242859
","x: 242.19677734375
y: 380.4864196777344
z: -0.16097411513328552
visibility: 0.8139446377754211
","x: 292.38531494140625
y: 365.4026794433594
z: -0.30036094784736633
visibility: 0.5150600671768188
","x: 243.10781860351562
y: 377.3521423339844
z: -0.12703999876976013
visibility: 0.7830544114112854
","x: 271.8231201171875
y: 396.861572265625
z: -0.03050108812749386
visibility: 0.9985337257385254
","x: 255.62876892089844
y: 398.41015625
z: 0.030594956129789352
visibility: 0.9990396499633789
","x: 268.1809387207031
y: 451.1868591308594
z: -0.0766090601682663
visibility: 0.9338197112083435
","x: 251.09173583984375
y: 448.8561706542969
z: -0.04069603234529495
visibility: 0.9615957736968994
","x: 270.4090881347656
y: 503.1885070800781
z: 0.099855937063694
visibility: 0.8943036198616028
","x: 255.11981201171875
y: 503.3403015136719
z: 0.1417427361011505
visibility: 0.9490883946418762
","x: 270.5282287597656
y: 508.7289733886719
z: 0.11120849847793579
visibility: 0.6635493636131287
","x: 257.909423828125
y: 510.38446044921875
z: 0.15192899107933044
visibility: 0.7335656881332397
","x: 266.04931640625
y: 523.5608520507812
z: 0.006692100316286087
visibility: 0.8943632245063782
","x: 259.8844909667969
y: 523.256103515625
z: 0.05922958254814148
visibility: 0.9407815933227539
",,,,,,,,,,,,,,,,,,,,,,,,,,,,,,,,,,,,,,,,,,
4,"x: 263.7410583496094
y: 297.1496276855469
z: -0.17231646180152893
visibility: 0.9925830960273743
","x: 265.5037536621094
y: 291.3182678222656
z: -0.16554675996303558
visibility: 0.9727683663368225
","x: 266.54998779296875
y: 291.1246643066406
z: -0.16559720039367676
visibility: 0.9725767374038696
","x: 267.6106262207031
y: 290.924072265625
z: -0.1656215488910675
visibility: 0.9701829552650452
","x: 262.72113037109375
y: 291.0009460449219
z: -0.1590932309627533
visibility: 0.9747073650360107
","x: 261.8091125488281
y: 290.61248779296875
z: -0.15908905863761902
visibility: 0.9757881164550781
","x: 260.9049377441406
y: 290.2439270019531
z: -0.15911270678043365
visibility: 0.9782128930091858
","x: 269.8668518066406
y: 291.038330078125
z: -0.10502855479717255
visibility: 0.9231623411178589
","x: 260.00299072265625
y: 289.88946533203125
z: -0.0708082765340805
visibility: 0.952506422996521
","x: 265.7305908203125
y: 300.5666809082031
z: -0.14660337567329407
visibility: 0.9804924726486206
","x: 262.2796325683594
y: 300.436279296875
z: -0.13811610639095306
visibility: 0.9834275841712952
","x: 279.5788879394531
y: 316.821044921875
z: -0.10364099591970444
visibility: 0.9973500967025757
","x: 249.79554748535156
y: 315.9879150390625
z: 0.02440696582198143
visibility: 0.9992532730102539
","x: 287.776611328125
y: 344.57452392578125
z: -0.11286262422800064
visibility: 0.7271761298179626
","x: 242.27047729492188
y: 340.7867736816406
z: 0.04661661759018898
visibility: 0.9256096482276917
","x: 289.3972473144531
y: 381.3228759765625
z: -0.190089613199234
visibility: 0.6194450259208679
","x: 240.42176818847656
y: 374.586181640625
z: -0.053628839552402496
visibility: 0.8786426186561584
","x: 290.67236328125
y: 388.4101867675781
z: -0.21217572689056396
visibility: 0.5602698922157288
","x: 238.90724182128906
y: 382.6419677734375
z: -0.07033446431159973
visibility: 0.8031933307647705
","x: 289.13055419921875
y: 388.08062744140625
z: -0.22771546244621277
visibility: 0.5715504884719849
","x: 239.808349609375
y: 380.84906005859375
z: -0.09338516741991043
visibility: 0.8052328824996948
","x: 288.2677001953125
y: 386.2319641113281
z: -0.19669267535209656
visibility: 0.540944516658783
","x: 241.4639892578125
y: 380.412109375
z: -0.06601463258266449
visibility: 0.7764726877212524
","x: 271.9437561035156
y: 400.2554016113281
z: -0.04209258034825325
visibility: 0.9985461831092834
","x: 256.11285400390625
y: 400.9419250488281
z: 0.042178623378276825
visibility: 0.9991095662117004
","x: 267.3772888183594
y: 454.27044677734375
z: -0.042840369045734406
visibility: 0.9396652579307556
","x: 250.97219848632812
y: 450.827392578125
z: -0.01940297521650791
visibility: 0.9643195271492004
","x: 272.4520263671875
y: 504.137451171875
z: 0.11099936813116074
visibility: 0.9038776755332947
","x: 254.68817138671875
y: 512.0720825195312
z: 0.08610557019710541
visibility: 0.953778088092804
","x: 274.5499572753906
y: 508.7061767578125
z: 0.12018396705389023
visibility: 0.6846697330474854
","x: 255.12274169921875
y: 521.641357421875
z: 0.08887320011854172
visibility: 0.7579941749572754
","x: 266.8144836425781
y: 525.349609375
z: 0.039056770503520966
visibility: 0.90370112657547
","x: 242.86187744140625
y: 524.648681640625
z: 0.008910189382731915
visibility: 0.9461311101913452
",,,,,,,,,,,,,,,,,,,,,,,,,,,,,,,,,,,,,,,,,,
5,"x: 264.09552001953125
y: 300.6869812011719
z: -0.1606728434562683
visibility: 0.9932960867881775
","x: 265.8242492675781
y: 295.1535949707031
z: -0.1562410295009613
visibility: 0.9753432869911194
","x: 266.8684997558594
y: 295.005859375
z: -0.15629979968070984
visibility: 0.9751775860786438
","x: 267.9302673339844
y: 294.7934875488281
z: -0.15631727874279022
visibility: 0.9730189442634583
","x: 262.97259521484375
y: 294.7073669433594
z: -0.1479150354862213
visibility: 0.9771005511283875
","x: 261.92120361328125
y: 294.3096923828125
z: -0.14791056513786316
visibility: 0.9780460596084595
","x: 261.078369140625
y: 293.8747863769531
z: -0.14794835448265076
visibility: 0.9802470803260803
","x: 269.9546203613281
y: 294.85638427734375
z: -0.10247477144002914
visibility: 0.9306857585906982
","x: 261.19927978515625
y: 293.5816650390625
z: -0.06298874318599701
visibility: 0.956872820854187
","x: 266.03643798828125
y: 303.8607177734375
z: -0.1384037435054779
visibility: 0.9823887348175049
","x: 262.6127624511719
y: 303.7939147949219
z: -0.1271803230047226
visibility: 0.9850170016288757
","x: 279.6216125488281
y: 320.5335998535156
z: -0.09446398913860321
visibility: 0.997606635093689
","x: 253.06195068359375
y: 319.9880676269531
z: 0.023655910044908524
visibility: 0.9993183016777039
","x: 287.5474548339844
y: 360.3743896484375
z: -0.10159728676080704
visibility: 0.7534434795379639
","x: 244.47206115722656
y: 353.04998779296875
z: 0.059441614896059036
visibility: 0.9128543138504028
","x: 287.5290832519531
y: 398.0335693359375
z: -0.16059359908103943
visibility: 0.6537069082260132
","x: 237.2790985107422
y: 385.025390625
z: -0.02378659136593342
visibility: 0.8854809999465942
","x: 290.2420654296875
y: 410.7912902832031
z: -0.18232104182243347
visibility: 0.5966942310333252
","x: 233.66275024414062
y: 391.31689453125
z: -0.04193462058901787
visibility: 0.8148965835571289
","x: 287.55621337890625
y: 411.83917236328125
z: -0.19969114661216736
visibility: 0.6070788502693176
","x: 233.3704833984375
y: 391.0397644042969
z: -0.06904570758342743
visibility: 0.8175726532936096
","x: 286.47003173828125
y: 408.09185791015625
z: -0.1683535873889923
visibility: 0.5777936577796936
","x: 235.2915802001953
y: 390.0317077636719
z: -0.03796406835317612
visibility: 0.790995717048645
","x: 270.4716796875
y: 403.5155029296875
z: -0.040619950741529465
visibility: 0.9986081123352051
","x: 255.88763427734375
y: 402.700439453125
z: 0.040663886815309525
visibility: 0.9991819858551025
","x: 267.57452392578125
y: 459.90667724609375
z: -0.016262274235486984
visibility: 0.9445932507514954
","x: 248.99305725097656
y: 451.03765869140625
z: -0.02428406849503517
visibility: 0.9672137498855591
","x: 271.9964904785156
y: 509.074951171875
z: 0.10791905969381332
visibility: 0.9123548865318298
","x: 253.2640380859375
y: 510.4696044921875
z: 0.06856656074523926
visibility: 0.957907497882843
","x: 272.4134826660156
y: 515.7694091796875
z: 0.11468817293643951
visibility: 0.7007496356964111
","x: 256.646240234375
y: 519.1016845703125
z: 0.07235316187143326
visibility: 0.7799378037452698
","x: 266.7947082519531
y: 525.760009765625
z: 0.035312309861183167
visibility: 0.9116575717926025
","x: 242.0725860595703
y: 525.5567626953125
z: -0.000912965857423842
visibility: 0.9508017897605896
",,,,,,,,,,,,,,,,,,,,,,,,,,,,,,,,,,,,,,,,,,
6,"x: 263.7936706542969
y: 300.29522705078125
z: -0.15806342661380768
visibility: 0.9939480423927307
","x: 265.1292724609375
y: 293.5387878417969
z: -0.15618351101875305
visibility: 0.9777480363845825
","x: 266.1834411621094
y: 293.15667724609375
z: -0.15627072751522064
visibility: 0.9776102900505066
","x: 267.30108642578125
y: 292.8888244628906
z: -0.15632449090480804
visibility: 0.9756692051887512
","x: 262.6579895019531
y: 294.64453125
z: -0.14345797896385193
visibility: 0.9792750477790833
","x: 261.8797607421875
y: 293.7341613769531
z: -0.14344079792499542
visibility: 0.9801076054573059
","x: 261.1871643066406
y: 293.0345458984375
z: -0.1434721052646637
visibility: 0.9820884466171265
","x: 270.11309814453125
y: 294.6173400878906
z: -0.11493314802646637
visibility: 0.9375803470611572
","x: 261.2682189941406
y: 292.8713684082031
z: -0.05687182396650314
visibility: 0.9608996510505676
","x: 266.0616149902344
y: 303.7063293457031
z: -0.14136043190956116
visibility: 0.9841376543045044
","x: 262.7350158691406
y: 303.4011535644531
z: -0.12447657436132431
visibility: 0.9864807724952698
","x: 279.63458251953125
y: 321.77142333984375
z: -0.1123933419585228
visibility: 0.9978440999984741
","x: 255.4790802001953
y: 320.3359375
z: 0.02978561818599701
visibility: 0.9993674755096436
","x: 287.2049865722656
y: 365.7565612792969
z: -0.13049735128879547
visibility: 0.7774590253829956
","x: 248.498291015625
y: 353.6596984863281
z: 0.07248638570308685
visibility: 0.8879991173744202
","x: 286.43743896484375
y: 405.4259033203125
z: -0.17776408791542053
visibility: 0.6864540576934814
","x: 239.2547607421875
y: 383.9945983886719
z: -0.012638019397854805
visibility: 0.8915010690689087
","x: 288.4342346191406
y: 417.2563171386719
z: -0.19383645057678223
visibility: 0.6331051588058472
","x: 235.4308624267578
y: 390.8402099609375
z: -0.02666521444916725
visibility: 0.826678991317749
","x: 286.2423400878906
y: 417.8242492675781
z: -0.21091845631599426
visibility: 0.642615795135498
","x: 235.0579071044922
y: 390.7159423828125
z: -0.05436062812805176
visibility: 0.8297213315963745
","x: 285.227783203125
y: 414.2434387207031
z: -0.17771250009536743
visibility: 0.6151020526885986
","x: 236.95579528808594
y: 389.3674011230469
z: -0.027024630457162857
visibility: 0.8051134347915649
","x: 269.93994140625
y: 404.86248779296875
z: -0.047020647674798965
visibility: 0.9987322688102722
","x: 255.66879272460938
y: 402.92620849609375
z: 0.04700798541307449
visibility: 0.999249279499054
","x: 264.9293212890625
y: 459.7599792480469
z: -0.07298583537340164
visibility: 0.9490087628364563
","x: 249.06060791015625
y: 454.2191162109375
z: 0.01919025182723999
visibility: 0.9672062993049622
","x: 272.3781433105469
y: 505.0175476074219
z: 0.106051966547966
visibility: 0.9197415709495544
","x: 259.1701965332031
y: 508.779052734375
z: 0.16542425751686096
visibility: 0.9606276750564575
","x: 275.0244140625
y: 507.2098388671875
z: 0.119905985891819
visibility: 0.7212027311325073
","x: 263.45513916015625
y: 516.393798828125
z: 0.1762007772922516
visibility: 0.7979193925857544
","x: 268.3383483886719
y: 525.7371826171875
z: 0.053549956530332565
visibility: 0.9189178943634033
","x: 252.98257446289062
y: 525.52392578125
z: 0.1215423196554184
visibility: 0.9542350172996521
",,,,,,,,,,,,,,,,,,,,,,,,,,,,,,,,,,,,,,,,,,
7,"x: 261.79791259765625
y: 299.84515380859375
z: -0.19090905785560608
visibility: 0.9945524334907532
","x: 262.8240051269531
y: 293.1257019042969
z: -0.18523171544075012
visibility: 0.9799715876579285
","x: 263.85205078125
y: 292.8652648925781
z: -0.18529506027698517
visibility: 0.9798479080200195
","x: 264.9678039550781
y: 292.68896484375
z: -0.18533295392990112
visibility: 0.9781010746955872
","x: 260.39306640625
y: 293.68939208984375
z: -0.178165465593338
visibility: 0.9813443422317505
","x: 259.5313415527344
y: 292.89971923828125
z: -0.1781662553548813
visibility: 0.9820924401283264
","x: 258.7242736816406
y: 292.32733154296875
z: -0.17818447947502136
visibility: 0.9838730096817017
","x: 267.87554931640625
y: 294.13739013671875
z: -0.12507468461990356
visibility: 0.9438218474388123
","x: 258.3002014160156
y: 292.6497802734375
z: -0.08453024178743362
visibility: 0.9647928476333618
","x: 264.13665771484375
y: 303.17083740234375
z: -0.16579566895961761
visibility: 0.9857233762741089
","x: 260.56976318359375
y: 302.83746337890625
z: -0.15662354230880737
visibility: 0.9878304600715637
","x: 278.11456298828125
y: 321.62884521484375
z: -0.11604154109954834
visibility: 0.9980593919754028
","x: 252.81045532226562
y: 319.654296875
z: 0.010804185643792152
visibility: 0.9994074702262878
","x: 286.51507568359375
y: 364.1781005859375
z: -0.12252837419509888
visibility: 0.7996168732643127
","x: 248.82571411132812
y: 353.8035583496094
z: 0.03453878313302994
visibility: 0.8393652439117432
","x: 292.4898376464844
y: 402.448974609375
z: -0.16358071565628052
visibility: 0.7172105312347412
","x: 239.338623046875
y: 379.4286804199219
z: -0.16397511959075928
visibility: 0.8662853837013245
","x: 295.2884216308594
y: 411.7961120605469
z: -0.1828526258468628
visibility: 0.6682978868484497
","x: 237.29232788085938
y: 385.6498718261719
z: -0.1852731704711914
visibility: 0.8092902302742004
","x: 293.7734069824219
y: 412.2037353515625
z: -0.19924867153167725
visibility: 0.6770837903022766
","x: 238.18911743164062
y: 385.4167175292969
z: -0.20909380912780762
visibility: 0.8144832253456116
","x: 292.4645080566406
y: 409.70269775390625
z: -0.1689184010028839
visibility: 0.6518089175224304
","x: 239.63021850585938
y: 384.6026306152344
z: -0.17838923633098602
visibility: 0.7896808981895447
","x: 269.88018798828125
y: 400.31658935546875
z: -0.05298936367034912
visibility: 0.9988501071929932
","x: 255.65786743164062
y: 402.0560302734375
z: 0.05304732918739319
visibility: 0.9992984533309937
","x: 261.3722229003906
y: 449.78619384765625
z: -0.14666682481765747
visibility: 0.9532925486564636
","x: 253.66896057128906
y: 454.1714172363281
z: 0.051519107073545456
visibility: 0.9519456624984741
","x: 272.23486328125
y: 495.6551818847656
z: -0.024829339236021042
visibility: 0.9267997145652771
","x: 263.88262939453125
y: 508.4425354003906
z: 0.15782037377357483
visibility: 0.9607495665550232
","x: 273.3375549316406
y: 500.2135009765625
z: -0.01576976291835308
visibility: 0.743080735206604
","x: 267.7750244140625
y: 515.251220703125
z: 0.1712290495634079
visibility: 0.8114596605300903
","x: 264.3799743652344
y: 519.58984375
z: -0.08207718282938004
visibility: 0.9258480072021484
","x: 255.9473114013672
y: 523.6716918945312
z: 0.09671919047832489
visibility: 0.9546065330505371
",,,,,,,,,,,,,,,,,,,,,,,,,,,,,,,,,,,,,,,,,,
8,"x: 257.50128173828125
y: 302.426025390625
z: -0.18620486557483673
visibility: 0.9950932264328003
","x: 259.0870361328125
y: 296.19903564453125
z: -0.17929571866989136
visibility: 0.9819695949554443
","x: 260.2518005371094
y: 295.8582763671875
z: -0.17936766147613525
visibility: 0.9818587303161621
","x: 261.52783203125
y: 295.5875244140625
z: -0.1794629991054535
visibility: 0.9802875518798828
","x: 256.6867370605469
y: 296.58929443359375
z: -0.17017553746700287
visibility: 0.983203113079071
","x: 255.9980926513672
y: 296.2328796386719
z: -0.17019720375537872
visibility: 0.9838727116584778
","x: 255.3132781982422
y: 295.93121337890625
z: -0.17017778754234314
visibility: 0.9854695200920105
","x: 264.80615234375
y: 296.325927734375
z: -0.1170307844877243
visibility: 0.9494373202323914
","x: 255.55264282226562
y: 295.9319763183594
z: -0.07577283680438995
visibility: 0.968275249004364
","x: 259.7901611328125
y: 306.8778076171875
z: -0.16166330873966217
visibility: 0.9871483445167542
","x: 256.9778137207031
y: 307.0046691894531
z: -0.15013697743415833
visibility: 0.9890334606170654
","x: 275.98565673828125
y: 324.63787841796875
z: -0.09117693454027176
visibility: 0.9982517957687378
","x: 250.0484619140625
y: 324.6314697265625
z: 0.008099834434688091
visibility: 0.9993721842765808
","x: 289.2621765136719
y: 363.4563903808594
z: -0.09814959764480591
visibility: 0.81911700963974
","x: 248.748779296875
y: 358.6300354003906
z: 0.012379452586174011
visibility: 0.7998035550117493
","x: 302.4103088378906
y: 398.4802551269531
z: -0.15114004909992218
visibility: 0.7403095364570618
","x: 241.081787109375
y: 371.069580078125
z: -0.10096213966608047
visibility: 0.823522686958313
","x: 305.31640625
y: 409.4389343261719
z: -0.17020681500434875
visibility: 0.6908697485923767
","x: 238.0708465576172
y: 375.6181335449219
z: -0.11079232394695282
visibility: 0.772968053817749
","x: 304.3000183105469
y: 408.51202392578125
z: -0.18653132021427155
visibility: 0.7005425095558167
","x: 240.1027069091797
y: 373.0030517578125
z: -0.12487467378377914
visibility: 0.7802144885063171
","x: 302.6591796875
y: 405.23211669921875
z: -0.1577630490064621
visibility: 0.6751766800880432
","x: 241.44430541992188
y: 371.94207763671875
z: -0.10900156199932098
visibility: 0.7519058585166931
","x: 270.1396789550781
y: 400.696044921875
z: -0.04196383059024811
visibility: 0.9989517331123352
","x: 256.73895263671875
y: 402.0611267089844
z: 0.04208216816186905
visibility: 0.9991901516914368
","x: 262.44134521484375
y: 448.12548828125
z: -0.28555017709732056
visibility: 0.9458894729614258
","x: 256.7548522949219
y: 454.1302185058594
z: 0.07384736835956573
visibility: 0.8847886919975281
","x: 259.8160705566406
y: 506.2904357910156
z: -0.298145592212677
visibility: 0.9246732592582703
","x: 263.8450012207031
y: 508.51617431640625
z: 0.1783207803964615
visibility: 0.8934600353240967
","x: 256.4525451660156
y: 521.2894287109375
z: -0.3029790222644806
visibility: 0.7548843026161194
","x: 266.4184875488281
y: 516.107666015625
z: 0.18459777534008026
visibility: 0.7675377130508423
","x: 254.34500122070312
y: 518.9913330078125
z: -0.41414204239845276
visibility: 0.9244707226753235
","x: 256.966796875
y: 523.4602661132812
z: 0.11083582788705826
visibility: 0.8915882706642151
",,,,,,,,,,,,,,,,,,,,,,,,,,,,,,,,,,,,,,,,,,
9,"x: 259.341064453125
y: 303.75360107421875
z: -0.33284881711006165
visibility: 0.9955834150314331
","x: 260.94476318359375
y: 297.425048828125
z: -0.3293704390525818
visibility: 0.983771800994873
","x: 262.0794982910156
y: 297.0380859375
z: -0.329411119222641
visibility: 0.9836723208427429
","x: 263.284423828125
y: 296.63433837890625
z: -0.3295082151889801
visibility: 0.9822580814361572
","x: 258.3388671875
y: 297.9314880371094
z: -0.3186313807964325
visibility: 0.9848810434341431
","x: 257.5610046386719
y: 297.80084228515625
z: -0.31867915391921997
visibility: 0.9854837656021118
","x: 256.85009765625
y: 297.7350158691406
z: -0.318636417388916
visibility: 0.9869204759597778
","x: 266.1590576171875
y: 297.0303039550781
z: -0.26603132486343384
visibility: 0.9544932842254639
","x: 256.7095031738281
y: 298.1134338378906
z: -0.2168867290019989
visibility: 0.9714460372924805
","x: 261.58154296875
y: 308.51763916015625
z: -0.3068878948688507
visibility: 0.988433301448822
","x: 258.4294738769531
y: 308.9151611328125
z: -0.2926628887653351
visibility: 0.9901293516159058
","x: 276.201171875
y: 328.6424255371094
z: -0.22604449093341827
visibility: 0.9984265565872192
","x: 250.31170654296875
y: 323.8011474609375
z: -0.09040810167789459
visibility: 0.9994326829910278
","x: 294.4162292480469
y: 363.8320617675781
z: -0.2587239444255829
visibility: 0.8371793627738953
","x: 246.65869140625
y: 358.1064147949219
z: 0.057555269449949265
visibility: 0.802606999874115
","x: 308.7791442871094
y: 396.6435546875
z: -0.3530074656009674
visibility: 0.7660402655601501
","x: 239.41455078125
y: 372.9730529785156
z: 0.13011109828948975
visibility: 0.8334522247314453
","x: 312.76605224609375
y: 409.0087585449219
z: -0.3797089159488678
visibility: 0.7209226489067078
","x: 236.83323669433594
y: 379.77423095703125
z: 0.14310738444328308
visibility: 0.7839495539665222
","x: 311.2893981933594
y: 405.97802734375
z: -0.40273982286453247
visibility: 0.7297566533088684
","x: 237.86944580078125
y: 377.9683837890625
z: 0.11962641775608063
visibility: 0.7917745113372803
","x: 309.420166015625
y: 403.35711669921875
z: -0.3642723560333252
visibility: 0.7065497040748596
","x: 239.23553466796875
y: 375.8819885253906
z: 0.1237921267747879
visibility: 0.7664967179298401
","x: 272.24359130859375
y: 399.7732238769531
z: -0.051439590752124786
visibility: 0.9990485310554504
","x: 257.3327941894531
y: 401.9692687988281
z: 0.05157573148608208
visibility: 0.9992546439170837
","x: 260.958251953125
y: 448.9436340332031
z: -0.17502932250499725
visibility: 0.9506468176841736
","x: 255.45925903320312
y: 454.2215270996094
z: 0.028583139181137085
visibility: 0.8859771490097046
","x: 266.01031494140625
y: 505.4986572265625
z: -0.05601632595062256
visibility: 0.931681752204895
","x: 262.29730224609375
y: 508.0477600097656
z: 0.16859722137451172
visibility: 0.8993943929672241
","x: 268.8946228027344
y: 516.529052734375
z: -0.04820563644170761
visibility: 0.7741486430168152
","x: 265.3381652832031
y: 515.4691772460938
z: 0.17461365461349487
visibility: 0.7804670929908752
","x: 255.8173065185547
y: 520.22705078125
z: -0.13612313568592072
visibility: 0.9311279654502869
","x: 256.2583312988281
y: 523.4632568359375
z: 0.09359501302242279
visibility: 0.8976790904998779
",,,,,,,,,,,,,,,,,,,,,,,,,,,,,,,,,,,,,,,,,,
10,"x: 263.36444091796875
y: 303.1118469238281
z: -0.2724889814853668
visibility: 0.9960222244262695
","x: 264.5851745605469
y: 297.13629150390625
z: -0.2670559585094452
visibility: 0.9853885769844055
","x: 265.632080078125
y: 296.48492431640625
z: -0.26710763573646545
visibility: 0.9853004813194275
","x: 266.7966003417969
y: 295.882080078125
z: -0.26719921827316284
visibility: 0.9840282201766968
","x: 261.89593505859375
y: 297.280029296875
z: -0.25727349519729614
visibility: 0.9863815307617188
","x: 261.03533935546875
y: 296.9504699707031
z: -0.25728100538253784
visibility: 0.9869192838668823
","x: 260.2221374511719
y: 296.728271484375
z: -0.25726544857025146
visibility: 0.9882079362869263
","x: 270.6119689941406
y: 296.7702331542969
z: -0.20503869652748108
visibility: 0.95904141664505
","x: 259.98211669921875
y: 296.95025634765625
z: -0.15933923423290253
visibility: 0.9742626547813416
","x: 265.8835144042969
y: 308.1181640625
z: -0.24726848304271698
visibility: 0.9895880818367004
","x: 262.9318542480469
y: 308.77294921875
z: -0.23415496945381165
visibility: 0.9911089539527893
","x: 280.92431640625
y: 326.9457702636719
z: -0.17177814245224
visibility: 0.9985836148262024
","x: 254.328857421875
y: 322.94537353515625
z: -0.057787202298641205
visibility: 0.9994693994522095
","x: 293.9981994628906
y: 363.5321044921875
z: -0.1788835972547531
visibility: 0.8533652424812317
","x: 248.1947479248047
y: 358.6394958496094
z: 0.023293429985642433
visibility: 0.7878367900848389
","x: 304.2381896972656
y: 400.4559020996094
z: -0.2441154420375824
visibility: 0.7885681390762329
","x: 244.24729919433594
y: 386.7056579589844
z: -0.024591315537691116
visibility: 0.8175073862075806
","x: 308.1502990722656
y: 410.4198913574219
z: -0.2693161368370056
visibility: 0.7464338541030884
","x: 241.96066284179688
y: 396.0505676269531
z: -0.03426932916045189
visibility: 0.7629296183586121
","x: 306.87615966796875
y: 411.1932373046875
z: -0.2887144982814789
visibility: 0.7547239065170288
","x: 242.4341278076172
y: 395.1232604980469
z: -0.0569772943854332
visibility: 0.7724972367286682
","x: 305.0145263671875
y: 408.695068359375
z: -0.25368407368659973
visibility: 0.7329118251800537
","x: 243.8088836669922
y: 392.5750732421875
z: -0.03475538641214371
visibility: 0.7485668659210205
","x: 273.020263671875
y: 397.1296691894531
z: -0.04803987964987755
visibility: 0.9991354942321777
","x: 257.3697814941406
y: 399.96453857421875
z: 0.04814472049474716
visibility: 0.9992963671684265
","x: 262.1585693359375
y: 448.90814208984375
z: -0.18822267651557922
visibility: 0.954802393913269
","x: 254.35726928710938
y: 452.8542785644531
z: -0.00019346651970408857
visibility: 0.8901306986808777
","x: 275.95037841796875
y: 504.39837646484375
z: -0.12619951367378235
visibility: 0.9382134079933167
","x: 262.0759582519531
y: 508.29327392578125
z: 0.1040869951248169
visibility: 0.9063451290130615
","x: 281.7311706542969
y: 512.9241943359375
z: -0.12525956332683563
visibility: 0.7912998795509338
","x: 265.815185546875
y: 516.3640747070312
z: 0.10829280316829681
visibility: 0.7941964864730835
","x: 269.38677978515625
y: 521.256591796875
z: -0.22386205196380615
visibility: 0.9374220371246338
","x: 255.10791015625
y: 525.04833984375
z: 0.02522810362279415
visibility: 0.9047841429710388
",,,,,,,,,,,,,,,,,,,,,,,,,,,,,,,,,,,,,,,,,,
11,"x: 266.767822265625
y: 294.60894775390625
z: -0.18459954857826233
visibility: 0.9964187741279602
","x: 268.0617370605469
y: 289.50634765625
z: -0.17825530469417572
visibility: 0.9868460893630981
","x: 269.10687255859375
y: 289.1418151855469
z: -0.17832735180854797
visibility: 0.986767590045929
","x: 270.26275634765625
y: 288.92864990234375
z: -0.1783926784992218
visibility: 0.9856230616569519
","x: 265.3144836425781
y: 290.5438537597656
z: -0.16940350830554962
visibility: 0.9877386093139648
","x: 264.4202880859375
y: 290.9601135253906
z: -0.16938334703445435
visibility: 0.9882211089134216
","x: 263.5687255859375
y: 291.46588134765625
z: -0.16937388479709625
visibility: 0.9893800020217896
","x: 273.4542541503906
y: 292.4877014160156
z: -0.12505578994750977
visibility: 0.9631351232528687
","x: 263.2680358886719
y: 294.04095458984375
z: -0.08252136409282684
visibility: 0.9768229722976685
","x: 269.25469970703125
y: 300.06201171875
z: -0.16360898315906525
visibility: 0.9906277060508728
","x: 266.038330078125
y: 301.188720703125
z: -0.1515863537788391
visibility: 0.9919941425323486
","x: 283.46697998046875
y: 326.1073303222656
z: -0.12248381227254868
visibility: 0.9987248182296753
","x: 257.438720703125
y: 322.3449401855469
z: 0.008457204326987267
visibility: 0.9995113015174866
","x: 291.96856689453125
y: 366.2796630859375
z: -0.12868770956993103
visibility: 0.8678082227706909
","x: 256.8395080566406
y: 363.0151672363281
z: 0.04478944092988968
visibility: 0.7361790537834167
","x: 303.2636413574219
y: 404.6110534667969
z: -0.16000890731811523
visibility: 0.8080883026123047
","x: 253.73098754882812
y: 394.8362731933594
z: -0.03825531154870987
visibility: 0.7801697254180908
","x: 307.63494873046875
y: 414.72021484375
z: -0.1789528876543045
visibility: 0.7682042121887207
","x: 253.23391723632812
y: 403.40386962890625
z: -0.052872855216264725
visibility: 0.7298235893249512
","x: 304.7757263183594
y: 415.5110168457031
z: -0.19449546933174133
visibility: 0.7759455442428589
","x: 253.82489013671875
y: 401.8437194824219
z: -0.0786634162068367
visibility: 0.7404323220252991
","x: 304.2268981933594
y: 412.0997619628906
z: -0.1661185622215271
visibility: 0.7548494935035706
","x: 254.57095336914062
y: 399.12896728515625
z: -0.05139421299099922
visibility: 0.7170741558074951
","x: 274.6700744628906
y: 397.69580078125
z: -0.04917661473155022
visibility: 0.999215841293335
","x: 258.877197265625
y: 399.19842529296875
z: 0.049249254167079926
visibility: 0.9993607997894287
","x: 267.0682678222656
y: 451.5515441894531
z: -0.09814579784870148
visibility: 0.9589474201202393
","x: 250.41189575195312
y: 446.7010803222656
z: -0.08018748462200165
visibility: 0.9003079533576965
","x: 276.9308166503906
y: 508.5499267578125
z: -0.04438763111829758
visibility: 0.9442324638366699
","x: 260.6864318847656
y: 504.427734375
z: -5.110138954478316e-05
visibility: 0.9151988625526428
","x: 281.317138671875
y: 519.3199462890625
z: -0.03835557773709297
visibility: 0.8086077570915222
","x: 264.727783203125
y: 512.7349853515625
z: 0.002173117594793439
visibility: 0.8122974038124084
","x: 270.22772216796875
y: 522.0244140625
z: -0.12703701853752136
visibility: 0.9433615207672119
","x: 252.96987915039062
y: 524.001220703125
z: -0.06912011653184891
visibility: 0.9137790203094482
",,,,,,,,,,,,,,,,,,,,,,,,,,,,,,,,,,,,,,,,,,
12,"x: 267.5350646972656
y: 291.9213562011719
z: -0.19919249415397644
visibility: 0.9967746138572693
","x: 269.12615966796875
y: 287.0595703125
z: -0.19216029345989227
visibility: 0.9881554841995239
","x: 270.2670593261719
y: 286.8804626464844
z: -0.1922183334827423
visibility: 0.9880856871604919
","x: 271.4571228027344
y: 286.8031005859375
z: -0.19226807355880737
visibility: 0.9870554208755493
","x: 266.12615966796875
y: 287.9505615234375
z: -0.1844090223312378
visibility: 0.9889585375785828
","x: 265.1951599121094
y: 288.452392578125
z: -0.18439963459968567
visibility: 0.9893916249275208
","x: 264.30450439453125
y: 289.02008056640625
z: -0.18440106511116028
visibility: 0.9904322624206543
","x: 274.261962890625
y: 290.5505065917969
z: -0.13282667100429535
visibility: 0.966816782951355
","x: 264.17144775390625
y: 292.41656494140625
z: -0.09607978910207748
visibility: 0.9791066646575928
","x: 270.11834716796875
y: 297.63140869140625
z: -0.17568561434745789
visibility: 0.9915602803230286
","x: 266.33404541015625
y: 298.85992431640625
z: -0.16531842947006226
visibility: 0.9927862286567688
","x: 283.80584716796875
y: 325.5924987792969
z: -0.12260522693395615
visibility: 0.9988463521003723
","x: 258.7705383300781
y: 322.6893310546875
z: -0.0015858650440350175
visibility: 0.9995201230049133
","x: 287.92669677734375
y: 367.4749755859375
z: -0.12556597590446472
visibility: 0.8796404004096985
","x: 258.912841796875
y: 362.55303955078125
z: 0.034639228135347366
visibility: 0.6783639788627625
","x: 280.44598388671875
y: 402.2342529296875
z: -0.1519160270690918
visibility: 0.8156630396842957
","x: 257.2704772949219
y: 390.89520263671875
z: -0.045207273215055466
visibility: 0.7199957370758057
","x: 278.9360656738281
y: 412.52264404296875
z: -0.17350266873836517
visibility: 0.7729144096374512
","x: 257.5712890625
y: 400.58306884765625
z: -0.05928532034158707
visibility: 0.6755642294883728
","x: 276.6387023925781
y: 412.065673828125
z: -0.18650074303150177
visibility: 0.7811227440834045
","x: 258.0215759277344
y: 400.30517578125
z: -0.08419328927993774
visibility: 0.6860801577568054
","x: 276.9355773925781
y: 408.89288330078125
z: -0.15664014220237732
visibility: 0.7561757564544678
","x: 259.42413330078125
y: 397.06793212890625
z: -0.05754420906305313
visibility: 0.6648804545402527
","x: 277.2913513183594
y: 401.396484375
z: -0.046718794852495193
visibility: 0.9992344379425049
","x: 262.7601623535156
y: 401.52911376953125
z: 0.04680062085390091
visibility: 0.9993970394134521
","x: 273.0244445800781
y: 457.5137939453125
z: -0.02511158213019371
visibility: 0.9620872735977173
","x: 256.66802978515625
y: 452.6143798828125
z: -0.0018461091676726937
visibility: 0.9077193140983582
","x: 281.0050964355469
y: 509.6949768066406
z: 0.06734226644039154
visibility: 0.9488895535469055
","x: 249.66001892089844
y: 509.10076904296875
z: 0.0662996843457222
visibility: 0.9232125282287598
","x: 283.8340759277344
y: 520.138916015625
z: 0.07079251110553741
visibility: 0.8164307475090027
","x: 250.67295837402344
y: 522.0338745117188
z: 0.06642927974462509
visibility: 0.8267543315887451
","x: 270.89959716796875
y: 522.8643188476562
z: -0.0068465606309473515
visibility: 0.9477143883705139
","x: 235.43927001953125
y: 517.2781982421875
z: -0.010515602305531502
visibility: 0.9216417670249939
",,,,,,,,,,,,,,,,,,,,,,,,,,,,,,,,,,,,,,,,,,
13,"x: 267.5311279296875
y: 292.0511474609375
z: -0.14215771853923798
visibility: 0.9970961809158325
","x: 269.3852233886719
y: 287.2109375
z: -0.13356198370456696
visibility: 0.9893372058868408
","x: 270.6038513183594
y: 287.12939453125
z: -0.1336374133825302
visibility: 0.9892747402191162
","x: 271.8353576660156
y: 287.1199951171875
z: -0.13367918133735657
visibility: 0.9883476495742798
","x: 266.34320068359375
y: 287.7615661621094
z: -0.12416785955429077
visibility: 0.9900599718093872
","x: 265.4497375488281
y: 288.1102294921875
z: -0.12415169179439545
visibility: 0.9904490113258362
","x: 264.5926208496094
y: 288.51702880859375
z: -0.12415622174739838
visibility: 0.9913853406906128
","x: 274.59442138671875
y: 290.58148193359375
z: -0.07394419610500336
visibility: 0.9701328873634338
","x: 264.4320068359375
y: 291.9335632324219
z: -0.02967301942408085
visibility: 0.9811826944351196
","x: 270.15606689453125
y: 297.61065673828125
z: -0.11917152255773544
visibility: 0.9924015402793884
","x: 266.1607666015625
y: 298.5935363769531
z: -0.10667151212692261
visibility: 0.9935024380683899
","x: 283.5333557128906
y: 324.3734436035156
z: -0.0863795205950737
visibility: 0.9989602565765381
","x: 260.083740234375
y: 323.5207824707031
z: 0.07087542116641998
visibility: 0.9995396733283997
","x: 286.6578063964844
y: 366.6518859863281
z: -0.11221494525671005
visibility: 0.891368567943573
","x: 261.7861633300781
y: 363.8675537109375
z: 0.0916898250579834
visibility: 0.6210415959358215
","x: 272.7818908691406
y: 396.27325439453125
z: -0.14481782913208008
visibility: 0.831306517124176
","x: 258.5098571777344
y: 389.11492919921875
z: -0.016252310946583748
visibility: 0.6689199209213257
","x: 269.5567932128906
y: 406.4849853515625
z: -0.1683153212070465
visibility: 0.7894462943077087
","x: 257.0705261230469
y: 398.4488220214844
z: -0.03358663246035576
visibility: 0.6301810145378113
","x: 267.26092529296875
y: 402.525146484375
z: -0.17536094784736633
visibility: 0.7971983551979065
","x: 257.46185302734375
y: 397.7962646484375
z: -0.056523002684116364
visibility: 0.6407123804092407
","x: 268.2591857910156
y: 399.60858154296875
z: -0.14702779054641724
visibility: 0.7705361247062683
","x: 258.72442626953125
y: 395.2607421875
z: -0.028938138857483864
visibility: 0.6204476356506348
","x: 276.50689697265625
y: 401.9876403808594
z: -0.05658264830708504
visibility: 0.999291718006134
","x: 262.9143981933594
y: 401.3607177734375
z: 0.05667626112699509
visibility: 0.9994510412216187
","x: 272.52606201171875
y: 456.993896484375
z: -0.05900891497731209
visibility: 0.9654904007911682
","x: 255.69992065429688
y: 447.1382141113281
z: -0.06594590097665787
visibility: 0.9156380295753479
","x: 280.92755126953125
y: 508.9842529296875
z: 0.027499089017510414
visibility: 0.9535300135612488
","x: 251.22515869140625
y: 508.600830078125
z: -0.01669771783053875
visibility: 0.9305019378662109
","x: 284.6149597167969
y: 518.3828125
z: 0.034931473433971405
visibility: 0.8281751871109009
","x: 252.9281005859375
y: 520.0340576171875
z: -0.01792192831635475
visibility: 0.8413127064704895
","x: 270.70751953125
y: 523.9953002929688
z: -0.05113227292895317
visibility: 0.9523562788963318
","x: 235.9839630126953
y: 516.4483642578125
z: -0.09524807333946228
visibility: 0.9289900660514832
",,,,,,,,,,,,,,,,,,,,,,,,,,,,,,,,,,,,,,,,,,
14,"x: 267.11444091796875
y: 292.4134216308594
z: -0.17925682663917542
visibility: 0.9973843097686768
","x: 268.79754638671875
y: 287.48486328125
z: -0.17039164900779724
visibility: 0.9903963208198547
","x: 269.96527099609375
y: 287.4049072265625
z: -0.17046113312244415
visibility: 0.9903395175933838
","x: 271.175048828125
y: 287.38543701171875
z: -0.17051269114017487
visibility: 0.9895063638687134
","x: 266.00762939453125
y: 287.97296142578125
z: -0.16162431240081787
visibility: 0.9910458922386169
","x: 265.1853942871094
y: 288.271240234375
z: -0.16161729395389557
visibility: 0.9913928508758545
","x: 264.3456726074219
y: 288.6202087402344
z: -0.16162797808647156
visibility: 0.9922361969947815
","x: 273.94781494140625
y: 290.5895690917969
z: -0.10379870980978012
visibility: 0.9731141328811646
","x: 263.9195556640625
y: 291.8710632324219
z: -0.06084493547677994
visibility: 0.9830439686775208
","x: 269.5418395996094
y: 297.94012451171875
z: -0.15338388085365295
visibility: 0.9931584596633911
","x: 266.11102294921875
y: 298.6493835449219
z: -0.14136211574077606
visibility: 0.9941458106040955
","x: 282.6208190917969
y: 322.81787109375
z: -0.093622125685215
visibility: 0.9990625977516174
","x: 259.14111328125
y: 323.1568603515625
z: 0.03774049133062363
visibility: 0.9995622634887695
","x: 282.58050537109375
y: 365.9988708496094
z: -0.11749173700809479
visibility: 0.9019018411636353
","x: 260.7276611328125
y: 363.340087890625
z: 0.06867989897727966
visibility: 0.5744026303291321
","x: 261.62249755859375
y: 377.725830078125
z: -0.16327209770679474
visibility: 0.8465933203697205
","x: 256.5860900878906
y: 388.3718566894531
z: -0.03561052307486534
visibility: 0.6281270384788513
","x: 257.3624267578125
y: 384.5212097167969
z: -0.17788057029247284
visibility: 0.8066138029098511
","x: 255.0537872314453
y: 397.304931640625
z: -0.05032121017575264
visibility: 0.5929822325706482
","x: 256.07281494140625
y: 380.14508056640625
z: -0.2009042203426361
visibility: 0.813665509223938
","x: 254.91580200195312
y: 396.8377990722656
z: -0.06877739727497101
visibility: 0.6033446788787842
","x: 257.6848449707031
y: 378.0883483886719
z: -0.17110681533813477
visibility: 0.7861731052398682
","x: 256.13818359375
y: 393.05596923828125
z: -0.047874920070171356
visibility: 0.5831151604652405
","x: 275.33428955078125
y: 403.624755859375
z: -0.05080587789416313
visibility: 0.9993491172790527
","x: 260.6599426269531
y: 401.3372802734375
z: 0.050914209336042404
visibility: 0.99950110912323
","x: 271.729248046875
y: 459.1763610839844
z: -0.07785383611917496
visibility: 0.9687480330467224
","x: 245.16802978515625
y: 443.6322326660156
z: -0.12697309255599976
visibility: 0.9239616394042969
","x: 279.98345947265625
y: 509.9341125488281
z: 0.052761323750019073
visibility: 0.9580044746398926
","x: 245.34742736816406
y: 500.7113342285156
z: 0.002434066031128168
visibility: 0.9373542666435242
","x: 282.9865417480469
y: 517.1958618164062
z: 0.060594458132982254
visibility: 0.838313639163971
","x: 249.98895263671875
y: 509.2871398925781
z: 0.009545977227389812
visibility: 0.8563272356987
","x: 274.647216796875
y: 525.746826171875
z: -0.033770181238651276
visibility: 0.9566993117332458
","x: 234.62428283691406
y: 517.5465698242188
z: -0.0720939189195633
visibility: 0.9359233379364014
",,,,,,,,,,,,,,,,,,,,,,,,,,,,,,,,,,,,,,,,,,
15,"x: 262.21240234375
y: 289.402587890625
z: -0.14555086195468903
visibility: 0.9976405501365662
","x: 264.1563720703125
y: 283.9710693359375
z: -0.13919515907764435
visibility: 0.9913486838340759
","x: 265.27392578125
y: 283.9557189941406
z: -0.13927163183689117
visibility: 0.9912973642349243
","x: 266.54779052734375
y: 283.989990234375
z: -0.13932105898857117
visibility: 0.9905484318733215
","x: 261.4399719238281
y: 284.37762451171875
z: -0.12862779200077057
visibility: 0.9919291138648987
","x: 260.558349609375
y: 284.73590087890625
z: -0.1286020129919052
visibility: 0.9922357201576233
","x: 259.6145324707031
y: 285.17578125
z: -0.1285712867975235
visibility: 0.992989182472229
","x: 269.7125549316406
y: 287.43109130859375
z: -0.08244669437408447
visibility: 0.9757981896400452
","x: 260.1924133300781
y: 288.8245849609375
z: -0.03329186886548996
visibility: 0.9846752882003784
","x: 264.4207763671875
y: 295.1883239746094
z: -0.12334445863962173
visibility: 0.9938381910324097
","x: 261.29425048828125
y: 296.1517028808594
z: -0.10938286781311035
visibility: 0.9947126507759094
","x: 278.5618896484375
y: 317.5352783203125
z: -0.08576872199773788
visibility: 0.999154806137085
","x: 256.2609558105469
y: 322.2679443359375
z: 0.06158529967069626
visibility: 0.9995272159576416
","x: 281.20672607421875
y: 356.41290283203125
z: -0.14428982138633728
visibility: 0.9114560484886169
","x: 257.4725036621094
y: 358.328369140625
z: 0.05677191540598869
visibility: 0.5333831310272217
","x: 261.18536376953125
y: 358.1856689453125
z: -0.2326301634311676
visibility: 0.8611670732498169
","x: 249.52325439453125
y: 367.32794189453125
z: -0.08689296990633011
visibility: 0.6068164110183716
","x: 257.0787353515625
y: 361.42529296875
z: -0.26308050751686096
visibility: 0.8240737318992615
","x: 248.8614501953125
y: 371.35430908203125
z: -0.10882009565830231
visibility: 0.5788087248802185
","x: 254.47076416015625
y: 352.78387451171875
z: -0.25965243577957153
visibility: 0.8304457664489746
","x: 248.77610778808594
y: 367.2454528808594
z: -0.1287006288766861
visibility: 0.5891077518463135
","x: 257.8795471191406
y: 354.4120788574219
z: -0.23144598305225372
visibility: 0.8040905594825745
","x: 250.05906677246094
y: 366.17596435546875
z: -0.09987960010766983
visibility: 0.5679981112480164
","x: 269.53424072265625
y: 402.22894287109375
z: -0.04883920028805733
visibility: 0.9993861317634583
","x: 257.0703430175781
y: 400.539794921875
z: 0.04891233146190643
visibility: 0.9994794130325317
","x: 271.3171691894531
y: 457.8320617675781
z: -0.05598343163728714
visibility: 0.9706337451934814
","x: 246.7745361328125
y: 445.24053955078125
z: 0.05946335941553116
visibility: 0.9282822012901306
","x: 279.2019348144531
y: 509.5288391113281
z: 0.032239753752946854
visibility: 0.9612945914268494
","x: 242.8021697998047
y: 500.1646728515625
z: 0.1597098857164383
visibility: 0.9421481490135193
","x: 281.5025329589844
y: 516.5382080078125
z: 0.04466155171394348
visibility: 0.845600426197052
","x: 246.67974853515625
y: 508.1023864746094
z: 0.16456569731235504
visibility: 0.865647554397583
","x: 274.3581848144531
y: 524.738037109375
z: -0.04689571633934975
visibility: 0.9597201347351074
","x: 232.85984802246094
y: 517.6354370117188
z: 0.10108663141727448
visibility: 0.9404280185699463
",,,,,,,,,,,,,,,,,,,,,,,,,,,,,,,,,,,,,,,,,,
16,"x: 258.69342041015625
y: 286.9791259765625
z: -0.1468249261379242
visibility: 0.9978739023208618
","x: 260.47515869140625
y: 281.260498046875
z: -0.1371951401233673
visibility: 0.9922090768814087
","x: 261.6231994628906
y: 281.14068603515625
z: -0.1372697800397873
visibility: 0.9921628832817078
","x: 262.78363037109375
y: 281.1086730957031
z: -0.13731649518013
visibility: 0.9914891123771667
","x: 257.4391174316406
y: 281.99542236328125
z: -0.13015016913414001
visibility: 0.9927282929420471
","x: 256.4480895996094
y: 282.3669128417969
z: -0.13011987507343292
visibility: 0.9930009245872498
","x: 255.4788818359375
y: 282.8014831542969
z: -0.13008376955986023
visibility: 0.9936745762825012
","x: 265.1543884277344
y: 284.5262451171875
z: -0.07204439491033554
visibility: 0.9782155156135559
","x: 255.44932556152344
y: 286.25628662109375
z: -0.038511451333761215
visibility: 0.9861713647842407
","x: 260.86151123046875
y: 292.66033935546875
z: -0.12198144197463989
visibility: 0.994452714920044
","x: 257.61981201171875
y: 293.6782531738281
z: -0.11250314861536026
visibility: 0.9952340126037598
","x: 275.3028564453125
y: 316.6588134765625
z: -0.0672011449933052
visibility: 0.999238908290863
","x: 250.4811553955078
y: 320.21234130859375
z: 0.04808744788169861
visibility: 0.9995362758636475
","x: 280.640869140625
y: 354.9064636230469
z: -0.1368185430765152
visibility: 0.9202151298522949
","x: 251.81396484375
y: 356.2447509765625
z: 0.05495823174715042
visibility: 0.507755696773529
","x: 262.0302734375
y: 359.50262451171875
z: -0.23835580050945282
visibility: 0.8748217225074768
","x: 247.86375427246094
y: 372.51690673828125
z: -0.07599933445453644
visibility: 0.5946836471557617
","x: 256.92950439453125
y: 361.6454772949219
z: -0.2721707820892334
visibility: 0.8409530520439148
","x: 246.2637176513672
y: 376.550537109375
z: -0.09164072573184967
visibility: 0.5689002871513367
","x: 256.0130310058594
y: 355.510009765625
z: -0.26807543635368347
visibility: 0.8466930389404297
","x: 246.37936401367188
y: 374.5101318359375
z: -0.11315800249576569
visibility: 0.5786189436912537
","x: 257.36578369140625
y: 354.4181823730469
z: -0.23767726123332977
visibility: 0.8223208785057068
","x: 247.7042999267578
y: 373.97479248046875
z: -0.08740956336259842
visibility: 0.5571491122245789
","x: 267.1725769042969
y: 400.38568115234375
z: -0.044231802225112915
visibility: 0.9994205236434937
","x: 254.89013671875
y: 399.27130126953125
z: 0.04428345710039139
visibility: 0.9994601607322693
","x: 270.9460144042969
y: 455.5270690917969
z: -0.029676401987671852
visibility: 0.971651554107666
","x: 247.76795959472656
y: 447.5953369140625
z: 0.060158323496580124
visibility: 0.929702877998352
","x: 280.0670166015625
y: 509.33209228515625
z: 0.05485888570547104
visibility: 0.9632100462913513
","x: 244.30291748046875
y: 499.5343017578125
z: 0.15974082052707672
visibility: 0.9450663924217224
","x: 281.69561767578125
y: 516.16552734375
z: 0.05861213058233261
visibility: 0.8422249555587769
","x: 247.42552185058594
y: 507.0322265625
z: 0.1641051471233368
visibility: 0.8697007298469543
","x: 273.7518615722656
y: 524.5317993164062
z: -0.02966483309864998
visibility: 0.9609975814819336
","x: 233.52101135253906
y: 516.4595947265625
z: 0.09444236010313034
visibility: 0.9430322647094727
",,,,,,,,,,,,,,,,,,,,,,,,,,,,,,,,,,,,,,,,,,
17,"x: 258.0246276855469
y: 287.2006530761719
z: -0.16843953728675842
visibility: 0.9980807900428772
","x: 259.85137939453125
y: 281.5632019042969
z: -0.16051656007766724
visibility: 0.992978036403656
","x: 261.04595947265625
y: 281.4754638671875
z: -0.16058433055877686
visibility: 0.9929359555244446
","x: 262.3359375
y: 281.47930908203125
z: -0.16063787043094635
visibility: 0.9923297762870789
","x: 256.96173095703125
y: 282.1492919921875
z: -0.15250392258167267
visibility: 0.9934420585632324
","x: 256.0006103515625
y: 282.46484375
z: -0.15248797833919525
visibility: 0.9936827421188354
","x: 255.0111541748047
y: 282.858154296875
z: -0.15247292816638947
visibility: 0.9942835569381714
","x: 265.1693420410156
y: 284.63165283203125
z: -0.09613032639026642
visibility: 0.9803853034973145
","x: 254.8989715576172
y: 285.95050048828125
z: -0.05667217820882797
visibility: 0.9875019192695618
","x: 260.3075256347656
y: 292.89068603515625
z: -0.14383262395858765
visibility: 0.9950028657913208
","x: 256.9789733886719
y: 293.71533203125
z: -0.1332288384437561
visibility: 0.995696485042572
","x: 274.6341857910156
y: 317.23675537109375
z: -0.0857294350862503
visibility: 0.9993113279342651
","x: 249.81004333496094
y: 320.1976318359375
z: 0.03216968849301338
visibility: 0.999535322189331
","x: 279.6287841796875
y: 355.299072265625
z: -0.1743469387292862
visibility: 0.9274554252624512
","x: 249.5409698486328
y: 355.9428405761719
z: 0.04866256192326546
visibility: 0.49082428216934204
","x: 261.576904296875
y: 352.10198974609375
z: -0.29951655864715576
visibility: 0.885343611240387
","x: 247.29051208496094
y: 374.7992248535156
z: -0.0773836225271225
visibility: 0.5830408334732056
","x: 255.1809844970703
y: 350.0401306152344
z: -0.3355483412742615
visibility: 0.8529165983200073
","x: 245.8545684814453
y: 381.3328552246094
z: -0.09659340232610703
visibility: 0.5590569376945496
","x: 254.270263671875
y: 343.38824462890625
z: -0.3303346335887909
visibility: 0.8580743670463562
","x: 246.2252960205078
y: 379.1665344238281
z: -0.11706674098968506
visibility: 0.5681511163711548
","x: 257.29315185546875
y: 345.9442443847656
z: -0.29919013381004333
visibility: 0.8329371809959412
","x: 247.35325622558594
y: 377.1290588378906
z: -0.08888302743434906
visibility: 0.5457172393798828
","x: 268.1304016113281
y: 400.8589172363281
z: -0.04219312220811844
visibility: 0.9994692206382751
","x: 254.48971557617188
y: 400.9579162597656
z: 0.04217822104692459
visibility: 0.9994909167289734
","x: 271.5603332519531
y: 453.00982666015625
z: -0.054658323526382446
visibility: 0.97367924451828
","x: 246.70703125
y: 451.6402587890625
z: 0.07431580871343613
visibility: 0.9344378709793091
","x: 280.333740234375
y: 507.44647216796875
z: 0.08565355837345123
visibility: 0.9659731388092041
","x: 243.42813110351562
y: 498.6217956542969
z: 0.24044020473957062
visibility: 0.949383556842804
","x: 281.21240234375
y: 512.9259033203125
z: 0.09534094482660294
visibility: 0.8455312252044678
","x: 246.27142333984375
y: 506.0331726074219
z: 0.25237613916397095
visibility: 0.8767837882041931
","x: 276.8194580078125
y: 524.1931762695312
z: 0.0073305778205394745
visibility: 0.9634948372840881
","x: 233.19232177734375
y: 516.3585205078125
z: 0.18343472480773926
visibility: 0.9471306204795837
",,,,,,,,,,,,,,,,,,,,,,,,,,,,,,,,,,,,,,,,,,
18,"x: 259.092529296875
y: 291.4114074707031
z: -0.133748397231102
visibility: 0.9982587695121765
","x: 260.9637756347656
y: 287.1446533203125
z: -0.1307881474494934
visibility: 0.9936389327049255
","x: 262.150146484375
y: 287.3470764160156
z: -0.1308344304561615
visibility: 0.993604302406311
","x: 263.42578125
y: 287.5798645019531
z: -0.13084180653095245
visibility: 0.9930580258369446
","x: 258.1533508300781
y: 287.11322021484375
z: -0.11924026906490326
visibility: 0.9940498471260071
","x: 257.2626953125
y: 287.2489013671875
z: -0.11924795061349869
visibility: 0.9942612051963806
","x: 256.3363952636719
y: 287.4248352050781
z: -0.11927054077386856
visibility: 0.9947999715805054
","x: 266.35113525390625
y: 291.1818542480469
z: -0.09055100381374359
visibility: 0.9823170900344849
","x: 256.1597900390625
y: 291.093994140625
z: -0.03656347468495369
visibility: 0.9886404275894165
","x: 261.4718017578125
y: 297.2016296386719
z: -0.11784108728170395
visibility: 0.9954918622970581
","x: 258.0455627441406
y: 297.0251770019531
z: -0.10235422849655151
visibility: 0.9961047768592834
","x: 275.76251220703125
y: 317.5028381347656
z: -0.0887489840388298
visibility: 0.9993771910667419
","x: 250.37005615234375
y: 324.024169921875
z: 0.035391777753829956
visibility: 0.9995691776275635
","x: 280.28131103515625
y: 354.8531799316406
z: -0.1625019609928131
visibility: 0.9343307614326477
","x: 246.22718811035156
y: 356.1278076171875
z: 0.04797055572271347
visibility: 0.5087422728538513
","x: 259.1146240234375
y: 362.69476318359375
z: -0.26553648710250854
visibility: 0.8958745002746582
","x: 242.4190216064453
y: 375.54132080078125
z: -0.07185177505016327
visibility: 0.6040388345718384
","x: 255.01893615722656
y: 366.72064208984375
z: -0.2905755341053009
visibility: 0.86545729637146
","x: 240.6420135498047
y: 385.75244140625
z: -0.0913768857717514
visibility: 0.5769208073616028
","x: 252.96229553222656
y: 362.1017761230469
z: -0.3085971176624298
visibility: 0.8700506687164307
","x: 242.31565856933594
y: 385.30743408203125
z: -0.112177774310112
visibility: 0.5860750079154968
","x: 254.10101318359375
y: 361.35516357421875
z: -0.2805452048778534
visibility: 0.8452926278114319
","x: 243.48358154296875
y: 380.9656982421875
z: -0.0835188552737236
visibility: 0.5630639791488647
","x: 268.7219543457031
y: 401.4399719238281
z: -0.03520052507519722
visibility: 0.9994888305664062
","x: 253.64276123046875
y: 400.9941101074219
z: 0.03521215543150902
visibility: 0.9995231032371521
","x: 271.3994140625
y: 453.12799072265625
z: -0.05701122805476189
visibility: 0.976076066493988
","x: 245.24472045898438
y: 452.00701904296875
z: -0.01845427230000496
visibility: 0.9407821893692017
","x: 280.0671081542969
y: 501.6925048828125
z: 0.06881429255008698
visibility: 0.9690744876861572
","x: 244.7390594482422
y: 502.9403991699219
z: 0.09671492874622345
visibility: 0.9542335867881775
","x: 281.03021240234375
y: 504.57269287109375
z: 0.07584866136312485
visibility: 0.8520610928535461
","x: 247.6118621826172
y: 509.08197021484375
z: 0.10304439067840576
visibility: 0.8869442939758301
","x: 277.980712890625
y: 523.959228515625
z: -0.0139028150588274
visibility: 0.9665241241455078
","x: 235.28175354003906
y: 518.7003173828125
z: 0.026179784908890724
visibility: 0.9520382881164551
",,,,,,,,,,,,,,,,,,,,,,,,,,,,,,,,,,,,,,,,,,
19,"x: 259.3979187011719
y: 290.8333740234375
z: -0.20039382576942444
visibility: 0.998424232006073
","x: 261.0784606933594
y: 286.60394287109375
z: -0.1880662739276886
visibility: 0.994253933429718
","x: 262.2760925292969
y: 286.8349914550781
z: -0.18807481229305267
visibility: 0.9942197799682617
","x: 263.49737548828125
y: 287.1371765136719
z: -0.18805594742298126
visibility: 0.9937232136726379
","x: 258.1938781738281
y: 286.56317138671875
z: -0.187581405043602
visibility: 0.9946281313896179
","x: 257.2901916503906
y: 286.7033996582031
z: -0.18761835992336273
visibility: 0.9948182106018066
","x: 256.3297119140625
y: 286.8816833496094
z: -0.18765869736671448
visibility: 0.995303213596344
","x: 266.088134765625
y: 291.1563415527344
z: -0.11175084114074707
visibility: 0.9840455651283264
","x: 255.7041015625
y: 290.72967529296875
z: -0.10793234407901764
visibility: 0.9897440671920776
","x: 261.68585205078125
y: 296.5444641113281
z: -0.17172935605049133
visibility: 0.9959309101104736
","x: 258.0444030761719
y: 296.3947448730469
z: -0.17091017961502075
visibility: 0.9964848160743713
","x: 275.6194763183594
y: 318.06903076171875
z: -0.07699859142303467
visibility: 0.9994174242019653
","x: 245.33006286621094
y: 324.07635498046875
z: -0.05849938467144966
visibility: 0.999591588973999
","x: 280.97454833984375
y: 356.9329833984375
z: -0.07727423310279846
visibility: 0.9377086758613586
","x: 238.12591552734375
y: 360.0558166503906
z: -0.11179003864526749
visibility: 0.5546650290489197
","x: 271.5846862792969
y: 385.4201965332031
z: -0.15768451988697052
visibility: 0.8950843214988708
","x: 245.1203155517578
y: 367.55413818359375
z: -0.25716710090637207
visibility: 0.6399374604225159
","x: 270.0487060546875
y: 394.8291015625
z: -0.18220260739326477
visibility: 0.8609930872917175
","x: 250.3677978515625
y: 374.2296142578125
z: -0.29006943106651306
visibility: 0.6127661466598511
","x: 267.136474609375
y: 391.2369079589844
z: -0.19924454391002655
visibility: 0.8651754260063171
","x: 252.8895721435547
y: 368.60711669921875
z: -0.2969393730163574
visibility: 0.6207736730575562
","x: 266.3948059082031
y: 386.9830627441406
z: -0.1659649908542633
visibility: 0.8392683267593384
","x: 251.63560485839844
y: 365.4402160644531
z: -0.26268666982650757
visibility: 0.5975266098976135
","x: 268.3583679199219
y: 401.5399169921875
z: -0.014516964554786682
visibility: 0.9995109438896179
","x: 251.244384765625
y: 400.9399719238281
z: 0.01451398991048336
visibility: 0.9995484352111816
","x: 272.08111572265625
y: 453.1776123046875
z: -0.011065211147069931
visibility: 0.9781652092933655
","x: 245.75746154785156
y: 452.8276062011719
z: 0.04845738038420677
visibility: 0.9462494850158691
","x: 279.7461853027344
y: 502.2934265136719
z: 0.11174130439758301
visibility: 0.971752405166626
","x: 245.54080200195312
y: 503.30572509765625
z: 0.1919078230857849
visibility: 0.9584746956825256
","x: 280.8930969238281
y: 506.4242248535156
z: 0.11792436987161636
visibility: 0.8595744967460632
","x: 247.7415313720703
y: 509.90283203125
z: 0.2013516128063202
visibility: 0.8945781588554382
","x: 279.811767578125
y: 523.94970703125
z: 0.028039824217557907
visibility: 0.9691323637962341
","x: 235.4414520263672
y: 519.007080078125
z: 0.12161868810653687
visibility: 0.9562040567398071
",,,,,,,,,,,,,,,,,,,,,,,,,,,,,,,,,,,,,,,,,,
20,"x: 259.2356262207031
y: 287.63714599609375
z: -0.2098512351512909
visibility: 0.9985789656639099
","x: 261.0643615722656
y: 282.9336242675781
z: -0.19579407572746277
visibility: 0.9948211312294006
","x: 262.30682373046875
y: 283.20233154296875
z: -0.19578684866428375
visibility: 0.994789183139801
","x: 263.537109375
y: 283.5995788574219
z: -0.19576546549797058
visibility: 0.9943393468856812
","x: 257.7199401855469
y: 282.8154296875
z: -0.19699139893054962
visibility: 0.9951595664024353
","x: 256.6591796875
y: 282.95477294921875
z: -0.19702324271202087
visibility: 0.995331346988678
","x: 255.61605834960938
y: 283.2017822265625
z: -0.19704625010490417
visibility: 0.9957679510116577
","x: 265.52105712890625
y: 287.63623046875
z: -0.1117430105805397
visibility: 0.9856263995170593
","x: 254.40866088867188
y: 286.7548828125
z: -0.11594458669424057
visibility: 0.9907608032226562
","x: 261.48968505859375
y: 294.1856689453125
z: -0.1776411384344101
visibility: 0.9963323473930359
","x: 257.41497802734375
y: 293.9938659667969
z: -0.17944858968257904
visibility: 0.9968324303627014
","x: 273.7972412109375
y: 317.4805908203125
z: -0.05891522765159607
visibility: 0.9994551539421082
","x: 243.47605895996094
y: 319.70196533203125
z: -0.0655822902917862
visibility: 0.9996146559715271
","x: 280.5537109375
y: 356.2271728515625
z: -0.0396774522960186
visibility: 0.9401118755340576
","x: 236.7224578857422
y: 356.7657165527344
z: -0.13866952061653137
visibility: 0.5974394083023071
","x: 276.0246276855469
y: 387.1635437011719
z: -0.10735102742910385
visibility: 0.8953920602798462
","x: 247.6526641845703
y: 350.0294189453125
z: -0.2973328232765198
visibility: 0.674595832824707
","x: 277.2538757324219
y: 395.8591003417969
z: -0.1256323605775833
visibility: 0.8566811680793762
","x: 253.6185302734375
y: 351.533447265625
z: -0.33103126287460327
visibility: 0.6486470103263855
","x: 274.2076416015625
y: 394.6051025390625
z: -0.14253421127796173
visibility: 0.8603129386901855
","x: 255.33920288085938
y: 345.9853820800781
z: -0.33156663179397583
visibility: 0.6556388735771179
","x: 272.7911682128906
y: 391.2086486816406
z: -0.1147601380944252
visibility: 0.833371102809906
","x: 253.58106994628906
y: 345.68646240234375
z: -0.30012819170951843
visibility: 0.6329775452613831
","x: 268.6177673339844
y: 398.30145263671875
z: -0.008156591095030308
visibility: 0.9995373487472534
","x: 250.97677612304688
y: 399.32611083984375
z: 0.00809221900999546
visibility: 0.9995788931846619
","x: 274.9934387207031
y: 450.113037109375
z: -0.010666126385331154
visibility: 0.9801400303840637
","x: 246.2974853515625
y: 452.5442199707031
z: 0.029512351378798485
visibility: 0.9513399600982666
","x: 279.809814453125
y: 499.84637451171875
z: 0.1456231027841568
visibility: 0.9742490649223328
","x: 245.9722442626953
y: 502.8285217285156
z: 0.17503097653388977
visibility: 0.9624494314193726
","x: 280.6978454589844
y: 502.89300537109375
z: 0.15525184571743011
visibility: 0.867718517780304
","x: 248.1888427734375
y: 509.306640625
z: 0.18546602129936218
visibility: 0.9023815393447876
","x: 282.2208251953125
y: 521.5112915039062
z: 0.068674735724926
visibility: 0.9716400504112244
","x: 236.10931396484375
y: 518.9029541015625
z: 0.10365220159292221
visibility: 0.9602237343788147
",,,,,,,,,,,,,,,,,,,,,,,,,,,,,,,,,,,,,,,,,,
21,"x: 260.5237731933594
y: 286.48223876953125
z: -0.20056059956550598
visibility: 0.9987170696258545
","x: 262.2911071777344
y: 282.3674621582031
z: -0.19189614057540894
visibility: 0.9953290820121765
","x: 263.30072021484375
y: 282.71771240234375
z: -0.19176217913627625
visibility: 0.99529629945755
","x: 264.22833251953125
y: 283.17181396484375
z: -0.19159041345119476
visibility: 0.994885265827179
","x: 258.5811767578125
y: 282.15277099609375
z: -0.1847744584083557
visibility: 0.9956385493278503
","x: 257.03363037109375
y: 282.322021484375
z: -0.18478527665138245
visibility: 0.9957934617996216
","x: 255.7473907470703
y: 282.5810852050781
z: -0.18479585647583008
visibility: 0.996187150478363
","x: 266.02911376953125
y: 287.3001403808594
z: -0.09577576071023941
visibility: 0.9870266318321228
","x: 255.2633819580078
y: 286.2412414550781
z: -0.1010911837220192
visibility: 0.9916799068450928
","x: 262.2159423828125
y: 292.9305114746094
z: -0.16821035742759705
visibility: 0.9966874122619629
","x: 257.6557922363281
y: 292.81365966796875
z: -0.16643816232681274
visibility: 0.9971451759338379
","x: 274.1211242675781
y: 317.3944396972656
z: -0.03819577395915985
visibility: 0.999457836151123
","x: 245.1222381591797
y: 315.44207763671875
z: -0.048645246773958206
visibility: 0.9996489882469177
","x: 280.53021240234375
y: 353.0148010253906
z: -0.033637724816799164
visibility: 0.9346397519111633
","x: 234.10885620117188
y: 347.9508972167969
z: -0.1291201412677765
visibility: 0.6372881531715393
","x: 284.9819641113281
y: 377.8293151855469
z: -0.12121923267841339
visibility: 0.8837001323699951
","x: 247.692626953125
y: 335.472900390625
z: -0.2918834686279297
visibility: 0.7068185806274414
","x: 283.60443115234375
y: 387.2314453125
z: -0.14169995486736298
visibility: 0.8393046855926514
","x: 253.44442749023438
y: 336.1746826171875
z: -0.3233482837677002
visibility: 0.6828792691230774
","x: 282.3489074707031
y: 389.9548645019531
z: -0.15792131423950195
visibility: 0.8429867625236511
","x: 254.6431121826172
y: 332.41754150390625
z: -0.32348355650901794
visibility: 0.6890988349914551
","x: 284.1468200683594
y: 381.92669677734375
z: -0.12964269518852234
visibility: 0.8136637210845947
","x: 253.2460174560547
y: 332.08819580078125
z: -0.29429641366004944
visibility: 0.6680999398231506
","x: 268.803466796875
y: 398.13494873046875
z: -0.009930966421961784
visibility: 0.9995657801628113
","x: 251.80360412597656
y: 399.041259765625
z: 0.00990911852568388
visibility: 0.9996125102043152
","x: 278.6208190917969
y: 450.16973876953125
z: -0.02298612892627716
visibility: 0.9819340109825134
","x: 246.34519958496094
y: 450.3857421875
z: 0.04833564907312393
visibility: 0.955975353717804
","x: 285.66845703125
y: 506.92364501953125
z: 0.0722079873085022
visibility: 0.9766340851783752
","x: 246.94708251953125
y: 500.7996826171875
z: 0.18966169655323029
visibility: 0.9660316705703735
","x: 284.00689697265625
y: 514.683349609375
z: 0.06997063755989075
visibility: 0.8779780864715576
","x: 249.7135772705078
y: 507.7899475097656
z: 0.19902443885803223
visibility: 0.9104591608047485
","x: 290.53289794921875
y: 521.600830078125
z: -0.022901834920048714
visibility: 0.9740914106369019
","x: 236.83834838867188
y: 518.6072387695312
z: 0.12452356517314911
visibility: 0.9638784527778625
",,,,,,,,,,,,,,,,,,,,,,,,,,,,,,,,,,,,,,,,,,
22,"x: 260.60198974609375
y: 286.8464050292969
z: -0.20387499034404755
visibility: 0.9988425970077515
","x: 262.50579833984375
y: 282.39202880859375
z: -0.19060735404491425
visibility: 0.9957882165908813
","x: 263.4139404296875
y: 282.75103759765625
z: -0.19056947529315948
visibility: 0.9957579970359802
","x: 264.2537536621094
y: 283.1868591308594
z: -0.1905081868171692
visibility: 0.995385468006134
","x: 258.6047668457031
y: 282.0691223144531
z: -0.19004257023334503
visibility: 0.9960682392120361
","x: 257.35711669921875
y: 282.18853759765625
z: -0.1900743991136551
visibility: 0.996208131313324
","x: 256.2320556640625
y: 282.3817138671875
z: -0.19010449945926666
visibility: 0.9965620636940002
","x: 266.33587646484375
y: 287.2713623046875
z: -0.09954841434955597
visibility: 0.9883120656013489
","x: 255.46995544433594
y: 285.62396240234375
z: -0.10469786822795868
visibility: 0.9925029277801514
","x: 262.3306884765625
y: 293.253662109375
z: -0.17017902433872223
visibility: 0.9970147609710693
","x: 258.0806884765625
y: 293.20440673828125
z: -0.171291783452034
visibility: 0.9974271059036255
","x: 273.94207763671875
y: 318.36151123046875
z: -0.05345211178064346
visibility: 0.9995031952857971
","x: 245.593994140625
y: 312.9076843261719
z: -0.06086442992091179
visibility: 0.9996724128723145
","x: 281.22271728515625
y: 353.6177978515625
z: -0.057206280529499054
visibility: 0.9397825598716736
","x: 238.5364532470703
y: 345.0690002441406
z: -0.1359175592660904
visibility: 0.6719116568565369
","x: 281.3648681640625
y: 384.43548583984375
z: -0.13273568451404572
visibility: 0.8901301622390747
","x: 261.18328857421875
y: 347.36761474609375
z: -0.2782340347766876
visibility: 0.7346539497375488
","x: 281.1629333496094
y: 395.0656433105469
z: -0.15590418875217438
visibility: 0.8449537754058838
","x: 266.75909423828125
y: 351.7908020019531
z: -0.3113921582698822
visibility: 0.7115604877471924
","x: 278.56451416015625
y: 393.8564758300781
z: -0.17101281881332397
visibility: 0.8482229709625244
","x: 268.7663879394531
y: 347.7098083496094
z: -0.3147227168083191
visibility: 0.7170068621635437
","x: 278.96270751953125
y: 389.3662109375
z: -0.13982510566711426
visibility: 0.8188576102256775
","x: 267.0868835449219
y: 346.43560791015625
z: -0.28183212876319885
visibility: 0.6966293454170227
","x: 268.9839782714844
y: 397.504638671875
z: -0.013167974539101124
visibility: 0.9995983242988586
","x: 251.6346893310547
y: 398.8679504394531
z: 0.013160753063857555
visibility: 0.9996433854103088
","x: 279.2964172363281
y: 450.6576843261719
z: -0.03018934093415737
visibility: 0.9836389422416687
","x: 246.1979522705078
y: 450.4042053222656
z: 0.04693923518061638
visibility: 0.9601691961288452
","x: 286.12054443359375
y: 504.5376892089844
z: 0.08562387526035309
visibility: 0.9787994027137756
","x: 246.7955322265625
y: 500.9231872558594
z: 0.2177048921585083
visibility: 0.9692761898040771
","x: 285.17230224609375
y: 511.2971496582031
z: 0.08993291854858398
visibility: 0.8849931955337524
","x: 249.27520751953125
y: 507.9159851074219
z: 0.22987191379070282
visibility: 0.9175108671188354
","x: 289.5777893066406
y: 520.7462768554688
z: -0.007875416427850723
visibility: 0.9763498902320862
","x: 237.20578002929688
y: 518.4163208007812
z: 0.15268392860889435
visibility: 0.9672019481658936
",,,,,,,,,,,,,,,,,,,,,,,,,,,,,,,,,,,,,,,,,,
23,"x: 261.3416748046875
y: 287.1552734375
z: -0.15581974387168884
visibility: 0.9988988041877747
","x: 262.9197692871094
y: 282.5366516113281
z: -0.14052599668502808
visibility: 0.9960673451423645
","x: 263.7252197265625
y: 283.0543212890625
z: -0.14053994417190552
visibility: 0.9960253834724426
","x: 264.4460144042969
y: 283.6275634765625
z: -0.14052793383598328
visibility: 0.9956709742546082
","x: 259.4759216308594
y: 282.21142578125
z: -0.14181841909885406
visibility: 0.9963458180427551
","x: 258.2240905761719
y: 282.30914306640625
z: -0.14184916019439697
visibility: 0.9964823126792908
","x: 257.03924560546875
y: 282.48345947265625
z: -0.14190791547298431
visibility: 0.9968066215515137
","x: 266.52264404296875
y: 288.43804931640625
z: -0.053859639912843704
visibility: 0.9892529249191284
","x: 255.7618865966797
y: 286.1865539550781
z: -0.05737007409334183
visibility: 0.9931121468544006
","x: 262.7940673828125
y: 293.2897644042969
z: -0.12295098602771759
visibility: 0.9972343444824219
","x: 258.7531433105469
y: 293.3731689453125
z: -0.1243896633386612
visibility: 0.9976169466972351
","x: 274.16119384765625
y: 320.38348388671875
z: -0.0161448922008276
visibility: 0.9993684887886047
","x: 246.36769104003906
y: 313.73150634765625
z: -0.04004904255270958
visibility: 0.9996761083602905
","x: 280.5711669921875
y: 358.7208251953125
z: -0.06181744486093521
visibility: 0.9295260310173035
","x: 248.38064575195312
y: 347.6486511230469
z: -0.09140247106552124
visibility: 0.6996030211448669
","x: 274.32879638671875
y: 377.3211669921875
z: -0.16109013557434082
visibility: 0.8619622588157654
","x: 264.3639831542969
y: 352.12213134765625
z: -0.21428444981575012
visibility: 0.7556250095367432
","x: 272.81597900390625
y: 386.90167236328125
z: -0.19516699016094208
visibility: 0.8177618980407715
","x: 267.5920715332031
y: 353.591552734375
z: -0.2468501627445221
visibility: 0.7320281267166138
","x: 271.84368896484375
y: 383.1470947265625
z: -0.20839670300483704
visibility: 0.8213183283805847
","x: 268.9391784667969
y: 348.13031005859375
z: -0.25377216935157776
visibility: 0.736884355545044
","x: 271.3770446777344
y: 374.3467712402344
z: -0.17212030291557312
visibility: 0.7896696925163269
","x: 267.9975280761719
y: 346.69580078125
z: -0.21991777420043945
visibility: 0.715121328830719
","x: 269.0395812988281
y: 397.887939453125
z: -0.0111351627856493
visibility: 0.9995865821838379
","x: 251.9900360107422
y: 399.2620849609375
z: 0.011211243458092213
visibility: 0.9996596574783325
","x: 277.65423583984375
y: 450.7708435058594
z: -0.029636675491929054
visibility: 0.9850442409515381
","x: 245.9401092529297
y: 450.8170166015625
z: -0.0022648219019174576
visibility: 0.9640216827392578
","x: 285.2054138183594
y: 500.611328125
z: 0.10587290674448013
visibility: 0.9805910587310791
","x: 246.71221923828125
y: 504.4432067871094
z: 0.14175768196582794
visibility: 0.9722105860710144
","x: 281.9263000488281
y: 505.9465026855469
z: 0.11348412185907364
visibility: 0.8880615234375
","x: 249.0189208984375
y: 511.4490051269531
z: 0.15064410865306854
visibility: 0.9231458902359009
","x: 287.2914123535156
y: 520.1318969726562
z: 0.019219903275370598
visibility: 0.9780443906784058
","x: 237.42649841308594
y: 518.864501953125
z: 0.06388092041015625
visibility: 0.9701511263847351
",,,,,,,,,,,,,,,,,,,,,,,,,,,,,,,,,,,,,,,,,,
24,"x: 262.7266540527344
y: 283.0461730957031
z: -0.13380572199821472
visibility: 0.9987412095069885
","x: 263.75250244140625
y: 277.9005126953125
z: -0.12071682512760162
visibility: 0.9956395030021667
","x: 264.3468017578125
y: 278.11944580078125
z: -0.12075630575418472
visibility: 0.9955551624298096
","x: 264.8833923339844
y: 278.404296875
z: -0.12076330184936523
visibility: 0.9951801896095276
","x: 261.2003173828125
y: 277.90533447265625
z: -0.12676860392093658
visibility: 0.9959408640861511
","x: 260.06024169921875
y: 278.10687255859375
z: -0.12678474187850952
visibility: 0.9961287379264832
","x: 258.8179931640625
y: 278.4374694824219
z: -0.1268538385629654
visibility: 0.9964518547058105
","x: 266.45208740234375
y: 281.8695983886719
z: -0.042802926152944565
visibility: 0.9885292649269104
","x: 256.1440734863281
y: 282.1255187988281
z: -0.06626639515161514
visibility: 0.9925028681755066
","x: 263.60894775390625
y: 288.9794921875
z: -0.103537917137146
visibility: 0.9969890713691711
","x: 260.5657653808594
y: 289.4411315917969
z: -0.11135777086019516
visibility: 0.9973636269569397
","x: 274.285888671875
y: 311.0796813964844
z: 0.0014524043072015047
visibility: 0.999250590801239
","x: 247.1477508544922
y: 309.5875244140625
z: -0.03643861040472984
visibility: 0.9996331930160522
","x: 275.9258728027344
y: 348.5650939941406
z: 0.020080480724573135
visibility: 0.8739579319953918
","x: 250.52114868164062
y: 337.73333740234375
z: -0.04030930623412132
visibility: 0.719325602054596
","x: 271.8554992675781
y: 376.9761962890625
z: -0.046147022396326065
visibility: 0.7918660640716553
","x: 259.87652587890625
y: 353.880615234375
z: -0.09286590665578842
visibility: 0.7536633610725403
","x: 271.35076904296875
y: 387.0864562988281
z: -0.06519459187984467
visibility: 0.7514576315879822
","x: 261.7000427246094
y: 366.2196350097656
z: -0.11460449546575546
visibility: 0.7242709994316101
","x: 270.8438720703125
y: 384.88214111328125
z: -0.08405688405036926
visibility: 0.7554036974906921
","x: 267.58917236328125
y: 363.022216796875
z: -0.13089710474014282
visibility: 0.7294296026229858
","x: 270.0107421875
y: 377.5450134277344
z: -0.05615130811929703
visibility: 0.7261029481887817
","x: 263.4520263671875
y: 361.0888671875
z: -0.10050715506076813
visibility: 0.7056881189346313
","x: 270.5284423828125
y: 386.7605285644531
z: -0.004942798055708408
visibility: 0.9993679523468018
","x: 257.529541015625
y: 389.93780517578125
z: 0.005057856440544128
visibility: 0.999457836151123
","x: 277.2929382324219
y: 445.8282165527344
z: -0.029885495081543922
visibility: 0.9834569692611694
","x: 255.07229614257812
y: 447.93634033203125
z: -0.006729884538799524
visibility: 0.9615490436553955
","x: 282.2948913574219
y: 501.1273193359375
z: 0.08330659568309784
visibility: 0.9789313077926636
","x: 251.43064880371094
y: 503.1758117675781
z: 0.09819920361042023
visibility: 0.9714071750640869
","x: 279.8841247558594
y: 506.4966125488281
z: 0.08597075939178467
visibility: 0.870732307434082
","x: 252.98446655273438
y: 509.419921875
z: 0.10273756086826324
visibility: 0.9115694761276245
","x: 285.12066650390625
y: 519.9085083007812
z: -0.012453620322048664
visibility: 0.974830687046051
","x: 247.79908752441406
y: 518.3033447265625
z: 0.011213680729269981
visibility: 0.9684683680534363
",,,,,,,,,,,,,,,,,,,,,,,,,,,,,,,,,,,,,,,,,,
25,"x: 262.7631530761719
y: 281.886474609375
z: -0.1491042673587799
visibility: 0.998630166053772
","x: 263.7481384277344
y: 276.8648681640625
z: -0.13782377541065216
visibility: 0.9954264760017395
","x: 264.3211364746094
y: 277.09698486328125
z: -0.13786758482456207
visibility: 0.9952440857887268
","x: 264.83489990234375
y: 277.4036560058594
z: -0.1378917098045349
visibility: 0.9948524832725525
","x: 261.5693359375
y: 276.7709655761719
z: -0.1404554396867752
visibility: 0.9958345890045166
","x: 260.6807861328125
y: 276.9757385253906
z: -0.14046630263328552
visibility: 0.9959756135940552
","x: 259.73260498046875
y: 277.3282775878906
z: -0.14052799344062805
visibility: 0.9963334202766418
","x: 265.8158874511719
y: 280.5688781738281
z: -0.06414686143398285
visibility: 0.987800121307373
","x: 258.0425720214844
y: 280.94158935546875
z: -0.07058504968881607
visibility: 0.9923754930496216
","x: 263.6123046875
y: 287.24566650390625
z: -0.12068972736597061
visibility: 0.9968780279159546
","x: 261.22894287109375
y: 287.8223876953125
z: -0.12442086637020111
visibility: 0.9973915815353394
","x: 274.3846740722656
y: 308.51043701171875
z: -0.02557274140417576
visibility: 0.9990885257720947
","x: 247.25035095214844
y: 309.167236328125
z: -0.03226601704955101
visibility: 0.9996135830879211
","x: 277.17724609375
y: 347.3919677734375
z: -0.008633987978100777
visibility: 0.8344471454620361
","x: 240.47830200195312
y: 338.468017578125
z: -0.04396510496735573
visibility: 0.7398941516876221
","x: 275.3838195800781
y: 376.38232421875
z: -0.06845366954803467
visibility: 0.7372332811355591
","x: 238.86790466308594
y: 356.1236267089844
z: -0.1365755945444107
visibility: 0.7629202008247375
","x: 275.6819763183594
y: 384.491455078125
z: -0.08752934634685516
visibility: 0.6978825330734253
","x: 237.1209716796875
y: 365.0666809082031
z: -0.16056662797927856
visibility: 0.7305886149406433
","x: 275.6798400878906
y: 384.7449035644531
z: -0.10600229352712631
visibility: 0.7026690244674683
","x: 239.48257446289062
y: 361.42510986328125
z: -0.1756621152162552
visibility: 0.7362584471702576
","x: 274.3314208984375
y: 378.10894775390625
z: -0.0777575671672821
visibility: 0.6749938726425171
","x: 240.22596740722656
y: 359.7867126464844
z: -0.14495466649532318
visibility: 0.7126314640045166
","x: 272.5451354980469
y: 388.4288024902344
z: -0.005383187439292669
visibility: 0.9990918040275574
","x: 261.38909912109375
y: 391.4810791015625
z: 0.005463320761919022
visibility: 0.9993387460708618
","x: 281.1600036621094
y: 443.7281799316406
z: -0.001447114860638976
visibility: 0.9829747676849365
","x: 264.0497741699219
y: 447.8213195800781
z: 0.002449667314067483
visibility: 0.9621571898460388
","x: 290.9180603027344
y: 498.5596008300781
z: 0.08568359911441803
visibility: 0.9789670705795288
","x: 265.77264404296875
y: 502.65081787109375
z: 0.11019674688577652
visibility: 0.9720258712768555
","x: 289.43896484375
y: 505.0543212890625
z: 0.08836663514375687
visibility: 0.8700168132781982
","x: 267.69091796875
y: 507.5914001464844
z: 0.11549417674541473
visibility: 0.9047080278396606
","x: 294.8369445800781
y: 511.3498229980469
z: -0.0023606661707162857
visibility: 0.9739020466804504
","x: 262.4288330078125
y: 517.3868408203125
z: 0.02951205149292946
visibility: 0.9676751494407654
",,,,,,,,,,,,,,,,,,,,,,,,,,,,,,,,,,,,,,,,,,
26,"x: 262.96929931640625
y: 279.08721923828125
z: -0.16662414371967316
visibility: 0.9987615346908569
","x: 263.9718017578125
y: 275.07861328125
z: -0.1514645516872406
visibility: 0.995857298374176
","x: 264.54742431640625
y: 275.36260986328125
z: -0.15147051215171814
visibility: 0.9956924319267273
","x: 265.05133056640625
y: 275.71087646484375
z: -0.1514538824558258
visibility: 0.995334804058075
","x: 261.6708679199219
y: 275.10687255859375
z: -0.15576627850532532
visibility: 0.9962295889854431
","x: 260.7012634277344
y: 275.40692138671875
z: -0.15577998757362366
visibility: 0.9963560700416565
","x: 259.6966552734375
y: 275.7886657714844
z: -0.15579663217067719
visibility: 0.9966764450073242
","x: 265.9052429199219
y: 280.0041809082031
z: -0.07411825656890869
visibility: 0.9889709949493408
","x: 257.98162841796875
y: 279.95672607421875
z: -0.08959294855594635
visibility: 0.9930944442749023
","x: 263.9569396972656
y: 284.9403076171875
z: -0.13918419182300568
visibility: 0.9971818327903748
","x: 261.2214050292969
y: 285.4935302734375
z: -0.1440606266260147
visibility: 0.9976460933685303
","x: 274.8593444824219
y: 309.4033508300781
z: -0.03030676580965519
visibility: 0.9991743564605713
","x: 247.1705322265625
y: 310.3295593261719
z: -0.0408935546875
visibility: 0.9996470212936401
","x: 283.9912414550781
y: 347.6107482910156
z: -0.031070012599229813
visibility: 0.8503420948982239
","x: 236.61758422851562
y: 340.0420837402344
z: -0.045273102819919586
visibility: 0.7649808526039124
","x: 289.6884460449219
y: 380.9942321777344
z: -0.10492829978466034
visibility: 0.7622509598731995
","x: 231.13194274902344
y: 359.1907043457031
z: -0.139089435338974
visibility: 0.7850233316421509
","x: 290.75714111328125
y: 390.77899169921875
z: -0.12582452595233917
visibility: 0.7247040867805481
","x: 229.4514923095703
y: 372.4898681640625
z: -0.16362006962299347
visibility: 0.753875732421875
","x: 288.908447265625
y: 390.8065490722656
z: -0.14574602246284485
visibility: 0.7292439341545105
","x: 231.9027099609375
y: 371.3011169433594
z: -0.18113183975219727
visibility: 0.7592741847038269
","x: 287.5953369140625
y: 386.8544006347656
z: -0.11458543688058853
visibility: 0.7035258412361145
","x: 232.9961395263672
y: 367.6493835449219
z: -0.1490134745836258
visibility: 0.7374390959739685
","x: 275.4622497558594
y: 388.8927001953125
z: -0.0012982364278286695
visibility: 0.9991435408592224
","x: 260.1233825683594
y: 392.2456359863281
z: 0.0013072665315121412
visibility: 0.9993953108787537
","x: 284.7891845703125
y: 442.4773864746094
z: 0.04366699233651161
visibility: 0.9843878746032715
","x: 265.2093811035156
y: 447.8544921875
z: -0.000299123115837574
visibility: 0.9656327366828918
","x: 290.0710144042969
y: 488.40460205078125
z: 0.18817709386348724
visibility: 0.9802919030189514
","x: 268.15313720703125
y: 500.032958984375
z: 0.11119319498538971
visibility: 0.9745075106620789
","x: 287.324462890625
y: 495.7052307128906
z: 0.19772650301456451
visibility: 0.8732249736785889
","x: 271.0196533203125
y: 504.5915222167969
z: 0.11668810993432999
visibility: 0.908227801322937
","x: 296.2416687011719
y: 505.7580871582031
z: 0.11676210165023804
visibility: 0.9754608869552612
","x: 264.41876220703125
y: 517.2557983398438
z: 0.02767065539956093
visibility: 0.9703528881072998
",,,,,,,,,,,,,,,,,,,,,,,,,,,,,,,,,,,,,,,,,,
27,"x: 263.81378173828125
y: 284.508544921875
z: -0.23279154300689697
visibility: 0.9988691210746765
","x: 265.1497802734375
y: 279.5444641113281
z: -0.21916210651397705
visibility: 0.9962084293365479
","x: 266.06207275390625
y: 279.65704345703125
z: -0.21918809413909912
visibility: 0.9960676431655884
","x: 266.99884033203125
y: 279.8853759765625
z: -0.21920350193977356
visibility: 0.9957420825958252
","x: 262.5487976074219
y: 279.358642578125
z: -0.2180594652891159
visibility: 0.9965192675590515
","x: 261.5267028808594
y: 279.24066162109375
z: -0.21809551119804382
visibility: 0.9966376423835754
","x: 260.4790344238281
y: 279.2017822265625
z: -0.21815094351768494
visibility: 0.9969221949577332
","x: 268.91632080078125
y: 283.469970703125
z: -0.1397930383682251
visibility: 0.9899420738220215
","x: 258.9210205078125
y: 282.7912292480469
z: -0.13525943458080292
visibility: 0.9935474991798401
","x: 265.25347900390625
y: 290.1990966796875
z: -0.20341651141643524
visibility: 0.9974476099014282
","x: 262.2324523925781
y: 290.3348693847656
z: -0.20219337940216064
visibility: 0.9978625774383545
","x: 278.75762939453125
y: 310.8476867675781
z: -0.09558147937059402
visibility: 0.9992532134056091
","x: 249.1449737548828
y: 315.2782897949219
z: -0.07897485792636871
visibility: 0.999667763710022
","x: 283.3473205566406
y: 357.7357177734375
z: -0.08553068339824677
visibility: 0.8634767532348633
","x: 243.1505584716797
y: 358.600830078125
z: -0.055003535002470016
visibility: 0.7858191728591919
","x: 280.12249755859375
y: 396.0281066894531
z: -0.16625909507274628
visibility: 0.7828916311264038
","x: 234.81349182128906
y: 394.4107666015625
z: -0.13500341773033142
visibility: 0.7993565797805786
","x: 277.9246826171875
y: 408.30682373046875
z: -0.19354145228862762
visibility: 0.7460153698921204
","x: 232.78475952148438
y: 406.6170959472656
z: -0.16021928191184998
visibility: 0.7665854692459106
","x: 273.75543212890625
y: 406.2154846191406
z: -0.21120285987854004
visibility: 0.7503504157066345
","x: 233.2191162109375
y: 406.5362854003906
z: -0.18062560260295868
visibility: 0.7719573378562927
","x: 273.5348205566406
y: 401.8342590332031
z: -0.17423054575920105
visibility: 0.724553644657135
","x: 233.61561584472656
y: 403.39398193359375
z: -0.14501266181468964
visibility: 0.7494630217552185
","x: 274.9513854980469
y: 392.5264892578125
z: 0.0032051936723291874
visibility: 0.9992228150367737
","x: 259.1650695800781
y: 392.9993896484375
z: -0.0032174396328628063
visibility: 0.9994426965713501
","x: 282.1673889160156
y: 443.603271484375
z: -0.07966171205043793
visibility: 0.9846488833427429
","x: 263.2641906738281
y: 447.68450927734375
z: -0.06013208627700806
visibility: 0.9670949578285217
","x: 275.9826965332031
y: 490.6358642578125
z: 0.12498816102743149
visibility: 0.9797012805938721
","x: 262.7296447753906
y: 493.91766357421875
z: 0.12123296409845352
visibility: 0.9720171689987183
","x: 273.1788330078125
y: 495.1533203125
z: 0.1759985387325287
visibility: 0.8692659139633179
","x: 264.4508972167969
y: 497.1924133300781
z: 0.13120627403259277
visibility: 0.8790441155433655
","x: 275.0955810546875
y: 509.60888671875
z: 0.09123525023460388
visibility: 0.9752892851829529
","x: 261.9523010253906
y: 515.04931640625
z: 0.03474044054746628
visibility: 0.9683029651641846
",,,,,,,,,,,,,,,,,,,,,,,,,,,,,,,,,,,,,,,,,,
28,"x: 267.2369079589844
y: 303.87103271484375
z: -0.335472047328949
visibility: 0.998931348323822
","x: 268.7211608886719
y: 298.8946838378906
z: -0.3258904814720154
visibility: 0.9964342713356018
","x: 269.7077941894531
y: 298.8373107910156
z: -0.3258967697620392
visibility: 0.9963127374649048
","x: 270.71337890625
y: 298.74456787109375
z: -0.3259328007698059
visibility: 0.9960041046142578
","x: 265.96728515625
y: 298.12005615234375
z: -0.32778415083885193
visibility: 0.9966874718666077
","x: 264.9862976074219
y: 297.5460205078125
z: -0.3278505206108093
visibility: 0.996806263923645
","x: 263.94854736328125
y: 296.8732604980469
z: -0.3279030919075012
visibility: 0.9970571994781494
","x: 271.9624938964844
y: 298.2611083984375
z: -0.23747393488883972
visibility: 0.9905956983566284
","x: 262.0657653808594
y: 295.0152282714844
z: -0.24725012481212616
visibility: 0.9938781261444092
","x: 268.2926025390625
y: 307.95306396484375
z: -0.2993878722190857
visibility: 0.9976243376731873
","x: 265.2612609863281
y: 307.7911376953125
z: -0.30236420035362244
visibility: 0.9980100393295288
","x: 280.060546875
y: 318.490478515625
z: -0.16106125712394714
visibility: 0.9993228316307068
","x: 251.17616271972656
y: 321.03851318359375
z: -0.16603194177150726
visibility: 0.9996876120567322
","x: 283.48846435546875
y: 360.66302490234375
z: -0.12593358755111694
visibility: 0.8734890222549438
","x: 245.41151428222656
y: 363.15869140625
z: -0.13790015876293182
visibility: 0.8050268888473511
","x: 279.5301208496094
y: 397.35693359375
z: -0.19442255795001984
visibility: 0.7962846755981445
","x: 239.08058166503906
y: 393.2784729003906
z: -0.20596376061439514
visibility: 0.811191976070404
","x: 277.6324768066406
y: 409.606689453125
z: -0.2189542055130005
visibility: 0.7565984725952148
","x: 236.5919189453125
y: 403.46002197265625
z: -0.2301313877105713
visibility: 0.7753636837005615
","x: 273.70111083984375
y: 407.8935241699219
z: -0.2388874739408493
visibility: 0.7610810995101929
","x: 238.0274200439453
y: 402.9122619628906
z: -0.2527652680873871
visibility: 0.7809525728225708
","x: 273.4145812988281
y: 403.2773132324219
z: -0.20307032763957977
visibility: 0.7330412864685059
","x: 239.163330078125
y: 400.3450012207031
z: -0.21596387028694153
visibility: 0.7575358748435974
","x: 274.48883056640625
y: 395.5734558105469
z: 0.002367221750319004
visibility: 0.9992722868919373
","x: 258.8183898925781
y: 393.22515869140625
z: -0.002328169997781515
visibility: 0.999441921710968
","x: 280.05267333984375
y: 444.4256286621094
z: -0.05371832847595215
visibility: 0.9828864932060242
","x: 261.67388916015625
y: 442.61981201171875
z: -0.02921983040869236
visibility: 0.9636837840080261
","x: 273.77978515625
y: 492.6181640625
z: 0.11163423955440521
visibility: 0.9768453240394592
","x: 260.7352600097656
y: 483.9673156738281
z: 0.14544042944908142
visibility: 0.9669854044914246
","x: 271.5408935546875
y: 497.4915771484375
z: 0.13503295183181763
visibility: 0.8587093949317932
","x: 262.3099060058594
y: 488.34527587890625
z: 0.15763065218925476
visibility: 0.8542129993438721
","x: 272.47930908203125
y: 511.0807800292969
z: 0.05138062685728073
visibility: 0.9722287058830261
","x: 257.89788818359375
y: 508.0291748046875
z: 0.06949402391910553
visibility: 0.9636878967285156
",,,,,,,,,,,,,,,,,,,,,,,,,,,,,,,,,,,,,,,,,,
29,"x: 269.13507080078125
y: 313.5264892578125
z: -0.2768692374229431
visibility: 0.9989740252494812
","x: 271.0184631347656
y: 307.9769287109375
z: -0.26620641350746155
visibility: 0.996620774269104
","x: 271.9322814941406
y: 307.7801818847656
z: -0.26624101400375366
visibility: 0.9964816570281982
","x: 272.8184814453125
y: 307.5497741699219
z: -0.2662913203239441
visibility: 0.996207594871521
","x: 268.34014892578125
y: 306.7611999511719
z: -0.269808292388916
visibility: 0.9968560934066772
","x: 267.32403564453125
y: 305.60968017578125
z: -0.26985397934913635
visibility: 0.9969378113746643
","x: 266.2530517578125
y: 304.19921875
z: -0.2698851525783539
visibility: 0.9971826076507568
","x: 273.5212707519531
y: 304.7880859375
z: -0.1735827922821045
visibility: 0.991216242313385
","x: 263.21331787109375
y: 298.9063720703125
z: -0.19011938571929932
visibility: 0.9942207932472229
","x: 269.7268981933594
y: 316.62762451171875
z: -0.23907065391540527
visibility: 0.9977642297744751
","x: 266.9107360839844
y: 315.76007080078125
z: -0.24405023455619812
visibility: 0.9981273412704468
","x: 279.7736511230469
y: 322.6011962890625
z: -0.1074475646018982
visibility: 0.9993808269500732
","x: 251.06947326660156
y: 321.96673583984375
z: -0.10877416282892227
visibility: 0.999691903591156
","x: 286.1212463378906
y: 356.1646728515625
z: -0.09574168175458908
visibility: 0.8836043477058411
","x: 245.09336853027344
y: 359.5879821777344
z: -0.10222579538822174
visibility: 0.8222014904022217
","x: 281.2370300292969
y: 378.6938171386719
z: -0.19746798276901245
visibility: 0.8081825971603394
","x: 240.85523986816406
y: 388.8992004394531
z: -0.19746658205986023
visibility: 0.8227150440216064
","x: 281.2357177734375
y: 388.1202697753906
z: -0.22685828804969788
visibility: 0.7654000520706177
","x: 237.36404418945312
y: 398.8369445800781
z: -0.22217190265655518
visibility: 0.7849077582359314
","x: 278.8390197753906
y: 385.9962158203125
z: -0.24268119037151337
visibility: 0.7701787352561951
","x: 239.59194946289062
y: 398.934326171875
z: -0.24345597624778748
visibility: 0.7909011840820312
","x: 278.0983581542969
y: 382.8865966796875
z: -0.20579147338867188
visibility: 0.7399505972862244
","x: 240.5211639404297
y: 399.83636474609375
z: -0.20723438262939453
visibility: 0.7667543292045593
","x: 274.1585998535156
y: 395.02337646484375
z: -0.000791872211266309
visibility: 0.9990763664245605
