uscmakers/ReverseChoreography/data/7_skeletons_keshi.csv
,NOSE,LEFT_EYE_INNER,LEFT_EYE,LEFT_EYE_OUTER,RIGHT_EYE_INNER,RIGHT_EYE,RIGHT_EYE_OUTER,LEFT_EAR,RIGHT_EAR,MOUTH_LEFT,MOUTH_RIGHT,LEFT_SHOULDER,RIGHT_SHOULDER,LEFT_ELBOW,RIGHT_ELBOW,LEFT_WRIST,RIGHT_WRIST,LEFT_PINKY,RIGHT_PINKY,LEFT_INDEX,RIGHT_INDEX,LEFT_THUMB,RIGHT_THUMB,LEFT_HIP,RIGHT_HIP,LEFT_KNEE,RIGHT_KNEE,LEFT_ANKLE,RIGHT_ANKLE,LEFT_HEEL,RIGHT_HEEL,LEFT_FOOT_INDEX,RIGHT_FOOT_INDEX,WRIST2,THUMB_CPC2,THUMB_MCP2,THUMB_IP2,THUMB_TIP2,INDEX_FINGER_MCP2,INDEX_FINGER_PIP2,INDEX_FINGER_DIP2,INDEX_FINGER_TIP2,MIDDLE_FINGER_MCP2,MIDDLE_FINGER_PIP2,MIDDLE_FINGER_DIP2,MIDDLE_FINGER_TIP2,RING_FINGER_PIP2,RING_FINGER_DIP2,RING_FINGER_TIP2,RING_FINGER_MCP2,PINKY_MCP2,PINKY_PIP2,PINKY_DIP2,PINKY_TIP2,WRIST,THUMB_CPC,THUMB_MCP,THUMB_IP,THUMB_TIP,INDEX_FINGER_MCP,INDEX_FINGER_PIP,INDEX_FINGER_DIP,INDEX_FINGER_TIP,MIDDLE_FINGER_MCP,MIDDLE_FINGER_PIP,MIDDLE_FINGER_DIP,MIDDLE_FINGER_TIP,RING_FINGER_PIP,RING_FINGER_DIP,RING_FINGER_TIP,RING_FINGER_MCP,PINKY_MCP,PINKY_PIP,PINKY_DIP,PINKY_TIP
0,"x: 270.7087707519531
y: 293.04693603515625
z: -0.17963819205760956
visibility: 0.9883599281311035
","x: 273.0220642089844
y: 286.830322265625
z: -0.18833079934120178
visibility: 0.9853453040122986
","x: 274.11834716796875
y: 286.6293029785156
z: -0.18838977813720703
visibility: 0.9837236404418945
","x: 275.295166015625
y: 286.4669494628906
z: -0.18845289945602417
visibility: 0.9856626391410828
","x: 271.26263427734375
y: 286.6714172363281
z: -0.16265934705734253
visibility: 0.9839251041412354
","x: 271.02423095703125
y: 286.3744812011719
z: -0.16266988217830658
visibility: 0.981654167175293
","x: 270.7755432128906
y: 286.0169677734375
z: -0.1627253293991089
visibility: 0.9841688871383667
","x: 280.6188049316406
y: 287.49737548828125
z: -0.18194030225276947
visibility: 0.9728567600250244
","x: 273.75048828125
y: 287.04046630859375
z: -0.06736033409833908
visibility: 0.9427247643470764
","x: 273.4870910644531
y: 298.2016296386719
z: -0.17457425594329834
visibility: 0.9710472226142883
","x: 271.2227478027344
y: 297.78521728515625
z: -0.14155574142932892
visibility: 0.9609766006469727
","x: 288.5124816894531
y: 321.1553955078125
z: -0.20950274169445038
visibility: 0.9942184686660767
","x: 279.2720947265625
y: 317.02752685546875
z: 0.04671518877148628
visibility: 0.9943767786026001
","x: 280.72723388671875
y: 372.72137451171875
z: -0.2076164186000824
visibility: 0.8163288831710815
","x: 276.54022216796875
y: 356.9095458984375
z: 0.10388188064098358
visibility: 0.08495727926492691
","x: 266.53472900390625
y: 385.7096862792969
z: -0.16220174729824066
visibility: 0.53794926404953
","x: 265.734619140625
y: 376.2637939453125
z: 0.0313587412238121
visibility: 0.1625571846961975
","x: 265.1756286621094
y: 383.803466796875
z: -0.18421047925949097
visibility: 0.49136680364608765
","x: 262.3197021484375
y: 379.82928466796875
z: 0.026294445618987083
visibility: 0.18727321922779083
","x: 265.7023620605469
y: 378.9274597167969
z: -0.1863056719303131
visibility: 0.49014464020729065
","x: 261.7992858886719
y: 378.51336669921875
z: -0.0031702895648777485
visibility: 0.20109350979328156
","x: 266.3097839355469
y: 377.96514892578125
z: -0.16191652417182922
visibility: 0.4093221426010132
","x: 263.5312194824219
y: 377.83526611328125
z: 0.016065305098891258
visibility: 0.2059982866048813
","x: 298.3239440917969
y: 405.2999267578125
z: -0.07757483422756195
visibility: 0.9953889846801758
","x: 288.9026184082031
y: 399.90655517578125
z: 0.07766920328140259
visibility: 0.9924559593200684
","x: 297.71051025390625
y: 463.9969482421875
z: -0.09173205494880676
visibility: 0.8794593811035156
","x: 280.8248596191406
y: 454.9669189453125
z: 0.12114624679088593
visibility: 0.5628386735916138
","x: 299.57635498046875
y: 520.1856689453125
z: -0.0074371336959302425
visibility: 0.9433127045631409
","x: 283.96478271484375
y: 512.208740234375
z: 0.24035653471946716
visibility: 0.7574244737625122
","x: 302.2227783203125
y: 529.065185546875
z: -0.0031435999553650618
visibility: 0.8986891508102417
","x: 286.7150573730469
y: 521.1082153320312
z: 0.24876217544078827
visibility: 0.7425093054771423
","x: 294.0830383300781
y: 533.7474975585938
z: -0.07786108553409576
visibility: 0.9451733231544495
","x: 272.8688659667969
y: 528.3307495117188
z: 0.20216944813728333
visibility: 0.8471408486366272
",,,,,,,,,,,,,,,,,,,,,,,,,,,,,,,,,,,,,,,,,,
1,"x: 268.74822998046875
y: 303.6995544433594
z: -0.10964570194482803
visibility: 0.9892632365226746
","x: 269.6060791015625
y: 297.4008483886719
z: -0.12378574907779694
visibility: 0.9865754842758179
","x: 270.43951416015625
y: 296.46295166015625
z: -0.12382596731185913
visibility: 0.9851391911506653
","x: 271.324951171875
y: 295.42352294921875
z: -0.12388565391302109
visibility: 0.9868844747543335
","x: 268.3726501464844
y: 298.5732421875
z: -0.09695577621459961
visibility: 0.9851498603820801
","x: 268.31201171875
y: 298.568359375
z: -0.09697699546813965
visibility: 0.9831098318099976
","x: 268.2461853027344
y: 298.495849609375
z: -0.09701311588287354
visibility: 0.9853684902191162
","x: 276.6736755371094
y: 293.0282287597656
z: -0.1405157893896103
visibility: 0.9754008650779724
","x: 271.83575439453125
y: 296.6019592285156
z: -0.02096661739051342
visibility: 0.9476554989814758
","x: 272.3019104003906
y: 306.8738708496094
z: -0.11284466087818146
visibility: 0.9737421274185181
","x: 270.70367431640625
y: 308.1885986328125
z: -0.07844085991382599
visibility: 0.9644131660461426
","x: 291.16583251953125
y: 321.1507568359375
z: -0.1660565733909607
visibility: 0.9947509169578552
","x: 278.51959228515625
y: 322.67877197265625
z: 0.06779234111309052
visibility: 0.9947305917739868
","x: 290.6822814941406
y: 368.9751892089844
z: -0.19362007081508636
visibility: 0.8308841586112976
","x: 268.0837707519531
y: 351.4908142089844
z: 0.04308969900012016
visibility: 0.09812291711568832
","x: 269.8161926269531
y: 365.9617919921875
z: -0.14931008219718933
visibility: 0.5681949257850647
","x: 261.38421630859375
y: 342.4737548828125
z: -0.11619190871715546
visibility: 0.17092081904411316
","x: 265.2640380859375
y: 364.2449645996094
z: -0.16546402871608734
visibility: 0.5163103342056274
","x: 259.1217346191406
y: 338.59051513671875
z: -0.13084229826927185
visibility: 0.19263841211795807
","x: 265.82537841796875
y: 355.77471923828125
z: -0.158787801861763
visibility: 0.5146480798721313
","x: 260.0531921386719
y: 335.1435546875
z: -0.1397545039653778
visibility: 0.20512212812900543
","x: 267.3382568359375
y: 356.5849304199219
z: -0.14369063079357147
visibility: 0.4307430684566498
","x: 261.46978759765625
y: 336.8258972167969
z: -0.12557245790958405
visibility: 0.2093106508255005
","x: 300.53680419921875
y: 404.38238525390625
z: -0.0735345408320427
visibility: 0.9953515529632568
","x: 290.16015625
y: 401.3619689941406
z: 0.07366041094064713
visibility: 0.9926075339317322
","x: 297.65081787109375
y: 463.5665283203125
z: -0.08271338045597076
visibility: 0.8845943212509155
","x: 283.3081970214844
y: 456.2494201660156
z: 0.08191914856433868
visibility: 0.5687095522880554
","x: 299.9440002441406
y: 519.9781494140625
z: 0.0051936921663582325
visibility: 0.9440268278121948
","x: 283.9840087890625
y: 512.3485717773438
z: 0.1763138473033905
visibility: 0.7608588337898254
","x: 302.63671875
y: 527.6038818359375
z: 0.009909695014357567
visibility: 0.8977123498916626
","x: 286.0256652832031
y: 521.091552734375
z: 0.18182945251464844
visibility: 0.7417228817939758
","x: 293.7037353515625
y: 533.727783203125
z: -0.062256939709186554
visibility: 0.9452298283576965
","x: 272.804443359375
y: 528.3309326171875
z: 0.12663015723228455
visibility: 0.848726212978363
",,,,,,,,,,,,,,,,,,,,,,,,,,,,,,,,,,,,,,,,,,
2,"x: 267.31158447265625
y: 309.24920654296875
z: -0.06560243666172028
visibility: 0.9902747273445129
","x: 267.69305419921875
y: 303.0996398925781
z: -0.08348514884710312
visibility: 0.987866997718811
","x: 268.31536865234375
y: 302.3787841796875
z: -0.08349653333425522
visibility: 0.986579179763794
","x: 268.9806213378906
y: 301.565673828125
z: -0.08353813737630844
visibility: 0.9881422519683838
","x: 267.05908203125
y: 303.6520690917969
z: -0.055254947394132614
visibility: 0.9865595698356628
","x: 267.2000427246094
y: 303.4171142578125
z: -0.0552554726600647
visibility: 0.9847316741943359
","x: 267.3406982421875
y: 303.1030578613281
z: -0.05527587607502937
visibility: 0.9867596626281738
","x: 274.4786376953125
y: 298.2130126953125
z: -0.12203343957662582
visibility: 0.9778251051902771
","x: 271.6349182128906
y: 300.1851806640625
z: 0.0033528730273246765
visibility: 0.9527721405029297
","x: 271.114013671875
y: 312.4163513183594
z: -0.07730600237846375
visibility: 0.9763064384460449
","x: 270.30126953125
y: 313.30853271484375
z: -0.04116920381784439
visibility: 0.9678643941879272
","x: 291.7139892578125
y: 321.37286376953125
z: -0.15966418385505676
visibility: 0.9952564835548401
","x: 278.73126220703125
y: 323.9411926269531
z: 0.07663670927286148
visibility: 0.9951781630516052
","x: 292.33319091796875
y: 367.8628234863281
z: -0.16710057854652405
visibility: 0.8423399925231934
","x: 267.7702941894531
y: 350.73388671875
z: 0.029020657762885094
visibility: 0.11050126701593399
","x: 271.8132629394531
y: 359.65338134765625
z: -0.07094258069992065
visibility: 0.5907183289527893
","x: 260.5548400878906
y: 337.3800964355469
z: -0.11925189197063446
visibility: 0.1764845997095108
","x: 266.447998046875
y: 358.304931640625
z: -0.07692588120698929
visibility: 0.5325069427490234
","x: 258.31378173828125
y: 332.03466796875
z: -0.129233717918396
visibility: 0.19484661519527435
","x: 266.3542175292969
y: 349.54034423828125
z: -0.06801748275756836
visibility: 0.5304668545722961
","x: 259.2452392578125
y: 328.6563720703125
z: -0.13327626883983612
visibility: 0.20551618933677673
","x: 268.6063232421875
y: 350.8553771972656
z: -0.06278928369283676
visibility: 0.4439614713191986
","x: 260.66552734375
y: 330.73760986328125
z: -0.12640529870986938
visibility: 0.2089877426624298
","x: 301.30853271484375
y: 404.6529541015625
z: -0.07210379093885422
visibility: 0.995671272277832
","x: 290.9209899902344
y: 402.6715393066406
z: 0.07219608128070831
visibility: 0.9931758642196655
","x: 298.4388122558594
y: 463.7686767578125
z: -0.06062842160463333
visibility: 0.8926639556884766
","x: 284.7989501953125
y: 458.60064697265625
z: 0.1177322119474411
visibility: 0.5849650502204895
","x: 300.42034912109375
y: 521.2860717773438
z: 0.0130403907969594
visibility: 0.9469263553619385
","x: 283.69647216796875
y: 513.2410278320312
z: 0.18619395792484283
visibility: 0.7726881504058838
","x: 303.3504333496094
y: 528.0013427734375
z: 0.01704847253859043
visibility: 0.900183916091919
","x: 286.0353088378906
y: 521.1085205078125
z: 0.19980911910533905
visibility: 0.7466288208961487
","x: 293.5281982421875
y: 535.0388793945312
z: -0.041621968150138855
visibility: 0.9479101896286011
","x: 272.8183898925781
y: 528.3399658203125
z: 0.18151618540287018
visibility: 0.8558685779571533
",,,,,,,,,,,,,,,,,,,,,,,,,,,,,,,,,,,,,,,,,,
3,"x: 268.7977294921875
y: 304.750244140625
z: -0.0981755405664444
visibility: 0.9900968670845032
","x: 268.6700744628906
y: 297.00970458984375
z: -0.11452772468328476
visibility: 0.9879723787307739
","x: 268.6090087890625
y: 296.19647216796875
z: -0.1145755872130394
visibility: 0.9867700934410095
","x: 269.6222839355469
y: 295.3790283203125
z: -0.11460725963115692
visibility: 0.9883428812026978
","x: 268.9882507324219
y: 297.6580505371094
z: -0.08654213696718216
visibility: 0.9864117503166199
","x: 269.3548278808594
y: 297.371337890625
z: -0.08654560148715973
visibility: 0.984764575958252
","x: 269.6833190917969
y: 297.1640625
z: -0.08659978210926056
visibility: 0.9868131875991821
","x: 274.99981689453125
y: 292.6929931640625
z: -0.14483590424060822
visibility: 0.9787865281105042
","x: 274.6702880859375
y: 294.523681640625
z: -0.021516377106308937
visibility: 0.954262375831604
","x: 271.6846923828125
y: 307.3466796875
z: -0.10779305547475815
visibility: 0.977694034576416
","x: 271.47216796875
y: 309.1390380859375
z: -0.07158009707927704
visibility: 0.9691750407218933
","x: 292.3572692871094
y: 319.0563659667969
z: -0.18194104731082916
visibility: 0.9956633448600769
","x: 279.6998596191406
y: 323.144287109375
z: 0.06842472404241562
visibility: 0.9953796863555908
","x: 290.1916809082031
y: 362.1463623046875
z: -0.2228097915649414
visibility: 0.8545416593551636
","x: 269.2558288574219
y: 351.29638671875
z: 0.07644719630479813
visibility: 0.107747383415699
","x: 269.2471923828125
y: 366.029296875
z: -0.20263047516345978
visibility: 0.6211667060852051
","x: 256.7378845214844
y: 359.86065673828125
z: -0.0015681622317060828
visibility: 0.1724116951227188
","x: 262.1527404785156
y: 365.86663818359375
z: -0.2297997921705246
visibility: 0.563235878944397
","x: 253.69775390625
y: 365.38946533203125
z: -0.007945599965751171
visibility: 0.19003574550151825
","x: 261.2601013183594
y: 358.6953125
z: -0.22344918549060822
visibility: 0.5613692402839661
","x: 253.1201629638672
y: 362.83941650390625
z: -0.03371235728263855
visibility: 0.20079833269119263
","x: 263.5535583496094
y: 359.0331726074219
z: -0.1992921531200409
visibility: 0.473660409450531
","x: 254.8909912109375
y: 361.9716796875
z: -0.016186963766813278
visibility: 0.20420123636722565
","x: 300.7431945800781
y: 401.34136962890625
z: -0.07223799079656601
visibility: 0.9956188797950745
","x: 290.87738037109375
y: 400.564453125
z: 0.07237111032009125
visibility: 0.9929975867271423
","x: 298.2879333496094
y: 460.2865295410156
z: -0.06548534333705902
visibility: 0.8936364054679871
","x: 284.3011779785156
y: 457.938232421875
z: 0.12696753442287445
visibility: 0.5784541368484497
","x: 300.7209167480469
y: 521.22900390625
z: 0.011511987075209618
visibility: 0.9477883577346802
","x: 283.63824462890625
y: 513.4736328125
z: 0.2086893767118454
visibility: 0.7728043794631958
","x: 303.5337219238281
y: 527.6787109375
z: 0.015516938641667366
visibility: 0.9001926183700562
","x: 286.0506591796875
y: 521.3935546875
z: 0.21855780482292175
visibility: 0.7470371723175049
","x: 293.53570556640625
y: 534.5350341796875
z: -0.050339389592409134
visibility: 0.948739230632782
","x: 272.884765625
y: 527.9584350585938
z: 0.18297623097896576
visibility: 0.8571462035179138
",,,,,,,,,,,,,,,,,,,,,,,,,,,,,,,,,,,,,,,,,,
4,"x: 274.11444091796875
y: 290.39923095703125
z: -0.12109214067459106
visibility: 0.9906700253486633
","x: 275.3760681152344
y: 284.63818359375
z: -0.1346144825220108
visibility: 0.9887505173683167
","x: 275.9745788574219
y: 284.444091796875
z: -0.13466067612171173
visibility: 0.9876298904418945
","x: 276.91339111328125
y: 284.28564453125
z: -0.13470956683158875
visibility: 0.9890990853309631
","x: 274.6444091796875
y: 284.7937927246094
z: -0.10703505575656891
visibility: 0.9873069524765015
","x: 274.75439453125
y: 284.7030029296875
z: -0.10703571885824203
visibility: 0.9858266711235046
","x: 274.8607177734375
y: 284.6313171386719
z: -0.10708250105381012
visibility: 0.9877541065216064
","x: 282.7721252441406
y: 285.6951599121094
z: -0.1515865921974182
visibility: 0.9803919196128845
","x: 280.048095703125
y: 285.728271484375
z: -0.03129451721906662
visibility: 0.9577929377555847
","x: 277.1658020019531
y: 295.8479919433594
z: -0.12423031032085419
visibility: 0.979499876499176
","x: 275.7081298828125
y: 296.6527404785156
z: -0.08719049394130707
visibility: 0.9716206789016724
","x: 294.1317138671875
y: 319.1524353027344
z: -0.19483785331249237
visibility: 0.9958789944648743
","x: 281.0083923339844
y: 320.2816162109375
z: 0.056885890662670135
visibility: 0.995678186416626
","x: 288.5608825683594
y: 362.6248779296875
z: -0.21705305576324463
visibility: 0.8632344007492065
","x: 270.8199768066406
y: 351.4630432128906
z: 0.08111753314733505
visibility: 0.11501253396272659
","x: 268.84228515625
y: 367.66131591796875
z: -0.18020321428775787
visibility: 0.6313425302505493
","x: 256.5702819824219
y: 368.539306640625
z: 0.0027679428458213806
visibility: 0.18215836584568024
","x: 261.7431335449219
y: 371.6427307128906
z: -0.20348604023456573
visibility: 0.5701851844787598
","x: 253.2574920654297
y: 371.558349609375
z: -0.00567732285708189
visibility: 0.19804061949253082
","x: 260.80926513671875
y: 367.6400451660156
z: -0.20075741410255432
visibility: 0.56819087266922
","x: 252.8227081298828
y: 370.262451171875
z: -0.03169683739542961
visibility: 0.20984430611133575
","x: 262.9949035644531
y: 367.5485534667969
z: -0.1777951419353485
visibility: 0.4800679087638855
","x: 254.00636291503906
y: 370.7868957519531
z: -0.011896329000592232
visibility: 0.21312427520751953
","x: 300.0839538574219
y: 401.7079162597656
z: -0.07255115360021591
visibility: 0.995769202709198
","x: 289.709716796875
y: 400.3564147949219
z: 0.07263264805078506
visibility: 0.9933027029037476
","x: 298.2672119140625
y: 459.85113525390625
z: -0.0709289088845253
visibility: 0.8856126070022583
","x: 283.9879455566406
y: 457.7544860839844
z: 0.12099355459213257
visibility: 0.565250813961029
","x: 300.6871643066406
y: 521.2171020507812
z: 0.015654809772968292
visibility: 0.9436015486717224
","x: 283.5184326171875
y: 513.769775390625
z: 0.21299080550670624
visibility: 0.7650692462921143
","x: 303.4779968261719
y: 527.7176513671875
z: 0.020558997988700867
visibility: 0.8936399221420288
","x: 285.9931335449219
y: 521.508056640625
z: 0.2206304520368576
visibility: 0.7429434657096863
","x: 293.68646240234375
y: 534.6204833984375
z: -0.04698876291513443
visibility: 0.9451369643211365
","x: 272.8915100097656
y: 527.8267822265625
z: 0.17789657413959503
visibility: 0.852854311466217
",,,,,,,,,,,,,,,,,,,,,,,,,,,,,,,,,,,,,,,,,,
5,"x: 275.3392639160156
y: 285.3158264160156
z: -0.11758478730916977
visibility: 0.9911285638809204
","x: 276.98486328125
y: 279.57757568359375
z: -0.13246355950832367
visibility: 0.9894095063209534
","x: 277.579833984375
y: 279.52056884765625
z: -0.13250592350959778
visibility: 0.9883955717086792
","x: 278.29913330078125
y: 279.49591064453125
z: -0.1325402557849884
visibility: 0.9897696375846863
","x: 276.3865661621094
y: 279.49444580078125
z: -0.10512864589691162
visibility: 0.9880692362785339
","x: 276.55377197265625
y: 279.35919189453125
z: -0.10514158010482788
visibility: 0.9867990612983704
","x: 276.734375
y: 279.2159118652344
z: -0.10519421100616455
visibility: 0.9886075854301453
","x: 284.1000671386719
y: 282.13604736328125
z: -0.1538413017988205
visibility: 0.9818422794342041
","x: 282.0912170410156
y: 281.67578125
z: -0.0353739932179451
visibility: 0.9610205888748169
","x: 277.6739501953125
y: 291.067138671875
z: -0.12584300339221954
visibility: 0.9811269640922546
","x: 276.57562255859375
y: 291.3902893066406
z: -0.09043876826763153
visibility: 0.9737728834152222
","x: 294.2326965332031
y: 318.1734619140625
z: -0.21007995307445526
visibility: 0.9961823225021362
","x: 282.1078186035156
y: 318.0528869628906
z: 0.05000057816505432
visibility: 0.9959626793861389
","x: 288.302978515625
y: 362.38916015625
z: -0.2240254133939743
visibility: 0.8727481365203857
","x: 272.4673767089844
y: 351.8818664550781
z: 0.08049840480089188
visibility: 0.11535625159740448
","x: 268.7444763183594
y: 368.968505859375
z: -0.1829400211572647
visibility: 0.65336012840271
","x: 257.43994140625
y: 370.48114013671875
z: 0.00347861647605896
visibility: 0.1824394315481186
","x: 262.0882568359375
y: 375.08856201171875
z: -0.20752982795238495
visibility: 0.5912564396858215
","x: 253.5939483642578
y: 372.8781433105469
z: -0.00430318433791399
visibility: 0.19739870727062225
","x: 260.79327392578125
y: 371.2530822753906
z: -0.20454934239387512
visibility: 0.5892661213874817
","x: 252.91749572753906
y: 371.7774963378906
z: -0.029644643887877464
visibility: 0.20946769416332245
","x: 262.7696838378906
y: 370.88311767578125
z: -0.18058684468269348
visibility: 0.5006945729255676
","x: 253.81373596191406
y: 372.53662109375
z: -0.01075010932981968
visibility: 0.21232746541500092
","x: 299.4620056152344
y: 401.0169982910156
z: -0.07285855710506439
visibility: 0.9958534836769104
","x: 289.65509033203125
y: 399.352294921875
z: 0.07292585074901581
visibility: 0.9935171008110046
","x: 298.0984802246094
y: 458.82635498046875
z: -0.05057825893163681
visibility: 0.8847070932388306
","x: 284.10662841796875
y: 457.2391052246094
z: 0.131985604763031
visibility: 0.5556864738464355
","x: 300.4189147949219
y: 521.1499633789062
z: 0.04320446401834488
visibility: 0.943328320980072
","x: 283.5299377441406
y: 514.1380004882812
z: 0.2265143096446991
visibility: 0.7612165808677673
","x: 303.4350280761719
y: 527.2034301757812
z: 0.04901238530874252
visibility: 0.8911058902740479
","x: 285.92919921875
y: 522.095458984375
z: 0.2334514558315277
visibility: 0.7385434508323669
","x: 293.67205810546875
y: 534.4838256835938
z: -0.01616891473531723
visibility: 0.9446190595626831
","x: 272.8177185058594
y: 527.948486328125
z: 0.1932476907968521
visibility: 0.8518967628479004
",,,,,,,,,,,,,,,,,,,,,,,,,,,,,,,,,,,,,,,,,,
6,"x: 275.6474609375
y: 285.50384521484375
z: -0.11164452135562897
visibility: 0.9916706681251526
","x: 277.3987731933594
y: 279.21990966796875
z: -0.12679992616176605
visibility: 0.9901050925254822
","x: 278.01641845703125
y: 279.08856201171875
z: -0.12683779001235962
visibility: 0.9891979694366455
","x: 278.7088928222656
y: 279.0273132324219
z: -0.12686404585838318
visibility: 0.9904585480690002
","x: 276.79498291015625
y: 279.23419189453125
z: -0.0997466966509819
visibility: 0.9888396263122559
","x: 276.9649963378906
y: 279.08795166015625
z: -0.09976238757371902
visibility: 0.9877588748931885
","x: 277.1375732421875
y: 278.9568786621094
z: -0.09981493651866913
visibility: 0.9894343018531799
","x: 284.63214111328125
y: 281.5594482421875
z: -0.15561406314373016
visibility: 0.9832794070243835
","x: 282.4290771484375
y: 281.2547607421875
z: -0.0364973358809948
visibility: 0.964120626449585
","x: 277.7832946777344
y: 291.0501708984375
z: -0.12127260863780975
visibility: 0.9827158451080322
","x: 276.8293151855469
y: 291.421142578125
z: -0.08644252270460129
visibility: 0.9758623838424683
","x: 295.3658752441406
y: 318.1099853515625
z: -0.20782451331615448
visibility: 0.9964831471443176
","x: 282.60809326171875
y: 317.6247863769531
z: 0.04841094836592674
visibility: 0.9962350726127625
","x: 287.40850830078125
y: 363.10162353515625
z: -0.21962706744670868
visibility: 0.8813157677650452
","x: 273.87548828125
y: 352.2076721191406
z: 0.08070666342973709
visibility: 0.11760178208351135
","x: 269.49920654296875
y: 369.6292419433594
z: -0.17754657566547394
visibility: 0.6753368973731995
","x: 258.32928466796875
y: 372.2663879394531
z: 0.008866062387824059
visibility: 0.1885652244091034
","x: 263.09979248046875
y: 377.03466796875
z: -0.20072802901268005
visibility: 0.6133522987365723
","x: 254.3301239013672
y: 374.4681091308594
z: 0.0012758852681145072
visibility: 0.2022901028394699
","x: 261.2403259277344
y: 373.0200500488281
z: -0.19876982271671295
visibility: 0.6113044023513794
","x: 253.78826904296875
y: 373.60308837890625
z: -0.023376207798719406
visibility: 0.21490609645843506
","x: 263.1835021972656
y: 372.73748779296875
z: -0.17548295855522156
visibility: 0.5234842896461487
","x: 255.15194702148438
y: 374.1871643066406
z: -0.005017275922000408
visibility: 0.21746569871902466
","x: 299.22369384765625
y: 401.0661315917969
z: -0.07272769510746002
visibility: 0.9959909915924072
","x: 289.47796630859375
y: 399.25213623046875
z: 0.07273733615875244
visibility: 0.9937826991081238
","x: 298.2000732421875
y: 458.544921875
z: -0.05583313852548599
visibility: 0.8859912157058716
","x: 284.0182800292969
y: 456.3992919921875
z: 0.13085930049419403
visibility: 0.5522637367248535
","x: 300.727783203125
y: 520.755615234375
z: 0.046708256006240845
visibility: 0.9434333443641663
","x: 283.5481262207031
y: 514.00927734375
z: 0.22074821591377258
visibility: 0.7621124982833862
","x: 304.1572265625
y: 526.573974609375
z: 0.05356242507696152
visibility: 0.8874815702438354
","x: 285.8194274902344
y: 522.0776977539062
z: 0.2275773286819458
visibility: 0.7383193373680115
","x: 294.404296875
y: 534.4712524414062
z: -0.010221912525594234
visibility: 0.944483757019043
","x: 272.7379150390625
y: 527.8362426757812
z: 0.18856656551361084
visibility: 0.8535516262054443
",,,,,,,,,,,,,,,,,,,,,,,,,,,,,,,,,,,,,,,,,,
7,"x: 277.56219482421875
y: 285.3671875
z: -0.14863303303718567
visibility: 0.9921833872795105
","x: 279.2326965332031
y: 279.2908020019531
z: -0.15796640515327454
visibility: 0.9907740950584412
","x: 280.0618591308594
y: 278.9891357421875
z: -0.15804049372673035
visibility: 0.9899474382400513
","x: 280.98321533203125
y: 278.74957275390625
z: -0.1580987274646759
visibility: 0.991105854511261
","x: 278.044677734375
y: 279.741943359375
z: -0.1345529854297638
visibility: 0.9895557165145874
","x: 277.98876953125
y: 279.74090576171875
z: -0.134565532207489
visibility: 0.9885093569755554
","x: 277.9298095703125
y: 279.7337646484375
z: -0.13461461663246155
visibility: 0.9900473356246948
","x: 286.28900146484375
y: 281.1670227050781
z: -0.1604691445827484
visibility: 0.9846729040145874
","x: 282.4883117675781
y: 281.5813293457031
z: -0.055497877299785614
visibility: 0.9666874408721924
","x: 280.2879333496094
y: 290.67218017578125
z: -0.1465345323085785
visibility: 0.9841215014457703
","x: 278.37847900390625
y: 291.4532470703125
z: -0.11632789671421051
visibility: 0.9776864647865295
","x: 294.8503112792969
y: 317.07275390625
z: -0.20720620453357697
visibility: 0.9967792630195618
","x: 283.4941101074219
y: 315.7511291503906
z: 0.048339247703552246
visibility: 0.9964767694473267
","x: 284.3871154785156
y: 362.4960632324219
z: -0.22671064734458923
visibility: 0.8900273442268372
","x: 273.19696044921875
y: 350.11981201171875
z: 0.09235754609107971
visibility: 0.12180798500776291
","x: 266.45684814453125
y: 377.0475769042969
z: -0.20167775452136993
visibility: 0.6922699809074402
","x: 255.1219940185547
y: 371.45928955078125
z: 0.018103066831827164
visibility: 0.2004188597202301
","x: 261.0379943847656
y: 382.76177978515625
z: -0.2261659801006317
visibility: 0.6306480169296265
","x: 249.838134765625
y: 374.2823791503906
z: 0.009555548429489136
visibility: 0.21438834071159363
","x: 259.7793273925781
y: 379.50738525390625
z: -0.22754307091236115
visibility: 0.6290390491485596
","x: 249.6778106689453
y: 372.864013671875
z: -0.017113300040364265
visibility: 0.22847431898117065
","x: 261.3787536621094
y: 377.9522399902344
z: -0.20083050429821014
visibility: 0.5423455238342285
","x: 251.9574432373047
y: 372.8500061035156
z: 0.0033482506405562162
visibility: 0.2312430590391159
","x: 296.9457702636719
y: 401.3328552246094
z: -0.07291911542415619
visibility: 0.9962738156318665
","x: 288.29656982421875
y: 399.27679443359375
z: 0.07288912683725357
visibility: 0.9941881895065308
","x: 297.5122375488281
y: 458.86700439453125
z: -0.060247473418712616
visibility: 0.8737841248512268
","x: 283.711181640625
y: 456.9577331542969
z: 0.10965505987405777
visibility: 0.5330957174301147
","x: 301.3407897949219
y: 520.5147705078125
z: 0.03229176625609398
visibility: 0.938077986240387
","x: 283.46185302734375
y: 514.0595092773438
z: 0.20883695781230927
visibility: 0.7489473819732666
","x: 306.1109619140625
y: 526.6448364257812
z: 0.03835326060652733
visibility: 0.8829326629638672
","x: 285.6165466308594
y: 522.462646484375
z: 0.21624913811683655
visibility: 0.7341079115867615
","x: 294.3783264160156
y: 534.4627685546875
z: -0.026876527816057205
visibility: 0.9402526617050171
","x: 272.51123046875
y: 527.8124389648438
z: 0.1736592799425125
visibility: 0.844901442527771
",,,,,,,,,,,,,,,,,,,,,,,,,,,,,,,,,,,,,,,,,,
8,"x: 278.6338195800781
y: 281.1278381347656
z: -0.14406487345695496
visibility: 0.9926523566246033
","x: 280.45635986328125
y: 275.0037841796875
z: -0.15486156940460205
visibility: 0.9912803769111633
","x: 281.4068298339844
y: 274.67266845703125
z: -0.15492424368858337
visibility: 0.9906041622161865
","x: 282.46435546875
y: 274.35809326171875
z: -0.15498140454292297
visibility: 0.9916791915893555
","x: 279.11663818359375
y: 275.2629699707031
z: -0.13034936785697937
visibility: 0.9898988008499146
","x: 279.0341491699219
y: 275.1550598144531
z: -0.13036301732063293
visibility: 0.9889217615127563
","x: 278.9593811035156
y: 275.0223388671875
z: -0.13041535019874573
visibility: 0.9903460741043091
","x: 287.9247131347656
y: 276.1373291015625
z: -0.16062551736831665
visibility: 0.9859349131584167
","x: 283.7976379394531
y: 276.52667236328125
z: -0.05779136344790459
visibility: 0.9686849117279053
","x: 281.55560302734375
y: 287.05023193359375
z: -0.14426922798156738
visibility: 0.9854877591133118
","x: 279.5401916503906
y: 287.4789123535156
z: -0.11286093294620514
visibility: 0.9794225692749023
","x: 297.332275390625
y: 309.1549987792969
z: -0.20272746682167053
visibility: 0.9970844984054565
","x: 283.283203125
y: 311.53765869140625
z: 0.04216182976961136
visibility: 0.9967250227928162
","x: 290.5948486328125
y: 356.8154296875
z: -0.22660072147846222
visibility: 0.8999318480491638
","x: 268.8243408203125
y: 339.2120666503906
z: 0.09476790577173233
visibility: 0.1657896637916565
","x: 277.2430725097656
y: 388.79412841796875
z: -0.22509291768074036
visibility: 0.7196345925331116
","x: 250.43466186523438
y: 354.7873229980469
z: 0.029435375705361366
visibility: 0.2604823410511017
","x: 274.70037841796875
y: 398.550048828125
z: -0.25089195370674133
visibility: 0.6614670753479004
","x: 245.40135192871094
y: 359.78900146484375
z: 0.02175839990377426
visibility: 0.2682189643383026
","x: 271.39801025390625
y: 396.59844970703125
z: -0.2548949122428894
visibility: 0.6598551273345947
","x: 244.34571838378906
y: 359.46051025390625
z: -0.005073418375104666
visibility: 0.2835994064807892
","x: 272.03106689453125
y: 393.1432800292969
z: -0.22560544312000275
visibility: 0.5783959627151489
","x: 246.35885620117188
y: 358.3319091796875
z: 0.014925846830010414
visibility: 0.2853984832763672
","x: 297.0378723144531
y: 395.9361267089844
z: -0.06851965934038162
visibility: 0.9965330958366394
","x: 288.2371520996094
y: 394.8612976074219
z: 0.0685083344578743
visibility: 0.9945802688598633
","x: 296.7714538574219
y: 456.0368347167969
z: -0.08191283047199249
visibility: 0.8759686350822449
","x: 281.5907287597656
y: 452.5679016113281
z: 0.042036157101392746
visibility: 0.553453803062439
","x: 301.288330078125
y: 519.177978515625
z: -0.006146496627479792
visibility: 0.9399703145027161
","x: 279.5706787109375
y: 512.2725830078125
z: 0.12612172961235046
visibility: 0.7593209743499756
","x: 305.834716796875
y: 526.3056640625
z: -0.003036822658032179
visibility: 0.8820704817771912
","x: 281.6133117675781
y: 521.5528564453125
z: 0.13131406903266907
visibility: 0.7399535775184631
","x: 293.35894775390625
y: 534.457275390625
z: -0.07709677517414093
visibility: 0.9418203830718994
","x: 271.988525390625
y: 526.8653564453125
z: 0.07452993839979172
visibility: 0.8502169847488403
",,,,,,,,,,,,,,,,,,,,,,,,,,,,,,,,,,,,,,,,,,
9,"x: 280.0982360839844
y: 278.3475036621094
z: -0.1026938334107399
visibility: 0.9933000802993774
","x: 281.4989013671875
y: 272.41522216796875
z: -0.11667965352535248
visibility: 0.9920647144317627
","x: 282.35906982421875
y: 271.92803955078125
z: -0.11672922223806381
visibility: 0.9914660453796387
","x: 283.2975769042969
y: 271.4404602050781
z: -0.11675472557544708
visibility: 0.9924519062042236
","x: 280.36663818359375
y: 272.9371337890625
z: -0.09291592985391617
visibility: 0.9907268285751343
","x: 280.3525390625
y: 272.8729553222656
z: -0.09290935099124908
visibility: 0.9898195862770081
","x: 280.36376953125
y: 272.80255126953125
z: -0.0929458737373352
visibility: 0.9910981059074402
","x: 288.8221740722656
y: 272.3388977050781
z: -0.1412196010351181
visibility: 0.9872958064079285
","x: 285.5437927246094
y: 273.58343505859375
z: -0.03647468984127045
visibility: 0.9714230298995972
","x: 283.35394287109375
y: 283.96771240234375
z: -0.10945995897054672
visibility: 0.9868890643119812
","x: 281.7712097167969
y: 284.5642395019531
z: -0.07869833707809448
visibility: 0.9812859892845154
","x: 299.115966796875
y: 303.5518798828125
z: -0.18753188848495483
visibility: 0.9973745346069336
","x: 285.12030029296875
y: 306.87322998046875
z: 0.05368218943476677
visibility: 0.9969601035118103
","x: 301.000732421875
y: 347.8085632324219
z: -0.22369837760925293
visibility: 0.9090264439582825
","x: 269.6639709472656
y: 332.32763671875
z: 0.11012681573629379
visibility: 0.198277547955513
","x: 294.9323425292969
y: 387.6138916015625
z: -0.23388957977294922
visibility: 0.7456364035606384
","x: 251.58982849121094
y: 353.0320739746094
z: 0.06759145855903625
visibility: 0.3073774576187134
","x: 293.163818359375
y: 398.9503479003906
z: -0.25868505239486694
visibility: 0.6912749409675598
","x: 246.64935302734375
y: 358.2424621582031
z: 0.06832937151193619
visibility: 0.30639734864234924
","x: 289.8254089355469
y: 397.1768493652344
z: -0.26148101687431335
visibility: 0.6896331906318665
","x: 246.03146362304688
y: 357.56640625
z: 0.041044436395168304
visibility: 0.3233475089073181
","x: 290.6218566894531
y: 396.5367126464844
z: -0.2343171089887619
visibility: 0.6138831973075867
","x: 248.0283966064453
y: 356.6182861328125
z: 0.05333786457777023
visibility: 0.3259336054325104
","x: 297.0655517578125
y: 394.8242492675781
z: -0.06924469769001007
visibility: 0.9968484044075012
","x: 288.27703857421875
y: 391.9837646484375
z: 0.06925128400325775
visibility: 0.9949825406074524
","x: 294.6604919433594
y: 453.6137390136719
z: -0.08730857074260712
visibility: 0.883029580116272
","x: 277.30413818359375
y: 445.75885009765625
z: 0.07470135390758514
visibility: 0.5640077590942383
","x: 300.42852783203125
y: 517.7672729492188
z: -0.023254668340086937
visibility: 0.9427303671836853
","x: 267.3292236328125
y: 500.6939392089844
z: 0.17630541324615479
visibility: 0.7641465663909912
","x: 305.47296142578125
y: 524.9724731445312
z: -0.021039940416812897
visibility: 0.8829308152198792
","x: 270.15399169921875
y: 511.7409973144531
z: 0.18286621570587158
visibility: 0.745286762714386
","x: 291.06378173828125
y: 532.92333984375
z: -0.09034931659698486
visibility: 0.9435974955558777
","x: 252.93702697753906
y: 511.4662170410156
z: 0.12898282706737518
visibility: 0.853094220161438
",,,,,,,,,,,,,,,,,,,,,,,,,,,,,,,,,,,,,,,,,,
10,"x: 280.35888671875
y: 280.9326477050781
z: -0.10058814287185669
visibility: 0.9939485788345337
","x: 281.880126953125
y: 274.7989196777344
z: -0.11193045228719711
visibility: 0.99283367395401
","x: 282.7646789550781
y: 274.33453369140625
z: -0.1119825690984726
visibility: 0.9922938942909241
","x: 283.7479248046875
y: 273.8689270019531
z: -0.11200294643640518
visibility: 0.9931840300559998
","x: 280.73175048828125
y: 275.294921875
z: -0.08747886121273041
visibility: 0.9916276931762695
","x: 280.73846435546875
y: 275.22723388671875
z: -0.08748860657215118
visibility: 0.9908108711242676
","x: 280.78436279296875
y: 275.1307067871094
z: -0.08753995597362518
visibility: 0.991963803768158
","x: 289.35064697265625
y: 274.693115234375
z: -0.12381448596715927
visibility: 0.9885399341583252
","x: 285.7689208984375
y: 275.8302917480469
z: -0.013012068346142769
visibility: 0.9742358922958374
","x: 283.49432373046875
y: 286.30926513671875
z: -0.1031208261847496
visibility: 0.9881837964057922
","x: 281.8942565917969
y: 286.9341735839844
z: -0.07100833207368851
visibility: 0.9831197261810303
","x: 300.0589904785156
y: 306.51129150390625
z: -0.15596382319927216
visibility: 0.9976317882537842
","x: 286.1494445800781
y: 308.87945556640625
z: 0.07648666203022003
visibility: 0.9972497224807739
","x: 309.39324951171875
y: 344.31817626953125
z: -0.23209361732006073
visibility: 0.9155153036117554
","x: 273.514404296875
y: 335.93463134765625
z: 0.12517206370830536
visibility: 0.23684589564800262
","x: 300.3040771484375
y: 371.1197509765625
z: -0.3014228940010071
visibility: 0.7584829926490784
","x: 256.35791015625
y: 367.7442626953125
z: 0.062375497072935104
visibility: 0.35010063648223877
","x: 299.91845703125
y: 378.85565185546875
z: -0.33067747950553894
visibility: 0.7036958336830139
","x: 250.66429138183594
y: 376.0652160644531
z: 0.05766403675079346
visibility: 0.34095022082328796
","x: 297.6791076660156
y: 375.5984802246094
z: -0.3318580985069275
visibility: 0.7013770341873169
","x: 250.0052032470703
y: 376.2865905761719
z: 0.03059692122042179
visibility: 0.35854196548461914
","x: 298.1693420410156
y: 373.88037109375
z: -0.3028199076652527
visibility: 0.6244359016418457
","x: 252.2427520751953
y: 374.5642395019531
z: 0.048136718571186066
visibility: 0.36044085025787354
","x: 297.3651428222656
y: 395.9558410644531
z: -0.07182130217552185
visibility: 0.9971388578414917
","x: 288.9139404296875
y: 393.0299072265625
z: 0.07185524702072144
visibility: 0.9954366683959961
","x: 292.8246765136719
y: 454.060546875
z: -0.10449234396219254
visibility: 0.893051266670227
","x: 273.9635314941406
y: 445.07672119140625
z: 0.08499868959188461
visibility: 0.5968770980834961
","x: 300.1576232910156
y: 517.9989013671875
z: -0.07157757133245468
visibility: 0.9475380778312683
","x: 257.9701843261719
y: 499.8869323730469
z: 0.15018776059150696
visibility: 0.7824673652648926
","x: 305.3465576171875
y: 525.23486328125
z: -0.07252705842256546
visibility: 0.8906205892562866
","x: 261.78802490234375
y: 512.2664794921875
z: 0.15242314338684082
visibility: 0.7626330852508545
","x: 290.1678771972656
y: 532.9579467773438
z: -0.1465604454278946
visibility: 0.9477643370628357
","x: 241.98159790039062
y: 508.8141174316406
z: 0.10527845472097397
visibility: 0.8632938861846924
",,,,,,,,,,,,,,,,,,,,,,,,,,,,,,,,,,,,,,,,,,
11,"x: 280.5526123046875
y: 286.86431884765625
z: -0.15294846892356873
visibility: 0.9945176839828491
","x: 282.57818603515625
y: 281.8760070800781
z: -0.1617850512266159
visibility: 0.993505597114563
","x: 283.4495544433594
y: 281.82745361328125
z: -0.1618380844593048
visibility: 0.9930205941200256
","x: 284.4536437988281
y: 281.7705078125
z: -0.16191089153289795
visibility: 0.993828296661377
","x: 281.6092224121094
y: 281.64996337890625
z: -0.13685192167758942
visibility: 0.9924082159996033
","x: 281.68768310546875
y: 281.4571838378906
z: -0.13685071468353271
visibility: 0.9916733503341675
","x: 281.81036376953125
y: 281.1794738769531
z: -0.1368725448846817
visibility: 0.9927160143852234
","x: 290.48876953125
y: 284.3558349609375
z: -0.16233578324317932
visibility: 0.9896489381790161
","x: 286.5135803222656
y: 283.2833251953125
z: -0.049104850739240646
visibility: 0.9766848683357239
","x: 283.3960266113281
y: 293.0653076171875
z: -0.15121985971927643
visibility: 0.989335834980011
","x: 281.8996276855469
y: 292.7850036621094
z: -0.11860892921686172
visibility: 0.9847366213798523
","x: 299.7039794921875
y: 319.2223815917969
z: -0.17246732115745544
visibility: 0.9978606104850769
","x: 287.1805114746094
y: 314.4027099609375
z: 0.0457206591963768
visibility: 0.9974901080131531
","x: 308.5408935546875
y: 355.8658447265625
z: -0.2295730859041214
visibility: 0.9230090379714966
","x: 290.36083984375
y: 358.6619567871094
z: 0.1077049970626831
visibility: 0.21753183007240295
","x: 292.8843078613281
y: 384.7574462890625
z: -0.2482113391160965
visibility: 0.7750784754753113
","x: 285.216796875
y: 387.34014892578125
z: 0.05520511791110039
visibility: 0.32238835096359253
","x: 289.6803283691406
y: 390.49871826171875
z: -0.2746522128582001
visibility: 0.7193915247917175
","x: 283.59112548828125
y: 394.1544189453125
z: 0.03754931688308716
visibility: 0.31527796387672424
","x: 287.86602783203125
y: 385.90863037109375
z: -0.2716684937477112
visibility: 0.7163556814193726
","x: 282.5704040527344
y: 393.478271484375
z: 0.003678873647004366
visibility: 0.3315357267856598
","x: 289.0494689941406
y: 384.36590576171875
z: -0.24663381278514862
visibility: 0.6377196311950684
","x: 283.4317932128906
y: 391.26763916015625
z: 0.040584541857242584
visibility: 0.33318212628364563
","x: 297.3980712890625
y: 398.2998962402344
z: -0.06803213059902191
visibility: 0.9974035024642944
","x: 289.0002746582031
y: 393.1456298828125
z: 0.06814442574977875
visibility: 0.9958572387695312
","x: 290.7236328125
y: 454.6197204589844
z: -0.12897256016731262
visibility: 0.9017046093940735
","x: 271.662841796875
y: 445.705322265625
z: -0.028112566098570824
visibility: 0.62629634141922
","x: 300.15814208984375
y: 517.91162109375
z: -0.08746791630983353
visibility: 0.951973021030426
","x: 259.0001220703125
y: 506.9867248535156
z: 0.0024686686228960752
visibility: 0.801352322101593
","x: 305.4448547363281
y: 525.5133666992188
z: -0.08754347264766693
visibility: 0.8958113193511963
","x: 260.99005126953125
y: 519.2462158203125
z: 0.0007426911615766585
visibility: 0.7788149118423462
","x: 290.2544860839844
y: 532.968994140625
z: -0.16722719371318817
visibility: 0.9515638947486877
","x: 241.72328186035156
y: 513.3588256835938
z: -0.06796028465032578
visibility: 0.8745032548904419
",,,,,,,,,,,,,,,,,,,,,,,,,,,,,,,,,,,,,,,,,,
12,"x: 280.474365234375
y: 300.96917724609375
z: -0.12581077218055725
visibility: 0.9950422644615173
","x: 282.656005859375
y: 296.22039794921875
z: -0.13774143159389496
visibility: 0.9941290616989136
","x: 283.3842468261719
y: 296.3124694824219
z: -0.13775593042373657
visibility: 0.9936882257461548
","x: 284.20831298828125
y: 296.39111328125
z: -0.13777191936969757
visibility: 0.9944191575050354
","x: 281.8616943359375
y: 295.9375305175781
z: -0.11005882173776627
visibility: 0.9931429624557495
","x: 281.98858642578125
y: 295.8279724121094
z: -0.11005862057209015
visibility: 0.9924759268760681
","x: 282.13916015625
y: 295.66912841796875
z: -0.11006712913513184
visibility: 0.9934221506118774
","x: 289.43670654296875
y: 298.88128662109375
z: -0.1507481038570404
visibility: 0.9906513690948486
","x: 286.2666931152344
y: 297.7481994628906
z: -0.02651800587773323
visibility: 0.9789551496505737
","x: 282.9866943359375
y: 306.8282470703125
z: -0.12878111004829407
visibility: 0.9903525710105896
","x: 281.6685791015625
y: 306.48419189453125
z: -0.09248779714107513
visibility: 0.9861844182014465
","x: 295.1096496582031
y: 334.1030578613281
z: -0.17736360430717468
visibility: 0.9980621933937073
","x: 289.1226806640625
y: 327.4642333984375
z: 0.08101203292608261
visibility: 0.9977210164070129
","x: 285.6642150878906
y: 378.903564453125
z: -0.21840663254261017
visibility: 0.9281533360481262
","x: 285.17547607421875
y: 369.71563720703125
z: 0.1350143551826477
visibility: 0.20243863761425018
","x: 266.3360595703125
y: 390.4297180175781
z: -0.16591189801692963
visibility: 0.7847293615341187
","x: 273.1582946777344
y: 394.2341613769531
z: 0.07186909019947052
visibility: 0.3043747544288635
","x: 260.7071228027344
y: 393.4044189453125
z: -0.18554142117500305
visibility: 0.7285962700843811
","x: 269.558349609375
y: 399.32025146484375
z: 0.06665291637182236
visibility: 0.2986348569393158
","x: 260.20220947265625
y: 389.2148132324219
z: -0.18283644318580627
visibility: 0.7250661253929138
","x: 268.9845275878906
y: 398.59661865234375
z: 0.03913252428174019
visibility: 0.31414663791656494
","x: 262.1403503417969
y: 388.55169677734375
z: -0.16318213939666748
visibility: 0.6427298784255981
","x: 270.4973449707031
y: 397.298095703125
z: 0.05782238394021988
visibility: 0.31624844670295715
","x: 294.38067626953125
y: 412.53741455078125
z: -0.07991671562194824
visibility: 0.9976480007171631
","x: 287.55694580078125
y: 407.3861999511719
z: 0.07991714775562286
visibility: 0.9962587952613831
","x: 283.3215637207031
y: 463.7429504394531
z: -0.13756059110164642
visibility: 0.9110274314880371
","x: 261.14593505859375
y: 446.0576171875
z: 0.021873977035284042
visibility: 0.6574963927268982
","x: 300.2838439941406
y: 518.8727416992188
z: -0.10672694444656372
visibility: 0.9566457867622375
","x: 252.8386993408203
y: 513.069091796875
z: 0.06187161058187485
visibility: 0.8200579285621643
","x: 307.1791076660156
y: 525.5889892578125
z: -0.1061217412352562
visibility: 0.9047825336456299
","x: 255.62667846679688
y: 524.0244140625
z: 0.06225956603884697
visibility: 0.7983867526054382
","x: 290.5544128417969
y: 535.4528198242188
z: -0.16491350531578064
visibility: 0.9561736583709717
","x: 236.59352111816406
y: 520.7655029296875
z: 0.02021108940243721
visibility: 0.8859061002731323
",,,,,,,,,,,,,,,,,,,,,,,,,,,,,,,,,,,,,,,,,,
13,"x: 279.918701171875
y: 303.99017333984375
z: -0.12714532017707825
visibility: 0.9955326318740845
","x: 281.9413757324219
y: 299.1158447265625
z: -0.1391907036304474
visibility: 0.99471116065979
","x: 282.6651916503906
y: 299.2632751464844
z: -0.13923045992851257
visibility: 0.9943137168884277
","x: 283.50323486328125
y: 299.46002197265625
z: -0.13925214111804962
visibility: 0.9949723482131958
","x: 281.2669677734375
y: 298.7679443359375
z: -0.11219078302383423
visibility: 0.9938229918479919
","x: 281.47137451171875
y: 298.646240234375
z: -0.11218677461147308
visibility: 0.9932207465171814
","x: 281.6990661621094
y: 298.50408935546875
z: -0.11215679347515106
visibility: 0.9940747022628784
","x: 289.0875549316406
y: 303.7063293457031
z: -0.15184196829795837
visibility: 0.9915803074836731
","x: 285.79290771484375
y: 301.7671813964844
z: -0.027340129017829895
visibility: 0.9810472130775452
","x: 282.5121765136719
y: 310.312255859375
z: -0.12962020933628082
visibility: 0.9913078546524048
","x: 281.3363342285156
y: 310.1492004394531
z: -0.0939466655254364
visibility: 0.9875529408454895
","x: 287.2957458496094
y: 339.1926574707031
z: -0.19046702980995178
visibility: 0.9982529878616333
","x: 288.04052734375
y: 334.32598876953125
z: 0.07820185273885727
visibility: 0.9979340434074402
","x: 267.3160705566406
y: 378.39111328125
z: -0.22798416018486023
visibility: 0.935205340385437
","x: 282.4413757324219
y: 372.7026062011719
z: 0.17338259518146515
visibility: 0.18439064919948578
","x: 242.5966339111328
y: 389.29400634765625
z: -0.18709227442741394
visibility: 0.8057755827903748
","x: 269.39947509765625
y: 396.4805603027344
z: 0.1795472502708435
visibility: 0.2792188227176666
","x: 236.67764282226562
y: 388.60064697265625
z: -0.21019518375396729
visibility: 0.7547786831855774
","x: 265.46124267578125
y: 400.0728759765625
z: 0.18601782619953156
visibility: 0.27612894773483276
","x: 236.8395233154297
y: 383.91558837890625
z: -0.20507335662841797
visibility: 0.7515386939048767
","x: 264.8892517089844
y: 399.49542236328125
z: 0.15655212104320526
visibility: 0.29064011573791504
","x: 238.98951721191406
y: 383.97625732421875
z: -0.1836511790752411
visibility: 0.6757747530937195
","x: 266.5032043457031
y: 398.518798828125
z: 0.16733905673027039
visibility: 0.29289761185646057
","x: 283.17449951171875
y: 420.6375732421875
z: -0.07903659343719482
visibility: 0.9978790283203125
","x: 279.1227722167969
y: 417.1209411621094
z: 0.07906446605920792
visibility: 0.9966306686401367
","x: 276.0869140625
y: 469.72216796875
z: -0.11814023554325104
visibility: 0.9196048378944397
","x: 251.3381805419922
y: 448.837158203125
z: -0.054643742740154266
visibility: 0.6904063820838928
","x: 299.5838317871094
y: 519.6383056640625
z: -0.07572312653064728
visibility: 0.9609036445617676
","x: 249.14337158203125
y: 519.9762573242188
z: -0.030576447024941444
visibility: 0.8376026153564453
","x: 306.760498046875
y: 525.6218872070312
z: -0.10433857142925262
visibility: 0.9134901165962219
","x: 253.0555877685547
y: 533.523681640625
z: -0.03177423030138016
visibility: 0.817129909992218
","x: 290.609619140625
y: 535.892333984375
z: -0.11120619624853134
visibility: 0.9604119658470154
","x: 235.01271057128906
y: 527.554443359375
z: -0.09184573590755463
visibility: 0.8967911005020142
",,,,,,,,,,,,,,,,,,,,,,,,,,,,,,,,,,,,,,,,,,
14,"x: 279.49688720703125
y: 306.7489929199219
z: -0.03249077871441841
visibility: 0.9959495663642883
","x: 281.82427978515625
y: 301.51416015625
z: -0.053891412913799286
visibility: 0.9952095150947571
","x: 281.97491455078125
y: 301.7043151855469
z: -0.053940676152706146
visibility: 0.9948470592498779
","x: 282.0130920410156
y: 301.9397277832031
z: -0.053930312395095825
visibility: 0.9954444169998169
","x: 281.0423278808594
y: 301.1451110839844
z: -0.028642330318689346
visibility: 0.9944095015525818
","x: 281.5115051269531
y: 301.118408203125
z: -0.028635138645768166
visibility: 0.993858277797699
","x: 282.0634765625
y: 301.1693115234375
z: -0.0286298505961895
visibility: 0.9946354031562805
","x: 285.2263488769531
y: 306.8489990234375
z: -0.11334238201379776
visibility: 0.9923906326293945
","x: 286.0359802246094
y: 306.3130798339844
z: 0.002062496030703187
visibility: 0.9828802347183228
","x: 279.4908752441406
y: 313.3218994140625
z: -0.051061876118183136
visibility: 0.9921338558197021
","x: 280.6214294433594
y: 313.3780517578125
z: -0.01812570169568062
visibility: 0.9887275695800781
","x: 277.5988464355469
y: 340.9151916503906
z: -0.18151935935020447
visibility: 0.9984245300292969
","x: 290.03082275390625
y: 338.7939147949219
z: 0.08125296980142593
visibility: 0.9981110095977783
","x: 256.07928466796875
y: 373.2960205078125
z: -0.19758814573287964
visibility: 0.9416717886924744
","x: 291.4047546386719
y: 379.6583251953125
z: 0.18514053523540497
visibility: 0.17046868801116943
","x: 231.36871337890625
y: 382.8863830566406
z: -0.09864871203899384
visibility: 0.8250595927238464
","x: 278.7688293457031
y: 403.9830017089844
z: 0.25606831908226013
visibility: 0.26040133833885193
","x: 225.2845458984375
y: 382.51239013671875
z: -0.11007677018642426
visibility: 0.7788770794868469
","x: 274.2833557128906
y: 408.53997802734375
z: 0.2732844948768616
visibility: 0.2595973014831543
","x: 224.98049926757812
y: 379.1543884277344
z: -0.1000576764345169
visibility: 0.7759178280830383
","x: 274.4150085449219
y: 409.0658874511719
z: 0.2508919835090637
visibility: 0.27295005321502686
","x: 227.3663787841797
y: 378.85784912109375
z: -0.09136925637722015
visibility: 0.7069932818412781
","x: 277.07562255859375
y: 405.591796875
z: 0.2484324723482132
visibility: 0.27621448040008545
","x: 273.1570739746094
y: 422.0697021484375
z: -0.07843875139951706
visibility: 0.9980833530426025
","x: 277.4649963378906
y: 420.38671875
z: 0.0784086287021637
visibility: 0.9969609379768372
","x: 271.9051513671875
y: 470.6129150390625
z: -0.08121344447135925
visibility: 0.9269641637802124
","x: 247.78587341308594
y: 450.5328369140625
z: -0.0452033169567585
visibility: 0.7174853682518005
","x: 298.3567810058594
y: 519.6356201171875
z: -0.024657268077135086
visibility: 0.9645367860794067
","x: 249.12486267089844
y: 518.974853515625
z: 0.022824624553322792
visibility: 0.8522945046424866
","x: 306.570068359375
y: 525.5343017578125
z: -0.02109220065176487
visibility: 0.9209811091423035
","x: 253.9307861328125
y: 531.8447265625
z: 0.05137443542480469
visibility: 0.8324125409126282
","x: 289.7094421386719
y: 536.2135620117188
z: -0.04704988747835159
visibility: 0.9638693332672119
","x: 236.11447143554688
y: 527.7098388671875
z: 0.06714815646409988
visibility: 0.9051629900932312
","x: 234.61839294433594
y: 374.3356018066406
z: 0.0
","x: 232.0252685546875
y: 368.54736328125
z: 0.002971554407849908
","x: 229.07321166992188
y: 367.65869140625
z: 0.00459377421066165
","x: 227.43994140625
y: 370.5157775878906
z: 0.005668477155268192
","x: 227.0244140625
y: 374.04974365234375
z: 0.006936831399798393
","x: 225.10470581054688
y: 370.0691223144531
z: 0.0031610000878572464
","x: 222.8079071044922
y: 371.7794189453125
z: 0.004729588981717825
","x: 224.16966247558594
y: 372.74530029296875
z: 0.006952675990760326
","x: 225.8290557861328
y: 372.3161315917969
z: 0.008620955049991608
","x: 224.64492797851562
y: 375.48394775390625
z: 0.0016622701659798622
","x: 220.67881774902344
y: 377.1789855957031
z: 0.003967766184359789
","x: 221.79672241210938
y: 377.81427001953125
z: 0.006685300264507532
","x: 223.59814453125
y: 377.0901794433594
z: 0.008455952629446983
","x: 225.43690490722656
y: 380.4942321777344
z: 0.00027466967003419995
","x: 222.27252197265625
y: 381.8807373046875
z: 0.0023679875303059816
","x: 223.1873779296875
y: 381.8536376953125
z: 0.0042446693405508995
","x: 224.52149963378906
y: 380.55877685546875
z: 0.00525320041924715
","x: 227.14735412597656
y: 384.83782958984375
z: -0.001072790939360857
","x: 225.7528533935547
y: 385.9405822753906
z: 0.00019550256547518075
","x: 226.47552490234375
y: 385.23150634765625
z: 0.0011807752307504416
","x: 227.38291931152344
y: 383.7684326171875
z: 0.0019498949404805899
",,,,,,,,,,,,,,,,,,,,,
15,"x: 279.49688720703125
y: 306.7489929199219
z: -0.03249077871441841
visibility: 0.9959495663642883
","x: 281.82427978515625
y: 301.51416015625
z: -0.053891412913799286
visibility: 0.9952095150947571
","x: 281.97491455078125
y: 301.7043151855469
z: -0.053940676152706146
visibility: 0.9948470592498779
","x: 282.0130920410156
y: 301.9397277832031
z: -0.053930312395095825
visibility: 0.9954444169998169
","x: 281.0423278808594
y: 301.1451110839844
z: -0.028642330318689346
visibility: 0.9944095015525818
","x: 281.5115051269531
y: 301.118408203125
z: -0.028635138645768166
visibility: 0.993858277797699
","x: 282.0634765625
y: 301.1693115234375
z: -0.0286298505961895
visibility: 0.9946354031562805
","x: 285.2263488769531
y: 306.8489990234375
z: -0.11334238201379776
visibility: 0.9923906326293945
","x: 286.0359802246094
y: 306.3130798339844
z: 0.002062496030703187
visibility: 0.9828802347183228
","x: 279.4908752441406
y: 313.3218994140625
z: -0.051061876118183136
visibility: 0.9921338558197021
","x: 280.6214294433594
y: 313.3780517578125
z: -0.01812570169568062
visibility: 0.9887275695800781
","x: 277.5988464355469
y: 340.9151916503906
z: -0.18151935935020447
visibility: 0.9984245300292969
","x: 290.03082275390625
y: 338.7939147949219
z: 0.08125296980142593
visibility: 0.9981110095977783
","x: 256.07928466796875
y: 373.2960205078125
z: -0.19758814573287964
visibility: 0.9416717886924744
","x: 291.4047546386719
y: 379.6583251953125
z: 0.18514053523540497
visibility: 0.17046868801116943
","x: 231.36871337890625
y: 382.8863830566406
z: -0.09864871203899384
visibility: 0.8250595927238464
","x: 278.7688293457031
y: 403.9830017089844
z: 0.25606831908226013
visibility: 0.26040133833885193
","x: 225.2845458984375
y: 382.51239013671875
z: -0.11007677018642426
visibility: 0.7788770794868469
","x: 274.2833557128906
y: 408.53997802734375
z: 0.2732844948768616
visibility: 0.2595973014831543
","x: 224.98049926757812
y: 379.1543884277344
z: -0.1000576764345169
visibility: 0.7759178280830383
","x: 274.4150085449219
y: 409.0658874511719
z: 0.2508919835090637
visibility: 0.27295005321502686
","x: 227.3663787841797
y: 378.85784912109375
z: -0.09136925637722015
visibility: 0.7069932818412781
","x: 277.07562255859375
y: 405.591796875
z: 0.2484324723482132
visibility: 0.27621448040008545
","x: 273.1570739746094
y: 422.0697021484375
z: -0.07843875139951706
visibility: 0.9980833530426025
","x: 277.4649963378906
y: 420.38671875
z: 0.0784086287021637
visibility: 0.9969609379768372
","x: 271.9051513671875
y: 470.6129150390625
z: -0.08121344447135925
visibility: 0.9269641637802124
","x: 247.78587341308594
y: 450.5328369140625
z: -0.0452033169567585
visibility: 0.7174853682518005
","x: 298.3567810058594
y: 519.6356201171875
z: -0.024657268077135086
visibility: 0.9645367860794067
","x: 249.12486267089844
y: 518.974853515625
z: 0.022824624553322792
visibility: 0.8522945046424866
","x: 306.570068359375
y: 525.5343017578125
z: -0.02109220065176487
visibility: 0.9209811091423035
","x: 253.9307861328125
y: 531.8447265625
z: 0.05137443542480469
visibility: 0.8324125409126282
","x: 289.7094421386719
y: 536.2135620117188
z: -0.04704988747835159
visibility: 0.9638693332672119
","x: 236.11447143554688
y: 527.7098388671875
z: 0.06714815646409988
visibility: 0.9051629900932312
","x: 234.61839294433594
y: 374.3356018066406
z: 0.0
","x: 232.0252685546875
y: 368.54736328125
z: 0.002971554407849908
","x: 229.07321166992188
y: 367.65869140625
z: 0.00459377421066165
","x: 227.43994140625
y: 370.5157775878906
z: 0.005668477155268192
","x: 227.0244140625
y: 374.04974365234375
z: 0.006936831399798393
","x: 225.10470581054688
y: 370.0691223144531
z: 0.0031610000878572464
","x: 222.8079071044922
y: 371.7794189453125
z: 0.004729588981717825
","x: 224.16966247558594
y: 372.74530029296875
z: 0.006952675990760326
","x: 225.8290557861328
y: 372.3161315917969
z: 0.008620955049991608
","x: 224.64492797851562
y: 375.48394775390625
z: 0.0016622701659798622
","x: 220.67881774902344
y: 377.1789855957031
z: 0.003967766184359789
","x: 221.79672241210938
y: 377.81427001953125
z: 0.006685300264507532
","x: 223.59814453125
y: 377.0901794433594
z: 0.008455952629446983
","x: 225.43690490722656
y: 380.4942321777344
z: 0.00027466967003419995
","x: 222.27252197265625
y: 381.8807373046875
z: 0.0023679875303059816
","x: 223.1873779296875
y: 381.8536376953125
z: 0.0042446693405508995
","x: 224.52149963378906
y: 380.55877685546875
z: 0.00525320041924715
","x: 227.14735412597656
y: 384.83782958984375
z: -0.001072790939360857
","x: 225.7528533935547
y: 385.9405822753906
z: 0.00019550256547518075
","x: 226.47552490234375
y: 385.23150634765625
z: 0.0011807752307504416
","x: 227.38291931152344
y: 383.7684326171875
z: 0.0019498949404805899
",,,,,,,,,,,,,,,,,,,,,
16,"x: 277.63232421875
y: 306.0783996582031
z: -0.011263655498623848
visibility: 0.9963494539260864
","x: 279.83453369140625
y: 300.78948974609375
z: -0.03218977898359299
visibility: 0.9956826567649841
","x: 279.8985900878906
y: 300.882080078125
z: -0.032267943024635315
visibility: 0.9953560829162598
","x: 279.95184326171875
y: 301.00653076171875
z: -0.03226916119456291
visibility: 0.9958949685096741
","x: 280.15142822265625
y: 300.69195556640625
z: -0.007984904572367668
visibility: 0.9949623942375183
","x: 280.946533203125
y: 300.69525146484375
z: -0.007968584075570107
visibility: 0.9944632649421692
","x: 281.94049072265625
y: 300.70849609375
z: -0.007961323484778404
visibility: 0.9951645135879517
","x: 282.7766418457031
y: 305.24578857421875
z: -0.08645881712436676
visibility: 0.9931473731994629
","x: 285.3089294433594
y: 304.9715576171875
z: 0.02398197539150715
visibility: 0.9845807552337646
","x: 277.62158203125
y: 312.3310546875
z: -0.026876840740442276
visibility: 0.9929108619689941
","x: 278.4605712890625
y: 312.49224853515625
z: 0.00463164784014225
visibility: 0.9898403882980347
","x: 275.69903564453125
y: 336.109130859375
z: -0.1574900597333908
visibility: 0.9985814690589905
","x: 289.1855163574219
y: 338.2377624511719
z: 0.10919767618179321
visibility: 0.9982897043228149
","x: 253.1586151123047
y: 365.13299560546875
z: -0.1776103675365448
visibility: 0.9474995732307434
","x: 289.1177978515625
y: 378.65618896484375
z: 0.2341781109571457
visibility: 0.15664507448673248
","x: 227.78453063964844
y: 377.6128845214844
z: -0.0812317356467247
visibility: 0.8424404263496399
","x: 274.8448486328125
y: 397.4522399902344
z: 0.327700674533844
visibility: 0.23793604969978333
","x: 222.23605346679688
y: 379.6522216796875
z: -0.08932146430015564
visibility: 0.8006104826927185
","x: 269.8691101074219
y: 403.307373046875
z: 0.3483186960220337
visibility: 0.23816972970962524
","x: 221.74246215820312
y: 377.90020751953125
z: -0.08303900808095932
visibility: 0.7978943586349487
","x: 269.4664306640625
y: 403.1688232421875
z: 0.3281291425228119
visibility: 0.25033190846443176
","x: 223.36436462402344
y: 377.6767578125
z: -0.07482104748487473
visibility: 0.7350971102714539
","x: 271.4593811035156
y: 401.3720397949219
z: 0.3211328089237213
visibility: 0.25393053889274597
","x: 266.9325256347656
y: 420.24945068359375
z: -0.07815352082252502
visibility: 0.9982714056968689
","x: 267.8437805175781
y: 417.10491943359375
z: 0.07796137034893036
visibility: 0.9972633719444275
","x: 269.625732421875
y: 468.90447998046875
z: -0.08715005218982697
visibility: 0.9335868954658508
","x: 242.32992553710938
y: 450.5613708496094
z: -0.03110872209072113
visibility: 0.7446104288101196
","x: 297.4782409667969
y: 519.9727783203125
z: -0.040557585656642914
visibility: 0.9678673148155212
","x: 246.6605224609375
y: 517.9357299804688
z: 0.004901778884232044
visibility: 0.8664292097091675
","x: 304.8388366699219
y: 525.7701416015625
z: -0.03544112294912338
visibility: 0.927647054195404
","x: 253.35548400878906
y: 530.7532348632812
z: 0.007471623830497265
visibility: 0.8477297425270081
","x: 289.13385009765625
y: 536.7088623046875
z: -0.07327266782522202
visibility: 0.9671751260757446
","x: 234.60118103027344
y: 528.0396728515625
z: -0.02807624638080597
visibility: 0.9138910174369812
","x: 234.0428924560547
y: 373.91119384765625
z: 0.0
","x: 230.96505737304688
y: 368.01263427734375
z: 0.003175742458552122
","x: 226.7312469482422
y: 368.2857666015625
z: 0.0062018390744924545
","x: 224.63731384277344
y: 372.35675048828125
z: 0.008458090014755726
","x: 223.9423828125
y: 376.3551330566406
z: 0.010780196636915207
","x: 222.72898864746094
y: 372.1911315917969
z: 0.008607649244368076
","x: 220.3756103515625
y: 373.67767333984375
z: 0.011038234457373619
","x: 221.11524963378906
y: 374.21087646484375
z: 0.013014283031225204
","x: 222.3890838623047
y: 374.3315124511719
z: 0.014654773287475109
","x: 222.42616271972656
y: 377.9114990234375
z: 0.00734490342438221
","x: 219.91641235351562
y: 380.0056457519531
z: 0.011074497364461422
","x: 219.72569274902344
y: 380.28131103515625
z: 0.013381819240748882
","x: 220.33236694335938
y: 380.0291748046875
z: 0.01476218644529581
","x: 223.33871459960938
y: 382.9966735839844
z: 0.00569283589720726
","x: 220.8020782470703
y: 385.63641357421875
z: 0.008172396570444107
","x: 219.90652465820312
y: 386.0325927734375
z: 0.009537879377603531
","x: 219.4556884765625
y: 385.9435729980469
z: 0.01037484873086214
","x: 225.17364501953125
y: 386.9625549316406
z: 0.003998739644885063
","x: 223.38308715820312
y: 388.5534362792969
z: 0.005058338399976492
","x: 223.37356567382812
y: 388.39373779296875
z: 0.005919034127146006
","x: 223.62075805664062
y: 388.1343078613281
z: 0.006828451529145241
",,,,,,,,,,,,,,,,,,,,,
17,"x: 277.63232421875
y: 306.0783996582031
z: -0.011263655498623848
visibility: 0.9963494539260864
","x: 279.83453369140625
y: 300.78948974609375
z: -0.03218977898359299
visibility: 0.9956826567649841
","x: 279.8985900878906
y: 300.882080078125
z: -0.032267943024635315
visibility: 0.9953560829162598
","x: 279.95184326171875
y: 301.00653076171875
z: -0.03226916119456291
visibility: 0.9958949685096741
","x: 280.15142822265625
y: 300.69195556640625
z: -0.007984904572367668
visibility: 0.9949623942375183
","x: 280.946533203125
y: 300.69525146484375
z: -0.007968584075570107
visibility: 0.9944632649421692
","x: 281.94049072265625
y: 300.70849609375
z: -0.007961323484778404
visibility: 0.9951645135879517
","x: 282.7766418457031
y: 305.24578857421875
z: -0.08645881712436676
visibility: 0.9931473731994629
","x: 285.3089294433594
y: 304.9715576171875
z: 0.02398197539150715
visibility: 0.9845807552337646
","x: 277.62158203125
y: 312.3310546875
z: -0.026876840740442276
visibility: 0.9929108619689941
","x: 278.4605712890625
y: 312.49224853515625
z: 0.00463164784014225
visibility: 0.9898403882980347
","x: 275.69903564453125
y: 336.109130859375
z: -0.1574900597333908
visibility: 0.9985814690589905
","x: 289.1855163574219
y: 338.2377624511719
z: 0.10919767618179321
visibility: 0.9982897043228149
","x: 253.1586151123047
y: 365.13299560546875
z: -0.1776103675365448
visibility: 0.9474995732307434
","x: 289.1177978515625
y: 378.65618896484375
z: 0.2341781109571457
visibility: 0.15664507448673248
","x: 227.78453063964844
y: 377.6128845214844
z: -0.0812317356467247
visibility: 0.8424404263496399
","x: 274.8448486328125
y: 397.4522399902344
z: 0.327700674533844
visibility: 0.23793604969978333
","x: 222.23605346679688
y: 379.6522216796875
z: -0.08932146430015564
visibility: 0.8006104826927185
","x: 269.8691101074219
y: 403.307373046875
z: 0.3483186960220337
visibility: 0.23816972970962524
","x: 221.74246215820312
y: 377.90020751953125
z: -0.08303900808095932
visibility: 0.7978943586349487
","x: 269.4664306640625
y: 403.1688232421875
z: 0.3281291425228119
visibility: 0.25033190846443176
","x: 223.36436462402344
y: 377.6767578125
z: -0.07482104748487473
visibility: 0.7350971102714539
","x: 271.4593811035156
y: 401.3720397949219
z: 0.3211328089237213
visibility: 0.25393053889274597
","x: 266.9325256347656
y: 420.24945068359375
z: -0.07815352082252502
visibility: 0.9982714056968689
","x: 267.8437805175781
y: 417.10491943359375
z: 0.07796137034893036
visibility: 0.9972633719444275
","x: 269.625732421875
y: 468.90447998046875
z: -0.08715005218982697
visibility: 0.9335868954658508
","x: 242.32992553710938
y: 450.5613708496094
z: -0.03110872209072113
visibility: 0.7446104288101196
","x: 297.4782409667969
y: 519.9727783203125
z: -0.040557585656642914
visibility: 0.9678673148155212
","x: 246.6605224609375
y: 517.9357299804688
z: 0.004901778884232044
visibility: 0.8664292097091675
","x: 304.8388366699219
y: 525.7701416015625
z: -0.03544112294912338
visibility: 0.927647054195404
","x: 253.35548400878906
y: 530.7532348632812
z: 0.007471623830497265
visibility: 0.8477297425270081
","x: 289.13385009765625
y: 536.7088623046875
z: -0.07327266782522202
visibility: 0.9671751260757446
","x: 234.60118103027344
y: 528.0396728515625
z: -0.02807624638080597
visibility: 0.9138910174369812
","x: 234.0428924560547
y: 373.91119384765625
z: 0.0
","x: 230.96505737304688
y: 368.01263427734375
z: 0.003175742458552122
","x: 226.7312469482422
y: 368.2857666015625
z: 0.0062018390744924545
","x: 224.63731384277344
y: 372.35675048828125
z: 0.008458090014755726
","x: 223.9423828125
y: 376.3551330566406
z: 0.010780196636915207
","x: 222.72898864746094
y: 372.1911315917969
z: 0.008607649244368076
","x: 220.3756103515625
y: 373.67767333984375
z: 0.011038234457373619
","x: 221.11524963378906
y: 374.21087646484375
z: 0.013014283031225204
","x: 222.3890838623047
y: 374.3315124511719
z: 0.014654773287475109
","x: 222.42616271972656
y: 377.9114990234375
z: 0.00734490342438221
","x: 219.91641235351562
y: 380.0056457519531
z: 0.011074497364461422
","x: 219.72569274902344
y: 380.28131103515625
z: 0.013381819240748882
","x: 220.33236694335938
y: 380.0291748046875
z: 0.01476218644529581
","x: 223.33871459960938
y: 382.9966735839844
z: 0.00569283589720726
","x: 220.8020782470703
y: 385.63641357421875
z: 0.008172396570444107
","x: 219.90652465820312
y: 386.0325927734375
z: 0.009537879377603531
","x: 219.4556884765625
y: 385.9435729980469
z: 0.01037484873086214
","x: 225.17364501953125
y: 386.9625549316406
z: 0.003998739644885063
","x: 223.38308715820312
y: 388.5534362792969
z: 0.005058338399976492
","x: 223.37356567382812
y: 388.39373779296875
z: 0.005919034127146006
","x: 223.62075805664062
y: 388.1343078613281
z: 0.006828451529145241
",,,,,,,,,,,,,,,,,,,,,
18,"x: 275.98345947265625
y: 303.2949523925781
z: -0.056324273347854614
visibility: 0.996706485748291
","x: 278.7720642089844
y: 297.7188415527344
z: -0.05966944247484207
visibility: 0.9960989952087402
","x: 279.5074462890625
y: 297.76824951171875
z: -0.059749752283096313
visibility: 0.9958062767982483
","x: 280.0045471191406
y: 297.9124755859375
z: -0.05977562069892883
visibility: 0.9962934851646423
","x: 276.89581298828125
y: 297.6644592285156
z: -0.04072195291519165
visibility: 0.9954471588134766
","x: 276.604248046875
y: 297.62933349609375
z: -0.04070662334561348
visibility: 0.994987428188324
","x: 276.37872314453125
y: 297.6099548339844
z: -0.04071158915758133
visibility: 0.9956264495849609
","x: 283.2096862792969
y: 302.33123779296875
z: -0.04327666014432907
visibility: 0.9938193559646606
","x: 278.4829406738281
y: 301.20782470703125
z: 0.04007330909371376
visibility: 0.9860772490501404
","x: 277.3644714355469
y: 309.172607421875
z: -0.051324617117643356
visibility: 0.9936017394065857
","x: 275.76617431640625
y: 309.4494934082031
z: -0.026627102866768837
visibility: 0.9908322095870972
","x: 280.8605041503906
y: 333.6589050292969
z: -0.09369722008705139
visibility: 0.9987189769744873
","x: 274.8958435058594
y: 334.12322998046875
z: 0.1382438689470291
visibility: 0.9984453320503235
","x: 260.9096984863281
y: 360.7231140136719
z: -0.13546326756477356
visibility: 0.9512565732002258
","x: 264.7354736328125
y: 376.2630920410156
z: 0.22458097338676453
visibility: 0.14460591971874237
","x: 243.40255737304688
y: 377.94683837890625
z: -0.10884181410074234
visibility: 0.8530563116073608
","x: 252.12396240234375
y: 393.43402099609375
z: 0.2292707860469818
visibility: 0.2256397306919098
","x: 238.44947814941406
y: 382.32977294921875
z: -0.12315835058689117
visibility: 0.8115665912628174
","x: 247.31283569335938
y: 400.4488525390625
z: 0.2321109026670456
visibility: 0.2290823608636856
","x: 237.57351684570312
y: 382.5971984863281
z: -0.12741181254386902
visibility: 0.8089194893836975
","x: 246.6562042236328
y: 398.8421936035156
z: 0.21323493123054504
visibility: 0.24079732596874237
","x: 239.18441772460938
y: 380.59332275390625
z: -0.10839904844760895
visibility: 0.7457087635993958
","x: 249.55133056640625
y: 400.39569091796875
z: 0.22058658301830292
visibility: 0.24384988844394684
","x: 272.0016174316406
y: 417.5274963378906
z: -0.0633167177438736
visibility: 0.9984245300292969
","x: 259.084228515625
y: 414.4046630859375
z: 0.06329239159822464
visibility: 0.9975349307060242
","x: 275.07037353515625
y: 467.6939392089844
z: -0.11406721919775009
visibility: 0.9396414160728455
","x: 242.92860412597656
y: 451.24468994140625
z: -0.12672631442546844
visibility: 0.7696194648742676
","x: 294.44580078125
y: 520.00927734375
z: -0.0646185651421547
visibility: 0.9707202315330505
","x: 246.03802490234375
y: 517.2144775390625
z: -0.10456762462854385
visibility: 0.8794347643852234
","x: 300.8161315917969
y: 526.8898315429688
z: -0.06238879635930061
visibility: 0.9310063719749451
","x: 251.928955078125
y: 529.463134765625
z: -0.1074555367231369
visibility: 0.861441969871521
","x: 290.00177001953125
y: 537.29296875
z: -0.1322249472141266
visibility: 0.9700642824172974
","x: 234.87857055664062
y: 528.2752075195312
z: -0.17822757363319397
visibility: 0.9220582842826843
",,,,,,,,,,,,,,,,,,,,,,,,,,,,,,,,,,,,,,,,,,
19,"x: 274.4483947753906
y: 299.17889404296875
z: -0.17066065967082977
visibility: 0.99702388048172
","x: 276.4963073730469
y: 294.6493225097656
z: -0.1599116176366806
visibility: 0.9964630007743835
","x: 277.5867004394531
y: 295.23333740234375
z: -0.16001833975315094
visibility: 0.9962011575698853
","x: 278.6601257324219
y: 296.0467224121094
z: -0.16011886298656464
visibility: 0.9966389536857605
","x: 273.6197509765625
y: 294.0435485839844
z: -0.1520940512418747
visibility: 0.9958697557449341
","x: 272.7742919921875
y: 294.1824035644531
z: -0.15208226442337036
visibility: 0.9954355359077454
","x: 271.9472351074219
y: 294.41851806640625
z: -0.15208372473716736
visibility: 0.9959989786148071
","x: 280.3781433105469
y: 302.122314453125
z: -0.09089185297489166
visibility: 0.994408905506134
","x: 271.7232666015625
y: 299.1952209472656
z: -0.050542496144771576
visibility: 0.9873853921890259
","x: 276.4881896972656
y: 306.2421875
z: -0.14419442415237427
visibility: 0.9942073225975037
","x: 273.2268371582031
y: 305.6683044433594
z: -0.1334342360496521
visibility: 0.9916845560073853
","x: 283.2613525390625
y: 332.32635498046875
z: -0.07957253605127335
visibility: 0.9988319277763367
","x: 264.59796142578125
y: 332.5216064453125
z: 0.020971648395061493
visibility: 0.9985393285751343
","x: 285.6278076171875
y: 360.1062316894531
z: -0.15762273967266083
visibility: 0.9473233222961426
","x: 263.8504943847656
y: 367.7245788574219
z: 0.06528110802173615
visibility: 0.1407622992992401
","x: 294.9706726074219
y: 377.5196838378906
z: -0.28960055112838745
visibility: 0.8608165383338928
","x: 257.1013488769531
y: 376.3896484375
z: 0.02479572966694832
visibility: 0.23479440808296204
","x: 298.521484375
y: 382.41558837890625
z: -0.319619357585907
visibility: 0.821674644947052
","x: 254.0513458251953
y: 385.4812316894531
z: 0.01648382470011711
visibility: 0.2456362247467041
","x: 297.8197021484375
y: 382.0959777832031
z: -0.3342001736164093
visibility: 0.8200806975364685
","x: 253.09124755859375
y: 383.7332458496094
z: -0.0020382057409733534
visibility: 0.25884783267974854
","x: 296.38104248046875
y: 379.84759521484375
z: -0.2990148663520813
visibility: 0.7584640979766846
","x: 255.6736602783203
y: 382.29315185546875
z: 0.01558582205325365
visibility: 0.2599407434463501
","x: 277.6695251464844
y: 416.1084289550781
z: -0.024944651871919632
visibility: 0.9985173940658569
","x: 260.8795471191406
y: 413.11260986328125
z: 0.02502918615937233
visibility: 0.9977704882621765
","x: 284.85888671875
y: 468.7979736328125
z: -0.04402994364500046
visibility: 0.9451332688331604
","x: 246.2312469482422
y: 457.6259765625
z: -0.10938850790262222
visibility: 0.7924216985702515
","x: 294.3711242675781
y: 520.7551879882812
z: 0.07060082256793976
visibility: 0.973008394241333
","x: 247.93402099609375
y: 518.0969848632812
z: -0.012594829313457012
visibility: 0.8912178874015808
","x: 294.9164733886719
y: 528.872802734375
z: 0.07740254700183868
visibility: 0.9308175444602966
","x: 252.28717041015625
y: 529.2368774414062
z: -0.008904668502509594
visibility: 0.8726131319999695
","x: 299.6314392089844
y: 537.1016235351562
z: -0.002369447611272335
visibility: 0.9716407060623169
","x: 235.79493713378906
y: 529.43994140625
z: -0.08808072656393051
visibility: 0.9291077852249146
",,,,,,,,,,,,,,,,,,,,,,,,,,,,,,,,,,,,,,,,,,
20,"x: 270.5596923828125
y: 297.5601806640625
z: -0.22003820538520813
visibility: 0.997312605381012
","x: 271.94024658203125
y: 292.7283630371094
z: -0.21801528334617615
visibility: 0.9967721700668335
","x: 273.1822814941406
y: 292.83197021484375
z: -0.21806228160858154
visibility: 0.9965503811836243
","x: 274.4826965332031
y: 293.11029052734375
z: -0.21815530955791473
visibility: 0.996936559677124
","x: 268.55560302734375
y: 293.51416015625
z: -0.20812726020812988
visibility: 0.9962314963340759
","x: 267.4734191894531
y: 294.097412109375
z: -0.20813563466072083
visibility: 0.9958392381668091
","x: 266.4886779785156
y: 293.9648132324219
z: -0.2081119269132614
visibility: 0.9963277578353882
","x: 276.91485595703125
y: 297.956787109375
z: -0.1704023778438568
visibility: 0.994945764541626
","x: 266.3538818359375
y: 298.1274108886719
z: -0.1218685731291771
visibility: 0.9885826706886292
","x: 273.5693664550781
y: 303.4896240234375
z: -0.1998772919178009
visibility: 0.9947705268859863
","x: 269.42584228515625
y: 304.79766845703125
z: -0.18566401302814484
visibility: 0.9924910068511963
","x: 289.46771240234375
y: 331.24859619140625
z: -0.12480650097131729
visibility: 0.9989475607872009
","x: 258.5820617675781
y: 331.1497802734375
z: -0.04829195514321327
visibility: 0.9986727237701416
","x: 311.8754577636719
y: 354.9757080078125
z: -0.15277613699436188
visibility: 0.9523460865020752
","x: 248.38929748535156
y: 357.79534912109375
z: 0.028436046093702316
visibility: 0.20885491371154785
","x: 335.6224670410156
y: 368.890380859375
z: -0.2232239693403244
visibility: 0.8724932074546814
","x: 247.67388916015625
y: 377.4656982421875
z: 0.026597365736961365
visibility: 0.2814134955406189
","x: 341.2650451660156
y: 370.560791015625
z: -0.24460938572883606
visibility: 0.8334177732467651
","x: 247.14602661132812
y: 385.634033203125
z: 0.02398880198597908
visibility: 0.2765107750892639
","x: 341.3818359375
y: 370.2412414550781
z: -0.26169389486312866
visibility: 0.8330011367797852
","x: 249.42555236816406
y: 384.70703125
z: 0.004310850985348225
visibility: 0.29083946347236633
","x: 338.9414367675781
y: 370.403564453125
z: -0.23228907585144043
visibility: 0.7765114903450012
","x: 250.485107421875
y: 382.86016845703125
z: 0.01839337684214115
visibility: 0.2917788326740265
","x: 279.9403991699219
y: 415.33551025390625
z: -0.03579084202647209
visibility: 0.9986372590065002
","x: 264.3487243652344
y: 412.23504638671875
z: 0.03589079901576042
visibility: 0.9979807734489441
","x: 290.1131896972656
y: 468.5432434082031
z: -0.036553170531988144
visibility: 0.9503674507141113
","x: 251.33802795410156
y: 465.76153564453125
z: -0.040268830955028534
visibility: 0.8125688433647156
","x: 295.50018310546875
y: 517.8623046875
z: 0.141166090965271
visibility: 0.9754030704498291
","x: 248.72935485839844
y: 517.8145751953125
z: 0.1379869133234024
visibility: 0.9017907977104187
","x: 297.6622619628906
y: 523.220947265625
z: 0.15503032505512238
visibility: 0.9282491207122803
","x: 252.40843200683594
y: 528.8090209960938
z: 0.148807555437088
visibility: 0.8822491765022278
","x: 298.0233459472656
y: 537.0166625976562
z: 0.06630244106054306
visibility: 0.9738093018531799
","x: 237.36749267578125
y: 529.7939453125
z: 0.06361561268568039
visibility: 0.9356451034545898
",,,,,,,,,,,,,,,,,,,,,,,,,,,,,,,,,,,,,,,,,,
21,"x: 271.9742736816406
y: 297.54779052734375
z: -0.1686927080154419
visibility: 0.9975100159645081
","x: 272.75213623046875
y: 292.5832214355469
z: -0.16751496493816376
visibility: 0.9965349435806274
","x: 273.6340637207031
y: 292.6693115234375
z: -0.1675492227077484
visibility: 0.9963710904121399
","x: 274.5479736328125
y: 292.9108581542969
z: -0.16759899258613586
visibility: 0.9965411424636841
","x: 270.3900451660156
y: 293.25128173828125
z: -0.15839217603206635
visibility: 0.9962966442108154
","x: 269.6643981933594
y: 293.7337646484375
z: -0.1584157794713974
visibility: 0.9959691762924194
","x: 268.9585266113281
y: 293.75787353515625
z: -0.15844528377056122
visibility: 0.9964060187339783
","x: 276.1554260253906
y: 297.4571838378906
z: -0.14003489911556244
visibility: 0.9948145151138306
","x: 268.42572021484375
y: 297.5890808105469
z: -0.08858267962932587
visibility: 0.989396333694458
","x: 274.4705505371094
y: 303.0548400878906
z: -0.15343445539474487
visibility: 0.9950515627861023
","x: 271.5013122558594
y: 304.359619140625
z: -0.14074064791202545
visibility: 0.9930862188339233
","x: 290.430419921875
y: 330.6802062988281
z: -0.09652363508939743
visibility: 0.9990230798721313
","x: 257.49395751953125
y: 330.8201599121094
z: -0.029985010623931885
visibility: 0.9987922310829163
","x: 309.8077697753906
y: 349.0298767089844
z: -0.10796962678432465
visibility: 0.9562863111495972
","x: 239.8445587158203
y: 353.1167297363281
z: -0.0063634468242526054
visibility: 0.28588685393333435
","x: 328.5710754394531
y: 362.70458984375
z: -0.17441165447235107
visibility: 0.8802009224891663
","x: 241.26731872558594
y: 381.37628173828125
z: -0.05681651085615158
visibility: 0.34743309020996094
","x: 333.02667236328125
y: 364.68243408203125
z: -0.19111861288547516
visibility: 0.8383738994598389
","x: 240.34681701660156
y: 390.5790710449219
z: -0.06617214530706406
visibility: 0.33430591225624084
","x: 332.8423156738281
y: 364.7485046386719
z: -0.220096156001091
visibility: 0.8395310640335083
","x: 244.31288146972656
y: 389.79437255859375
z: -0.08195175975561142
visibility: 0.3483346998691559
","x: 330.89697265625
y: 364.8538818359375
z: -0.1891777664422989
visibility: 0.7876220941543579
","x: 245.11639404296875
y: 387.0138854980469
z: -0.06432142108678818
visibility: 0.3479459285736084
","x: 282.7508239746094
y: 414.9081726074219
z: -0.03213521093130112
visibility: 0.9986066818237305
","x: 266.7574157714844
y: 413.9582824707031
z: 0.03215780481696129
visibility: 0.9981632232666016
","x: 291.80950927734375
y: 468.04888916015625
z: -0.02012525126338005
visibility: 0.9546516537666321
","x: 253.28256225585938
y: 467.13372802734375
z: -0.018658244982361794
visibility: 0.8306233882904053
","x: 296.3965148925781
y: 517.9405517578125
z: 0.13507726788520813
visibility: 0.9771087169647217
","x: 249.07559204101562
y: 521.562744140625
z: 0.11587809026241302
visibility: 0.9113176465034485
","x: 298.28802490234375
y: 523.48486328125
z: 0.14637534320354462
visibility: 0.9240800738334656
","x: 252.0797576904297
y: 531.5133056640625
z: 0.12298969179391861
visibility: 0.8915855884552002
","x: 299.6205749511719
y: 536.1873168945312
z: 0.07123026996850967
visibility: 0.9751240611076355
","x: 236.15257263183594
y: 533.3038940429688
z: 0.048504266887903214
visibility: 0.9414075016975403
",,,,,,,,,,,,,,,,,,,,,,,,,,,,,,,,,,,,,,,,,,
22,"x: 272.64251708984375
y: 297.70947265625
z: 0.12568387389183044
visibility: 0.9977520704269409
","x: 271.16326904296875
y: 292.7127685546875
z: 0.10660501569509506
visibility: 0.9968730807304382
","x: 270.3248291015625
y: 292.87579345703125
z: 0.10661480575799942
visibility: 0.9967227578163147
","x: 269.4208679199219
y: 293.2467346191406
z: 0.10658986866474152
visibility: 0.9968744516372681
","x: 271.612060546875
y: 293.283935546875
z: 0.10482583194971085
visibility: 0.9966604113578796
","x: 270.9001159667969
y: 293.7372741699219
z: 0.104831263422966
visibility: 0.9963648915290833
","x: 272.5556945800781
y: 293.8931884765625
z: 0.10476811975240707
visibility: 0.9967594146728516
","x: 268.62567138671875
y: 297.2644348144531
z: 0.04155758023262024
visibility: 0.9953196048736572
","x: 273.0074768066406
y: 297.69818115234375
z: 0.03257931023836136
visibility: 0.9904491305351257
","x: 272.79608154296875
y: 303.0419616699219
z: 0.10745729506015778
visibility: 0.9955059289932251
","x: 272.3757019042969
y: 304.17413330078125
z: 0.10498281568288803
visibility: 0.993750810623169
","x: 261.14129638671875
y: 328.51263427734375
z: 0.022594541311264038
visibility: 0.9990652799606323
","x: 286.6689453125
y: 329.7929382324219
z: -0.022776197642087936
visibility: 0.9989067912101746
","x: 252.98068237304688
y: 352.2403259277344
z: 0.08311598002910614
visibility: 0.9515694975852966
","x: 306.5452575683594
y: 347.43701171875
z: -0.020006507635116577
visibility: 0.35714030265808105
","x: 264.59326171875
y: 366.623779296875
z: 0.20300738513469696
visibility: 0.7980962991714478
","x: 315.9898681640625
y: 363.46728515625
z: 0.03302902728319168
visibility: 0.39876115322113037
","x: 267.93841552734375
y: 369.3261413574219
z: 0.22206421196460724
visibility: 0.7588427066802979
","x: 318.2050476074219
y: 367.7416687011719
z: 0.0351390540599823
visibility: 0.3723546266555786
","x: 270.65130615234375
y: 367.1744384765625
z: 0.22116124629974365
visibility: 0.7596715688705444
","x: 317.8761901855469
y: 367.19244384765625
z: -0.04395946487784386
visibility: 0.3847336173057556
","x: 270.18511962890625
y: 367.61883544921875
z: 0.20597632229328156
visibility: 0.7133521437644958
","x: 316.70819091796875
y: 366.1448669433594
z: 0.030736122280359268
visibility: 0.37811511754989624
","x: 267.9242858886719
y: 414.74041748046875
z: 0.004369488917291164
visibility: 0.998687744140625
","x: 282.3750915527344
y: 413.279541015625
z: -0.004678524099290371
visibility: 0.9983195662498474
","x: 257.08868408203125
y: 467.754638671875
z: 0.05484402924776077
visibility: 0.956082820892334
","x: 289.3432922363281
y: 465.31268310546875
z: -0.0047077699564397335
visibility: 0.8417063355445862
","x: 250.43069458007812
y: 517.8131713867188
z: 0.06277113407850266
visibility: 0.9783871173858643
","x: 297.499755859375
y: 521.9713745117188
z: -0.025980722159147263
visibility: 0.9189395904541016
","x: 251.3600311279297
y: 523.873046875
z: 0.0840858519077301
visibility: 0.9305115342140198
","x: 297.5093994140625
y: 531.7919921875
z: -0.02831263840198517
visibility: 0.900515615940094
","x: 242.50877380371094
y: 534.1063232421875
z: 0.031520016491413116
visibility: 0.9717523455619812
","x: 297.638671875
y: 532.8382568359375
z: -0.04168318957090378
visibility: 0.9423720836639404
",,,,,,,,,,,,,,,,,,,,,,,,,,,,,,,,,,,,,,,,,,
23,"x: 268.28424072265625
y: 293.3565979003906
z: -0.16306640207767487
visibility: 0.9979724287986755
","x: 267.7206726074219
y: 288.5431823730469
z: -0.14972886443138123
visibility: 0.9971734285354614
","x: 268.1140441894531
y: 288.5723876953125
z: -0.14974337816238403
visibility: 0.9970375299453735
","x: 268.46026611328125
y: 288.68878173828125
z: -0.1497832089662552
visibility: 0.997172474861145
","x: 265.7470703125
y: 289.7861328125
z: -0.1542631983757019
visibility: 0.9969832301139832
","x: 264.7810363769531
y: 290.5906982421875
z: -0.15426085889339447
visibility: 0.9967164993286133
","x: 264.11114501953125
y: 291.28125
z: -0.1542828381061554
visibility: 0.9970698952674866
","x: 268.58282470703125
y: 293.02569580078125
z: -0.052739668637514114
visibility: 0.9957762956619263
","x: 262.5880126953125
y: 295.6961364746094
z: -0.08192268759012222
visibility: 0.9913967251777649
","x: 269.7657470703125
y: 298.6551818847656
z: -0.1285131424665451
visibility: 0.9959456920623779
","x: 266.7807312011719
y: 300.51763916015625
z: -0.13412384688854218
visibility: 0.9943645000457764
","x: 271.0061340332031
y: 321.0472106933594
z: -0.027282511815428734
visibility: 0.9991301894187927
","x: 258.46441650390625
y: 325.9869384765625
z: -0.0890960618853569
visibility: 0.9989832043647766
","x: 298.7288513183594
y: 321.5327453613281
z: -0.07658758014440536
visibility: 0.9540573358535767
","x: 276.50506591796875
y: 345.00787353515625
z: -0.17763689160346985
visibility: 0.4180034101009369
","x: 321.7586364746094
y: 310.4288024902344
z: -0.19929954409599304
visibility: 0.8141661882400513
","x: 294.52276611328125
y: 357.8793640136719
z: -0.2713249921798706
visibility: 0.4524940550327301
","x: 328.2685546875
y: 307.1227722167969
z: -0.22832684218883514
visibility: 0.7753698229789734
","x: 300.8988037109375
y: 363.78717041015625
z: -0.304210364818573
visibility: 0.42285874485969543
","x: 328.68878173828125
y: 306.1716003417969
z: -0.24459154903888702
visibility: 0.7767091393470764
","x: 300.8148498535156
y: 361.6314697265625
z: -0.3048120141029358
visibility: 0.4334128201007843
","x: 325.8711242675781
y: 309.0112609863281
z: -0.21210968494415283
visibility: 0.7340975999832153
","x: 299.25457763671875
y: 359.95672607421875
z: -0.2742704451084137
visibility: 0.42245012521743774
","x: 273.7344970703125
y: 410.10638427734375
z: -0.0019972920417785645
visibility: 0.9987970590591431
","x: 262.5419921875
y: 409.45428466796875
z: 0.0019892954733222723
visibility: 0.9984737634658813
","x: 281.39599609375
y: 468.4786682128906
z: 0.030256563797593117
visibility: 0.9602553248405457
","x: 252.52621459960938
y: 465.75506591796875
z: -0.0293874554336071
visibility: 0.8573951721191406
","x: 291.35076904296875
y: 519.1840209960938
z: 0.06998930871486664
visibility: 0.9801979660987854
","x: 253.7236328125
y: 520.802734375
z: 0.0911148190498352
visibility: 0.9268858432769775
","x: 288.4302673339844
y: 525.8228759765625
z: 0.07708050310611725
visibility: 0.931719958782196
","x: 258.6984558105469
y: 528.6089477539062
z: 0.09956974536180496
visibility: 0.907993495464325
","x: 294.8019104003906
y: 535.2835693359375
z: 0.0044821505434811115
visibility: 0.9737944602966309
","x: 245.85911560058594
y: 533.65283203125
z: 0.014819559641182423
visibility: 0.9476767182350159
",,,,,,,,,,,,,,,,,,,,,,,,,,,,,,,,,,,,,,,,,,
24,"x: 264.4894714355469
y: 290.2384033203125
z: -0.13916556537151337
visibility: 0.9981712102890015
","x: 265.11212158203125
y: 284.7485046386719
z: -0.12918061017990112
visibility: 0.9974437952041626
","x: 265.9908447265625
y: 284.4463806152344
z: -0.12919287383556366
visibility: 0.9973189830780029
","x: 266.8788146972656
y: 284.2108154296875
z: -0.12919799983501434
visibility: 0.9974380731582642
","x: 262.489501953125
y: 286.284912109375
z: -0.1254555881023407
visibility: 0.9972746968269348
","x: 261.5306396484375
y: 287.0015869140625
z: -0.12546159327030182
visibility: 0.9970338344573975
","x: 260.5339660644531
y: 287.73736572265625
z: -0.12546902894973755
visibility: 0.9973551034927368
","x: 268.59619140625
y: 287.318115234375
z: -0.0530855655670166
visibility: 0.996186375617981
","x: 259.6702880859375
y: 291.1383361816406
z: -0.04791831970214844
visibility: 0.992250919342041
","x: 267.0562438964844
y: 294.5172424316406
z: -0.1131594181060791
visibility: 0.9963446259498596
","x: 263.7501220703125
y: 296.4794616699219
z: -0.10755060613155365
visibility: 0.9949219226837158
","x: 276.6029052734375
y: 311.0638732910156
z: -0.029418548569083214
visibility: 0.9992087483406067
","x: 250.87803649902344
y: 321.677490234375
z: -0.02638345956802368
visibility: 0.9990783929824829
","x: 292.55615234375
y: 284.07916259765625
z: -0.11395531892776489
visibility: 0.9581009745597839
","x: 254.59262084960938
y: 354.90667724609375
z: -0.047494929283857346
visibility: 0.47131505608558655
","x: 279.4512634277344
y: 278.5004577636719
z: -0.17933820188045502
visibility: 0.823136568069458
","x: 266.0801696777344
y: 385.80926513671875
z: -0.13444402813911438
visibility: 0.5020206570625305
","x: 273.40826416015625
y: 277.1859436035156
z: -0.2048981487751007
visibility: 0.7678991556167603
","x: 268.2423400878906
y: 395.90167236328125
z: -0.15937583148479462
visibility: 0.47110748291015625
","x: 272.4979553222656
y: 278.6935729980469
z: -0.1976393610239029
visibility: 0.7680039405822754
","x: 270.7334289550781
y: 394.629150390625
z: -0.1697804033756256
visibility: 0.48094189167022705
","x: 274.0731506347656
y: 281.24945068359375
z: -0.18034817278385162
visibility: 0.7278521656990051
","x: 270.07080078125
y: 391.0576171875
z: -0.14017775654792786
visibility: 0.4681605100631714
","x: 268.3478698730469
y: 404.6031188964844
z: -0.018907809630036354
visibility: 0.9989154934883118
","x: 251.79666137695312
y: 401.54095458984375
z: 0.018840428441762924
visibility: 0.9986247420310974
","x: 277.88800048828125
y: 466.8809509277344
z: -0.06277303397655487
visibility: 0.9640457034111023
","x: 246.81358337402344
y: 464.8387451171875
z: -0.03301869332790375
visibility: 0.8715342283248901
","x: 293.7807312011719
y: 518.4681396484375
z: 0.025194767862558365
visibility: 0.9820176362991333
","x: 248.40237426757812
y: 520.0125732421875
z: 0.0787103921175003
visibility: 0.934090793132782
","x: 294.1381530761719
y: 524.376953125
z: 0.029618199914693832
visibility: 0.9331606030464172
","x: 252.9976806640625
y: 526.96484375
z: 0.08460123836994171
visibility: 0.9157650470733643
","x: 296.66015625
y: 535.2857055664062
z: -0.06576860696077347
visibility: 0.9760151505470276
","x: 240.28939819335938
y: 533.83251953125
z: 0.0014446114655584097
visibility: 0.9526551365852356
",,,,,,,,,,,,,,,,,,,,,,,,,,,,,,,,,,,,,,,,,,
25,"x: 248.99819946289062
y: 279.73272705078125
z: -0.10037226974964142
visibility: 0.9982928037643433
","x: 252.0081787109375
y: 277.13616943359375
z: -0.10052826255559921
visibility: 0.9975653290748596
","x: 249.94769287109375
y: 272.41162109375
z: -0.10058732330799103
visibility: 0.9974629282951355
","x: 250.72540283203125
y: 272.2225341796875
z: -0.10058710724115372
visibility: 0.9975448250770569
","x: 249.9307861328125
y: 278.7966613769531
z: -0.081784687936306
visibility: 0.9973901510238647
","x: 249.47979736328125
y: 279.36016845703125
z: -0.08177672326564789
visibility: 0.9971235990524292
","x: 249.01434326171875
y: 279.9243469238281
z: -0.08180156350135803
visibility: 0.997401237487793
","x: 258.506103515625
y: 278.2992858886719
z: -0.07082437723875046
visibility: 0.996447741985321
","x: 251.62994384765625
y: 282.7762756347656
z: 0.004707657266408205
visibility: 0.9927839040756226
","x: 252.65919494628906
y: 283.8748474121094
z: -0.09109102934598923
visibility: 0.9966363906860352
","x: 251.09498596191406
y: 286.44671630859375
z: -0.06532302498817444
visibility: 0.9953089952468872
","x: 270.8302001953125
y: 303.825927734375
z: -0.10940738022327423
visibility: 0.9992841482162476
","x: 247.80722045898438
y: 320.3620910644531
z: 0.08330072462558746
visibility: 0.9991544485092163
","x: 275.5269775390625
y: 287.4938049316406
z: -0.2811487019062042
visibility: 0.9621044397354126
","x: 233.19171142578125
y: 354.4743347167969
z: 0.13771191239356995
visibility: 0.4875684678554535
","x: 255.13978576660156
y: 267.15155029296875
z: -0.3815170228481293
visibility: 0.8401825428009033
","x: 215.958740234375
y: 376.3691711425781
z: 0.0708729475736618
visibility: 0.5434367656707764
","x: 250.0682830810547
y: 262.6788024902344
z: -0.419193834066391
visibility: 0.7895326018333435
","x: 210.02601623535156
y: 382.6309509277344
z: 0.06363612413406372
visibility: 0.5133509039878845
","x: 248.667724609375
y: 261.73138427734375
z: -0.40415677428245544
visibility: 0.789354145526886
","x: 209.8260955810547
y: 381.4554443359375
z: 0.032221607863903046
visibility: 0.5232290625572205
","x: 250.20269775390625
y: 264.4849548339844
z: -0.37859123945236206
visibility: 0.7517906427383423
","x: 211.8547821044922
y: 380.0378723144531
z: 0.05532560870051384
visibility: 0.5109934210777283
","x: 261.8786315917969
y: 399.9000244140625
z: -0.06180403381586075
visibility: 0.9990224242210388
","x: 246.55389404296875
y: 400.59588623046875
z: 0.06167614459991455
visibility: 0.9987589120864868
","x: 265.20379638671875
y: 465.1247863769531
z: -0.10517194122076035
visibility: 0.9674283862113953
","x: 242.57864379882812
y: 464.095458984375
z: 0.08794402331113815
visibility: 0.8818936347961426
","x: 288.83880615234375
y: 517.35986328125
z: -0.0059943837113678455
visibility: 0.9836615920066833
","x: 246.7401123046875
y: 519.9644775390625
z: 0.21983177959918976
visibility: 0.9399613738059998
","x: 292.44580078125
y: 521.2781372070312
z: 0.0013770705554634333
visibility: 0.9383091926574707
","x: 250.6056365966797
y: 526.559814453125
z: 0.22926659882068634
visibility: 0.9220036268234253
","x: 295.27557373046875
y: 536.1868896484375
z: -0.07350293546915054
visibility: 0.9782123565673828
","x: 235.96568298339844
y: 534.0947265625
z: 0.168598473072052
visibility: 0.9566563367843628
",,,,,,,,,,,,,,,,,,,,,,,,,,,,,,,,,,,,,,,,,,
26,"x: 247.9112091064453
y: 283.80853271484375
z: -0.15280184149742126
visibility: 0.997631847858429
","x: 250.21685791015625
y: 279.80816650390625
z: -0.15092502534389496
visibility: 0.996483325958252
","x: 251.848876953125
y: 277.494384765625
z: -0.15099874138832092
visibility: 0.9966731667518616
","x: 252.70849609375
y: 277.44085693359375
z: -0.15104520320892334
visibility: 0.9962682723999023
","x: 248.4436492919922
y: 280.6977233886719
z: -0.1355583369731903
visibility: 0.9954334497451782
","x: 246.7714385986328
y: 281.3213195800781
z: -0.13556843996047974
visibility: 0.9949716329574585
","x: 246.58021545410156
y: 281.6015930175781
z: -0.1356082409620285
visibility: 0.995532751083374
","x: 254.9828338623047
y: 282.0018615722656
z: -0.11348702013492584
visibility: 0.995735228061676
","x: 247.02012634277344
y: 284.0899963378906
z: -0.03896528109908104
visibility: 0.9919340014457703
","x: 249.17950439453125
y: 288.62884521484375
z: -0.13775357604026794
visibility: 0.9961971640586853
","x: 247.0763702392578
y: 290.07977294921875
z: -0.11679290235042572
visibility: 0.9948914051055908
","x: 265.29327392578125
y: 308.45697021484375
z: -0.1357305496931076
visibility: 0.9993200898170471
","x: 240.287353515625
y: 320.593994140625
z: 0.04863175004720688
visibility: 0.9991096258163452
","x: 270.8489074707031
y: 303.1222839355469
z: -0.28513994812965393
visibility: 0.9648610949516296
","x: 223.45919799804688
y: 332.29156494140625
z: 0.09993532299995422
visibility: 0.5258699059486389
","x: 265.9214782714844
y: 263.38690185546875
z: -0.4316108822822571
visibility: 0.8534404039382935
","x: 211.32925415039062
y: 304.3609619140625
z: 0.05047379061579704
visibility: 0.5866236090660095
","x: 266.3342590332031
y: 254.8392333984375
z: -0.47030162811279297
visibility: 0.8057205677032471
","x: 208.01834106445312
y: 296.90911865234375
z: 0.04292340204119682
visibility: 0.5574988126754761
","x: 265.8876953125
y: 255.0819091796875
z: -0.46812257170677185
visibility: 0.8052420020103455
","x: 208.63645935058594
y: 293.06134033203125
z: 0.028327707201242447
visibility: 0.5665341019630432
","x: 265.9605712890625
y: 256.7308654785156
z: -0.43611377477645874
visibility: 0.7692874670028687
","x: 210.13275146484375
y: 294.93975830078125
z: 0.04175522178411484
visibility: 0.5552495121955872
","x: 257.16839599609375
y: 400.5130310058594
z: -0.06364502012729645
visibility: 0.9991118907928467
","x: 241.3094940185547
y: 402.0384216308594
z: 0.06360913813114166
visibility: 0.9988738298416138
","x: 251.6168975830078
y: 464.25482177734375
z: -0.10193922370672226
visibility: 0.9703582525253296
","x: 239.50274658203125
y: 464.4722900390625
z: 0.060228295624256134
visibility: 0.8861671686172485
","x: 271.5898742675781
y: 510.4315490722656
z: 0.059285372495651245
visibility: 0.984967827796936
","x: 247.31219482421875
y: 519.7172241210938
z: 0.21339169144630432
visibility: 0.9445856809616089
","x: 276.8470764160156
y: 510.4764404296875
z: 0.07455866038799286
visibility: 0.9414651393890381
","x: 251.13143920898438
y: 525.6954345703125
z: 0.2247391641139984
visibility: 0.9269195795059204
","x: 271.9725646972656
y: 536.0027465820312
z: 0.008241331204771996
visibility: 0.9799333214759827
","x: 237.4534912109375
y: 533.9217529296875
z: 0.1563102900981903
visibility: 0.9596577882766724
",,,,,,,,,,,,,,,,,,,,,,,,,,,,,,,,,,,,,,,,,,
27,"x: 249.92369079589844
y: 283.6939697265625
z: -0.14316651225090027
visibility: 0.9978416562080383
","x: 251.9294891357422
y: 278.9266662597656
z: -0.13854137063026428
visibility: 0.9968000054359436
","x: 252.8759765625
y: 278.27508544921875
z: -0.13859571516513824
visibility: 0.9969791173934937
","x: 253.766845703125
y: 278.40167236328125
z: -0.13865382969379425
visibility: 0.9966124892234802
","x: 249.94073486328125
y: 278.5415344238281
z: -0.12729863822460175
visibility: 0.9958218932151794
","x: 249.22410583496094
y: 278.36383056640625
z: -0.12727917730808258
visibility: 0.9953928589820862
","x: 248.63427734375
y: 278.103515625
z: -0.12727710604667664
visibility: 0.9959056973457336
","x: 256.36114501953125
y: 281.46649169921875
z: -0.0889657512307167
visibility: 0.9961347579956055
","x: 248.80262756347656
y: 280.0079650878906
z: -0.037775587290525436
visibility: 0.9926618337631226
","x: 251.31761169433594
y: 288.4997253417969
z: -0.12365446239709854
visibility: 0.9965485334396362
","x: 248.51211547851562
y: 288.4383544921875
z: -0.10854232311248779
visibility: 0.9953498244285583
","x: 262.85205078125
y: 310.082275390625
z: -0.11302633583545685
visibility: 0.99937903881073
","x: 240.4529571533203
y: 307.704345703125
z: 0.0659022182226181
visibility: 0.9990483522415161
","x: 267.158935546875
y: 334.3763427734375
z: -0.2395632266998291
visibility: 0.967079222202301
","x: 234.90359497070312
y: 312.39068603515625
z: 0.15496626496315002
visibility: 0.5261678695678711
","x: 264.1541748046875
y: 298.233154296875
z: -0.36949780583381653
visibility: 0.8630415201187134
","x: 236.64111328125
y: 285.2602844238281
z: 0.20595748722553253
visibility: 0.6027961373329163
","x: 264.56402587890625
y: 295.39959716796875
z: -0.40127068758010864
visibility: 0.8150267601013184
","x: 234.71640014648438
y: 277.5478515625
z: 0.21389588713645935
visibility: 0.5708752870559692
","x: 265.4259948730469
y: 289.7518005371094
z: -0.39443665742874146
visibility: 0.814092218875885
","x: 234.71237182617188
y: 274.1021423339844
z: 0.21089327335357666
visibility: 0.5779572129249573
","x: 263.53289794921875
y: 295.922607421875
z: -0.3704199194908142
visibility: 0.7762039303779602
","x: 236.4357147216797
y: 280.2200622558594
z: 0.20484168827533722
visibility: 0.5656087398529053
","x: 254.3278350830078
y: 399.3701477050781
z: -0.06626506894826889
visibility: 0.9991878271102905
","x: 241.47451782226562
y: 399.4769287109375
z: 0.06629720330238342
visibility: 0.9989691376686096
","x: 247.3519744873047
y: 463.36834716796875
z: -0.10798390209674835
visibility: 0.972899854183197
","x: 237.15228271484375
y: 463.7127380371094
z: 0.04887735843658447
visibility: 0.8944820165634155
","x: 261.5962829589844
y: 511.952392578125
z: -0.011625135317444801
visibility: 0.9862795472145081
","x: 246.33001708984375
y: 517.216796875
z: 0.1716422438621521
visibility: 0.9490038752555847
","x: 265.00860595703125
y: 513.4288330078125
z: -0.0044732466340065
visibility: 0.945537269115448
","x: 250.65020751953125
y: 524.06787109375
z: 0.17893019318580627
visibility: 0.931060791015625
","x: 254.5553436279297
y: 536.163818359375
z: -0.0807785913348198
visibility: 0.9816924333572388
","x: 236.28831481933594
y: 534.52587890625
z: 0.11555416882038116
visibility: 0.9623926281929016
",,,,,,,,,,,,,,,,,,,,,,,,,,,,,,,,,,,,,,,,,,
