uscmakers/ReverseChoreography/data/7_throwin_elbows_excision.csv
,NOSE,LEFT_EYE_INNER,LEFT_EYE,LEFT_EYE_OUTER,RIGHT_EYE_INNER,RIGHT_EYE,RIGHT_EYE_OUTER,LEFT_EAR,RIGHT_EAR,MOUTH_LEFT,MOUTH_RIGHT,LEFT_SHOULDER,RIGHT_SHOULDER,LEFT_ELBOW,RIGHT_ELBOW,LEFT_WRIST,RIGHT_WRIST,LEFT_PINKY,RIGHT_PINKY,LEFT_INDEX,RIGHT_INDEX,LEFT_THUMB,RIGHT_THUMB,LEFT_HIP,RIGHT_HIP,LEFT_KNEE,RIGHT_KNEE,LEFT_ANKLE,RIGHT_ANKLE,LEFT_HEEL,RIGHT_HEEL,LEFT_FOOT_INDEX,RIGHT_FOOT_INDEX,WRIST,THUMB_CPC,THUMB_MCP,THUMB_IP,THUMB_TIP,INDEX_FINGER_MCP,INDEX_FINGER_PIP,INDEX_FINGER_DIP,INDEX_FINGER_TIP,MIDDLE_FINGER_MCP,MIDDLE_FINGER_PIP,MIDDLE_FINGER_DIP,MIDDLE_FINGER_TIP,RING_FINGER_PIP,RING_FINGER_DIP,RING_FINGER_TIP,RING_FINGER_MCP,PINKY_MCP,PINKY_PIP,PINKY_DIP,PINKY_TIP,WRIST2,THUMB_CPC2,THUMB_MCP2,THUMB_IP2,THUMB_TIP2,INDEX_FINGER_MCP2,INDEX_FINGER_PIP2,INDEX_FINGER_DIP2,INDEX_FINGER_TIP2,MIDDLE_FINGER_MCP2,MIDDLE_FINGER_PIP2,MIDDLE_FINGER_DIP2,MIDDLE_FINGER_TIP2,RING_FINGER_PIP2,RING_FINGER_DIP2,RING_FINGER_TIP2,RING_FINGER_MCP2,PINKY_MCP2,PINKY_PIP2,PINKY_DIP2,PINKY_TIP2
0,"x: 256.91107177734375
y: 278.8110046386719
z: -0.23100164532661438
visibility: 0.9980995059013367
","x: 258.0522766113281
y: 275.3080139160156
z: -0.21905489265918732
visibility: 0.9931257963180542
","x: 259.0821533203125
y: 275.50787353515625
z: -0.21905383467674255
visibility: 0.9933470487594604
","x: 260.0861511230469
y: 275.73272705078125
z: -0.21907439827919006
visibility: 0.9930909872055054
","x: 255.1260528564453
y: 275.65509033203125
z: -0.22122713923454285
visibility: 0.9923332929611206
","x: 254.07818603515625
y: 276.04205322265625
z: -0.22119954228401184
visibility: 0.9924812316894531
","x: 253.03697204589844
y: 276.45916748046875
z: -0.2212420403957367
visibility: 0.9925585985183716
","x: 261.6995544433594
y: 280.3818054199219
z: -0.1346043199300766
visibility: 0.9827393293380737
","x: 251.2448272705078
y: 281.6379089355469
z: -0.1453259438276291
visibility: 0.9822129011154175
","x: 259.1097106933594
y: 284.9298400878906
z: -0.19814927875995636
visibility: 0.9958166480064392
","x: 255.33433532714844
y: 285.7290954589844
z: -0.2012791633605957
visibility: 0.9948244094848633
","x: 272.8902893066406
y: 311.3800048828125
z: -0.07536037266254425
visibility: 0.9989136457443237
","x: 240.8040008544922
y: 314.02618408203125
z: -0.08164911717176437
visibility: 0.9994515776634216
","x: 278.2810363769531
y: 357.3565368652344
z: -0.013363532721996307
visibility: 0.7941169142723083
","x: 235.53790283203125
y: 360.4361267089844
z: -0.037955399602651596
visibility: 0.969311535358429
","x: 280.5531921386719
y: 392.8486633300781
z: -0.07092684507369995
visibility: 0.6914183497428894
","x: 231.1194305419922
y: 396.9976806640625
z: -0.0908239558339119
visibility: 0.9353575110435486
","x: 281.3846740722656
y: 403.04754638671875
z: -0.08938027173280716
visibility: 0.5889614224433899
","x: 230.0343017578125
y: 408.2467346191406
z: -0.10757704079151154
visibility: 0.8771585822105408
","x: 279.9152526855469
y: 401.82305908203125
z: -0.11210519075393677
visibility: 0.6060619354248047
","x: 231.07809448242188
y: 407.77056884765625
z: -0.13251103460788727
visibility: 0.8821988105773926
","x: 278.197021484375
y: 398.2767333984375
z: -0.08249609917402267
visibility: 0.5913599729537964
","x: 232.48658752441406
y: 404.0567321777344
z: -0.10289929062128067
visibility: 0.8763365149497986
","x: 267.03631591796875
y: 400.10394287109375
z: -0.007188331335783005
visibility: 0.9986361861228943
","x: 250.92178344726562
y: 397.7538757324219
z: 0.007180796004831791
visibility: 0.998794674873352
","x: 266.03619384765625
y: 461.1764221191406
z: 0.038507215678691864
visibility: 0.8800702691078186
","x: 251.71701049804688
y: 456.57769775390625
z: 0.060398511588573456
visibility: 0.8494443893432617
","x: 263.3896179199219
y: 512.4278564453125
z: 0.21333332359790802
visibility: 0.8378968238830566
","x: 255.19200134277344
y: 504.80859375
z: 0.24236050248146057
visibility: 0.8122748136520386
","x: 261.6687927246094
y: 516.9751586914062
z: 0.22694936394691467
visibility: 0.6114553213119507
","x: 255.55673217773438
y: 511.92620849609375
z: 0.25749942660331726
visibility: 0.5481745004653931
","x: 264.4394226074219
y: 531.0046997070312
z: 0.14299941062927246
visibility: 0.835724413394928
","x: 251.6739501953125
y: 525.1773681640625
z: 0.17395642399787903
visibility: 0.8276053667068481
",,,,,,,,,,,,,,,,,,,,,,,,,,,,,,,,,,,,,,,,,,
1,"x: 255.51649475097656
y: 288.4248962402344
z: -0.2634921073913574
visibility: 0.998256504535675
","x: 256.998291015625
y: 284.1938171386719
z: -0.2504558563232422
visibility: 0.9936663508415222
","x: 257.99530029296875
y: 284.6109924316406
z: -0.25043898820877075
visibility: 0.9938694834709167
","x: 259.0117492675781
y: 285.04107666015625
z: -0.2504420876502991
visibility: 0.993628740310669
","x: 254.27999877929688
y: 283.8489074707031
z: -0.25114724040031433
visibility: 0.9929608702659607
","x: 253.35650634765625
y: 283.93267822265625
z: -0.25119632482528687
visibility: 0.993097722530365
","x: 252.4449005126953
y: 283.9921875
z: -0.2512485980987549
visibility: 0.9931576251983643
","x: 261.1130676269531
y: 289.51226806640625
z: -0.16340826451778412
visibility: 0.9839285016059875
","x: 251.08370971679688
y: 288.32720947265625
z: -0.16792428493499756
visibility: 0.983511209487915
","x: 257.7501220703125
y: 294.6885070800781
z: -0.23002572357654572
visibility: 0.9961460828781128
","x: 253.73414611816406
y: 294.6959228515625
z: -0.23148278892040253
visibility: 0.995238184928894
","x: 272.4954528808594
y: 323.31585693359375
z: -0.10156641155481339
visibility: 0.9989895820617676
","x: 239.6509246826172
y: 319.54620361328125
z: -0.10559898614883423
visibility: 0.9994847774505615
","x: 278.48876953125
y: 365.6546630859375
z: -0.05964314937591553
visibility: 0.8100123405456543
","x: 233.0431671142578
y: 362.52337646484375
z: -0.0766855999827385
visibility: 0.971289873123169
","x: 280.9740295410156
y: 403.39886474609375
z: -0.12786146998405457
visibility: 0.7069616913795471
","x: 229.74533081054688
y: 397.0007019042969
z: -0.1367262750864029
visibility: 0.9385945200920105
","x: 281.3787536621094
y: 414.2938232421875
z: -0.14878913760185242
visibility: 0.6038302779197693
","x: 229.47906494140625
y: 408.41375732421875
z: -0.15649938583374023
visibility: 0.882223904132843
","x: 279.8348693847656
y: 412.8453369140625
z: -0.17048564553260803
visibility: 0.6210838556289673
","x: 231.04281616210938
y: 407.7844543457031
z: -0.1795477718114853
visibility: 0.8871092796325684
","x: 278.2593078613281
y: 409.06414794921875
z: -0.13821730017662048
visibility: 0.6053712368011475
","x: 232.15396118164062
y: 404.1130065917969
z: -0.14718285202980042
visibility: 0.8801602721214294
","x: 266.5517883300781
y: 403.9388427734375
z: -0.005994120147079229
visibility: 0.9987499713897705
","x: 248.43161010742188
y: 404.2486877441406
z: 0.005985619034618139
visibility: 0.9988567233085632
","x: 264.7381896972656
y: 460.5159912109375
z: -0.12413276731967926
visibility: 0.8889033198356628
","x: 250.26185607910156
y: 465.0408935546875
z: 0.05444806069135666
visibility: 0.8545872569084167
","x: 263.61083984375
y: 518.417724609375
z: -0.02489083632826805
visibility: 0.8491419553756714
","x: 253.11473083496094
y: 505.2884521484375
z: 0.25389331579208374
visibility: 0.812872052192688
","x: 262.17864990234375
y: 523.7981567382812
z: -0.018734244629740715
visibility: 0.6352584362030029
","x: 254.33990478515625
y: 512.8856811523438
z: 0.2702291011810303
visibility: 0.5452435612678528
","x: 263.70477294921875
y: 532.2908935546875
z: -0.12227129936218262
visibility: 0.8485974073410034
","x: 249.81556701660156
y: 524.8428955078125
z: 0.19141972064971924
visibility: 0.8290036916732788
",,,,,,,,,,,,,,,,,,,,,,,,,,,,,,,,,,,,,,,,,,
2,"x: 255.45721435546875
y: 288.7177429199219
z: -0.25551721453666687
visibility: 0.9983747601509094
","x: 257.03924560546875
y: 284.9999084472656
z: -0.24600306153297424
visibility: 0.994115948677063
","x: 258.038818359375
y: 285.5138854980469
z: -0.2460004985332489
visibility: 0.9943110942840576
","x: 259.0531005859375
y: 286.0785827636719
z: -0.2460285723209381
visibility: 0.9941026568412781
","x: 254.30299377441406
y: 284.5779113769531
z: -0.24410375952720642
visibility: 0.9934706091880798
","x: 253.37136840820312
y: 284.7503356933594
z: -0.24413934350013733
visibility: 0.993597686290741
","x: 252.4549560546875
y: 284.92755126953125
z: -0.2441788911819458
visibility: 0.9936476349830627
","x: 261.0239562988281
y: 291.34515380859375
z: -0.17887821793556213
visibility: 0.98509681224823
","x: 251.07504272460938
y: 289.4272155761719
z: -0.16724109649658203
visibility: 0.9846594929695129
","x: 257.48553466796875
y: 295.46337890625
z: -0.22871212661266327
visibility: 0.9964523911476135
","x: 253.57778930664062
y: 295.0753173828125
z: -0.2260899543762207
visibility: 0.9956010580062866
","x: 272.3060607910156
y: 327.42327880859375
z: -0.13520321249961853
visibility: 0.999071478843689
","x: 239.54180908203125
y: 321.279296875
z: -0.10640186071395874
visibility: 0.9994998574256897
","x: 280.0567932128906
y: 364.1926574707031
z: -0.1039523109793663
visibility: 0.8262158036231995
","x: 230.2232208251953
y: 357.6670837402344
z: -0.06638745963573456
visibility: 0.9716857075691223
","x: 276.5069580078125
y: 395.6383056640625
z: -0.1609337031841278
visibility: 0.7200253009796143
","x: 229.9082794189453
y: 387.54156494140625
z: -0.12594611942768097
visibility: 0.932130753993988
","x: 274.84808349609375
y: 406.7335510253906
z: -0.18594054877758026
visibility: 0.6155123710632324
","x: 230.13784790039062
y: 398.10723876953125
z: -0.14641569554805756
visibility: 0.8696784377098083
","x: 273.306884765625
y: 401.55828857421875
z: -0.20169393718242645
visibility: 0.6319047212600708
","x: 232.08160400390625
y: 395.7944030761719
z: -0.16826215386390686
visibility: 0.8747974038124084
","x: 273.116455078125
y: 397.6022033691406
z: -0.1685844510793686
visibility: 0.611812949180603
","x: 232.8943634033203
y: 392.1866149902344
z: -0.14584743976593018
visibility: 0.8658604621887207
","x: 265.42279052734375
y: 405.3376770019531
z: -0.01327669806778431
visibility: 0.9988443851470947
","x: 247.57203674316406
y: 406.21148681640625
z: 0.013283416628837585
visibility: 0.9988915920257568
","x: 264.7543029785156
y: 460.43475341796875
z: -0.05333464592695236
visibility: 0.8962266445159912
","x: 249.51043701171875
y: 463.52862548828125
z: 0.10603989660739899
visibility: 0.8548275232315063
","x: 264.3982849121094
y: 519.0886840820312
z: 0.053816068917512894
visibility: 0.8606913685798645
","x: 252.76828002929688
y: 505.312744140625
z: 0.3055644631385803
visibility: 0.8168799877166748
","x: 263.36834716796875
y: 524.9837646484375
z: 0.05978713184595108
visibility: 0.6492562294006348
","x: 254.3186798095703
y: 512.7783203125
z: 0.3213317394256592
visibility: 0.5541651248931885
","x: 263.7366027832031
y: 533.0177001953125
z: -0.04349876940250397
visibility: 0.8594903349876404
","x: 248.37962341308594
y: 523.7337646484375
z: 0.24295015633106232
visibility: 0.8344511985778809
",,,,,,,,,,,,,,,,,,,,,,,,,,,,,,,,,,,,,,,,,,
3,"x: 254.38356018066406
y: 291.9873352050781
z: -0.28749337792396545
visibility: 0.9985294938087463
","x: 256.35699462890625
y: 286.4797668457031
z: -0.27650323510169983
visibility: 0.9946776628494263
","x: 257.4754638671875
y: 286.7850646972656
z: -0.2765267491340637
visibility: 0.9948588013648987
","x: 258.5621337890625
y: 287.1563415527344
z: -0.27659574151039124
visibility: 0.9946727752685547
","x: 252.99790954589844
y: 286.28192138671875
z: -0.2730555534362793
visibility: 0.9940891861915588
","x: 251.8412628173828
y: 286.4450378417969
z: -0.27306464314460754
visibility: 0.9941988587379456
","x: 250.70294189453125
y: 286.6372375488281
z: -0.27305370569229126
visibility: 0.9942219853401184
","x: 260.47503662109375
y: 291.4050598144531
z: -0.2016385793685913
visibility: 0.9865537881851196
","x: 249.11241149902344
y: 290.74072265625
z: -0.1873030811548233
visibility: 0.9860680103302002
","x: 256.6743469238281
y: 298.5694274902344
z: -0.25933724641799927
visibility: 0.9967958927154541
","x: 252.2281494140625
y: 298.8314514160156
z: -0.2552585303783417
visibility: 0.9960137009620667
","x: 271.73065185546875
y: 327.0051574707031
z: -0.15783846378326416
visibility: 0.9991631507873535
","x: 238.8402862548828
y: 323.658935546875
z: -0.10898169130086899
visibility: 0.9995198845863342
","x: 288.2931823730469
y: 362.4322509765625
z: -0.14905281364917755
visibility: 0.8433945178985596
","x: 227.92759704589844
y: 354.33111572265625
z: -0.06107204034924507
visibility: 0.9645653367042542
","x: 301.9018249511719
y: 388.04150390625
z: -0.23287026584148407
visibility: 0.7474594712257385
","x: 228.04908752441406
y: 384.2666320800781
z: -0.10117316246032715
visibility: 0.9213188886642456
","x: 308.0295715332031
y: 392.6483154296875
z: -0.2571250796318054
visibility: 0.6523056626319885
","x: 228.04751586914062
y: 393.90606689453125
z: -0.11017300933599472
visibility: 0.8542022109031677
","x: 307.9219970703125
y: 392.79608154296875
z: -0.2813425064086914
visibility: 0.6673651337623596
","x: 229.98924255371094
y: 392.2658996582031
z: -0.13272395730018616
visibility: 0.8606944680213928
","x: 305.2580871582031
y: 391.5824890136719
z: -0.24475865066051483
visibility: 0.6488113403320312
","x: 230.67916870117188
y: 388.8146667480469
z: -0.11346505582332611
visibility: 0.8511583209037781
","x: 264.8914489746094
y: 404.92529296875
z: -0.017235299572348595
visibility: 0.9989475011825562
","x: 247.32716369628906
y: 405.86572265625
z: 0.017270172014832497
visibility: 0.9989544153213501
","x: 264.1802673339844
y: 460.2578430175781
z: -0.053109776228666306
visibility: 0.9046250581741333
","x: 249.4056396484375
y: 462.9959411621094
z: 0.1025678962469101
visibility: 0.8638731837272644
","x: 264.36431884765625
y: 520.0693359375
z: 0.04962041229009628
visibility: 0.8730875849723816
","x: 252.6798858642578
y: 508.3392639160156
z: 0.28596875071525574
visibility: 0.8291964530944824
","x: 263.268798828125
y: 526.6590576171875
z: 0.05457666516304016
visibility: 0.6725337505340576
","x: 254.36050415039062
y: 515.908935546875
z: 0.2993009388446808
visibility: 0.5765489935874939
","x: 263.75469970703125
y: 533.40380859375
z: -0.05365429446101189
visibility: 0.8716965913772583
","x: 247.58897399902344
y: 523.6716918945312
z: 0.21585027873516083
visibility: 0.8460988402366638
",,,,,,,,,,,,,,,,,,,,,,,,,,,,,,,,,,,,,,,,,,
4,"x: 251.19520568847656
y: 293.6239013671875
z: -0.38608789443969727
visibility: 0.9986684322357178
","x: 253.26602172851562
y: 287.7041931152344
z: -0.38178297877311707
visibility: 0.995181679725647
","x: 254.49034118652344
y: 287.7171630859375
z: -0.3817846179008484
visibility: 0.9953487515449524
","x: 255.72686767578125
y: 287.8268127441406
z: -0.38184893131256104
visibility: 0.9951770305633545
","x: 250.2354278564453
y: 287.979736328125
z: -0.37175077199935913
visibility: 0.9946535229682922
","x: 249.3582305908203
y: 288.0666198730469
z: -0.371814101934433
visibility: 0.9947540163993835
","x: 248.56753540039062
y: 288.1866149902344
z: -0.37181025743484497
visibility: 0.9947685599327087
","x: 259.20062255859375
y: 291.20697021484375
z: -0.31909647583961487
visibility: 0.98785001039505
","x: 248.46070861816406
y: 291.2597351074219
z: -0.2734854221343994
visibility: 0.9874018430709839
","x: 253.90196228027344
y: 299.085205078125
z: -0.3612598776817322
visibility: 0.9971067905426025
","x: 249.76942443847656
y: 299.5721740722656
z: -0.3480246067047119
visibility: 0.9963952898979187
","x: 271.7296447753906
y: 325.0808410644531
z: -0.2543904185295105
visibility: 0.9992445111274719
","x: 238.3363494873047
y: 323.38690185546875
z: -0.17700877785682678
visibility: 0.9995635151863098
","x: 289.7319641113281
y: 353.756591796875
z: -0.2482801377773285
visibility: 0.858866274356842
","x: 225.56088256835938
y: 354.2452392578125
z: -0.09627715498209
visibility: 0.9674346446990967
","x: 293.7579040527344
y: 387.8290100097656
z: -0.3093567490577698
visibility: 0.7701394557952881
","x: 221.16632080078125
y: 386.82293701171875
z: -0.11767111718654633
visibility: 0.9267839193344116
","x: 296.64788818359375
y: 394.2498474121094
z: -0.33347535133361816
visibility: 0.6779046058654785
","x: 218.06808471679688
y: 396.647216796875
z: -0.12615247070789337
visibility: 0.8608466982841492
","x: 294.7491760253906
y: 394.55633544921875
z: -0.35318437218666077
visibility: 0.6922671794891357
","x: 220.59352111816406
y: 392.45947265625
z: -0.15288542211055756
visibility: 0.8674143552780151
","x: 292.91778564453125
y: 392.49310302734375
z: -0.3178713619709015
visibility: 0.6727567315101624
","x: 222.4633026123047
y: 390.75018310546875
z: -0.12872248888015747
visibility: 0.8577361106872559
","x: 264.5589294433594
y: 404.7379150390625
z: -0.02045060507953167
visibility: 0.999026358127594
","x: 246.4669952392578
y: 405.19024658203125
z: 0.020499248057603836
visibility: 0.9990000128746033
","x: 264.2259826660156
y: 460.2177429199219
z: -0.07323000580072403
visibility: 0.9119976758956909
","x: 249.21286010742188
y: 462.7182312011719
z: 0.10403026640415192
visibility: 0.8730037212371826
","x: 264.6080627441406
y: 521.9014282226562
z: 0.0360625796020031
visibility: 0.8847597241401672
","x: 252.41827392578125
y: 508.1609802246094
z: 0.31153836846351624
visibility: 0.8417817950248718
","x: 263.1988220214844
y: 529.1739501953125
z: 0.04010968655347824
visibility: 0.6918370127677917
","x: 254.27578735351562
y: 515.7418212890625
z: 0.326089084148407
visibility: 0.6036112904548645
","x: 266.34814453125
y: 534.8656616210938
z: -0.07540258020162582
visibility: 0.8827045559883118
","x: 247.4508514404297
y: 523.5267333984375
z: 0.23627710342407227
visibility: 0.8577967286109924
",,,,,,,,,,,,,,,,,,,,,,,,,,,,,,,,,,,,,,,,,,
5,"x: 251.54788208007812
y: 293.03009033203125
z: -0.315268337726593
visibility: 0.9987891912460327
","x: 253.5953826904297
y: 287.3484191894531
z: -0.3043397068977356
visibility: 0.9956117272377014
","x: 254.83944702148438
y: 287.4865417480469
z: -0.30435460805892944
visibility: 0.9957737326622009
","x: 256.0677795410156
y: 287.6796875
z: -0.30439695715904236
visibility: 0.9956135749816895
","x: 250.39266967773438
y: 287.260498046875
z: -0.30102184414863586
visibility: 0.9951321482658386
","x: 249.4071044921875
y: 287.3169860839844
z: -0.3010525703430176
visibility: 0.9952250123023987
","x: 248.5072784423828
y: 287.42047119140625
z: -0.3010633587837219
visibility: 0.9952131509780884
","x: 259.1988220214844
y: 291.2286682128906
z: -0.2278839647769928
visibility: 0.9889668822288513
","x: 247.97103881835938
y: 290.88409423828125
z: -0.21326188743114471
visibility: 0.9884830117225647
","x: 254.183837890625
y: 298.8442687988281
z: -0.2859093248844147
visibility: 0.9973801970481873
","x: 249.7826690673828
y: 299.00616455078125
z: -0.28173983097076416
visibility: 0.99672532081604
","x: 271.2397155761719
y: 325.0082702636719
z: -0.17196662724018097
visibility: 0.9993172883987427
","x: 237.78424072265625
y: 325.5975036621094
z: -0.13781464099884033
visibility: 0.999591588973999
","x: 288.964599609375
y: 354.2947998046875
z: -0.1467670202255249
visibility: 0.8726984262466431
","x: 225.54669189453125
y: 356.5888977050781
z: -0.08139525353908539
visibility: 0.9685958623886108
","x: 284.4704284667969
y: 390.4536437988281
z: -0.20662109553813934
visibility: 0.7912376523017883
","x: 221.8566131591797
y: 390.1461181640625
z: -0.11329692602157593
visibility: 0.9263724088668823
","x: 285.4787902832031
y: 401.5149230957031
z: -0.22763767838478088
visibility: 0.7039955854415894
","x: 219.38731384277344
y: 399.7052307128906
z: -0.1257636696100235
visibility: 0.8567767143249512
","x: 282.48822021484375
y: 401.3235778808594
z: -0.247941255569458
visibility: 0.7174571752548218
","x: 221.56173706054688
y: 396.24554443359375
z: -0.15176576375961304
visibility: 0.8638778328895569
","x: 281.3295593261719
y: 397.8851318359375
z: -0.2153892070055008
visibility: 0.6976893544197083
","x: 222.97837829589844
y: 394.71246337890625
z: -0.12447354942560196
visibility: 0.8528313040733337
","x: 264.6656188964844
y: 404.5177917480469
z: -0.014579035341739655
visibility: 0.9990906715393066
","x: 246.6157684326172
y: 404.8132629394531
z: 0.01463853009045124
visibility: 0.9990251064300537
","x: 264.30364990234375
y: 459.9811096191406
z: -0.062321215867996216
visibility: 0.9187902808189392
","x: 249.21861267089844
y: 462.6089172363281
z: 0.03217523545026779
visibility: 0.8812731504440308
","x: 264.78082275390625
y: 521.6716918945312
z: 0.028590071946382523
visibility: 0.8950168490409851
","x: 252.36187744140625
y: 508.652587890625
z: 0.19226206839084625
visibility: 0.8536360859870911
","x: 263.27099609375
y: 528.9021606445312
z: 0.03087039291858673
visibility: 0.7091320157051086
","x: 254.16360473632812
y: 516.3782958984375
z: 0.2015867680311203
visibility: 0.6243211030960083
","x: 267.2370910644531
y: 534.9616088867188
z: -0.07869179546833038
visibility: 0.8923531174659729
","x: 247.3450469970703
y: 523.55322265625
z: 0.10443462431430817
visibility: 0.8683971762657166
",,,,,,,,,,,,,,,,,,,,,,,,,,,,,,,,,,,,,,,,,,
6,"x: 251.75448608398438
y: 315.75286865234375
z: -0.38273853063583374
visibility: 0.9989070296287537
","x: 253.7240447998047
y: 310.28607177734375
z: -0.3753381371498108
visibility: 0.9960430264472961
","x: 255.01390075683594
y: 310.3653564453125
z: -0.375270277261734
visibility: 0.9961899518966675
","x: 256.29412841796875
y: 310.4909362792969
z: -0.3753092885017395
visibility: 0.9960460662841797
","x: 250.68460083007812
y: 310.12567138671875
z: -0.37000325322151184
visibility: 0.9956079125404358
","x: 249.75938415527344
y: 310.0528259277344
z: -0.37008169293403625
visibility: 0.9956870675086975
","x: 248.88848876953125
y: 310.00018310546875
z: -0.3700549602508545
visibility: 0.9956684708595276
","x: 259.2826843261719
y: 314.1083068847656
z: -0.3006342649459839
visibility: 0.9900612831115723
","x: 248.2181396484375
y: 313.15447998046875
z: -0.27944087982177734
visibility: 0.9895668029785156
","x: 254.56607055664062
y: 321.9010009765625
z: -0.35305294394493103
visibility: 0.9976370930671692
","x: 250.2229461669922
y: 321.6558532714844
z: -0.34710341691970825
visibility: 0.9970375895500183
","x: 270.7718200683594
y: 345.6990966796875
z: -0.2441178858280182
visibility: 0.9993836283683777
","x: 238.5816650390625
y: 338.9554138183594
z: -0.1847071796655655
visibility: 0.9996009469032288
","x: 282.19537353515625
y: 385.93499755859375
z: -0.2442847043275833
visibility: 0.8852534890174866
","x: 223.5384979248047
y: 353.59149169921875
z: -0.17067375779151917
visibility: 0.9704111814498901
","x: 284.48724365234375
y: 423.7887878417969
z: -0.28397637605667114
visibility: 0.8112343549728394
","x: 236.034423828125
y: 378.5799865722656
z: -0.20656844973564148
visibility: 0.92574143409729
","x: 285.73077392578125
y: 436.7994384765625
z: -0.302042156457901
visibility: 0.7308728694915771
","x: 240.4324493408203
y: 388.8209533691406
z: -0.21295936405658722
visibility: 0.8513720631599426
","x: 283.95159912109375
y: 438.4693908691406
z: -0.3195880055427551
visibility: 0.7432173490524292
","x: 242.98831176757812
y: 386.8941955566406
z: -0.2185889035463333
visibility: 0.8576602935791016
","x: 283.0262451171875
y: 433.75115966796875
z: -0.2901083528995514
visibility: 0.7241306304931641
","x: 241.70550537109375
y: 383.0267028808594
z: -0.20800530910491943
visibility: 0.8428424596786499
","x: 265.5045166015625
y: 406.035400390625
z: -0.01929713599383831
visibility: 0.9991738200187683
","x: 247.1829376220703
y: 408.9375
z: 0.019360294565558434
visibility: 0.9990680813789368
","x: 263.7676696777344
y: 456.6011962890625
z: -0.25082701444625854
visibility: 0.9248291254043579
","x: 249.42803955078125
y: 464.5312194824219
z: 0.06860281527042389
visibility: 0.8787434697151184
","x: 264.80230712890625
y: 522.565185546875
z: -0.22415056824684143
visibility: 0.904385507106781
","x: 252.419921875
y: 509.9829406738281
z: 0.2285713404417038
visibility: 0.8569152355194092
","x: 263.4637756347656
y: 530.216552734375
z: -0.22793933749198914
visibility: 0.7239411473274231
","x: 254.4829559326172
y: 519.0379638671875
z: 0.2428741455078125
visibility: 0.6406973004341125
","x: 265.3623046875
y: 534.8792724609375
z: -0.35644808411598206
visibility: 0.9015934467315674
","x: 246.64358520507812
y: 523.566650390625
z: 0.15392759442329407
visibility: 0.8706935048103333
",,,,,,,,,,,,,,,,,,,,,,,,,,,,,,,,,,,,,,,,,,
7,"x: 253.25277709960938
y: 332.6339416503906
z: -0.389922171831131
visibility: 0.9990143179893494
","x: 255.17022705078125
y: 326.629150390625
z: -0.38041064143180847
visibility: 0.9964335560798645
","x: 256.3082275390625
y: 326.4831237792969
z: -0.3803655505180359
visibility: 0.99656742811203
","x: 257.4564514160156
y: 326.39727783203125
z: -0.3804223835468292
visibility: 0.9964372515678406
","x: 251.92388916015625
y: 326.7843933105469
z: -0.3778455853462219
visibility: 0.9960374236106873
","x: 250.7847137451172
y: 326.7347412109375
z: -0.3779448866844177
visibility: 0.9961069822311401
","x: 249.7245635986328
y: 326.7483825683594
z: -0.37793728709220886
visibility: 0.996082603931427
","x: 260.2597351074219
y: 327.821044921875
z: -0.2982538342475891
visibility: 0.9910504817962646
","x: 248.26315307617188
y: 328.4901428222656
z: -0.29068249464035034
visibility: 0.9905768632888794
","x: 255.69729614257812
y: 337.82647705078125
z: -0.35840997099876404
visibility: 0.9978713393211365
","x: 251.6422119140625
y: 338.33447265625
z: -0.35636767745018005
visibility: 0.9973257184028625
","x: 271.0877685546875
y: 359.4796142578125
z: -0.24352987110614777
visibility: 0.9994441866874695
","x: 238.9589080810547
y: 352.23492431640625
z: -0.18339017033576965
visibility: 0.9995418190956116
","x: 281.17132568359375
y: 399.5486755371094
z: -0.2396208792924881
visibility: 0.8966560363769531
","x: 222.2083282470703
y: 356.4051513671875
z: -0.1246861070394516
visibility: 0.9722979664802551
","x: 284.38043212890625
y: 433.1402282714844
z: -0.2769935727119446
visibility: 0.8296356201171875
","x: 233.319580078125
y: 381.9319152832031
z: -0.09984182566404343
visibility: 0.9243432283401489
","x: 285.7038879394531
y: 443.81024169921875
z: -0.29023969173431396
visibility: 0.7560489773750305
","x: 235.50259399414062
y: 393.1092834472656
z: -0.08824707567691803
visibility: 0.8455853462219238
","x: 283.9944763183594
y: 444.1483154296875
z: -0.3086380064487457
visibility: 0.7672594785690308
","x: 237.74627685546875
y: 391.687744140625
z: -0.09324654191732407
visibility: 0.8505287766456604
","x: 283.14080810546875
y: 440.9393310546875
z: -0.28311043977737427
visibility: 0.7490956783294678
","x: 237.42279052734375
y: 387.9105224609375
z: -0.09726321697235107
visibility: 0.833069384098053
","x: 266.17138671875
y: 411.7550964355469
z: -0.020288337022066116
visibility: 0.9992520213127136
","x: 247.90460205078125
y: 415.32159423828125
z: 0.02030901238322258
visibility: 0.999114453792572
","x: 263.8517150878906
y: 453.63580322265625
z: -0.2895009219646454
visibility: 0.9285387992858887
","x: 250.39822387695312
y: 464.2698974609375
z: 0.07434199750423431
visibility: 0.8572301864624023
","x: 263.83380126953125
y: 522.3444213867188
z: -0.2739601731300354
visibility: 0.9113402366638184
","x: 252.37306213378906
y: 510.4360656738281
z: 0.23964262008666992
visibility: 0.8418111801147461
","x: 262.87896728515625
y: 530.2088012695312
z: -0.2786431908607483
visibility: 0.7301523685455322
","x: 254.48916625976562
y: 519.0985717773438
z: 0.25159528851509094
visibility: 0.6387001276016235
","x: 262.7560119628906
y: 534.1408081054688
z: -0.40298086404800415
visibility: 0.9087875485420227
","x: 245.79139709472656
y: 523.5765380859375
z: 0.16553474962711334
visibility: 0.8561446070671082
",,,,,,,,,,,,,,,,,,,,,,,,,,,,,,,,,,,,,,,,,,
8,"x: 254.13717651367188
y: 330.74896240234375
z: -0.3877885639667511
visibility: 0.9991111755371094
","x: 255.78309631347656
y: 325.0672607421875
z: -0.37872207164764404
visibility: 0.9967853426933289
","x: 256.8102722167969
y: 324.8924560546875
z: -0.3786953091621399
visibility: 0.9969071745872498
","x: 257.860595703125
y: 324.8060607910156
z: -0.3787623345851898
visibility: 0.9967894554138184
","x: 252.71507263183594
y: 325.7706298828125
z: -0.37533649802207947
visibility: 0.9964247345924377
","x: 251.6024169921875
y: 325.97174072265625
z: -0.3754272758960724
visibility: 0.9964855313301086
","x: 250.56175231933594
y: 326.176513671875
z: -0.3754350543022156
visibility: 0.9964562058448792
","x: 260.6164245605469
y: 326.749755859375
z: -0.2995914816856384
visibility: 0.9919409155845642
","x: 248.8828125
y: 327.7681884765625
z: -0.28724056482315063
visibility: 0.9914846420288086
","x: 256.381591796875
y: 335.7325744628906
z: -0.3574083149433136
visibility: 0.9980829954147339
","x: 252.51760864257812
y: 336.3089294433594
z: -0.35402578115463257
visibility: 0.9975876808166504
","x: 271.95855712890625
y: 357.5428771972656
z: -0.24609394371509552
visibility: 0.9994989633560181
","x: 240.09716796875
y: 351.6871643066406
z: -0.1841849982738495
visibility: 0.9995071887969971
","x: 281.7908020019531
y: 396.3984680175781
z: -0.24030980467796326
visibility: 0.9068931341171265
","x: 222.43975830078125
y: 357.9721374511719
z: -0.14492079615592957
visibility: 0.9739044308662415
","x: 281.6845397949219
y: 428.9226989746094
z: -0.27186062932014465
visibility: 0.8456449508666992
","x: 233.34803771972656
y: 383.84423828125
z: -0.14904312789440155
visibility: 0.9188037514686584
","x: 281.9759826660156
y: 441.55926513671875
z: -0.28562456369400024
visibility: 0.7772200703620911
","x: 235.7703399658203
y: 394.96197509765625
z: -0.14321622252464294
visibility: 0.8334381580352783
","x: 279.97265625
y: 440.73992919921875
z: -0.3007824718952179
visibility: 0.7874308228492737
","x: 238.36647033691406
y: 393.7580871582031
z: -0.1418442279100418
visibility: 0.8366081118583679
","x: 278.77294921875
y: 435.9481201171875
z: -0.27625733613967896
visibility: 0.7690237760543823
","x: 236.86012268066406
y: 389.906982421875
z: -0.1479237675666809
visibility: 0.8146215677261353
","x: 267.02978515625
y: 412.42596435546875
z: -0.021388832479715347
visibility: 0.9993235468864441
","x: 248.558837890625
y: 414.8551025390625
z: 0.021369291469454765
visibility: 0.999153733253479
","x: 263.910888671875
y: 454.1931457519531
z: -0.2713335156440735
visibility: 0.9328293800354004
","x: 251.456787109375
y: 464.34002685546875
z: 0.08281329274177551
visibility: 0.8432576060295105
","x: 263.80670166015625
y: 522.3114624023438
z: -0.2436532974243164
visibility: 0.919135570526123
","x: 252.37767028808594
y: 510.3610534667969
z: 0.2572691738605499
visibility: 0.8388161659240723
","x: 262.91455078125
y: 530.16845703125
z: -0.24755151569843292
visibility: 0.7372660636901855
","x: 254.49342346191406
y: 518.694091796875
z: 0.26763439178466797
visibility: 0.6428714394569397
","x: 261.950439453125
y: 534.0990600585938
z: -0.37092751264572144
visibility: 0.9166064262390137
","x: 245.5477294921875
y: 524.2887573242188
z: 0.18758685886859894
visibility: 0.8544593453407288
",,,,,,,,,,,,,,,,,,,,,,,,,,,,,,,,,,,,,,,,,,
9,"x: 255.42355346679688
y: 332.916015625
z: -0.40098077058792114
visibility: 0.9991996884346008
","x: 256.848388671875
y: 327.6612854003906
z: -0.3931840658187866
visibility: 0.9971054792404175
","x: 257.81634521484375
y: 327.505126953125
z: -0.3931000530719757
visibility: 0.9972152709960938
","x: 258.8478698730469
y: 327.45849609375
z: -0.3931257724761963
visibility: 0.9971087574958801
","x: 253.9637908935547
y: 328.1463317871094
z: -0.39136189222335815
visibility: 0.9967813491821289
","x: 252.9247589111328
y: 328.2416076660156
z: -0.3914673924446106
visibility: 0.996836245059967
","x: 251.9477996826172
y: 328.3534240722656
z: -0.39146560430526733
visibility: 0.9968094229698181
","x: 261.47552490234375
y: 328.9712219238281
z: -0.3162655234336853
visibility: 0.9927452206611633
","x: 249.84300231933594
y: 329.7006530761719
z: -0.30966639518737793
visibility: 0.9923345446586609
","x: 257.5409851074219
y: 337.862548828125
z: -0.37013572454452515
visibility: 0.9982739686965942
","x: 253.9031982421875
y: 338.0772399902344
z: -0.36836618185043335
visibility: 0.9978278279304504
","x: 272.7060241699219
y: 354.6802062988281
z: -0.22870953381061554
visibility: 0.9995484948158264
","x: 240.08663940429688
y: 354.92529296875
z: -0.2063826620578766
visibility: 0.9995550513267517
","x: 290.9579772949219
y: 382.11309814453125
z: -0.1502031534910202
visibility: 0.9160735011100769
","x: 222.14254760742188
y: 368.6627197265625
z: -0.13378123939037323
visibility: 0.9763206839561462
","x: 278.451416015625
y: 404.1622314453125
z: -0.0939655527472496
visibility: 0.8591206669807434
","x: 219.06414794921875
y: 401.63934326171875
z: -0.11661796271800995
visibility: 0.9255800247192383
","x: 274.7030029296875
y: 414.3467712402344
z: -0.08780165016651154
visibility: 0.7911776304244995
","x: 215.14065551757812
y: 410.2384033203125
z: -0.11003085225820541
visibility: 0.8443047404289246
","x: 271.69439697265625
y: 410.6915588378906
z: -0.09404636174440384
visibility: 0.8002282381057739
","x: 217.36505126953125
y: 412.3787841796875
z: -0.12652190029621124
visibility: 0.8473087549209595
","x: 271.84124755859375
y: 407.6300048828125
z: -0.0913272276520729
visibility: 0.7793048024177551
","x: 219.64724731445312
y: 409.60626220703125
z: -0.12009955942630768
visibility: 0.8258216381072998
","x: 266.7945556640625
y: 414.06298828125
z: -0.011367498897016048
visibility: 0.9993767738342285
","x: 248.34901428222656
y: 417.2300720214844
z: 0.011379765346646309
visibility: 0.9991748929023743
","x: 264.3984069824219
y: 457.3154296875
z: -0.16962763667106628
visibility: 0.9387807846069336
","x: 251.50575256347656
y: 464.5177917480469
z: 0.04459834843873978
visibility: 0.8529413342475891
","x: 263.8126220703125
y: 522.4443969726562
z: -0.11122968047857285
visibility: 0.9268906712532043
","x: 252.09336853027344
y: 510.989501953125
z: 0.17535839974880219
visibility: 0.852061927318573
","x: 262.8958435058594
y: 530.0532836914062
z: -0.11007598787546158
visibility: 0.757148027420044
","x: 254.31398010253906
y: 518.6961059570312
z: 0.18238084018230438
visibility: 0.667766809463501
","x: 262.26300048828125
y: 534.0606689453125
z: -0.22610366344451904
visibility: 0.9242919087409973
","x: 244.8562469482422
y: 524.5066528320312
z: 0.10327291488647461
visibility: 0.8660547137260437
",,,,,,,,,,,,,,,,,,,,,,,,,,,,,,,,,,,,,,,,,,
10,"x: 255.59097290039062
y: 334.8560791015625
z: -0.3822275400161743
visibility: 0.9992761015892029
","x: 256.9759826660156
y: 329.6915283203125
z: -0.3774387240409851
visibility: 0.997380256652832
","x: 257.9507751464844
y: 329.60711669921875
z: -0.37738144397735596
visibility: 0.9974825382232666
","x: 258.96417236328125
y: 329.55902099609375
z: -0.37744539976119995
visibility: 0.9973832964897156
","x: 254.087158203125
y: 329.9197998046875
z: -0.37658411264419556
visibility: 0.9970898032188416
","x: 253.0693817138672
y: 329.984130859375
z: -0.37667930126190186
visibility: 0.9971402287483215
","x: 252.08204650878906
y: 330.11419677734375
z: -0.37667348980903625
visibility: 0.9971075057983398
","x: 261.4564208984375
y: 330.08746337890625
z: -0.3067362606525421
visibility: 0.9934582114219666
","x: 249.91624450683594
y: 330.862548828125
z: -0.3050806224346161
visibility: 0.9930759072303772
","x: 257.67327880859375
y: 339.71551513671875
z: -0.35222211480140686
visibility: 0.9984414577484131
","x: 253.98846435546875
y: 340.193603515625
z: -0.35183000564575195
visibility: 0.9980336427688599
","x: 272.6789245605469
y: 353.681396484375
z: -0.222293421626091
visibility: 0.9995932579040527
","x: 240.07241821289062
y: 353.6682434082031
z: -0.20258064568042755
visibility: 0.9995900988578796
","x: 290.15875244140625
y: 374.5803527832031
z: -0.13621604442596436
visibility: 0.9243768453598022
","x: 221.5007781982422
y: 366.4801025390625
z: -0.1235787644982338
visibility: 0.977989673614502
","x: 277.3813781738281
y: 399.60614013671875
z: -0.07674820721149445
visibility: 0.8715474605560303
","x: 229.8972930908203
y: 400.406494140625
z: -0.0542299821972847
visibility: 0.9210326075553894
","x: 274.74005126953125
y: 411.1982727050781
z: -0.0708586648106575
visibility: 0.8047852516174316
","x: 231.727783203125
y: 409.3538818359375
z: -0.04298950359225273
visibility: 0.8266281485557556
","x: 271.7569885253906
y: 407.5729064941406
z: -0.07622404396533966
visibility: 0.8127089142799377
","x: 234.0595245361328
y: 408.5002136230469
z: -0.05271222069859505
visibility: 0.8277247548103333
","x: 271.6433410644531
y: 403.44293212890625
z: -0.07369142770767212
visibility: 0.7889499068260193
","x: 234.2563018798828
y: 405.19110107421875
z: -0.053594790399074554
visibility: 0.8012688159942627
","x: 266.7509460449219
y: 412.7339172363281
z: -0.008806589990854263
visibility: 0.9994299411773682
","x: 248.22317504882812
y: 416.2043762207031
z: 0.008872443810105324
visibility: 0.9991729855537415
","x: 264.9000244140625
y: 457.3313903808594
z: -0.14870652556419373
visibility: 0.9431038498878479
","x: 251.99337768554688
y: 465.7604675292969
z: 0.06321771442890167
visibility: 0.8541735410690308
","x: 264.4779968261719
y: 522.2371215820312
z: -0.09693832695484161
visibility: 0.933597207069397
","x: 252.1277313232422
y: 510.77984619140625
z: 0.2151719033718109
visibility: 0.8614948391914368
","x: 262.89971923828125
y: 529.8512573242188
z: -0.09748795628547668
visibility: 0.7683423161506653
","x: 254.32028198242188
y: 518.477783203125
z: 0.22503137588500977
visibility: 0.6839008927345276
","x: 266.0160217285156
y: 534.0296630859375
z: -0.20126596093177795
visibility: 0.9307848811149597
","x: 245.19627380371094
y: 524.4841918945312
z: 0.13009628653526306
visibility: 0.8738803863525391
",,,,,,,,,,,,,,,,,,,,,,,,,,,,,,,,,,,,,,,,,,
11,"x: 256.7592468261719
y: 320.2799987792969
z: -0.36938387155532837
visibility: 0.9993445873260498
","x: 258.2705078125
y: 315.138671875
z: -0.36769431829452515
visibility: 0.9976328015327454
","x: 259.2462158203125
y: 315.1490173339844
z: -0.36731594800949097
visibility: 0.9977242350578308
","x: 260.3097839355469
y: 315.29534912109375
z: -0.3672368824481964
visibility: 0.9976354837417603
","x: 255.5
y: 315.3033752441406
z: -0.3627764582633972
visibility: 0.9973698854446411
","x: 254.42446899414062
y: 315.5231018066406
z: -0.3629070520401001
visibility: 0.9974117875099182
","x: 253.31182861328125
y: 315.9469909667969
z: -0.36279550194740295
visibility: 0.9973803758621216
","x: 262.5269470214844
y: 317.75726318359375
z: -0.28560906648635864
visibility: 0.9940966367721558
","x: 250.99205017089844
y: 318.1673889160156
z: -0.2918733060359955
visibility: 0.9937353134155273
","x: 258.547607421875
y: 325.6048889160156
z: -0.3467654883861542
visibility: 0.9985936284065247
","x: 254.86868286132812
y: 326.6275329589844
z: -0.34310489892959595
visibility: 0.9982247948646545
","x: 272.70513916015625
y: 346.3513488769531
z: -0.20604872703552246
visibility: 0.9996321797370911
","x: 241.45620727539062
y: 346.3621520996094
z: -0.19250528514385223
visibility: 0.9996230602264404
","x: 281.2870178222656
y: 376.8313293457031
z: -0.16665491461753845
visibility: 0.9312533140182495
","x: 231.78619384765625
y: 374.8873596191406
z: -0.1306530088186264
visibility: 0.9788705110549927
","x: 278.4744873046875
y: 409.9376220703125
z: -0.22116553783416748
visibility: 0.8809633851051331
","x: 232.64678955078125
y: 408.2336730957031
z: -0.1799388974905014
visibility: 0.9240024089813232
","x: 277.4087829589844
y: 425.3095703125
z: -0.24395692348480225
visibility: 0.8172247409820557
","x: 232.7130126953125
y: 419.0230712890625
z: -0.19457854330539703
visibility: 0.8329430818557739
","x: 274.58489990234375
y: 425.64501953125
z: -0.2649938464164734
visibility: 0.8248072862625122
","x: 234.74415588378906
y: 418.325439453125
z: -0.22076793015003204
visibility: 0.8346503973007202
","x: 274.2259216308594
y: 420.6250305175781
z: -0.2298927754163742
visibility: 0.8010615110397339
","x: 235.35910034179688
y: 414.17340087890625
z: -0.19059473276138306
visibility: 0.8084352612495422
","x: 266.0655517578125
y: 411.95941162109375
z: -0.0094892717897892
visibility: 0.9994763135910034
","x: 248.22549438476562
y: 413.0069580078125
z: 0.009496478363871574
visibility: 0.9992116093635559
","x: 264.83624267578125
y: 459.646728515625
z: -0.13557395339012146
visibility: 0.9480825662612915
","x: 251.56689453125
y: 465.4254150390625
z: 0.03279275447130203
visibility: 0.8662028908729553
","x: 264.55584716796875
y: 522.8907470703125
z: -0.08380115777254105
visibility: 0.9398677349090576
","x: 252.10382080078125
y: 511.4453430175781
z: 0.16209164261817932
visibility: 0.8734628558158875
","x: 262.91436767578125
y: 530.218994140625
z: -0.09043572843074799
visibility: 0.7847430109977722
","x: 254.33767700195312
y: 519.3114013671875
z: 0.16876640915870667
visibility: 0.7059955596923828
","x: 265.825927734375
y: 534.173828125
z: -0.1998080164194107
visibility: 0.9368966221809387
","x: 245.239990234375
y: 524.5029907226562
z: 0.07700280100107193
visibility: 0.8841692209243774
",,,,,,,,,,,,,,,,,,,,,,,,,,,,,,,,,,,,,,,,,,
12,"x: 257.2843017578125
y: 289.34161376953125
z: -0.275458961725235
visibility: 0.9994092583656311
","x: 259.3595886230469
y: 283.6661071777344
z: -0.2641799747943878
visibility: 0.997866690158844
","x: 260.5630187988281
y: 283.8036193847656
z: -0.2642117142677307
visibility: 0.9979487061500549
","x: 261.8450012207031
y: 283.9877014160156
z: -0.26426464319229126
visibility: 0.9978688955307007
","x: 256.371337890625
y: 283.5362548828125
z: -0.2637060880661011
visibility: 0.9976294636726379
","x: 255.22012329101562
y: 283.66455078125
z: -0.2637256681919098
visibility: 0.9976663589477539
","x: 254.01177978515625
y: 283.8665771484375
z: -0.26375865936279297
visibility: 0.9976372122764587
","x: 263.606689453125
y: 287.2360534667969
z: -0.1829901784658432
visibility: 0.9946818351745605
","x: 251.97450256347656
y: 286.6054992675781
z: -0.18215401470661163
visibility: 0.9943521618843079
","x: 259.0262756347656
y: 296.00323486328125
z: -0.24468906223773956
visibility: 0.9987335801124573
","x: 255.3677520751953
y: 295.92791748046875
z: -0.2443195879459381
visibility: 0.9984012246131897
","x: 272.8079833984375
y: 326.4639587402344
z: -0.13041827082633972
visibility: 0.9996679425239563
","x: 242.35365295410156
y: 319.8453063964844
z: -0.10827457904815674
visibility: 0.999654233455658
","x: 278.210693359375
y: 370.6217041015625
z: -0.10849931091070175
visibility: 0.9372801184654236
","x: 236.7586212158203
y: 368.0511169433594
z: -0.07615311443805695
visibility: 0.9764578342437744
","x: 279.19622802734375
y: 408.9578552246094
z: -0.18211500346660614
visibility: 0.8890738487243652
","x: 233.83445739746094
y: 404.0586853027344
z: -0.14918644726276398
visibility: 0.9202557802200317
","x: 277.6497497558594
y: 422.64599609375
z: -0.21652023494243622
visibility: 0.8282133936882019
","x: 232.603759765625
y: 413.554443359375
z: -0.16425815224647522
visibility: 0.8321537375450134
","x: 275.3987121582031
y: 424.3163757324219
z: -0.2572507858276367
visibility: 0.8357812166213989
","x: 234.06912231445312
y: 412.843994140625
z: -0.19226904213428497
visibility: 0.8352428674697876
","x: 275.38140869140625
y: 420.4080505371094
z: -0.19411757588386536
visibility: 0.8126832842826843
","x: 234.8963623046875
y: 408.99676513671875
z: -0.15974672138690948
visibility: 0.8099033832550049
","x: 265.6651611328125
y: 402.26129150390625
z: -0.011887754313647747
visibility: 0.9995204210281372
","x: 248.26295471191406
y: 401.49298095703125
z: 0.011906704865396023
visibility: 0.9992693662643433
","x: 264.6375732421875
y: 458.70867919921875
z: -0.06346024572849274
visibility: 0.9520541429519653
","x: 249.99961853027344
y: 459.5736389160156
z: 0.038754262030124664
visibility: 0.876383900642395
","x: 263.1972351074219
y: 522.8397216796875
z: 0.038758762180805206
visibility: 0.945213794708252
","x: 252.12579345703125
y: 510.8584899902344
z: 0.19668638706207275
visibility: 0.8840464949607849
","x: 261.89361572265625
y: 529.8292236328125
z: 0.04196995869278908
visibility: 0.7954570055007935
","x: 254.37635803222656
y: 517.712646484375
z: 0.20681050419807434
visibility: 0.724678099155426
","x: 265.6353759765625
y: 534.678466796875
z: -0.0572127029299736
visibility: 0.9419935941696167
","x: 245.4049835205078
y: 524.4968872070312
z: 0.12171173095703125
visibility: 0.8937088251113892
",,,,,,,,,,,,,,,,,,,,,,,,,,,,,,,,,,,,,,,,,,
13,"x: 257.96380615234375
y: 285.01300048828125
z: -0.24581506848335266
visibility: 0.9994658827781677
","x: 259.99884033203125
y: 279.721923828125
z: -0.23456613719463348
visibility: 0.998071014881134
","x: 261.1353454589844
y: 279.8171081542969
z: -0.23461727797985077
visibility: 0.9981433749198914
","x: 262.3255310058594
y: 279.9420166015625
z: -0.23466543853282928
visibility: 0.9980711936950684
","x: 256.8907470703125
y: 279.4309387207031
z: -0.23542824387550354
visibility: 0.9978574514389038
","x: 255.67840576171875
y: 279.3570556640625
z: -0.23544783890247345
visibility: 0.9978891015052795
","x: 254.45068359375
y: 279.3031921386719
z: -0.2354968786239624
visibility: 0.9978622198104858
","x: 263.6661376953125
y: 282.66064453125
z: -0.15441790223121643
visibility: 0.9951928853988647
","x: 252.1177215576172
y: 281.2723388671875
z: -0.15844260156154633
visibility: 0.9948978424072266
","x: 259.64971923828125
y: 291.2355651855469
z: -0.2147160768508911
visibility: 0.9988579750061035
","x: 255.82345581054688
y: 290.98199462890625
z: -0.21599459648132324
visibility: 0.9985585808753967
","x: 272.79046630859375
y: 321.4965515136719
z: -0.10155371576547623
visibility: 0.9996987581253052
","x: 242.07196044921875
y: 315.0434265136719
z: -0.09344233572483063
visibility: 0.9996849298477173
","x: 277.0693664550781
y: 366.10882568359375
z: -0.07816974818706512
visibility: 0.9415436387062073
","x: 236.0435028076172
y: 363.2496337890625
z: -0.06572069972753525
visibility: 0.9763923287391663
","x: 279.5499267578125
y: 403.872802734375
z: -0.15421096980571747
visibility: 0.892838180065155
","x: 233.12681579589844
y: 402.5146179199219
z: -0.14438286423683167
visibility: 0.9227328300476074
","x: 278.4555358886719
y: 415.70428466796875
z: -0.18009328842163086
visibility: 0.8328496813774109
","x: 231.9963836669922
y: 411.3147277832031
z: -0.15213324129581451
visibility: 0.839262068271637
","x: 275.7811584472656
y: 416.0653076171875
z: -0.2052033692598343
visibility: 0.8408026099205017
","x: 234.04324340820312
y: 410.5948181152344
z: -0.17959849536418915
visibility: 0.8430339694023132
","x: 275.8107604980469
y: 411.88714599609375
z: -0.16486988961696625
visibility: 0.8178395628929138
","x: 234.36209106445312
y: 406.80523681640625
z: -0.14870959520339966
visibility: 0.8190720677375793
","x: 264.7590026855469
y: 398.88177490234375
z: -0.01115722768008709
visibility: 0.9995507001876831
","x: 247.92843627929688
y: 398.299072265625
z: 0.011163109913468361
visibility: 0.9993154406547546
","x: 264.4712219238281
y: 457.4784851074219
z: -0.041817232966423035
visibility: 0.9540945291519165
","x: 249.95750427246094
y: 457.32293701171875
z: 0.027443792670965195
visibility: 0.8826323747634888
","x: 263.0318603515625
y: 520.4267578125
z: 0.06001388281583786
visibility: 0.9489393830299377
","x: 252.9031219482422
y: 510.18560791015625
z: 0.17336857318878174
visibility: 0.8914915323257446
","x: 261.5860595703125
y: 528.017822265625
z: 0.06384696066379547
visibility: 0.7984307408332825
","x: 255.20018005371094
y: 516.4448852539062
z: 0.1826985478401184
visibility: 0.7356922030448914
","x: 265.753173828125
y: 534.6497802734375
z: -0.030223330482840538
visibility: 0.9452522397041321
","x: 245.65576171875
y: 523.9277954101562
z: 0.0986410602927208
visibility: 0.9005030989646912
",,,,,,,,,,,,,,,,,,,,,,,,,,,,,,,,,,,,,,,,,,
14,"x: 257.6318054199219
y: 281.75054931640625
z: -0.2404235154390335
visibility: 0.999518096446991
","x: 259.6864013671875
y: 276.6816101074219
z: -0.22938697040081024
visibility: 0.9982588887214661
","x: 260.8281555175781
y: 277.083251953125
z: -0.22943958640098572
visibility: 0.998323380947113
","x: 261.9960021972656
y: 277.5323791503906
z: -0.22948095202445984
visibility: 0.9982582330703735
","x: 256.48077392578125
y: 275.86962890625
z: -0.22937504947185516
visibility: 0.9980661273002625
","x: 255.30892944335938
y: 275.7859191894531
z: -0.22937746345996857
visibility: 0.9980933666229248
","x: 254.1410369873047
y: 275.7781066894531
z: -0.22940973937511444
visibility: 0.9980679154396057
","x: 263.7869873046875
y: 281.1950988769531
z: -0.1505829393863678
visibility: 0.9956652522087097
","x: 251.94979858398438
y: 278.4767761230469
z: -0.15013402700424194
visibility: 0.9953953623771667
","x: 259.4918518066406
y: 288.3896484375
z: -0.20963415503501892
visibility: 0.9989711046218872
","x: 255.65797424316406
y: 288.08270263671875
z: -0.2096436768770218
visibility: 0.9987010955810547
","x: 272.8637390136719
y: 319.068115234375
z: -0.09998352825641632
visibility: 0.9997278451919556
","x: 241.9241180419922
y: 312.89801025390625
z: -0.07881952822208405
visibility: 0.9997115731239319
","x: 277.3706359863281
y: 361.98443603515625
z: -0.06891971826553345
visibility: 0.9460341334342957
","x: 236.40171813964844
y: 359.23406982421875
z: -0.04279574751853943
visibility: 0.9729084372520447
","x: 279.56695556640625
y: 398.57196044921875
z: -0.13943292200565338
visibility: 0.8988815546035767
","x: 233.05239868164062
y: 399.82293701171875
z: -0.11751951277256012
visibility: 0.921633243560791
","x: 279.6403503417969
y: 408.6334533691406
z: -0.16212844848632812
visibility: 0.8415946364402771
","x: 231.69715881347656
y: 410.7536315917969
z: -0.13789096474647522
visibility: 0.8422576785087585
","x: 277.4366455078125
y: 408.3722229003906
z: -0.18610942363739014
visibility: 0.8494204878807068
","x: 233.5899658203125
y: 409.67230224609375
z: -0.17263129353523254
visibility: 0.8468344211578369
","x: 277.29779052734375
y: 404.8611145019531
z: -0.14997944235801697
visibility: 0.8273820281028748
","x: 234.14373779296875
y: 405.86285400390625
z: -0.13076308369636536
visibility: 0.8241037130355835
","x: 264.7926330566406
y: 397.9580078125
z: -0.01190915983170271
visibility: 0.9995841979980469
","x: 247.89996337890625
y: 397.3414306640625
z: 0.011887110769748688
visibility: 0.9993614554405212
","x: 264.44122314453125
y: 458.46209716796875
z: -0.025503549724817276
visibility: 0.9573252201080322
","x: 250.05601501464844
y: 457.4126892089844
z: 0.040671102702617645
visibility: 0.8914182186126709
","x: 263.06146240234375
y: 520.0611572265625
z: 0.0892966240644455
visibility: 0.9528447389602661
","x: 253.2026824951172
y: 509.7200012207031
z: 0.19561751186847687
visibility: 0.9002100229263306
","x: 261.6580810546875
y: 526.71875
z: 0.0940634161233902
visibility: 0.7994466423988342
","x: 255.70315551757812
y: 515.3627319335938
z: 0.20531411468982697
visibility: 0.7515769004821777
","x: 264.3961486816406
y: 534.6717529296875
z: -0.0007319918950088322
visibility: 0.9487138986587524
","x: 245.69400024414062
y: 523.9277954101562
z: 0.11783051490783691
visibility: 0.908608078956604
",,,,,,,,,,,,,,,,,,,,,,,,,,,,,,,,,,,,,,,,,,
15,"x: 257.4245910644531
y: 280.90374755859375
z: -0.24192890524864197
visibility: 0.9995611310005188
","x: 259.4588623046875
y: 275.540283203125
z: -0.22954034805297852
visibility: 0.9984124898910522
","x: 260.5936279296875
y: 275.9140930175781
z: -0.22959542274475098
visibility: 0.998468279838562
","x: 261.7475891113281
y: 276.3522033691406
z: -0.22963210940361023
visibility: 0.9984068274497986
","x: 256.2735900878906
y: 275.09149169921875
z: -0.22946543991565704
visibility: 0.9982407689094543
","x: 255.2032470703125
y: 275.07196044921875
z: -0.22948293387889862
visibility: 0.9982633590698242
","x: 254.1140899658203
y: 275.05462646484375
z: -0.22951647639274597
visibility: 0.998238742351532
","x: 263.71307373046875
y: 280.4469909667969
z: -0.14949439465999603
visibility: 0.9960602521896362
","x: 251.8955841064453
y: 278.4514465332031
z: -0.148411363363266
visibility: 0.9958217144012451
","x: 259.3826904296875
y: 287.37567138671875
z: -0.21123702824115753
visibility: 0.9990704655647278
","x: 255.57354736328125
y: 286.7800598144531
z: -0.211125448346138
visibility: 0.9988267421722412
","x: 273.2359924316406
y: 318.99542236328125
z: -0.10074546188116074
visibility: 0.9997516870498657
","x: 241.16400146484375
y: 313.7420349121094
z: -0.08281924575567245
visibility: 0.999733567237854
","x: 278.478271484375
y: 356.7749328613281
z: -0.07790212333202362
visibility: 0.9495745301246643
","x: 235.3528594970703
y: 359.40240478515625
z: -0.0465814583003521
visibility: 0.9702612161636353
","x: 274.44769287109375
y: 386.76312255859375
z: -0.1532706767320633
visibility: 0.89434814453125
","x: 232.8926239013672
y: 397.24267578125
z: -0.11973067373037338
visibility: 0.9158509373664856
","x: 273.82025146484375
y: 396.0933837890625
z: -0.1768076866865158
visibility: 0.8328410387039185
","x: 231.6571044921875
y: 410.6637268066406
z: -0.1423359215259552
visibility: 0.8371509313583374
","x: 271.2914123535156
y: 392.10211181640625
z: -0.19495883584022522
visibility: 0.8405683636665344
","x: 233.44821166992188
y: 408.77874755859375
z: -0.17103731632232666
visibility: 0.8422703742980957
","x: 271.0050964355469
y: 388.1004333496094
z: -0.16095484793186188
visibility: 0.8171345591545105
","x: 234.08737182617188
y: 403.841552734375
z: -0.131595641374588
visibility: 0.819678008556366
","x: 263.7786865234375
y: 399.71942138671875
z: -0.01178324781358242
visibility: 0.9996163249015808
","x: 246.1890869140625
y: 399.0936584472656
z: 0.011761904694139957
visibility: 0.9994060397148132
","x: 263.9737548828125
y: 460.9472961425781
z: 0.007210422307252884
visibility: 0.9602922797203064
","x: 249.7849884033203
y: 457.72650146484375
z: 0.06611653417348862
visibility: 0.8998556137084961
","x: 262.4784240722656
y: 519.7924194335938
z: 0.1494934856891632
visibility: 0.9565126299858093
","x: 251.92153930664062
y: 508.8401794433594
z: 0.2583755850791931
visibility: 0.9084729552268982
","x: 261.0848388671875
y: 526.53515625
z: 0.15760786831378937
visibility: 0.8056329488754272
","x: 254.36038208007812
y: 514.3494262695312
z: 0.27280527353286743
visibility: 0.7668794393539429
","x: 264.1994934082031
y: 534.6509399414062
z: 0.06376244872808456
visibility: 0.9522640705108643
","x: 245.51768493652344
y: 523.9679565429688
z: 0.19013044238090515
visibility: 0.9163464903831482
",,,,,,,,,,,,,,,,,,,,,,,,,,,,,,,,,,,,,,,,,,
16,"x: 257.341064453125
y: 277.3743896484375
z: -0.22629299759864807
visibility: 0.999602198600769
","x: 259.3533935546875
y: 271.89031982421875
z: -0.21410521864891052
visibility: 0.998559832572937
","x: 260.49005126953125
y: 272.0672912597656
z: -0.21413955092430115
visibility: 0.9986093640327454
","x: 261.634033203125
y: 272.31976318359375
z: -0.2141633778810501
visibility: 0.9985526204109192
","x: 256.10601806640625
y: 272.32366943359375
z: -0.21287131309509277
visibility: 0.9984071254730225
","x: 255.07174682617188
y: 272.6839599609375
z: -0.2128882110118866
visibility: 0.998427152633667
","x: 254.05569458007812
y: 273.05950927734375
z: -0.21290083229541779
visibility: 0.9984041452407837
","x: 263.7392272949219
y: 277.26397705078125
z: -0.13928042352199554
visibility: 0.99643474817276
","x: 251.7949981689453
y: 277.25390625
z: -0.13293111324310303
visibility: 0.9962212443351746
","x: 259.53662109375
y: 284.0693054199219
z: -0.19805683195590973
visibility: 0.9991611838340759
","x: 255.4063262939453
y: 284.04730224609375
z: -0.19640472531318665
visibility: 0.9989411234855652
","x: 273.6299133300781
y: 317.26495361328125
z: -0.0973501056432724
visibility: 0.9997735619544983
","x: 241.13330078125
y: 313.5995788574219
z: -0.06783648580312729
visibility: 0.9997538328170776
","x: 282.8298034667969
y: 350.1016845703125
z: -0.06474699079990387
visibility: 0.9533976912498474
","x: 234.34555053710938
y: 354.97943115234375
z: -0.02685900405049324
visibility: 0.9684514403343201
","x: 273.7294616699219
y: 372.9598388671875
z: -0.11334346234798431
visibility: 0.8941613435745239
","x: 232.6197967529297
y: 393.0750732421875
z: -0.09292659908533096
visibility: 0.9127478003501892
","x: 272.1016540527344
y: 384.20855712890625
z: -0.1333753764629364
visibility: 0.8278345465660095
","x: 231.4932861328125
y: 405.931884765625
z: -0.1137496829032898
visibility: 0.8341053128242493
","x: 269.7594299316406
y: 380.54766845703125
z: -0.14554038643836975
visibility: 0.8349696397781372
","x: 233.2747344970703
y: 405.018798828125
z: -0.13770093023777008
visibility: 0.8394652605056763
","x: 269.7889099121094
y: 376.10345458984375
z: -0.1180189698934555
visibility: 0.8101652264595032
","x: 234.08065795898438
y: 400.12744140625
z: -0.10387128591537476
visibility: 0.8171886801719666
","x: 263.832763671875
y: 399.7592468261719
z: -0.012421106919646263
visibility: 0.9996394515037537
","x: 246.34640502929688
y: 399.1448669433594
z: 0.012365312315523624
visibility: 0.9994350671768188
","x: 263.9839782714844
y: 461.17144775390625
z: -0.0016102356603369117
visibility: 0.9632635712623596
","x: 249.49349975585938
y: 457.4264831542969
z: 0.07035578787326813
visibility: 0.9076492786407471
","x: 262.5444641113281
y: 519.0197143554688
z: 0.13074003159999847
visibility: 0.9598891735076904
","x: 251.8672332763672
y: 507.50018310546875
z: 0.2559286952018738
visibility: 0.915714681148529
","x: 261.16680908203125
y: 525.6254272460938
z: 0.1381250023841858
visibility: 0.8104206919670105
","x: 254.33621215820312
y: 512.9406127929688
z: 0.26996272802352905
visibility: 0.7799649238586426
","x: 264.2026062011719
y: 534.4515380859375
z: 0.04546859487891197
visibility: 0.9554415345191956
","x: 245.444580078125
y: 523.6149291992188
z: 0.19278354942798615
visibility: 0.9231393337249756
",,,,,,,,,,,,,,,,,,,,,,,,,,,,,,,,,,,,,,,,,,
17,"x: 257.1566467285156
y: 282.1462707519531
z: -0.25096428394317627
visibility: 0.9996367692947388
","x: 259.2713623046875
y: 276.78497314453125
z: -0.23801982402801514
visibility: 0.9986892938613892
","x: 260.3768310546875
y: 276.972900390625
z: -0.23805169761180878
visibility: 0.9987335205078125
","x: 261.5167236328125
y: 277.2164001464844
z: -0.23808474838733673
visibility: 0.9986817836761475
","x: 255.65814208984375
y: 276.72052001953125
z: -0.2371937781572342
visibility: 0.9985519647598267
","x: 254.3721160888672
y: 276.7974853515625
z: -0.23721957206726074
visibility: 0.9985690116882324
","x: 253.2048797607422
y: 276.94403076171875
z: -0.23722782731056213
visibility: 0.9985476136207581
","x: 263.6435852050781
y: 281.4599914550781
z: -0.1557120382785797
visibility: 0.996768057346344
","x: 251.2947235107422
y: 280.4138488769531
z: -0.15140148997306824
visibility: 0.9965711236000061
","x: 259.4945068359375
y: 289.3945617675781
z: -0.21972377598285675
visibility: 0.9992408156394958
","x: 254.85826110839844
y: 289.2654113769531
z: -0.21868649125099182
visibility: 0.9990418553352356
","x: 273.605712890625
y: 319.7286071777344
z: -0.11007245630025864
visibility: 0.9997896552085876
","x: 240.2804718017578
y: 315.8529357910156
z: -0.08077657222747803
visibility: 0.9997544288635254
","x: 283.7872009277344
y: 353.1209716796875
z: -0.0840793326497078
visibility: 0.9572957754135132
","x: 233.06137084960938
y: 353.18115234375
z: -0.05145519971847534
visibility: 0.9672377705574036
","x: 271.2268371582031
y: 375.8395690917969
z: -0.18085511028766632
visibility: 0.8976298570632935
","x: 237.68165588378906
y: 379.4374084472656
z: -0.1213475689291954
visibility: 0.9075251817703247
","x: 268.6499938964844
y: 385.67767333984375
z: -0.21097080409526825
visibility: 0.8292610049247742
","x: 240.35581970214844
y: 388.95452880859375
z: -0.1486586183309555
visibility: 0.8270682692527771
","x: 266.8639221191406
y: 381.3259582519531
z: -0.21825572848320007
visibility: 0.835602343082428
","x: 242.17294311523438
y: 385.83795166015625
z: -0.1638721525669098
visibility: 0.8318268060684204
","x: 267.06951904296875
y: 377.3689270019531
z: -0.18458102643489838
visibility: 0.8096534013748169
","x: 241.87359619140625
y: 382.2543640136719
z: -0.12852632999420166
visibility: 0.8080766797065735
","x: 263.7666320800781
y: 400.4078369140625
z: -0.01374845951795578
visibility: 0.9996439814567566
","x: 246.11441040039062
y: 400.052001953125
z: 0.013700196519494057
visibility: 0.9994361996650696
","x: 263.6072692871094
y: 460.9881286621094
z: 0.023246046155691147
visibility: 0.9656281471252441
","x: 249.09799194335938
y: 457.51629638671875
z: 0.07685117423534393
visibility: 0.9142872095108032
","x: 262.639404296875
y: 517.5726318359375
z: 0.16514620184898376
visibility: 0.9625153541564941
","x: 251.77362060546875
y: 508.05743408203125
z: 0.25063347816467285
visibility: 0.921882688999176
","x: 261.85723876953125
y: 524.4649658203125
z: 0.17371347546577454
visibility: 0.8108844757080078
","x: 254.05184936523438
y: 513.9583129882812
z: 0.2636125683784485
visibility: 0.7889527678489685
","x: 262.8741455078125
y: 534.4400634765625
z: 0.08025752007961273
visibility: 0.9577825665473938
","x: 245.4448699951172
y: 524.0274658203125
z: 0.1814858466386795
visibility: 0.9286665916442871
",,,,,,,,,,,,,,,,,,,,,,,,,,,,,,,,,,,,,,,,,,
18,"x: 256.0831298828125
y: 306.49029541015625
z: -0.33656904101371765
visibility: 0.9996389746665955
","x: 257.85504150390625
y: 301.8646545410156
z: -0.32428523898124695
visibility: 0.9987272620201111
","x: 259.02520751953125
y: 301.9295959472656
z: -0.3242934048175812
visibility: 0.9987623691558838
","x: 260.1902770996094
y: 302.053466796875
z: -0.32433027029037476
visibility: 0.9987139701843262
","x: 254.59190368652344
y: 302.2965087890625
z: -0.32254892587661743
visibility: 0.9985961318016052
","x: 253.48008728027344
y: 302.6361389160156
z: -0.32264044880867004
visibility: 0.9986172318458557
","x: 252.44845581054688
y: 303.06298828125
z: -0.32268545031547546
visibility: 0.9986038208007812
","x: 262.2464904785156
y: 304.7691650390625
z: -0.2372273951768875
visibility: 0.9969579577445984
","x: 250.99378967285156
y: 306.1207275390625
z: -0.2262117862701416
visibility: 0.9967495799064636
","x: 258.5674133300781
y: 312.1037902832031
z: -0.30335289239883423
visibility: 0.9992959499359131
","x: 254.17105102539062
y: 312.8330383300781
z: -0.30030328035354614
visibility: 0.9991022348403931
","x: 272.6846923828125
y: 332.7720947265625
z: -0.18238738179206848
visibility: 0.9998050332069397
","x: 240.25543212890625
y: 336.733642578125
z: -0.16187617182731628
visibility: 0.999739408493042
","x: 286.6473388671875
y: 354.61968994140625
z: -0.2595765292644501
visibility: 0.9608814716339111
","x: 231.67410278320312
y: 371.4027404785156
z: -0.23311889171600342
visibility: 0.9700570106506348
","x: 270.093017578125
y: 380.1675109863281
z: -0.3903549909591675
visibility: 0.8977681994438171
","x: 241.92135620117188
y: 383.26043701171875
z: -0.36210352182388306
visibility: 0.914229691028595
","x: 266.6722412109375
y: 388.49688720703125
z: -0.4266514778137207
visibility: 0.8268537521362305
","x: 247.6429443359375
y: 391.518798828125
z: -0.39284154772758484
visibility: 0.838651716709137
","x: 264.49359130859375
y: 384.8472595214844
z: -0.42488884925842285
visibility: 0.8311333060264587
","x: 248.88616943359375
y: 389.21954345703125
z: -0.3962019085884094
visibility: 0.8424486517906189
","x: 265.3569641113281
y: 381.56658935546875
z: -0.39222103357315063
visibility: 0.8000253438949585
","x: 248.3720703125
y: 386.0714111328125
z: -0.3652644753456116
visibility: 0.8178051114082336
","x: 263.71124267578125
y: 407.9992980957031
z: -0.01725016161799431
visibility: 0.9996627569198608
","x: 246.21328735351562
y: 409.5498352050781
z: 0.017176607623696327
visibility: 0.9993966221809387
","x: 260.6410827636719
y: 462.5166320800781
z: -0.14346565306186676
visibility: 0.967726469039917
","x: 247.8262176513672
y: 465.75994873046875
z: 0.05453754588961601
visibility: 0.9141560792922974
","x: 262.66156005859375
y: 520.1709594726562
z: -0.03904177248477936
visibility: 0.9646785259246826
","x: 250.5404052734375
y: 510.6993408203125
z: 0.25036975741386414
visibility: 0.9120296835899353
","x: 262.1790466308594
y: 526.8551025390625
z: -0.035080332309007645
visibility: 0.7917526364326477
","x: 252.77578735351562
y: 516.372802734375
z: 0.25753283500671387
visibility: 0.769498348236084
","x: 260.95758056640625
y: 535.8060913085938
z: -0.1534532755613327
visibility: 0.9584884643554688
","x: 245.6434783935547
y: 525.5686645507812
z: 0.1783108413219452
visibility: 0.9209690690040588
",,,,,,,,,,,,,,,,,,,,,,,,,,,,,,,,,,,,,,,,,,
19,"x: 254.9585418701172
y: 320.57379150390625
z: -0.32596707344055176
visibility: 0.9996503591537476
","x: 256.9355773925781
y: 314.6875305175781
z: -0.3163016140460968
visibility: 0.9987574219703674
","x: 258.1285705566406
y: 314.8220520019531
z: -0.31632083654403687
visibility: 0.9987949728965759
","x: 259.3167419433594
y: 314.984619140625
z: -0.3164007067680359
visibility: 0.9987481236457825
","x: 253.6631622314453
y: 314.5510559082031
z: -0.31374701857566833
visibility: 0.9986082911491394
","x: 252.63665771484375
y: 314.5773010253906
z: -0.3138565421104431
visibility: 0.9986175894737244
","x: 251.71685791015625
y: 314.6993713378906
z: -0.3139181435108185
visibility: 0.9985884428024292
","x: 261.50054931640625
y: 317.79229736328125
z: -0.23820945620536804
visibility: 0.9971473813056946
","x: 250.6492462158203
y: 317.2806091308594
z: -0.22433392703533173
visibility: 0.9967663884162903
","x: 257.34735107421875
y: 326.6829833984375
z: -0.29605329036712646
visibility: 0.9993581175804138
","x: 253.08688354492188
y: 326.5155334472656
z: -0.29216495156288147
visibility: 0.9991621375083923
","x: 272.2922668457031
y: 344.65924072265625
z: -0.187001034617424
visibility: 0.9998229742050171
","x: 240.03704833984375
y: 347.76715087890625
z: -0.15238416194915771
visibility: 0.9997323155403137
","x: 287.6585693359375
y: 365.85272216796875
z: -0.24003496766090393
visibility: 0.9643979072570801
","x: 231.6287841796875
y: 376.54168701171875
z: -0.16702918708324432
visibility: 0.9722447991371155
","x: 269.9656982421875
y: 380.85089111328125
z: -0.35440728068351746
visibility: 0.8988802433013916
","x: 239.25718688964844
y: 392.10345458984375
z: -0.25184905529022217
visibility: 0.915453314781189
","x: 266.12628173828125
y: 391.41650390625
z: -0.38424259424209595
visibility: 0.8276801705360413
","x: 242.12362670898438
y: 399.8233337402344
z: -0.27168169617652893
visibility: 0.8417966961860657
","x: 263.8504638671875
y: 388.5431213378906
z: -0.38679400086402893
visibility: 0.8304004073143005
","x: 243.82473754882812
y: 395.85595703125
z: -0.28249484300613403
visibility: 0.8447054028511047
","x: 264.9715270996094
y: 384.4710693359375
z: -0.3563774824142456
visibility: 0.7931821942329407
","x: 243.9888916015625
y: 393.14447021484375
z: -0.25667905807495117
visibility: 0.8178667426109314
","x: 263.70806884765625
y: 416.3109130859375
z: -0.018115796148777008
visibility: 0.9996950030326843
","x: 246.28274536132812
y: 420.2330017089844
z: 0.0180343110114336
visibility: 0.9994340538978577
","x: 259.0030517578125
y: 464.2769775390625
z: -0.25628721714019775
visibility: 0.9697363376617432
","x: 246.41131591796875
y: 478.3833312988281
z: 0.05524598807096481
visibility: 0.9021406173706055
","x: 260.9386291503906
y: 521.3643798828125
z: -0.19104935228824615
visibility: 0.9663197994232178
","x: 250.66555786132812
y: 507.9214782714844
z: 0.3210151791572571
visibility: 0.8502837419509888
","x: 261.53717041015625
y: 529.333740234375
z: -0.18943624198436737
visibility: 0.7721204161643982
","x: 252.20816040039062
y: 509.4217224121094
z: 0.34381070733070374
visibility: 0.7207581996917725
","x: 257.0565490722656
y: 538.3111572265625
z: -0.30566293001174927
visibility: 0.9593096971511841
","x: 246.65516662597656
y: 524.3446044921875
z: 0.2892049551010132
visibility: 0.8729745745658875
",,,,,,,,,,,,,,,,,,,,,,,,,,,,,,,,,,,,,,,,,,
20,"x: 255.1248016357422
y: 319.5783386230469
z: -0.3483055531978607
visibility: 0.9996747374534607
","x: 257.048583984375
y: 314.14617919921875
z: -0.33475205302238464
visibility: 0.9988561868667603
","x: 258.2375793457031
y: 314.2958679199219
z: -0.3347923457622528
visibility: 0.9988872408866882
","x: 259.35870361328125
y: 314.5234069824219
z: -0.33486640453338623
visibility: 0.9988431930541992
","x: 253.75112915039062
y: 314.0934143066406
z: -0.3338135778903961
visibility: 0.9987175464630127
","x: 252.71131896972656
y: 314.208251953125
z: -0.33388373255729675
visibility: 0.9987245202064514
","x: 251.75714111328125
y: 314.4381408691406
z: -0.33391618728637695
visibility: 0.998695433139801
","x: 261.5472412109375
y: 317.3616943359375
z: -0.2433331310749054
visibility: 0.9973897933959961
","x: 250.64866638183594
y: 317.1501770019531
z: -0.23667848110198975
visibility: 0.9970356225967407
","x: 257.5247802734375
y: 325.9127502441406
z: -0.31363028287887573
visibility: 0.9994192123413086
","x: 253.12440490722656
y: 326.55303955078125
z: -0.31186094880104065
visibility: 0.9992399215698242
","x: 271.66510009765625
y: 344.94281005859375
z: -0.19093799591064453
visibility: 0.9998393058776855
","x: 240.15432739257812
y: 349.77716064453125
z: -0.15664851665496826
visibility: 0.9997431635856628
","x: 286.8134460449219
y: 371.6737365722656
z: -0.276123583316803
visibility: 0.9674157500267029
","x: 232.64366149902344
y: 384.49200439453125
z: -0.18108442425727844
visibility: 0.9744325876235962
","x: 268.1173400878906
y: 379.609619140625
z: -0.43824028968811035
visibility: 0.9031528234481812
","x: 239.86453247070312
y: 403.37762451171875
z: -0.2936871647834778
visibility: 0.9204389452934265
","x: 264.474853515625
y: 388.8765869140625
z: -0.48147717118263245
visibility: 0.8344905972480774
","x: 241.92727661132812
y: 411.9932861328125
z: -0.32055342197418213
visibility: 0.8507549166679382
","x: 262.6881103515625
y: 386.0311279296875
z: -0.4787442088127136
visibility: 0.8362901210784912
","x: 245.32421875
y: 412.8157958984375
z: -0.3335590064525604
visibility: 0.8530691266059875
","x: 263.6202087402344
y: 382.9867858886719
z: -0.44038891792297363
visibility: 0.7952688336372375
","x: 244.21031188964844
y: 405.1264953613281
z: -0.3000451922416687
visibility: 0.8250778913497925
","x: 263.503173828125
y: 419.263916015625
z: -0.020635563880205154
visibility: 0.9997208118438721
","x: 246.1860809326172
y: 421.13824462890625
z: 0.02060704119503498
visibility: 0.9994292259216309
","x: 258.5417785644531
y: 468.3394775390625
z: -0.20136156678199768
visibility: 0.9715626239776611
","x: 245.97244262695312
y: 476.85491943359375
z: 0.04842190444469452
visibility: 0.9017907977104187
","x: 260.4601745605469
y: 524.899658203125
z: -0.07422707974910736
visibility: 0.9681110978126526
","x: 250.088134765625
y: 511.8065185546875
z: 0.2876562476158142
visibility: 0.8380603790283203
","x: 261.048583984375
y: 530.8775634765625
z: -0.06766699254512787
visibility: 0.7660338282585144
","x: 251.5766143798828
y: 513.954833984375
z: 0.30700191855430603
visibility: 0.7035700678825378
","x: 258.1352844238281
y: 539.0258178710938
z: -0.18329165875911713
visibility: 0.9600706100463867
","x: 246.67445373535156
y: 527.1611938476562
z: 0.2302863597869873
visibility: 0.8640337586402893
",,,,,,,,,,,,,,,,,,,,,,,,,,,,,,,,,,,,,,,,,,
21,"x: 255.45240783691406
y: 317.3844299316406
z: -0.15633009374141693
visibility: 0.9993199110031128
","x: 257.18182373046875
y: 312.29534912109375
z: -0.14238515496253967
visibility: 0.9983592629432678
","x: 258.3291320800781
y: 312.3517150878906
z: -0.14246216416358948
visibility: 0.9984279870986938
","x: 259.3774108886719
y: 312.4352722167969
z: -0.1425285041332245
visibility: 0.9984448552131653
","x: 254.0398712158203
y: 312.3856201171875
z: -0.14103221893310547
visibility: 0.9979953169822693
","x: 253.01370239257812
y: 312.5098571777344
z: -0.1410389542579651
visibility: 0.9977469444274902
","x: 252.0811309814453
y: 312.7257080078125
z: -0.14107976853847504
visibility: 0.9974302053451538
","x: 261.5695495605469
y: 315.08221435546875
z: -0.06700539588928223
visibility: 0.9969624876976013
","x: 250.92233276367188
y: 315.3021545410156
z: -0.05955367535352707
visibility: 0.9950547814369202
","x: 257.7569885253906
y: 323.49688720703125
z: -0.12820087373256683
visibility: 0.999245285987854
","x: 253.46102905273438
y: 323.86895751953125
z: -0.12619850039482117
visibility: 0.9986589550971985
","x: 271.0987548828125
y: 343.7525939941406
z: -0.0532524399459362
visibility: 0.9998329877853394
","x: 241.21519470214844
y: 348.37481689453125
z: -0.024525340646505356
visibility: 0.9993895888328552
","x: 272.7242736816406
y: 377.030517578125
z: -0.13180407881736755
visibility: 0.9652349948883057
","x: 241.25181579589844
y: 382.908447265625
z: -0.06956271827220917
visibility: 0.9554954767227173
","x: 250.6019287109375
y: 375.9002685546875
z: -0.24365556240081787
visibility: 0.8976479172706604
","x: 255.27940368652344
y: 394.3511657714844
z: -0.16026538610458374
visibility: 0.8734603524208069
","x: 246.20187377929688
y: 374.69439697265625
z: -0.27528318762779236
visibility: 0.8294447660446167
","x: 259.1537780761719
y: 400.0674133300781
z: -0.18323737382888794
visibility: 0.8045303225517273
","x: 245.92718505859375
y: 371.03857421875
z: -0.2678850293159485
visibility: 0.8312778472900391
","x: 259.5021667480469
y: 395.4271240234375
z: -0.18569780886173248
visibility: 0.8059425950050354
","x: 247.8275604248047
y: 372.17718505859375
z: -0.24235621094703674
visibility: 0.7850669026374817
","x: 258.2182922363281
y: 392.356201171875
z: -0.16313432157039642
visibility: 0.7733819484710693
","x: 263.2960205078125
y: 418.0098876953125
z: -0.013323068618774414
visibility: 0.9997426271438599
","x: 246.18804931640625
y: 418.78704833984375
z: 0.013424063101410866
visibility: 0.9994196891784668
","x: 259.1960144042969
y: 468.1704406738281
z: -0.18056806921958923
visibility: 0.9732407331466675
","x: 246.29324340820312
y: 478.59356689453125
z: 0.039664506912231445
visibility: 0.9047119617462158
","x: 260.36322021484375
y: 525.6767578125
z: -0.11309631168842316
visibility: 0.9691274762153625
","x: 249.69580078125
y: 511.533203125
z: 0.2598304748535156
visibility: 0.8236461281776428
","x: 260.2055969238281
y: 531.4713745117188
z: -0.10992653667926788
visibility: 0.7726590633392334
","x: 250.86158752441406
y: 512.7982788085938
z: 0.2821682095527649
visibility: 0.6745674014091492
","x: 259.365478515625
y: 538.657958984375
z: -0.20921006798744202
visibility: 0.9607670307159424
","x: 246.99685668945312
y: 526.9566040039062
z: 0.21199408173561096
visibility: 0.8480688333511353
",,,,,,,,,,,,,,,,,,,,,,,,,,,,,,,,,,,,,,,,,,
22,"x: 255.41427612304688
y: 316.8979797363281
z: -0.16380634903907776
visibility: 0.9990138411521912
","x: 257.19085693359375
y: 311.6453857421875
z: -0.15073129534721375
visibility: 0.9979161024093628
","x: 258.34820556640625
y: 311.79559326171875
z: -0.15080443024635315
visibility: 0.9980623722076416
","x: 259.4132080078125
y: 311.99761962890625
z: -0.15087537467479706
visibility: 0.9981205463409424
","x: 253.9766082763672
y: 311.4361267089844
z: -0.1490970402956009
visibility: 0.9973033666610718
","x: 252.94647216796875
y: 311.4352111816406
z: -0.14910660684108734
visibility: 0.9969215989112854
","x: 252.00975036621094
y: 311.5491027832031
z: -0.14913761615753174
visibility: 0.9963212013244629
","x: 261.6107482910156
y: 314.7107238769531
z: -0.07582833617925644
visibility: 0.996794581413269
","x: 250.91062927246094
y: 314.274169921875
z: -0.06643794476985931
visibility: 0.9931527972221375
","x: 257.77484130859375
y: 323.1062316894531
z: -0.13558544218540192
visibility: 0.9991607069969177
","x: 253.40989685058594
y: 322.949462890625
z: -0.1330835521221161
visibility: 0.9982621073722839
","x: 270.8887023925781
y: 342.4934387207031
z: -0.05502871423959732
visibility: 0.9998354315757751
","x: 241.31166076660156
y: 346.8824768066406
z: -0.017854999750852585
visibility: 0.9989530444145203
","x: 274.9496765136719
y: 378.2943115234375
z: -0.12729349732398987
visibility: 0.9663165211677551
","x: 241.0963134765625
y: 382.8784484863281
z: -0.05815816670656204
visibility: 0.9359048008918762
","x: 253.76478576660156
y: 374.22894287109375
z: -0.24043193459510803
visibility: 0.8993539810180664
","x: 250.67929077148438
y: 384.1842956542969
z: -0.16831696033477783
visibility: 0.8387743234634399
","x: 248.38040161132812
y: 375.49542236328125
z: -0.2708349823951721
visibility: 0.8319873213768005
","x: 253.2127685546875
y: 387.26702880859375
z: -0.19258859753608704
visibility: 0.7702904939651489
","x: 247.1646270751953
y: 372.0447082519531
z: -0.2664802670478821
visibility: 0.8335889577865601
","x: 253.430419921875
y: 382.5010986328125
z: -0.19794286787509918
visibility: 0.7709311842918396
","x: 249.06126403808594
y: 371.7713623046875
z: -0.23996734619140625
visibility: 0.7836592197418213
","x: 252.9475860595703
y: 381.128662109375
z: -0.17280319333076477
visibility: 0.7332444787025452
","x: 263.4194030761719
y: 416.2826843261719
z: -0.01332533173263073
visibility: 0.9997541308403015
","x: 246.28431701660156
y: 417.1348571777344
z: 0.01342792809009552
visibility: 0.9993591904640198
","x: 259.96221923828125
y: 467.88629150390625
z: -0.16466329991817474
visibility: 0.975166916847229
","x: 246.44338989257812
y: 475.6495361328125
z: 0.03474356234073639
visibility: 0.9092894792556763
","x: 260.60479736328125
y: 525.4688720703125
z: -0.08099956810474396
visibility: 0.9706913828849792
","x: 249.51611328125
y: 512.7324829101562
z: 0.22226722538471222
visibility: 0.8272366523742676
","x: 260.4830627441406
y: 531.1157836914062
z: -0.07674304395914078
visibility: 0.7748734354972839
","x: 250.9262237548828
y: 514.7263793945312
z: 0.23765623569488525
visibility: 0.6647080779075623
","x: 259.7510681152344
y: 538.388916015625
z: -0.1784590184688568
visibility: 0.9617785215377808
","x: 246.92654418945312
y: 527.6458129882812
z: 0.17061075568199158
visibility: 0.8479090929031372
",,,,,,,,,,,,,,,,,,,,,,,,,,,,,,,,,,,,,,,,,,
23,"x: 257.089111328125
y: 311.1888427734375
z: -0.1936415433883667
visibility: 0.9990848302841187
","x: 258.81268310546875
y: 307.292724609375
z: -0.17904499173164368
visibility: 0.9980713725090027
","x: 259.8331298828125
y: 307.5169982910156
z: -0.17909249663352966
visibility: 0.9982008337974548
","x: 260.7646789550781
y: 307.7705993652344
z: -0.1791342943906784
visibility: 0.9982540011405945
","x: 255.5912322998047
y: 307.115966796875
z: -0.17990100383758545
visibility: 0.9975116848945618
","x: 254.4027862548828
y: 307.27545166015625
z: -0.17992813885211945
visibility: 0.997166633605957
","x: 253.26651000976562
y: 307.5303039550781
z: -0.179948091506958
visibility: 0.9966210126876831
","x: 262.197509765625
y: 311.86798095703125
z: -0.09589505940675735
visibility: 0.9970319867134094
","x: 251.51641845703125
y: 312.0765380859375
z: -0.09721307456493378
visibility: 0.9937110543251038
","x: 258.94677734375
y: 317.32470703125
z: -0.16263578832149506
visibility: 0.9992347955703735
","x: 254.9269256591797
y: 317.50103759765625
z: -0.16320264339447021
visibility: 0.9984154105186462
","x: 271.3968505859375
y: 340.25762939453125
z: -0.05992468073964119
visibility: 0.9998463988304138
","x: 242.16250610351562
y: 345.83172607421875
z: -0.049414005130529404
visibility: 0.9989902377128601
","x: 277.1724853515625
y: 376.52716064453125
z: -0.12293306738138199
visibility: 0.9670610427856445
","x: 241.00704956054688
y: 381.50653076171875
z: -0.0822562426328659
visibility: 0.9367994070053101
","x: 260.3080139160156
y: 377.39111328125
z: -0.2485617697238922
visibility: 0.8954289555549622
","x: 247.48097229003906
y: 385.0841064453125
z: -0.19403037428855896
visibility: 0.8411974906921387
","x: 255.6851348876953
y: 381.654052734375
z: -0.2901971638202667
visibility: 0.8287496566772461
","x: 249.65806579589844
y: 389.1482238769531
z: -0.22589623928070068
visibility: 0.7741802930831909
","x: 256.4892272949219
y: 377.8415222167969
z: -0.29026490449905396
visibility: 0.8301894068717957
","x: 253.7307586669922
y: 383.21893310546875
z: -0.23531389236450195
visibility: 0.7746837139129639
","x: 252.9127655029297
y: 375.08740234375
z: -0.25246793031692505
visibility: 0.7782837748527527
","x: 253.49618530273438
y: 382.7845764160156
z: -0.19995953142642975
visibility: 0.7341762185096741
","x: 264.1985778808594
y: 416.03741455078125
z: -0.013408930972218513
visibility: 0.9997730851173401
","x: 247.19778442382812
y: 415.66796875
z: 0.013517186045646667
visibility: 0.9993835091590881
","x: 261.1957702636719
y: 467.3715515136719
z: -0.12068842351436615
visibility: 0.9773646593093872
","x: 246.4864501953125
y: 471.2301940917969
z: 0.06261275708675385
visibility: 0.9160527586936951
","x: 261.4967956542969
y: 525.1574096679688
z: -0.022066431120038033
visibility: 0.9731525182723999
","x: 249.5689239501953
y: 510.00775146484375
z: 0.27334922552108765
visibility: 0.8385574221611023
","x: 260.9393615722656
y: 530.9842529296875
z: -0.01702144742012024
visibility: 0.7804816961288452
","x: 251.32615661621094
y: 511.148193359375
z: 0.2909042239189148
visibility: 0.6716619729995728
","x: 259.9994201660156
y: 538.2169799804688
z: -0.12111560255289078
visibility: 0.9645811915397644
","x: 246.9138946533203
y: 526.1373291015625
z: 0.2236950397491455
visibility: 0.8579204082489014
",,,,,,,,,,,,,,,,,,,,,,,,,,,,,,,,,,,,,,,,,,
24,"x: 258.1301574707031
y: 276.8800048828125
z: -0.21467888355255127
visibility: 0.9991705417633057
","x: 260.1033935546875
y: 271.97344970703125
z: -0.2002921849489212
visibility: 0.9982528686523438
","x: 261.26348876953125
y: 272.51544189453125
z: -0.20032362639904022
visibility: 0.9983686804771423
","x: 262.4722595214844
y: 272.97479248046875
z: -0.20034435391426086
visibility: 0.998414933681488
","x: 256.66937255859375
y: 271.39129638671875
z: -0.20392146706581116
visibility: 0.997748851776123
","x: 255.4043426513672
y: 271.5795593261719
z: -0.20393440127372742
visibility: 0.9974372982978821
","x: 254.15846252441406
y: 271.701416015625
z: -0.20396414399147034
visibility: 0.9969435930252075
","x: 263.7243957519531
y: 277.97845458984375
z: -0.11560685932636261
visibility: 0.997300922870636
","x: 252.15328979492188
y: 276.2877197265625
z: -0.12831297516822815
visibility: 0.9943282008171082
","x: 260.2816162109375
y: 284.78765869140625
z: -0.1828300803899765
visibility: 0.9993087649345398
","x: 256.1164245605469
y: 284.18817138671875
z: -0.18713617324829102
visibility: 0.998569667339325
","x: 272.69232177734375
y: 311.6986389160156
z: -0.06718502938747406
visibility: 0.9998539090156555
","x: 242.23623657226562
y: 315.5414123535156
z: -0.06357838213443756
visibility: 0.9990544319152832
","x: 278.6358947753906
y: 347.1258850097656
z: -0.07520376145839691
visibility: 0.9552561044692993
","x: 243.2174530029297
y: 355.68719482421875
z: -0.035635486245155334
visibility: 0.9296082854270935
","x: 264.5472717285156
y: 359.8236389160156
z: -0.17761613428592682
visibility: 0.8516507744789124
","x: 254.11119079589844
y: 369.7962646484375
z: -0.026537727564573288
visibility: 0.8157539963722229
","x: 261.4437255859375
y: 370.21075439453125
z: -0.20416009426116943
visibility: 0.7883098125457764
","x: 255.85198974609375
y: 373.8116149902344
z: -0.03855425864458084
visibility: 0.7463746070861816
","x: 262.0443420410156
y: 365.4114074707031
z: -0.21552038192749023
visibility: 0.7898693680763245
","x: 256.2267761230469
y: 369.0109558105469
z: -0.05447052791714668
visibility: 0.747416079044342
","x: 261.30780029296875
y: 361.2325439453125
z: -0.1843753159046173
visibility: 0.7401449680328369
","x: 255.92324829101562
y: 368.6181640625
z: -0.03139130026102066
visibility: 0.7072281837463379
","x: 265.3671875
y: 397.4503173828125
z: -0.006031223572790623
visibility: 0.999792754650116
","x: 248.3494110107422
y: 396.93719482421875
z: 0.006077029276639223
visibility: 0.9994270205497742
","x: 262.1265869140625
y: 464.9547119140625
z: -0.05199597403407097
visibility: 0.9794558882713318
","x: 247.45301818847656
y: 454.07220458984375
z: 0.07107172906398773
visibility: 0.9236621856689453
","x: 262.11199951171875
y: 520.37451171875
z: 0.07564926892518997
visibility: 0.9756191372871399
","x: 249.7232208251953
y: 482.296630859375
z: 0.34647542238235474
visibility: 0.8505376577377319
","x: 261.15643310546875
y: 526.0405883789062
z: 0.0830441266298294
visibility: 0.7968508005142212
","x: 251.4993133544922
y: 482.9813232421875
z: 0.3710663914680481
visibility: 0.6867767572402954
","x: 260.9967346191406
y: 536.9276123046875
z: -0.0181046761572361
visibility: 0.9676050543785095
","x: 247.6864471435547
y: 507.14910888671875
z: 0.31141579151153564
visibility: 0.8687145113945007
",,,,,,,,,,,,,,,,,,,,,,,,,,,,,,,,,,,,,,,,,,
25,"x: 259.7445373535156
y: 265.71435546875
z: -0.128916397690773
visibility: 0.9992479085922241
","x: 261.1115417480469
y: 260.351806640625
z: -0.1125383973121643
visibility: 0.9984215497970581
","x: 262.16217041015625
y: 260.4632873535156
z: -0.11259593069553375
visibility: 0.9985250234603882
","x: 263.3375244140625
y: 260.5632629394531
z: -0.11262331902980804
visibility: 0.9985671043395996
","x: 258.0620422363281
y: 260.8804931640625
z: -0.11633212864398956
visibility: 0.9979659914970398
","x: 256.9020080566406
y: 261.3064270019531
z: -0.11633410304784775
visibility: 0.997684121131897
","x: 255.68690490722656
y: 261.6965026855469
z: -0.11634496599435806
visibility: 0.9972403049468994
","x: 264.5826416015625
y: 264.8307189941406
z: -0.02282809093594551
visibility: 0.9975618124008179
","x: 253.1260528564453
y: 265.3372497558594
z: -0.03825777396559715
visibility: 0.9948897361755371
","x: 261.9168395996094
y: 273.01324462890625
z: -0.09501592069864273
visibility: 0.9993749260902405
","x: 258.1936340332031
y: 272.86993408203125
z: -0.09965115040540695
visibility: 0.9987067580223083
","x: 273.64178466796875
y: 297.5484924316406
z: 0.007344870828092098
visibility: 0.999860942363739
","x: 243.7067413330078
y: 302.72015380859375
z: -0.008261794224381447
visibility: 0.9990916848182678
","x: 280.0050964355469
y: 331.7962951660156
z: -0.09464552998542786
visibility: 0.9504418969154358
","x: 246.5821533203125
y: 342.65496826171875
z: -0.06442443281412125
visibility: 0.9254245758056641
","x: 268.31292724609375
y: 320.01861572265625
z: -0.19181951880455017
visibility: 0.8492478132247925
","x: 263.7362060546875
y: 332.3509216308594
z: -0.11038985103368759
visibility: 0.8183705806732178
","x: 266.7495422363281
y: 316.4801330566406
z: -0.22610671818256378
visibility: 0.7857648134231567
","x: 265.95721435546875
y: 326.8706970214844
z: -0.06589924544095993
visibility: 0.7487910389900208
","x: 266.5335693359375
y: 312.48828125
z: -0.25628483295440674
visibility: 0.7860392332077026
","x: 266.1147766113281
y: 323.53314208984375
z: -0.1594657599925995
visibility: 0.7483003735542297
","x: 266.61004638671875
y: 314.2241516113281
z: -0.20028074085712433
visibility: 0.7372656464576721
","x: 264.9307861328125
y: 328.2868957519531
z: -0.12906046211719513
visibility: 0.705841064453125
","x: 267.09735107421875
y: 389.60498046875
z: -0.007493861019611359
visibility: 0.9998089075088501
","x: 249.64720153808594
y: 388.9132080078125
z: 0.007529891096055508
visibility: 0.9994653463363647
","x: 264.5455322265625
y: 459.9735107421875
z: -0.03807999938726425
visibility: 0.9807483553886414
","x: 247.49021911621094
y: 444.8074951171875
z: -0.047722671180963516
visibility: 0.9305989146232605
","x: 263.2677001953125
y: 519.4290771484375
z: 0.0884353369474411
visibility: 0.977491021156311
","x: 259.8689270019531
y: 471.35498046875
z: 0.20066137611865997
visibility: 0.8559048771858215
","x: 262.0022888183594
y: 526.2824096679688
z: 0.09639359265565872
visibility: 0.8053451776504517
","x: 263.6268615722656
y: 469.1314697265625
z: 0.22452159225940704
visibility: 0.6920254230499268
","x: 262.7257995605469
y: 536.4085693359375
z: 0.007898708805441856
visibility: 0.9698464870452881
","x: 261.42425537109375
y: 497.5543212890625
z: 0.18973174691200256
visibility: 0.8741886615753174
",,,,,,,,,,,,,,,,,,,,,,,,,,,,,,,,,,,,,,,,,,
26,"x: 261.7633972167969
y: 267.22357177734375
z: -0.14817044138908386
visibility: 0.9993157386779785
","x: 263.23248291015625
y: 262.15631103515625
z: -0.1319153606891632
visibility: 0.9985682964324951
","x: 264.4741516113281
y: 262.44970703125
z: -0.13198432326316833
visibility: 0.9986592531204224
","x: 265.7906494140625
y: 262.8407897949219
z: -0.13202820718288422
visibility: 0.9986986517906189
","x: 259.8575134277344
y: 262.3253173828125
z: -0.13350200653076172
visibility: 0.9981563687324524
","x: 258.52838134765625
y: 262.6766662597656
z: -0.1335095465183258
visibility: 0.9978983998298645
","x: 257.1399841308594
y: 263.06591796875
z: -0.1335504949092865
visibility: 0.9975004196166992
","x: 267.60797119140625
y: 267.6368103027344
z: -0.04242599755525589
visibility: 0.997776448726654
","x: 254.94801330566406
y: 267.8845520019531
z: -0.047769881784915924
visibility: 0.9953855276107788
","x: 264.1581726074219
y: 274.159912109375
z: -0.11444561183452606
visibility: 0.9994295835494995
","x: 260.2384033203125
y: 274.0860595703125
z: -0.11608079820871353
visibility: 0.9988216757774353
","x: 275.26708984375
y: 301.00238037109375
z: -0.006844706833362579
visibility: 0.9998475313186646
","x: 245.2816162109375
y: 304.5523376464844
z: -0.010634679347276688
visibility: 0.9990804195404053
","x: 281.4100341796875
y: 337.1458435058594
z: -0.06723065674304962
visibility: 0.9228157997131348
","x: 248.7842254638672
y: 347.5168151855469
z: -0.021611379459500313
visibility: 0.9034801125526428
","x: 275.05731201171875
y: 339.18023681640625
z: -0.20574092864990234
visibility: 0.8087756037712097
","x: 263.1116943359375
y: 349.2589111328125
z: -0.08333390951156616
visibility: 0.7877797484397888
","x: 270.3658142089844
y: 344.55035400390625
z: -0.23672416806221008
visibility: 0.753726065158844
","x: 265.1998291015625
y: 352.3098449707031
z: -0.10448642075061798
visibility: 0.7230144143104553
","x: 270.2861328125
y: 339.1991882324219
z: -0.24793240427970886
visibility: 0.7555609345436096
","x: 266.06732177734375
y: 347.7930908203125
z: -0.11768492311239243
visibility: 0.7233139872550964
","x: 270.5133361816406
y: 337.7946472167969
z: -0.2127773016691208
visibility: 0.7087504863739014
","x: 265.9969787597656
y: 345.319580078125
z: -0.08904975652694702
visibility: 0.6802529692649841
","x: 268.7558898925781
y: 391.885498046875
z: -0.008602745831012726
visibility: 0.9998223781585693
","x: 250.85919189453125
y: 390.2005310058594
z: 0.008627889677882195
visibility: 0.9995033740997314
","x: 265.69073486328125
y: 459.38970947265625
z: -0.06895267218351364
visibility: 0.9818071126937866
","x: 247.4874725341797
y: 445.67999267578125
z: -0.04841560870409012
visibility: 0.9370731711387634
","x: 263.39093017578125
y: 518.0272827148438
z: 0.06461106240749359
visibility: 0.9792436361312866
","x: 261.4650573730469
y: 474.528564453125
z: 0.22215978801250458
visibility: 0.8651139736175537
","x: 262.02532958984375
y: 525.208984375
z: 0.07359610497951508
visibility: 0.8179006576538086
","x: 265.7350769042969
y: 472.03564453125
z: 0.2468971461057663
visibility: 0.7065719962120056
","x: 262.8270263671875
y: 535.6321411132812
z: -0.013488925993442535
visibility: 0.9720361828804016
","x: 261.4139099121094
y: 501.6279602050781
z: 0.2007857859134674
visibility: 0.881457507610321
",,,,,,,,,,,,,,,,,,,,,,,,,,,,,,,,,,,,,,,,,,
27,"x: 261.8575439453125
y: 270.691650390625
z: -0.16354866325855255
visibility: 0.999380886554718
","x: 263.7677917480469
y: 264.6026306152344
z: -0.1456950604915619
visibility: 0.9987062215805054
","x: 265.1096496582031
y: 264.5929260253906
z: -0.14575573801994324
visibility: 0.998786985874176
","x: 266.46453857421875
y: 264.7185974121094
z: -0.14580848813056946
visibility: 0.998822033405304
","x: 260.140625
y: 265.2945861816406
z: -0.14786392450332642
visibility: 0.9983351230621338
","x: 258.74456787109375
y: 265.7235107421875
z: -0.1478855162858963
visibility: 0.9981022477149963
","x: 257.29376220703125
y: 266.2289123535156
z: -0.14791962504386902
visibility: 0.9977443814277649
","x: 267.81634521484375
y: 268.4140625
z: -0.053898297250270844
visibility: 0.9979866743087769
","x: 255.01132202148438
y: 269.99908447265625
z: -0.061768896877765656
visibility: 0.9958417415618896
","x: 263.9524230957031
y: 277.7691650390625
z: -0.1291632503271103
visibility: 0.9994808435440063
","x: 259.9459533691406
y: 278.1515808105469
z: -0.13158966600894928
visibility: 0.9989291429519653
","x: 277.1102294921875
y: 303.7069396972656
z: -0.012693938799202442
visibility: 0.9998366832733154
","x: 245.39183044433594
y: 306.7597351074219
z: -0.030740171670913696
visibility: 0.9990760684013367
","x: 283.10064697265625
y: 340.30029296875
z: -0.03492821753025055
visibility: 0.902894139289856
","x: 247.97335815429688
y: 348.1856689453125
z: -0.04960804432630539
visibility: 0.8891715407371521
","x: 274.08917236328125
y: 340.8136291503906
z: -0.1072472333908081
visibility: 0.7816914916038513
","x: 264.69696044921875
y: 348.08123779296875
z: -0.10077796131372452
visibility: 0.7662525773048401
","x: 269.4075927734375
y: 343.1889343261719
z: -0.12395284324884415
visibility: 0.7258349657058716
","x: 268.416259765625
y: 351.29296875
z: -0.12159687280654907
visibility: 0.7010591626167297
","x: 269.9893798828125
y: 340.56591796875
z: -0.12617246806621552
visibility: 0.7275906205177307
","x: 269.15631103515625
y: 346.3458251953125
z: -0.12490139901638031
visibility: 0.7002674341201782
","x: 269.7872314453125
y: 336.9439392089844
z: -0.10895315557718277
visibility: 0.6820390820503235
","x: 267.32342529296875
y: 345.4415283203125
z: -0.10278066247701645
visibility: 0.6568928956985474
","x: 269.1269836425781
y: 394.7241516113281
z: -0.008587760850787163
visibility: 0.9998362064361572
","x: 251.19277954101562
y: 391.94635009765625
z: 0.008604628965258598
visibility: 0.9995436668395996
","x: 266.1705017089844
y: 459.9118347167969
z: -0.06302308291196823
visibility: 0.9823150634765625
","x: 247.6283416748047
y: 447.94873046875
z: -0.06863129138946533
visibility: 0.9425131678581238
","x: 263.3572692871094
y: 516.2672119140625
z: 0.08574702590703964
visibility: 0.980138897895813
","x: 261.91015625
y: 476.8871765136719
z: 0.21053914725780487
visibility: 0.8694557547569275
","x: 261.86328125
y: 524.1358642578125
z: 0.09717150777578354
visibility: 0.8251221776008606
","x: 265.921630859375
y: 475.2796936035156
z: 0.23804731667041779
visibility: 0.7094743847846985
","x: 263.2276306152344
y: 533.1168823242188
z: 0.019040022045373917
visibility: 0.9730181097984314
","x: 261.2597351074219
y: 503.450927734375
z: 0.202031210064888
visibility: 0.8848148584365845
",,,,,,,,,,,,,,,,,,,,,,,,,,,,,,,,,,,,,,,,,,
28,"x: 262.2269287109375
y: 278.03204345703125
z: -0.20046181976795197
visibility: 0.9993417859077454
","x: 264.13995361328125
y: 272.4608154296875
z: -0.1791694462299347
visibility: 0.998564600944519
","x: 265.48297119140625
y: 272.64434814453125
z: -0.1792283058166504
visibility: 0.9986255764961243
","x: 266.8743896484375
y: 272.8907470703125
z: -0.1792449653148651
visibility: 0.9986655712127686
","x: 260.474365234375
y: 272.48583984375
z: -0.18596576154232025
visibility: 0.9982443451881409
","x: 259.0335388183594
y: 272.65972900390625
z: -0.18597719073295593
visibility: 0.998022198677063
","x: 257.5683288574219
y: 272.87615966796875
z: -0.18603943288326263
visibility: 0.9977034330368042
","x: 268.87469482421875
y: 276.59527587890625
z: -0.06509717553853989
visibility: 0.9975485801696777
","x: 255.27243041992188
y: 276.79248046875
z: -0.10199320316314697
visibility: 0.9958804249763489
","x: 264.2550354003906
y: 285.14349365234375
z: -0.16180667281150818
visibility: 0.9994155764579773
","x: 260.0210266113281
y: 285.15216064453125
z: -0.1695140153169632
visibility: 0.9988887906074524
","x: 277.8236083984375
y: 309.6995849609375
z: -0.04208723455667496
visibility: 0.99977707862854
","x: 245.3897705078125
y: 313.0151672363281
z: -0.07181380689144135
visibility: 0.9990453720092773
","x: 283.6885681152344
y: 353.10382080078125
z: -0.09007321298122406
visibility: 0.9069249629974365
","x: 246.85595703125
y: 354.0031433105469
z: -0.08247565478086472
visibility: 0.893973708152771
","x: 271.9574890136719
y: 349.5771789550781
z: -0.24528101086616516
visibility: 0.7873805165290833
","x: 266.39105224609375
y: 358.15679931640625
z: -0.14470161497592926
visibility: 0.7766604423522949
","x: 264.96588134765625
y: 354.15167236328125
z: -0.2811068296432495
visibility: 0.7277112603187561
","x: 270.75347900390625
y: 362.6872253417969
z: -0.1737542748451233
visibility: 0.7109860181808472
","x: 264.27313232421875
y: 348.9330749511719
z: -0.27853474020957947
visibility: 0.7292937636375427
","x: 271.162841796875
y: 358.75250244140625
z: -0.17919306457042694
visibility: 0.7095127105712891
","x: 267.03778076171875
y: 347.4580383300781
z: -0.24743659794330597
visibility: 0.6826745867729187
","x: 269.1430358886719
y: 357.12567138671875
z: -0.1468786895275116
visibility: 0.6631172895431519
","x: 269.7886047363281
y: 395.3065490722656
z: -0.0013341107405722141
visibility: 0.999786913394928
","x: 252.01217651367188
y: 392.4984436035156
z: 0.0013209979515522718
visibility: 0.9994946718215942
","x: 268.2268981933594
y: 460.22650146484375
z: -0.030981624498963356
visibility: 0.9804193377494812
","x: 251.6713409423828
y: 450.5082702636719
z: -0.020950252190232277
visibility: 0.9459392428398132
","x: 264.87445068359375
y: 516.4310302734375
z: 0.13902130722999573
visibility: 0.9776219725608826
","x: 259.9194030761719
y: 497.8341064453125
z: 0.21528443694114685
visibility: 0.8755389451980591
","x: 263.1330261230469
y: 523.725830078125
z: 0.15194013714790344
visibility: 0.8222393989562988
","x: 262.87127685546875
y: 503.69061279296875
z: 0.2356698215007782
visibility: 0.7103750109672546
","x: 265.39923095703125
y: 531.0628051757812
z: 0.06305867433547974
visibility: 0.9704630374908447
","x: 259.3760986328125
y: 524.24462890625
z: 0.16652922332286835
visibility: 0.8888112902641296
",,,,,,,,,,,,,,,,,,,,,,,,,,,,,,,,,,,,,,,,,,
29,"x: 262.7432556152344
y: 297.6556091308594
z: -0.2257574051618576
visibility: 0.9993981122970581
","x: 264.2884826660156
y: 293.13330078125
z: -0.21092645823955536
visibility: 0.9986801743507385
","x: 265.4059753417969
y: 293.4268493652344
z: -0.21095693111419678
visibility: 0.998731791973114
","x: 266.6021423339844
y: 293.8360290527344
z: -0.21097373962402344
visibility: 0.9987697005271912
","x: 261.2484130859375
y: 293.10467529296875
z: -0.21104586124420166
visibility: 0.998391330242157
","x: 260.0296630859375
y: 293.3104248046875
z: -0.21109485626220703
visibility: 0.9981853365898132
","x: 258.73236083984375
y: 293.6187744140625
z: -0.21115145087242126
visibility: 0.997899055480957
","x: 268.6517333984375
y: 298.83111572265625
z: -0.12577255070209503
visibility: 0.9976887702941895
","x: 256.48126220703125
y: 298.2208557128906
z: -0.12684503197669983
visibility: 0.9961988925933838
","x: 264.50811767578125
y: 304.74310302734375
z: -0.19473059475421906
visibility: 0.9994671940803528
","x: 260.6977233886719
y: 304.8656311035156
z: -0.1948976367712021
visibility: 0.9989896416664124
","x: 278.0570068359375
y: 333.1817932128906
z: -0.08298835158348083
visibility: 0.9997940063476562
","x: 246.03329467773438
y: 329.10638427734375
z: -0.0805254802107811
visibility: 0.9991230964660645
","x: 283.6561279296875
y: 370.4994201660156
z: -0.08772775530815125
visibility: 0.9135912656784058
","x: 243.03811645507812
y: 364.1581726074219
z: -0.08294320106506348
visibility: 0.9032155871391296
","x: 277.7792053222656
y: 398.67327880859375
z: -0.18721725046634674
visibility: 0.7967432737350464
","x: 247.0054931640625
y: 391.3341979980469
z: -0.17151135206222534
visibility: 0.7925415635108948
","x: 276.6730041503906
y: 407.878662109375
z: -0.21761825680732727
visibility: 0.7363638877868652
","x: 247.28445434570312
y: 400.8777160644531
z: -0.19996166229248047
visibility: 0.7277294397354126
","x: 274.6708679199219
y: 405.2801818847656
z: -0.2335641086101532
visibility: 0.7381619811058044
","x: 249.76304626464844
y: 398.4217529296875
z: -0.21619157493114471
visibility: 0.7263541221618652
","x: 274.25244140625
y: 401.6954345703125
z: -0.1951652616262436
visibility: 0.6902477741241455
","x: 250.4647674560547
y: 394.4736328125
