uscmakers/ReverseChoreography/data/7_thats_what_i_like_bruno_mars.csv
,NOSE,LEFT_EYE_INNER,LEFT_EYE,LEFT_EYE_OUTER,RIGHT_EYE_INNER,RIGHT_EYE,RIGHT_EYE_OUTER,LEFT_EAR,RIGHT_EAR,MOUTH_LEFT,MOUTH_RIGHT,LEFT_SHOULDER,RIGHT_SHOULDER,LEFT_ELBOW,RIGHT_ELBOW,LEFT_WRIST,RIGHT_WRIST,LEFT_PINKY,RIGHT_PINKY,LEFT_INDEX,RIGHT_INDEX,LEFT_THUMB,RIGHT_THUMB,LEFT_HIP,RIGHT_HIP,LEFT_KNEE,RIGHT_KNEE,LEFT_ANKLE,RIGHT_ANKLE,LEFT_HEEL,RIGHT_HEEL,LEFT_FOOT_INDEX,RIGHT_FOOT_INDEX,WRIST2,THUMB_CPC2,THUMB_MCP2,THUMB_IP2,THUMB_TIP2,INDEX_FINGER_MCP2,INDEX_FINGER_PIP2,INDEX_FINGER_DIP2,INDEX_FINGER_TIP2,MIDDLE_FINGER_MCP2,MIDDLE_FINGER_PIP2,MIDDLE_FINGER_DIP2,MIDDLE_FINGER_TIP2,RING_FINGER_PIP2,RING_FINGER_DIP2,RING_FINGER_TIP2,RING_FINGER_MCP2,PINKY_MCP2,PINKY_PIP2,PINKY_DIP2,PINKY_TIP2
0,"x: 245.86912536621094
y: 294.3388671875
z: -0.25797396898269653
visibility: 0.9993852376937866
","x: 247.3648681640625
y: 287.60638427734375
z: -0.24397821724414825
visibility: 0.9974473714828491
","x: 248.52810668945312
y: 287.6408996582031
z: -0.24402613937854767
visibility: 0.9978184700012207
","x: 249.71914672851562
y: 287.702880859375
z: -0.24406775832176208
visibility: 0.9979140162467957
","x: 244.4135284423828
y: 288.16156005859375
z: -0.24003812670707703
visibility: 0.9975492358207703
","x: 243.50518798828125
y: 288.54254150390625
z: -0.24008402228355408
visibility: 0.9974265694618225
","x: 242.60888671875
y: 288.958984375
z: -0.24013516306877136
visibility: 0.9977433681488037
","x: 252.75303649902344
y: 291.3448791503906
z: -0.15782709419727325
visibility: 0.9963926672935486
","x: 242.03871154785156
y: 292.2974853515625
z: -0.1355404108762741
visibility: 0.9962368011474609
","x: 248.58999633789062
y: 301.6226501464844
z: -0.2253684103488922
visibility: 0.9993906021118164
","x: 244.47572326660156
y: 301.6171875
z: -0.21920844912528992
visibility: 0.9993129968643188
","x: 265.0407409667969
y: 323.6826171875
z: -0.11866114288568497
visibility: 0.9998708963394165
","x: 231.37998962402344
y: 326.891357421875
z: -0.05202684924006462
visibility: 0.9998869895935059
","x: 270.95831298828125
y: 366.72906494140625
z: -0.17037861049175262
visibility: 0.9728701710700989
","x: 222.92669677734375
y: 363.3316345214844
z: -0.010643737390637398
visibility: 0.9262294173240662
","x: 259.22125244140625
y: 375.787841796875
z: -0.31270816922187805
visibility: 0.8723716735839844
","x: 223.1597900390625
y: 394.2470703125
z: -0.09648042172193527
visibility: 0.8472043871879578
","x: 258.1017761230469
y: 383.34161376953125
z: -0.348995566368103
visibility: 0.8095467686653137
","x: 223.08045959472656
y: 406.82379150390625
z: -0.12382327020168304
visibility: 0.7565376162528992
","x: 255.7835693359375
y: 377.99078369140625
z: -0.3617008328437805
visibility: 0.8097408413887024
","x: 224.79180908203125
y: 404.8477783203125
z: -0.14765235781669617
visibility: 0.7623391151428223
","x: 255.94871520996094
y: 375.8392028808594
z: -0.3205907642841339
visibility: 0.7213943004608154
","x: 226.04873657226562
y: 399.6435241699219
z: -0.10866229236125946
visibility: 0.7312701940536499
","x: 257.0542297363281
y: 406.97119140625
z: -0.02067561261355877
visibility: 0.9992761015892029
","x: 237.30136108398438
y: 406.7662353515625
z: 0.020771430805325508
visibility: 0.9998188614845276
","x: 262.4072265625
y: 466.407470703125
z: -0.10086347162723541
visibility: 0.994860053062439
","x: 228.74514770507812
y: 454.37066650390625
z: -0.1694943755865097
visibility: 0.9978444576263428
","x: 270.68011474609375
y: 518.4559326171875
z: 0.06469143182039261
visibility: 0.9944748282432556
","x: 231.5786590576172
y: 515.4076538085938
z: -0.004856356885284185
visibility: 0.9975416660308838
","x: 273.40643310546875
y: 525.8673095703125
z: 0.07392974197864532
visibility: 0.8481696248054504
","x: 235.67745971679688
y: 523.7128295898438
z: 0.00490873446688056
visibility: 0.9706162214279175
","x: 270.3606872558594
y: 537.3021850585938
z: -0.04669429361820221
visibility: 0.9857930541038513
","x: 218.9564666748047
y: 534.1763916015625
z: -0.10981260240077972
visibility: 0.9953051805496216
",,,,,,,,,,,,,,,,,,,,,
1,"x: 244.80465698242188
y: 318.6112365722656
z: -0.25788596272468567
visibility: 0.9994348287582397
","x: 246.64947509765625
y: 311.8309631347656
z: -0.24537627398967743
visibility: 0.9976752996444702
","x: 247.87376403808594
y: 312.03594970703125
z: -0.24540190398693085
visibility: 0.9980092644691467
","x: 249.10577392578125
y: 312.3242492675781
z: -0.24543258547782898
visibility: 0.9980965256690979
","x: 243.6710968017578
y: 311.7229309082031
z: -0.24046508967876434
visibility: 0.9977643489837646
","x: 242.82276916503906
y: 311.7798156738281
z: -0.24051639437675476
visibility: 0.9976480007171631
","x: 242.0121612548828
y: 311.9010009765625
z: -0.24055488407611847
visibility: 0.9979364275932312
","x: 251.86614990234375
y: 315.32080078125
z: -0.17116302251815796
visibility: 0.9967232942581177
","x: 241.21478271484375
y: 314.8179931640625
z: -0.14424844086170197
visibility: 0.9965612888336182
","x: 247.17848205566406
y: 324.7454528808594
z: -0.22723674774169922
visibility: 0.9994403123855591
","x: 243.35040283203125
y: 324.9075012207031
z: -0.2201032191514969
visibility: 0.999366283416748
","x: 262.81243896484375
y: 342.8770751953125
z: -0.1542539745569229
visibility: 0.9998817443847656
","x: 231.33645629882812
y: 345.96337890625
z: -0.061654794961214066
visibility: 0.9998928904533386
","x: 266.04669189453125
y: 382.7676696777344
z: -0.20826193690299988
visibility: 0.9741947054862976
","x: 219.57313537597656
y: 376.5211486816406
z: -0.0908576101064682
visibility: 0.9241306781768799
","x: 253.83753967285156
y: 404.8952941894531
z: -0.3146784007549286
visibility: 0.8796718716621399
","x: 226.23333740234375
y: 405.3714599609375
z: -0.227394700050354
visibility: 0.8404049873352051
","x: 252.7539825439453
y: 415.3448791503906
z: -0.35222476720809937
visibility: 0.8209872841835022
","x: 228.12855529785156
y: 415.9910888671875
z: -0.25743257999420166
visibility: 0.7500982284545898
","x: 248.47386169433594
y: 412.62457275390625
z: -0.36201828718185425
visibility: 0.8212604522705078
","x: 230.2813720703125
y: 413.44732666015625
z: -0.2732870578765869
visibility: 0.7552375197410583
","x: 248.5677947998047
y: 409.1473388671875
z: -0.32099565863609314
visibility: 0.7373796105384827
","x: 230.23960876464844
y: 408.9847106933594
z: -0.2373093068599701
visibility: 0.726142168045044
","x: 259.01837158203125
y: 421.25079345703125
z: -0.03576339781284332
visibility: 0.9993396401405334
","x: 241.04742431640625
y: 422.288330078125
z: 0.03583640232682228
visibility: 0.9998303651809692
","x: 253.80435180664062
y: 476.4321594238281
z: -0.12374766916036606
visibility: 0.9949769377708435
","x: 227.06167602539062
y: 467.9415588378906
z: -0.04138375446200371
visibility: 0.9959396719932556
","x: 270.359130859375
y: 523.4479370117188
z: 0.015121291391551495
visibility: 0.9945847392082214
","x: 230.90953063964844
y: 520.2105102539062
z: 0.09886010736227036
visibility: 0.9968878626823425
","x: 273.3931884765625
y: 528.9763793945312
z: 0.02376558817923069
visibility: 0.8541985750198364
","x: 233.94345092773438
y: 527.9688110351562
z: 0.10743778944015503
visibility: 0.9694138169288635
","x: 269.9512023925781
y: 540.031494140625
z: -0.06337042152881622
visibility: 0.9861986637115479
","x: 218.44747924804688
y: 534.302490234375
z: 0.027556922286748886
visibility: 0.9941999912261963
",,,,,,,,,,,,,,,,,,,,,
2,"x: 245.95281982421875
y: 311.7568664550781
z: -0.21992918848991394
visibility: 0.9993963241577148
","x: 247.85391235351562
y: 306.4648742675781
z: -0.21214310824871063
visibility: 0.9976872801780701
","x: 249.0106201171875
y: 306.80438232421875
z: -0.2121683657169342
visibility: 0.9979783892631531
","x: 250.20692443847656
y: 307.1759338378906
z: -0.212192565202713
visibility: 0.9980699419975281
","x: 245.1999053955078
y: 306.47119140625
z: -0.20475956797599792
visibility: 0.9978163242340088
","x: 244.455810546875
y: 306.7662353515625
z: -0.2048162966966629
visibility: 0.9977015852928162
","x: 243.77818298339844
y: 307.093994140625
z: -0.2048741579055786
visibility: 0.9979971647262573
","x: 252.76817321777344
y: 311.0083312988281
z: -0.15240004658699036
visibility: 0.9967755675315857
","x: 243.35125732421875
y: 311.05621337890625
z: -0.11651895940303802
visibility: 0.9966874718666077
","x: 248.08724975585938
y: 318.607421875
z: -0.19625309109687805
visibility: 0.9993971586227417
","x: 244.87515258789062
y: 318.84344482421875
z: -0.18637482821941376
visibility: 0.9993272423744202
","x: 263.0498352050781
y: 337.7584533691406
z: -0.1444375216960907
visibility: 0.999843180179596
","x: 235.1060028076172
y: 341.10577392578125
z: -0.03711651265621185
visibility: 0.9998862743377686
","x: 264.701904296875
y: 378.0920715332031
z: -0.20602717995643616
visibility: 0.9688157439231873
","x: 222.02284240722656
y: 373.10498046875
z: -0.06108499690890312
visibility: 0.9139998555183411
","x: 248.61573791503906
y: 393.78302001953125
z: -0.3111843466758728
visibility: 0.8600363731384277
","x: 226.37466430664062
y: 392.9952697753906
z: -0.19604429602622986
visibility: 0.8230435252189636
","x: 245.4954833984375
y: 402.7735595703125
z: -0.34661293029785156
visibility: 0.8063924908638
","x: 227.38067626953125
y: 400.2340393066406
z: -0.22479815781116486
visibility: 0.7342682480812073
","x: 246.63031005859375
y: 398.76507568359375
z: -0.3545377552509308
visibility: 0.807183563709259
","x: 229.7242431640625
y: 397.1692199707031
z: -0.24208851158618927
visibility: 0.7396025061607361
","x: 245.26071166992188
y: 395.6857604980469
z: -0.3166297376155853
visibility: 0.7198547720909119
","x: 230.43048095703125
y: 395.7249450683594
z: -0.2072964608669281
visibility: 0.7118149995803833
","x: 262.2122802734375
y: 417.923583984375
z: -0.03868884593248367
visibility: 0.9993597865104675
","x: 245.72344970703125
y: 417.89788818359375
z: 0.038720469921827316
visibility: 0.9998285174369812
","x: 256.1266784667969
y: 474.86328125
z: -0.11383046954870224
visibility: 0.9951499104499817
","x: 227.55267333984375
y: 465.844970703125
z: -0.038000866770744324
visibility: 0.9956344366073608
","x: 269.0493469238281
y: 524.1365966796875
z: 0.012994134798645973
visibility: 0.9948663711547852
","x: 230.00083923339844
y: 519.8701171875
z: 0.08874961733818054
visibility: 0.9968178272247314
","x: 272.4631652832031
y: 531.00341796875
z: 0.01843351498246193
visibility: 0.8608785271644592
","x: 233.32920837402344
y: 528.1488647460938
z: 0.09555003046989441
visibility: 0.9698008298873901
","x: 268.4273681640625
y: 539.8734741210938
z: -0.07572172582149506
visibility: 0.9869499802589417
","x: 218.10386657714844
y: 534.3167724609375
z: 0.015311948955059052
visibility: 0.9940803647041321
",,,,,,,,,,,,,,,,,,,,,
3,"x: 252.3469696044922
y: 278.6892395019531
z: -0.17738200724124908
visibility: 0.9994319677352905
","x: 254.29017639160156
y: 272.6688232421875
z: -0.16196516156196594
visibility: 0.9978717565536499
","x: 255.67416381835938
y: 272.831787109375
z: -0.16202419996261597
visibility: 0.9981177449226379
","x: 256.9901428222656
y: 273.22357177734375
z: -0.16205713152885437
visibility: 0.9982029795646667
","x: 250.1699981689453
y: 273.240478515625
z: -0.15971504151821136
visibility: 0.997996985912323
","x: 248.8932647705078
y: 273.76080322265625
z: -0.15973344445228577
visibility: 0.9978864789009094
","x: 247.71829223632812
y: 274.38531494140625
z: -0.15977229177951813
visibility: 0.9981628656387329
","x: 258.02960205078125
y: 277.3865661621094
z: -0.07323820888996124
visibility: 0.9970217943191528
","x: 246.4834442138672
y: 277.9959411621094
z: -0.06328758597373962
visibility: 0.9969615936279297
","x: 254.17893981933594
y: 284.3465270996094
z: -0.1443099081516266
visibility: 0.9994286894798279
","x: 250.0399627685547
y: 285.293212890625
z: -0.1416470855474472
visibility: 0.9993716478347778
","x: 266.82476806640625
y: 306.9117431640625
z: -0.05586530640721321
visibility: 0.9997976422309875
","x: 237.6959991455078
y: 313.99676513671875
z: 0.006368371658027172
visibility: 0.9998562932014465
","x: 265.8208923339844
y: 349.3699645996094
z: -0.11043870449066162
visibility: 0.9551140666007996
","x: 234.85791015625
y: 356.8728332519531
z: -0.04696033149957657
visibility: 0.8927806615829468
","x: 247.73797607421875
y: 349.3463439941406
z: -0.22744211554527283
visibility: 0.8417550325393677
","x: 237.0924835205078
y: 361.0510559082031
z: -0.19220170378684998
visibility: 0.7971054315567017
","x: 242.74818420410156
y: 352.250732421875
z: -0.2631765604019165
visibility: 0.7897269129753113
","x: 237.05284118652344
y: 365.1983947753906
z: -0.2261217087507248
visibility: 0.7137176990509033
","x: 243.1665802001953
y: 344.01873779296875
z: -0.2682116627693176
visibility: 0.7909873127937317
","x: 238.01773071289062
y: 359.9414367675781
z: -0.23886749148368835
visibility: 0.7191341519355774
","x: 244.4541015625
y: 343.14678955078125
z: -0.2320026457309723
visibility: 0.701555609703064
","x: 238.736572265625
y: 358.1174011230469
z: -0.2018563449382782
visibility: 0.689643383026123
","x: 269.5296936035156
y: 388.0744934082031
z: -0.024217262864112854
visibility: 0.9993435144424438
","x: 251.9484100341797
y: 394.8185729980469
z: 0.024264037609100342
visibility: 0.9997931718826294
","x: 272.26397705078125
y: 449.0040283203125
z: -0.14727681875228882
visibility: 0.9947398900985718
","x: 247.805908203125
y: 451.2884826660156
z: -0.09673130512237549
visibility: 0.994897723197937
","x: 273.40069580078125
y: 520.2634887695312
z: -0.03635759651660919
visibility: 0.9939752817153931
","x: 258.1150207519531
y: 515.6589965820312
z: 0.00010687991743907332
visibility: 0.9960640072822571
","x: 273.3053283691406
y: 527.1497802734375
z: -0.03211209923028946
visibility: 0.8557834029197693
","x: 260.6745910644531
y: 522.8611450195312
z: 0.005989051423966885
visibility: 0.9638668894767761
","x: 271.5960998535156
y: 538.6390380859375
z: -0.1477227658033371
visibility: 0.986511766910553
","x: 255.8641357421875
y: 534.8829345703125
z: -0.09591396898031235
visibility: 0.993206799030304
",,,,,,,,,,,,,,,,,,,,,
4,"x: 257.0205383300781
y: 273.6712341308594
z: -0.26080358028411865
visibility: 0.9994811415672302
","x: 259.0051574707031
y: 268.78790283203125
z: -0.24501952528953552
visibility: 0.9980676770210266
","x: 260.2140197753906
y: 269.1836242675781
z: -0.24505659937858582
visibility: 0.9982842206954956
","x: 261.3879699707031
y: 269.759765625
z: -0.24511361122131348
visibility: 0.9983566999435425
","x: 255.09921264648438
y: 269.1208190917969
z: -0.24715793132781982
visibility: 0.9981880784034729
","x: 253.67723083496094
y: 269.4735107421875
z: -0.24719083309173584
visibility: 0.9980879426002502
","x: 252.33290100097656
y: 269.8079833984375
z: -0.24723339080810547
visibility: 0.9983378648757935
","x: 262.4700012207031
y: 274.51287841796875
z: -0.1394096314907074
visibility: 0.9972901940345764
","x: 250.5543670654297
y: 274.5022277832031
z: -0.15423808991909027
visibility: 0.9972579479217529
","x: 258.6459045410156
y: 280.72918701171875
z: -0.22208209335803986
visibility: 0.9994783401489258
","x: 254.0887908935547
y: 281.4351806640625
z: -0.22563429176807404
visibility: 0.9994310140609741
","x: 273.182861328125
y: 306.97894287109375
z: -0.09164783358573914
visibility: 0.9997662305831909
","x: 240.1751251220703
y: 312.70013427734375
z: -0.07959363609552383
visibility: 0.9998665452003479
","x: 282.34747314453125
y: 347.164306640625
z: -0.1287335306406021
visibility: 0.9524614214897156
","x: 234.73841857910156
y: 352.70611572265625
z: -0.11845500767230988
visibility: 0.8999579548835754
","x: 269.823486328125
y: 352.9893493652344
z: -0.3165561556816101
visibility: 0.8233801126480103
","x: 243.55218505859375
y: 365.76348876953125
z: -0.2650696933269501
visibility: 0.802107036113739
","x: 266.22711181640625
y: 358.5706787109375
z: -0.35963544249534607
visibility: 0.767959475517273
","x: 245.0457305908203
y: 375.3558349609375
z: -0.29989272356033325
visibility: 0.7194936275482178
","x: 264.6626892089844
y: 351.2611083984375
z: -0.3672432601451874
visibility: 0.7696707248687744
","x: 248.1522216796875
y: 373.08843994140625
z: -0.3147026598453522
visibility: 0.7244399785995483
","x: 265.23529052734375
y: 347.7542419433594
z: -0.3237287104129791
visibility: 0.6773863434791565
","x: 248.03012084960938
y: 369.29827880859375
z: -0.27410611510276794
visibility: 0.6914966702461243
","x: 274.27362060546875
y: 386.6886901855469
z: -0.01425566803663969
visibility: 0.9992201924324036
","x: 255.8258056640625
y: 392.18731689453125
z: 0.014343569055199623
visibility: 0.9997633099555969
","x: 282.5351257324219
y: 446.53448486328125
z: -0.1295606791973114
visibility: 0.9937136173248291
","x: 258.65301513671875
y: 451.3851318359375
z: -0.09122873097658157
visibility: 0.993740439414978
","x: 284.1024169921875
y: 515.5411987304688
z: -0.03309832140803337
visibility: 0.9924189448356628
","x: 268.2994689941406
y: 515.6439819335938
z: 0.009220575913786888
visibility: 0.9953362941741943
","x: 282.4052734375
y: 524.9108276367188
z: -0.03242110460996628
visibility: 0.8578193187713623
","x: 272.3125305175781
y: 522.8817138671875
z: 0.016177808865904808
visibility: 0.9610878229141235
","x: 289.6859436035156
y: 531.1915283203125
z: -0.15079781413078308
visibility: 0.9849032759666443
","x: 259.406982421875
y: 535.0580444335938
z: -0.09284716844558716
visibility: 0.9918992519378662
",,,,,,,,,,,,,,,,,,,,,
5,"x: 260.7236022949219
y: 279.0015869140625
z: -0.25749847292900085
visibility: 0.9995020031929016
","x: 261.6913757324219
y: 273.5281677246094
z: -0.24080178141593933
visibility: 0.9981273412704468
","x: 262.7195739746094
y: 273.70098876953125
z: -0.24084103107452393
visibility: 0.9983344078063965
","x: 263.7698669433594
y: 273.988525390625
z: -0.24088963866233826
visibility: 0.9983997941017151
","x: 258.5081481933594
y: 273.83941650390625
z: -0.2399517297744751
visibility: 0.9982460737228394
","x: 257.2628479003906
y: 274.15692138671875
z: -0.23999381065368652
visibility: 0.9981509447097778
","x: 256.0331115722656
y: 274.5223693847656
z: -0.24003632366657257
visibility: 0.9983689785003662
","x: 265.192626953125
y: 278.5860595703125
z: -0.15898606181144714
visibility: 0.997377872467041
","x: 254.55064392089844
y: 278.843017578125
z: -0.1507979929447174
visibility: 0.9972003698348999
","x: 262.3705139160156
y: 285.6000061035156
z: -0.22065463662147522
visibility: 0.9994969964027405
","x: 258.7735290527344
y: 286.41064453125
z: -0.21937689185142517
visibility: 0.9994420409202576
","x: 276.7691650390625
y: 312.5768127441406
z: -0.12598653137683868
visibility: 0.9997838139533997
","x: 244.54867553710938
y: 316.75701904296875
z: -0.07181501388549805
visibility: 0.9998617768287659
","x: 290.12762451171875
y: 350.83135986328125
z: -0.12159426510334015
visibility: 0.9565743803977966
","x: 235.46017456054688
y: 354.7943115234375
z: -0.05064520984888077
visibility: 0.9049630165100098
","x: 293.491455078125
y: 380.0805358886719
z: -0.18216083943843842
visibility: 0.8372939825057983
","x: 237.48245239257812
y: 385.95843505859375
z: -0.09882406890392303
visibility: 0.8147334456443787
","x: 296.2039489746094
y: 390.9067077636719
z: -0.20342640578746796
visibility: 0.7838838696479797
","x: 237.24903869628906
y: 398.36865234375
z: -0.11469197273254395
visibility: 0.7342522740364075
","x: 293.89276123046875
y: 391.640380859375
z: -0.2259519398212433
visibility: 0.7858301997184753
","x: 239.62014770507812
y: 400.9185485839844
z: -0.14392796158790588
visibility: 0.7398384213447571
","x: 291.8370056152344
y: 388.0333251953125
z: -0.19163335859775543
visibility: 0.700798511505127
","x: 240.34750366210938
y: 397.256103515625
z: -0.11226516962051392
visibility: 0.7096608877182007
","x: 276.1649475097656
y: 394.139892578125
z: -0.023472975939512253
visibility: 0.9992347955703735
","x: 258.85430908203125
y: 397.0321044921875
z: 0.023479407653212547
visibility: 0.9997282028198242
","x: 283.420654296875
y: 452.7055358886719
z: -0.04925078898668289
visibility: 0.9926429986953735
","x: 263.0450744628906
y: 457.1099853515625
z: 0.024118589237332344
visibility: 0.9898242950439453
","x: 293.45404052734375
y: 516.314697265625
z: 0.008786933496594429
visibility: 0.9920008182525635
","x: 271.8642578125
y: 515.6739501953125
z: 0.1515270620584488
visibility: 0.9933773279190063
","x: 298.2357177734375
y: 526.369873046875
z: -0.024548906832933426
visibility: 0.8443519473075867
","x: 275.36614990234375
y: 523.0611572265625
z: 0.15850980579853058
visibility: 0.9549418687820435
","x: 290.3349304199219
y: 533.163330078125
z: -0.09942753612995148
visibility: 0.9841600060462952
","x: 260.3336181640625
y: 535.0611572265625
z: 0.07335934042930603
visibility: 0.9903484582901001
",,,,,,,,,,,,,,,,,,,,,
6,"x: 266.8411560058594
y: 276.5060119628906
z: -0.25930890440940857
visibility: 0.9995495676994324
","x: 268.02679443359375
y: 272.323974609375
z: -0.24573440849781036
visibility: 0.9983059167861938
","x: 268.89801025390625
y: 272.6448974609375
z: -0.24576839804649353
visibility: 0.9984928369522095
","x: 269.70391845703125
y: 273.02142333984375
z: -0.24579524993896484
visibility: 0.9985498189926147
","x: 265.1650390625
y: 271.9025573730469
z: -0.24878907203674316
visibility: 0.9984144568443298
","x: 264.0220031738281
y: 271.98095703125
z: -0.2488313466310501
visibility: 0.9983287453651428
","x: 262.8330993652344
y: 272.1785583496094
z: -0.24886687099933624
visibility: 0.9985231161117554
","x: 269.8121337890625
y: 277.6138610839844
z: -0.16367840766906738
visibility: 0.997623085975647
","x: 260.1582946777344
y: 276.71826171875
z: -0.17954164743423462
visibility: 0.9974651336669922
","x: 268.242431640625
y: 282.98162841796875
z: -0.22678962349891663
visibility: 0.9995399713516235
","x: 264.37225341796875
y: 282.77032470703125
z: -0.2314397096633911
visibility: 0.9994921684265137
","x: 279.2087707519531
y: 313.351806640625
z: -0.1252118945121765
visibility: 0.9997999668121338
","x: 246.49046325683594
y: 317.1532287597656
z: -0.1067151203751564
visibility: 0.999872624874115
","x: 288.29986572265625
y: 352.29046630859375
z: -0.11665081977844238
visibility: 0.9591455459594727
","x: 236.56777954101562
y: 356.56317138671875
z: -0.08439429104328156
visibility: 0.9133535027503967
","x: 299.0453186035156
y: 380.06231689453125
z: -0.20915815234184265
visibility: 0.8500899076461792
","x: 230.8092041015625
y: 392.36669921875
z: -0.10936771333217621
visibility: 0.8314725756645203
","x: 302.08209228515625
y: 390.8533935546875
z: -0.23233231902122498
visibility: 0.7981042265892029
","x: 226.27345275878906
y: 403.2900390625
z: -0.14901328086853027
visibility: 0.7565069198608398
","x: 301.8857421875
y: 389.93634033203125
z: -0.25750601291656494
visibility: 0.8008371591567993
","x: 227.50404357910156
y: 403.6901550292969
z: -0.15779463946819305
visibility: 0.7621697187423706
","x: 300.459228515625
y: 386.5321350097656
z: -0.22169163823127747
visibility: 0.7226828336715698
","x: 229.28054809570312
y: 400.45721435546875
z: -0.13512291014194489
visibility: 0.7343558669090271
","x: 278.00439453125
y: 393.53033447265625
z: -0.009771926328539848
visibility: 0.9992791414260864
","x: 259.88641357421875
y: 397.6053466796875
z: 0.00979306548833847
visibility: 0.9997354745864868
","x: 285.59039306640625
y: 449.24151611328125
z: -0.06897658854722977
visibility: 0.9926736950874329
","x: 264.4297790527344
y: 458.7301940917969
z: -0.020238714292645454
visibility: 0.9894604086875916
","x: 290.4816589355469
y: 516.10546875
z: -0.020268546417355537
visibility: 0.9922773241996765
","x: 269.40960693359375
y: 516.9534912109375
z: 0.09094531089067459
visibility: 0.993382453918457
","x: 289.9850769042969
y: 526.9011840820312
z: -0.02426360733807087
visibility: 0.8561145663261414
","x: 273.02392578125
y: 524.5567016601562
z: 0.1449790596961975
visibility: 0.9540820121765137
","x: 296.7234802246094
y: 531.2325439453125
z: -0.12111246585845947
visibility: 0.985032856464386
","x: 259.3353576660156
y: 535.1976318359375
z: 0.0048943753354251385
visibility: 0.9903830289840698
",,,,,,,,,,,,,,,,,,,,,
7,"x: 275.3147277832031
y: 277.1411437988281
z: -0.2651175856590271
visibility: 0.9995840191841125
","x: 275.30804443359375
y: 273.1579284667969
z: -0.2523481249809265
visibility: 0.9984223246574402
","x: 275.90484619140625
y: 273.5286560058594
z: -0.2523499131202698
visibility: 0.9985978007316589
","x: 276.46185302734375
y: 273.89794921875
z: -0.25235703587532043
visibility: 0.9986119270324707
","x: 272.813232421875
y: 272.7245788574219
z: -0.2653419077396393
visibility: 0.9985455870628357
","x: 271.6922912597656
y: 272.888671875
z: -0.26539137959480286
visibility: 0.9984728097915649
","x: 270.51348876953125
y: 273.14007568359375
z: -0.2654877305030823
visibility: 0.9986334443092346
","x: 274.8054504394531
y: 278.64788818359375
z: -0.16724200546741486
visibility: 0.9977474212646484
","x: 266.8505859375
y: 277.5849609375
z: -0.22938768565654755
visibility: 0.9976925253868103
","x: 275.9610900878906
y: 284.35101318359375
z: -0.23138034343719482
visibility: 0.9995419979095459
","x: 272.7244567871094
y: 284.7583312988281
z: -0.24900300800800323
visibility: 0.9995230436325073
","x: 281.9295654296875
y: 313.7655029296875
z: -0.0910765528678894
visibility: 0.999798059463501
","x: 250.81944274902344
y: 315.38372802734375
z: -0.17904312908649445
visibility: 0.9998817443847656
","x: 286.8257751464844
y: 349.560791015625
z: -0.024228442460298538
visibility: 0.934585690498352
","x: 236.23512268066406
y: 351.413330078125
z: -0.1859699785709381
visibility: 0.9218939542770386
","x: 299.98382568359375
y: 365.25799560546875
z: -0.07885685563087463
visibility: 0.8533427715301514
","x: 222.7764434814453
y: 383.98724365234375
z: -0.22883519530296326
visibility: 0.8480984568595886
","x: 303.801025390625
y: 369.89697265625
z: -0.08698824793100357
visibility: 0.8009113669395447
","x: 217.20053100585938
y: 392.5227355957031
z: -0.24474883079528809
visibility: 0.7800842523574829
","x: 304.34222412109375
y: 368.1195068359375
z: -0.11535137891769409
visibility: 0.8062735199928284
","x: 218.34490966796875
y: 393.3848571777344
z: -0.2698708772659302
visibility: 0.7852867245674133
","x: 302.56536865234375
y: 366.77984619140625
z: -0.09261181205511093
visibility: 0.7333389520645142
","x: 220.48770141601562
y: 391.39752197265625
z: -0.24099424481391907
visibility: 0.759920060634613
","x: 279.878662109375
y: 392.89910888671875
z: 0.019574174657464027
visibility: 0.9993250370025635
","x: 261.906494140625
y: 396.377197265625
z: -0.019452523440122604
visibility: 0.9997287392616272
","x: 289.9004211425781
y: 447.194580078125
z: -0.10771528631448746
visibility: 0.9929797053337097
","x: 267.0726623535156
y: 459.191162109375
z: -0.018021810799837112
visibility: 0.9889384508132935
","x: 291.517578125
y: 516.4124145507812
z: -0.07587090134620667
visibility: 0.9926988482475281
","x: 268.91400146484375
y: 520.2015380859375
z: 0.0872589498758316
visibility: 0.9933286905288696
","x: 289.0869445800781
y: 528.2919921875
z: -0.07924365997314453
visibility: 0.8686823844909668
","x: 272.26678466796875
y: 527.9960327148438
z: 0.09490825235843658
visibility: 0.9513705372810364
","x: 300.39990234375
y: 530.334716796875
z: -0.19013014435768127
visibility: 0.9861406087875366
","x: 259.9664611816406
y: 535.7103881835938
z: -0.013128036633133888
visibility: 0.9902650713920593
",,,,,,,,,,,,,,,,,,,,,
8,"x: 277.93157958984375
y: 275.34112548828125
z: -0.23311111330986023
visibility: 0.999618649482727
","x: 277.4653625488281
y: 270.6765441894531
z: -0.2182203084230423
visibility: 0.9985545873641968
","x: 277.93133544921875
y: 270.87445068359375
z: -0.21824884414672852
visibility: 0.9987162947654724
","x: 278.3450927734375
y: 271.11505126953125
z: -0.21824297308921814
visibility: 0.9987179040908813
","x: 275.1529541015625
y: 270.7066650390625
z: -0.2348971664905548
visibility: 0.9986710548400879
","x: 273.9634094238281
y: 270.98309326171875
z: -0.2349334955215454
visibility: 0.9986034035682678
","x: 272.636474609375
y: 271.33447265625
z: -0.23505651950836182
visibility: 0.9987346529960632
","x: 276.35028076171875
y: 275.763916015625
z: -0.1257074773311615
visibility: 0.9978802800178528
","x: 268.41448974609375
y: 275.64154052734375
z: -0.1862824261188507
visibility: 0.9978901743888855
","x: 278.5376281738281
y: 281.9911804199219
z: -0.1969122439622879
visibility: 0.9995620250701904
","x: 275.41925048828125
y: 282.66522216796875
z: -0.219568133354187
visibility: 0.9995518326759338
","x: 284.1485900878906
y: 313.84686279296875
z: -0.054151035845279694
visibility: 0.9998085498809814
","x: 253.36453247070312
y: 313.562744140625
z: -0.12807601690292358
visibility: 0.9998858571052551
","x: 287.9259033203125
y: 350.9538269042969
z: -0.05518493801355362
visibility: 0.9200639128684998
","x: 237.18386840820312
y: 352.1094970703125
z: -0.12155812978744507
visibility: 0.9293341636657715
","x: 302.3691101074219
y: 360.61358642578125
z: -0.18951824307441711
visibility: 0.8618139028549194
","x: 222.132080078125
y: 383.7205505371094
z: -0.20654645562171936
visibility: 0.862869143486023
","x: 305.8787536621094
y: 364.30841064453125
z: -0.21324875950813293
visibility: 0.8117079138755798
","x: 217.22181701660156
y: 391.0480041503906
z: -0.1865691840648651
visibility: 0.8008156418800354
","x: 305.9802551269531
y: 361.0597229003906
z: -0.23560881614685059
visibility: 0.8184962272644043
","x: 217.48773193359375
y: 391.8037414550781
z: -0.22241930663585663
visibility: 0.805688202381134
","x: 304.4353942871094
y: 359.787353515625
z: -0.20203907787799835
visibility: 0.750847578048706
","x: 219.51202392578125
y: 390.2416687011719
z: -0.2209768295288086
visibility: 0.7824553847312927
","x: 280.80133056640625
y: 393.3945007324219
z: 0.01632157899439335
visibility: 0.9993630647659302
","x: 262.708251953125
y: 396.37225341796875
z: -0.016237035393714905
visibility: 0.9996963739395142
","x: 288.9253234863281
y: 450.786376953125
z: -0.1045418381690979
visibility: 0.9923084378242493
","x: 268.469482421875
y: 462.10638427734375
z: 0.016924690455198288
visibility: 0.9834625720977783
","x: 295.51519775390625
y: 519.2069091796875
z: -0.07900021970272064
visibility: 0.992717444896698
","x: 269.7899475097656
y: 520.4627685546875
z: 0.14689864218235016
visibility: 0.9904194474220276
","x: 294.3369140625
y: 533.3544921875
z: -0.08351762592792511
visibility: 0.877496063709259
","x: 272.1694030761719
y: 528.0872192382812
z: 0.1525612622499466
visibility: 0.9368206262588501
","x: 303.61602783203125
y: 530.3331909179688
z: -0.1997462958097458
visibility: 0.9865460991859436
","x: 262.4605712890625
y: 535.698486328125
z: 0.04979575425386429
visibility: 0.9873480796813965
",,,,,,,,,,,,,,,,,,,,,
9,"x: 271.84161376953125
y: 277.7060241699219
z: 0.04843024164438248
visibility: 0.999655544757843
","x: 271.7743225097656
y: 272.60205078125
z: 0.033000025898218155
visibility: 0.9986981153488159
","x: 271.8634033203125
y: 272.6622619628906
z: 0.03298921510577202
visibility: 0.9988434910774231
","x: 272.0045471191406
y: 272.75653076171875
z: 0.0329715833067894
visibility: 0.9988448619842529
","x: 271.48583984375
y: 272.8035888671875
z: 0.032480061054229736
visibility: 0.9988030791282654
","x: 271.3177795410156
y: 273.05364990234375
z: 0.03249382972717285
visibility: 0.9987419247627258
","x: 271.1787414550781
y: 273.3681945800781
z: 0.032546572387218475
visibility: 0.9988599419593811
","x: 271.4313659667969
y: 276.4839782714844
z: -0.011767649091780186
visibility: 0.9980916380882263
","x: 271.571044921875
y: 277.44183349609375
z: -0.017059331759810448
visibility: 0.9980993270874023
","x: 272.2071533203125
y: 283.9705810546875
z: 0.03634403273463249
visibility: 0.9996040463447571
","x: 271.4156799316406
y: 284.466064453125
z: 0.034969981759786606
visibility: 0.9995945692062378
","x: 256.3916015625
y: 313.53021240234375
z: -0.05172078683972359
visibility: 0.999826967716217
","x: 284.10821533203125
y: 314.0530090332031
z: -0.011657223105430603
visibility: 0.9998898506164551
","x: 250.05300903320312
y: 351.1755676269531
z: -0.05153389647603035
visibility: 0.9268578290939331
","x: 296.7095031738281
y: 350.183837890625
z: -0.11689652502536774
visibility: 0.9336276650428772
","x: 258.64453125
y: 360.4842529296875
z: -0.04859694465994835
visibility: 0.850620687007904
","x: 313.77099609375
y: 370.2740173339844
z: -0.18803223967552185
visibility: 0.8580473065376282
","x: 259.7218017578125
y: 363.884521484375
z: -0.061757780611515045
visibility: 0.7910296320915222
","x: 317.8033752441406
y: 375.2066650390625
z: -0.20070262253284454
visibility: 0.7981937527656555
","x: 262.6370849609375
y: 360.0977783203125
z: -0.062356989830732346
visibility: 0.7970507740974426
","x: 317.5577392578125
y: 371.8487548828125
z: -0.215916246175766
visibility: 0.8015795350074768
","x: 263.2873229980469
y: 359.2627258300781
z: -0.04828173667192459
visibility: 0.7297863960266113
","x: 316.4741516113281
y: 370.9523010253906
z: -0.19430306553840637
visibility: 0.7698180675506592
","x: 271.90728759765625
y: 395.1234436035156
z: -0.03470819443464279
visibility: 0.999424397945404
","x: 273.57403564453125
y: 397.4207763671875
z: 0.03468704596161842
visibility: 0.9997169971466064
","x: 278.4164733886719
y: 461.3094482421875
z: -0.08901231735944748
visibility: 0.9901123642921448
","x: 274.682861328125
y: 462.6834411621094
z: 0.13255837559700012
visibility: 0.936166524887085
","x: 290.5762023925781
y: 523.4630737304688
z: -0.21219679713249207
visibility: 0.9926921129226685
","x: 275.6665954589844
y: 520.662109375
z: 0.09974732249975204
visibility: 0.98245769739151
","x: 291.3662414550781
y: 534.174072265625
z: -0.22677239775657654
visibility: 0.8894926905632019
","x: 280.57611083984375
y: 530.1982421875
z: 0.11254328489303589
visibility: 0.9372304677963257
","x: 295.74176025390625
y: 533.042724609375
z: -0.2985934615135193
visibility: 0.9871577620506287
","x: 261.7508850097656
y: 535.3242797851562
z: 0.03453093022108078
visibility: 0.9807450771331787
",,,,,,,,,,,,,,,,,,,,,
10,"x: 269.8520812988281
y: 276.7676086425781
z: -0.3156047463417053
visibility: 0.9996713995933533
","x: 271.34808349609375
y: 271.5080871582031
z: -0.30452069640159607
visibility: 0.9988009929656982
","x: 272.3846740722656
y: 271.5626220703125
z: -0.3045428991317749
visibility: 0.9989254474639893
","x: 273.4927978515625
y: 271.7174987792969
z: -0.3046068549156189
visibility: 0.998927116394043
","x: 268.6596984863281
y: 271.87335205078125
z: -0.2983112335205078
visibility: 0.9988921880722046
","x: 267.7645263671875
y: 272.1216125488281
z: -0.29836174845695496
visibility: 0.9988288879394531
","x: 266.9248962402344
y: 272.39581298828125
z: -0.2984089255332947
visibility: 0.9989413619041443
","x: 275.98779296875
y: 275.5846252441406
z: -0.21327170729637146
visibility: 0.9982576370239258
","x: 266.40679931640625
y: 275.8774108886719
z: -0.1830579787492752
visibility: 0.998227596282959
","x: 271.98199462890625
y: 282.8484191894531
z: -0.27968019247055054
visibility: 0.9996375441551208
","x: 268.51641845703125
y: 283.4283752441406
z: -0.27131733298301697
visibility: 0.9996243715286255
","x: 285.6705017089844
y: 311.9381103515625
z: -0.16220231354236603
visibility: 0.9998380541801453
","x: 263.4306640625
y: 308.1878967285156
z: -0.094974085688591
visibility: 0.9998799562454224
","x: 298.9454345703125
y: 348.156982421875
z: -0.23926064372062683
visibility: 0.9328320622444153
","x: 267.571044921875
y: 343.4762878417969
z: -0.17731112241744995
visibility: 0.9378604888916016
","x: 289.3215026855469
y: 360.4800109863281
z: -0.3932478725910187
visibility: 0.8498938083648682
","x: 264.60772705078125
y: 354.6037292480469
z: -0.3573455214500427
visibility: 0.8652451634407043
","x: 287.09417724609375
y: 367.4847106933594
z: -0.43691450357437134
visibility: 0.7870016694068909
","x: 263.389892578125
y: 360.4454040527344
z: -0.3937327265739441
visibility: 0.8052678108215332
","x: 284.0333251953125
y: 362.18792724609375
z: -0.4420829713344574
visibility: 0.7926416993141174
","x: 264.4669494628906
y: 354.6632080078125
z: -0.40209436416625977
visibility: 0.8079164028167725
","x: 284.3768005371094
y: 359.74957275390625
z: -0.39841750264167786
visibility: 0.7232009172439575
","x: 264.9908752441406
y: 353.4049072265625
z: -0.36460819840431213
visibility: 0.7748662233352661
","x: 278.6988525390625
y: 392.67987060546875
z: -0.03441205620765686
visibility: 0.999467134475708
","x: 265.19610595703125
y: 394.3515625
z: 0.034441009163856506
visibility: 0.9997006058692932
","x: 278.9096374511719
y: 451.97454833984375
z: -0.2194618433713913
visibility: 0.9905349016189575
","x: 264.82684326171875
y: 462.4593505859375
z: 0.04268758371472359
visibility: 0.9379936456680298
","x: 288.9798583984375
y: 516.982666015625
z: -0.10577090084552765
visibility: 0.9928755760192871
","x: 270.93402099609375
y: 516.2601318359375
z: 0.21569371223449707
visibility: 0.9815633893013
","x: 290.966552734375
y: 525.065185546875
z: -0.102857805788517
visibility: 0.8905019164085388
","x: 276.3108215332031
y: 524.6588745117188
z: 0.22791115939617157
visibility: 0.935441255569458
","x: 282.78704833984375
y: 536.672119140625
z: -0.22446462512016296
visibility: 0.9875766634941101
","x: 259.7557678222656
y: 535.2809448242188
z: 0.12567569315433502
visibility: 0.9796630144119263
",,,,,,,,,,,,,,,,,,,,,
11,"x: 273.8918151855469
y: 274.0722961425781
z: -0.25005462765693665
visibility: 0.9996809363365173
","x: 275.39166259765625
y: 269.4626770019531
z: -0.2501952648162842
visibility: 0.9988567233085632
","x: 276.61474609375
y: 269.7479553222656
z: -0.2501128315925598
visibility: 0.9989678859710693
","x: 277.84600830078125
y: 270.14935302734375
z: -0.2500903308391571
visibility: 0.9989709854125977
","x: 271.7904968261719
y: 269.76910400390625
z: -0.2814464271068573
visibility: 0.9989498853683472
","x: 270.4405517578125
y: 270.25927734375
z: -0.28167349100112915
visibility: 0.9988830089569092
","x: 269.1194763183594
y: 270.8228454589844
z: -0.28157225251197815
visibility: 0.9989940524101257
","x: 279.7023620605469
y: 275.5164794921875
z: -0.14378026127815247
visibility: 0.9983580708503723
","x: 267.3118591308594
y: 275.97796630859375
z: -0.10773514211177826
visibility: 0.9982905983924866
","x: 276.0444030761719
y: 281.53570556640625
z: -0.2343437224626541
visibility: 0.9996426701545715
","x: 271.606201171875
y: 282.098388671875
z: -0.23742949962615967
visibility: 0.9996273517608643
","x: 288.02685546875
y: 308.92425537109375
z: -0.1346317082643509
visibility: 0.9998468160629272
","x: 259.0563049316406
y: 310.6402282714844
z: -0.0015722003299742937
visibility: 0.999863862991333
","x: 292.496337890625
y: 349.7012939453125
z: -0.1864531934261322
visibility: 0.9384384751319885
","x: 256.1998596191406
y: 354.4454650878906
z: 0.038662150502204895
visibility: 0.9122108221054077
","x: 270.8108825683594
y: 355.4963684082031
z: -0.3209206163883209
visibility: 0.860101044178009
","x: 257.7712097167969
y: 384.61712646484375
z: -0.05823173373937607
visibility: 0.8400273323059082
","x: 264.6109313964844
y: 360.5976867675781
z: -0.3604370057582855
visibility: 0.8006446361541748
","x: 257.2117919921875
y: 395.0832824707031
z: -0.08289267122745514
visibility: 0.7784302830696106
","x: 264.17840576171875
y: 355.4171447753906
z: -0.36417901515960693
visibility: 0.8057833313941956
","x: 258.84136962890625
y: 393.4826965332031
z: -0.10861063003540039
visibility: 0.782157838344574
","x: 266.2337951660156
y: 354.3515319824219
z: -0.324562668800354
visibility: 0.7366659641265869
","x: 259.973388671875
y: 388.1090087890625
z: -0.07084164768457413
visibility: 0.7473493218421936
","x: 281.02508544921875
y: 393.8278503417969
z: -0.04537076875567436
visibility: 0.9995040893554688
","x: 263.84100341796875
y: 395.5272216796875
z: 0.04542442411184311
visibility: 0.999724268913269
","x: 278.5019226074219
y: 456.472412109375
z: -0.1723674237728119
visibility: 0.99101322889328
","x: 256.1731872558594
y: 456.9737243652344
z: -0.10240040719509125
visibility: 0.9432536959648132
","x: 284.72265625
y: 515.6738891601562
z: 0.040398869663476944
visibility: 0.992935299873352
","x: 256.4773864746094
y: 517.8236083984375
z: 0.030850714072585106
visibility: 0.9829549193382263
","x: 288.6397399902344
y: 520.4307250976562
z: 0.05183911323547363
visibility: 0.8879952430725098
","x: 260.150390625
y: 528.6272583007812
z: 0.038157958537340164
visibility: 0.938837468624115
","x: 278.5029602050781
y: 539.132568359375
z: -0.04546830803155899
visibility: 0.9876568913459778
","x: 240.480224609375
y: 537.3555908203125
z: -0.06009291484951973
visibility: 0.9810824394226074
",,,,,,,,,,,,,,,,,,,,,
12,"x: 272.9162292480469
y: 273.8016662597656
z: -0.2433403730392456
visibility: 0.9996741414070129
","x: 274.834228515625
y: 269.27294921875
z: -0.22944097220897675
visibility: 0.9988663792610168
","x: 276.10980224609375
y: 269.6112060546875
z: -0.22943159937858582
visibility: 0.9989650845527649
","x: 277.3512268066406
y: 270.0782470703125
z: -0.22936181724071503
visibility: 0.9989664554595947
","x: 271.093994140625
y: 269.43316650390625
z: -0.22688961029052734
visibility: 0.9989660382270813
","x: 269.8713073730469
y: 269.88653564453125
z: -0.2269897758960724
visibility: 0.9989080429077148
","x: 268.7522888183594
y: 270.3917236328125
z: -0.22706353664398193
visibility: 0.9990229606628418
","x: 279.48919677734375
y: 275.9148864746094
z: -0.13266828656196594
visibility: 0.9983622431755066
","x: 267.20355224609375
y: 276.04217529296875
z: -0.10277553647756577
visibility: 0.9982925057411194
","x: 275.63189697265625
y: 280.91680908203125
z: -0.21749690175056458
visibility: 0.9996349811553955
","x: 270.76849365234375
y: 281.374267578125
z: -0.19873204827308655
visibility: 0.9996220469474792
","x: 288.4109802246094
y: 310.07452392578125
z: -0.11533556133508682
visibility: 0.9998200535774231
","x: 258.28839111328125
y: 311.51043701171875
z: -0.017498428001999855
visibility: 0.9998390078544617
","x: 293.8524169921875
y: 352.72637939453125
z: -0.18110349774360657
visibility: 0.939529538154602
","x: 251.8484649658203
y: 354.5486145019531
z: 0.001537142787128687
visibility: 0.8991879820823669
","x: 276.8722839355469
y: 365.88153076171875
z: -0.2752280831336975
visibility: 0.8506584763526917
","x: 254.27793884277344
y: 383.5230712890625
z: -0.11019595712423325
visibility: 0.8284003138542175
","x: 273.9810485839844
y: 376.4390563964844
z: -0.3074682652950287
visibility: 0.7919362187385559
","x: 254.1888427734375
y: 394.0200500488281
z: -0.1364942491054535
visibility: 0.7652939558029175
","x: 270.9957580566406
y: 370.707275390625
z: -0.31722837686538696
visibility: 0.7967106103897095
","x: 256.8488464355469
y: 392.7303466796875
z: -0.15745335817337036
visibility: 0.7691037654876709
","x: 272.9376525878906
y: 367.33953857421875
z: -0.2815168499946594
visibility: 0.725638210773468
","x: 257.65228271484375
y: 387.7533264160156
z: -0.12110153585672379
visibility: 0.7338364124298096
","x: 280.59228515625
y: 398.4468994140625
z: -0.03723808750510216
visibility: 0.9995036125183105
","x: 263.2697448730469
y: 395.9384765625
z: 0.037259988486766815
visibility: 0.999725878238678
","x: 281.2667236328125
y: 465.0166320800781
z: -0.0684681385755539
visibility: 0.9908075928688049
","x: 255.90731811523438
y: 456.91064453125
z: -0.057525884360075
visibility: 0.9478673934936523
","x: 283.822021484375
y: 522.10595703125
z: 0.07072485983371735
visibility: 0.9928264021873474
","x: 250.3437957763672
y: 519.1605224609375
z: 0.06574045121669769
visibility: 0.9841079711914062
","x: 287.0616455078125
y: 527.8377685546875
z: 0.07685066759586334
visibility: 0.8755143284797668
","x: 254.03143310546875
y: 529.751708984375
z: 0.07781215012073517
visibility: 0.9399351477622986
","x: 277.81488037109375
y: 544.1428833007812
z: -0.03271697089076042
visibility: 0.9873286485671997
","x: 238.40492248535156
y: 536.2409057617188
z: -0.02322300150990486
visibility: 0.9822292923927307
",,,,,,,,,,,,,,,,,,,,,
13,"x: 272.25811767578125
y: 274.71124267578125
z: -0.24299070239067078
visibility: 0.9997058510780334
","x: 274.61328125
y: 270.0682373046875
z: -0.2272886484861374
visibility: 0.9989771246910095
","x: 275.9367980957031
y: 270.5099182128906
z: -0.22733581066131592
visibility: 0.9990666508674622
","x: 277.1705322265625
y: 271.0047302246094
z: -0.2273731231689453
visibility: 0.9990668892860413
","x: 270.4373779296875
y: 269.49261474609375
z: -0.22533829510211945
visibility: 0.9990656971931458
","x: 269.05523681640625
y: 269.59002685546875
z: -0.22536158561706543
visibility: 0.9990132451057434
","x: 267.77984619140625
y: 269.7294921875
z: -0.22539372742176056
visibility: 0.999114453792572
","x: 279.0259094238281
y: 276.017822265625
z: -0.12961988151073456
visibility: 0.9985235333442688
","x: 266.1050720214844
y: 273.901611328125
z: -0.11508513987064362
visibility: 0.9984588623046875
","x: 274.8307189941406
y: 281.8509216308594
z: -0.20856967568397522
visibility: 0.9996707439422607
","x: 269.5179138183594
y: 281.75439453125
z: -0.20355109870433807
visibility: 0.9996590614318848
","x: 287.0984802246094
y: 310.5449523925781
z: -0.09197589755058289
visibility: 0.9998372793197632
","x: 258.06890869140625
y: 309.4698486328125
z: -0.024937642738223076
visibility: 0.9998499155044556
","x: 297.57720947265625
y: 351.5184020996094
z: -0.1708345115184784
visibility: 0.9449850916862488
","x: 243.7043914794922
y: 343.4570007324219
z: -0.017642851918935776
visibility: 0.9047641754150391
","x: 310.3515930175781
y: 348.3755798339844
z: -0.3620675802230835
visibility: 0.8649007678031921
","x: 243.7043914794922
y: 379.0561218261719
z: -0.13157914578914642
visibility: 0.8409990668296814
","x: 317.3271789550781
y: 346.18511962890625
z: -0.40372252464294434
visibility: 0.8113824129104614
","x: 242.2323455810547
y: 389.22845458984375
z: -0.15179488062858582
visibility: 0.7806926965713501
","x: 315.7864990234375
y: 337.47064208984375
z: -0.4157852232456207
visibility: 0.8158230185508728
","x: 245.27935791015625
y: 388.15972900390625
z: -0.17144694924354553
visibility: 0.7847446203231812
","x: 312.76092529296875
y: 338.3330078125
z: -0.371807336807251
visibility: 0.7510054707527161
","x: 246.9724884033203
y: 384.2001037597656
z: -0.14140084385871887
visibility: 0.7512826323509216
","x: 279.5009765625
y: 396.31207275390625
z: -0.03375329449772835
visibility: 0.9995355010032654
","x: 262.5222473144531
y: 396.22540283203125
z: 0.03382504731416702
visibility: 0.9997225999832153
","x: 273.5848083496094
y: 458.6622314453125
z: -0.19787731766700745
visibility: 0.9890655875205994
","x: 255.93576049804688
y: 456.93780517578125
z: -0.054669834673404694
visibility: 0.9397984743118286
","x: 274.2470397949219
y: 521.1348876953125
z: -0.05048159882426262
visibility: 0.9899452328681946
","x: 263.7290344238281
y: 519.1917724609375
z: 0.0896720141172409
visibility: 0.9779067635536194
","x: 275.4869079589844
y: 527.8056640625
z: -0.039904557168483734
visibility: 0.8693156242370605
","x: 267.1050720214844
y: 529.524658203125
z: 0.09979282319545746
visibility: 0.9285274147987366
","x: 270.0078430175781
y: 542.6603393554688
z: -0.1436786651611328
visibility: 0.985215425491333
","x: 261.4444580078125
y: 537.5280151367188
z: -0.005240029189735651
visibility: 0.9755205512046814
",,,,,,,,,,,,,,,,,,,,,
14,"x: 272.9672546386719
y: 280.39935302734375
z: -0.44897404313087463
visibility: 0.9997129440307617
","x: 274.8681640625
y: 274.88592529296875
z: -0.43599167466163635
visibility: 0.9990354776382446
","x: 275.89697265625
y: 275.3805236816406
z: -0.43602609634399414
visibility: 0.9991152286529541
","x: 276.8983154296875
y: 275.7603759765625
z: -0.43613681197166443
visibility: 0.9991214871406555
","x: 271.8210144042969
y: 273.18121337890625
z: -0.4324093461036682
visibility: 0.9990789890289307
","x: 270.7878723144531
y: 272.6310119628906
z: -0.4325011670589447
visibility: 0.9990053176879883
","x: 269.77301025390625
y: 272.04229736328125
z: -0.4325255751609802
visibility: 0.9990981817245483
","x: 278.2012634277344
y: 278.4991455078125
z: -0.3329724669456482
visibility: 0.9986445307731628
","x: 267.5695495605469
y: 274.5705871582031
z: -0.3170461654663086
visibility: 0.9983020424842834
","x: 274.73095703125
y: 286.7019348144531
z: -0.40894436836242676
visibility: 0.9996903538703918
","x: 270.5086364746094
y: 285.59869384765625
z: -0.40449661016464233
visibility: 0.999641478061676
","x: 286.47845458984375
y: 313.6048583984375
z: -0.28049683570861816
visibility: 0.9998526573181152
","x: 257.34429931640625
y: 309.8204345703125
z: -0.18043252825737
visibility: 0.9998161196708679
","x: 302.3736267089844
y: 350.2845764160156
z: -0.29937368631362915
visibility: 0.9504522085189819
","x: 235.4014434814453
y: 332.67193603515625
z: -0.17580820620059967
visibility: 0.9128300547599792
","x: 303.3395690917969
y: 390.1662902832031
z: -0.38315337896347046
visibility: 0.8780350089073181
","x: 216.64146423339844
y: 351.0970764160156
z: -0.2953542172908783
visibility: 0.8557234406471252
","x: 305.40289306640625
y: 399.513427734375
z: -0.41309303045272827
visibility: 0.8289106488227844
","x: 210.5358123779297
y: 355.8980712890625
z: -0.3139132857322693
visibility: 0.8001167178153992
","x: 302.7627868652344
y: 399.4945983886719
z: -0.4328984320163727
visibility: 0.8330283164978027
","x: 210.74261474609375
y: 355.5234069824219
z: -0.34702545404434204
visibility: 0.8041580319404602
","x: 301.4422607421875
y: 396.9894714355469
z: -0.3920576274394989
visibility: 0.7741481065750122
","x: 213.34262084960938
y: 354.6737976074219
z: -0.31158533692359924
visibility: 0.7736673355102539
","x: 278.49267578125
y: 393.21392822265625
z: -0.04502394050359726
visibility: 0.9995642304420471
","x: 261.9672546386719
y: 393.6134033203125
z: 0.045034896582365036
visibility: 0.999682605266571
","x: 269.6585693359375
y: 448.703125
z: -0.2907741069793701
visibility: 0.9895925521850586
","x: 261.5950622558594
y: 457.54986572265625
z: 0.0034440383315086365
visibility: 0.9163689017295837
","x: 274.4042053222656
y: 513.4020385742188
z: -0.185833141207695
visibility: 0.9903815388679504
","x: 270.3929138183594
y: 518.6395874023438
z: 0.14565309882164001
visibility: 0.9732277393341064
","x: 282.17779541015625
y: 518.041748046875
z: -0.18160957098007202
visibility: 0.8734394907951355
","x: 274.7978210449219
y: 528.460693359375
z: 0.15234452486038208
visibility: 0.9228091239929199
","x: 273.4905090332031
y: 535.326904296875
z: -0.2938740849494934
visibility: 0.9857558012008667
","x: 262.2359313964844
y: 537.7552490234375
z: 0.04738249629735947
visibility: 0.9710950255393982
",,,,,,,,,,,,,,,,,,,,,
15,"x: 272.5106201171875
y: 282.65386962890625
z: -0.3153110146522522
visibility: 0.999684751033783
","x: 274.1431579589844
y: 277.7409973144531
z: -0.3057534098625183
visibility: 0.998903751373291
","x: 275.1036376953125
y: 278.18896484375
z: -0.3057757318019867
visibility: 0.999060332775116
","x: 276.05389404296875
y: 278.46893310546875
z: -0.3058425784111023
visibility: 0.9990352392196655
","x: 271.4507141113281
y: 276.2772521972656
z: -0.3009551465511322
visibility: 0.9987183213233948
","x: 270.6319580078125
y: 275.8652038574219
z: -0.3010106682777405
visibility: 0.9987109303474426
","x: 269.8482666015625
y: 275.385498046875
z: -0.30104130506515503
visibility: 0.998700737953186
","x: 277.2454833984375
y: 280.49737548828125
z: -0.23567171394824982
visibility: 0.9986974596977234
","x: 268.27685546875
y: 276.92572021484375
z: -0.20801329612731934
visibility: 0.9971629977226257
","x: 274.24237060546875
y: 289.1961669921875
z: -0.2862105667591095
visibility: 0.9996504187583923
","x: 270.7033996582031
y: 288.2589111328125
z: -0.2795303761959076
visibility: 0.9993869662284851
","x: 286.4477233886719
y: 315.490234375
z: -0.20462004840373993
visibility: 0.9998648166656494
","x: 256.6387023925781
y: 310.64306640625
z: -0.11196589469909668
visibility: 0.9997949004173279
","x: 302.3343811035156
y: 350.66693115234375
z: -0.2196347713470459
visibility: 0.9553703665733337
","x: 234.11776733398438
y: 324.75531005859375
z: -0.05077149346470833
visibility: 0.9208606481552124
","x: 301.5815124511719
y: 394.95843505859375
z: -0.2923700213432312
visibility: 0.889936089515686
","x: 212.9614715576172
y: 331.07965087890625
z: -0.09292367100715637
visibility: 0.8697569370269775
","x: 302.93743896484375
y: 405.6321716308594
z: -0.3105025887489319
visibility: 0.8448936343193054
","x: 206.7500762939453
y: 332.8606872558594
z: -0.09883251786231995
visibility: 0.8188812732696533
","x: 299.80108642578125
y: 405.8865661621094
z: -0.33246853947639465
visibility: 0.8487606644630432
","x: 206.3275146484375
y: 332.53729248046875
z: -0.1313924938440323
visibility: 0.8227576017379761
","x: 298.4826965332031
y: 402.7125244140625
z: -0.30182814598083496
visibility: 0.7954095005989075
","x: 208.29295349121094
y: 332.2561950683594
z: -0.1082087904214859
visibility: 0.7951900362968445
","x: 278.16900634765625
y: 392.34051513671875
z: -0.046082984656095505
visibility: 0.9995954036712646
","x: 261.818603515625
y: 393.4100646972656
z: 0.04609152302145958
visibility: 0.9996993541717529
","x: 267.25946044921875
y: 442.15673828125
z: -0.2795073390007019
visibility: 0.9904171824455261
","x: 261.2591247558594
y: 455.818359375
z: 0.0016712142387405038
visibility: 0.9161269664764404
","x: 284.9613037109375
y: 493.5252380371094
z: -0.17260460555553436
visibility: 0.9909971356391907
","x: 269.28546142578125
y: 519.7279663085938
z: 0.12527130544185638
visibility: 0.9748005270957947
","x: 292.6423034667969
y: 493.07086181640625
z: -0.1648453176021576
visibility: 0.8834885954856873
","x: 274.12811279296875
y: 530.2488403320312
z: 0.14084994792938232
visibility: 0.9266654253005981
","x: 283.68170166015625
y: 519.9814453125
z: -0.24285049736499786
visibility: 0.9868226051330566
","x: 260.9395751953125
y: 537.7799682617188
z: 0.028975436463952065
visibility: 0.9725856184959412
",,,,,,,,,,,,,,,,,,,,,
16,"x: 273.2962951660156
y: 282.76104736328125
z: -0.30214208364486694
visibility: 0.999697744846344
","x: 274.90155029296875
y: 277.9189147949219
z: -0.29926785826683044
visibility: 0.9989579319953918
","x: 275.8265686035156
y: 278.2838134765625
z: -0.2993059754371643
visibility: 0.9991133213043213
","x: 276.7410583496094
y: 278.51434326171875
z: -0.2995217442512512
visibility: 0.9990754723548889
","x: 272.17901611328125
y: 276.732177734375
z: -0.2987684905529022
visibility: 0.9987517595291138
","x: 271.2498779296875
y: 276.3608703613281
z: -0.29879575967788696
visibility: 0.9987384080886841
","x: 270.3433532714844
y: 275.8524169921875
z: -0.2987942099571228
visibility: 0.9986987709999084
","x: 277.45672607421875
y: 280.8425598144531
z: -0.20522069931030273
visibility: 0.9987865090370178
","x: 268.1583557128906
y: 277.224365234375
z: -0.1957254558801651
visibility: 0.9973130226135254
","x: 274.65643310546875
y: 289.0860290527344
z: -0.2608630061149597
visibility: 0.9996681809425354
","x: 271.2202453613281
y: 288.544189453125
z: -0.25845035910606384
visibility: 0.9994233250617981
","x: 285.0911560058594
y: 316.70281982421875
z: -0.17338073253631592
visibility: 0.9998767971992493
","x: 255.56288146972656
y: 309.0807189941406
z: -0.07066261023283005
visibility: 0.9998099207878113
","x: 301.4118957519531
y: 355.4586181640625
z: -0.21993140876293182
visibility: 0.9593341946601868
","x: 231.72610473632812
y: 324.38153076171875
z: -0.03114927187561989
visibility: 0.928002655506134
","x: 305.6628723144531
y: 348.70050048828125
z: -0.39931318163871765
visibility: 0.900418758392334
","x: 210.5077362060547
y: 335.11663818359375
z: -0.10341998189687729
visibility: 0.8821883201599121
","x: 310.1727294921875
y: 345.96722412109375
z: -0.43887871503829956
visibility: 0.8593465089797974
","x: 204.07260131835938
y: 339.0317077636719
z: -0.11606605350971222
visibility: 0.835381031036377
","x: 309.84393310546875
y: 339.2894287109375
z: -0.4519125521183014
visibility: 0.8629555702209473
","x: 203.67572021484375
y: 337.882568359375
z: -0.14773118495941162
visibility: 0.8391640782356262
","x: 307.5076904296875
y: 340.3993225097656
z: -0.41092628240585327
visibility: 0.8146196007728577
","x: 206.0447235107422
y: 337.2286682128906
z: -0.11929517984390259
visibility: 0.8143376111984253
","x: 277.8257141113281
y: 393.01104736328125
z: -0.0456472709774971
visibility: 0.9995343685150146
","x: 261.66961669921875
y: 394.097412109375
z: 0.04570727050304413
visibility: 0.9996044039726257
","x: 267.7757263183594
y: 449.13824462890625
z: -0.08533919602632523
visibility: 0.9894893765449524
","x: 262.27117919921875
y: 459.9095153808594
z: 0.04094620794057846
visibility: 0.9043483138084412
","x: 278.3228759765625
y: 511.55230712890625
z: 0.034511156380176544
visibility: 0.9903889894485474
","x: 269.6177673339844
y: 521.2000122070312
z: 0.16425636410713196
visibility: 0.9686284065246582
","x: 281.94158935546875
y: 520.3369750976562
z: 0.04227866977453232
visibility: 0.8860132098197937
","x: 273.8268737792969
y: 531.492919921875
z: 0.171691432595253
visibility: 0.9203200936317444
","x: 272.9338684082031
y: 524.4672241210938
z: -0.05058882758021355
visibility: 0.9862104654312134
","x: 261.8711853027344
y: 537.725830078125
z: 0.07564033567905426
visibility: 0.9693937301635742
",,,,,,,,,,,,,,,,,,,,,
17,"x: 274.43463134765625
y: 282.5743408203125
z: -0.3176610767841339
visibility: 0.9997239112854004
","x: 275.8708190917969
y: 277.7217712402344
z: -0.3041713833808899
visibility: 0.9990440011024475
","x: 276.78179931640625
y: 278.06304931640625
z: -0.3042021691799164
visibility: 0.9991876482963562
","x: 277.67437744140625
y: 278.3067626953125
z: -0.3042592406272888
visibility: 0.9991510510444641
","x: 273.09014892578125
y: 276.6412048339844
z: -0.3050999045372009
visibility: 0.9988468289375305
","x: 272.0898742675781
y: 276.1151428222656
z: -0.3051469922065735
visibility: 0.9988349676132202
","x: 271.101806640625
y: 275.5373840332031
z: -0.30517441034317017
visibility: 0.9987937211990356
","x: 278.21923828125
y: 280.8342590332031
z: -0.2069195955991745
visibility: 0.9988905191421509
","x: 268.29791259765625
y: 277.28564453125
z: -0.21065258979797363
visibility: 0.9975341558456421
","x: 275.8372802734375
y: 288.4898681640625
z: -0.2800735533237457
visibility: 0.9996980428695679
","x: 272.2970275878906
y: 288.0970458984375
z: -0.28139546513557434
visibility: 0.999475359916687
","x: 285.623779296875
y: 316.69879150390625
z: -0.1643984019756317
visibility: 0.9998871088027954
","x: 254.66357421875
y: 308.3988037109375
z: -0.12251049280166626
visibility: 0.9998213648796082
","x: 297.681884765625
y: 351.66851806640625
z: -0.24450068175792694
visibility: 0.9595283269882202
","x: 231.3958740234375
y: 327.01873779296875
z: -0.147512748837471
visibility: 0.9347577095031738
","x: 305.4324035644531
y: 356.55633544921875
z: -0.44296717643737793
visibility: 0.9027153253555298
","x: 211.13734436035156
y: 343.1726379394531
z: -0.2560168206691742
visibility: 0.8922678232192993
","x: 309.1709899902344
y: 351.77996826171875
z: -0.4838564991950989
visibility: 0.8632470965385437
","x: 205.10916137695312
y: 349.6692199707031
z: -0.2808245122432709
visibility: 0.8478618860244751
","x: 308.961181640625
y: 344.77703857421875
z: -0.5046949982643127
visibility: 0.8681457042694092
","x: 205.17811584472656
y: 349.41021728515625
z: -0.30573612451553345
visibility: 0.8518269658088684
","x: 306.96929931640625
y: 345.209228515625
z: -0.45730337500572205
visibility: 0.8226085901260376
","x: 207.3219451904297
y: 348.0580139160156
z: -0.27039778232574463
visibility: 0.8288394808769226
","x: 278.2473449707031
y: 393.2998352050781
z: -0.016195591539144516
visibility: 0.9995613694190979
","x: 261.42193603515625
y: 394.47650146484375
z: 0.016283240169286728
visibility: 0.9995981454849243
","x: 269.33905029296875
y: 449.83453369140625
z: -0.2733948826789856
visibility: 0.9897618293762207
","x: 256.3282165527344
y: 454.5099182128906
z: -0.14520153403282166
visibility: 0.9126021265983582
","x: 277.1236572265625
y: 511.93902587890625
z: -0.12470383942127228
visibility: 0.9906220436096191
","x: 265.1905517578125
y: 514.3285522460938
z: 0.03419310599565506
visibility: 0.9704098701477051
","x: 278.62890625
y: 520.5680541992188
z: -0.1164817214012146
visibility: 0.8900391459465027
","x: 267.84033203125
y: 519.6812744140625
z: 0.04498836398124695
visibility: 0.9176971912384033
","x: 273.5758972167969
y: 531.6031494140625
z: -0.2516290247440338
visibility: 0.9868685007095337
","x: 260.5649108886719
y: 537.9436645507812
z: -0.07093590497970581
visibility: 0.9707893133163452
",,,,,,,,,,,,,,,,,,,,,
18,"x: 273.6156311035156
y: 287.2032470703125
z: -0.370789110660553
visibility: 0.9997387528419495
","x: 275.05712890625
y: 281.33001708984375
z: -0.3534650504589081
visibility: 0.9990696907043457
","x: 275.99700927734375
y: 281.48004150390625
z: -0.35346606373786926
visibility: 0.9992006421089172
","x: 276.9219665527344
y: 281.59625244140625
z: -0.35352623462677
visibility: 0.9991661906242371
","x: 272.2070617675781
y: 281.2557067871094
z: -0.35598212480545044
visibility: 0.9988688826560974
","x: 271.1835021972656
y: 281.2804260253906
z: -0.3560851812362671
visibility: 0.9988658428192139
","x: 270.18023681640625
y: 281.2723388671875
z: -0.35614699125289917
visibility: 0.9988247752189636
","x: 277.5936279296875
y: 284.54864501953125
z: -0.25013941526412964
visibility: 0.9988563656806946
","x: 267.73565673828125
y: 282.940185546875
z: -0.26327282190322876
visibility: 0.9976174235343933
","x: 275.0784912109375
y: 293.3126220703125
z: -0.3321523070335388
visibility: 0.9997013807296753
","x: 271.43316650390625
y: 293.42596435546875
z: -0.335976243019104
visibility: 0.9994907379150391
","x: 286.8730163574219
y: 322.98651123046875
z: -0.1832224279642105
visibility: 0.9998922944068909
","x: 253.36709594726562
y: 314.4900207519531
z: -0.18150892853736877
visibility: 0.9998189806938171
","x: 296.3650817871094
y: 364.29876708984375
z: -0.17921359837055206
visibility: 0.9628592133522034
","x: 231.29933166503906
y: 333.1875
z: -0.17271490395069122
visibility: 0.9408054947853088
","x: 301.5174560546875
y: 405.2117919921875
z: -0.24392184615135193
visibility: 0.9108216166496277
","x: 211.48223876953125
y: 355.32818603515625
z: -0.24261192977428436
visibility: 0.9013519287109375
","x: 303.4891662597656
y: 416.3466796875
z: -0.26150456070899963
visibility: 0.8729289770126343
","x: 206.4025115966797
y: 358.2420349121094
z: -0.26443612575531006
visibility: 0.8588457703590393
","x: 302.67706298828125
y: 416.89166259765625
z: -0.285377562046051
visibility: 0.8776647448539734
","x: 206.78965759277344
y: 361.0644836425781
z: -0.29409679770469666
visibility: 0.862909734249115
","x: 301.12725830078125
y: 412.5988464355469
z: -0.25506526231765747
visibility: 0.8360190987586975
","x: 208.8458251953125
y: 361.2629699707031
z: -0.25785917043685913
visibility: 0.8419032096862793
","x: 278.0063171386719
y: 403.7321472167969
z: -0.00032065861159935594
visibility: 0.9995925426483154
","x: 259.4635314941406
y: 399.483154296875
z: 0.0002849966404028237
visibility: 0.9996270537376404
","x: 276.37542724609375
y: 462.46697998046875
z: -0.1491386592388153
visibility: 0.9900903105735779
","x: 246.76974487304688
y: 452.7554931640625
z: -0.1874943971633911
visibility: 0.9209250807762146
","x: 276.4669189453125
y: 516.710693359375
z: 0.05826074630022049
visibility: 0.9908931851387024
","x: 242.28868103027344
y: 507.097900390625
z: 0.008486992679536343
visibility: 0.9730028510093689
","x: 274.51239013671875
y: 524.4449462890625
z: 0.07148272544145584
visibility: 0.8935904502868652
","x: 244.35888671875
y: 512.4024047851562
z: 0.0216135922819376
visibility: 0.9204319715499878
","x: 275.3885192871094
y: 536.6771240234375
z: -0.0379587821662426
visibility: 0.9869033694267273
","x: 233.32896423339844
y: 533.0505981445312
z: -0.09217262268066406
visibility: 0.9731115698814392
",,,,,,,,,,,,,,,,,,,,,
19,"x: 273.15008544921875
y: 282.27667236328125
z: -0.35783934593200684
visibility: 0.9997617602348328
","x: 274.6344299316406
y: 277.6914367675781
z: -0.3472707271575928
visibility: 0.9991521835327148
","x: 275.6025085449219
y: 278.13726806640625
z: -0.3471704125404358
visibility: 0.9992700219154358
","x: 276.5420837402344
y: 278.5362548828125
z: -0.346817284822464
visibility: 0.9992378950119019
","x: 271.7237854003906
y: 276.8428649902344
z: -0.3176878094673157
visibility: 0.9989700317382812
","x: 270.7022705078125
y: 276.74395751953125
z: -0.3177490830421448
visibility: 0.9989672303199768
","x: 269.70587158203125
y: 276.73968505859375
z: -0.3177780210971832
visibility: 0.9989284873008728
","x: 277.2411193847656
y: 282.96014404296875
z: -0.21696296334266663
visibility: 0.998936653137207
","x: 267.35272216796875
y: 280.018798828125
z: -0.22052285075187683
visibility: 0.9978380799293518
","x: 274.66619873046875
y: 289.4241027832031
z: -0.32443976402282715
visibility: 0.9997245669364929
","x: 271.01806640625
y: 288.70123291015625
z: -0.2924284338951111
visibility: 0.9995361566543579
","x: 286.05859375
y: 321.8922119140625
z: -0.1266668736934662
visibility: 0.9999015927314758
","x: 252.70236206054688
y: 311.1188659667969
z: -0.16246500611305237
visibility: 0.9998358488082886
","x: 295.86798095703125
y: 361.7573547363281
z: -0.1370699554681778
visibility: 0.9650165438652039
","x: 231.37001037597656
y: 333.3084411621094
z: -0.18460381031036377
visibility: 0.9461866617202759
","x: 309.8046875
y: 389.43426513671875
z: -0.2596559524536133
visibility: 0.918128252029419
","x: 211.1103057861328
y: 354.7656555175781
z: -0.27491533756256104
visibility: 0.9096823930740356
","x: 314.10833740234375
y: 396.75860595703125
z: -0.28384897112846375
visibility: 0.8824185132980347
","x: 206.06849670410156
y: 359.0428466796875
z: -0.3009977340698242
visibility: 0.869577169418335
","x: 314.8510437011719
y: 394.90618896484375
z: -0.31244081258773804
visibility: 0.8872352838516235
","x: 206.41143798828125
y: 360.34564208984375
z: -0.32694011926651
visibility: 0.8736993670463562
","x: 313.27813720703125
y: 392.454833984375
z: -0.2751356065273285
visibility: 0.8495379686355591
","x: 208.2355499267578
y: 359.8393249511719
z: -0.2891932427883148
visibility: 0.8542877435684204
","x: 276.3058776855469
y: 402.18206787109375
z: 0.025148868560791016
visibility: 0.9996264576911926
","x: 256.8929748535156
y: 398.34613037109375
z: -0.02524091862142086
visibility: 0.9996621608734131
","x: 277.3719482421875
y: 465.99530029296875
z: 0.07561324536800385
visibility: 0.9896225929260254
","x: 247.12246704101562
y: 453.44061279296875
z: -0.1135420948266983
visibility: 0.928684651851654
","x: 275.9318542480469
y: 516.4606323242188
z: 0.252071738243103
visibility: 0.9911928176879883
","x: 230.22821044921875
y: 509.13714599609375
z: -0.0044041844084858894
visibility: 0.9755757451057434
","x: 272.5018615722656
y: 522.9598388671875
z: 0.26347047090530396
visibility: 0.8996208906173706
","x: 229.29537963867188
y: 514.834716796875
z: 0.0009226865950040519
visibility: 0.9232862591743469
","x: 276.41259765625
y: 537.3597412109375
z: 0.1775006204843521
visibility: 0.9871983528137207
","x: 225.3961639404297
y: 533.4528198242188
z: -0.10698416084051132
visibility: 0.9755949974060059
",,,,,,,,,,,,,,,,,,,,,
20,"x: 269.56927490234375
y: 268.78094482421875
z: -0.272158145904541
visibility: 0.9997647404670715
","x: 269.6739501953125
y: 265.6180725097656
z: -0.25961899757385254
visibility: 0.9991463422775269
","x: 270.3138427734375
y: 266.0670166015625
z: -0.25963568687438965
visibility: 0.999268114566803
","x: 271.02392578125
y: 266.6607971191406
z: -0.25964635610580444
visibility: 0.9992160201072693
","x: 267.4732360839844
y: 266.0169372558594
z: -0.2577340304851532
visibility: 0.9989732503890991
","x: 266.476806640625
y: 266.7239074707031
z: -0.25779038667678833
visibility: 0.9989950656890869
","x: 265.481201171875
y: 267.4678955078125
z: -0.2578361928462982
visibility: 0.9989320635795593
","x: 271.1327819824219
y: 273.01947021484375
z: -0.17269204556941986
visibility: 0.9989203214645386
","x: 262.59344482421875
y: 272.75689697265625
z: -0.1802818924188614
visibility: 0.9979466199874878
","x: 270.4356994628906
y: 275.3320007324219
z: -0.24164259433746338
visibility: 0.9997235536575317
","x: 267.8298034667969
y: 275.8929138183594
z: -0.2398962676525116
visibility: 0.9995463490486145
","x: 282.4922790527344
y: 318.821044921875
z: -0.10313481092453003
visibility: 0.9999078512191772
","x: 248.6417236328125
y: 304.95721435546875
z: -0.1330854594707489
visibility: 0.9998415112495422
","x: 298.2225036621094
y: 349.4641418457031
z: -0.09595330059528351
visibility: 0.9678786396980286
","x: 229.00047302246094
y: 328.56964111328125
z: -0.17760786414146423
visibility: 0.9486346244812012
","x: 319.95550537109375
y: 367.85089111328125
z: -0.19101423025131226
visibility: 0.9247581958770752
","x: 209.69741821289062
y: 349.96099853515625
z: -0.3309764266014099
visibility: 0.9148739576339722
","x: 326.5633544921875
y: 373.1424560546875
z: -0.2092762291431427
visibility: 0.8905653357505798
","x: 205.242919921875
y: 354.6580810546875
z: -0.3629458546638489
visibility: 0.8762338757514954
","x: 327.3612365722656
y: 372.16558837890625
z: -0.23809805512428284
visibility: 0.8957086205482483
","x: 205.7472381591797
y: 353.942138671875
z: -0.38657698035240173
visibility: 0.8808248043060303
","x: 325.13580322265625
y: 370.837890625
z: -0.20615561306476593
visibility: 0.8615590929985046
","x: 207.46595764160156
y: 352.99871826171875
z: -0.34588438272476196
visibility: 0.862815260887146
","x: 269.1694030761719
y: 397.0872497558594
z: 0.010138575918972492
visibility: 0.9996454119682312
","x: 250.0826416015625
y: 391.235595703125
z: -0.010255870409309864
visibility: 0.9996786117553711
","x: 276.08123779296875
y: 464.2119140625
z: -0.006757275201380253
visibility: 0.9900038838386536
","x: 238.33816528320312
y: 451.44512939453125
z: -0.10892856121063232
visibility: 0.9352541565895081
","x: 276.31591796875
y: 516.7127075195312
z: 0.1610199362039566
visibility: 0.9916325807571411
","x: 224.76719665527344
y: 505.78955078125
z: 0.08079810440540314
visibility: 0.9776174426078796
","x: 274.6669616699219
y: 525.1375122070312
z: 0.1709250807762146
visibility: 0.8991823792457581
","x: 223.96456909179688
y: 510.31781005859375
z: 0.09186152368783951
visibility: 0.9219383597373962
","x: 276.0829162597656
y: 537.3145141601562
z: 0.06060367077589035
visibility: 0.9875848293304443
","x: 221.7259979248047
y: 531.928466796875
z: -0.022827042266726494
visibility: 0.9775098562240601
",,,,,,,,,,,,,,,,,,,,,
21,"x: 259.1689147949219
y: 275.01678466796875
z: -0.258973091840744
visibility: 0.9997833371162415
","x: 260.5242919921875
y: 270.72637939453125
z: -0.24369342625141144
visibility: 0.9992058873176575
","x: 261.50054931640625
y: 270.88970947265625
z: -0.24373383820056915
visibility: 0.9993185997009277
","x: 262.4922790527344
y: 271.19287109375
z: -0.2437657117843628
visibility: 0.999267578125
","x: 257.498046875
y: 271.4134521484375
z: -0.24431541562080383
visibility: 0.999050498008728
","x: 256.2461853027344
y: 271.9532165527344
z: -0.2443593293428421
visibility: 0.9990715980529785
","x: 255.00160217285156
y: 272.494873046875
z: -0.24439890682697296
visibility: 0.9990094900131226
","x: 263.61065673828125
y: 276.8152160644531
z: -0.15209603309631348
visibility: 0.9989774227142334
","x: 252.97518920898438
y: 277.0138244628906
z: -0.1566382348537445
visibility: 0.9981120824813843
","x: 260.6400451660156
y: 281.4907531738281
z: -0.22557254135608673
visibility: 0.9997367262840271
","x: 257.02764892578125
y: 282.7327575683594
z: -0.22645004093647003
visibility: 0.9995769262313843
","x: 275.0306396484375
y: 320.30755615234375
z: -0.08555591106414795
visibility: 0.9999130964279175
","x: 240.56906127929688
y: 308.05010986328125
z: -0.10533098876476288
visibility: 0.9998478293418884
","x: 290.29248046875
y: 349.8034362792969
z: -0.07617146521806717
visibility: 0.9697707295417786
","x: 223.92039489746094
y: 336.28692626953125
z: -0.1489189863204956
visibility: 0.9524514675140381
","x: 311.0545654296875
y: 361.12176513671875
z: -0.18209488689899445
visibility: 0.9306240081787109
","x: 202.72259521484375
y: 352.4044494628906
z: -0.273404985666275
visibility: 0.9209268689155579
","x: 316.5205078125
y: 366.8320007324219
z: -0.20372188091278076
visibility: 0.8975158929824829
","x: 197.72108459472656
y: 355.9585876464844
z: -0.2901490032672882
visibility: 0.8826192021369934
","x: 316.6068420410156
y: 363.18768310546875
z: -0.23387722671031952
visibility: 0.9030225872993469
","x: 196.6149139404297
y: 356.8444519042969
z: -0.3139174282550812
visibility: 0.8876445293426514
","x: 314.1842041015625
y: 361.3011169433594
z: -0.19814717769622803
visibility: 0.8719337582588196
","x: 198.88267517089844
y: 356.526611328125
z: -0.2839820981025696
visibility: 0.8712040185928345
","x: 262.1311340332031
y: 402.2919921875
z: 0.006880972534418106
visibility: 0.9996412396430969
","x: 243.03977966308594
y: 394.5877380371094
z: -0.0069199251011013985
visibility: 0.9996859431266785
","x: 271.17034912109375
y: 465.2087707519531
z: 0.009980900213122368
visibility: 0.9906919598579407
","x: 227.9088134765625
y: 454.72021484375
z: -0.08237903565168381
visibility: 0.941559910774231
","x: 276.19671630859375
y: 518.0817260742188
z: 0.1702890545129776
visibility: 0.99221271276474
","x: 217.82711791992188
y: 507.5399169921875
z: 0.08631260693073273
visibility: 0.9796454906463623
","x: 275.20501708984375
y: 526.7835693359375
z: 0.17946025729179382
visibility: 0.9018056392669678
","x: 218.41212463378906
y: 512.5365600585938
z: 0.0959400087594986
visibility: 0.9229816198348999
","x: 277.2950744628906
y: 538.2777099609375
z: 0.07200069725513458
visibility: 0.9880431294441223
","x: 213.50550842285156
y: 532.2449951171875
z: -0.014855781570076942
visibility: 0.9792584180831909
",,,,,,,,,,,,,,,,,,,,,
22,"x: 248.12124633789062
y: 285.60919189453125
z: -0.3275027275085449
visibility: 0.9998034238815308
","x: 249.2075958251953
y: 278.792724609375
z: -0.31773075461387634
visibility: 0.9992803931236267
","x: 250.32469177246094
y: 278.3265075683594
z: -0.317766010761261
visibility: 0.999381959438324
","x: 251.39056396484375
y: 277.90869140625
z: -0.31779906153678894
visibility: 0.999335527420044
","x: 245.60635375976562
y: 280.43096923828125
z: -0.31600335240364075
visibility: 0.999139666557312
","x: 244.29330444335938
y: 281.0423583984375
z: -0.31604239344596863
visibility: 0.9991570711135864
","x: 243.12277221679688
y: 281.5736083984375
z: -0.3160734176635742
visibility: 0.999100923538208
","x: 252.80877685546875
y: 280.7342224121094
z: -0.23428431153297424
visibility: 0.9990713596343994
","x: 242.2583770751953
y: 284.04901123046875
z: -0.22325627505779266
visibility: 0.9982914924621582
","x: 250.52796936035156
y: 290.4733581542969
z: -0.2945142090320587
visibility: 0.9997597932815552
","x: 246.35324096679688
y: 291.64654541015625
z: -0.2913399934768677
visibility: 0.999615490436554
","x: 264.22607421875
y: 320.0940246582031
z: -0.17612586915493011
visibility: 0.9999187588691711
","x: 230.63316345214844
y: 316.0440673828125
z: -0.13950704038143158
visibility: 0.9998605251312256
","x: 272.30316162109375
y: 356.5910339355469
z: -0.2571377754211426
visibility: 0.970483124256134
","x: 210.7116241455078
y: 345.3014831542969
z: -0.14038854837417603
visibility: 0.9566800594329834
","x: 280.47088623046875
y: 359.6797180175781
z: -0.4308586120605469
visibility: 0.9333503246307373
","x: 185.728271484375
y: 359.62158203125
z: -0.23035888373851776
visibility: 0.9278545379638672
","x: 283.9670104980469
y: 362.6298522949219
z: -0.4670000970363617
visibility: 0.8998321890830994
","x: 179.6152801513672
y: 361.41729736328125
z: -0.24319013953208923
visibility: 0.8912755250930786
","x: 282.8209533691406
y: 356.6971435546875
z: -0.47999006509780884
visibility: 0.9056302905082703
","x: 178.5598602294922
y: 362.1697998046875
z: -0.2742086350917816
visibility: 0.8962182402610779
","x: 281.0689392089844
y: 354.5458679199219
z: -0.44162583351135254
visibility: 0.8759151697158813
","x: 180.81271362304688
y: 362.5658874511719
z: -0.2450462132692337
visibility: 0.8814420700073242
","x: 253.32518005371094
y: 402.90032958984375
z: -0.00990793015807867
visibility: 0.9996442198753357
","x: 234.4116668701172
y: 399.1675109863281
z: 0.009859207086265087
visibility: 0.9996894001960754
","x: 258.9505615234375
y: 465.0386962890625
z: -0.034081872552633286
visibility: 0.9913434386253357
","x: 223.36209106445312
y: 460.4849548339844
z: 0.03997735306620598
visibility: 0.9469313621520996
","x: 270.03973388671875
y: 519.0460815429688
z: 0.0971151739358902
visibility: 0.9928303956985474
","x: 219.5880889892578
y: 512.8668823242188
z: 0.20136311650276184
visibility: 0.9813939929008484
","x: 270.7930908203125
y: 527.2469482421875
z: 0.10416118055582047
visibility: 0.9061384201049805
","x: 222.0417938232422
y: 518.7395629882812
z: 0.21129688620567322
visibility: 0.927867591381073
","x: 272.9751892089844
y: 537.8333740234375
z: -0.0031355395913124084
visibility: 0.9887849688529968
","x: 211.42979431152344
y: 533.1845703125
z: 0.11522847414016724
visibility: 0.9807631373405457
",,,,,,,,,,,,,,,,,,,,,
23,"x: 241.9059600830078
y: 284.701171875
z: -0.284349650144577
visibility: 0.9996905326843262
","x: 243.15530395507812
y: 278.412353515625
z: -0.2831290364265442
visibility: 0.9988077282905579
","x: 244.3196563720703
y: 278.079345703125
z: -0.2831488251686096
visibility: 0.9989176988601685
","x: 245.33609008789062
y: 277.802978515625
z: -0.28320419788360596
visibility: 0.9987586140632629
","x: 240.20396423339844
y: 279.8332824707031
z: -0.27357542514801025
visibility: 0.9986476898193359
","x: 239.31239318847656
y: 280.332275390625
z: -0.27363038063049316
visibility: 0.9986191987991333
","x: 238.42750549316406
y: 280.72900390625
z: -0.2737288177013397
visibility: 0.9986094832420349
","x: 246.97628784179688
y: 280.74285888671875
z: -0.21283964812755585
visibility: 0.9984788298606873
","x: 237.06004333496094
y: 283.3108215332031
z: -0.18710292875766754
visibility: 0.9976184964179993
","x: 243.56558227539062
y: 290.0393981933594
z: -0.26176637411117554
visibility: 0.9995700716972351
","x: 240.29580688476562
y: 290.88055419921875
z: -0.24911577999591827
visibility: 0.9994339346885681
","x: 260.00677490234375
y: 316.6546936035156
z: -0.15985903143882751
visibility: 0.9998324513435364
","x: 226.99571228027344
y: 316.0345153808594
z: -0.1348901093006134
visibility: 0.9998554587364197
","x: 264.089599609375
y: 354.9658508300781
z: -0.2179553508758545
visibility: 0.9458909034729004
","x: 206.75509643554688
y: 343.8779296875
z: -0.11733995378017426
visibility: 0.9600538015365601
","x: 266.2071533203125
y: 366.6060791015625
z: -0.37310296297073364
visibility: 0.9046773910522461
","x: 181.6920166015625
y: 358.1662292480469
z: -0.18461434543132782
visibility: 0.9324511289596558
","x: 268.5511169433594
y: 373.6031799316406
z: -0.4056045413017273
visibility: 0.8706363439559937
","x: 176.40895080566406
y: 360.9839172363281
z: -0.203139990568161
visibility: 0.8957902789115906
","x: 267.1737060546875
y: 369.8647766113281
z: -0.4239777624607086
visibility: 0.8781810402870178
","x: 176.04913330078125
y: 361.61981201171875
z: -0.22706636786460876
visibility: 0.9010275602340698
","x: 265.714599609375
y: 367.3251647949219
z: -0.38510406017303467
visibility: 0.8486046195030212
","x: 177.85484313964844
y: 361.67706298828125
z: -0.19766955077648163
visibility: 0.8873610496520996
","x: 250.43409729003906
y: 402.0953369140625
z: -0.004624531138688326
visibility: 0.9994661211967468
","x: 231.77574157714844
y: 398.3917541503906
z: 0.004650393966585398
visibility: 0.999660849571228
","x: 252.89236450195312
y: 459.9652404785156
z: -0.10290428251028061
visibility: 0.9886757135391235
","x: 223.475341796875
y: 455.93328857421875
z: -0.07171077281236649
visibility: 0.9504836797714233
","x: 237.17282104492188
y: 489.0760803222656
z: 0.132145494222641
visibility: 0.9855371713638306
","x: 218.46385192871094
y: 512.5313110351562
z: 0.14331594109535217
visibility: 0.9819501638412476
","x: 233.03977966308594
y: 489.77398681640625
z: 0.15248802304267883
visibility: 0.9013141989707947
","x: 220.29295349121094
y: 518.8826904296875
z: 0.1433190405368805
visibility: 0.9253911972045898
","x: 240.17987060546875
y: 513.1481323242188
z: 0.07531418651342392
visibility: 0.9833663702011108
","x: 212.4846954345703
y: 533.1957397460938
z: 0.03989606350660324
visibility: 0.9806744456291199
",,,,,,,,,,,,,,,,,,,,,
24,"x: 242.03668212890625
y: 285.2224426269531
z: -0.20488712191581726
visibility: 0.9997173547744751
","x: 243.23861694335938
y: 279.6436462402344
z: -0.20311705768108368
visibility: 0.9989057779312134
","x: 244.3074951171875
y: 279.2972412109375
z: -0.20315095782279968
visibility: 0.9990091919898987
","x: 245.43280029296875
y: 279.0081481933594
z: -0.20317482948303223
visibility: 0.9988659024238586
","x: 240.82139587402344
y: 280.9683837890625
z: -0.19100624322891235
visibility: 0.9987488389015198
","x: 240.13429260253906
y: 281.43017578125
z: -0.19102689623832703
visibility: 0.9987202882766724
","x: 239.45924377441406
y: 281.84002685546875
z: -0.1910540610551834
visibility: 0.9987064599990845
","x: 249.04644775390625
y: 282.4697265625
z: -0.16690483689308167
visibility: 0.998612105846405
","x: 239.5144500732422
y: 285.0203552246094
z: -0.10952706634998322
visibility: 0.9977550506591797
","x: 245.11659240722656
y: 290.412109375
z: -0.190093994140625
visibility: 0.9996044635772705
","x: 241.3546905517578
y: 291.19683837890625
z: -0.17353899776935577
visibility: 0.9994690418243408
","x: 262.2326965332031
y: 317.7862243652344
z: -0.14550864696502686
visibility: 0.9998475909233093
","x: 230.49560546875
y: 320.4179382324219
z: -0.049187660217285156
visibility: 0.9998587965965271
","x: 271.2168884277344
y: 358.6053466796875
z: -0.16186127066612244
visibility: 0.9506840705871582
","x: 212.66758728027344
y: 347.4534912109375
z: -0.015482628718018532
visibility: 0.9611554741859436
","x: 280.1425476074219
y: 391.9375305175781
z: -0.2395620048046112
visibility: 0.9127370715141296
","x: 192.5011444091797
y: 365.2365417480469
z: -0.08273649215698242
visibility: 0.9369282126426697
","x: 283.3453369140625
y: 398.0200500488281
z: -0.26178279519081116
visibility: 0.8799639344215393
","x: 187.14154052734375
y: 368.1998291015625
z: -0.10131756216287613
visibility: 0.900700032711029
","x: 282.923828125
y: 397.7957763671875
z: -0.28487133979797363
visibility: 0.8872303366661072
","x: 187.23056030273438
y: 367.1878662109375
z: -0.1283539980649948
visibility: 0.906363308429718
","x: 281.2851867675781
y: 396.2330322265625
z: -0.25086963176727295
visibility: 0.8601828217506409
","x: 189.115234375
y: 367.15350341796875
z: -0.09808848798274994
visibility: 0.8940383791923523
","x: 252.00204467773438
y: 403.64385986328125
z: -0.018559882417321205
visibility: 0.9995087385177612
","x: 233.4693603515625
y: 401.05462646484375
z: 0.018506674095988274
visibility: 0.9996877908706665
","x: 257.9802551269531
y: 463.6416931152344
z: -0.0672532469034195
visibility: 0.9895260334014893
","x: 224.2700653076172
y: 459.79736328125
z: -0.04036467522382736
visibility: 0.9552481770515442
","x: 251.75291442871094
y: 493.5318298339844
z: 0.15010876953601837
visibility: 0.9866703152656555
","x: 219.45396423339844
y: 512.9132690429688
z: 0.14251580834388733
visibility: 0.9835937023162842
","x: 243.50155639648438
y: 501.2222595214844
z: 0.16701731085777283
visibility: 0.9022347331047058
","x: 222.05831909179688
y: 519.01123046875
z: 0.15446361899375916
visibility: 0.9297909736633301
","x: 260.56298828125
y: 516.031982421875
z: 0.08007505536079407
visibility: 0.9844735264778137
","x: 211.50177001953125
y: 533.4300537109375
z: 0.07122189551591873
visibility: 0.9823042750358582
",,,,,,,,,,,,,,,,,,,,,
25,"x: 248.33807373046875
y: 289.50128173828125
z: -0.19744089245796204
visibility: 0.9997422099113464
","x: 249.7478790283203
y: 285.2811279296875
z: -0.19110094010829926
visibility: 0.9989957809448242
","x: 250.70277404785156
y: 285.43359375
z: -0.1911013126373291
visibility: 0.9990920424461365
","x: 251.69517517089844
y: 285.5474853515625
z: -0.1911161094903946
visibility: 0.9989598989486694
","x: 247.3428192138672
y: 285.4068908691406
z: -0.18426509201526642
visibility: 0.998854398727417
","x: 246.59326171875
y: 285.6222839355469
z: -0.1843036264181137
visibility: 0.9988319277763367
","x: 245.86964416503906
y: 285.7579650878906
z: -0.18432505428791046
visibility: 0.998815655708313
","x: 253.867431640625
y: 289.6920166015625
z: -0.1392822563648224
visibility: 0.9987307190895081
","x: 245.02081298828125
y: 289.0915222167969
z: -0.10764595121145248
visibility: 0.9979467391967773
","x: 250.2858123779297
y: 295.51092529296875
z: -0.17750297486782074
visibility: 0.9996387362480164
","x: 247.1674346923828
y: 295.79595947265625
z: -0.16869458556175232
visibility: 0.9995143413543701
","x: 264.6597900390625
y: 325.30194091796875
z: -0.1032206192612648
visibility: 0.9998612403869629
","x: 233.85025024414062
y: 320.9996032714844
z: -0.062494050711393356
visibility: 0.9998694062232971
","x: 273.264892578125
y: 362.81915283203125
z: -0.10680025815963745
visibility: 0.9553012251853943
","x: 214.64968872070312
y: 346.32257080078125
z: -0.10047558695077896
visibility: 0.962243378162384
","x: 295.62042236328125
y: 391.7226867675781
z: -0.18902941048145294
visibility: 0.9209423065185547
","x: 212.27734375
y: 367.4928283691406
z: -0.2669926881790161
visibility: 0.9399182200431824
","x: 300.1342468261719
y: 396.61444091796875
z: -0.21156874299049377
visibility: 0.8905590176582336
","x: 211.52828979492188
y: 373.5486145019531
z: -0.3016272783279419
visibility: 0.90377277135849
","x: 300.2117614746094
y: 396.75372314453125
z: -0.23666119575500488
visibility: 0.8973527550697327
","x: 213.6839599609375
y: 372.3414306640625
z: -0.31606218218803406
visibility: 0.9095644950866699
","x: 298.66259765625
y: 395.39080810546875
z: -0.2015867531299591
visibility: 0.8726336359977722
","x: 214.78305053710938
y: 370.78802490234375
z: -0.27858966588974
visibility: 0.897444486618042
","x: 255.71388244628906
y: 407.69451904296875
z: -0.01737895794212818
visibility: 0.9995399117469788
","x: 237.23800659179688
y: 404.9154968261719
z: 0.017365483567118645
visibility: 0.9997134804725647
","x: 260.5646667480469
y: 466.9434814453125
z: -0.009745413437485695
visibility: 0.9903759956359863
","x: 227.32830810546875
y: 463.1616516113281
z: -0.042204536497592926
visibility: 0.9595844149589539
","x: 271.1737976074219
y: 503.9435119628906
z: 0.1498788297176361
visibility: 0.9877853989601135
","x: 220.80844116210938
y: 512.9520874023438
z: 0.09525026381015778
visibility: 0.9850853681564331
","x: 272.2950744628906
y: 506.70751953125
z: 0.1600419282913208
visibility: 0.9023168087005615
","x: 223.02841186523438
y: 519.372802734375
z: 0.10260377824306488
visibility: 0.9329527020454407
","x: 271.99407958984375
y: 520.1741943359375
z: 0.061452798545360565
visibility: 0.9855303168296814
","x: 212.6129913330078
y: 533.274169921875
z: 0.01632576249539852
visibility: 0.9837849736213684
",,,,,,,,,,,,,,,,,,,,,
26,"x: 250.42001342773438
y: 288.2641906738281
z: -0.19559484720230103
visibility: 0.9997628331184387
","x: 253.44297790527344
y: 283.6046142578125
z: -0.18474619090557098
visibility: 0.9990581274032593
","x: 254.69363403320312
y: 283.80487060546875
z: -0.18476280570030212
visibility: 0.9991459250450134
","x: 255.8909454345703
y: 284.0256042480469
z: -0.18481318652629852
visibility: 0.9990242719650269
","x: 249.96426391601562
y: 283.71124267578125
z: -0.1798545867204666
visibility: 0.99894118309021
","x: 248.71473693847656
y: 283.970703125
z: -0.17987464368343353
visibility: 0.9989230036735535
","x: 247.13412475585938
y: 284.19000244140625
z: -0.17987853288650513
visibility: 0.9989080429077148
","x: 258.6452331542969
y: 288.184326171875
z: -0.11540345847606659
visibility: 0.9988085627555847
","x: 247.40821838378906
y: 287.5363464355469
z: -0.09191156923770905
visibility: 0.9981237649917603
","x: 251.93655395507812
y: 294.3585510253906
z: -0.1696392297744751
visibility: 0.9996653199195862
","x: 248.38302612304688
y: 294.7937927246094
z: -0.16298876702785492
visibility: 0.9995536208152771
","x: 266.5997314453125
y: 324.1363830566406
z: -0.06807703524827957
visibility: 0.999871015548706
","x: 235.41033935546875
y: 318.5841064453125
z: -0.03904223069548607
visibility: 0.9998788237571716
","x: 287.51458740234375
y: 351.24029541015625
z: -0.05695171281695366
visibility: 0.9591543078422546
","x: 227.88711547851562
y: 344.8758544921875
z: -0.05940767005085945
visibility: 0.962489902973175
","x: 309.1396789550781
y: 369.6789245605469
z: -0.1265958696603775
visibility: 0.9267966151237488
","x: 234.83474731445312
y: 367.3007507324219
z: -0.20064778625965118
visibility: 0.9406211972236633
","x: 315.5967712402344
y: 372.86004638671875
z: -0.14620181918144226
visibility: 0.8964720964431763
","x: 235.43829345703125
y: 377.82470703125
z: -0.2350272834300995
visibility: 0.9028825163841248
","x: 316.28082275390625
y: 372.7852783203125
z: -0.16908666491508484
visibility: 0.9033300876617432
","x: 238.09483337402344
y: 376.893310546875
z: -0.243570476770401
visibility: 0.9085783362388611
","x: 313.6637268066406
y: 372.80926513671875
z: -0.1383974254131317
visibility: 0.8800444602966309
","x: 238.32376098632812
y: 372.9989929199219
z: -0.20894214510917664
visibility: 0.8958712816238403
","x: 256.2345275878906
y: 406.35125732421875
z: -0.0163162462413311
visibility: 0.9995657205581665
","x: 238.80465698242188
y: 402.5576477050781
z: 0.016290169209241867
visibility: 0.999735951423645
","x: 267.12445068359375
y: 465.9341735839844
z: -0.042323723435401917
visibility: 0.9906368255615234
","x: 227.37850952148438
y: 450.121337890625
z: -0.1272086650133133
visibility: 0.963485062122345
","x: 274.03167724609375
y: 505.38751220703125
z: 0.12335715442895889
visibility: 0.9884610772132874
","x: 223.29205322265625
y: 500.6323547363281
z: 0.04455574229359627
visibility: 0.9863523244857788
","x: 274.0740966796875
y: 511.0449523925781
z: 0.13405275344848633
visibility: 0.9007959365844727
","x: 230.66531372070312
y: 509.04534912109375
z: 0.056452490389347076
visibility: 0.9373939633369446
","x: 277.9233703613281
y: 527.2728271484375
z: 0.03373103216290474
visibility: 0.985751748085022
","x: 217.48583984375
y: 523.4349975585938
z: -0.030871432274580002
visibility: 0.9850571751594543
",,,,,,,,,,,,,,,,,,,,,
27,"x: 251.99583435058594
y: 287.7975769042969
z: -0.21675905585289001
visibility: 0.9997854232788086
","x: 255.29588317871094
y: 283.2532653808594
z: -0.2018413543701172
visibility: 0.999140202999115
","x: 256.5608825683594
y: 283.5639343261719
z: -0.2018766850233078
visibility: 0.9992217421531677
","x: 257.7762451171875
y: 283.9149169921875
z: -0.20192256569862366
visibility: 0.9991116523742676
","x: 251.6380157470703
y: 282.9550476074219
z: -0.19941571354866028
visibility: 0.9990355372428894
","x: 250.2061767578125
y: 283.0639953613281
z: -0.19943663477897644
visibility: 0.9990202188491821
","x: 248.27215576171875
y: 283.2218017578125
z: -0.19943225383758545
visibility: 0.9990059733390808
","x: 259.79833984375
y: 288.0437316894531
z: -0.11840581893920898
visibility: 0.9989081025123596
","x: 247.5827178955078
y: 286.7082824707031
z: -0.10587608814239502
visibility: 0.9982949495315552
","x: 252.63250732421875
y: 293.94927978515625
z: -0.18676728010177612
visibility: 0.9996964931488037
","x: 249.1957244873047
y: 293.98162841796875
z: -0.1830354779958725
visibility: 0.9995956420898438
","x: 266.9853515625
y: 323.81097412109375
z: -0.08042012155056
visibility: 0.9998834133148193
","x: 236.6253204345703
y: 318.14495849609375
z: -0.03953076899051666
visibility: 0.9998889565467834
","x: 288.3616943359375
y: 351.3868408203125
z: -0.10561330616474152
visibility: 0.9630128741264343
","x: 227.4736785888672
y: 345.6849365234375
z: -0.040534406900405884
visibility: 0.9640598297119141
","x: 305.13043212890625
y: 369.1257019042969
z: -0.2041608840227127
visibility: 0.9335759878158569
","x: 224.25399780273438
y: 376.99664306640625
z: -0.15207387506961823
visibility: 0.9432709217071533
","x: 310.2838134765625
y: 374.09967041015625
z: -0.21153530478477478
visibility: 0.9054760336875916
","x: 222.32371520996094
y: 385.1529541015625
z: -0.18035148084163666
visibility: 0.9054574966430664
","x: 310.3205261230469
y: 373.5232849121094
z: -0.2312639206647873
visibility: 0.9118875861167908
","x: 224.64230346679688
y: 384.4871520996094
z: -0.2020348608493805
visibility: 0.9111830592155457
","x: 308.2062683105469
y: 372.7750244140625
z: -0.21529090404510498
visibility: 0.8903998136520386
","x: 225.8507843017578
y: 382.09576416015625
z: -0.16434115171432495
visibility: 0.8987573385238647
","x: 258.9942932128906
y: 405.5105285644531
z: -0.016665641218423843
visibility: 0.9995937347412109
","x: 241.17788696289062
y: 402.0679931640625
z: 0.0166923888027668
visibility: 0.9997581243515015
","x: 268.6687927246094
y: 462.41961669921875
z: -0.060104332864284515
visibility: 0.9912400841712952
","x: 229.48521423339844
y: 449.29425048828125
z: -0.20186901092529297
visibility: 0.9670688509941101
","x: 276.2425231933594
y: 506.8954772949219
z: 0.13514788448810577
visibility: 0.9893126487731934
","x: 238.43826293945312
y: 496.4280700683594
z: -0.00869491882622242
visibility: 0.9875528216362
","x: 276.6517028808594
y: 511.70574951171875
z: 0.1489315927028656
visibility: 0.8977933526039124
","x: 244.078125
y: 501.43719482421875
z: 0.0048323567025363445
visibility: 0.9414103627204895
","x: 277.2444152832031
y: 527.9706420898438
z: 0.04073355719447136
visibility: 0.9864193797111511
","x: 231.36740112304688
y: 521.5294799804688
z: -0.09335625171661377
visibility: 0.9863002300262451
",,,,,,,,,,,,,,,,,,,,,
28,"x: 252.80221557617188
y: 292.7123107910156
z: -0.26354530453681946
visibility: 0.9996475577354431
","x: 255.42506408691406
y: 287.7068786621094
z: -0.25483590364456177
visibility: 0.9987947344779968
","x: 256.63885498046875
y: 287.96435546875
z: -0.25489741563796997
visibility: 0.9989148378372192
","x: 257.84918212890625
y: 288.2568054199219
z: -0.2549746632575989
visibility: 0.9988155364990234
","x: 252.09071350097656
y: 287.49609375
z: -0.2490115612745285
visibility: 0.998579204082489
","x: 250.9129180908203
y: 287.5091247558594
z: -0.24904711544513702
visibility: 0.9985474348068237
","x: 249.5145263671875
y: 287.518798828125
z: -0.2490677535533905
visibility: 0.9985417723655701
","x: 259.9747009277344
y: 291.4391784667969
z: -0.19058169424533844
visibility: 0.9985678195953369
","x: 248.60157775878906
y: 290.1944580078125
z: -0.158852681517601
visibility: 0.9972326159477234
","x: 254.19927978515625
y: 298.8141174316406
z: -0.23808273673057556
visibility: 0.9996247887611389
","x: 250.78076171875
y: 298.94110107421875
z: -0.22911684215068817
visibility: 0.9994381666183472
","x: 268.33123779296875
y: 323.5484619140625
z: -0.1747787743806839
visibility: 0.9998904466629028
","x: 237.2295684814453
y: 322.21380615234375
z: -0.04871491342782974
visibility: 0.9998742341995239
","x: 286.37451171875
y: 351.1844482421875
z: -0.24396196007728577
visibility: 0.9640394449234009
","x: 224.53829956054688
y: 351.8450927734375
z: -0.03728795796632767
visibility: 0.9624755382537842
","x: 271.281494140625
y: 370.40777587890625
z: -0.3718734383583069
visibility: 0.924123227596283
","x: 204.0692901611328
y: 374.28472900390625
z: -0.10644708573818207
visibility: 0.9435111880302429
","x: 266.7914733886719
y: 375.0497131347656
z: -0.4060424864292145
visibility: 0.889171302318573
","x: 197.39585876464844
y: 380.1246337890625
z: -0.12635278701782227
visibility: 0.9053782820701599
","x: 264.6707763671875
y: 374.0352783203125
z: -0.41074758768081665
visibility: 0.8948471546173096
","x: 196.6071319580078
y: 379.6039123535156
z: -0.15355601906776428
visibility: 0.9118129014968872
","x: 265.2156982421875
y: 372.1539306640625
z: -0.3764398694038391
visibility: 0.8686541318893433
","x: 199.08187866210938
y: 377.37664794921875
z: -0.1209772378206253
visibility: 0.9001165628433228
","x: 259.62640380859375
y: 406.724853515625
z: -0.02950005605816841
visibility: 0.999598503112793
","x: 241.70755004882812
y: 406.26055908203125
z: 0.029460672289133072
visibility: 0.9997288584709167
","x: 267.4081115722656
y: 463.719482421875
z: -0.05796032398939133
visibility: 0.9906430244445801
","x: 236.38294982910156
y: 463.2386779785156
z: 0.04435693100094795
visibility: 0.9648899435997009
","x: 277.0564880371094
y: 511.77386474609375
z: 0.12526214122772217
visibility: 0.9891445636749268
","x: 241.8184356689453
y: 505.05517578125
z: 0.2441064417362213
visibility: 0.985995352268219
","x: 278.6365661621094
y: 516.122314453125
z: 0.13893267512321472
visibility: 0.8809982538223267
","x: 245.18740844726562
y: 507.6427001953125
z: 0.25977393984794617
visibility: 0.9328890442848206
","x: 277.0853271484375
y: 528.7733764648438
z: 0.035905320197343826
visibility: 0.9855173826217651
","x: 237.24169921875
y: 524.606689453125
z: 0.18035297095775604
visibility: 0.9847370982170105
",,,,,,,,,,,,,,,,,,,,,
29,"x: 250.27015686035156
y: 271.2558288574219
z: -0.16007100045681
visibility: 0.9996824264526367
","x: 252.15036010742188
y: 264.3876953125
z: -0.14961162209510803
visibility: 0.9989141821861267
","x: 253.6337432861328
y: 264.2660827636719
z: -0.14964210987091064
visibility: 0.999022364616394
","x: 255.038330078125
y: 264.2684631347656
z: -0.14965304732322693
visibility: 0.9989328384399414
","x: 248.41455078125
y: 265.905517578125
z: -0.14150676131248474
visibility: 0.9987195134162903
","x: 247.37628173828125
y: 266.6873474121094
z: -0.141475647687912
visibility: 0.9986903667449951
","x: 246.46133422851562
y: 267.4615783691406
z: -0.14146578311920166
visibility: 0.9986850023269653
","x: 257.6421203613281
y: 266.3616638183594
z: -0.07618935406208038
visibility: 0.9987093210220337
","x: 245.906494140625
y: 270.5689697265625
z: -0.03768328204751015
visibility: 0.997504711151123
","x: 253.26161193847656
y: 276.9722595214844
z: -0.13197539746761322
visibility: 0.9996615648269653
","x: 248.4601593017578
y: 277.8119812011719
z: -0.12123274803161621
visibility: 0.9994932413101196
","x: 268.3095397949219
y: 298.4756164550781
z: -0.05169714614748955
visibility: 0.9998984336853027
","x: 236.80484008789062
y: 302.02667236328125
z: 0.04098983108997345
visibility: 0.9998772740364075
","x: 269.94073486328125
y: 341.3379211425781
z: -0.18632246553897858
visibility: 0.9670165777206421
","x: 222.08511352539062
y: 324.65032958984375
z: 0.01609884947538376
visibility: 0.9649778604507446
","x: 269.9654235839844
y: 296.6493835449219
z: -0.35516542196273804
visibility: 0.9314591288566589
","x: 206.08815002441406
y: 294.8515625
z: -0.11631040275096893
visibility: 0.9488024711608887
","x: 271.3893127441406
y: 286.04229736328125
z: -0.39125701785087585
visibility: 0.8995873928070068
","x: 200.78302001953125
y: 282.7928466796875
z: -0.14146190881729126
visibility: 0.9137200713157654
","x: 271.1184997558594
y: 282.93829345703125
z: -0.38850170373916626
visibility: 0.9046481847763062
","x: 203.09780883789062
y: 280.0787353515625
z: -0.1493472158908844
visibility: 0.9195131659507751
","x: 270.0446472167969
y: 286.8832092285156
z: -0.35848233103752136
visibility: 0.8804678916931152
","x: 205.46173095703125
y: 284.10626220703125
z: -0.1244068518280983
visibility: 0.9086426496505737
","x: 259.94769287109375
y: 385.8429260253906
z: -0.02751672826707363
visibility: 0.9996215105056763
","x: 241.87860107421875
y: 387.4021911621094
z: 0.027462374418973923
visibility: 0.9997329711914062
","x: 266.12139892578125
y: 450.2262878417969
z: -0.05618811398744583
visibility: 0.9914166331291199
","x: 238.915283203125
y: 451.4999694824219
z: 0.012455267831683159
visibility: 0.9681559801101685
","x: 276.1266784667969
y: 511.7419128417969
z: 0.07691699266433716
visibility: 0.9900780320167542
","x: 242.1984405517578
y: 506.603271484375
z: 0.15826573967933655
visibility: 0.9871394038200378
","x: 277.4751281738281
y: 516.2557373046875
z: 0.08392727375030518
visibility: 0.8844811916351318
","x: 245.4580841064453
y: 510.4906921386719
z: 0.16812603175640106
visibility: 0.9361625909805298
","x: 273.7626953125
y: 529.2677001953125
z: -0.0295164342969656
visibility: 0.9866762161254883
","x: 236.53648376464844
y: 525.3184814453125
z: 0.07495778799057007
visibility: 0.9858236312866211
