uscmakers/ReverseChoreography/data/7_tik_tok_kesha.csv
,NOSE,LEFT_EYE_INNER,LEFT_EYE,LEFT_EYE_OUTER,RIGHT_EYE_INNER,RIGHT_EYE,RIGHT_EYE_OUTER,LEFT_EAR,RIGHT_EAR,MOUTH_LEFT,MOUTH_RIGHT,LEFT_SHOULDER,RIGHT_SHOULDER,LEFT_ELBOW,RIGHT_ELBOW,LEFT_WRIST,RIGHT_WRIST,LEFT_PINKY,RIGHT_PINKY,LEFT_INDEX,RIGHT_INDEX,LEFT_THUMB,RIGHT_THUMB,LEFT_HIP,RIGHT_HIP,LEFT_KNEE,RIGHT_KNEE,LEFT_ANKLE,RIGHT_ANKLE,LEFT_HEEL,RIGHT_HEEL,LEFT_FOOT_INDEX,RIGHT_FOOT_INDEX,WRIST,THUMB_CPC,THUMB_MCP,THUMB_IP,THUMB_TIP,INDEX_FINGER_MCP,INDEX_FINGER_PIP,INDEX_FINGER_DIP,INDEX_FINGER_TIP,MIDDLE_FINGER_MCP,MIDDLE_FINGER_PIP,MIDDLE_FINGER_DIP,MIDDLE_FINGER_TIP,RING_FINGER_PIP,RING_FINGER_DIP,RING_FINGER_TIP,RING_FINGER_MCP,PINKY_MCP,PINKY_PIP,PINKY_DIP,PINKY_TIP,WRIST2,THUMB_CPC2,THUMB_MCP2,THUMB_IP2,THUMB_TIP2,INDEX_FINGER_MCP2,INDEX_FINGER_PIP2,INDEX_FINGER_DIP2,INDEX_FINGER_TIP2,MIDDLE_FINGER_MCP2,MIDDLE_FINGER_PIP2,MIDDLE_FINGER_DIP2,MIDDLE_FINGER_TIP2,RING_FINGER_PIP2,RING_FINGER_DIP2,RING_FINGER_TIP2,RING_FINGER_MCP2,PINKY_MCP2,PINKY_PIP2,PINKY_DIP2,PINKY_TIP2
0,"x: 262.2821350097656
y: 296.7303771972656
z: -0.14471793174743652
visibility: 0.9926972985267639
","x: 265.0308837890625
y: 291.15093994140625
z: -0.15358148515224457
visibility: 0.9921972155570984
","x: 266.0052185058594
y: 290.9437255859375
z: -0.1536049246788025
visibility: 0.991844117641449
","x: 267.0179748535156
y: 290.7606201171875
z: -0.15365362167358398
visibility: 0.9930498600006104
","x: 263.3674621582031
y: 291.2223205566406
z: -0.1334528625011444
visibility: 0.9872879981994629
","x: 263.1638488769531
y: 291.0427551269531
z: -0.13347312808036804
visibility: 0.982517421245575
","x: 262.99273681640625
y: 290.8331604003906
z: -0.13349582254886627
visibility: 0.9846475124359131
","x: 270.922607421875
y: 292.7939453125
z: -0.14844906330108643
visibility: 0.9888013601303101
","x: 266.2497253417969
y: 292.4104919433594
z: -0.05696055293083191
visibility: 0.9542731642723083
","x: 264.1644287109375
y: 300.88702392578125
z: -0.13977643847465515
visibility: 0.986234724521637
","x: 262.1744689941406
y: 301.00299072265625
z: -0.1137765422463417
visibility: 0.9774466156959534
","x: 278.4818115234375
y: 318.6768798828125
z: -0.16305424273014069
visibility: 0.996921956539154
","x: 261.739501953125
y: 319.8226318359375
z: 0.021579453721642494
visibility: 0.9956046342849731
","x: 269.80706787109375
y: 350.0729675292969
z: -0.22706839442253113
visibility: 0.9370825290679932
","x: 261.13232421875
y: 347.0845031738281
z: 0.020252395421266556
visibility: 0.13059955835342407
","x: 262.1716003417969
y: 331.8459777832031
z: -0.24998214840888977
visibility: 0.7842537760734558
","x: 261.227294921875
y: 346.1684875488281
z: -0.08822997659444809
visibility: 0.19077785313129425
","x: 260.2166442871094
y: 325.5125732421875
z: -0.2742938995361328
visibility: 0.7290234565734863
","x: 260.6108703613281
y: 346.27069091796875
z: -0.10506559908390045
visibility: 0.20999495685100555
","x: 260.976806640625
y: 319.91900634765625
z: -0.26968279480934143
visibility: 0.7243323922157288
","x: 262.42095947265625
y: 343.1623840332031
z: -0.11667965352535248
visibility: 0.21172700822353363
","x: 261.09222412109375
y: 324.882568359375
z: -0.24872219562530518
visibility: 0.6549037098884583
","x: 262.8446350097656
y: 342.9883117675781
z: -0.09747058898210526
visibility: 0.21172745525836945
","x: 271.1988220214844
y: 398.60736083984375
z: -0.06036487966775894
visibility: 0.9990407824516296
","x: 260.4551086425781
y: 395.8716125488281
z: 0.06043899059295654
visibility: 0.9986969828605652
","x: 275.3534851074219
y: 441.1040954589844
z: -0.03541193902492523
visibility: 0.967548668384552
","x: 257.5875244140625
y: 438.85028076171875
z: 0.12754641473293304
visibility: 0.8406171202659607
","x: 289.76702880859375
y: 488.0688781738281
z: 0.04779338091611862
visibility: 0.9789372086524963
","x: 257.27020263671875
y: 486.779296875
z: 0.2590268850326538
visibility: 0.9294489026069641
","x: 294.05181884765625
y: 493.0259704589844
z: 0.05378248542547226
visibility: 0.8862445950508118
","x: 260.4157409667969
y: 493.5726623535156
z: 0.2691320478916168
visibility: 0.8676640391349792
","x: 285.5050048828125
y: 507.04241943359375
z: -0.021870264783501625
visibility: 0.9797267913818359
","x: 244.81996154785156
y: 502.4996337890625
z: 0.21616259217262268
visibility: 0.941425085067749
",,,,,,,,,,,,,,,,,,,,,,,,,,,,,,,,,,,,,,,,,,
1,"x: 264.3682556152344
y: 295.807373046875
z: -0.1337033212184906
visibility: 0.9934213161468506
","x: 265.5892028808594
y: 290.40875244140625
z: -0.13194838166236877
visibility: 0.9929640889167786
","x: 266.5065002441406
y: 290.02081298828125
z: -0.13199225068092346
visibility: 0.9926480650901794
","x: 267.5027160644531
y: 289.6032409667969
z: -0.13201427459716797
visibility: 0.9937325716018677
","x: 263.7898254394531
y: 291.0439758300781
z: -0.11893973499536514
visibility: 0.9885329008102417
","x: 263.4134521484375
y: 291.01123046875
z: -0.11894802749156952
visibility: 0.9842328429222107
","x: 263.1053771972656
y: 290.8505554199219
z: -0.11893469095230103
visibility: 0.9861454367637634
","x: 271.01165771484375
y: 291.13140869140625
z: -0.09267780929803848
visibility: 0.9899096488952637
","x: 265.06707763671875
y: 292.5939636230469
z: -0.031720973551273346
visibility: 0.9587537050247192
","x: 266.864013671875
y: 299.80670166015625
z: -0.11785038560628891
visibility: 0.9876044392585754
","x: 264.294189453125
y: 300.5578918457031
z: -0.10024353116750717
visibility: 0.9796848893165588
","x: 281.7832336425781
y: 319.426513671875
z: -0.08406971395015717
visibility: 0.9972286224365234
","x: 260.2237548828125
y: 319.8824768066406
z: 0.03963235020637512
visibility: 0.9960379004478455
","x: 284.7834167480469
y: 356.47296142578125
z: -0.16581586003303528
visibility: 0.9427862763404846
","x: 254.8861846923828
y: 350.5798645019531
z: 0.0172896645963192
visibility: 0.20757777988910675
","x: 290.7388000488281
y: 359.27447509765625
z: -0.3032039403915405
visibility: 0.8054305911064148
","x: 243.0365447998047
y: 348.740966796875
z: -0.1460956633090973
visibility: 0.27069664001464844
","x: 294.9898986816406
y: 362.9260559082031
z: -0.33988964557647705
visibility: 0.7553858160972595
","x: 237.54539489746094
y: 350.28265380859375
z: -0.17378851771354675
visibility: 0.28735899925231934
","x: 293.7210388183594
y: 357.8858642578125
z: -0.3469223976135254
visibility: 0.7512131929397583
","x: 237.65057373046875
y: 347.3302917480469
z: -0.19174930453300476
visibility: 0.2890720069408417
","x: 291.5006408691406
y: 355.9698181152344
z: -0.30967023968696594
visibility: 0.6882874965667725
","x: 239.50302124023438
y: 346.8813781738281
z: -0.15937985479831696
visibility: 0.28877297043800354
","x: 274.46875
y: 395.01226806640625
z: -0.04563920944929123
visibility: 0.9991188049316406
","x: 260.5047302246094
y: 395.19171142578125
z: 0.0456918329000473
visibility: 0.9988141059875488
","x: 278.1068420410156
y: 440.8739929199219
z: -0.04958435148000717
visibility: 0.9704453349113464
","x: 257.6810302734375
y: 439.2335510253906
z: 0.03771522268652916
visibility: 0.8555954694747925
","x: 289.7670593261719
y: 488.5278625488281
z: 0.06703124940395355
visibility: 0.9806070923805237
","x: 256.9448547363281
y: 488.3956298828125
z: 0.1633007526397705
visibility: 0.9359109997749329
","x: 293.5988464355469
y: 494.03497314453125
z: 0.0753972977399826
visibility: 0.8901796936988831
","x: 259.6969299316406
y: 495.75335693359375
z: 0.17173443734645844
visibility: 0.878264844417572
","x: 285.620849609375
y: 507.05755615234375
z: -0.004837478511035442
visibility: 0.9811275601387024
","x: 244.8648223876953
y: 502.5118713378906
z: 0.10360278934240341
visibility: 0.9465315341949463
","x: 239.93081665039062
y: 348.2064514160156
z: 0.0
","x: 237.4998016357422
y: 345.4014587402344
z: -0.00020631511870305985
","x: 234.99949645996094
y: 343.882080078125
z: -0.0010044655064120889
","x: 233.0816192626953
y: 342.9281311035156
z: -0.002202854258939624
","x: 231.4676055908203
y: 341.79718017578125
z: -0.003494034055620432
","x: 232.8321990966797
y: 348.0493469238281
z: -0.0007482139626517892
","x: 230.11355590820312
y: 348.9996032714844
z: -0.002489692298695445
","x: 228.43812561035156
y: 349.5375061035156
z: -0.003733978606760502
","x: 226.9984588623047
y: 349.9127502441406
z: -0.00463865976780653
","x: 233.18194580078125
y: 350.16400146484375
z: -0.0023150050546973944
","x: 230.1770477294922
y: 350.69708251953125
z: -0.003875913331285119
","x: 228.0938720703125
y: 350.7546691894531
z: -0.0050986590795218945
","x: 226.3453826904297
y: 350.7438659667969
z: -0.006147706415504217
","x: 234.1431121826172
y: 352.12249755859375
z: -0.0040894136764109135
","x: 231.56398010253906
y: 353.5565490722656
z: -0.0059458110481500626
","x: 229.7149200439453
y: 354.0034484863281
z: -0.007325419224798679
","x: 228.19924926757812
y: 354.0478210449219
z: -0.008354566991329193
","x: 235.6494903564453
y: 353.79827880859375
z: -0.005941078532487154
","x: 234.47354125976562
y: 356.3374328613281
z: -0.007571116089820862
","x: 233.6319580078125
y: 357.6458740234375
z: -0.00844257976859808
","x: 232.87960815429688
y: 358.4183349609375
z: -0.009119505994021893
","x: 289.33697509765625
y: 360.0901794433594
z: 0.0
","x: 291.9903869628906
y: 357.34124755859375
z: -0.0004903621156699955
","x: 294.97039794921875
y: 355.7729797363281
z: -0.001736036385409534
","x: 297.204833984375
y: 354.46295166015625
z: -0.003417839528992772
","x: 298.9356384277344
y: 352.8938293457031
z: -0.005085952114313841
","x: 297.06707763671875
y: 359.7008972167969
z: -0.001779700629413128
","x: 299.9757385253906
y: 360.5218505859375
z: -0.004047515336424112
","x: 301.4593505859375
y: 361.33349609375
z: -0.0053960708901286125
","x: 302.6479187011719
y: 362.18511962890625
z: -0.006306243594735861
","x: 296.28240966796875
y: 361.875244140625
z: -0.003502643434330821
","x: 298.973388671875
y: 364.046875
z: -0.00573908444494009
","x: 300.3377990722656
y: 365.5342102050781
z: -0.006545781623572111
","x: 301.4949645996094
y: 366.9342346191406
z: -0.007215107791125774
","x: 294.945556640625
y: 363.50970458984375
z: -0.005402819719165564
","x: 297.06982421875
y: 366.7696533203125
z: -0.007888704538345337
","x: 298.1650085449219
y: 369.0649108886719
z: -0.008394630625844002
","x: 299.0871276855469
y: 371.0784606933594
z: -0.008707866072654724
","x: 293.160400390625
y: 364.5773010253906
z: -0.0074437325820326805
","x: 294.240234375
y: 367.6951904296875
z: -0.009417985565960407
","x: 294.740478515625
y: 369.67822265625
z: -0.00973381195217371
","x: 295.1523742675781
y: 371.41986083984375
z: -0.009919406846165657
"
2,"x: 264.3682556152344
y: 295.807373046875
z: -0.1337033212184906
visibility: 0.9934213161468506
","x: 265.5892028808594
y: 290.40875244140625
z: -0.13194838166236877
visibility: 0.9929640889167786
","x: 266.5065002441406
y: 290.02081298828125
z: -0.13199225068092346
visibility: 0.9926480650901794
","x: 267.5027160644531
y: 289.6032409667969
z: -0.13201427459716797
visibility: 0.9937325716018677
","x: 263.7898254394531
y: 291.0439758300781
z: -0.11893973499536514
visibility: 0.9885329008102417
","x: 263.4134521484375
y: 291.01123046875
z: -0.11894802749156952
visibility: 0.9842328429222107
","x: 263.1053771972656
y: 290.8505554199219
z: -0.11893469095230103
visibility: 0.9861454367637634
","x: 271.01165771484375
y: 291.13140869140625
z: -0.09267780929803848
visibility: 0.9899096488952637
","x: 265.06707763671875
y: 292.5939636230469
z: -0.031720973551273346
visibility: 0.9587537050247192
","x: 266.864013671875
y: 299.80670166015625
z: -0.11785038560628891
visibility: 0.9876044392585754
","x: 264.294189453125
y: 300.5578918457031
z: -0.10024353116750717
visibility: 0.9796848893165588
","x: 281.7832336425781
y: 319.426513671875
z: -0.08406971395015717
visibility: 0.9972286224365234
","x: 260.2237548828125
y: 319.8824768066406
z: 0.03963235020637512
visibility: 0.9960379004478455
","x: 284.7834167480469
y: 356.47296142578125
z: -0.16581586003303528
visibility: 0.9427862763404846
","x: 254.8861846923828
y: 350.5798645019531
z: 0.0172896645963192
visibility: 0.20757777988910675
","x: 290.7388000488281
y: 359.27447509765625
z: -0.3032039403915405
visibility: 0.8054305911064148
","x: 243.0365447998047
y: 348.740966796875
z: -0.1460956633090973
visibility: 0.27069664001464844
","x: 294.9898986816406
y: 362.9260559082031
z: -0.33988964557647705
visibility: 0.7553858160972595
","x: 237.54539489746094
y: 350.28265380859375
z: -0.17378851771354675
visibility: 0.28735899925231934
","x: 293.7210388183594
y: 357.8858642578125
z: -0.3469223976135254
visibility: 0.7512131929397583
","x: 237.65057373046875
y: 347.3302917480469
z: -0.19174930453300476
visibility: 0.2890720069408417
","x: 291.5006408691406
y: 355.9698181152344
z: -0.30967023968696594
visibility: 0.6882874965667725
","x: 239.50302124023438
y: 346.8813781738281
z: -0.15937985479831696
visibility: 0.28877297043800354
","x: 274.46875
y: 395.01226806640625
z: -0.04563920944929123
visibility: 0.9991188049316406
","x: 260.5047302246094
y: 395.19171142578125
z: 0.0456918329000473
visibility: 0.9988141059875488
","x: 278.1068420410156
y: 440.8739929199219
z: -0.04958435148000717
visibility: 0.9704453349113464
","x: 257.6810302734375
y: 439.2335510253906
z: 0.03771522268652916
visibility: 0.8555954694747925
","x: 289.7670593261719
y: 488.5278625488281
z: 0.06703124940395355
visibility: 0.9806070923805237
","x: 256.9448547363281
y: 488.3956298828125
z: 0.1633007526397705
visibility: 0.9359109997749329
","x: 293.5988464355469
y: 494.03497314453125
z: 0.0753972977399826
visibility: 0.8901796936988831
","x: 259.6969299316406
y: 495.75335693359375
z: 0.17173443734645844
visibility: 0.878264844417572
","x: 285.620849609375
y: 507.05755615234375
z: -0.004837478511035442
visibility: 0.9811275601387024
","x: 244.8648223876953
y: 502.5118713378906
z: 0.10360278934240341
visibility: 0.9465315341949463
","x: 239.93081665039062
y: 348.2064514160156
z: 0.0
","x: 237.4998016357422
y: 345.4014587402344
z: -0.00020631511870305985
","x: 234.99949645996094
y: 343.882080078125
z: -0.0010044655064120889
","x: 233.0816192626953
y: 342.9281311035156
z: -0.002202854258939624
","x: 231.4676055908203
y: 341.79718017578125
z: -0.003494034055620432
","x: 232.8321990966797
y: 348.0493469238281
z: -0.0007482139626517892
","x: 230.11355590820312
y: 348.9996032714844
z: -0.002489692298695445
","x: 228.43812561035156
y: 349.5375061035156
z: -0.003733978606760502
","x: 226.9984588623047
y: 349.9127502441406
z: -0.00463865976780653
","x: 233.18194580078125
y: 350.16400146484375
z: -0.0023150050546973944
","x: 230.1770477294922
y: 350.69708251953125
z: -0.003875913331285119
","x: 228.0938720703125
y: 350.7546691894531
z: -0.0050986590795218945
","x: 226.3453826904297
y: 350.7438659667969
z: -0.006147706415504217
","x: 234.1431121826172
y: 352.12249755859375
z: -0.0040894136764109135
","x: 231.56398010253906
y: 353.5565490722656
z: -0.0059458110481500626
","x: 229.7149200439453
y: 354.0034484863281
z: -0.007325419224798679
","x: 228.19924926757812
y: 354.0478210449219
z: -0.008354566991329193
","x: 235.6494903564453
y: 353.79827880859375
z: -0.005941078532487154
","x: 234.47354125976562
y: 356.3374328613281
z: -0.007571116089820862
","x: 233.6319580078125
y: 357.6458740234375
z: -0.00844257976859808
","x: 232.87960815429688
y: 358.4183349609375
z: -0.009119505994021893
","x: 289.33697509765625
y: 360.0901794433594
z: 0.0
","x: 291.9903869628906
y: 357.34124755859375
z: -0.0004903621156699955
","x: 294.97039794921875
y: 355.7729797363281
z: -0.001736036385409534
","x: 297.204833984375
y: 354.46295166015625
z: -0.003417839528992772
","x: 298.9356384277344
y: 352.8938293457031
z: -0.005085952114313841
","x: 297.06707763671875
y: 359.7008972167969
z: -0.001779700629413128
","x: 299.9757385253906
y: 360.5218505859375
z: -0.004047515336424112
","x: 301.4593505859375
y: 361.33349609375
z: -0.0053960708901286125
","x: 302.6479187011719
y: 362.18511962890625
z: -0.006306243594735861
","x: 296.28240966796875
y: 361.875244140625
z: -0.003502643434330821
","x: 298.973388671875
y: 364.046875
z: -0.00573908444494009
","x: 300.3377990722656
y: 365.5342102050781
z: -0.006545781623572111
","x: 301.4949645996094
y: 366.9342346191406
z: -0.007215107791125774
","x: 294.945556640625
y: 363.50970458984375
z: -0.005402819719165564
","x: 297.06982421875
y: 366.7696533203125
z: -0.007888704538345337
","x: 298.1650085449219
y: 369.0649108886719
z: -0.008394630625844002
","x: 299.0871276855469
y: 371.0784606933594
z: -0.008707866072654724
","x: 293.160400390625
y: 364.5773010253906
z: -0.0074437325820326805
","x: 294.240234375
y: 367.6951904296875
z: -0.009417985565960407
","x: 294.740478515625
y: 369.67822265625
z: -0.00973381195217371
","x: 295.1523742675781
y: 371.41986083984375
z: -0.009919406846165657
"
3,"x: 264.3682556152344
y: 295.807373046875
z: -0.1337033212184906
visibility: 0.9934213161468506
","x: 265.5892028808594
y: 290.40875244140625
z: -0.13194838166236877
visibility: 0.9929640889167786
","x: 266.5065002441406
y: 290.02081298828125
z: -0.13199225068092346
visibility: 0.9926480650901794
","x: 267.5027160644531
y: 289.6032409667969
z: -0.13201427459716797
visibility: 0.9937325716018677
","x: 263.7898254394531
y: 291.0439758300781
z: -0.11893973499536514
visibility: 0.9885329008102417
","x: 263.4134521484375
y: 291.01123046875
z: -0.11894802749156952
visibility: 0.9842328429222107
","x: 263.1053771972656
y: 290.8505554199219
z: -0.11893469095230103
visibility: 0.9861454367637634
","x: 271.01165771484375
y: 291.13140869140625
z: -0.09267780929803848
visibility: 0.9899096488952637
","x: 265.06707763671875
y: 292.5939636230469
z: -0.031720973551273346
visibility: 0.9587537050247192
","x: 266.864013671875
y: 299.80670166015625
z: -0.11785038560628891
visibility: 0.9876044392585754
","x: 264.294189453125
y: 300.5578918457031
z: -0.10024353116750717
visibility: 0.9796848893165588
","x: 281.7832336425781
y: 319.426513671875
z: -0.08406971395015717
visibility: 0.9972286224365234
","x: 260.2237548828125
y: 319.8824768066406
z: 0.03963235020637512
visibility: 0.9960379004478455
","x: 284.7834167480469
y: 356.47296142578125
z: -0.16581586003303528
visibility: 0.9427862763404846
","x: 254.8861846923828
y: 350.5798645019531
z: 0.0172896645963192
visibility: 0.20757777988910675
","x: 290.7388000488281
y: 359.27447509765625
z: -0.3032039403915405
visibility: 0.8054305911064148
","x: 243.0365447998047
y: 348.740966796875
z: -0.1460956633090973
visibility: 0.27069664001464844
","x: 294.9898986816406
y: 362.9260559082031
z: -0.33988964557647705
visibility: 0.7553858160972595
","x: 237.54539489746094
y: 350.28265380859375
z: -0.17378851771354675
visibility: 0.28735899925231934
","x: 293.7210388183594
y: 357.8858642578125
z: -0.3469223976135254
visibility: 0.7512131929397583
","x: 237.65057373046875
y: 347.3302917480469
z: -0.19174930453300476
visibility: 0.2890720069408417
","x: 291.5006408691406
y: 355.9698181152344
z: -0.30967023968696594
visibility: 0.6882874965667725
","x: 239.50302124023438
y: 346.8813781738281
z: -0.15937985479831696
visibility: 0.28877297043800354
","x: 274.46875
y: 395.01226806640625
z: -0.04563920944929123
visibility: 0.9991188049316406
","x: 260.5047302246094
y: 395.19171142578125
z: 0.0456918329000473
visibility: 0.9988141059875488
","x: 278.1068420410156
y: 440.8739929199219
z: -0.04958435148000717
visibility: 0.9704453349113464
","x: 257.6810302734375
y: 439.2335510253906
z: 0.03771522268652916
visibility: 0.8555954694747925
","x: 289.7670593261719
y: 488.5278625488281
z: 0.06703124940395355
visibility: 0.9806070923805237
","x: 256.9448547363281
y: 488.3956298828125
z: 0.1633007526397705
visibility: 0.9359109997749329
","x: 293.5988464355469
y: 494.03497314453125
z: 0.0753972977399826
visibility: 0.8901796936988831
","x: 259.6969299316406
y: 495.75335693359375
z: 0.17173443734645844
visibility: 0.878264844417572
","x: 285.620849609375
y: 507.05755615234375
z: -0.004837478511035442
visibility: 0.9811275601387024
","x: 244.8648223876953
y: 502.5118713378906
z: 0.10360278934240341
visibility: 0.9465315341949463
","x: 239.93081665039062
y: 348.2064514160156
z: 0.0
","x: 237.4998016357422
y: 345.4014587402344
z: -0.00020631511870305985
","x: 234.99949645996094
y: 343.882080078125
z: -0.0010044655064120889
","x: 233.0816192626953
y: 342.9281311035156
z: -0.002202854258939624
","x: 231.4676055908203
y: 341.79718017578125
z: -0.003494034055620432
","x: 232.8321990966797
y: 348.0493469238281
z: -0.0007482139626517892
","x: 230.11355590820312
y: 348.9996032714844
z: -0.002489692298695445
","x: 228.43812561035156
y: 349.5375061035156
z: -0.003733978606760502
","x: 226.9984588623047
y: 349.9127502441406
z: -0.00463865976780653
","x: 233.18194580078125
y: 350.16400146484375
z: -0.0023150050546973944
","x: 230.1770477294922
y: 350.69708251953125
z: -0.003875913331285119
","x: 228.0938720703125
y: 350.7546691894531
z: -0.0050986590795218945
","x: 226.3453826904297
y: 350.7438659667969
z: -0.006147706415504217
","x: 234.1431121826172
y: 352.12249755859375
z: -0.0040894136764109135
","x: 231.56398010253906
y: 353.5565490722656
z: -0.0059458110481500626
","x: 229.7149200439453
y: 354.0034484863281
z: -0.007325419224798679
","x: 228.19924926757812
y: 354.0478210449219
z: -0.008354566991329193
","x: 235.6494903564453
y: 353.79827880859375
z: -0.005941078532487154
","x: 234.47354125976562
y: 356.3374328613281
z: -0.007571116089820862
","x: 233.6319580078125
y: 357.6458740234375
z: -0.00844257976859808
","x: 232.87960815429688
y: 358.4183349609375
z: -0.009119505994021893
","x: 289.33697509765625
y: 360.0901794433594
z: 0.0
","x: 291.9903869628906
y: 357.34124755859375
z: -0.0004903621156699955
","x: 294.97039794921875
y: 355.7729797363281
z: -0.001736036385409534
","x: 297.204833984375
y: 354.46295166015625
z: -0.003417839528992772
","x: 298.9356384277344
y: 352.8938293457031
z: -0.005085952114313841
","x: 297.06707763671875
y: 359.7008972167969
z: -0.001779700629413128
","x: 299.9757385253906
y: 360.5218505859375
z: -0.004047515336424112
","x: 301.4593505859375
y: 361.33349609375
z: -0.0053960708901286125
","x: 302.6479187011719
y: 362.18511962890625
z: -0.006306243594735861
","x: 296.28240966796875
y: 361.875244140625
z: -0.003502643434330821
","x: 298.973388671875
y: 364.046875
z: -0.00573908444494009
","x: 300.3377990722656
y: 365.5342102050781
z: -0.006545781623572111
","x: 301.4949645996094
y: 366.9342346191406
z: -0.007215107791125774
","x: 294.945556640625
y: 363.50970458984375
z: -0.005402819719165564
","x: 297.06982421875
y: 366.7696533203125
z: -0.007888704538345337
","x: 298.1650085449219
y: 369.0649108886719
z: -0.008394630625844002
","x: 299.0871276855469
y: 371.0784606933594
z: -0.008707866072654724
","x: 293.160400390625
y: 364.5773010253906
z: -0.0074437325820326805
","x: 294.240234375
y: 367.6951904296875
z: -0.009417985565960407
","x: 294.740478515625
y: 369.67822265625
z: -0.00973381195217371
","x: 295.1523742675781
y: 371.41986083984375
z: -0.009919406846165657
"
4,"x: 265.03765869140625
y: 295.00140380859375
z: -0.14736852049827576
visibility: 0.9940780401229858
","x: 265.9911193847656
y: 289.6179504394531
z: -0.1392124742269516
visibility: 0.9936637282371521
","x: 266.93182373046875
y: 289.1165771484375
z: -0.13924793899059296
visibility: 0.9933802485466003
","x: 267.9000549316406
y: 288.6172180175781
z: -0.1392834484577179
visibility: 0.9943563342094421
","x: 263.8073425292969
y: 290.79107666015625
z: -0.12556079030036926
visibility: 0.9896727204322815
","x: 263.3682861328125
y: 290.9393005371094
z: -0.12552642822265625
visibility: 0.985800564289093
","x: 262.8388671875
y: 290.8548889160156
z: -0.12542679905891418
visibility: 0.9875181913375854
","x: 270.7812194824219
y: 290.1874084472656
z: -0.08486228436231613
visibility: 0.9909169673919678
","x: 263.1643981933594
y: 292.62396240234375
z: -0.03398853912949562
visibility: 0.9628548622131348
","x: 267.531005859375
y: 299.1282043457031
z: -0.125226229429245
visibility: 0.9888412356376648
","x: 264.2787170410156
y: 300.3197937011719
z: -0.108694888651371
visibility: 0.9817048907279968
","x: 281.26995849609375
y: 319.7470703125
z: -0.07483498007059097
visibility: 0.9975053668022156
","x: 258.2547912597656
y: 319.8816833496094
z: 0.04624021798372269
visibility: 0.9963820576667786
","x: 290.13800048828125
y: 355.5252685546875
z: -0.10982178151607513
visibility: 0.9483028650283813
","x: 252.0681915283203
y: 340.1296691894531
z: 0.011020837351679802
visibility: 0.25288456678390503
","x: 303.691650390625
y: 364.6231384277344
z: -0.1960553228855133
visibility: 0.8247024416923523
","x: 244.0147247314453
y: 334.19854736328125
z: -0.1532219797372818
visibility: 0.33627545833587646
","x: 309.8330383300781
y: 372.2903747558594
z: -0.2178238332271576
visibility: 0.7793488502502441
","x: 241.19744873046875
y: 332.3231201171875
z: -0.17776638269424438
visibility: 0.34713008999824524
","x: 309.738037109375
y: 370.3106384277344
z: -0.23932938277721405
visibility: 0.7756642699241638
","x: 241.857177734375
y: 330.9200744628906
z: -0.18905340135097504
visibility: 0.3493453562259674
","x: 307.3511962890625
y: 367.71649169921875
z: -0.20631198585033417
visibility: 0.7187663316726685
","x: 242.66709899902344
y: 331.7564392089844
z: -0.16430215537548065
visibility: 0.34857064485549927
","x: 275.6280822753906
y: 395.30419921875
z: -0.03907625377178192
visibility: 0.9991857409477234
","x: 260.67059326171875
y: 396.385009765625
z: 0.039125896990299225
visibility: 0.9989160895347595
","x: 282.13226318359375
y: 442.9942626953125
z: -0.10051950067281723
visibility: 0.9733257293701172
","x: 250.7522430419922
y: 439.22845458984375
z: -0.05307043343782425
visibility: 0.8699304461479187
","x: 290.1316833496094
y: 490.25341796875
z: 0.03114275075495243
visibility: 0.9824257493019104
","x: 256.6343994140625
y: 484.5315856933594
z: 0.09114442765712738
visibility: 0.9421590566635132
","x: 293.48095703125
y: 494.7312927246094
z: 0.03852483257651329
visibility: 0.8948754072189331
","x: 260.4267272949219
y: 490.6702880859375
z: 0.10033472627401352
visibility: 0.8893553018569946
","x: 285.8059387207031
y: 507.9820251464844
z: -0.0523606538772583
visibility: 0.9827214479446411
","x: 244.8552703857422
y: 502.4331970214844
z: 0.038270242512226105
visibility: 0.9516172409057617
",,,,,,,,,,,,,,,,,,,,,,"x: 304.4678955078125
y: 366.5667419433594
z: 0.0
","x: 307.1123046875
y: 365.64556884765625
z: -0.0012061367742717266
","x: 309.9731140136719
y: 366.75567626953125
z: -0.0024877118412405252
","x: 312.0992736816406
y: 368.62994384765625
z: -0.004340860992670059
","x: 313.9840087890625
y: 369.5917053222656
z: -0.005802859552204609
","x: 312.9834899902344
y: 372.3671875
z: -0.00024275800387840718
","x: 316.09619140625
y: 376.6236572265625
z: -0.0028574801981449127
","x: 315.6900329589844
y: 375.6326904296875
z: -0.003993460908532143
","x: 314.41558837890625
y: 374.17626953125
z: -0.0044038197956979275
","x: 312.0558166503906
y: 374.5129699707031
z: -0.0015488950302824378
","x: 315.53582763671875
y: 379.2121887207031
z: -0.004509800113737583
","x: 315.0886535644531
y: 377.86602783203125
z: -0.0053671542555093765
","x: 313.7499694824219
y: 376.2765808105469
z: -0.005250556860119104
","x: 310.6186218261719
y: 376.0430908203125
z: -0.0033506271429359913
","x: 313.13104248046875
y: 380.64715576171875
z: -0.005922322627156973
","x: 312.80706787109375
y: 379.68505859375
z: -0.005813405383378267
","x: 311.9052734375
y: 378.6523742675781
z: -0.005160868167877197
","x: 308.6971130371094
y: 377.0571594238281
z: -0.005533608607947826
","x: 309.9531555175781
y: 380.7492370605469
z: -0.007275675423443317
","x: 309.93072509765625
y: 380.8261413574219
z: -0.007296485360711813
","x: 309.5369567871094
y: 380.7194519042969
z: -0.006834105588495731
"
5,"x: 265.03765869140625
y: 295.00140380859375
z: -0.14736852049827576
visibility: 0.9940780401229858
","x: 265.9911193847656
y: 289.6179504394531
z: -0.1392124742269516
visibility: 0.9936637282371521
","x: 266.93182373046875
y: 289.1165771484375
z: -0.13924793899059296
visibility: 0.9933802485466003
","x: 267.9000549316406
y: 288.6172180175781
z: -0.1392834484577179
visibility: 0.9943563342094421
","x: 263.8073425292969
y: 290.79107666015625
z: -0.12556079030036926
visibility: 0.9896727204322815
","x: 263.3682861328125
y: 290.9393005371094
z: -0.12552642822265625
visibility: 0.985800564289093
","x: 262.8388671875
y: 290.8548889160156
z: -0.12542679905891418
visibility: 0.9875181913375854
","x: 270.7812194824219
y: 290.1874084472656
z: -0.08486228436231613
visibility: 0.9909169673919678
","x: 263.1643981933594
y: 292.62396240234375
z: -0.03398853912949562
visibility: 0.9628548622131348
","x: 267.531005859375
y: 299.1282043457031
z: -0.125226229429245
visibility: 0.9888412356376648
","x: 264.2787170410156
y: 300.3197937011719
z: -0.108694888651371
visibility: 0.9817048907279968
","x: 281.26995849609375
y: 319.7470703125
z: -0.07483498007059097
visibility: 0.9975053668022156
","x: 258.2547912597656
y: 319.8816833496094
z: 0.04624021798372269
visibility: 0.9963820576667786
","x: 290.13800048828125
y: 355.5252685546875
z: -0.10982178151607513
visibility: 0.9483028650283813
","x: 252.0681915283203
y: 340.1296691894531
z: 0.011020837351679802
visibility: 0.25288456678390503
","x: 303.691650390625
y: 364.6231384277344
z: -0.1960553228855133
visibility: 0.8247024416923523
","x: 244.0147247314453
y: 334.19854736328125
z: -0.1532219797372818
visibility: 0.33627545833587646
","x: 309.8330383300781
y: 372.2903747558594
z: -0.2178238332271576
visibility: 0.7793488502502441
","x: 241.19744873046875
y: 332.3231201171875
z: -0.17776638269424438
visibility: 0.34713008999824524
","x: 309.738037109375
y: 370.3106384277344
z: -0.23932938277721405
visibility: 0.7756642699241638
","x: 241.857177734375
y: 330.9200744628906
z: -0.18905340135097504
visibility: 0.3493453562259674
","x: 307.3511962890625
y: 367.71649169921875
z: -0.20631198585033417
visibility: 0.7187663316726685
","x: 242.66709899902344
y: 331.7564392089844
z: -0.16430215537548065
visibility: 0.34857064485549927
","x: 275.6280822753906
y: 395.30419921875
z: -0.03907625377178192
visibility: 0.9991857409477234
","x: 260.67059326171875
y: 396.385009765625
z: 0.039125896990299225
visibility: 0.9989160895347595
","x: 282.13226318359375
y: 442.9942626953125
z: -0.10051950067281723
visibility: 0.9733257293701172
","x: 250.7522430419922
y: 439.22845458984375
z: -0.05307043343782425
visibility: 0.8699304461479187
","x: 290.1316833496094
y: 490.25341796875
z: 0.03114275075495243
visibility: 0.9824257493019104
","x: 256.6343994140625
y: 484.5315856933594
z: 0.09114442765712738
visibility: 0.9421590566635132
","x: 293.48095703125
y: 494.7312927246094
z: 0.03852483257651329
visibility: 0.8948754072189331
","x: 260.4267272949219
y: 490.6702880859375
z: 0.10033472627401352
visibility: 0.8893553018569946
","x: 285.8059387207031
y: 507.9820251464844
z: -0.0523606538772583
visibility: 0.9827214479446411
","x: 244.8552703857422
y: 502.4331970214844
z: 0.038270242512226105
visibility: 0.9516172409057617
",,,,,,,,,,,,,,,,,,,,,,"x: 304.4678955078125
y: 366.5667419433594
z: 0.0
","x: 307.1123046875
y: 365.64556884765625
z: -0.0012061367742717266
","x: 309.9731140136719
y: 366.75567626953125
z: -0.0024877118412405252
","x: 312.0992736816406
y: 368.62994384765625
z: -0.004340860992670059
","x: 313.9840087890625
y: 369.5917053222656
z: -0.005802859552204609
","x: 312.9834899902344
y: 372.3671875
z: -0.00024275800387840718
","x: 316.09619140625
y: 376.6236572265625
z: -0.0028574801981449127
","x: 315.6900329589844
y: 375.6326904296875
z: -0.003993460908532143
","x: 314.41558837890625
y: 374.17626953125
z: -0.0044038197956979275
","x: 312.0558166503906
y: 374.5129699707031
z: -0.0015488950302824378
","x: 315.53582763671875
y: 379.2121887207031
z: -0.004509800113737583
","x: 315.0886535644531
y: 377.86602783203125
z: -0.0053671542555093765
","x: 313.7499694824219
y: 376.2765808105469
z: -0.005250556860119104
","x: 310.6186218261719
y: 376.0430908203125
z: -0.0033506271429359913
","x: 313.13104248046875
y: 380.64715576171875
z: -0.005922322627156973
","x: 312.80706787109375
y: 379.68505859375
z: -0.005813405383378267
","x: 311.9052734375
y: 378.6523742675781
z: -0.005160868167877197
","x: 308.6971130371094
y: 377.0571594238281
z: -0.005533608607947826
","x: 309.9531555175781
y: 380.7492370605469
z: -0.007275675423443317
","x: 309.93072509765625
y: 380.8261413574219
z: -0.007296485360711813
","x: 309.5369567871094
y: 380.7194519042969
z: -0.006834105588495731
"
6,"x: 263.99493408203125
y: 294.7015075683594
z: -0.18280117213726044
visibility: 0.994668185710907
","x: 264.3349609375
y: 289.52813720703125
z: -0.175754576921463
visibility: 0.9942911863327026
","x: 265.3219299316406
y: 288.99822998046875
z: -0.17574262619018555
visibility: 0.9940364956855774
","x: 266.3648986816406
y: 288.50347900390625
z: -0.17575708031654358
visibility: 0.9949141144752502
","x: 261.59417724609375
y: 290.9122009277344
z: -0.16865237057209015
visibility: 0.9906982779502869
","x: 260.7325744628906
y: 291.4066467285156
z: -0.16868536174297333
visibility: 0.9872139692306519
","x: 259.89044189453125
y: 291.87884521484375
z: -0.16867518424987793
visibility: 0.9887596368789673
","x: 269.0019226074219
y: 290.30621337890625
z: -0.10998855531215668
visibility: 0.9918182492256165
","x: 259.9043884277344
y: 294.2283935546875
z: -0.08315692842006683
visibility: 0.9665639400482178
","x: 267.0802917480469
y: 298.396728515625
z: -0.15912379324436188
visibility: 0.989955484867096
","x: 263.141845703125
y: 300.09893798828125
z: -0.1501971334218979
visibility: 0.9835324287414551
","x: 281.8060607910156
y: 319.26971435546875
z: -0.07932868599891663
visibility: 0.9977529048919678
","x: 254.3031463623047
y: 320.8971862792969
z: -0.034904710948467255
visibility: 0.9967406392097473
","x: 300.328857421875
y: 334.1715087890625
z: -0.16490711271762848
visibility: 0.9533860087394714
","x: 238.30868530273438
y: 329.4998474121094
z: -0.09446655213832855
visibility: 0.3266017436981201
","x: 292.22796630859375
y: 310.56671142578125
z: -0.3111332952976227
visibility: 0.8417653441429138
","x: 231.98341369628906
y: 328.58477783203125
z: -0.2402704656124115
visibility: 0.39949706196784973
","x: 290.3587646484375
y: 304.1464538574219
z: -0.3387809097766876
visibility: 0.7990925908088684
","x: 229.40721130371094
y: 329.6634216308594
z: -0.26888126134872437
visibility: 0.4032379686832428
","x: 288.87603759765625
y: 302.1678466796875
z: -0.3252069354057312
visibility: 0.7955231070518494
","x: 230.86614990234375
y: 328.7878723144531
z: -0.2721925377845764
visibility: 0.40536874532699585
","x: 288.784912109375
y: 305.016357421875
z: -0.30882591009140015
visibility: 0.742852509021759
","x: 231.9664764404297
y: 328.7170715332031
z: -0.24684830009937286
visibility: 0.4032011330127716
","x: 275.0606994628906
y: 398.5707092285156
z: -0.009792791679501534
visibility: 0.9992591142654419
","x: 258.8986511230469
y: 397.4906005859375
z: 0.009711087681353092
visibility: 0.9990203976631165
","x: 280.700927734375
y: 449.67578125
z: 0.007319366093724966
visibility: 0.9757552742958069
","x: 247.4676971435547
y: 440.3103942871094
z: -0.10032512992620468
visibility: 0.8828447461128235
","x: 289.13934326171875
y: 492.3597412109375
z: 0.18750278651714325
visibility: 0.9837892055511475
","x: 239.20655822753906
y: 480.5696105957031
z: 0.041876550763845444
visibility: 0.9476315379142761
","x: 289.236083984375
y: 497.7367858886719
z: 0.2006896734237671
visibility: 0.8936471939086914
","x: 239.1680908203125
y: 484.82421875
z: 0.052989304065704346
visibility: 0.8918452858924866
","x: 288.0306701660156
y: 507.8418273925781
z: 0.11028476804494858
visibility: 0.9836004972457886
","x: 237.00534057617188
y: 501.52154541015625
z: -0.03412725776433945
visibility: 0.9560070037841797
",,,,,,,,,,,,,,,,,,,,,,,,,,,,,,,,,,,,,,,,,,
7,"x: 264.213623046875
y: 303.5057373046875
z: -0.16664078831672668
visibility: 0.995194137096405
","x: 264.392333984375
y: 298.48504638671875
z: -0.16650241613388062
visibility: 0.9948455095291138
","x: 265.3806457519531
y: 298.0943603515625
z: -0.16652144491672516
visibility: 0.9946172833442688
","x: 266.393798828125
y: 297.7581481933594
z: -0.16652776300907135
visibility: 0.9954075217247009
","x: 261.8122863769531
y: 300.05010986328125
z: -0.15430474281311035
visibility: 0.9915891885757446
","x: 261.0650939941406
y: 300.7291259765625
z: -0.15434770286083221
visibility: 0.9884423017501831
","x: 260.3109130859375
y: 301.44390869140625
z: -0.15438857674598694
visibility: 0.9898269176483154
","x: 269.1265869140625
y: 299.645263671875
z: -0.10070483386516571
visibility: 0.9926218390464783
","x: 260.5745544433594
y: 304.407470703125
z: -0.07846854627132416
visibility: 0.9698598384857178
","x: 267.1994934082031
y: 307.6687316894531
z: -0.15831764042377472
visibility: 0.9909559488296509
","x: 263.51873779296875
y: 309.68524169921875
z: -0.13431799411773682
visibility: 0.9851664900779724
","x: 282.26654052734375
y: 323.3370666503906
z: -0.07426280528306961
visibility: 0.9979761838912964
","x: 254.587158203125
y: 329.7778015136719
z: -0.016668137162923813
visibility: 0.9970435500144958
","x: 297.73541259765625
y: 317.283935546875
z: -0.19359630346298218
visibility: 0.9578788876533508
","x: 238.56967163085938
y: 332.87713623046875
z: -0.015819115564227104
visibility: 0.39292219281196594
","x: 285.0325622558594
y: 314.1040344238281
z: -0.3304853141307831
visibility: 0.8565160036087036
","x: 229.8222198486328
y: 333.2991943359375
z: -0.04652635008096695
visibility: 0.4575406610965729
","x: 283.4342041015625
y: 313.7322692871094
z: -0.36274412274360657
visibility: 0.81424480676651
","x: 224.74339294433594
y: 333.69281005859375
z: -0.060692764818668365
visibility: 0.45824459195137024
","x: 284.90863037109375
y: 314.2644958496094
z: -0.35378384590148926
visibility: 0.811121940612793
","x: 225.533935546875
y: 328.98095703125
z: -0.07229812443256378
visibility: 0.46070316433906555
","x: 282.4674072265625
y: 314.9106750488281
z: -0.33161842823028564
visibility: 0.7623000741004944
","x: 227.69448852539062
y: 330.2203063964844
z: -0.05400397628545761
visibility: 0.45789477229118347
","x: 273.8263854980469
y: 406.95013427734375
z: -0.000699750380590558
visibility: 0.9993325471878052
","x: 256.6124267578125
y: 405.94891357421875
z: 0.0006257992936298251
visibility: 0.9991138577461243
","x: 282.5906066894531
y: 451.554931640625
z: -0.07455860078334808
visibility: 0.9774696826934814
","x: 246.02932739257812
y: 448.9092712402344
z: -0.023282300680875778
visibility: 0.8941778540611267
","x: 283.5975341796875
y: 494.0449523925781
z: 0.13045628368854523
visibility: 0.9845309853553772
","x: 232.7131805419922
y: 480.7597351074219
z: 0.11956678330898285
visibility: 0.9519040584564209
","x: 279.8704528808594
y: 500.1800537109375
z: 0.16248074173927307
visibility: 0.8999088406562805
","x: 229.83470153808594
y: 486.65972900390625
z: 0.13078825175762177
visibility: 0.8873980045318604
","x: 289.2909851074219
y: 508.1690673828125
z: 0.03925507515668869
visibility: 0.9839029908180237
","x: 231.79632568359375
y: 501.4437255859375
z: 0.054421938955783844
visibility: 0.9586578011512756
",,,,,,,,,,,,,,,,,,,,,,,,,,,,,,,,,,,,,,,,,,
8,"x: 265.85089111328125
y: 303.66839599609375
z: -0.16136230528354645
visibility: 0.9956657886505127
","x: 265.5382385253906
y: 299.443359375
z: -0.163304403424263
visibility: 0.9953373670578003
","x: 266.3356018066406
y: 298.9449462890625
z: -0.1632581353187561
visibility: 0.9951329827308655
","x: 267.17877197265625
y: 298.4231872558594
z: -0.16315481066703796
visibility: 0.9958391189575195
","x: 263.5035095214844
y: 300.8477478027344
z: -0.14890336990356445
visibility: 0.9923961758613586
","x: 262.7734680175781
y: 301.3080749511719
z: -0.1489303559064865
visibility: 0.9895643591880798
","x: 262.0652770996094
y: 301.93841552734375
z: -0.1489471048116684
visibility: 0.990803062915802
","x: 269.1903076171875
y: 299.67059326171875
z: -0.10361878573894501
visibility: 0.9933211207389832
","x: 260.8966369628906
y: 303.954345703125
z: -0.07574693113565445
visibility: 0.9728488922119141
","x: 268.1461181640625
y: 306.9697265625
z: -0.1523393988609314
visibility: 0.9918467998504639
","x: 265.4750671386719
y: 308.6634521484375
z: -0.13107521831989288
visibility: 0.9866335391998291
","x: 283.5704650878906
y: 322.77410888671875
z: -0.07479067146778107
visibility: 0.9981672167778015
","x: 254.68374633789062
y: 327.99468994140625
z: -0.036562029272317886
visibility: 0.9973251819610596
","x: 298.9311828613281
y: 311.64697265625
z: -0.19417347013950348
visibility: 0.9617360830307007
","x: 240.38577270507812
y: 333.74365234375
z: -0.022695723921060562
visibility: 0.45256391167640686
","x: 285.9600830078125
y: 287.50726318359375
z: -0.3336205780506134
visibility: 0.8702810406684875
","x: 224.9703369140625
y: 333.3428955078125
z: -0.06359193474054337
visibility: 0.5098791122436523
","x: 283.5429992675781
y: 279.1051940917969
z: -0.36430302262306213
visibility: 0.8305875658988953
","x: 217.69024658203125
y: 334.5179748535156
z: -0.07614296674728394
visibility: 0.5077837705612183
","x: 282.4021301269531
y: 280.1388244628906
z: -0.3534775972366333
visibility: 0.8275226950645447
","x: 217.43553161621094
y: 332.3885498046875
z: -0.09269175678491592
visibility: 0.5104383230209351
","x: 282.0503234863281
y: 283.696533203125
z: -0.3338538706302643
visibility: 0.7829739451408386
","x: 219.99554443359375
y: 332.8350830078125
z: -0.07298298925161362
visibility: 0.5075947046279907
","x: 274.8821105957031
y: 405.1260986328125
z: 0.0061859143897891045
visibility: 0.9993917942047119
","x: 258.044677734375
y: 403.7502746582031
z: -0.00629704724997282
visibility: 0.9991849660873413
","x: 284.267822265625
y: 450.9896240234375
z: 0.007867025211453438
visibility: 0.9787323474884033
","x: 248.27413940429688
y: 446.7682189941406
z: -0.007540813647210598
visibility: 0.9045876264572144
","x: 283.2972717285156
y: 494.5826721191406
z: 0.15790215134620667
visibility: 0.9852092266082764
","x: 234.8693084716797
y: 481.6783447265625
z: 0.11884671449661255
visibility: 0.9563032388687134
","x: 279.6389465332031
y: 500.79998779296875
z: 0.1701551377773285
visibility: 0.9046681523323059
","x: 232.7355499267578
y: 487.09515380859375
z: 0.12879928946495056
visibility: 0.8873165249824524
","x: 289.37200927734375
y: 508.47283935546875
z: 0.10324488580226898
visibility: 0.984281063079834
","x: 233.44540405273438
y: 501.3841552734375
z: 0.05827273055911064
visibility: 0.9619325399398804
",,,,,,,,,,,,,,,,,,,,,,,,,,,,,,,,,,,,,,,,,,
9,"x: 268.60296630859375
y: 297.25799560546875
z: -0.13689535856246948
visibility: 0.9960954785346985
","x: 269.148193359375
y: 293.3404846191406
z: -0.1360621601343155
visibility: 0.9957945346832275
","x: 270.1785888671875
y: 292.7385559082031
z: -0.1360597163438797
visibility: 0.9956123232841492
","x: 271.268798828125
y: 292.18145751953125
z: -0.1360417902469635
visibility: 0.9962479472160339
","x: 266.83251953125
y: 295.56719970703125
z: -0.12017057836055756
visibility: 0.9931374192237854
","x: 266.22003173828125
y: 296.4748840332031
z: -0.12016443908214569
visibility: 0.9905869960784912
","x: 265.6670837402344
y: 297.5492248535156
z: -0.12012726068496704
visibility: 0.9917057156562805
","x: 274.381103515625
y: 293.92333984375
z: -0.10397283732891083
visibility: 0.9939822554588318
","x: 265.43353271484375
y: 301.2890930175781
z: -0.03247439116239548
visibility: 0.9755526781082153
","x: 271.7016906738281
y: 300.843017578125
z: -0.12737330794334412
visibility: 0.9926596879959106
","x: 268.53070068359375
y: 302.7167053222656
z: -0.10429824888706207
visibility: 0.987963080406189
","x: 289.9759521484375
y: 313.9093933105469
z: -0.08861126005649567
visibility: 0.9983496069908142
","x: 261.6729736328125
y: 327.30242919921875
z: 0.027291765436530113
visibility: 0.9975727796554565
","x: 309.4294128417969
y: 301.016357421875
z: -0.2610616981983185
visibility: 0.9654441475868225
","x: 243.4163818359375
y: 328.48468017578125
z: 0.05860899016261101
visibility: 0.5062667727470398
","x: 294.4158020019531
y: 291.8542785644531
z: -0.37869614362716675
visibility: 0.8823221325874329
","x: 228.33929443359375
y: 318.0283203125
z: 0.008335287682712078
visibility: 0.5582367181777954
","x: 291.2965087890625
y: 291.2136535644531
z: -0.4073227345943451
visibility: 0.8442498445510864
","x: 222.5116424560547
y: 314.1260986328125
z: -0.0017093615606427193
visibility: 0.5548747181892395
","x: 289.39532470703125
y: 292.44818115234375
z: -0.3945402503013611
visibility: 0.8411654829978943
","x: 222.1580047607422
y: 311.6446228027344
z: -0.016695357859134674
visibility: 0.5574332475662231
","x: 289.84814453125
y: 293.9011535644531
z: -0.37710854411125183
visibility: 0.7993850111961365
","x: 224.3872528076172
y: 313.32281494140625
z: -0.0013572050957009196
visibility: 0.5548844337463379
","x: 284.83734130859375
y: 398.29351806640625
z: -0.033741939812898636
visibility: 0.99945068359375
","x: 268.8826904296875
y: 398.10186767578125
z: 0.03368246927857399
visibility: 0.9992595314979553
","x: 283.1708068847656
y: 450.0934143066406
z: -0.1555173695087433
visibility: 0.9807107448577881
","x: 250.27490234375
y: 433.66192626953125
z: -0.10055931657552719
visibility: 0.9139255285263062
","x: 294.3193359375
y: 491.44036865234375
z: -0.022788209840655327
visibility: 0.9865807890892029
","x: 263.2809753417969
y: 470.0540771484375
z: 0.04615316167473793
visibility: 0.9602335691452026
","x: 297.7632141113281
y: 497.3736877441406
z: -0.013168146833777428
visibility: 0.9101613163948059
","x: 266.8424987792969
y: 470.568603515625
z: 0.05840962007641792
visibility: 0.8964793086051941
","x: 289.3100280761719
y: 508.4139404296875
z: -0.09466833621263504
visibility: 0.9855524301528931
","x: 260.6549377441406
y: 494.7256774902344
z: 0.007598565425723791
visibility: 0.9651688933372498
","x: 228.23162841796875
y: 315.6337890625
z: 0.0
","x: 226.92120361328125
y: 310.28668212890625
z: 6.045732880011201e-05
","x: 224.43505859375
y: 306.14642333984375
z: -9.414809755980968e-05
","x: 222.6468048095703
y: 303.00921630859375
z: -0.0008175890543498099
","x: 221.56796264648438
y: 299.84716796875
z: -0.001382602145895362
","x: 220.9409637451172
y: 307.18341064453125
z: 0.0023114050272852182
","x: 218.25901794433594
y: 304.2327880859375
z: 0.0012470150832086802
","x: 216.93283081054688
y: 302.2709045410156
z: 0.00046417463454417884
","x: 215.777587890625
y: 300.57958984375
z: 4.391791662783362e-05
","x: 220.50392150878906
y: 308.8553161621094
z: 0.0009667467675171793
","x: 217.68731689453125
y: 305.94891357421875
z: 0.0002013661724049598
","x: 216.46786499023438
y: 303.61126708984375
z: -0.0003251571033615619
","x: 215.41932678222656
y: 301.61328125
z: -0.0006414763629436493
","x: 220.40248107910156
y: 310.8130187988281
z: -0.0008176408591680229
","x: 217.7150421142578
y: 308.0627136230469
z: -0.0018409253098070621
","x: 216.56394958496094
y: 305.78570556640625
z: -0.002110827714204788
","x: 215.65969848632812
y: 303.8258972167969
z: -0.0021932562813162804
","x: 220.71450805664062
y: 312.9154052734375
z: -0.0028390632942318916
","x: 218.54055786132812
y: 310.72589111328125
z: -0.003631542669609189
","x: 217.5336151123047
y: 308.75250244140625
z: -0.0037608409766107798
","x: 216.7373809814453
y: 306.88836669921875
z: -0.0037514555733650923
",,,,,,,,,,,,,,,,,,,,,
10,"x: 268.60296630859375
y: 297.25799560546875
z: -0.13689535856246948
visibility: 0.9960954785346985
","x: 269.148193359375
y: 293.3404846191406
z: -0.1360621601343155
visibility: 0.9957945346832275
","x: 270.1785888671875
y: 292.7385559082031
z: -0.1360597163438797
visibility: 0.9956123232841492
","x: 271.268798828125
y: 292.18145751953125
z: -0.1360417902469635
visibility: 0.9962479472160339
","x: 266.83251953125
y: 295.56719970703125
z: -0.12017057836055756
visibility: 0.9931374192237854
","x: 266.22003173828125
y: 296.4748840332031
z: -0.12016443908214569
visibility: 0.9905869960784912
","x: 265.6670837402344
y: 297.5492248535156
z: -0.12012726068496704
visibility: 0.9917057156562805
","x: 274.381103515625
y: 293.92333984375
z: -0.10397283732891083
visibility: 0.9939822554588318
","x: 265.43353271484375
y: 301.2890930175781
z: -0.03247439116239548
visibility: 0.9755526781082153
","x: 271.7016906738281
y: 300.843017578125
z: -0.12737330794334412
visibility: 0.9926596879959106
","x: 268.53070068359375
y: 302.7167053222656
z: -0.10429824888706207
visibility: 0.987963080406189
","x: 289.9759521484375
y: 313.9093933105469
z: -0.08861126005649567
visibility: 0.9983496069908142
","x: 261.6729736328125
y: 327.30242919921875
z: 0.027291765436530113
visibility: 0.9975727796554565
","x: 309.4294128417969
y: 301.016357421875
z: -0.2610616981983185
visibility: 0.9654441475868225
","x: 243.4163818359375
y: 328.48468017578125
z: 0.05860899016261101
visibility: 0.5062667727470398
","x: 294.4158020019531
y: 291.8542785644531
z: -0.37869614362716675
visibility: 0.8823221325874329
","x: 228.33929443359375
y: 318.0283203125
z: 0.008335287682712078
visibility: 0.5582367181777954
","x: 291.2965087890625
y: 291.2136535644531
z: -0.4073227345943451
visibility: 0.8442498445510864
","x: 222.5116424560547
y: 314.1260986328125
z: -0.0017093615606427193
visibility: 0.5548747181892395
","x: 289.39532470703125
y: 292.44818115234375
z: -0.3945402503013611
visibility: 0.8411654829978943
","x: 222.1580047607422
y: 311.6446228027344
z: -0.016695357859134674
visibility: 0.5574332475662231
","x: 289.84814453125
y: 293.9011535644531
z: -0.37710854411125183
visibility: 0.7993850111961365
","x: 224.3872528076172
y: 313.32281494140625
z: -0.0013572050957009196
visibility: 0.5548844337463379
","x: 284.83734130859375
y: 398.29351806640625
z: -0.033741939812898636
visibility: 0.99945068359375
","x: 268.8826904296875
y: 398.10186767578125
z: 0.03368246927857399
visibility: 0.9992595314979553
","x: 283.1708068847656
y: 450.0934143066406
z: -0.1555173695087433
visibility: 0.9807107448577881
","x: 250.27490234375
y: 433.66192626953125
z: -0.10055931657552719
visibility: 0.9139255285263062
","x: 294.3193359375
y: 491.44036865234375
z: -0.022788209840655327
visibility: 0.9865807890892029
","x: 263.2809753417969
y: 470.0540771484375
z: 0.04615316167473793
visibility: 0.9602335691452026
","x: 297.7632141113281
y: 497.3736877441406
z: -0.013168146833777428
visibility: 0.9101613163948059
","x: 266.8424987792969
y: 470.568603515625
z: 0.05840962007641792
visibility: 0.8964793086051941
","x: 289.3100280761719
y: 508.4139404296875
z: -0.09466833621263504
visibility: 0.9855524301528931
","x: 260.6549377441406
y: 494.7256774902344
z: 0.007598565425723791
visibility: 0.9651688933372498
","x: 228.23162841796875
y: 315.6337890625
z: 0.0
","x: 226.92120361328125
y: 310.28668212890625
z: 6.045732880011201e-05
","x: 224.43505859375
y: 306.14642333984375
z: -9.414809755980968e-05
","x: 222.6468048095703
y: 303.00921630859375
z: -0.0008175890543498099
","x: 221.56796264648438
y: 299.84716796875
z: -0.001382602145895362
","x: 220.9409637451172
y: 307.18341064453125
z: 0.0023114050272852182
","x: 218.25901794433594
y: 304.2327880859375
z: 0.0012470150832086802
","x: 216.93283081054688
y: 302.2709045410156
z: 0.00046417463454417884
","x: 215.777587890625
y: 300.57958984375
z: 4.391791662783362e-05
","x: 220.50392150878906
y: 308.8553161621094
z: 0.0009667467675171793
","x: 217.68731689453125
y: 305.94891357421875
z: 0.0002013661724049598
","x: 216.46786499023438
y: 303.61126708984375
z: -0.0003251571033615619
","x: 215.41932678222656
y: 301.61328125
z: -0.0006414763629436493
","x: 220.40248107910156
y: 310.8130187988281
z: -0.0008176408591680229
","x: 217.7150421142578
y: 308.0627136230469
z: -0.0018409253098070621
","x: 216.56394958496094
y: 305.78570556640625
z: -0.002110827714204788
","x: 215.65969848632812
y: 303.8258972167969
z: -0.0021932562813162804
","x: 220.71450805664062
y: 312.9154052734375
z: -0.0028390632942318916
","x: 218.54055786132812
y: 310.72589111328125
z: -0.003631542669609189
","x: 217.5336151123047
y: 308.75250244140625
z: -0.0037608409766107798
","x: 216.7373809814453
y: 306.88836669921875
z: -0.0037514555733650923
",,,,,,,,,,,,,,,,,,,,,
11,"x: 274.2228088378906
y: 288.9239807128906
z: -0.1321784406900406
visibility: 0.9964848160743713
","x: 274.8037414550781
y: 285.81683349609375
z: -0.1266968697309494
visibility: 0.9962129592895508
","x: 275.6630859375
y: 285.521484375
z: -0.12669901549816132
visibility: 0.9960493445396423
","x: 276.5480041503906
y: 285.30535888671875
z: -0.12670190632343292
visibility: 0.9966208338737488
","x: 272.11376953125
y: 287.836669921875
z: -0.1165938600897789
visibility: 0.9938204884529114
","x: 271.14251708984375
y: 288.9196472167969
z: -0.11661982536315918
visibility: 0.9915248155593872
","x: 270.2257080078125
y: 290.0927429199219
z: -0.11660705506801605
visibility: 0.9925315976142883
","x: 278.3576965332031
y: 288.50616455078125
z: -0.08164726197719574
visibility: 0.9945823550224304
","x: 269.44970703125
y: 294.6320495605469
z: -0.034820087254047394
visibility: 0.9779958724975586
","x: 276.5113220214844
y: 292.701904296875
z: -0.11588944494724274
visibility: 0.9933927059173584
","x: 273.1860046386719
y: 295.38427734375
z: -0.10180903971195221
visibility: 0.9891645908355713
","x: 292.1289367675781
y: 307.37255859375
z: -0.07183191925287247
visibility: 0.9985134601593018
","x: 265.56768798828125
y: 323.3539123535156
z: 0.02395232766866684
visibility: 0.9978052377700806
","x: 307.7354736328125
y: 289.55712890625
z: -0.17492561042308807
visibility: 0.9687880873680115
","x: 245.425537109375
y: 329.52044677734375
z: 0.08170286566019058
visibility: 0.5549659132957458
","x: 307.1712951660156
y: 261.29534912109375
z: -0.2986178696155548
visibility: 0.8938707709312439
","x: 231.10252380371094
y: 322.3095397949219
z: 0.06892027705907822
visibility: 0.6018956899642944
","x: 307.86236572265625
y: 252.25625610351562
z: -0.32169145345687866
visibility: 0.8590888977050781
","x: 224.37869262695312
y: 320.6733703613281
z: 0.06740275770425797
visibility: 0.5976614952087402
","x: 306.1670837402344
y: 251.05628967285156
z: -0.3217368721961975
visibility: 0.85627681016922
","x: 224.5791778564453
y: 319.1814880371094
z: 0.05218763276934624
visibility: 0.6001243591308594
","x: 305.39666748046875
y: 254.9436798095703
z: -0.3048298954963684
visibility: 0.8184688687324524
","x: 227.08926391601562
y: 319.99005126953125
z: 0.06096255034208298
visibility: 0.5978683829307556
","x: 288.921875
y: 389.681884765625
z: -0.035098060965538025
visibility: 0.9995046854019165
","x: 273.60528564453125
y: 393.280029296875
z: 0.035090696066617966
visibility: 0.9993301630020142
","x: 286.8210144042969
y: 439.83953857421875
z: -0.14969554543495178
visibility: 0.9823446273803711
","x: 263.068359375
y: 443.9598083496094
z: -0.029821496456861496
visibility: 0.9217050671577454
","x: 292.639892578125
y: 490.134765625
z: -0.051921915262937546
visibility: 0.9875169992446899
","x: 285.5212707519531
y: 470.493896484375
z: 0.14277729392051697
visibility: 0.9581084251403809
","x: 294.92120361328125
y: 496.5853271484375
z: -0.044506825506687164
visibility: 0.9147608280181885
","x: 290.5284729003906
y: 469.9490966796875
z: 0.16592833399772644
visibility: 0.8973391652107239
","x: 290.05267333984375
y: 508.0398864746094
z: -0.11683212220668793
visibility: 0.9864485263824463
","x: 287.2885437011719
y: 493.3067626953125
z: 0.14529874920845032
visibility: 0.9627478718757629
","x: 229.55023193359375
y: 320.94293212890625
z: 0.0
","x: 227.381103515625
y: 317.19775390625
z: 0.0006947165820747614
","x: 224.6693115234375
y: 315.49114990234375
z: 0.0011576234828680754
","x: 222.5652618408203
y: 314.77410888671875
z: 0.0009521532338112593
","x: 220.88320922851562
y: 314.3585510253906
z: 0.0009010628564283252
","x: 221.6419219970703
y: 318.4571533203125
z: 0.004064328968524933
","x: 218.966552734375
y: 318.6852111816406
z: 0.003657782915979624
","x: 217.47952270507812
y: 318.99078369140625
z: 0.003262390149757266
","x: 216.27508544921875
y: 319.592529296875
z: 0.0031371491495519876
","x: 221.34024047851562
y: 320.07586669921875
z: 0.002701948396861553
","x: 218.5160675048828
y: 320.23779296875
z: 0.002604821929708123
","x: 217.078369140625
y: 320.360595703125
z: 0.0023765331134200096
","x: 215.7890167236328
y: 320.75567626953125
z: 0.0022997898049652576
","x: 221.34388732910156
y: 321.7601013183594
z: 0.0008686627843417227
","x: 218.5612335205078
y: 321.88311767578125
z: 0.00035956368083134294
","x: 217.18113708496094
y: 321.95379638671875
z: 0.00025637645740062
","x: 216.0348663330078
y: 322.1983642578125
z: 0.00033174146665260196
","x: 221.6619415283203
y: 323.4823913574219
z: -0.001173051306977868
","x: 219.1779327392578
y: 323.878173828125
z: -0.001623726449906826
","x: 217.7812042236328
y: 324.0499572753906
z: -0.0016251227352768183
","x: 216.62557983398438
y: 324.22442626953125
z: -0.0014901644317433238
","x: 308.0017395019531
y: 260.06793212890625
z: 0.0
","x: 306.1069641113281
y: 256.9051818847656
z: -0.0008552445215173066
","x: 304.7610168457031
y: 253.17584228515625
z: -0.002166522666811943
","x: 304.1821594238281
y: 250.71434020996094
z: -0.0038221939466893673
","x: 303.99188232421875
y: 249.0692901611328
z: -0.005516008008271456
","x: 306.39154052734375
y: 247.96826171875
z: -0.00224248762242496
","x: 306.17169189453125
y: 242.59481811523438
z: -0.004768179729580879
","x: 306.5177001953125
y: 240.61581420898438
z: -0.006191321182996035
","x: 306.90850830078125
y: 239.5828857421875
z: -0.006995008792728186
","x: 307.97265625
y: 248.28076171875
z: -0.0036986120976507664
","x: 308.235595703125
y: 242.50306701660156
z: -0.006114848889410496
","x: 308.83099365234375
y: 239.49636840820312
z: -0.007331870496273041
","x: 309.33740234375
y: 237.45037841796875
z: -0.008187264204025269
","x: 309.3730773925781
y: 249.5740966796875
z: -0.00537160225212574
","x: 309.9834899902344
y: 244.59384155273438
z: -0.007733761798590422
","x: 310.55078125
y: 241.45977783203125
z: -0.008680567145347595
","x: 310.9367980957031
y: 239.18527221679688
z: -0.009299388155341148
","x: 310.604736328125
y: 251.7593994140625
z: -0.00719689205288887
","x: 311.6049499511719
y: 248.5200653076172
z: -0.009058086201548576
","x: 312.1776428222656
y: 246.41629028320312
z: -0.009634622372686863
","x: 312.5142517089844
y: 244.88687133789062
z: -0.01001586951315403
"
12,"x: 274.2228088378906
y: 288.9239807128906
z: -0.1321784406900406
visibility: 0.9964848160743713
","x: 274.8037414550781
y: 285.81683349609375
z: -0.1266968697309494
visibility: 0.9962129592895508
","x: 275.6630859375
y: 285.521484375
z: -0.12669901549816132
visibility: 0.9960493445396423
","x: 276.5480041503906
y: 285.30535888671875
z: -0.12670190632343292
visibility: 0.9966208338737488
","x: 272.11376953125
y: 287.836669921875
z: -0.1165938600897789
visibility: 0.9938204884529114
","x: 271.14251708984375
y: 288.9196472167969
z: -0.11661982536315918
visibility: 0.9915248155593872
","x: 270.2257080078125
y: 290.0927429199219
z: -0.11660705506801605
visibility: 0.9925315976142883
","x: 278.3576965332031
y: 288.50616455078125
z: -0.08164726197719574
visibility: 0.9945823550224304
","x: 269.44970703125
y: 294.6320495605469
z: -0.034820087254047394
visibility: 0.9779958724975586
","x: 276.5113220214844
y: 292.701904296875
z: -0.11588944494724274
visibility: 0.9933927059173584
","x: 273.1860046386719
y: 295.38427734375
z: -0.10180903971195221
visibility: 0.9891645908355713
","x: 292.1289367675781
y: 307.37255859375
z: -0.07183191925287247
visibility: 0.9985134601593018
","x: 265.56768798828125
y: 323.3539123535156
z: 0.02395232766866684
visibility: 0.9978052377700806
","x: 307.7354736328125
y: 289.55712890625
z: -0.17492561042308807
visibility: 0.9687880873680115
","x: 245.425537109375
y: 329.52044677734375
z: 0.08170286566019058
visibility: 0.5549659132957458
","x: 307.1712951660156
y: 261.29534912109375
z: -0.2986178696155548
visibility: 0.8938707709312439
","x: 231.10252380371094
y: 322.3095397949219
z: 0.06892027705907822
visibility: 0.6018956899642944
","x: 307.86236572265625
y: 252.25625610351562
z: -0.32169145345687866
visibility: 0.8590888977050781
","x: 224.37869262695312
y: 320.6733703613281
z: 0.06740275770425797
visibility: 0.5976614952087402
","x: 306.1670837402344
y: 251.05628967285156
z: -0.3217368721961975
visibility: 0.85627681016922
","x: 224.5791778564453
y: 319.1814880371094
z: 0.05218763276934624
visibility: 0.6001243591308594
","x: 305.39666748046875
y: 254.9436798095703
z: -0.3048298954963684
visibility: 0.8184688687324524
","x: 227.08926391601562
y: 319.99005126953125
z: 0.06096255034208298
visibility: 0.5978683829307556
","x: 288.921875
y: 389.681884765625
z: -0.035098060965538025
visibility: 0.9995046854019165
","x: 273.60528564453125
y: 393.280029296875
z: 0.035090696066617966
visibility: 0.9993301630020142
","x: 286.8210144042969
y: 439.83953857421875
z: -0.14969554543495178
visibility: 0.9823446273803711
","x: 263.068359375
y: 443.9598083496094
z: -0.029821496456861496
visibility: 0.9217050671577454
","x: 292.639892578125
y: 490.134765625
z: -0.051921915262937546
visibility: 0.9875169992446899
","x: 285.5212707519531
y: 470.493896484375
z: 0.14277729392051697
visibility: 0.9581084251403809
","x: 294.92120361328125
y: 496.5853271484375
z: -0.044506825506687164
visibility: 0.9147608280181885
","x: 290.5284729003906
y: 469.9490966796875
z: 0.16592833399772644
visibility: 0.8973391652107239
","x: 290.05267333984375
y: 508.0398864746094
z: -0.11683212220668793
visibility: 0.9864485263824463
","x: 287.2885437011719
y: 493.3067626953125
z: 0.14529874920845032
visibility: 0.9627478718757629
","x: 229.55023193359375
y: 320.94293212890625
z: 0.0
","x: 227.381103515625
y: 317.19775390625
z: 0.0006947165820747614
","x: 224.6693115234375
y: 315.49114990234375
z: 0.0011576234828680754
","x: 222.5652618408203
y: 314.77410888671875
z: 0.0009521532338112593
","x: 220.88320922851562
y: 314.3585510253906
z: 0.0009010628564283252
","x: 221.6419219970703
y: 318.4571533203125
z: 0.004064328968524933
","x: 218.966552734375
y: 318.6852111816406
z: 0.003657782915979624
","x: 217.47952270507812
y: 318.99078369140625
z: 0.003262390149757266
","x: 216.27508544921875
y: 319.592529296875
z: 0.0031371491495519876
","x: 221.34024047851562
y: 320.07586669921875
z: 0.002701948396861553
","x: 218.5160675048828
y: 320.23779296875
z: 0.002604821929708123
","x: 217.078369140625
y: 320.360595703125
z: 0.0023765331134200096
","x: 215.7890167236328
y: 320.75567626953125
z: 0.0022997898049652576
","x: 221.34388732910156
y: 321.7601013183594
z: 0.0008686627843417227
","x: 218.5612335205078
y: 321.88311767578125
z: 0.00035956368083134294
","x: 217.18113708496094
y: 321.95379638671875
z: 0.00025637645740062
","x: 216.0348663330078
y: 322.1983642578125
z: 0.00033174146665260196
","x: 221.6619415283203
y: 323.4823913574219
z: -0.001173051306977868
","x: 219.1779327392578
y: 323.878173828125
z: -0.001623726449906826
","x: 217.7812042236328
y: 324.0499572753906
z: -0.0016251227352768183
","x: 216.62557983398438
y: 324.22442626953125
z: -0.0014901644317433238
","x: 308.0017395019531
y: 260.06793212890625
z: 0.0
","x: 306.1069641113281
y: 256.9051818847656
z: -0.0008552445215173066
","x: 304.7610168457031
y: 253.17584228515625
z: -0.002166522666811943
","x: 304.1821594238281
y: 250.71434020996094
z: -0.0038221939466893673
","x: 303.99188232421875
y: 249.0692901611328
z: -0.005516008008271456
","x: 306.39154052734375
y: 247.96826171875
z: -0.00224248762242496
","x: 306.17169189453125
y: 242.59481811523438
z: -0.004768179729580879
","x: 306.5177001953125
y: 240.61581420898438
z: -0.006191321182996035
","x: 306.90850830078125
y: 239.5828857421875
z: -0.006995008792728186
","x: 307.97265625
y: 248.28076171875
z: -0.0036986120976507664
","x: 308.235595703125
y: 242.50306701660156
z: -0.006114848889410496
","x: 308.83099365234375
y: 239.49636840820312
z: -0.007331870496273041
","x: 309.33740234375
y: 237.45037841796875
z: -0.008187264204025269
","x: 309.3730773925781
y: 249.5740966796875
z: -0.00537160225212574
","x: 309.9834899902344
y: 244.59384155273438
z: -0.007733761798590422
","x: 310.55078125
y: 241.45977783203125
z: -0.008680567145347595
","x: 310.9367980957031
y: 239.18527221679688
z: -0.009299388155341148
","x: 310.604736328125
y: 251.7593994140625
z: -0.00719689205288887
","x: 311.6049499511719
y: 248.5200653076172
z: -0.009058086201548576
","x: 312.1776428222656
y: 246.41629028320312
z: -0.009634622372686863
","x: 312.5142517089844
y: 244.88687133789062
z: -0.01001586951315403
"
13,"x: 274.2228088378906
y: 288.9239807128906
z: -0.1321784406900406
visibility: 0.9964848160743713
","x: 274.8037414550781
y: 285.81683349609375
z: -0.1266968697309494
visibility: 0.9962129592895508
","x: 275.6630859375
y: 285.521484375
z: -0.12669901549816132
visibility: 0.9960493445396423
","x: 276.5480041503906
y: 285.30535888671875
z: -0.12670190632343292
visibility: 0.9966208338737488
","x: 272.11376953125
y: 287.836669921875
z: -0.1165938600897789
visibility: 0.9938204884529114
","x: 271.14251708984375
y: 288.9196472167969
z: -0.11661982536315918
visibility: 0.9915248155593872
","x: 270.2257080078125
y: 290.0927429199219
z: -0.11660705506801605
visibility: 0.9925315976142883
","x: 278.3576965332031
y: 288.50616455078125
z: -0.08164726197719574
visibility: 0.9945823550224304
","x: 269.44970703125
y: 294.6320495605469
z: -0.034820087254047394
visibility: 0.9779958724975586
","x: 276.5113220214844
y: 292.701904296875
z: -0.11588944494724274
visibility: 0.9933927059173584
","x: 273.1860046386719
y: 295.38427734375
z: -0.10180903971195221
visibility: 0.9891645908355713
","x: 292.1289367675781
y: 307.37255859375
z: -0.07183191925287247
visibility: 0.9985134601593018
","x: 265.56768798828125
y: 323.3539123535156
z: 0.02395232766866684
visibility: 0.9978052377700806
","x: 307.7354736328125
y: 289.55712890625
z: -0.17492561042308807
visibility: 0.9687880873680115
","x: 245.425537109375
y: 329.52044677734375
z: 0.08170286566019058
visibility: 0.5549659132957458
","x: 307.1712951660156
y: 261.29534912109375
z: -0.2986178696155548
visibility: 0.8938707709312439
","x: 231.10252380371094
y: 322.3095397949219
z: 0.06892027705907822
visibility: 0.6018956899642944
","x: 307.86236572265625
y: 252.25625610351562
z: -0.32169145345687866
visibility: 0.8590888977050781
","x: 224.37869262695312
y: 320.6733703613281
z: 0.06740275770425797
visibility: 0.5976614952087402
","x: 306.1670837402344
y: 251.05628967285156
z: -0.3217368721961975
visibility: 0.85627681016922
","x: 224.5791778564453
y: 319.1814880371094
z: 0.05218763276934624
visibility: 0.6001243591308594
","x: 305.39666748046875
y: 254.9436798095703
z: -0.3048298954963684
visibility: 0.8184688687324524
","x: 227.08926391601562
y: 319.99005126953125
z: 0.06096255034208298
visibility: 0.5978683829307556
","x: 288.921875
y: 389.681884765625
z: -0.035098060965538025
visibility: 0.9995046854019165
","x: 273.60528564453125
y: 393.280029296875
z: 0.035090696066617966
visibility: 0.9993301630020142
","x: 286.8210144042969
y: 439.83953857421875
z: -0.14969554543495178
visibility: 0.9823446273803711
","x: 263.068359375
y: 443.9598083496094
z: -0.029821496456861496
visibility: 0.9217050671577454
","x: 292.639892578125
y: 490.134765625
z: -0.051921915262937546
visibility: 0.9875169992446899
","x: 285.5212707519531
y: 470.493896484375
z: 0.14277729392051697
visibility: 0.9581084251403809
","x: 294.92120361328125
y: 496.5853271484375
z: -0.044506825506687164
visibility: 0.9147608280181885
","x: 290.5284729003906
y: 469.9490966796875
z: 0.16592833399772644
visibility: 0.8973391652107239
","x: 290.05267333984375
y: 508.0398864746094
z: -0.11683212220668793
visibility: 0.9864485263824463
","x: 287.2885437011719
y: 493.3067626953125
z: 0.14529874920845032
visibility: 0.9627478718757629
","x: 229.55023193359375
y: 320.94293212890625
z: 0.0
","x: 227.381103515625
y: 317.19775390625
z: 0.0006947165820747614
","x: 224.6693115234375
y: 315.49114990234375
z: 0.0011576234828680754
","x: 222.5652618408203
y: 314.77410888671875
z: 0.0009521532338112593
","x: 220.88320922851562
y: 314.3585510253906
z: 0.0009010628564283252
","x: 221.6419219970703
y: 318.4571533203125
z: 0.004064328968524933
","x: 218.966552734375
y: 318.6852111816406
z: 0.003657782915979624
","x: 217.47952270507812
y: 318.99078369140625
z: 0.003262390149757266
","x: 216.27508544921875
y: 319.592529296875
z: 0.0031371491495519876
","x: 221.34024047851562
y: 320.07586669921875
z: 0.002701948396861553
","x: 218.5160675048828
y: 320.23779296875
z: 0.002604821929708123
","x: 217.078369140625
y: 320.360595703125
z: 0.0023765331134200096
","x: 215.7890167236328
y: 320.75567626953125
z: 0.0022997898049652576
","x: 221.34388732910156
y: 321.7601013183594
z: 0.0008686627843417227
","x: 218.5612335205078
y: 321.88311767578125
z: 0.00035956368083134294
","x: 217.18113708496094
y: 321.95379638671875
z: 0.00025637645740062
","x: 216.0348663330078
y: 322.1983642578125
z: 0.00033174146665260196
","x: 221.6619415283203
y: 323.4823913574219
z: -0.001173051306977868
","x: 219.1779327392578
y: 323.878173828125
z: -0.001623726449906826
","x: 217.7812042236328
y: 324.0499572753906
z: -0.0016251227352768183
","x: 216.62557983398438
y: 324.22442626953125
z: -0.0014901644317433238
","x: 308.0017395019531
y: 260.06793212890625
z: 0.0
","x: 306.1069641113281
y: 256.9051818847656
z: -0.0008552445215173066
","x: 304.7610168457031
y: 253.17584228515625
z: -0.002166522666811943
","x: 304.1821594238281
y: 250.71434020996094
z: -0.0038221939466893673
","x: 303.99188232421875
y: 249.0692901611328
z: -0.005516008008271456
","x: 306.39154052734375
y: 247.96826171875
z: -0.00224248762242496
","x: 306.17169189453125
y: 242.59481811523438
z: -0.004768179729580879
","x: 306.5177001953125
y: 240.61581420898438
z: -0.006191321182996035
","x: 306.90850830078125
y: 239.5828857421875
z: -0.006995008792728186
","x: 307.97265625
y: 248.28076171875
z: -0.0036986120976507664
","x: 308.235595703125
y: 242.50306701660156
z: -0.006114848889410496
","x: 308.83099365234375
y: 239.49636840820312
z: -0.007331870496273041
","x: 309.33740234375
y: 237.45037841796875
z: -0.008187264204025269
","x: 309.3730773925781
y: 249.5740966796875
z: -0.00537160225212574
","x: 309.9834899902344
y: 244.59384155273438
z: -0.007733761798590422
","x: 310.55078125
y: 241.45977783203125
z: -0.008680567145347595
","x: 310.9367980957031
y: 239.18527221679688
z: -0.009299388155341148
","x: 310.604736328125
y: 251.7593994140625
z: -0.00719689205288887
","x: 311.6049499511719
y: 248.5200653076172
z: -0.009058086201548576
","x: 312.1776428222656
y: 246.41629028320312
z: -0.009634622372686863
","x: 312.5142517089844
y: 244.88687133789062
z: -0.01001586951315403
"
14,"x: 283.91485595703125
y: 290.8008728027344
z: -0.19716277718544006
visibility: 0.9968351125717163
","x: 284.0794982910156
y: 287.08612060546875
z: -0.18210119009017944
visibility: 0.9965880513191223
","x: 284.46722412109375
y: 286.73345947265625
z: -0.18210235238075256
visibility: 0.9964383840560913
","x: 284.8604431152344
y: 286.3388977050781
z: -0.18214696645736694
visibility: 0.9969534277915955
","x: 282.058837890625
y: 288.2742919921875
z: -0.19441871345043182
visibility: 0.9944370985031128
","x: 280.9560546875
y: 288.674560546875
z: -0.19445446133613586
visibility: 0.9923704862594604
","x: 279.8141784667969
y: 289.0603332519531
z: -0.1944846510887146
visibility: 0.9932764172554016
","x: 284.17974853515625
y: 289.04840087890625
z: -0.09559746831655502
visibility: 0.9951193928718567
","x: 276.69366455078125
y: 292.28814697265625
z: -0.15281809866428375
visibility: 0.9801946878433228
","x: 284.17529296875
y: 294.57952880859375
z: -0.16320101916790009
visibility: 0.9940504431724548
","x: 282.0605773925781
y: 296.3051452636719
z: -0.18023931980133057
visibility: 0.9902459979057312
","x: 291.5266418457031
y: 308.6795654296875
z: -0.050394318997859955
visibility: 0.9986433386802673
","x: 265.9357604980469
y: 322.4927978515625
z: -0.14077995717525482
visibility: 0.9980025291442871
","x: 305.67816162109375
y: 285.4696350097656
z: -0.04608863592147827
visibility: 0.9708528518676758
","x: 248.97915649414062
y: 329.4031066894531
z: -0.3084340989589691
visibility: 0.5991310477256775
","x: 319.9378356933594
y: 264.1578369140625
z: -0.07978744059801102
visibility: 0.9036085605621338
","x: 250.13780212402344
y: 324.89678955078125
z: -0.49506044387817383
visibility: 0.6405003070831299
","x: 324.6419372558594
y: 260.1766052246094
z: -0.08862324059009552
visibility: 0.8706720471382141
","x: 249.65115356445312
y: 325.25885009765625
z: -0.5283240079879761
visibility: 0.6346688866615295
","x: 324.2875061035156
y: 259.8595886230469
z: -0.1017255187034607
visibility: 0.8684206008911133
","x: 252.02113342285156
y: 322.7645568847656
z: -0.5245789885520935
visibility: 0.6368235349655151
","x: 322.79278564453125
y: 261.70355224609375
z: -0.08827794343233109
visibility: 0.8341641426086426
","x: 252.5117645263672
y: 322.06689453125
z: -0.4986281991004944
visibility: 0.6328297853469849
","x: 289.8717346191406
y: 390.51629638671875
z: 0.01341276802122593
visibility: 0.9995530247688293
","x: 276.1078186035156
y: 393.9599304199219
z: -0.013388389721512794
visibility: 0.9993879199028015
","x: 295.80181884765625
y: 438.83831787109375
z: -0.19170621037483215
visibility: 0.9835169911384583
","x: 282.1983337402344
y: 451.144287109375
z: 0.011156539432704449
visibility: 0.922755777835846
","x: 287.72607421875
y: 492.2922058105469
z: -0.14089146256446838
visibility: 0.9864681363105774
","x: 295.220703125
y: 473.11956787109375
z: 0.23409390449523926
visibility: 0.9356767535209656
","x: 282.2046203613281
y: 500.681884765625
z: -0.13878270983695984
visibility: 0.9203094244003296
","x: 298.6285705566406
y: 475.615966796875
z: 0.25337859988212585
visibility: 0.8769447207450867
","x: 290.51629638671875
y: 507.5174560546875
z: -0.22829607129096985
visibility: 0.9857882261276245
","x: 297.04266357421875
y: 494.73077392578125
z: 0.19782540202140808
visibility: 0.9418250322341919
",,,,,,,,,,,,,,,,,,,,,,,,,,,,,,,,,,,,,,,,,,
15,"x: 285.133056640625
y: 305.4196472167969
z: 0.09827490150928497
visibility: 0.9969809055328369
","x: 284.0199279785156
y: 301.3348388671875
z: 0.08484657108783722
visibility: 0.9967378377914429
","x: 283.4050598144531
y: 301.14215087890625
z: 0.08483684062957764
visibility: 0.9965931177139282
","x: 282.6858825683594
y: 301.0595703125
z: 0.08487027138471603
visibility: 0.9970649480819702
","x: 285.6459655761719
y: 302.125
z: 0.07539581507444382
visibility: 0.994828462600708
","x: 286.0933837890625
y: 302.3408203125
z: 0.07539469003677368
visibility: 0.9929600954055786
","x: 286.5655822753906
y: 302.6009826660156
z: 0.07535119354724884
visibility: 0.9937995076179504
","x: 280.7584533691406
y: 302.50738525390625
z: 0.04390645772218704
visibility: 0.9952735900878906
","x: 285.4190368652344
y: 303.33197021484375
z: -0.0022501000203192234
visibility: 0.9816091060638428
","x: 283.74884033203125
y: 308.4801025390625
z: 0.08807171881198883
visibility: 0.9939975738525391
","x: 285.4467468261719
y: 308.8465270996094
z: 0.07497041672468185
visibility: 0.9904735088348389
","x: 266.32305908203125
y: 327.0095520019531
z: 0.025022372603416443
visibility: 0.9987379908561707
","x: 292.9190673828125
y: 324.5962829589844
z: -0.057068049907684326
visibility: 0.9981818199157715
","x: 245.55764770507812
y: 338.6538391113281
z: 0.08169828355312347
visibility: 0.9732154011726379
","x: 308.2967224121094
y: 318.28985595703125
z: -0.10470400750637054
visibility: 0.6388452053070068
","x: 242.66424560546875
y: 319.46099853515625
z: 0.15270335972309113
visibility: 0.900782585144043
","x: 315.93499755859375
y: 287.65277099609375
z: -0.15552352368831635
visibility: 0.6744667291641235
","x: 239.75323486328125
y: 314.931884765625
z: 0.16177043318748474
visibility: 0.8583857417106628
","x: 320.18267822265625
y: 280.4609375
z: -0.15797081589698792
visibility: 0.667262077331543
","x: 242.86119079589844
y: 313.4145202636719
z: 0.1637074053287506
visibility: 0.8565047383308411
","x: 317.9688415527344
y: 278.134033203125
z: -0.14195075631141663
visibility: 0.6691639423370361
","x: 244.0413055419922
y: 314.8780517578125
z: 0.15668080747127533
visibility: 0.8210338950157166
","x: 316.42633056640625
y: 280.6372985839844
z: -0.1431969255208969
visibility: 0.6619436740875244
","x: 282.5632629394531
y: 400.59527587890625
z: 0.01609582081437111
visibility: 0.9995782375335693
","x: 288.6137390136719
y: 398.6929016113281
z: -0.016380947083234787
visibility: 0.9994335770606995
","x: 290.96490478515625
y: 439.0280456542969
z: 0.07209572196006775
visibility: 0.950252890586853
","x: 291.2737731933594
y: 450.5479431152344
z: 0.013062497600913048
visibility: 0.8951759338378906
","x: 294.5027770996094
y: 484.6556396484375
z: -0.12830515205860138
visibility: 0.9742977023124695
","x: 291.3564758300781
y: 486.8495178222656
z: -0.06425280123949051
visibility: 0.9314627647399902
","x: 295.3547058105469
y: 486.8143005371094
z: -0.02499726042151451
visibility: 0.9211763739585876
","x: 290.5728454589844
y: 493.939697265625
z: -0.07222537696361542
visibility: 0.8798078298568726
","x: 296.9492492675781
y: 497.2978210449219
z: -0.05102929472923279
visibility: 0.9785475134849548
","x: 294.3564147949219
y: 499.71240234375
z: -0.10892073065042496
visibility: 0.9407294988632202
","x: 316.97100830078125
y: 282.37554931640625
z: 0.0
","x: 316.9387512207031
y: 277.40582275390625
z: -0.0005534414667636156
","x: 317.9901428222656
y: 272.6527099609375
z: -0.0011023636907339096
","x: 319.4315490722656
y: 269.2127380371094
z: -0.0020536184310913086
","x: 320.6201477050781
y: 266.4727783203125
z: -0.0028696111403405666
","x: 320.7088317871094
y: 271.3365783691406
z: 0.000336290366249159
","x: 322.7266845703125
y: 267.8455810546875
z: -0.001282135839574039
","x: 323.7772216796875
y: 267.46783447265625
z: -0.0020516887307167053
","x: 324.35223388671875
y: 267.77984619140625
z: -0.0023879201617091894
","x: 321.79986572265625
y: 273.0890197753906
z: -0.0007580526289530098
","x: 324.0570983886719
y: 269.4639587402344
z: -0.0024549264926463366
","x: 325.001220703125
y: 269.0769348144531
z: -0.003056302899494767
","x: 325.4759826660156
y: 269.4771728515625
z: -0.0032342097256332636
","x: 322.4934387207031
y: 275.4776306152344
z: -0.0022083777002990246
","x: 325.07861328125
y: 273.0877685546875
z: -0.00405071210116148
","x: 325.91064453125
y: 272.7701721191406
z: -0.004370848648250103
","x: 326.21026611328125
y: 272.9240417480469
z: -0.00429824274033308
","x: 322.76068115234375
y: 278.41302490234375
z: -0.0038673479575663805
","x: 325.0465393066406
y: 277.6136779785156
z: -0.005347691476345062
","x: 325.8502502441406
y: 277.48321533203125
z: -0.005630712024867535
","x: 326.14801025390625
y: 277.4842834472656
z: -0.005564669147133827
",,,,,,,,,,,,,,,,,,,,,
16,"x: 285.133056640625
y: 305.4196472167969
z: 0.09827490150928497
visibility: 0.9969809055328369
","x: 284.0199279785156
y: 301.3348388671875
z: 0.08484657108783722
visibility: 0.9967378377914429
","x: 283.4050598144531
y: 301.14215087890625
z: 0.08483684062957764
visibility: 0.9965931177139282
","x: 282.6858825683594
y: 301.0595703125
z: 0.08487027138471603
visibility: 0.9970649480819702
","x: 285.6459655761719
y: 302.125
z: 0.07539581507444382
visibility: 0.994828462600708
","x: 286.0933837890625
y: 302.3408203125
z: 0.07539469003677368
visibility: 0.9929600954055786
","x: 286.5655822753906
y: 302.6009826660156
z: 0.07535119354724884
visibility: 0.9937995076179504
","x: 280.7584533691406
y: 302.50738525390625
z: 0.04390645772218704
visibility: 0.9952735900878906
","x: 285.4190368652344
y: 303.33197021484375
z: -0.0022501000203192234
visibility: 0.9816091060638428
","x: 283.74884033203125
y: 308.4801025390625
z: 0.08807171881198883
visibility: 0.9939975738525391
","x: 285.4467468261719
y: 308.8465270996094
z: 0.07497041672468185
visibility: 0.9904735088348389
","x: 266.32305908203125
y: 327.0095520019531
z: 0.025022372603416443
visibility: 0.9987379908561707
","x: 292.9190673828125
y: 324.5962829589844
z: -0.057068049907684326
visibility: 0.9981818199157715
","x: 245.55764770507812
y: 338.6538391113281
z: 0.08169828355312347
visibility: 0.9732154011726379
","x: 308.2967224121094
y: 318.28985595703125
z: -0.10470400750637054
visibility: 0.6388452053070068
","x: 242.66424560546875
y: 319.46099853515625
z: 0.15270335972309113
visibility: 0.900782585144043
","x: 315.93499755859375
y: 287.65277099609375
z: -0.15552352368831635
visibility: 0.6744667291641235
","x: 239.75323486328125
y: 314.931884765625
z: 0.16177043318748474
visibility: 0.8583857417106628
","x: 320.18267822265625
y: 280.4609375
z: -0.15797081589698792
visibility: 0.667262077331543
","x: 242.86119079589844
y: 313.4145202636719
z: 0.1637074053287506
visibility: 0.8565047383308411
","x: 317.9688415527344
y: 278.134033203125
z: -0.14195075631141663
visibility: 0.6691639423370361
","x: 244.0413055419922
y: 314.8780517578125
z: 0.15668080747127533
visibility: 0.8210338950157166
","x: 316.42633056640625
y: 280.6372985839844
z: -0.1431969255208969
visibility: 0.6619436740875244
","x: 282.5632629394531
y: 400.59527587890625
z: 0.01609582081437111
visibility: 0.9995782375335693
","x: 288.6137390136719
y: 398.6929016113281
z: -0.016380947083234787
visibility: 0.9994335770606995
","x: 290.96490478515625
y: 439.0280456542969
z: 0.07209572196006775
visibility: 0.950252890586853
","x: 291.2737731933594
y: 450.5479431152344
z: 0.013062497600913048
visibility: 0.8951759338378906
","x: 294.5027770996094
y: 484.6556396484375
z: -0.12830515205860138
visibility: 0.9742977023124695
","x: 291.3564758300781
y: 486.8495178222656
z: -0.06425280123949051
visibility: 0.9314627647399902
","x: 295.3547058105469
y: 486.8143005371094
z: -0.02499726042151451
visibility: 0.9211763739585876
","x: 290.5728454589844
y: 493.939697265625
z: -0.07222537696361542
visibility: 0.8798078298568726
","x: 296.9492492675781
y: 497.2978210449219
z: -0.05102929472923279
visibility: 0.9785475134849548
","x: 294.3564147949219
y: 499.71240234375
z: -0.10892073065042496
visibility: 0.9407294988632202
","x: 316.97100830078125
y: 282.37554931640625
z: 0.0
","x: 316.9387512207031
y: 277.40582275390625
z: -0.0005534414667636156
","x: 317.9901428222656
y: 272.6527099609375
z: -0.0011023636907339096
","x: 319.4315490722656
y: 269.2127380371094
z: -0.0020536184310913086
","x: 320.6201477050781
y: 266.4727783203125
z: -0.0028696111403405666
","x: 320.7088317871094
y: 271.3365783691406
z: 0.000336290366249159
","x: 322.7266845703125
y: 267.8455810546875
z: -0.001282135839574039
","x: 323.7772216796875
y: 267.46783447265625
z: -0.0020516887307167053
","x: 324.35223388671875
y: 267.77984619140625
z: -0.0023879201617091894
","x: 321.79986572265625
y: 273.0890197753906
z: -0.0007580526289530098
","x: 324.0570983886719
y: 269.4639587402344
z: -0.0024549264926463366
","x: 325.001220703125
y: 269.0769348144531
z: -0.003056302899494767
","x: 325.4759826660156
y: 269.4771728515625
z: -0.0032342097256332636
","x: 322.4934387207031
y: 275.4776306152344
z: -0.0022083777002990246
","x: 325.07861328125
y: 273.0877685546875
z: -0.00405071210116148
","x: 325.91064453125
y: 272.7701721191406
z: -0.004370848648250103
","x: 326.21026611328125
y: 272.9240417480469
z: -0.00429824274033308
","x: 322.76068115234375
y: 278.41302490234375
z: -0.0038673479575663805
","x: 325.0465393066406
y: 277.6136779785156
z: -0.005347691476345062
","x: 325.8502502441406
y: 277.48321533203125
z: -0.005630712024867535
","x: 326.14801025390625
y: 277.4842834472656
z: -0.005564669147133827
",,,,,,,,,,,,,,,,,,,,,
17,"x: 283.051513671875
y: 303.63385009765625
z: -0.1737089902162552
visibility: 0.9972774982452393
","x: 284.1106262207031
y: 299.5064392089844
z: -0.16024017333984375
visibility: 0.99704509973526
","x: 284.70770263671875
y: 298.7655029296875
z: -0.16025161743164062
visibility: 0.9969154596328735
","x: 285.28173828125
y: 298.4532470703125
z: -0.16029763221740723
visibility: 0.9973390698432922
","x: 282.1336669921875
y: 299.2651062011719
z: -0.16528967022895813
visibility: 0.9953206777572632
","x: 281.3885803222656
y: 298.26849365234375
z: -0.1652950644493103
visibility: 0.9936357140541077
","x: 280.6517333984375
y: 297.533935546875
z: -0.16533991694450378
visibility: 0.9943925142288208
","x: 285.186279296875
y: 300.2256164550781
z: -0.07208537310361862
visibility: 0.9957230091094971
","x: 278.8591613769531
y: 299.7028503417969
z: -0.10666874796152115
visibility: 0.9834325909614563
","x: 283.4768371582031
y: 307.4478454589844
z: -0.14347043633460999
visibility: 0.9945928454399109
","x: 281.2468566894531
y: 306.69390869140625
z: -0.15079696476459503
visibility: 0.9914207458496094
","x: 286.3851318359375
y: 326.41015625
z: -0.029597517102956772
visibility: 0.9988617897033691
","x: 271.79962158203125
y: 319.387451171875
z: -0.04637100547552109
visibility: 0.9983596205711365
","x: 301.09576416015625
y: 350.65728759765625
z: -0.11679847538471222
visibility: 0.9753455519676208
","x: 249.52622985839844
y: 326.5513610839844
z: -0.03663632646203041
visibility: 0.6747401356697083
","x: 301.31219482421875
y: 323.39080810546875
z: -0.2973805367946625
visibility: 0.910262405872345
","x: 230.98521423339844
y: 335.9591064453125
z: -0.08473287522792816
visibility: 0.706733226776123
","x: 300.2972106933594
y: 316.189697265625
z: -0.3295038342475891
visibility: 0.8710885643959045
","x: 226.64735412597656
y: 340.9502868652344
z: -0.09822657704353333
visibility: 0.6993041634559631
","x: 298.8594970703125
y: 313.49920654296875
z: -0.32303184270858765
visibility: 0.8693293929100037
","x: 226.8966522216797
y: 342.7508239746094
z: -0.11574511229991913
visibility: 0.7011560797691345
","x: 298.6651306152344
y: 316.4443664550781
z: -0.30026429891586304
visibility: 0.8367758393287659
","x: 228.39756774902344
y: 341.90106201171875
z: -0.094718798995018
visibility: 0.69461590051651
","x: 287.3489685058594
y: 400.34716796875
z: 0.01078183762729168
visibility: 0.9996115565299988
","x: 283.50469970703125
y: 399.130615234375
z: -0.011341920122504234
visibility: 0.999480128288269
","x: 289.93194580078125
y: 448.8594970703125
z: -0.02368481457233429
visibility: 0.9549233317375183
","x: 266.0725402832031
y: 449.2599182128906
z: -0.020899057388305664
visibility: 0.9053370356559753
","x: 293.05108642578125
y: 492.2158508300781
z: 0.0975838303565979
visibility: 0.9762704968452454
","x: 279.28826904296875
y: 480.3549499511719
z: 0.19617384672164917
visibility: 0.9368376135826111
","x: 295.09014892578125
y: 496.6018981933594
z: 0.11424076557159424
visibility: 0.9218857884407043
","x: 279.8148498535156
y: 482.30352783203125
z: 0.21746937930583954
visibility: 0.8859812617301941
","x: 294.5257873535156
y: 505.5734558105469
z: 0.03936491534113884
visibility: 0.9800213575363159
","x: 289.4179382324219
y: 500.80926513671875
z: 0.16947041451931
visibility: 0.945158839225769
",,,,,,,,,,,,,,,,,,,,,,,,,,,,,,,,,,,,,,,,,,
18,"x: 279.8955993652344
y: 298.1063537597656
z: -0.2140703946352005
visibility: 0.9975447058677673
","x: 281.2752990722656
y: 296.0391540527344
z: -0.20137250423431396
visibility: 0.997322142124176
","x: 281.9981994628906
y: 296.4587707519531
z: -0.20136234164237976
visibility: 0.9972039461135864
","x: 282.7622985839844
y: 297.0631103515625
z: -0.20137052237987518
visibility: 0.9975813031196594
","x: 279.1885986328125
y: 293.6448974609375
z: -0.20711514353752136
visibility: 0.995766818523407
","x: 278.42987060546875
y: 292.6238708496094
z: -0.20714902877807617
visibility: 0.9942519068717957
","x: 277.6750183105469
y: 291.7862854003906
z: -0.20716509222984314
visibility: 0.9949296712875366
","x: 283.3575134277344
y: 299.64923095703125
z: -0.11825624853372574
visibility: 0.996109664440155
","x: 276.3891296386719
y: 294.3782958984375
z: -0.14909549057483673
visibility: 0.9850556254386902
","x: 280.689208984375
y: 303.7651672363281
z: -0.18278968334197998
visibility: 0.995108962059021
","x: 278.3573303222656
y: 301.82122802734375
z: -0.1912035048007965
visibility: 0.9922559857368469
","x: 286.2760314941406
y: 328.8811950683594
z: -0.04569733887910843
visibility: 0.9989669919013977
","x: 260.34332275390625
y: 315.4708251953125
z: -0.09043484926223755
visibility: 0.9985154867172241
","x: 295.6470642089844
y: 361.61688232421875
z: -0.029627054929733276
visibility: 0.9724122881889343
","x: 241.20489501953125
y: 328.1564636230469
z: -0.08929471671581268
visibility: 0.7069627046585083
","x: 307.9840087890625
y: 367.9599609375
z: -0.09882684051990509
visibility: 0.9177870154380798
","x: 224.78750610351562
y: 340.4971923828125
z: -0.15765555202960968
visibility: 0.7356747984886169
","x: 313.5159912109375
y: 372.400146484375
z: -0.11186370998620987
visibility: 0.8809866905212402
","x: 218.57940673828125
y: 344.3581848144531
z: -0.17750847339630127
visibility: 0.7279123663902283
","x: 314.5490417480469
y: 371.2912292480469
z: -0.1390778124332428
visibility: 0.8799256682395935
","x: 218.31443786621094
y: 345.6357421875
z: -0.1992722898721695
visibility: 0.7298101186752319
","x: 312.4207763671875
y: 369.97576904296875
z: -0.11300703138113022
visibility: 0.8502311110496521
","x: 220.8055877685547
y: 345.3990478515625
z: -0.17000120878219604
visibility: 0.7238708138465881
","x: 286.293701171875
y: 397.7069091796875
z: 0.00029103481210768223
visibility: 0.9996348023414612
","x: 268.8749694824219
y: 397.3863220214844
z: -0.00041859206976369023
visibility: 0.9995163083076477
","x: 288.9761657714844
y: 448.99676513671875
z: -0.019597934558987617
visibility: 0.9592695236206055
","x: 249.7024688720703
y: 444.9357604980469
z: -0.01976238191127777
visibility: 0.9146390557289124
","x: 292.5505065917969
y: 494.45635986328125
z: 0.111192986369133
visibility: 0.9784637093544006
","x: 241.02224731445312
y: 485.59320068359375
z: 0.12247071415185928
visibility: 0.9430243372917175
","x: 294.5667419433594
y: 500.86846923828125
z: 0.12020136415958405
visibility: 0.9256042838096619
","x: 243.41848754882812
y: 491.8597412109375
z: 0.13248732686042786
visibility: 0.8952492475509644
","x: 295.1856384277344
y: 507.8109130859375
z: 0.04479419067502022
visibility: 0.9816730618476868
","x: 231.92242431640625
y: 502.6182861328125
z: 0.057425905019044876
visibility: 0.9504071474075317
",,,,,,,,,,,,,,,,,,,,,,,,,,,,,,,,,,,,,,,,,,
19,"x: 276.1009216308594
y: 298.4268493652344
z: -0.21607041358947754
visibility: 0.9977745413780212
","x: 278.947265625
y: 295.9908752441406
z: -0.20509207248687744
visibility: 0.9975612759590149
","x: 279.8424377441406
y: 296.5477294921875
z: -0.2051067352294922
visibility: 0.9974570274353027
","x: 280.7879333496094
y: 297.25872802734375
z: -0.20512385666370392
visibility: 0.997797966003418
","x: 276.44232177734375
y: 293.99212646484375
z: -0.20751480758190155
visibility: 0.9961348176002502
","x: 275.60394287109375
y: 293.1676940917969
z: -0.20754113793373108
visibility: 0.9947701096534729
","x: 274.7834167480469
y: 292.39520263671875
z: -0.207539364695549
visibility: 0.9953765273094177
","x: 280.9696960449219
y: 301.79254150390625
z: -0.1317652314901352
visibility: 0.9964556694030762
","x: 273.36083984375
y: 296.0281066894531
z: -0.14576494693756104
visibility: 0.9864243865013123
","x: 276.0429992675781
y: 305.2560729980469
z: -0.1886768341064453
visibility: 0.9955787062644958
","x: 273.46429443359375
y: 303.107421875
z: -0.19266805052757263
visibility: 0.9930088520050049
","x: 281.0935974121094
y: 334.0932922363281
z: -0.10506896674633026
visibility: 0.9990652203559875
","x: 253.112548828125
y: 316.6025390625
z: -0.08038550615310669
visibility: 0.9986470937728882
","x: 283.2332763671875
y: 365.7847595214844
z: -0.13711804151535034
visibility: 0.9728135466575623
","x: 234.4047088623047
y: 326.06524658203125
z: -0.07216735184192657
visibility: 0.7359746694564819
","x: 279.64447021484375
y: 384.6553955078125
z: -0.26018476486206055
visibility: 0.9240615963935852
","x: 215.69036865234375
y: 336.65948486328125
z: -0.1234252080321312
visibility: 0.7611799240112305
","x: 278.8466796875
y: 394.7824401855469
z: -0.2937787175178528
visibility: 0.889397382736206
","x: 209.7696533203125
y: 338.77703857421875
z: -0.14699964225292206
visibility: 0.7520659565925598
","x: 276.2213439941406
y: 391.1637878417969
z: -0.30958643555641174
visibility: 0.8885571360588074
","x: 209.53018188476562
y: 338.9919738769531
z: -0.18792755901813507
visibility: 0.7542481422424316
","x: 275.901611328125
y: 388.2207946777344
z: -0.27000653743743896
visibility: 0.8604490160942078
","x: 211.38514709472656
y: 339.06634521484375
z: -0.1382928043603897
visibility: 0.748814582824707
","x: 273.29058837890625
y: 400.28216552734375
z: -0.001134280115365982
visibility: 0.9996644258499146
","x: 257.69976806640625
y: 399.27288818359375
z: 0.001068302197381854
visibility: 0.9995512962341309
","x: 286.519287109375
y: 449.23486328125
z: -0.004596378654241562
visibility: 0.9632253646850586
","x: 246.08384704589844
y: 447.43463134765625
z: 0.013599095866084099
visibility: 0.9229403734207153
","x: 292.2258605957031
y: 494.51544189453125
z: 0.12251903116703033
visibility: 0.9804294109344482
","x: 233.8233642578125
y: 491.2377624511719
z: 0.1431128978729248
visibility: 0.9483820199966431
","x: 294.0539245605469
y: 500.6827087402344
z: 0.13178333640098572
visibility: 0.9265129566192627
","x: 234.05950927734375
y: 497.9663391113281
z: 0.15209314227104187
visibility: 0.8946039080619812
","x: 294.81146240234375
y: 508.5091857910156
z: 0.04963454604148865
visibility: 0.9831068515777588
","x: 227.5221405029297
y: 507.87725830078125
z: 0.07555337250232697
visibility: 0.9547088742256165
",,,,,,,,,,,,,,,,,,,,,,,,,,,,,,,,,,,,,,,,,,
20,"x: 271.3514099121094
y: 299.35833740234375
z: -0.20610876381397247
visibility: 0.9979930520057678
","x: 273.7396545410156
y: 296.21136474609375
z: -0.19578434526920319
visibility: 0.9977966547012329
","x: 274.8975524902344
y: 296.65643310546875
z: -0.1957942098379135
visibility: 0.9977028965950012
","x: 276.08990478515625
y: 297.19647216796875
z: -0.1958279013633728
visibility: 0.9980083107948303
","x: 270.7405700683594
y: 294.7665710449219
z: -0.1962306797504425
visibility: 0.996508777141571
","x: 269.8109436035156
y: 294.162353515625
z: -0.1962464451789856
visibility: 0.9952753782272339
","x: 268.9510498046875
y: 293.557373046875
z: -0.1962418556213379
visibility: 0.995818018913269
","x: 277.390380859375
y: 301.251220703125
z: -0.12340883165597916
visibility: 0.9967944622039795
","x: 267.6944274902344
y: 296.5816345214844
z: -0.1269993782043457
visibility: 0.9877549409866333
","x: 272.4141845703125
y: 306.0455017089844
z: -0.17839415371418
visibility: 0.9960077404975891
","x: 268.8177490234375
y: 304.5169372558594
z: -0.1794755756855011
visibility: 0.9936965107917786
","x: 278.6903991699219
y: 333.6422119140625
z: -0.09273110330104828
visibility: 0.9991372227668762
","x: 252.76651000976562
y: 317.21331787109375
z: -0.06566324084997177
visibility: 0.9987691640853882
","x: 280.0465393066406
y: 363.954345703125
z: -0.17648974061012268
visibility: 0.9711368083953857
","x: 232.3752899169922
y: 324.893310546875
z: -0.07298969477415085
visibility: 0.7617329955101013
","x: 283.1960144042969
y: 351.7789001464844
z: -0.33939987421035767
visibility: 0.928412139415741
","x: 217.33689880371094
y: 326.3150634765625
z: -0.138035848736763
visibility: 0.7839097380638123
","x: 282.251953125
y: 353.70611572265625
z: -0.3724653422832489
visibility: 0.8944740891456604
","x: 210.59637451171875
y: 326.5530700683594
z: -0.15439216792583466
visibility: 0.7731433510780334
","x: 282.13006591796875
y: 354.0147399902344
z: -0.3769347071647644
visibility: 0.8940674066543579
","x: 209.744384765625
y: 326.7591857910156
z: -0.17865705490112305
visibility: 0.7756206393241882
","x: 276.9855041503906
y: 352.0966796875
z: -0.3465636372566223
visibility: 0.8675185441970825
","x: 212.25860595703125
y: 327.2134094238281
z: -0.14998039603233337
visibility: 0.7707284688949585
","x: 267.34368896484375
y: 399.9250793457031
z: -0.00447978125885129
visibility: 0.9996804594993591
","x: 251.32215881347656
y: 397.397705078125
z: 0.004427995532751083
visibility: 0.999566376209259
","x: 279.4912109375
y: 447.221435546875
z: -0.059856683015823364
visibility: 0.9666585922241211
","x: 243.79800415039062
y: 446.1470031738281
z: 0.03638959676027298
visibility: 0.9301996231079102
","x: 290.4825744628906
y: 495.5537109375
z: -0.0019245302537456155
visibility: 0.9821510314941406
","x: 236.60714721679688
y: 492.849609375
z: 0.14706307649612427
visibility: 0.9531306028366089
","x: 290.2607727050781
y: 502.52294921875
z: -0.0006709335139021277
visibility: 0.9296299815177917
","x: 238.96067810058594
y: 499.6478576660156
z: 0.15363430976867676
visibility: 0.8999233245849609
","x: 294.3489990234375
y: 509.9347229003906
z: -0.08803008496761322
visibility: 0.9842871427536011
","x: 227.15277099609375
y: 508.44256591796875
z: 0.07896855473518372
visibility: 0.9583502411842346
",,,,,,,,,,,,,,,,,,,,,,,,,,,,,,,,,,,,,,,,,,
21,"x: 269.9587707519531
y: 299.1913146972656
z: -0.21948003768920898
visibility: 0.9981918931007385
","x: 272.10076904296875
y: 295.92919921875
z: -0.20829756557941437
visibility: 0.9980134963989258
","x: 273.2148132324219
y: 296.3046875
z: -0.20832446217536926
visibility: 0.9979293346405029
","x: 274.3738098144531
y: 296.7831726074219
z: -0.20834538340568542
visibility: 0.9982045292854309
","x: 268.9873962402344
y: 294.7078857421875
z: -0.20625987648963928
visibility: 0.996850848197937
","x: 267.995361328125
y: 294.1507873535156
z: -0.20629389584064484
visibility: 0.9957378506660461
","x: 267.0749206542969
y: 293.58599853515625
z: -0.20628507435321808
visibility: 0.9962259531021118
","x: 276.1046447753906
y: 300.7223815917969
z: -0.13734681904315948
visibility: 0.9971113204956055
","x: 265.5844421386719
y: 296.5885314941406
z: -0.12849019467830658
visibility: 0.9889596700668335
","x: 271.66558837890625
y: 305.5013122558594
z: -0.19306468963623047
visibility: 0.9964037537574768
","x: 267.54046630859375
y: 304.3035888671875
z: -0.19053710997104645
visibility: 0.9943216443061829
","x: 279.37847900390625
y: 335.2807922363281
z: -0.11486157029867172
visibility: 0.9992170929908752
","x: 252.9892120361328
y: 317.4933776855469
z: -0.06525292992591858
visibility: 0.9988774061203003
","x: 280.8147277832031
y: 366.15057373046875
z: -0.18099142611026764
visibility: 0.9715669751167297
","x: 231.35379028320312
y: 322.15325927734375
z: -0.07241200655698776
visibility: 0.7849550247192383
","x: 282.0523681640625
y: 385.6657409667969
z: -0.3089243173599243
visibility: 0.931126058101654
","x: 213.94761657714844
y: 321.2887268066406
z: -0.155264213681221
visibility: 0.8039031624794006
","x: 284.4792785644531
y: 391.30322265625
z: -0.33811065554618835
visibility: 0.8966957926750183
","x: 208.92758178710938
y: 318.8123474121094
z: -0.17713645100593567
visibility: 0.7910686135292053
","x: 284.1635437011719
y: 390.23150634765625
z: -0.353487104177475
visibility: 0.8970056772232056
","x: 208.55227661132812
y: 318.89263916015625
z: -0.19673587381839752
visibility: 0.794095516204834
","x: 281.54278564453125
y: 388.195556640625
z: -0.3191281855106354
visibility: 0.8720455765724182
","x: 210.22244262695312
y: 320.4492492675781
z: -0.16790397465229034
visibility: 0.7901152968406677
","x: 265.5216369628906
y: 400.22137451171875
z: -0.0057684797793626785
visibility: 0.9996858835220337
","x: 249.09490966796875
y: 397.3492431640625
z: 0.005679595284163952
visibility: 0.9995942115783691
","x: 277.31756591796875
y: 447.76531982421875
z: -0.05410534888505936
visibility: 0.9697579741477966
","x: 240.7084503173828
y: 446.11578369140625
z: -0.02591117098927498
visibility: 0.9370079040527344
","x: 290.2647705078125
y: 495.14605712890625
z: 0.06934628635644913
visibility: 0.9836997985839844
","x: 234.175048828125
y: 494.7813720703125
z: 0.10269246250391006
visibility: 0.9576290845870972
","x: 290.47662353515625
y: 501.2794189453125
z: 0.07634586095809937
visibility: 0.9291307926177979
","x: 236.64015197753906
y: 501.5908508300781
z: 0.11085256189107895
visibility: 0.9062855839729309
","x: 293.5914001464844
y: 509.9109191894531
z: -0.01570073701441288
visibility: 0.9852940440177917
","x: 226.69061279296875
