uscmakers/ReverseChoreography/data/7_woman_doja_cat.csv
,NOSE,LEFT_EYE_INNER,LEFT_EYE,LEFT_EYE_OUTER,RIGHT_EYE_INNER,RIGHT_EYE,RIGHT_EYE_OUTER,LEFT_EAR,RIGHT_EAR,MOUTH_LEFT,MOUTH_RIGHT,LEFT_SHOULDER,RIGHT_SHOULDER,LEFT_ELBOW,RIGHT_ELBOW,LEFT_WRIST,RIGHT_WRIST,LEFT_PINKY,RIGHT_PINKY,LEFT_INDEX,RIGHT_INDEX,LEFT_THUMB,RIGHT_THUMB,LEFT_HIP,RIGHT_HIP,LEFT_KNEE,RIGHT_KNEE,LEFT_ANKLE,RIGHT_ANKLE,LEFT_HEEL,RIGHT_HEEL,LEFT_FOOT_INDEX,RIGHT_FOOT_INDEX,WRIST2,THUMB_CPC2,THUMB_MCP2,THUMB_IP2,THUMB_TIP2,INDEX_FINGER_MCP2,INDEX_FINGER_PIP2,INDEX_FINGER_DIP2,INDEX_FINGER_TIP2,MIDDLE_FINGER_MCP2,MIDDLE_FINGER_PIP2,MIDDLE_FINGER_DIP2,MIDDLE_FINGER_TIP2,RING_FINGER_PIP2,RING_FINGER_DIP2,RING_FINGER_TIP2,RING_FINGER_MCP2,PINKY_MCP2,PINKY_PIP2,PINKY_DIP2,PINKY_TIP2,WRIST,THUMB_CPC,THUMB_MCP,THUMB_IP,THUMB_TIP,INDEX_FINGER_MCP,INDEX_FINGER_PIP,INDEX_FINGER_DIP,INDEX_FINGER_TIP,MIDDLE_FINGER_MCP,MIDDLE_FINGER_PIP,MIDDLE_FINGER_DIP,MIDDLE_FINGER_TIP,RING_FINGER_PIP,RING_FINGER_DIP,RING_FINGER_TIP,RING_FINGER_MCP,PINKY_MCP,PINKY_PIP,PINKY_DIP,PINKY_TIP
0,"x: 266.1042175292969
y: 288.64166259765625
z: -0.22201725840568542
visibility: 0.99996018409729
","x: 268.48760986328125
y: 282.5561828613281
z: -0.2186608761548996
visibility: 0.9999463558197021
","x: 269.7388916015625
y: 282.48114013671875
z: -0.21873891353607178
visibility: 0.9999591112136841
","x: 271.06298828125
y: 282.5352783203125
z: -0.218843013048172
visibility: 0.9999707937240601
","x: 265.8833923339844
y: 283.29541015625
z: -0.2039589136838913
visibility: 0.9998511075973511
","x: 265.228271484375
y: 283.65985107421875
z: -0.2039124071598053
visibility: 0.9997679591178894
","x: 264.593505859375
y: 284.00738525390625
z: -0.2038847953081131
visibility: 0.9996339082717896
","x: 274.973388671875
y: 286.643310546875
z: -0.173025444149971
visibility: 0.9999768733978271
","x: 266.74072265625
y: 287.3013000488281
z: -0.10511765629053116
visibility: 0.9988631010055542
","x: 269.1244812011719
y: 295.0797119140625
z: -0.20394858717918396
visibility: 0.9999872446060181
","x: 265.4794921875
y: 295.36236572265625
z: -0.18447081744670868
visibility: 0.999893069267273
","x: 286.1822509765625
y: 327.05499267578125
z: -0.15207314491271973
visibility: 0.9999979734420776
","x: 259.93548583984375
y: 321.97052001953125
z: -0.016189690679311752
visibility: 0.9986679553985596
","x: 298.1319274902344
y: 369.54058837890625
z: -0.15730994939804077
visibility: 0.9962473511695862
","x: 258.0487365722656
y: 365.86431884765625
z: 0.03050686977803707
visibility: 0.1334781050682068
","x: 309.61688232421875
y: 404.7301940917969
z: -0.20085617899894714
visibility: 0.9726644158363342
","x: 255.9519805908203
y: 400.08984375
z: -0.035384323447942734
visibility: 0.1259181648492813
","x: 314.85430908203125
y: 414.77728271484375
z: -0.22269248962402344
visibility: 0.9442288279533386
","x: 255.80458068847656
y: 410.6087951660156
z: -0.044573068618774414
visibility: 0.1414906233549118
","x: 314.00775146484375
y: 416.4322509765625
z: -0.2399168312549591
visibility: 0.951564371585846
","x: 256.065673828125
y: 410.293701171875
z: -0.0680839791893959
visibility: 0.14719600975513458
","x: 311.6441955566406
y: 414.0542297363281
z: -0.20718149840831757
visibility: 0.9304236173629761
","x: 257.1483459472656
y: 406.9201354980469
z: -0.04677250236272812
visibility: 0.12751710414886475
","x: 274.0256652832031
y: 399.1941833496094
z: -0.04443668946623802
visibility: 0.9999921321868896
","x: 258.37091064453125
y: 400.0480651855469
z: 0.04451913386583328
visibility: 0.9997543692588806
","x: 266.3935546875
y: 449.948486328125
z: -0.24544492363929749
visibility: 0.989174485206604
","x: 250.65579223632812
y: 452.8365783691406
z: 0.0871967077255249
visibility: 0.8976825475692749
","x: 274.1213073730469
y: 507.09478759765625
z: -0.15854816138744354
visibility: 0.9950574636459351
","x: 263.3961486816406
y: 496.1184997558594
z: 0.2994234263896942
visibility: 0.8696317672729492
","x: 276.820068359375
y: 513.5521240234375
z: -0.1538526862859726
visibility: 0.942507266998291
","x: 266.620361328125
y: 501.48577880859375
z: 0.3165956437587738
visibility: 0.7761189341545105
","x: 267.8758239746094
y: 527.15966796875
z: -0.26245027780532837
visibility: 0.9924286007881165
","x: 260.4761047363281
y: 516.8514404296875
z: 0.2552894055843353
visibility: 0.8985896110534668
",,,,,,,,,,,,,,,,,,,,,,,,,,,,,,,,,,,,,,,,,,
1,"x: 269.6720886230469
y: 284.997802734375
z: -0.22663268446922302
visibility: 0.9999626874923706
","x: 271.8326416015625
y: 279.7760925292969
z: -0.21816273033618927
visibility: 0.9999470114707947
","x: 273.19952392578125
y: 279.84149169921875
z: -0.21820895373821259
visibility: 0.9999582171440125
","x: 274.6103820800781
y: 279.94464111328125
z: -0.21825619041919708
visibility: 0.9999678730964661
","x: 268.70550537109375
y: 279.8993225097656
z: -0.2119779884815216
visibility: 0.9998615980148315
","x: 267.8284606933594
y: 280.03436279296875
z: -0.21200361847877502
visibility: 0.9997863173484802
","x: 266.9625244140625
y: 280.2242431640625
z: -0.21202144026756287
visibility: 0.9996642470359802
","x: 277.56695556640625
y: 283.6507568359375
z: -0.14037644863128662
visibility: 0.9999679923057556
","x: 267.48052978515625
y: 283.8878173828125
z: -0.12137911468744278
visibility: 0.9989652633666992
","x: 272.6506042480469
y: 291.8047790527344
z: -0.20108051598072052
visibility: 0.9999876022338867
","x: 268.3719787597656
y: 291.632568359375
z: -0.19268427789211273
visibility: 0.9999024271965027
","x: 288.5782775878906
y: 323.73040771484375
z: -0.08480999618768692
visibility: 0.9999969005584717
","x: 258.5843200683594
y: 318.4198303222656
z: -0.07740794122219086
visibility: 0.9987974166870117
","x: 298.041748046875
y: 360.5272216796875
z: -0.09583084285259247
visibility: 0.9950907230377197
","x: 250.03048706054688
y: 350.1483459472656
z: -0.10902102291584015
visibility: 0.21805508434772491
","x: 292.9685363769531
y: 389.4737548828125
z: -0.20573003590106964
visibility: 0.9683849215507507
","x: 255.7523956298828
y: 377.19561767578125
z: -0.23443178832530975
visibility: 0.20692169666290283
","x: 288.8180236816406
y: 400.6282043457031
z: -0.23839494585990906
visibility: 0.9366224408149719
","x: 256.27978515625
y: 386.9048767089844
z: -0.2687836289405823
visibility: 0.215688094496727
","x: 286.96466064453125
y: 395.1803894042969
z: -0.25421684980392456
visibility: 0.9440386295318604
","x: 258.6751708984375
y: 382.3678894042969
z: -0.28151658177375793
visibility: 0.2207169085741043
","x: 287.2469787597656
y: 390.7122497558594
z: -0.21389612555503845
visibility: 0.9202911853790283
","x: 258.7349548339844
y: 378.1939392089844
z: -0.24220366775989532
visibility: 0.19912301003932953
","x: 279.1821594238281
y: 400.1881103515625
z: -0.007711624260991812
visibility: 0.9999898672103882
","x: 261.19403076171875
y: 400.12030029296875
z: 0.007735808379948139
visibility: 0.9997702836990356
","x: 283.11676025390625
y: 456.80303955078125
z: -0.051898736506700516
visibility: 0.9899913668632507
","x: 262.6945495605469
y: 456.83648681640625
z: 0.11351010948419571
visibility: 0.9065839052200317
","x: 284.3510437011719
y: 513.0545654296875
z: 0.03928745537996292
visibility: 0.9952590465545654
","x: 263.3616943359375
y: 499.614013671875
z: 0.3334280848503113
visibility: 0.8809086680412292
","x: 281.85272216796875
y: 522.2198486328125
z: 0.04250265657901764
visibility: 0.9421080946922302
","x: 265.5970458984375
y: 505.5749206542969
z: 0.35092097520828247
visibility: 0.7852575778961182
","x: 284.94964599609375
y: 527.253173828125
z: -0.07316575944423676
visibility: 0.9926773309707642
","x: 259.96221923828125
y: 517.8504638671875
z: 0.268526554107666
visibility: 0.90697181224823
",,,,,,,,,,,,,,,,,,,,,,,,,,,,,,,,,,,,,,,,,,
2,"x: 271.7886657714844
y: 284.610107421875
z: -0.2332771122455597
visibility: 0.9999553561210632
","x: 274.15814208984375
y: 279.57281494140625
z: -0.2206597775220871
visibility: 0.9999052882194519
","x: 275.4739685058594
y: 279.7283935546875
z: -0.22066418826580048
visibility: 0.9999134540557861
","x: 276.83062744140625
y: 279.9241027832031
z: -0.22066323459148407
visibility: 0.9999192953109741
","x: 270.896240234375
y: 279.40411376953125
z: -0.2228085994720459
visibility: 0.9998375773429871
","x: 269.93194580078125
y: 279.4619445800781
z: -0.2228420227766037
visibility: 0.9997693300247192
","x: 269.0723876953125
y: 279.5857849121094
z: -0.22288616001605988
visibility: 0.9996536374092102
","x: 279.3761901855469
y: 283.8622741699219
z: -0.1388966143131256
visibility: 0.9998034238815308
","x: 268.75579833984375
y: 283.5175476074219
z: -0.1449495404958725
visibility: 0.9989832043647766
","x: 274.3310852050781
y: 291.5943603515625
z: -0.20115439593791962
visibility: 0.9999796748161316
","x: 270.03692626953125
y: 291.12384033203125
z: -0.20362989604473114
visibility: 0.999901533126831
","x: 289.3503723144531
y: 323.39190673828125
z: -0.06634161621332169
visibility: 0.9999914765357971
","x: 258.2998962402344
y: 318.24822998046875
z: -0.0979304164648056
visibility: 0.9989076256752014
","x: 298.0421447753906
y: 358.9479064941406
z: -0.017609210684895515
visibility: 0.9914615750312805
","x: 248.82327270507812
y: 348.8578796386719
z: -0.07557719200849533
visibility: 0.29396504163742065
","x: 295.3256530761719
y: 391.8846130371094
z: -0.08933182060718536
visibility: 0.9508541822433472
","x: 254.7373046875
y: 377.1545104980469
z: -0.14083634316921234
visibility: 0.27464014291763306
","x: 294.0626525878906
y: 400.94384765625
z: -0.10766444355249405
visibility: 0.9088362455368042
","x: 255.9403076171875
y: 388.3853759765625
z: -0.1636328101158142
visibility: 0.2720877230167389
","x: 291.927734375
y: 398.704833984375
z: -0.12973669171333313
visibility: 0.9177975058555603
","x: 258.3409729003906
y: 385.87908935546875
z: -0.18074561655521393
visibility: 0.27671903371810913
","x: 291.8421325683594
y: 394.9896240234375
z: -0.09932581335306168
visibility: 0.8914864659309387
","x: 258.6324157714844
y: 381.4287109375
z: -0.14869914948940277
visibility: 0.2516694664955139
","x: 282.0948486328125
y: 401.48565673828125
z: 0.008646285161376
visibility: 0.9999831914901733
","x: 263.6742248535156
y: 400.736328125
z: -0.008691420778632164
visibility: 0.9997698664665222
","x: 285.94549560546875
y: 459.8519287109375
z: -0.040944475680589676
visibility: 0.9903042316436768
","x: 267.4267883300781
y: 459.3114929199219
z: 0.06427428126335144
visibility: 0.9135434031486511
","x: 285.3604736328125
y: 514.5107421875
z: 0.07507389783859253
visibility: 0.9949662089347839
","x: 265.72955322265625
y: 502.5965576171875
z: 0.3293309807777405
visibility: 0.8873978853225708
","x: 282.0764465332031
y: 522.54248046875
z: 0.081380195915699
visibility: 0.9353575706481934
","x: 266.44207763671875
y: 507.5146179199219
z: 0.338951051235199
visibility: 0.7734809517860413
","x: 286.59173583984375
y: 530.364013671875
z: -0.03134719654917717
visibility: 0.9922425746917725
","x: 264.9447021484375
y: 521.8316040039062
z: 0.24770638346672058
visibility: 0.9117716550827026
",,,,,,,,,,,,,,,,,,,,,,,,,,,,,,,,,,,,,,,,,,
3,"x: 272.10821533203125
y: 283.646484375
z: -0.23114769160747528
visibility: 0.9999510049819946
","x: 274.53753662109375
y: 278.7670593261719
z: -0.21857690811157227
visibility: 0.9998814463615417
","x: 275.878173828125
y: 278.98443603515625
z: -0.21856620907783508
visibility: 0.9998844861984253
","x: 277.2299499511719
y: 279.2553405761719
z: -0.21854642033576965
visibility: 0.9998854994773865
","x: 271.1192932128906
y: 278.4350280761719
z: -0.21925492584705353
visibility: 0.9998303651809692
","x: 270.0948791503906
y: 278.46075439453125
z: -0.21927209198474884
visibility: 0.9997678995132446
","x: 269.16070556640625
y: 278.56884765625
z: -0.21930289268493652
visibility: 0.9996626973152161
","x: 279.58203125
y: 283.4316711425781
z: -0.1367405503988266
visibility: 0.9997212290763855
","x: 268.85888671875
y: 282.3208312988281
z: -0.14348255097866058
visibility: 0.9990507960319519
","x: 274.72735595703125
y: 291.04296875
z: -0.1987040489912033
visibility: 0.9999719262123108
","x: 270.22869873046875
y: 290.2509460449219
z: -0.20051415264606476
visibility: 0.9999037384986877
","x: 289.1395263671875
y: 321.871826171875
z: -0.06867773830890656
visibility: 0.9999806880950928
","x: 257.6869201660156
y: 316.12286376953125
z: -0.08769044280052185
visibility: 0.9990100264549255
","x: 297.94122314453125
y: 354.2284851074219
z: -0.020194124430418015
visibility: 0.9877306222915649
","x: 244.8081817626953
y: 340.65289306640625
z: -0.04962718486785889
visibility: 0.3619672656059265
","x: 298.71075439453125
y: 385.6796875
z: -0.08556226640939713
visibility: 0.9312059879302979
","x: 250.7023468017578
y: 368.7655944824219
z: -0.11965789645910263
visibility: 0.33554860949516296
","x: 298.9624938964844
y: 392.8475341796875
z: -0.10221359878778458
visibility: 0.8796735405921936
","x: 252.0481719970703
y: 381.4546203613281
z: -0.13521809875965118
visibility: 0.32200518250465393
","x: 297.3133544921875
y: 391.64227294921875
z: -0.12423070520162582
visibility: 0.8898859024047852
","x: 255.37928771972656
y: 383.5877685546875
z: -0.16885632276535034
visibility: 0.3263481557369232
","x: 296.5600891113281
y: 388.2658386230469
z: -0.09559013694524765
visibility: 0.862488865852356
","x: 254.82611083984375
y: 374.33404541015625
z: -0.13436856865882874
visibility: 0.300385445356369
","x: 281.29486083984375
y: 399.75518798828125
z: 0.003031796542927623
visibility: 0.9999340772628784
","x: 263.05120849609375
y: 398.90948486328125
z: -0.00304877245798707
visibility: 0.9997270107269287
","x: 283.9128112792969
y: 458.6296081542969
z: -0.01896374486386776
visibility: 0.9901095032691956
","x: 266.6170959472656
y: 459.0426940917969
z: 0.04202032461762428
visibility: 0.9196383953094482
","x: 286.1556091308594
y: 514.6655883789062
z: 0.08194594085216522
visibility: 0.994418740272522
","x: 266.3736572265625
y: 505.7497863769531
z: 0.21202000975608826
visibility: 0.8962367177009583
","x: 282.890380859375
y: 523.2598266601562
z: 0.0857936292886734
visibility: 0.9262765645980835
","x: 266.90911865234375
y: 513.6025390625
z: 0.22282370924949646
visibility: 0.7798093557357788
","x: 286.1395568847656
y: 528.5289916992188
z: -0.02077339217066765
visibility: 0.9910889863967896
","x: 265.1826477050781
y: 521.5014038085938
z: 0.1290145367383957
visibility: 0.9180352687835693
",,,,,,,,,,,,,,,,,,,,,,,,,,,,,,,,,,,,,,,,,,
4,"x: 273.2264709472656
y: 283.35211181640625
z: -0.16036821901798248
visibility: 0.9999552965164185
","x: 275.45648193359375
y: 278.69732666015625
z: -0.14509545266628265
visibility: 0.9998918771743774
","x: 276.7257080078125
y: 278.9979248046875
z: -0.14513464272022247
visibility: 0.9998944401741028
","x: 277.9126892089844
y: 279.34014892578125
z: -0.14515897631645203
visibility: 0.9998950958251953
","x: 272.0229187011719
y: 278.21966552734375
z: -0.145719975233078
visibility: 0.9998455047607422
","x: 270.8790283203125
y: 278.21588134765625
z: -0.1456998884677887
visibility: 0.9997888207435608
","x: 269.79833984375
y: 278.3235778808594
z: -0.1456979364156723
visibility: 0.999693751335144
","x: 280.0260925292969
y: 283.5552673339844
z: -0.06124420091509819
visibility: 0.9997465014457703
","x: 268.85186767578125
y: 282.3223571777344
z: -0.06467767804861069
visibility: 0.9991418123245239
","x: 275.5519104003906
y: 290.8713073730469
z: -0.12945279479026794
visibility: 0.999974250793457
","x: 270.9546813964844
y: 289.9954833984375
z: -0.1305464804172516
visibility: 0.9999127984046936
","x: 288.9142761230469
y: 321.33880615234375
z: -0.017015350982546806
visibility: 0.9999815225601196
","x: 256.9109802246094
y: 316.27093505859375
z: -0.02433600276708603
visibility: 0.9991050362586975
","x: 294.2442626953125
y: 355.2549743652344
z: -0.029154736548662186
visibility: 0.9847481846809387
","x: 245.77085876464844
y: 344.71600341796875
z: -0.054641418159008026
visibility: 0.4241977334022522
","x: 297.9559020996094
y: 379.5121765136719
z: -0.09714671224355698
visibility: 0.9321067333221436
","x: 250.78085327148438
y: 370.7767028808594
z: -0.1789858490228653
visibility: 0.39756688475608826
","x: 299.9264831542969
y: 387.8776550292969
z: -0.174034982919693
visibility: 0.8831219673156738
","x: 251.9529571533203
y: 380.5966796875
z: -0.20768889784812927
visibility: 0.38186371326446533
","x: 299.2037353515625
y: 386.0152587890625
z: -0.19485904276371002
visibility: 0.8932967185974121
","x: 254.63807678222656
y: 376.7735290527344
z: -0.22127726674079895
visibility: 0.3861018717288971
","x: 297.875732421875
y: 382.3451232910156
z: -0.1367005705833435
visibility: 0.8662193417549133
","x: 254.51454162597656
y: 372.6029968261719
z: -0.18697986006736755
visibility: 0.3605995178222656
","x: 280.6227722167969
y: 398.13336181640625
z: -0.0013489157427102327
visibility: 0.9999355673789978
","x: 262.7364196777344
y: 398.8301086425781
z: 0.0014199292054399848
visibility: 0.9997369647026062
","x: 282.63629150390625
y: 457.8255920410156
z: -0.09014268219470978
visibility: 0.990532636642456
","x: 267.88592529296875
y: 459.63580322265625
z: 0.01179902721196413
visibility: 0.9248773455619812
","x: 284.19384765625
y: 511.4372253417969
z: 0.07663067430257797
visibility: 0.9937864542007446
","x: 268.9558410644531
y: 508.1970520019531
z: 0.16464610397815704
visibility: 0.9010888338088989
","x: 282.419921875
y: 519.8796997070312
z: 0.0792263001203537
visibility: 0.9232008457183838
","x: 269.2796936035156
y: 515.7679443359375
z: 0.17478881776332855
visibility: 0.7781162261962891
","x: 283.9767150878906
y: 524.3250732421875
z: -0.061336152255535126
visibility: 0.9900764226913452
","x: 266.0999755859375
y: 521.4768676757812
z: 0.08298680186271667
visibility: 0.9191861748695374
",,,,,,,,,,,,,,,,,,,,,,,,,,,,,,,,,,,,,,,,,,
5,"x: 273.6579284667969
y: 283.25555419921875
z: -0.23141558468341827
visibility: 0.9999568462371826
","x: 276.0810852050781
y: 278.63232421875
z: -0.21724145114421844
visibility: 0.9998917579650879
","x: 277.3676452636719
y: 278.9513854980469
z: -0.21724875271320343
visibility: 0.999893307685852
","x: 278.54901123046875
y: 279.3122253417969
z: -0.2172590047121048
visibility: 0.9998939633369446
","x: 272.359130859375
y: 278.0530700683594
z: -0.22214820981025696
visibility: 0.9998504519462585
","x: 271.1679382324219
y: 277.9889221191406
z: -0.22217388451099396
visibility: 0.9997992515563965
","x: 270.0498046875
y: 278.0148010253906
z: -0.22220781445503235
visibility: 0.9997140765190125
","x: 280.36212158203125
y: 283.5177001953125
z: -0.12121232599020004
visibility: 0.9997493028640747
","x: 268.81011962890625
y: 281.60662841796875
z: -0.15170399844646454
visibility: 0.9992072582244873
","x: 275.8412780761719
y: 290.5478515625
z: -0.19804108142852783
visibility: 0.9999737739562988
","x: 271.205078125
y: 289.76220703125
z: -0.20489159226417542
visibility: 0.9999185800552368
","x: 288.769287109375
y: 321.1907653808594
z: -0.061282116919755936
visibility: 0.9999780654907227
","x: 256.5587158203125
y: 316.4473571777344
z: -0.09412869065999985
visibility: 0.9991876482963562
","x: 292.3053283691406
y: 356.4059143066406
z: -0.04351506754755974
visibility: 0.982805609703064
","x: 247.66928100585938
y: 351.57220458984375
z: -0.06570864468812943
visibility: 0.4780706763267517
","x: 291.7525634765625
y: 382.8111572265625
z: -0.10469377040863037
visibility: 0.9254999756813049
","x: 251.2136688232422
y: 383.6376647949219
z: -0.13389258086681366
visibility: 0.4478038549423218
","x: 291.040283203125
y: 395.3255920410156
z: -0.12783929705619812
visibility: 0.8735706806182861
","x: 252.27133178710938
y: 396.2113952636719
z: -0.15654072165489197
visibility: 0.42712733149528503
","x: 289.92364501953125
y: 391.1648864746094
z: -0.14965397119522095
visibility: 0.8836753368377686
","x: 254.55430603027344
y: 393.8244934082031
z: -0.17623239755630493
visibility: 0.4315585792064667
","x: 289.3145446777344
y: 384.1215515136719
z: -0.11622051894664764
visibility: 0.8567593693733215
","x: 254.5681610107422
y: 389.4339294433594
z: -0.14323927462100983
visibility: 0.4061748683452606
","x: 280.08001708984375
y: 398.368408203125
z: -0.0032114286441355944
visibility: 0.9999176263809204
","x: 262.454833984375
y: 398.5496826171875
z: 0.0031662583351135254
visibility: 0.9997355341911316
","x: 281.4559326171875
y: 458.31103515625
z: 0.030411044135689735
visibility: 0.9907335638999939
","x: 266.996337890625
y: 459.1101379394531
z: 0.04065106809139252
visibility: 0.9311609864234924
","x: 283.22308349609375
y: 505.5440673828125
z: 0.21221601963043213
visibility: 0.9933620095252991
","x: 268.8634338378906
y: 506.600341796875
z: 0.21663884818553925
visibility: 0.9098360538482666
","x: 282.255859375
y: 509.7591552734375
z: 0.2254018485546112
visibility: 0.9165290594100952
","x: 269.78369140625
y: 513.341064453125
z: 0.22981414198875427
visibility: 0.7890799045562744
","x: 281.68695068359375
y: 523.6754760742188
z: 0.1380266547203064
visibility: 0.9896533489227295
","x: 266.2608337402344
y: 522.9358520507812
z: 0.14509953558444977
visibility: 0.9259266257286072
",,,,,,,,,,,,,,,,,,,,,,,,,,,,,,,,,,,,,,,,,,
6,"x: 274.46343994140625
y: 283.23675537109375
z: -0.21702583134174347
visibility: 0.9999528527259827
","x: 276.77484130859375
y: 278.3330078125
z: -0.20289631187915802
visibility: 0.9998686909675598
","x: 278.01068115234375
y: 278.5741882324219
z: -0.20291809737682343
visibility: 0.9998671412467957
","x: 279.1722717285156
y: 278.88250732421875
z: -0.2029186487197876
visibility: 0.9998660683631897
","x: 272.92852783203125
y: 277.9743347167969
z: -0.2123464047908783
visibility: 0.9998282194137573
","x: 271.64227294921875
y: 277.9517822265625
z: -0.21241803467273712
visibility: 0.9997818470001221
","x: 270.436767578125
y: 277.98876953125
z: -0.2125471532344818
visibility: 0.9997024536132812
","x: 280.925537109375
y: 283.02020263671875
z: -0.11743217706680298
visibility: 0.9996682405471802
","x: 268.9501647949219
y: 281.380615234375
z: -0.1347004920244217
visibility: 0.9992160201072693
","x: 276.6486511230469
y: 290.2469482421875
z: -0.18317998945713043
visibility: 0.9999687671661377
","x: 272.0492858886719
y: 289.7850341796875
z: -0.19525209069252014
visibility: 0.9999182820320129
","x: 289.64776611328125
y: 320.00445556640625
z: -0.05352699011564255
visibility: 0.9999761581420898
","x: 257.55413818359375
y: 316.4981689453125
z: -0.0873347818851471
visibility: 0.9992637038230896
","x: 292.66363525390625
y: 357.9140625
z: -0.014413987286388874
visibility: 0.9798011779785156
","x: 252.418212890625
y: 357.19970703125
z: -0.06091468781232834
visibility: 0.5269965529441833
","x: 294.0279235839844
y: 392.3970031738281
z: -0.09396898001432419
visibility: 0.9243185520172119
","x: 250.5697021484375
y: 397.4293518066406
z: -0.12320604175329208
visibility: 0.4953649938106537
","x: 295.14703369140625
y: 405.1977233886719
z: -0.11552584171295166
visibility: 0.8715031743049622
","x: 250.3512420654297
y: 409.13330078125
z: -0.1455804407596588
visibility: 0.4718373715877533
","x: 294.19256591796875
y: 404.2325439453125
z: -0.13961362838745117
visibility: 0.8820070028305054
","x: 251.67611694335938
y: 409.9685974121094
z: -0.16972112655639648
visibility: 0.47659537196159363
","x: 293.0915832519531
y: 400.15093994140625
z: -0.10571666061878204
visibility: 0.856253445148468
","x: 252.07769775390625
y: 405.86956787109375
z: -0.13406871259212494
visibility: 0.4521881937980652
","x: 281.66705322265625
y: 399.2777099609375
z: 0.012990777380764484
visibility: 0.999910295009613
","x: 264.31463623046875
y: 398.59326171875
z: -0.013067109510302544
visibility: 0.9997398257255554
","x: 281.5987854003906
y: 461.5302734375
z: 0.023107241839170456
visibility: 0.9892169833183289
","x: 267.0643615722656
y: 459.9691467285156
z: 0.010652956552803516
visibility: 0.9358280897140503
","x: 279.4691467285156
y: 505.7958679199219
z: 0.2035471647977829
visibility: 0.9909826517105103
","x: 268.1847839355469
y: 505.7449035644531
z: 0.20139415562152863
visibility: 0.9152511954307556
","x: 276.731689453125
y: 511.363037109375
z: 0.21726782619953156
visibility: 0.9108323454856873
","x: 268.67962646484375
y: 512.1124877929688
z: 0.21608607470989227
visibility: 0.7832891345024109
","x: 280.55169677734375
y: 524.0323486328125
z: 0.1343589574098587
visibility: 0.9876358509063721
","x: 266.5931396484375
y: 522.982666015625
z: 0.13184837996959686
visibility: 0.9296706914901733
",,,,,,,,,,,,,,,,,,,,,,,,,,,,,,,,,,,,,,,,,,
7,"x: 274.5477294921875
y: 283.40643310546875
z: -0.21728584170341492
visibility: 0.9999315142631531
","x: 276.746337890625
y: 278.3975524902344
z: -0.203105166554451
visibility: 0.9997720122337341
","x: 277.93011474609375
y: 278.5876159667969
z: -0.20313863456249237
visibility: 0.9997752904891968
","x: 279.06268310546875
y: 278.9766845703125
z: -0.2031494677066803
visibility: 0.9997786283493042
","x: 273.1726989746094
y: 278.10955810546875
z: -0.2095537632703781
visibility: 0.999724268913269
","x: 271.9652099609375
y: 278.0908508300781
z: -0.20958968997001648
visibility: 0.9996817708015442
","x: 270.8121337890625
y: 278.1188659667969
z: -0.20966437458992004
visibility: 0.9995887875556946
","x: 280.9415588378906
y: 283.33819580078125
z: -0.11929471790790558
visibility: 0.9994813799858093
","x: 269.42724609375
y: 281.5662841796875
z: -0.13383252918720245
visibility: 0.9989264011383057
","x: 276.75274658203125
y: 290.3114929199219
z: -0.1846931278705597
visibility: 0.9999428987503052
","x: 272.3059387207031
y: 289.94342041015625
z: -0.19254961609840393
visibility: 0.9998828172683716
","x: 289.8085632324219
y: 318.2493896484375
z: -0.06535109132528305
visibility: 0.9999659061431885
","x: 258.987060546875
y: 318.79083251953125
z: -0.08549227565526962
visibility: 0.9992495179176331
","x: 296.97442626953125
y: 357.2872619628906
z: -0.03584858030080795
visibility: 0.9797543883323669
","x: 257.796142578125
y: 363.2452697753906
z: -0.06470711529254913
visibility: 0.5532931089401245
","x: 295.62200927734375
y: 396.6939697265625
z: -0.10439439117908478
visibility: 0.9233860373497009
","x: 257.19659423828125
y: 399.49365234375
z: -0.13089659810066223
visibility: 0.4995581805706024
","x: 296.86590576171875
y: 408.3031921386719
z: -0.12465804815292358
visibility: 0.8671708703041077
","x: 257.025146484375
y: 410.5357360839844
z: -0.15371975302696228
visibility: 0.47223907709121704
","x: 296.4056396484375
y: 409.01739501953125
z: -0.1465529203414917
visibility: 0.8782812356948853
","x: 258.9261779785156
y: 411.86773681640625
z: -0.17866365611553192
visibility: 0.4786071479320526
","x: 295.1006164550781
y: 405.9014587402344
z: -0.11447417736053467
visibility: 0.8529887199401855
","x: 259.1960754394531
y: 407.592529296875
z: -0.14235104620456696
visibility: 0.4537945091724396
","x: 283.3952941894531
y: 399.86224365234375
z: 0.005633453372865915
visibility: 0.9998008012771606
","x: 265.8630676269531
y: 398.6312561035156
z: -0.005625855643302202
visibility: 0.9995951652526855
","x: 283.00616455078125
y: 460.28570556640625
z: -0.018281787633895874
visibility: 0.9873855113983154
","x: 267.0538330078125
y: 459.1586608886719
z: -0.04079399257898331
visibility: 0.9386853575706482
","x: 279.975341796875
y: 506.3634033203125
z: 0.12450214475393295
visibility: 0.9884105324745178
","x: 267.8377990722656
y: 506.8713684082031
z: 0.10518612712621689
visibility: 0.920551061630249
","x: 277.9764709472656
y: 512.1734008789062
z: 0.1330399215221405
visibility: 0.8984425067901611
","x: 268.4935607910156
y: 513.736572265625
z: 0.11397331953048706
visibility: 0.7794555425643921
","x: 279.97021484375
y: 523.739501953125
z: 0.03952763229608536
visibility: 0.9844626188278198
","x: 266.0327453613281
y: 524.2440185546875
z: 0.01737593486905098
visibility: 0.9328721761703491
",,,,,,,,,,,,,,,,,,,,,,,,,,,,,,,,,,,,,,,,,,
8,"x: 273.88909912109375
y: 283.7018127441406
z: -0.23862934112548828
visibility: 0.9999270439147949
","x: 276.1167907714844
y: 278.810791015625
z: -0.22369039058685303
visibility: 0.9997486472129822
","x: 277.3258972167969
y: 279.1097106933594
z: -0.22374024987220764
visibility: 0.9997562170028687
","x: 278.49713134765625
y: 279.5859680175781
z: -0.22377105057239532
visibility: 0.9997585415840149
","x: 272.64471435546875
y: 278.3132019042969
z: -0.2271035611629486
visibility: 0.9997103214263916
","x: 271.5025634765625
y: 278.2596740722656
z: -0.22713883221149445
visibility: 0.9996745586395264
","x: 270.4115295410156
y: 278.2742919921875
z: -0.2271924465894699
visibility: 0.9995864629745483
","x: 280.66729736328125
y: 283.713134765625
z: -0.13106396794319153
visibility: 0.9994150996208191
","x: 269.39007568359375
y: 281.8138427734375
z: -0.1480870097875595
visibility: 0.9989479184150696
","x: 276.2008056640625
y: 290.46612548828125
z: -0.20451752841472626
visibility: 0.9999324083328247
","x: 271.81597900390625
y: 289.97613525390625
z: -0.2092408686876297
visibility: 0.9998806118965149
","x: 289.6478576660156
y: 315.7192077636719
z: -0.07309216260910034
visibility: 0.9999555349349976
","x: 258.9693603515625
y: 319.9936218261719
z: -0.09230732917785645
visibility: 0.9993029832839966
","x: 297.5395812988281
y: 354.6556091308594
z: -0.04813150689005852
visibility: 0.9795265197753906
","x: 256.99456787109375
y: 364.35076904296875
z: -0.07272760570049286
visibility: 0.5875153541564941
","x: 296.7305908203125
y: 394.6929931640625
z: -0.1147451251745224
visibility: 0.9211558699607849
","x: 258.2314758300781
y: 396.857666015625
z: -0.14735691249370575
visibility: 0.5152284502983093
","x: 297.7781066894531
y: 407.51824951171875
z: -0.13526654243469238
visibility: 0.8614318370819092
","x: 259.44183349609375
y: 407.990966796875
z: -0.1718033254146576
visibility: 0.482037752866745
","x: 296.3687744140625
y: 408.0128173828125
z: -0.15475717186927795
visibility: 0.8727715015411377
","x: 261.09527587890625
y: 408.3511657714844
z: -0.19401513040065765
visibility: 0.4888444244861603
","x: 295.23291015625
y: 404.1717529296875
z: -0.12358956038951874
visibility: 0.8462651968002319
","x: 261.0250549316406
y: 403.936767578125
z: -0.15762311220169067
visibility: 0.46210619807243347
","x: 283.60125732421875
y: 399.1038818359375
z: 0.007923788391053677
visibility: 0.9996002912521362
","x: 265.9663391113281
y: 397.43035888671875
z: -0.007910994812846184
visibility: 0.9995518922805786
","x: 282.4065856933594
y: 459.06488037109375
z: 0.019237352535128593
visibility: 0.9802483916282654
","x: 267.6663818359375
y: 457.67376708984375
z: -0.13722123205661774
visibility: 0.9416855573654175
","x: 280.8786926269531
y: 506.38983154296875
z: 0.14079472422599792
visibility: 0.979654848575592
","x: 267.99066162109375
y: 513.1732788085938
z: -0.05080530792474747
visibility: 0.9247960448265076
","x: 278.4628601074219
y: 517.02099609375
z: 0.14690449833869934
visibility: 0.8770928978919983
","x: 268.4000549316406
y: 524.6007080078125
z: -0.048331309109926224
visibility: 0.7693748474121094
","x: 280.75238037109375
y: 522.254150390625
z: 0.0544663742184639
visibility: 0.976037323474884
","x: 267.3621826171875
y: 525.574951171875
z: -0.16267934441566467
visibility: 0.9357281923294067
",,,,,,,,,,,,,,,,,,,,,,,,,,,,,,,,,,,,,,,,,,
9,"x: 272.7256164550781
y: 286.0864562988281
z: -0.2584725022315979
visibility: 0.9999083280563354
","x: 274.5030212402344
y: 281.2955322265625
z: -0.24470694363117218
visibility: 0.9996914863586426
","x: 275.73138427734375
y: 281.4993591308594
z: -0.24474525451660156
visibility: 0.9997032284736633
","x: 277.02593994140625
y: 281.83001708984375
z: -0.24477510154247284
visibility: 0.9997094869613647
","x: 271.1466979980469
y: 281.08355712890625
z: -0.245155930519104
visibility: 0.9996597170829773
","x: 270.0431823730469
y: 281.1755676269531
z: -0.24518688023090363
visibility: 0.9996212124824524
","x: 268.9774475097656
y: 281.338134765625
z: -0.24522742629051208
visibility: 0.9995325803756714
","x: 278.9883728027344
y: 285.0768127441406
z: -0.16171659529209137
visibility: 0.9993183612823486
","x: 267.6370544433594
y: 285.1427917480469
z: -0.16460277140140533
visibility: 0.9988291263580322
","x: 274.9667663574219
y: 292.33001708984375
z: -0.22764627635478973
visibility: 0.999901533126831
","x: 270.6781311035156
y: 292.1423645019531
z: -0.2284996509552002
visibility: 0.9998511075973511
","x: 289.3254089355469
y: 318.34613037109375
z: -0.10875578969717026
visibility: 0.9999118447303772
","x: 257.2881164550781
y: 324.86962890625
z: -0.10657300800085068
visibility: 0.99932461977005
","x: 295.63311767578125
y: 363.2380676269531
z: -0.08528804033994675
visibility: 0.9774338603019714
","x: 256.3958740234375
y: 369.0989990234375
z: -0.0829334408044815
visibility: 0.6159234046936035
","x: 295.32855224609375
y: 401.9488830566406
z: -0.14004433155059814
visibility: 0.9060825705528259
","x: 259.52386474609375
y: 404.0044860839844
z: -0.14397162199020386
visibility: 0.517296314239502
","x: 295.6357116699219
y: 414.475830078125
z: -0.16027508676052094
visibility: 0.8377423882484436
","x: 261.4191589355469
y: 415.18133544921875
z: -0.16470062732696533
visibility: 0.4772431552410126
","x: 294.3168029785156
y: 415.1422119140625
z: -0.1796308010816574
visibility: 0.8494768142700195
","x: 263.1845703125
y: 414.4696350097656
z: -0.185467928647995
visibility: 0.48394498229026794
","x: 293.3663330078125
y: 411.234130859375
z: -0.14870689809322357
visibility: 0.8228832483291626
","x: 263.1227111816406
y: 411.3298034667969
z: -0.15335656702518463
visibility: 0.45663073658943176
","x: 284.0872497558594
y: 400.4600830078125
z: 0.0031051430851221085
visibility: 0.9994998574256897
","x: 265.9774475097656
y: 400.54693603515625
z: -0.00309734302572906
visibility: 0.9994913935661316
","x: 282.37152099609375
y: 458.6373596191406
z: -0.008356243371963501
visibility: 0.9783610105514526
","x: 268.0152282714844
y: 458.8417053222656
z: -0.08338183164596558
visibility: 0.9443131685256958
","x: 280.9795227050781
y: 510.0285339355469
z: 0.059619586914777756
visibility: 0.9772981405258179
","x: 267.9304504394531
y: 515.515625
z: 0.01769462414085865
visibility: 0.9295070767402649
","x: 278.83465576171875
y: 521.6180419921875
z: 0.06301619112491608
visibility: 0.877552330493927
","x: 268.3634338378906
y: 527.0714721679688
z: 0.021725544705986977
visibility: 0.7737031579017639
","x: 280.3916015625
y: 521.6546630859375
z: -0.03213066607713699
visibility: 0.9737525582313538
","x: 267.24237060546875
y: 527.451416015625
z: -0.08380001038312912
visibility: 0.9387132525444031
",,,,,,,,,,,,,,,,,,,,,,,,,,,,,,,,,,,,,,,,,,
10,"x: 273.27685546875
y: 287.11407470703125
z: -0.24382086098194122
visibility: 0.9999116063117981
","x: 274.93646240234375
y: 283.0665283203125
z: -0.23320245742797852
visibility: 0.9996964931488037
","x: 276.090576171875
y: 283.3698425292969
z: -0.23326382040977478
visibility: 0.9997071623802185
","x: 277.30426025390625
y: 283.745849609375
z: -0.2333420068025589
visibility: 0.9997110366821289
","x: 271.7389831542969
y: 282.68756103515625
z: -0.23024936020374298
visibility: 0.9996702671051025
","x: 270.67852783203125
y: 282.781005859375
z: -0.230259969830513
visibility: 0.9996373653411865
","x: 269.6417236328125
y: 282.93682861328125
z: -0.23028841614723206
visibility: 0.9995571374893188
","x: 279.2569885253906
y: 287.5335388183594
z: -0.15096993744373322
visibility: 0.9993230104446411
","x: 267.6639709472656
y: 286.81396484375
z: -0.15012530982494354
visibility: 0.9988997578620911
","x: 275.4460754394531
y: 293.3731689453125
z: -0.2160140573978424
visibility: 0.999901294708252
","x: 271.1119079589844
y: 293.01959228515625
z: -0.21275636553764343
visibility: 0.9998558759689331
","x: 289.30230712890625
y: 321.23089599609375
z: -0.0976199060678482
visibility: 0.9999029636383057
","x: 257.3746337890625
y: 324.9718933105469
z: -0.09064136445522308
visibility: 0.9993811845779419
","x: 295.2843017578125
y: 364.904296875
z: -0.05458832532167435
visibility: 0.9755383133888245
","x: 256.9451599121094
y: 367.2828674316406
z: -0.06312651932239532
visibility: 0.6475841403007507
","x: 295.85858154296875
y: 401.4312744140625
z: -0.11112971603870392
visibility: 0.8987821936607361
","x: 250.94712829589844
y: 400.73236083984375
z: -0.12536323070526123
visibility: 0.5546032190322876
","x: 296.79620361328125
y: 414.08197021484375
z: -0.12710478901863098
visibility: 0.8276079297065735
","x: 246.96221923828125
y: 411.8207092285156
z: -0.14637431502342224
visibility: 0.5131356716156006
","x: 295.480224609375
y: 414.4024963378906
z: -0.14953163266181946
visibility: 0.8398211002349854
","x: 246.88973999023438
y: 411.0107116699219
z: -0.1830812394618988
visibility: 0.5206047296524048
","x: 294.4395751953125
y: 410.3163146972656
z: -0.12126189470291138
visibility: 0.8134801387786865
","x: 249.04583740234375
y: 407.44683837890625
z: -0.14049124717712402
visibility: 0.49434882402420044
","x: 285.3180847167969
y: 402.33111572265625
z: 0.0017691326793283224
visibility: 0.9994722008705139
","x: 266.59112548828125
y: 401.2707214355469
z: -0.0017109703039750457
visibility: 0.9994924664497375
","x: 285.009033203125
y: 461.05755615234375
z: -0.007418300956487656
visibility: 0.9789063334465027
","x: 268.6697692871094
y: 459.2808837890625
z: -0.054240353405475616
visibility: 0.9482177495956421
","x: 283.2398681640625
y: 511.54827880859375
z: 0.11893854290246964
visibility: 0.9779307246208191
","x: 267.9713439941406
y: 513.47265625
z: 0.08556374907493591
visibility: 0.9351987242698669
","x: 281.8074645996094
y: 521.2281494140625
z: 0.12547816336154938
visibility: 0.8729008436203003
","x: 268.8078308105469
y: 522.6875610351562
z: 0.09382078051567078
visibility: 0.7829553484916687
","x: 280.8191833496094
y: 521.779541015625
z: 0.031878095120191574
visibility: 0.9741594195365906
","x: 267.1065979003906
y: 527.88916015625
z: -0.0015849521150812507
visibility: 0.9433149695396423
",,,,,,,,,,,,,,,,,,,,,,,,,,,,,,,,,,,,,,,,,,
11,"x: 274.5169372558594
y: 287.23065185546875
z: -0.26038601994514465
visibility: 0.9999086260795593
","x: 275.77783203125
y: 283.8563232421875
z: -0.2478148192167282
visibility: 0.9996786117553711
","x: 276.8804016113281
y: 284.2215881347656
z: -0.24782180786132812
visibility: 0.9996822476387024
","x: 278.0906982421875
y: 284.6496276855469
z: -0.2478390485048294
visibility: 0.9996846914291382
","x: 272.74237060546875
y: 283.5818786621094
z: -0.2507081627845764
visibility: 0.999656617641449
","x: 271.7089538574219
y: 283.7856750488281
z: -0.2507508397102356
visibility: 0.9996312856674194
","x: 270.721923828125
y: 284.01220703125
z: -0.25081008672714233
visibility: 0.9995633959770203
","x: 279.8929138183594
y: 289.71063232421875
z: -0.16472408175468445
visibility: 0.9992386102676392
","x: 268.2067565917969
y: 288.4653625488281
z: -0.17995713651180267
visibility: 0.9989258646965027
","x: 276.7394714355469
y: 293.6644287109375
z: -0.22915121912956238
visibility: 0.9999011754989624
","x: 272.5729064941406
y: 293.40447998046875
z: -0.23325768113136292
visibility: 0.9998601078987122
","x: 289.2750244140625
y: 323.647705078125
z: -0.10382156074047089
visibility: 0.9999054670333862
","x: 257.58184814453125
y: 324.2664794921875
z: -0.12614572048187256
visibility: 0.9994375109672546
","x: 294.1722717285156
y: 367.5247802734375
z: -0.056313805282115936
visibility: 0.9725756645202637
","x: 252.59645080566406
y: 364.9201965332031
z: -0.09744597971439362
visibility: 0.6821975111961365
","x: 295.4924621582031
y: 404.23822021484375
z: -0.11948869377374649
visibility: 0.8965052962303162
","x: 244.95260620117188
y: 394.731689453125
z: -0.16095039248466492
visibility: 0.5975977182388306
","x: 297.0103759765625
y: 416.4826965332031
z: -0.13844087719917297
visibility: 0.8247387409210205
","x: 241.17108154296875
y: 403.0685119628906
z: -0.1846735179424286
visibility: 0.5582815408706665
","x: 295.9579162597656
y: 417.4300842285156
z: -0.15703383088111877
visibility: 0.8372102379798889
","x: 242.50135803222656
y: 402.46923828125
z: -0.2105465829372406
visibility: 0.5652742981910706
","x: 294.53643798828125
y: 412.8071594238281
z: -0.1282680332660675
visibility: 0.8117589950561523
","x: 244.36415100097656
y: 400.58514404296875
z: -0.1730113923549652
visibility: 0.5408112406730652
","x: 285.7840881347656
y: 403.75811767578125
z: 0.0028681564144790173
visibility: 0.9995183944702148
","x: 267.71368408203125
y: 402.78997802734375
z: -0.002919993596151471
visibility: 0.9995317459106445
","x: 285.3592224121094
y: 461.445068359375
z: 9.810852498048916e-05
visibility: 0.9793065786361694
","x: 270.3189697265625
y: 461.4284973144531
z: 0.04599590227007866
visibility: 0.9490434527397156
","x: 283.93572998046875
y: 508.87896728515625
z: 0.2028331756591797
visibility: 0.9762247204780579
","x: 269.4776306152344
y: 502.4930114746094
z: 0.30453309416770935
visibility: 0.9313729405403137
","x: 282.1835021972656
y: 513.0721435546875
z: 0.21943576633930206
visibility: 0.859291136264801
","x: 270.0523681640625
y: 505.0205993652344
z: 0.3271608352661133
visibility: 0.7661657929420471
","x: 282.7415771484375
y: 522.0931396484375
z: 0.13274870812892914
visibility: 0.9727398157119751
","x: 269.814697265625
y: 520.7774658203125
z: 0.25145870447158813
visibility: 0.940909743309021
",,,,,,,,,,,,,,,,,,,,,,,,,,,,,,,,,,,,,,,,,,
12,"x: 274.980712890625
y: 287.2445373535156
z: -0.3480178117752075
visibility: 0.9999059438705444
","x: 276.1022644042969
y: 284.1839599609375
z: -0.33603495359420776
visibility: 0.999668300151825
","x: 277.08099365234375
y: 284.618408203125
z: -0.3360370099544525
visibility: 0.9996672868728638
","x: 278.1805725097656
y: 285.1122741699219
z: -0.33609339594841003
visibility: 0.9996746182441711
","x: 273.3115234375
y: 283.8997802734375
z: -0.3372909426689148
visibility: 0.999647855758667
","x: 272.2765197753906
y: 284.1366882324219
z: -0.3373521864414215
visibility: 0.9996253848075867
","x: 271.2719421386719
y: 284.41156005859375
z: -0.3374173045158386
visibility: 0.9995707273483276
","x: 279.89678955078125
y: 290.4643859863281
z: -0.24894285202026367
visibility: 0.999199390411377
","x: 268.8935546875
y: 288.9879455566406
z: -0.25652483105659485
visibility: 0.9989286065101624
","x: 277.0683288574219
y: 293.757568359375
z: -0.31446802616119385
visibility: 0.9998983144760132
","x: 272.9704284667969
y: 293.590087890625
z: -0.31680288910865784
visibility: 0.9998637437820435
","x: 289.2642822265625
y: 327.7158203125
z: -0.1795930117368698
visibility: 0.999902606010437
","x: 257.5731506347656
y: 324.1418762207031
z: -0.1853584200143814
visibility: 0.9994825720787048
","x: 294.3316955566406
y: 371.95318603515625
z: -0.13299892842769623
visibility: 0.9697985053062439
","x: 249.48220825195312
y: 362.24365234375
z: -0.15390977263450623
visibility: 0.7119129300117493
","x: 295.83502197265625
y: 407.81787109375
z: -0.18354524672031403
visibility: 0.8906835913658142
","x: 243.65261840820312
y: 396.05645751953125
z: -0.20601443946361542
visibility: 0.6278337240219116
","x: 297.2549743652344
y: 419.6611328125
z: -0.2046896517276764
visibility: 0.816837728023529
","x: 241.53451538085938
y: 404.8158264160156
z: -0.2299659252166748
visibility: 0.5836833715438843
","x: 296.4375305175781
y: 420.8446960449219
z: -0.23025815188884735
visibility: 0.829247236251831
","x: 243.55441284179688
y: 405.0687255859375
z: -0.2544555366039276
visibility: 0.5908564329147339
","x: 294.9204406738281
y: 415.9332580566406
z: -0.1950090229511261
visibility: 0.8034201860427856
","x: 244.92276000976562
y: 402.9784851074219
z: -0.2176564484834671
visibility: 0.5669609308242798
","x: 285.6266174316406
y: 403.5550537109375
z: 0.0014789311680942774
visibility: 0.9995453953742981
","x: 267.97967529296875
y: 402.5210876464844
z: -0.0015118583105504513
visibility: 0.9995541572570801
","x: 284.3586120605469
y: 458.6050720214844
z: 0.03703504800796509
visibility: 0.9787184000015259
","x: 269.51812744140625
y: 460.6976318359375
z: 0.05835297703742981
visibility: 0.9486329555511475
","x: 282.97332763671875
y: 501.2747497558594
z: 0.2800886631011963
visibility: 0.9747304916381836
","x: 272.75042724609375
y: 502.2578430175781
z: 0.299343466758728
visibility: 0.9340282082557678
","x: 282.7007751464844
y: 505.6681823730469
z: 0.30056315660476685
visibility: 0.8482515811920166
","x: 273.5242919921875
y: 506.611572265625
z: 0.31917232275009155
visibility: 0.7645323276519775
","x: 283.6424560546875
y: 520.253662109375
z: 0.2079179733991623
visibility: 0.9719398617744446
","x: 274.13934326171875
y: 520.8428344726562
z: 0.22035709023475647
visibility: 0.9423929452896118
",,,,,,,,,,,,,,,,,,,,,,,,,,,,,,,,,,,,,,,,,,
13,"x: 275.3970947265625
y: 287.20904541015625
z: -0.28589531779289246
visibility: 0.999904215335846
","x: 276.305419921875
y: 283.9916076660156
z: -0.27346494793891907
visibility: 0.9996643662452698
","x: 277.2668762207031
y: 284.39300537109375
z: -0.2734868824481964
visibility: 0.9996671080589294
","x: 278.3516845703125
y: 284.8655090332031
z: -0.2735220789909363
visibility: 0.9996743202209473
","x: 273.6534423828125
y: 283.85205078125
z: -0.2750380337238312
visibility: 0.999624490737915
","x: 272.6946105957031
y: 284.1690673828125
z: -0.2750709056854248
visibility: 0.9996025562286377
","x: 271.752685546875
y: 284.5444641113281
z: -0.27510547637939453
visibility: 0.9995429515838623
","x: 280.2256774902344
y: 290.18585205078125
z: -0.19405288994312286
visibility: 0.9991998076438904
","x: 270.0450134277344
y: 289.17156982421875
z: -0.19650155305862427
visibility: 0.9988490343093872
","x: 277.65496826171875
y: 293.72064208984375
z: -0.2544609010219574
visibility: 0.9998976588249207
","x: 273.9048156738281
y: 293.6065368652344
z: -0.25565677881240845
visibility: 0.9998569488525391
","x: 290.003662109375
y: 327.65606689453125
z: -0.14032915234565735
visibility: 0.9999074935913086
","x: 259.0022888183594
y: 322.0594787597656
z: -0.13204988837242126
visibility: 0.9995083808898926
","x: 294.700439453125
y: 371.1871643066406
z: -0.11101198196411133
visibility: 0.9702959060668945
","x: 250.4275360107422
y: 362.1900939941406
z: -0.10433141142129898
visibility: 0.7364305257797241
","x: 298.8037414550781
y: 406.3309326171875
z: -0.1729133278131485
visibility: 0.8963149189949036
","x: 245.39791870117188
y: 398.364013671875
z: -0.1678522229194641
visibility: 0.6510542631149292
","x: 302.66864013671875
y: 417.4422912597656
z: -0.19370710849761963
visibility: 0.8254368901252747
","x: 243.45755004882812
y: 407.7177734375
z: -0.1930728256702423
visibility: 0.6012125611305237
","x: 302.97918701171875
y: 418.25091552734375
z: -0.21750430762767792
visibility: 0.8376986384391785
","x: 244.61412048339844
y: 408.3018798828125
z: -0.21309871971607208
visibility: 0.6092192530632019
","x: 301.3418884277344
y: 414.1483154296875
z: -0.18380266427993774
visibility: 0.8126777410507202
","x: 245.5279541015625
y: 405.9519958496094
z: -0.17813782393932343
visibility: 0.5862493515014648
","x: 285.2390441894531
y: 402.8277282714844
z: -0.0027491911314427853
visibility: 0.99958336353302
","x: 267.6190490722656
y: 402.3414611816406
z: 0.002697376301512122
visibility: 0.9995721578598022
","x: 284.22808837890625
y: 458.57293701171875
z: -0.04187966510653496
visibility: 0.9791572690010071
","x: 269.5190734863281
y: 460.89788818359375
z: 0.041571058332920074
visibility: 0.9492426514625549
","x: 281.4359130859375
y: 501.66802978515625
z: 0.14982271194458008
visibility: 0.9749497175216675
","x: 271.7782897949219
y: 502.7073974609375
z: 0.2654385268688202
visibility: 0.930067241191864
","x: 280.6781921386719
y: 508.0504150390625
z: 0.1676349639892578
visibility: 0.8417192697525024
","x: 272.583984375
y: 507.2798156738281
z: 0.2840309739112854
visibility: 0.7477492690086365
","x: 281.1088562011719
y: 524.031005859375
z: 0.076356902718544
visibility: 0.9719354510307312
","x: 271.7026062011719
y: 521.0856323242188
z: 0.2043038308620453
visibility: 0.9397180676460266
",,,,,,,,,,,,,,,,,,,,,,,,,,,,,,,,,,,,,,,,,,
14,"x: 275.97686767578125
y: 285.0829772949219
z: -0.2746345102787018
visibility: 0.9999023079872131
","x: 276.8090515136719
y: 282.5959167480469
z: -0.26171889901161194
visibility: 0.9996527433395386
","x: 277.7744140625
y: 282.9715576171875
z: -0.2617504596710205
visibility: 0.9996562004089355
","x: 278.83843994140625
y: 283.42059326171875
z: -0.2617901563644409
visibility: 0.9996570944786072
","x: 274.10980224609375
y: 282.91033935546875
z: -0.2634636163711548
visibility: 0.9996112585067749
","x: 273.1404724121094
y: 283.50946044921875
z: -0.2634972631931305
visibility: 0.9995937943458557
","x: 272.2012023925781
y: 284.1473693847656
z: -0.26356130838394165
visibility: 0.9995396137237549
","x: 280.4110412597656
y: 289.67974853515625
z: -0.18055666983127594
visibility: 0.9991001486778259
","x: 270.1182861328125
y: 288.8692321777344
z: -0.18549011647701263
visibility: 0.9988771677017212
","x: 278.1634826660156
y: 291.4523010253906
z: -0.24286217987537384
visibility: 0.9998980164527893
","x: 274.4686279296875
y: 291.8423156738281
z: -0.24494819343090057
visibility: 0.9998621344566345
","x: 290.07562255859375
y: 327.0110778808594
z: -0.1363774538040161
visibility: 0.9999058842658997
","x: 258.9703674316406
y: 322.03924560546875
z: -0.13131143152713776
visibility: 0.9995482563972473
","x: 292.0921630859375
y: 371.0758056640625
z: -0.11110589653253555
visibility: 0.9506607055664062
","x: 251.8234100341797
y: 364.69537353515625
z: -0.11032839864492416
visibility: 0.7607588768005371
","x: 296.8924560546875
y: 392.98583984375
z: -0.2426280528306961
visibility: 0.8768693208694458
","x: 250.11349487304688
y: 401.6552429199219
z: -0.17972058057785034
visibility: 0.6794138550758362
","x: 302.25872802734375
y: 402.88677978515625
z: -0.2749309241771698
visibility: 0.8117095828056335
","x: 249.8328857421875
y: 412.1017150878906
z: -0.20688886940479279
visibility: 0.6293981671333313
","x: 301.9546203613281
y: 400.95648193359375
z: -0.29856154322624207
visibility: 0.8252553343772888
","x: 251.4585418701172
y: 413.1026916503906
z: -0.22846250236034393
visibility: 0.6371855139732361
","x: 301.20672607421875
y: 397.96209716796875
z: -0.25587135553359985
visibility: 0.7988350987434387
","x: 251.6457977294922
y: 409.57666015625
z: -0.18979595601558685
visibility: 0.6142414808273315
","x: 284.3326721191406
y: 402.930419921875
z: 0.0008870408055372536
visibility: 0.9996199011802673
","x: 267.5371398925781
y: 402.3854064941406
z: -0.0009717196226119995
visibility: 0.9996030926704407
","x: 282.15618896484375
y: 461.4853210449219
z: -0.008243376389145851
visibility: 0.9802358746528625
","x: 269.09515380859375
y: 462.3414611816406
z: 0.04464767128229141
visibility: 0.9521678686141968
","x: 280.9549255371094
y: 505.26727294921875
z: 0.217925027012825
visibility: 0.9759085774421692
","x: 271.2292175292969
y: 499.6199951171875
z: 0.32813045382499695
visibility: 0.9303237199783325
","x: 280.2353515625
y: 509.6484069824219
z: 0.23648984730243683
visibility: 0.8386918306350708
","x: 272.0440368652344
y: 502.6261901855469
z: 0.353432834148407
visibility: 0.7375615835189819
","x: 279.7255859375
y: 527.1053466796875
z: 0.1465059220790863
visibility: 0.9725554585456848
","x: 270.6863708496094
y: 521.1158447265625
z: 0.277824729681015
visibility: 0.9400907158851624
",,,,,,,,,,,,,,,,,,,,,,,,,,,,,,,,,,,,,,,,,,
15,"x: 275.64764404296875
y: 285.13018798828125
z: -0.2639113962650299
visibility: 0.9999013543128967
","x: 276.66094970703125
y: 282.53271484375
z: -0.24774031341075897
visibility: 0.9996482729911804
","x: 277.66717529296875
y: 282.8625183105469
z: -0.24777615070343018
visibility: 0.9996501207351685
","x: 278.74383544921875
y: 283.2359619140625
z: -0.24781838059425354
visibility: 0.9996529817581177
","x: 273.8551330566406
y: 282.8774719238281
z: -0.2560482621192932
visibility: 0.9996054172515869
","x: 272.8808898925781
y: 283.42816162109375
z: -0.25607675313949585
visibility: 0.9995895624160767
","x: 271.9523010253906
y: 284.011962890625
z: -0.25614652037620544
visibility: 0.9995391964912415
","x: 280.36041259765625
y: 288.98223876953125
z: -0.15572865307331085
visibility: 0.9990950226783752
","x: 270.03656005859375
y: 288.65771484375
z: -0.17943832278251648
visibility: 0.998881459236145
","x: 277.8916015625
y: 291.51470947265625
z: -0.22730962932109833
visibility: 0.9999014735221863
","x: 274.0312194824219
y: 291.9918518066406
z: -0.23722784221172333
visibility: 0.9998660087585449
","x: 290.0033264160156
y: 324.8727111816406
z: -0.09445326030254364
visibility: 0.9999120831489563
","x: 258.6716613769531
y: 321.9864501953125
z: -0.12178883701562881
visibility: 0.9995640516281128
","x: 295.93060302734375
y: 362.2779846191406
z: -0.05251855403184891
visibility: 0.9519121646881104
","x: 253.6075439453125
y: 364.620849609375
z: -0.10612255334854126
visibility: 0.7779521346092224
","x: 296.1717834472656
y: 389.8883056640625
z: -0.1419246345758438
visibility: 0.8771509528160095
","x: 252.9435272216797
y: 400.80548095703125
z: -0.17061221599578857
visibility: 0.6896479725837708
","x: 297.19122314453125
y: 399.8376770019531
z: -0.16751031577587128
visibility: 0.8112320899963379
","x: 253.07275390625
y: 412.22906494140625
z: -0.1895802915096283
visibility: 0.636050820350647
","x: 295.3880615234375
y: 398.3819885253906
z: -0.19032925367355347
visibility: 0.8249006271362305
","x: 254.23573303222656
y: 413.420654296875
z: -0.2117149382829666
visibility: 0.6444113254547119
","x: 294.66827392578125
y: 394.9615478515625
z: -0.15273161232471466
visibility: 0.798168957233429
","x: 254.60446166992188
y: 409.4035339355469
z: -0.1802627146244049
visibility: 0.6197150945663452
","x: 284.13531494140625
y: 403.11029052734375
z: 0.0038826907984912395
visibility: 0.9996510744094849
","x: 267.2042541503906
y: 402.8603515625
z: -0.003965056501328945
visibility: 0.9996188282966614
","x: 282.20404052734375
y: 463.11712646484375
z: -0.004346264060586691
visibility: 0.9812037348747253
","x: 268.8289489746094
y: 462.91455078125
z: 0.032491229474544525
visibility: 0.9540593028068542
","x: 280.392333984375
y: 507.4438171386719
z: 0.2138518989086151
visibility: 0.9763103723526001
","x: 270.5595397949219
y: 500.2507019042969
z: 0.28875526785850525
visibility: 0.9305059313774109
","x: 279.51593017578125
y: 510.466796875
z: 0.23152348399162292
visibility: 0.8332251310348511
","x: 271.23681640625
y: 502.791748046875
z: 0.3115912675857544
visibility: 0.7254840731620789
","x: 278.4857177734375
y: 529.7357788085938
z: 0.1419430673122406
visibility: 0.9728968143463135
","x: 270.56646728515625
y: 522.984130859375
z: 0.23335695266723633
visibility: 0.9403671622276306
",,,,,,,,,,,,,,,,,,,,,,,,,,,,,,,,,,,,,,,,,,
16,"x: 274.7189025878906
y: 286.13897705078125
z: -0.3419288694858551
visibility: 0.9998965263366699
","x: 276.649658203125
y: 283.4577331542969
z: -0.32858043909072876
visibility: 0.9996337294578552
","x: 277.6237487792969
y: 284.0234680175781
z: -0.32861191034317017
visibility: 0.999638020992279
","x: 278.7144470214844
y: 284.6268005371094
z: -0.3286864161491394
visibility: 0.9996439218521118
","x: 273.5460205078125
y: 282.97918701171875
z: -0.3281988501548767
visibility: 0.9995836615562439
","x: 272.48919677734375
y: 283.35723876953125
z: -0.32825276255607605
visibility: 0.9995725750923157
","x: 271.4570007324219
y: 283.9932861328125
z: -0.3282845616340637
visibility: 0.9995273351669312
","x: 280.3270568847656
y: 289.97259521484375
z: -0.2405969798564911
visibility: 0.9990971684455872
","x: 269.5907287597656
y: 288.5955810546875
z: -0.23791448771953583
visibility: 0.9988151788711548
","x: 276.6885681152344
y: 293.2215270996094
z: -0.30841413140296936
visibility: 0.9999025464057922
","x: 272.18255615234375
y: 292.74798583984375
z: -0.3079761564731598
visibility: 0.9998656511306763
","x: 289.9552307128906
y: 325.15771484375
z: -0.17751702666282654
visibility: 0.999916672706604
","x: 257.3090515136719
y: 322.82110595703125
z: -0.15611892938613892
visibility: 0.9995759129524231
","x: 300.0230407714844
y: 360.279296875
z: -0.14587309956550598
visibility: 0.9561017751693726
","x: 251.71337890625
y: 364.745361328125
z: -0.11198954284191132
visibility: 0.7956686615943909
","x: 295.41021728515625
y: 392.04058837890625
z: -0.2129470556974411
visibility: 0.8840411305427551
","x: 249.22914123535156
y: 402.1200866699219
z: -0.18037055432796478
visibility: 0.7063905000686646
","x: 293.8529357910156
y: 402.3594665527344
z: -0.23974546790122986
visibility: 0.8175597786903381
","x: 248.51681518554688
y: 413.5411071777344
z: -0.20594613254070282
visibility: 0.6486957669258118
","x: 291.6053161621094
y: 400.7497863769531
z: -0.25921353697776794
visibility: 0.8302929997444153
","x: 250.28326416015625
y: 414.0206298828125
z: -0.23100487887859344
visibility: 0.6574379801750183
","x: 291.6380920410156
y: 397.32177734375
z: -0.22119751572608948
visibility: 0.8029729127883911
","x: 251.0304412841797
y: 410.336181640625
z: -0.1919950693845749
visibility: 0.6326152682304382
","x: 282.5620422363281
y: 403.0669860839844
z: -0.003804521169513464
visibility: 0.9996665120124817
","x: 264.5528259277344
y: 402.9120178222656
z: 0.0037321518175303936
visibility: 0.9996111392974854
","x: 281.875
y: 462.5212097167969
z: 0.002952372655272484
visibility: 0.981549859046936
","x: 268.6526794433594
y: 462.97784423828125
z: 0.031548671424388885
visibility: 0.9550961852073669
","x: 282.0425720214844
y: 507.2723388671875
z: 0.22685763239860535
visibility: 0.9766627550125122
","x: 270.8025207519531
y: 503.3575744628906
z: 0.26792198419570923
visibility: 0.9331836104393005
","x: 281.0748291015625
y: 511.0740966796875
z: 0.24416418373584747
visibility: 0.8212466835975647
","x: 271.7548522949219
y: 506.5177001953125
z: 0.28714674711227417
visibility: 0.727064311504364
","x: 280.2504577636719
y: 529.5548095703125
z: 0.14569047093391418
visibility: 0.9725812077522278
","x: 270.4032287597656
y: 523.1353759765625
z: 0.19639989733695984
visibility: 0.9421313405036926
",,,,,,,,,,,,,,,,,,,,,,,,,,,,,,,,,,,,,,,,,,
17,"x: 274.4722900390625
y: 284.5023498535156
z: -0.35070937871932983
visibility: 0.9998853206634521
","x: 276.19500732421875
y: 279.47308349609375
z: -0.33878085017204285
visibility: 0.9996359944343567
","x: 277.19158935546875
y: 279.9212341308594
z: -0.33880704641342163
visibility: 0.9996389150619507
","x: 278.2821960449219
y: 280.4599304199219
z: -0.3388802409172058
visibility: 0.9996455907821655
","x: 273.0419616699219
y: 278.7167663574219
z: -0.3406621515750885
visibility: 0.9995872974395752
","x: 271.9332275390625
y: 278.73272705078125
z: -0.3407135009765625
visibility: 0.9995770454406738
","x: 270.8591613769531
y: 278.9864807128906
z: -0.3407311737537384
visibility: 0.9995390772819519
","x: 279.50323486328125
y: 283.848388671875
z: -0.2422270029783249
visibility: 0.9991488456726074
","x: 268.6770935058594
y: 281.9794921875
z: -0.24954473972320557
visibility: 0.9988898634910583
","x: 276.1855773925781
y: 290.29705810546875
z: -0.31268325448036194
visibility: 0.9999043345451355
","x: 271.9803161621094
y: 290.4623718261719
z: -0.3151608109474182
visibility: 0.9998688101768494
","x: 289.5010681152344
y: 315.0912780761719
z: -0.17654207348823547
visibility: 0.9999163746833801
","x: 255.88514709472656
y: 315.82232666015625
z: -0.15799877047538757
visibility: 0.9995914101600647
","x: 303.4988098144531
y: 340.92999267578125
z: -0.24878211319446564
visibility: 0.9575986266136169
","x: 242.70652770996094
y: 339.02728271484375
z: -0.1646672934293747
visibility: 0.8124788403511047
","x: 295.0255432128906
y: 350.3912658691406
z: -0.42570608854293823
visibility: 0.874396026134491
","x: 241.35580444335938
y: 352.0605773925781
z: -0.28086256980895996
visibility: 0.7221217155456543
","x: 292.31256103515625
y: 356.85162353515625
z: -0.46569839119911194
visibility: 0.8055318593978882
","x: 239.372314453125
y: 359.09039306640625
z: -0.31071406602859497
visibility: 0.6632657647132874
","x: 289.60809326171875
y: 353.1973571777344
z: -0.4725090563297272
visibility: 0.8170688152313232
","x: 242.37985229492188
y: 357.8839111328125
z: -0.32434698939323425
visibility: 0.672143816947937
","x: 289.79913330078125
y: 351.2160949707031
z: -0.43216270208358765
visibility: 0.7843724489212036
","x: 243.19139099121094
y: 355.6944274902344
z: -0.2890859544277191
visibility: 0.6460063457489014
","x: 282.2760009765625
y: 395.2395324707031
z: -0.009661896154284477
visibility: 0.9995830655097961
","x: 264.16790771484375
y: 397.0206298828125
z: 0.009611411020159721
visibility: 0.9994856715202332
","x: 281.0286560058594
y: 458.12860107421875
z: 0.012711686082184315
visibility: 0.9823180437088013
","x: 268.5875244140625
y: 458.1535339355469
z: 0.03758801892399788
visibility: 0.9574934840202332
","x: 283.1412658691406
y: 506.2134094238281
z: 0.20741412043571472
visibility: 0.9780154228210449
","x: 271.61505126953125
y: 503.5579833984375
z: 0.24407744407653809
visibility: 0.9383376240730286
","x: 282.2599792480469
y: 510.5650634765625
z: 0.2208164483308792
visibility: 0.8128030300140381
","x: 273.207275390625
y: 507.01220703125
z: 0.2560686469078064
visibility: 0.7394221425056458
","x: 282.1545104980469
y: 529.4147338867188
z: 0.11288571357727051
visibility: 0.9737005829811096
","x: 270.5892028808594
y: 523.5059814453125
z: 0.1453551948070526
visibility: 0.9461841583251953
",,,,,,,,,,,,,,,,,,,,,,,,,,,,,,,,,,,,,,,,,,
18,"x: 272.2378845214844
y: 274.4665222167969
z: -0.3072189688682556
visibility: 0.9998944997787476
","x: 274.5740051269531
y: 269.53448486328125
z: -0.2945389151573181
visibility: 0.9996688961982727
","x: 275.8417663574219
y: 269.9210510253906
z: -0.29445093870162964
visibility: 0.9996708631515503
","x: 277.0864562988281
y: 270.37744140625
z: -0.29449328780174255
visibility: 0.9996763467788696
","x: 271.1600341796875
y: 268.8350830078125
z: -0.2805735468864441
visibility: 0.9996247291564941
","x: 270.1192932128906
y: 268.6961669921875
z: -0.28060659766197205
visibility: 0.999614953994751
","x: 269.1538391113281
y: 268.5958251953125
z: -0.2805335819721222
visibility: 0.9995815753936768
","x: 278.97406005859375
y: 273.75372314453125
z: -0.19201228022575378
visibility: 0.9992313981056213
","x: 267.8780822753906
y: 271.30230712890625
z: -0.1622854769229889
visibility: 0.9989964962005615
","x: 274.41558837890625
y: 280.63873291015625
z: -0.2666916847229004
visibility: 0.9999121427536011
","x: 270.0977783203125
y: 279.94952392578125
z: -0.253509521484375
visibility: 0.9998802542686462
","x: 288.2213439941406
y: 301.26422119140625
z: -0.15487441420555115
visibility: 0.9999120235443115
","x: 256.0233154296875
y: 303.8180236816406
z: -0.0772693082690239
visibility: 0.999612033367157
","x: 304.86761474609375
y: 315.88751220703125
z: -0.29479995369911194
visibility: 0.9615404605865479
","x: 242.13442993164062
y: 318.37152099609375
z: -0.18149515986442566
visibility: 0.8284305334091187
","x: 292.5421142578125
y: 313.80694580078125
z: -0.44934597611427307
visibility: 0.8839751482009888
","x: 243.16529846191406
y: 318.1978454589844
z: -0.37814652919769287
visibility: 0.7466939091682434
","x: 291.406494140625
y: 316.3321533203125
z: -0.4890236258506775
visibility: 0.8165619373321533
","x: 242.6568603515625
y: 323.5522155761719
z: -0.4117250442504883
visibility: 0.6905292868614197
","x: 285.63873291015625
y: 315.1297302246094
z: -0.4789153039455414
visibility: 0.8265478610992432
","x: 245.18894958496094
y: 320.8902282714844
z: -0.4115290641784668
visibility: 0.6982427835464478
","x: 286.318603515625
y: 314.6964111328125
z: -0.4490025043487549
visibility: 0.7934826612472534
","x: 245.8941650390625
y: 321.7120361328125
z: -0.3828355371952057
visibility: 0.6730727553367615
","x: 282.1394348144531
y: 384.41448974609375
z: -0.03357274457812309
visibility: 0.9996110200881958
","x: 264.7091064453125
y: 388.4001159667969
z: 0.033446699380874634
visibility: 0.9995274543762207
","x: 277.6121520996094
y: 441.5633850097656
z: -0.11565452814102173
visibility: 0.9834749102592468
","x: 268.36297607421875
y: 450.22906494140625
z: 4.1341179894516245e-05
visibility: 0.953995406627655
","x: 284.4870300292969
y: 485.41436767578125
z: 0.1046096459031105
visibility: 0.9779146313667297
","x: 273.8666687011719
y: 503.57763671875
z: 0.15162262320518494
visibility: 0.9427567720413208
","x: 286.3680725097656
y: 487.57977294921875
z: 0.12392673641443253
visibility: 0.8169099688529968
","x: 277.63818359375
y: 507.4319763183594
z: 0.161700040102005
visibility: 0.7574599981307983
","x: 281.9142150878906
y: 513.9263305664062
z: 0.06426183879375458
visibility: 0.9740010499954224
","x: 271.3067932128906
y: 524.7639770507812
z: 0.07390129566192627
visibility: 0.9491070508956909
",,,,,,,,,,,,,,,,,,,,,,,,,,,,,,,,,,,,,,,,,,
19,"x: 270.91546630859375
y: 275.9508361816406
z: -0.3673950433731079
visibility: 0.9998999238014221
","x: 273.1329345703125
y: 271.0519104003906
z: -0.35616976022720337
visibility: 0.9996713995933533
","x: 274.4623107910156
y: 271.3126220703125
z: -0.35616225004196167
visibility: 0.9996757507324219
","x: 275.7796630859375
y: 271.69580078125
z: -0.3561953902244568
visibility: 0.9996660351753235
","x: 269.7919006347656
y: 270.8521728515625
z: -0.3517863154411316
visibility: 0.9996388554573059
","x: 268.76885986328125
y: 270.908935546875
z: -0.351824551820755
visibility: 0.9996321797370911
","x: 267.86798095703125
y: 271.01849365234375
z: -0.35184380412101746
visibility: 0.9996023774147034
","x: 277.8751220703125
y: 275.489501953125
z: -0.266038179397583
visibility: 0.9992578625679016
","x: 266.9472351074219
y: 274.1937561035156
z: -0.24699339270591736
visibility: 0.9990621209144592
","x: 273.2552490234375
y: 282.1190185546875
z: -0.3325097858905792
visibility: 0.9999139904975891
","x: 268.8592224121094
y: 282.0368347167969
z: -0.3270263075828552
visibility: 0.9998880624771118
","x: 287.6481018066406
y: 304.2192687988281
z: -0.2185470312833786
visibility: 0.9999143481254578
","x: 256.1498718261719
y: 307.050537109375
z: -0.14951126277446747
visibility: 0.9996490478515625
","x: 306.5810546875
y: 314.94366455078125
z: -0.33132562041282654
visibility: 0.9651371836662292
","x: 241.00100708007812
y: 333.652587890625
z: -0.1419491320848465
visibility: 0.8448835015296936
","x: 293.27850341796875
y: 318.9396057128906
z: -0.49093493819236755
visibility: 0.8926974534988403
","x: 229.23097229003906
y: 354.4971923828125
z: -0.2727547883987427
visibility: 0.7702709436416626
","x: 290.83612060546875
y: 322.0475769042969
z: -0.531888484954834
visibility: 0.8250849843025208
","x: 224.9022216796875
y: 362.81671142578125
z: -0.2769451439380646
visibility: 0.7172313928604126
","x: 287.046142578125
y: 320.92755126953125
z: -0.5273428559303284
visibility: 0.8335742950439453
","x: 225.824462890625
y: 361.84869384765625
z: -0.3086983263492584
visibility: 0.7245123386383057
","x: 287.68402099609375
y: 320.2966003417969
z: -0.49308234453201294
visibility: 0.7988893985748291
","x: 227.6610565185547
y: 360.03070068359375
z: -0.29057347774505615
visibility: 0.7005971074104309
","x: 282.97259521484375
y: 383.9539794921875
z: -0.022543322294950485
visibility: 0.9996139407157898
","x: 265.5134582519531
y: 389.14202880859375
z: 0.022465774789452553
visibility: 0.9995696544647217
","x: 282.3105773925781
y: 435.1897888183594
z: 0.01440446823835373
visibility: 0.9829117059707642
","x: 269.80126953125
y: 451.9163513183594
z: -0.049369119107723236
visibility: 0.9556758403778076
","x: 288.5240173339844
y: 475.624755859375
z: 0.3140420913696289
visibility: 0.972255289554596
","x: 274.41766357421875
y: 505.9737854003906
z: 0.11003804206848145
visibility: 0.9467591643333435
","x: 289.08306884765625
y: 476.92608642578125
z: 0.3405391573905945
visibility: 0.8006600737571716
","x: 277.0647277832031
y: 511.10888671875
z: 0.11903560161590576
visibility: 0.7557063102722168
","x: 290.4228515625
y: 498.09454345703125
z: 0.2602192759513855
visibility: 0.9719507098197937
","x: 272.4958190917969
y: 526.838623046875
z: -0.0028673014603555202
visibility: 0.9520300626754761
",,,,,,,,,,,,,,,,,,,,,,,,,,,,,,,,,,,,,,,,,,
20,"x: 269.2437744140625
y: 276.33551025390625
z: -0.2511489987373352
visibility: 0.9999096989631653
","x: 272.025146484375
y: 271.77685546875
z: -0.2390308827161789
visibility: 0.9997032284736633
","x: 273.351318359375
y: 272.13201904296875
z: -0.23903827369213104
visibility: 0.9997071623802185
","x: 274.6949462890625
y: 272.58636474609375
z: -0.2390758991241455
visibility: 0.9996979832649231
","x: 268.79632568359375
y: 271.35791015625
z: -0.2369438111782074
visibility: 0.9996742606163025
","x: 267.8627014160156
y: 271.337646484375
z: -0.23695692420005798
visibility: 0.9996681809425354
","x: 266.9974670410156
y: 271.3033752441406
z: -0.23694181442260742
visibility: 0.9996411800384521
","x: 277.1988525390625
y: 276.8226013183594
z: -0.1557319462299347
visibility: 0.9993307590484619
","x: 266.6394958496094
y: 274.8594055175781
z: -0.1466922163963318
visibility: 0.9991554617881775
","x: 271.3260803222656
y: 283.0461730957031
z: -0.21979491412639618
visibility: 0.9999223351478577
","x: 267.41552734375
y: 282.8939208984375
z: -0.21737749874591827
visibility: 0.99989914894104
","x: 287.4474792480469
y: 306.6536865234375
z: -0.11101432144641876
visibility: 0.9999212622642517
","x: 253.6802978515625
y: 309.4517822265625
z: -0.07892151176929474
visibility: 0.9996839165687561
","x: 305.05615234375
y: 315.8996276855469
z: -0.21909014880657196
visibility: 0.9684075117111206
","x: 238.28553771972656
y: 334.0501708984375
z: -0.09529922902584076
visibility: 0.8599618077278137
","x: 308.80419921875
y: 302.23046875
z: -0.38473814725875854
visibility: 0.902617871761322
","x: 232.78598022460938
y: 356.7303466796875
z: -0.21736159920692444
visibility: 0.7921475768089294
","x: 311.85772705078125
y: 299.716552734375
z: -0.4226285517215729
visibility: 0.839853823184967
","x: 231.46286010742188
y: 368.6739807128906
z: -0.2341798096895218
visibility: 0.7425029873847961
","x: 309.125
y: 297.583740234375
z: -0.42623525857925415
visibility: 0.8475497961044312
","x: 234.13201904296875
y: 367.2842712402344
z: -0.24744582176208496
visibility: 0.7492022514343262
","x: 306.9638977050781
y: 299.0946044921875
z: -0.3916361927986145
visibility: 0.8153770565986633
","x: 235.42343139648438
y: 364.3397216796875
z: -0.22659437358379364
visibility: 0.7270695567131042
","x: 284.2232360839844
y: 387.72210693359375
z: -0.010454932227730751
visibility: 0.9996441602706909
","x: 266.27032470703125
y: 389.7628479003906
z: 0.01047260407358408
visibility: 0.9996107816696167
","x: 294.3077392578125
y: 441.27642822265625
z: 0.04823863506317139
visibility: 0.9842100143432617
","x: 271.2416687011719
y: 452.39697265625
z: -0.0325254462659359
visibility: 0.9599139094352722
","x: 305.4525451660156
y: 486.22454833984375
z: 0.23637445271015167
visibility: 0.9744700193405151
","x: 275.8006896972656
y: 506.01422119140625
z: 0.15528486669063568
visibility: 0.9518551230430603
","x: 304.97235107421875
y: 487.4598388671875
z: 0.2511281967163086
visibility: 0.8159679770469666
","x: 279.0964660644531
y: 511.188232421875
z: 0.16500699520111084
visibility: 0.7762179970741272
","x: 315.931640625
y: 501.6695556640625
z: 0.16255982220172882
visibility: 0.9741456508636475
","x: 272.388427734375
y: 527.1766967773438
z: 0.06359253823757172
visibility: 0.9564077258110046
",,,,,,,,,,,,,,,,,,,,,,,,,,,,,,,,,,,,,,,,,,
21,"x: 269.48919677734375
y: 276.4693908691406
z: -0.20798516273498535
visibility: 0.9999157786369324
","x: 271.4278259277344
y: 272.1849365234375
z: -0.19407163560390472
visibility: 0.9997156262397766
","x: 272.68963623046875
y: 272.42889404296875
z: -0.19407953321933746
visibility: 0.9997190833091736
","x: 273.9362487792969
y: 272.7987365722656
z: -0.1941119134426117
visibility: 0.99970543384552
","x: 268.0254821777344
y: 272.3252258300781
z: -0.19637517631053925
visibility: 0.9996958374977112
","x: 266.968017578125
y: 272.48419189453125
z: -0.19639979302883148
visibility: 0.9996911883354187
","x: 265.97650146484375
y: 272.5726623535156
z: -0.19641776382923126
visibility: 0.9996658563613892
","x: 275.8295593261719
y: 277.5030517578125
z: -0.11115924268960953
visibility: 0.9993689656257629
","x: 265.0273742675781
y: 275.9155578613281
z: -0.12213168293237686
visibility: 0.9992283582687378
","x: 271.8447570800781
y: 282.84027099609375
z: -0.1770205795764923
visibility: 0.9999234676361084
","x: 267.4508056640625
y: 283.5360107421875
z: -0.18051180243492126
visibility: 0.9999058842658997
","x: 287.01763916015625
y: 308.8995361328125
z: -0.05854848027229309
visibility: 0.9999203085899353
","x: 253.3953399658203
y: 310.1131591796875
z: -0.0763409212231636
visibility: 0.999711275100708
","x: 305.1122741699219
y: 320.15313720703125
z: -0.0704343318939209
visibility: 0.9700807332992554
","x: 239.939208984375
y: 335.24261474609375
z: -0.12668107450008392
visibility: 0.8723228573799133
","x: 316.8360290527344
y: 312.8616027832031
z: -0.1701747328042984
visibility: 0.9091179370880127
","x: 240.89964294433594
y: 350.3702392578125
z: -0.26430559158325195
visibility: 0.8097341656684875
","x: 323.3525390625
y: 311.7016296386719
z: -0.19273614883422852
visibility: 0.8482048511505127
","x: 242.2335968017578
y: 359.2638854980469
z: -0.2925408184528351
visibility: 0.7612228393554688
","x: 324.0120849609375
y: 309.57244873046875
z: -0.20982126891613007
visibility: 0.8560538291931152
","x: 246.38070678710938
y: 355.1134033203125
z: -0.29906681180000305
visibility: 0.7675213813781738
","x: 321.7900695800781
y: 311.009521484375
z: -0.18117071688175201
visibility: 0.8263447284698486
","x: 246.35401916503906
y: 352.6373291015625
z: -0.27075380086898804
visibility: 0.7461898326873779
","x: 284.2402648925781
y: 389.4246826171875
z: -0.0029636588878929615
visibility: 0.9996570348739624
","x: 266.50958251953125
y: 390.5732421875
z: 0.0029414331074804068
visibility: 0.9996379613876343
","x: 295.0497741699219
y: 443.9595947265625
z: 0.01619316264986992
visibility: 0.9853754639625549
","x: 272.3122863769531
y: 453.3609619140625
z: -0.019349243491888046
visibility: 0.9633497595787048
","x: 312.3214416503906
y: 488.87060546875
z: 0.167256161570549
visibility: 0.9765180349349976
","x: 275.6501770019531
y: 506.1432189941406
z: 0.15919817984104156
visibility: 0.9562103748321533
","x: 312.9846496582031
y: 492.98992919921875
z: 0.17639146745204926
visibility: 0.825766384601593
","x: 278.36767578125
y: 511.6518859863281
z: 0.16957776248455048
visibility: 0.7919132709503174
","x: 316.98919677734375
y: 503.9135437011719
z: 0.0817665159702301
visibility: 0.9760340452194214
","x: 272.3323669433594
y: 527.0814208984375
z: 0.07432638108730316
visibility: 0.9600277543067932
",,,,,,,,,,,,,,,,,,,,,,,,,,,,,,,,,,,,,,,,,,
22,"x: 269.8990478515625
y: 276.82720947265625
z: -0.2245374470949173
visibility: 0.9999017119407654
","x: 271.6987609863281
y: 272.4013366699219
z: -0.20980247855186462
visibility: 0.9996446371078491
","x: 272.8781433105469
y: 272.6150207519531
z: -0.20982539653778076
visibility: 0.999635636806488
","x: 274.0201721191406
y: 272.9397888183594
z: -0.2098553478717804
visibility: 0.9995800256729126
","x: 268.32708740234375
y: 272.46923828125
z: -0.21631769835948944
visibility: 0.9996671676635742
","x: 267.21942138671875
y: 272.5653991699219
z: -0.21634018421173096
visibility: 0.9996676445007324
","x: 266.1485900878906
y: 272.6602478027344
z: -0.2163861244916916
visibility: 0.9996441602706909
","x: 275.470458984375
y: 277.6044006347656
z: -0.11982445418834686
visibility: 0.9990900754928589
","x: 264.2848205566406
y: 276.5160217285156
z: -0.14846213161945343
visibility: 0.9992517828941345
","x: 272.22589111328125
y: 283.02325439453125
z: -0.1905020773410797
visibility: 0.9999069571495056
","x: 267.8305358886719
y: 283.80120849609375
z: -0.19950264692306519
visibility: 0.9999078512191772
","x: 285.4716491699219
y: 311.5662841796875
z: -0.056856125593185425
visibility: 0.9999105930328369
","x: 252.24893188476562
y: 310.19085693359375
z: -0.09214559942483902
visibility: 0.9997389316558838
","x: 301.7428894042969
y: 337.03314208984375
z: -0.09926530718803406
visibility: 0.9660111665725708
","x: 242.78219604492188
y: 348.49371337890625
z: -0.12415345758199692
visibility: 0.8840786218643188
","x: 301.3564453125
y: 330.9495849609375
z: -0.24401704967021942
visibility: 0.9030722379684448
","x: 252.61505126953125
y: 374.7767333984375
z: -0.20794185996055603
visibility: 0.8246467113494873
","x: 301.2838134765625
y: 334.257080078125
z: -0.2486233413219452
visibility: 0.8401802182197571
","x: 254.80819702148438
y: 385.2586364746094
z: -0.23767800629138947
visibility: 0.7772135734558105
","x: 299.257568359375
y: 331.0649108886719
z: -0.28025752305984497
visibility: 0.8471105694770813
","x: 256.5913391113281
y: 379.8924255371094
z: -0.24814745783805847
visibility: 0.7828407287597656
","x: 299.1921081542969
y: 331.1144714355469
z: -0.2527385354042053
visibility: 0.8153152465820312
","x: 256.18548583984375
y: 375.7073669433594
z: -0.2127833068370819
visibility: 0.7600109577178955
","x: 285.3428649902344
y: 390.0828857421875
z: 0.016262101009488106
visibility: 0.9996479749679565
","x: 267.41912841796875
y: 393.6877746582031
z: -0.01625252328813076
visibility: 0.9996659755706787
","x: 295.2057800292969
y: 442.850341796875
z: 0.052442677319049835
visibility: 0.9854032397270203
","x: 273.1567077636719
y: 453.3648681640625
z: -0.0488511398434639
visibility: 0.9663900136947632
","x: 301.6522216796875
y: 480.4702453613281
z: 0.27833637595176697
visibility: 0.9766579866409302
","x: 275.3611755371094
y: 506.2234802246094
z: 0.10390175879001617
visibility: 0.959977924823761
","x: 301.4715270996094
y: 486.2960510253906
z: 0.2969419062137604
visibility: 0.8324403762817383
","x: 277.4952087402344
y: 513.9832153320312
z: 0.11318729817867279
visibility: 0.8033535480499268
","x: 305.9403381347656
y: 501.2279052734375
z: 0.21927161514759064
visibility: 0.9759068489074707
","x: 273.7285461425781
y: 524.578857421875
z: 0.008811705745756626
visibility: 0.962875247001648
",,,,,,,,,,,,,,,,,,,,,,,,,,,,,,,,,,,,,,,,,,
23,"x: 270.14208984375
y: 280.78289794921875
z: -0.1923188865184784
visibility: 0.9997084736824036
","x: 271.4670104980469
y: 274.28289794921875
z: -0.17593464255332947
visibility: 0.9991453289985657
","x: 272.5332336425781
y: 273.6453552246094
z: -0.17595019936561584
visibility: 0.9989282488822937
","x: 273.5574035644531
y: 273.0493469238281
z: -0.1759718358516693
visibility: 0.9988569021224976
","x: 268.11297607421875
y: 276.6846618652344
z: -0.18459375202655792
visibility: 0.9994780421257019
","x: 266.9216003417969
y: 277.6360778808594
z: -0.1846388429403305
visibility: 0.999434232711792
","x: 265.7418212890625
y: 278.58319091796875
z: -0.1847449243068695
visibility: 0.9994577765464783
","x: 274.8255615234375
y: 278.1070251464844
z: -0.08435813337564468
visibility: 0.9974856972694397
","x: 263.6864929199219
y: 282.50836181640625
z: -0.12287954241037369
visibility: 0.9988963007926941
","x: 272.3086853027344
y: 286.50018310546875
z: -0.1573357731103897
visibility: 0.9995205402374268
","x: 268.016845703125
y: 288.4574279785156
z: -0.16843266785144806
visibility: 0.999782383441925
","x: 284.46795654296875
y: 315.0692443847656
z: -0.011918360367417336
visibility: 0.9982317686080933
","x: 253.04403686523438
y: 312.4261474609375
z: -0.09264633059501648
visibility: 0.9997266530990601
","x: 287.01239013671875
y: 353.220458984375
z: 0.0299709290266037
visibility: 0.8782864809036255
","x: 244.38296508789062
y: 354.4952697753906
z: -0.10062296688556671
visibility: 0.8942733407020569
","x: 288.26336669921875
y: 360.45452880859375
z: -0.05947995185852051
visibility: 0.8228038549423218
","x: 254.62872314453125
y: 390.03863525390625
z: -0.15408585965633392
visibility: 0.8305727243423462
","x: 287.7846374511719
y: 366.72357177734375
z: -0.07606830447912216
visibility: 0.7698850035667419
","x: 257.37322998046875
y: 401.2880859375
z: -0.17184916138648987
visibility: 0.7785771489143372
","x: 286.9165954589844
y: 356.4608154296875
z: -0.098216712474823
visibility: 0.7775512337684631
","x: 259.2621154785156
y: 398.17828369140625
z: -0.1796678900718689
visibility: 0.7834973335266113
","x: 286.85693359375
y: 355.8448791503906
z: -0.07088728249073029
visibility: 0.7468774318695068
","x: 258.5625
y: 393.8375549316406
z: -0.1567022204399109
visibility: 0.7569763660430908
","x: 285.9842529296875
y: 397.4583740234375
z: 0.024976516142487526
visibility: 0.999312698841095
","x: 270.49591064453125
y: 401.29254150390625
z: -0.024895457550883293
visibility: 0.9995431900024414
","x: 294.2004089355469
y: 444.17596435546875
z: -0.16306816041469574
visibility: 0.982373833656311
","x: 275.5504150390625
y: 453.7792663574219
z: -0.0289264228194952
visibility: 0.9601779580116272
","x: 281.23468017578125
y: 472.31280517578125
z: -0.010001103393733501
visibility: 0.9586663842201233
","x: 276.88629150390625
y: 506.355224609375
z: 0.12846700847148895
visibility: 0.9544309377670288
","x: 273.650146484375
y: 468.64453125
z: 0.003891593310981989
visibility: 0.8295016288757324
","x: 277.764404296875
y: 515.0584716796875
z: 0.13850758969783783
visibility: 0.7991513013839722
","x: 279.5999450683594
y: 490.960693359375
z: -0.06395469605922699
visibility: 0.9652432799339294
","x: 274.1230773925781
y: 524.3482055664062
z: 0.0476854182779789
visibility: 0.9524965286254883
",,,,,,,,,,,,,,,,,,,,,,,,,,,,,,,,,,,,,,,,,,
24,"x: 272.2946472167969
y: 293.15765380859375
z: -0.19278809428215027
visibility: 0.9996901154518127
","x: 273.0354919433594
y: 287.895751953125
z: -0.17758560180664062
visibility: 0.9990413188934326
","x: 273.9269104003906
y: 287.8052062988281
z: -0.17761598527431488
visibility: 0.9988501071929932
","x: 274.781982421875
y: 287.6896057128906
z: -0.17764617502689362
visibility: 0.9987691640853882
","x: 270.1871643066406
y: 288.53179931640625
z: -0.18371829390525818
visibility: 0.9994137287139893
","x: 269.1023864746094
y: 288.9172668457031
z: -0.1837357133626938
visibility: 0.9993654489517212
","x: 268.0700988769531
y: 289.34332275390625
z: -0.1838085949420929
visibility: 0.9993862509727478
","x: 275.03704833984375
y: 290.24652099609375
z: -0.08653095364570618
visibility: 0.9972564578056335
","x: 265.42974853515625
y: 291.9838562011719
z: -0.11486729234457016
visibility: 0.998852014541626
","x: 273.64935302734375
y: 297.796875
z: -0.15788985788822174
visibility: 0.9994934797286987
","x: 270.1965637207031
y: 298.7192077636719
z: -0.16619624197483063
visibility: 0.9997696876525879
","x: 284.8026428222656
y: 319.2139892578125
z: -0.022918308153748512
visibility: 0.9982990622520447
","x: 255.2491912841797
y: 319.6022644042969
z: -0.058216530829668045
visibility: 0.999735951423645
","x: 291.87225341796875
y: 351.940673828125
z: -0.035482633858919144
visibility: 0.8756243586540222
","x: 246.75253295898438
y: 356.2504577636719
z: -0.004243186675012112
visibility: 0.9032396078109741
","x: 290.35162353515625
y: 353.3490295410156
z: -0.17552301287651062
visibility: 0.8138748407363892
","x: 256.2606201171875
y: 387.1512451171875
z: -0.015406291000545025
visibility: 0.8388502597808838
","x: 290.1587219238281
y: 350.9389953613281
z: -0.20392835140228271
visibility: 0.7578936815261841
","x: 258.1846618652344
y: 397.155029296875
z: -0.024812232702970505
visibility: 0.783237874507904
","x: 289.38739013671875
y: 343.19403076171875
z: -0.21785835921764374
visibility: 0.7657848000526428
","x: 260.229248046875
y: 394.7480773925781
z: -0.040459826588630676
visibility: 0.7881749868392944
","x: 288.0916748046875
y: 344.337646484375
z: -0.18541543185710907
visibility: 0.7330934405326843
","x: 259.8740539550781
y: 391.42718505859375
z: -0.020140251144766808
visibility: 0.76083904504776
","x: 284.3586730957031
y: 400.08673095703125
z: 0.01655977964401245
visibility: 0.9992603063583374
","x: 269.7342224121094
y: 400.9237365722656
z: -0.016510343179106712
visibility: 0.9995453953742981
","x: 291.6376647949219
y: 454.22247314453125
z: -0.07466710358858109
visibility: 0.980129599571228
","x: 276.3814697265625
y: 453.8960266113281
z: -0.02737114205956459
visibility: 0.9609631299972534
","x: 264.7235412597656
y: 484.3875427246094
z: 0.11154357343912125
visibility: 0.954944372177124
","x: 277.7054748535156
y: 506.212158203125
z: 0.14381159842014313
visibility: 0.9568437337875366
","x: 258.4933166503906
y: 474.98968505859375
z: 0.12584176659584045
visibility: 0.8371397852897644
","x: 278.5634460449219
y: 514.8033447265625
z: 0.15436014533042908
visibility: 0.810279130935669
","x: 264.77801513671875
y: 513.5389404296875
z: 0.03312721848487854
visibility: 0.9616997838020325
","x: 276.3021545410156
y: 522.7880249023438
z: 0.058415524661540985
visibility: 0.9540387392044067
",,,,,,,,,,,,,,,,,,,,,,,,,,,,,,,,,,,,,,,,,,
25,"x: 272.5731201171875
y: 295.1146240234375
z: -0.1735040694475174
visibility: 0.9997201561927795
","x: 273.3200988769531
y: 290.00555419921875
z: -0.15411309897899628
visibility: 0.9991337656974792
","x: 274.31597900390625
y: 289.8317565917969
z: -0.15414775907993317
visibility: 0.9989604949951172
","x: 275.3283996582031
y: 289.7301025390625
z: -0.15417107939720154
visibility: 0.998887300491333
","x: 270.4413146972656
y: 291.0145263671875
z: -0.160847008228302
visibility: 0.9994703531265259
","x: 269.3382568359375
y: 291.6217346191406
z: -0.16086167097091675
visibility: 0.9994267225265503
","x: 268.2371520996094
y: 292.3747863769531
z: -0.1608966439962387
visibility: 0.9994454979896545
","x: 275.5673522949219
y: 293.49298095703125
z: -0.05020300671458244
visibility: 0.9975153803825378
","x: 265.488037109375
y: 296.5780029296875
z: -0.081988625228405
visibility: 0.9989635348320007
","x: 274.2663269042969
y: 301.0643615722656
z: -0.13456693291664124
visibility: 0.9995411038398743
","x: 270.63836669921875
y: 302.30560302734375
z: -0.14372621476650238
visibility: 0.9997912645339966
","x: 284.88287353515625
y: 326.34173583984375
z: 0.040256891399621964
visibility: 0.9984635710716248
","x: 257.59686279296875
y: 323.3044738769531
z: -0.06207815930247307
visibility: 0.9997605681419373
","x: 293.1677551269531
y: 355.6533203125
z: 0.08098550885915756
visibility: 0.8736809492111206
","x: 249.14056396484375
y: 357.078369140625
z: -0.10892746597528458
visibility: 0.9100332856178284
","x: 310.3606872558594
y: 368.6898498535156
z: -0.0046060895547270775
visibility: 0.8254942297935486
","x: 257.145263671875
y: 387.0098876953125
z: -0.2536686360836029
visibility: 0.8483468294143677
","x: 315.30950927734375
y: 372.56109619140625
z: -0.020883232355117798
visibility: 0.7727711796760559
","x: 258.256591796875
y: 397.70086669921875
z: -0.2865684926509857
visibility: 0.7944260239601135
","x: 315.1506652832031
y: 370.1819152832031
z: -0.0443098209798336
visibility: 0.7811028361320496
","x: 262.06207275390625
y: 394.9250793457031
z: -0.2963731586933136
visibility: 0.7992196679115295
","x: 313.0899353027344
y: 369.1415100097656
z: -0.01682865247130394
visibility: 0.7503587007522583
","x: 262.0985412597656
y: 391.6380615234375
z: -0.25982171297073364
visibility: 0.7721889615058899
","x: 280.5986328125
y: 406.39276123046875
z: 0.042056404054164886
visibility: 0.9993018507957458
","x: 266.8604736328125
y: 404.8819580078125
z: -0.0420878641307354
visibility: 0.9995810985565186
","x: 275.808349609375
y: 463.92352294921875
z: 0.048822320997714996
visibility: 0.9605765342712402
","x: 277.0704650878906
y: 454.07879638671875
z: -0.1579679697751999
visibility: 0.962866485118866
","x: 251.81817626953125
y: 500.41546630859375
z: 0.22851160168647766
visibility: 0.9481688737869263
","x: 273.7657470703125
y: 504.49200439453125
z: -0.05119055509567261
visibility: 0.9595082998275757
","x: 245.99435424804688
y: 501.8268127441406
z: 0.24287447333335876
visibility: 0.8348453044891357
","x: 271.501708984375
y: 512.4071655273438
z: -0.043326057493686676
visibility: 0.8223980069160461
","x: 258.2735900878906
y: 526.9846801757812
z: 0.1842440515756607
visibility: 0.9554254412651062
","x: 275.3782958984375
y: 521.8970947265625
z: -0.12991076707839966
visibility: 0.9572882056236267
",,,,,,,,,,,,,,,,,,,,,,,,,,,,,,,,,,,,,,,,,,
26,"x: 275.24462890625
y: 294.3152160644531
z: -0.16770629584789276
visibility: 0.9997427463531494
","x: 276.3433837890625
y: 289.6568908691406
z: -0.14894863963127136
visibility: 0.9992095828056335
","x: 277.51849365234375
y: 289.58624267578125
z: -0.14895865321159363
visibility: 0.999049961566925
","x: 278.66802978515625
y: 289.58782958984375
z: -0.14895404875278473
visibility: 0.9989856481552124
","x: 273.0809326171875
y: 290.6123046875
z: -0.1546223759651184
visibility: 0.9995163083076477
","x: 271.94647216796875
y: 291.26324462890625
z: -0.15465863049030304
visibility: 0.9994761943817139
","x: 270.8235778808594
y: 292.02130126953125
z: -0.15472052991390228
visibility: 0.9994946122169495
","x: 279.70635986328125
y: 293.3438415527344
z: -0.049761202186346054
visibility: 0.9977306127548218
","x: 269.0585632324219
y: 295.9792175292969
z: -0.07601995021104813
visibility: 0.9990575909614563
","x: 277.0538635253906
y: 300.2076416015625
z: -0.13105671107769012
visibility: 0.9995802044868469
","x: 273.4573059082031
y: 301.7716369628906
z: -0.13869056105613708
visibility: 0.9998085498809814
","x: 288.869873046875
y: 327.21484375
z: 0.02763686515390873
visibility: 0.99854576587677
","x: 260.2312927246094
y: 326.23419189453125
z: -0.05009876564145088
visibility: 0.9997702836990356
","x: 292.75665283203125
y: 365.4432373046875
z: 0.08633406460285187
visibility: 0.8624466061592102
","x: 253.32069396972656
y: 364.26776123046875
z: -0.0775613784790039
visibility: 0.9170482754707336
","x: 301.2115173339844
y: 390.32696533203125
z: 0.0331261083483696
visibility: 0.8104967474937439
","x: 260.5635986328125
y: 380.576904296875
z: -0.19822505116462708
visibility: 0.8589019179344177
","x: 303.44622802734375
y: 402.1217346191406
z: 0.022387390956282616
visibility: 0.7578511238098145
","x: 263.2444152832031
y: 388.9306335449219
z: -0.22966063022613525
visibility: 0.8074280619621277
","x: 303.5995178222656
y: 401.66015625
z: 0.0002682481426745653
visibility: 0.7668914794921875
","x: 265.1407775878906
y: 383.135498046875
z: -0.23890450596809387
visibility: 0.8120185732841492
","x: 301.5616455078125
y: 396.5169982910156
z: 0.023201677948236465
visibility: 0.73798006772995
","x: 264.91552734375
y: 381.1692810058594
z: -0.20324166119098663
visibility: 0.7858080863952637
","x: 281.47027587890625
y: 410.7742919921875
z: 0.032665956765413284
visibility: 0.9993605017662048
","x: 267.61578369140625
y: 408.393310546875
z: -0.032727740705013275
visibility: 0.9996173977851868
","x: 282.76434326171875
y: 467.46746826171875
z: -0.0304097943007946
visibility: 0.9633530974388123
","x: 276.0797424316406
y: 464.2996826171875
z: -0.07224211096763611
visibility: 0.9657009243965149
","x: 262.4452209472656
y: 495.6329040527344
z: 0.1890748143196106
visibility: 0.949795126914978
","x: 274.2862854003906
y: 504.5968322753906
z: -0.046669408679008484
visibility: 0.9624038338661194
","x: 256.8575134277344
y: 490.83544921875
z: 0.2191183865070343
visibility: 0.8432120680809021
","x: 272.8831481933594
y: 512.3975830078125
z: 0.03699455410242081
visibility: 0.8312599062919617
","x: 263.3320617675781
y: 521.28271484375
z: 0.13248243927955627
visibility: 0.9563901424407959
","x: 275.3437805175781
y: 522.1239624023438
z: 0.02494889684021473
visibility: 0.9601258635520935
",,,,,,,,,,,,,,,,,,,,,,,,,,,,,,,,,,,,,,,,,,
27,"x: 281.0780334472656
y: 292.315673828125
z: -0.14278696477413177
visibility: 0.9997519254684448
","x: 281.8804931640625
y: 287.61029052734375
z: -0.12505969405174255
visibility: 0.999259352684021
","x: 282.9577331542969
y: 287.5946044921875
z: -0.12508530914783478
visibility: 0.9991110563278198
","x: 283.991943359375
y: 287.650390625
z: -0.1250952184200287
visibility: 0.9990508556365967
","x: 278.4261169433594
y: 288.42486572265625
z: -0.12836959958076477
visibility: 0.999535858631134
","x: 277.1251525878906
y: 289.0047912597656
z: -0.12839117646217346
visibility: 0.9994996190071106
","x: 275.84014892578125
y: 289.6646728515625
z: -0.12845127284526825
visibility: 0.9995158910751343
","x: 285.2703552246094
y: 291.50885009765625
z: -0.03555605188012123
visibility: 0.9978848695755005
","x: 274.19927978515625
y: 293.7400207519531
z: -0.048741184175014496
visibility: 0.9991155862808228
","x: 283.5429382324219
y: 298.3113708496094
z: -0.10991226136684418
visibility: 0.9996010065078735
","x: 279.05029296875
y: 299.5903625488281
z: -0.11375249922275543
visibility: 0.9998135566711426
","x: 293.58209228515625
y: 326.13775634765625
z: 0.0233844593167305
visibility: 0.9985821843147278
","x: 265.9698181152344
y: 324.4387512207031
z: -0.04928279668092728
visibility: 0.9997715950012207
","x: 293.86187744140625
y: 362.42138671875
z: 0.006932983640581369
visibility: 0.8379587531089783
","x: 264.90338134765625
y: 362.15997314453125
z: -0.12318585813045502
visibility: 0.9246346354484558
","x: 299.0009765625
y: 376.4649658203125
z: -0.0940261036157608
visibility: 0.7985019683837891
","x: 285.31396484375
y: 364.8332214355469
z: -0.23519626259803772
visibility: 0.8717297911643982
","x: 299.5635681152344
y: 383.18212890625
z: -0.10436755418777466
visibility: 0.7508994936943054
","x: 290.4468688964844
y: 365.4966735839844
z: -0.26525136828422546
visibility: 0.8240688443183899
","x: 299.19232177734375
y: 380.14306640625
z: -0.12913431227207184
visibility: 0.7600992918014526
","x: 291.9014892578125
y: 360.68963623046875
z: -0.26441437005996704
visibility: 0.8280088305473328
","x: 298.33721923828125
y: 377.40960693359375
z: -0.10419243574142456
visibility: 0.7290198802947998
","x: 289.89874267578125
y: 360.2273864746094
z: -0.23581960797309875
visibility: 0.8024531602859497
","x: 288.3712158203125
y: 407.53900146484375
z: 0.027307629585266113
visibility: 0.9994191527366638
","x: 271.3452453613281
y: 406.7515563964844
z: -0.027309248223900795
visibility: 0.9996472001075745
","x: 303.86285400390625
y: 454.3750305175781
z: -0.13143453001976013
visibility: 0.9666557312011719
","x: 275.912353515625
y: 462.7284240722656
z: -0.044458456337451935
visibility: 0.9687052369117737
","x: 290.95257568359375
y: 496.9018249511719
z: 0.004660647362470627
visibility: 0.9541986584663391
","x: 274.8257141113281
y: 505.3902587890625
z: 0.124118372797966
visibility: 0.9652181267738342
","x: 285.97906494140625
y: 501.1282958984375
z: 0.014643537811934948
visibility: 0.8564740419387817
","x: 274.3338623046875
y: 512.3878173828125
z: 0.1476915329694748
visibility: 0.8349185585975647
","x: 304.6956787109375
y: 518.7787475585938
z: -0.0665765330195427
visibility: 0.9599490165710449
","x: 275.20806884765625
y: 523.3626708984375
z: 0.0773036926984787
visibility: 0.9624798893928528
",,,,,,,,,,,,,,,,,,,,,,,,,,,,,,,,,,,,,,,,,,
28,"x: 286.4252624511719
y: 293.13507080078125
z: -0.15017661452293396
visibility: 0.9997634887695312
","x: 287.1268310546875
y: 288.0685119628906
z: -0.134949192404747
visibility: 0.9993009567260742
","x: 288.0778503417969
y: 288.0048522949219
z: -0.13496458530426025
visibility: 0.9991663098335266
","x: 288.967041015625
y: 288.0184326171875
z: -0.13498036563396454
visibility: 0.9991104006767273
","x: 284.1679382324219
y: 288.9166259765625
z: -0.14021804928779602
visibility: 0.9995492696762085
","x: 282.9884338378906
y: 289.4725341796875
z: -0.14024634659290314
visibility: 0.9995130896568298
","x: 281.8096618652344
y: 290.1397399902344
z: -0.14031198620796204
visibility: 0.9995161890983582
","x: 289.7043762207031
y: 291.5078430175781
z: -0.046234700828790665
visibility: 0.9980100989341736
","x: 279.93487548828125
y: 293.98297119140625
z: -0.06721232831478119
visibility: 0.9991271495819092
","x: 288.6886291503906
y: 298.9682922363281
z: -0.115772545337677
visibility: 0.9996088743209839
","x: 284.6521301269531
y: 299.8540954589844
z: -0.12207870185375214
visibility: 0.9997872710227966
","x: 299.0962219238281
y: 325.2236633300781
z: 0.02526063658297062
visibility: 0.998702883720398
","x: 274.5754699707031
y: 323.59869384765625
z: -0.06188762187957764
visibility: 0.9997808933258057
","x: 298.8127746582031
y: 362.7694091796875
z: 0.022111888974905014
visibility: 0.8129210472106934
","x: 282.85260009765625
y: 358.8142395019531
z: -0.1503537893295288
visibility: 0.9288962483406067
","x: 299.5558166503906
y: 396.77435302734375
z: -0.056355349719524384
visibility: 0.7674126625061035
","x: 297.7900695800781
y: 378.1307678222656
z: -0.2370026409626007
visibility: 0.8756558895111084
","x: 300.12420654296875
y: 408.88616943359375
z: -0.07501866668462753
visibility: 0.7181972861289978
","x: 299.138427734375
y: 383.0975341796875
z: -0.26744285225868225
visibility: 0.8264767527580261
","x: 299.1468811035156
y: 408.1722717285156
z: -0.09325389564037323
visibility: 0.7283128499984741
","x: 301.24420166015625
y: 381.7897033691406
z: -0.27008378505706787
visibility: 0.8294385671615601
","x: 298.35089111328125
y: 402.987060546875
z: -0.06567582488059998
visibility: 0.6946554183959961
","x: 300.59527587890625
y: 379.2797546386719
z: -0.2391723096370697
visibility: 0.7985387444496155
","x: 295.9050598144531
y: 406.3941955566406
z: 0.0244146715849638
visibility: 0.9994755983352661
","x: 278.9232482910156
y: 405.8150939941406
z: -0.02437547966837883
visibility: 0.999677836894989
","x: 313.0394287109375
y: 448.48797607421875
z: -0.14407210052013397
visibility: 0.9697608351707458
","x: 277.98138427734375
y: 462.66473388671875
z: 0.045452848076820374
visibility: 0.970552384853363
","x: 323.14031982421875
y: 508.60528564453125
z: -0.11945277452468872
visibility: 0.9584993124008179
","x: 276.0958557128906
y: 506.0052185058594
z: 0.22685451805591583
visibility: 0.967217743396759
","x: 318.5040283203125
y: 520.4411010742188
z: -0.12208984792232513
visibility: 0.8681333065032959
","x: 276.05072021484375
y: 513.185546875
z: 0.24028818309307098
visibility: 0.8315405249595642
","x: 331.6643371582031
y: 525.3118286132812
z: -0.23749995231628418
visibility: 0.9634889960289001
","x: 275.0478210449219
y: 523.7054443359375
z: 0.15239091217517853
visibility: 0.9642108082771301
",,,,,,,,,,,,,,,,,,,,,,,,,,,,,,,,,,,,,,,,,,
29,"x: 294.509033203125
y: 292.178466796875
z: -0.2119586169719696
visibility: 0.9997810125350952
","x: 294.8531494140625
y: 287.19403076171875
z: -0.1953181028366089
visibility: 0.9993575215339661
","x: 295.7406005859375
y: 287.1581726074219
z: -0.19532188773155212
visibility: 0.9992310404777527
","x: 296.60150146484375
y: 287.1980895996094
z: -0.19539645314216614
visibility: 0.9991773366928101
","x: 292.05108642578125
y: 287.98040771484375
z: -0.20518319308757782
visibility: 0.9995864033699036
","x: 290.9495849609375
y: 288.50909423828125
z: -0.20523011684417725
visibility: 0.9995545744895935
","x: 289.76513671875
y: 289.1370849609375
z: -0.20531876385211945
visibility: 0.9995570182800293
","x: 297.7143249511719
y: 290.8071594238281
z: -0.10260337591171265
visibility: 0.9981779456138611
","x: 287.421875
y: 293.0542907714844
z: -0.14454154670238495
visibility: 0.999204695224762
","x: 296.70526123046875
y: 298.1005859375
z: -0.17692191898822784
visibility: 0.9996305704116821
","x: 293.05181884765625
y: 298.97235107421875
z: -0.18947020173072815
visibility: 0.9997953176498413
","x: 308.4525146484375
y: 325.1330261230469
z: 0.0007236851961351931
visibility: 0.9987794160842896
","x: 280.5692443847656
y: 325.040771484375
z: -0.11674448102712631
visibility: 0.999771773815155
","x: 310.4411315917969
y: 349.20611572265625
z: 0.14304259419441223
visibility: 0.7678868174552917
","x: 269.2065124511719
y: 360.5471496582031
z: -0.15130850672721863
visibility: 0.9354047775268555
","x: 314.0443115234375
y: 367.6474609375
z: 0.21473078429698944
visibility: 0.7453548312187195
","x: 256.1578674316406
y: 378.4841613769531
z: -0.2250758409500122
visibility: 0.8864678144454956
","x: 315.4488525390625
y: 371.48626708984375
z: 0.23043414950370789
visibility: 0.6962730884552002
","x: 249.19381713867188
y: 383.2037048339844
z: -0.2467954456806183
visibility: 0.8396028876304626
","x: 315.0103759765625
y: 367.0413818359375
z: 0.20815753936767578
visibility: 0.7099875211715698
","x: 250.16355895996094
y: 383.0633850097656
z: -0.2626761496067047
visibility: 0.8427041172981262
","x: 314.45263671875
y: 366.05291748046875
z: 0.2079848051071167
visibility: 0.6782082319259644
","x: 253.398681640625
y: 381.36724853515625
z: -0.23392045497894287
visibility: 0.8133379220962524
","x: 308.164794921875
y: 405.892822265625
z: 0.026610802859067917
visibility: 0.9995266199111938
","x: 289.9407653808594
y: 405.61846923828125
z: -0.02669380232691765
