uscmakers/ReverseChoreography/data/7_ymca_village_people.csv
,NOSE,LEFT_EYE_INNER,LEFT_EYE,LEFT_EYE_OUTER,RIGHT_EYE_INNER,RIGHT_EYE,RIGHT_EYE_OUTER,LEFT_EAR,RIGHT_EAR,MOUTH_LEFT,MOUTH_RIGHT,LEFT_SHOULDER,RIGHT_SHOULDER,LEFT_ELBOW,RIGHT_ELBOW,LEFT_WRIST,RIGHT_WRIST,LEFT_PINKY,RIGHT_PINKY,LEFT_INDEX,RIGHT_INDEX,LEFT_THUMB,RIGHT_THUMB,LEFT_HIP,RIGHT_HIP,LEFT_KNEE,RIGHT_KNEE,LEFT_ANKLE,RIGHT_ANKLE,LEFT_HEEL,RIGHT_HEEL,LEFT_FOOT_INDEX,RIGHT_FOOT_INDEX,WRIST2,THUMB_CPC2,THUMB_MCP2,THUMB_IP2,THUMB_TIP2,INDEX_FINGER_MCP2,INDEX_FINGER_PIP2,INDEX_FINGER_DIP2,INDEX_FINGER_TIP2,MIDDLE_FINGER_MCP2,MIDDLE_FINGER_PIP2,MIDDLE_FINGER_DIP2,MIDDLE_FINGER_TIP2,RING_FINGER_PIP2,RING_FINGER_DIP2,RING_FINGER_TIP2,RING_FINGER_MCP2,PINKY_MCP2,PINKY_PIP2,PINKY_DIP2,PINKY_TIP2,WRIST,THUMB_CPC,THUMB_MCP,THUMB_IP,THUMB_TIP,INDEX_FINGER_MCP,INDEX_FINGER_PIP,INDEX_FINGER_DIP,INDEX_FINGER_TIP,MIDDLE_FINGER_MCP,MIDDLE_FINGER_PIP,MIDDLE_FINGER_DIP,MIDDLE_FINGER_TIP,RING_FINGER_PIP,RING_FINGER_DIP,RING_FINGER_TIP,RING_FINGER_MCP,PINKY_MCP,PINKY_PIP,PINKY_DIP,PINKY_TIP
0,"x: 253.371337890625
y: 291.1899108886719
z: -0.23570998013019562
visibility: 0.9998712539672852
","x: 254.60890197753906
y: 285.88958740234375
z: -0.22346873581409454
visibility: 0.9996596574783325
","x: 255.37696838378906
y: 285.5829162597656
z: -0.22351093590259552
visibility: 0.9996408224105835
","x: 256.16796875
y: 285.31390380859375
z: -0.22354979813098907
visibility: 0.9996625185012817
","x: 252.5044403076172
y: 286.9473876953125
z: -0.22454872727394104
visibility: 0.9995666146278381
","x: 251.7916259765625
y: 287.26519775390625
z: -0.22455577552318573
visibility: 0.9995224475860596
","x: 251.07785034179688
y: 287.579833984375
z: -0.22454455494880676
visibility: 0.9995399713516235
","x: 258.1748046875
y: 287.5903015136719
z: -0.1381651908159256
visibility: 0.9989049434661865
","x: 250.4771270751953
y: 289.46783447265625
z: -0.14443039894104004
visibility: 0.9990460276603699
","x: 255.1761016845703
y: 295.78387451171875
z: -0.20370550453662872
visibility: 0.9997816681861877
","x: 252.32998657226562
y: 297.0001220703125
z: -0.2055860310792923
visibility: 0.9997928738594055
","x: 268.5781555175781
y: 315.38397216796875
z: -0.09773974865674973
visibility: 0.9998859167098999
","x: 240.73660278320312
y: 313.6324768066406
z: -0.09785299003124237
visibility: 0.9999171495437622
","x: 277.66534423828125
y: 339.07440185546875
z: -0.1960596740245819
visibility: 0.9735108017921448
","x: 237.64846801757812
y: 347.51904296875
z: -0.15570664405822754
visibility: 0.9791688323020935
","x: 279.4162292480469
y: 336.3590087890625
z: -0.38836580514907837
visibility: 0.9578834772109985
","x: 231.80126953125
y: 367.9764099121094
z: -0.297616183757782
visibility: 0.9349145889282227
","x: 279.6692199707031
y: 336.8984375
z: -0.4351772367954254
visibility: 0.9236117005348206
","x: 229.678466796875
y: 374.93084716796875
z: -0.33616384863853455
visibility: 0.8913222551345825
","x: 277.3697204589844
y: 332.1630859375
z: -0.4445163607597351
visibility: 0.9291930198669434
","x: 232.76637268066406
y: 373.31365966796875
z: -0.3482150435447693
visibility: 0.8954081535339355
","x: 276.7303161621094
y: 332.86614990234375
z: -0.39860573410987854
visibility: 0.9083198308944702
","x: 234.21206665039062
y: 370.6300354003906
z: -0.30748215317726135
visibility: 0.8663199543952942
","x: 261.1775207519531
y: 396.94580078125
z: 0.004226191435009241
visibility: 0.9998670816421509
","x: 246.4083251953125
y: 395.1513977050781
z: -0.004277379252016544
visibility: 0.9999312162399292
","x: 266.66162109375
y: 433.4176940917969
z: 0.0743744745850563
visibility: 0.9184045791625977
","x: 243.92323303222656
y: 436.388916015625
z: -0.012161084450781345
visibility: 0.9803540110588074
","x: 275.7505798339844
y: 481.5873718261719
z: 0.2338971346616745
visibility: 0.925317645072937
","x: 235.0132598876953
y: 485.5386047363281
z: 0.12389810383319855
visibility: 0.9586154222488403
","x: 275.3272705078125
y: 489.6838073730469
z: 0.24624785780906677
visibility: 0.7698970437049866
","x: 233.6477508544922
y: 490.6396484375
z: 0.13334478437900543
visibility: 0.6977555751800537
","x: 282.8019714355469
y: 494.60198974609375
z: 0.16277815401554108
visibility: 0.9161655902862549
","x: 233.98399353027344
y: 497.0272521972656
z: 0.03991692140698433
visibility: 0.9405255913734436
",,,,,,,,,,,,,,,,,,,,,,,,,,,,,,,,,,,,,,,,,,
1,"x: 252.38087463378906
y: 291.2549743652344
z: -0.1886831820011139
visibility: 0.9998064637184143
","x: 254.3506622314453
y: 286.5399475097656
z: -0.18333032727241516
visibility: 0.9992383718490601
","x: 255.12754821777344
y: 286.48492431640625
z: -0.18336214125156403
visibility: 0.9993380904197693
","x: 255.9414520263672
y: 286.4532470703125
z: -0.1833612620830536
visibility: 0.9992440342903137
","x: 252.46621704101562
y: 287.04296875
z: -0.17482323944568634
visibility: 0.9992457032203674
","x: 251.79989624023438
y: 287.28741455078125
z: -0.17482103407382965
visibility: 0.9992157816886902
","x: 251.20980834960938
y: 287.5711669921875
z: -0.1748349368572235
visibility: 0.9991755485534668
","x: 257.8869323730469
y: 290.01812744140625
z: -0.1341538280248642
visibility: 0.9981319904327393
","x: 251.16250610351562
y: 289.5818786621094
z: -0.09666911512613297
visibility: 0.9984982013702393
","x: 253.6884765625
y: 295.96478271484375
z: -0.16986992955207825
visibility: 0.9991881847381592
","x: 251.33213806152344
y: 296.8542785644531
z: -0.1589621603488922
visibility: 0.9994907975196838
","x: 264.7039794921875
y: 313.5194091796875
z: -0.1272142082452774
visibility: 0.999866783618927
","x: 240.9296875
y: 316.6689147949219
z: -0.01970967836678028
visibility: 0.999880313873291
","x: 275.7345275878906
y: 282.5452880859375
z: -0.19975128769874573
visibility: 0.9759710431098938
","x: 234.25997924804688
y: 347.54071044921875
z: 0.03848661109805107
visibility: 0.9650822281837463
","x: 281.8059387207031
y: 254.022705078125
z: -0.2865610718727112
visibility: 0.96164470911026
","x: 225.82630920410156
y: 372.1684265136719
z: 0.011788696981966496
visibility: 0.927595853805542
","x: 285.3674011230469
y: 245.18161010742188
z: -0.3158780634403229
visibility: 0.929638147354126
","x: 223.0993194580078
y: 380.6015625
z: 0.00915077980607748
visibility: 0.8771085739135742
","x: 284.9464111328125
y: 244.26898193359375
z: -0.3231477439403534
visibility: 0.9346330165863037
","x: 223.5033721923828
y: 381.28839111328125
z: -0.013421664014458656
visibility: 0.8826947212219238
","x: 283.50836181640625
y: 247.99501037597656
z: -0.29436683654785156
visibility: 0.9156365990638733
","x: 224.91641235351562
y: 378.6120300292969
z: 0.0014696076977998018
visibility: 0.8570427894592285
","x: 257.91326904296875
y: 391.1326599121094
z: -0.02784385159611702
visibility: 0.9998619556427002
","x: 244.12911987304688
y: 391.9918212890625
z: 0.02781086601316929
visibility: 0.9999203681945801
","x: 263.9244079589844
y: 433.2271728515625
z: -0.0062894150614738464
visibility: 0.9256772994995117
","x: 241.2993621826172
y: 436.60382080078125
z: 0.023090630769729614
visibility: 0.9809226393699646
","x: 275.0456237792969
y: 480.65875244140625
z: 0.08703561127185822
visibility: 0.9321274757385254
","x: 234.22085571289062
y: 485.2416687011719
z: 0.12554864585399628
visibility: 0.961778998374939
","x: 275.3061218261719
y: 487.006103515625
z: 0.09186936914920807
visibility: 0.7835652828216553
","x: 233.91270446777344
y: 490.86102294921875
z: 0.13311120867729187
visibility: 0.7220186591148376
","x: 275.9647521972656
y: 493.6905212402344
z: 0.004234269727021456
visibility: 0.9237309694290161
","x: 229.9296875
y: 496.60284423828125
z: 0.04813213646411896
visibility: 0.9453381896018982
",,,,,,,,,,,,,,,,,,,,,,,,,,,,,,,,,,,,,,,,,,
2,"x: 252.91554260253906
y: 291.33038330078125
z: -0.19891810417175293
visibility: 0.9997933506965637
","x: 255.19036865234375
y: 286.848388671875
z: -0.18990233540534973
visibility: 0.9991284608840942
","x: 255.95343017578125
y: 286.9573669433594
z: -0.1899302899837494
visibility: 0.9992608428001404
","x: 256.7415771484375
y: 287.1173400878906
z: -0.1899268925189972
visibility: 0.9991323947906494
","x: 253.29122924804688
y: 287.0828552246094
z: -0.1849694699048996
visibility: 0.9991714954376221
","x: 252.66554260253906
y: 287.30181884765625
z: -0.18498237431049347
visibility: 0.9991406798362732
","x: 252.10389709472656
y: 287.57080078125
z: -0.18499810993671417
visibility: 0.999079167842865
","x: 258.0900573730469
y: 291.034423828125
z: -0.13047467172145844
visibility: 0.9979406595230103
","x: 251.52554321289062
y: 289.8462219238281
z: -0.10661754757165909
visibility: 0.9983399510383606
","x: 254.0110626220703
y: 296.1591796875
z: -0.17594288289546967
visibility: 0.9989858865737915
","x: 251.54689025878906
y: 296.84857177734375
z: -0.16962704062461853
visibility: 0.999384343624115
","x: 264.8696594238281
y: 312.70361328125
z: -0.12234050035476685
visibility: 0.9998536705970764
","x: 240.9290008544922
y: 319.078857421875
z: -0.04024020582437515
visibility: 0.9998661279678345
","x: 275.39056396484375
y: 282.49615478515625
z: -0.19570061564445496
visibility: 0.9780372977256775
","x: 230.91464233398438
y: 347.3364562988281
z: -0.005273578688502312
visibility: 0.9640592932701111
","x: 282.7303161621094
y: 254.703125
z: -0.2883087992668152
visibility: 0.964755654335022
","x: 219.31100463867188
y: 370.6332092285156
z: -0.05031111091375351
visibility: 0.9295070767402649
","x: 287.3185119628906
y: 246.0104217529297
z: -0.31834864616394043
visibility: 0.9343411922454834
","x: 214.91761779785156
y: 377.36212158203125
z: -0.059716563671827316
visibility: 0.8771117329597473
","x: 286.9364318847656
y: 245.176513671875
z: -0.3286588788032532
visibility: 0.9388775825500488
","x: 215.0924835205078
y: 378.63323974609375
z: -0.08175539970397949
visibility: 0.8834266066551208
","x: 285.1522216796875
y: 248.0789031982422
z: -0.2979678511619568
visibility: 0.9217603206634521
","x: 216.51255798339844
y: 377.84130859375
z: -0.06135863810777664
visibility: 0.8605754971504211
","x: 258.1260070800781
y: 388.0224914550781
z: -0.02095675840973854
visibility: 0.9998608827590942
","x: 243.72744750976562
y: 390.45654296875
z: 0.02091669663786888
visibility: 0.9999085664749146
","x: 263.4903259277344
y: 432.517578125
z: -0.04365699365735054
visibility: 0.932101309299469
","x: 240.90562438964844
y: 437.8005676269531
z: 0.014155155047774315
visibility: 0.9814170002937317
","x: 274.7115783691406
y: 480.157958984375
z: 0.03809346631169319
visibility: 0.9380473494529724
","x: 233.94676208496094
y: 485.3173522949219
z: 0.11693881452083588
visibility: 0.9643715023994446
","x: 275.2793884277344
y: 485.9655456542969
z: 0.042013801634311676
visibility: 0.7950699329376221
","x: 233.9539031982422
y: 491.2826843261719
z: 0.12176279723644257
visibility: 0.7407442331314087
","x: 275.6788635253906
y: 493.284423828125
z: -0.04871945455670357
visibility: 0.9303967356681824
","x: 228.3760986328125
y: 496.9091491699219
z: 0.03862714022397995
visibility: 0.9492849111557007
",,,,,,,,,,,,,,,,,,,,,,,,,,,,,,,,,,,,,,,,,,
3,"x: 253.74664306640625
y: 291.681884765625
z: -0.18960797786712646
visibility: 0.9998058676719666
","x: 256.6902770996094
y: 287.5208435058594
z: -0.17949697375297546
visibility: 0.9991644620895386
","x: 257.7737121582031
y: 287.809326171875
z: -0.17951704561710358
visibility: 0.9992863535881042
","x: 258.794677734375
y: 288.1270751953125
z: -0.17950597405433655
visibility: 0.9991526007652283
","x: 253.93861389160156
y: 287.2205810546875
z: -0.17631269991397858
visibility: 0.9992174506187439
","x: 253.1339874267578
y: 287.33636474609375
z: -0.17633043229579926
visibility: 0.9991883039474487
","x: 252.44070434570312
y: 287.56829833984375
z: -0.1763271987438202
visibility: 0.9991321563720703
","x: 260.5314025878906
y: 291.8100280761719
z: -0.11305110156536102
visibility: 0.9980155229568481
","x: 252.22103881835938
y: 289.8357849121094
z: -0.09792925417423248
visibility: 0.9984569549560547
","x: 255.5197296142578
y: 296.884521484375
z: -0.16422319412231445
visibility: 0.9990222454071045
","x: 252.02662658691406
y: 296.9473876953125
z: -0.16006633639335632
visibility: 0.9994154572486877
","x: 266.3174743652344
y: 312.4500427246094
z: -0.09266919642686844
visibility: 0.9998428225517273
","x: 241.7237091064453
y: 318.5522155761719
z: -0.04083592817187309
visibility: 0.9998716115951538
","x: 278.68212890625
y: 287.19598388671875
z: -0.1575322449207306
visibility: 0.9796773195266724
","x: 226.53382873535156
y: 340.50665283203125
z: -0.00944046676158905
visibility: 0.9670064449310303
","x: 288.93328857421875
y: 260.7497253417969
z: -0.2666805386543274
visibility: 0.9673514366149902
","x: 212.78526306152344
y: 354.4903869628906
z: -0.053829170763492584
visibility: 0.9356977939605713
","x: 293.42413330078125
y: 252.40176391601562
z: -0.29767417907714844
visibility: 0.937960684299469
","x: 208.57044982910156
y: 359.2322082519531
z: -0.06579028815031052
visibility: 0.8865790963172913
","x: 293.4004821777344
y: 251.3273468017578
z: -0.3091323673725128
visibility: 0.9421590566635132
","x: 209.24134826660156
y: 357.7676696777344
z: -0.08621084690093994
visibility: 0.8925981521606445
","x: 291.654296875
y: 254.62979125976562
z: -0.2778160870075226
visibility: 0.926926851272583
","x: 210.8233642578125
y: 356.8168640136719
z: -0.064204141497612
visibility: 0.8719183206558228
","x: 258.4237976074219
y: 389.35791015625
z: -0.015252393670380116
visibility: 0.9998658895492554
","x: 243.77040100097656
y: 390.74298095703125
z: 0.015213186852633953
visibility: 0.9999058246612549
","x: 263.4613952636719
y: 432.0403747558594
z: -0.03748827427625656
visibility: 0.9381967782974243
","x: 239.94476318359375
y: 438.7840576171875
z: 0.021508194506168365
visibility: 0.9826991558074951
","x: 273.10418701171875
y: 479.8350830078125
z: 0.0691051334142685
visibility: 0.9433238506317139
","x: 233.97903442382812
y: 484.56280517578125
z: 0.14495503902435303
visibility: 0.9671688675880432
","x: 273.266357421875
y: 486.0472106933594
z: 0.07587900012731552
visibility: 0.8084723949432373
","x: 234.519287109375
y: 490.27630615234375
z: 0.15255974233150482
visibility: 0.760466456413269
","x: 276.3536071777344
y: 492.9154968261719
z: -0.011185277253389359
visibility: 0.9365532398223877
","x: 228.4401397705078
y: 496.9620361328125
z: 0.07085952907800674
visibility: 0.9534258246421814
",,,,,,,,,,,,,,,,,,,,,,,,,,,,,,,,,,,,,,,,,,
4,"x: 263.2616882324219
y: 288.5909729003906
z: -0.11390873044729233
visibility: 0.9998114109039307
","x: 263.7110900878906
y: 285.38287353515625
z: -0.10755922645330429
visibility: 0.9991717338562012
","x: 264.09222412109375
y: 285.62554931640625
z: -0.10757138580083847
visibility: 0.9992881417274475
","x: 264.5392761230469
y: 285.8739013671875
z: -0.10756079852581024
visibility: 0.9991474151611328
","x: 262.7926940917969
y: 285.30108642578125
z: -0.10575827211141586
visibility: 0.9992241859436035
","x: 262.51116943359375
y: 285.5016174316406
z: -0.10577304661273956
visibility: 0.9991909861564636
","x: 262.27496337890625
y: 285.744384765625
z: -0.10578659921884537
visibility: 0.999113142490387
","x: 265.1483459472656
y: 289.6646728515625
z: -0.06685546785593033
visibility: 0.9980897903442383
","x: 261.3245544433594
y: 288.6419982910156
z: -0.05936092883348465
visibility: 0.9984473586082458
","x: 263.93511962890625
y: 293.7173767089844
z: -0.09883467108011246
visibility: 0.9990202188491821
","x: 262.71209716796875
y: 293.8442077636719
z: -0.09670715034008026
visibility: 0.999350905418396
","x: 273.7691650390625
y: 310.47015380859375
z: -0.06458504498004913
visibility: 0.9998168349266052
","x: 246.98239135742188
y: 313.0077819824219
z: -0.030499542132019997
visibility: 0.9998214244842529
","x: 290.4069519042969
y: 297.65191650390625
z: -0.12679342925548553
visibility: 0.9813445210456848
","x: 227.83042907714844
y: 299.71478271484375
z: -0.018711786717176437
visibility: 0.9695411324501038
","x: 308.369384765625
y: 281.0369567871094
z: -0.24092774093151093
visibility: 0.9702288508415222
","x: 212.58140563964844
y: 300.4365234375
z: -0.04244893789291382
visibility: 0.9404816031455994
","x: 314.24176025390625
y: 276.0904235839844
z: -0.26436465978622437
visibility: 0.9427822828292847
","x: 207.83152770996094
y: 298.5325012207031
z: -0.05025291442871094
visibility: 0.892342209815979
","x: 314.67425537109375
y: 272.84173583984375
z: -0.28080564737319946
visibility: 0.9467660188674927
","x: 208.02752685546875
y: 297.99322509765625
z: -0.06854875385761261
visibility: 0.8984146118164062
","x: 312.765625
y: 276.21710205078125
z: -0.2533706724643707
visibility: 0.9331257343292236
","x: 209.81396484375
y: 299.3704528808594
z: -0.05311764031648636
visibility: 0.8801355361938477
","x: 262.0957336425781
y: 389.936767578125
z: -0.014531098306179047
visibility: 0.9998184442520142
","x: 249.5771026611328
y: 390.3058166503906
z: 0.014536934904754162
visibility: 0.9998835921287537
","x: 264.2931213378906
y: 432.8376770019531
z: -0.018710192292928696
visibility: 0.9388277530670166
","x: 242.2863311767578
y: 437.29241943359375
z: 0.027994170784950256
visibility: 0.9831205606460571
","x: 273.07952880859375
y: 480.8941650390625
z: 0.11615873873233795
visibility: 0.9441171884536743
","x: 234.8209991455078
y: 484.455810546875
z: 0.12017093598842621
visibility: 0.9690455794334412
","x: 272.7532653808594
y: 489.139404296875
z: 0.12279001623392105
visibility: 0.817392110824585
","x: 235.35931396484375
y: 490.97235107421875
z: 0.12352915108203888
visibility: 0.7777135372161865
","x: 277.05828857421875
y: 493.5604248046875
z: 0.04578421637415886
visibility: 0.9386323094367981
","x: 227.98016357421875
y: 496.78326416015625
z: 0.06321492046117783
visibility: 0.955752432346344
",,,,,,,,,,,,,,,,,,,,,,,,,,,,,,,,,,,,,,,,,,
5,"x: 267.502197265625
y: 290.28460693359375
z: -0.17448179423809052
visibility: 0.9998247027397156
","x: 270.32666015625
y: 289.7759704589844
z: -0.12533961236476898
visibility: 0.9992389678955078
","x: 271.17236328125
y: 290.9440002441406
z: -0.12517096102237701
visibility: 0.9993385672569275
","x: 271.9649353027344
y: 292.059814453125
z: -0.1253957450389862
visibility: 0.9992133378982544
","x: 268.5162353515625
y: 287.283447265625
z: -0.15993079543113708
visibility: 0.9992741346359253
","x: 268.11431884765625
y: 286.8251647949219
z: -0.16000235080718994
visibility: 0.9992375373840332
","x: 267.6990051269531
y: 286.4857177734375
z: -0.15990443527698517
visibility: 0.9991610646247864
","x: 273.0360107421875
y: 296.23272705078125
z: -0.09679516404867172
visibility: 0.9982370734214783
","x: 267.34332275390625
y: 289.6669616699219
z: -0.10021673142910004
visibility: 0.9985209703445435
","x: 267.79083251953125
y: 296.1119689941406
z: -0.11417434364557266
visibility: 0.9991039037704468
","x: 265.7922668457031
y: 294.1441650390625
z: -0.1527412235736847
visibility: 0.9993895292282104
","x: 275.4871826171875
y: 318.9923400878906
z: -0.04945054277777672
visibility: 0.9998305439949036
","x: 251.55470275878906
y: 307.14886474609375
z: -0.06918508559465408
visibility: 0.9998153448104858
","x: 285.6512756347656
y: 351.42474365234375
z: -0.02965090610086918
visibility: 0.9823768138885498
","x: 238.9848175048828
y: 280.8386535644531
z: -0.11513177305459976
visibility: 0.9723348021507263
","x: 296.28875732421875
y: 381.0656433105469
z: -0.10116200149059296
visibility: 0.9719409942626953
","x: 228.9887237548828
y: 257.21893310546875
z: -0.20662632584571838
visibility: 0.9459071159362793
","x: 299.90576171875
y: 389.4619140625
z: -0.1166984885931015
visibility: 0.9448928236961365
","x: 224.85377502441406
y: 247.91445922851562
z: -0.23629553616046906
visibility: 0.90122389793396
","x: 299.08001708984375
y: 391.0843200683594
z: -0.14037767052650452
visibility: 0.9491569399833679
","x: 224.9007568359375
y: 246.97805786132812
z: -0.24576802551746368
visibility: 0.9068039059638977
","x: 297.7178955078125
y: 388.4079284667969
z: -0.113287553191185
visibility: 0.9367047548294067
","x: 226.2583465576172
y: 251.15989685058594
z: -0.21637555956840515
visibility: 0.8905017971992493
","x: 269.3506164550781
y: 389.61737060546875
z: 0.0053550912998616695
visibility: 0.9998233318328857
","x: 254.7259979248047
y: 389.36529541015625
z: -0.005399197805672884
visibility: 0.9998756647109985
","x: 270.6929626464844
y: 438.583251953125
z: -0.0051093208603560925
visibility: 0.9438057541847229
","x: 257.8836364746094
y: 438.5095520019531
z: -0.006712299771606922
visibility: 0.9826914072036743
","x: 273.227294921875
y: 484.30657958984375
z: 0.10907868295907974
visibility: 0.9464492797851562
","x: 259.77337646484375
y: 482.6479797363281
z: 0.13959920406341553
visibility: 0.9651317000389099
","x: 272.8684997558594
y: 490.45220947265625
z: 0.11657576262950897
visibility: 0.8147100210189819
","x: 260.77117919921875
y: 488.1647033691406
z: 0.1511525809764862
visibility: 0.7682424783706665
","x: 275.3032531738281
y: 497.7188720703125
z: 0.030382361263036728
visibility: 0.9411811232566833
","x: 261.2330322265625
y: 496.6025390625
z: 0.07724577188491821
visibility: 0.9548392295837402
",,,,,,,,,,,,,,,,,,,,,,,,,,,,,,,,,,,,,,,,,,
6,"x: 272.22412109375
y: 297.7799072265625
z: -0.22035598754882812
visibility: 0.9998371601104736
","x: 275.6489562988281
y: 297.774169921875
z: -0.19866088032722473
visibility: 0.9993041157722473
","x: 276.41302490234375
y: 299.1849060058594
z: -0.19863800704479218
visibility: 0.9993909597396851
","x: 277.064453125
y: 300.486083984375
z: -0.19869330525398254
visibility: 0.9992766380310059
","x: 273.5319519042969
y: 293.9150085449219
z: -0.20684126019477844
visibility: 0.9993281364440918
","x: 272.9083557128906
y: 292.8903503417969
z: -0.20690110325813293
visibility: 0.9992914795875549
","x: 272.29217529296875
y: 292.020751953125
z: -0.20687183737754822
visibility: 0.9992201328277588
","x: 277.065673828125
y: 304.56475830078125
z: -0.11986202001571655
visibility: 0.9983898997306824
","x: 270.8973083496094
y: 293.9613037109375
z: -0.13464990258216858
visibility: 0.9986339807510376
","x: 272.1178894042969
y: 303.9207763671875
z: -0.18366162478923798
visibility: 0.9991809725761414
","x: 269.4832763671875
y: 299.513916015625
z: -0.19336560368537903
visibility: 0.9994357228279114
","x: 276.7677307128906
y: 328.29034423828125
z: -0.07149899750947952
visibility: 0.9998430609703064
","x: 255.23583984375
y: 308.54962158203125
z: -0.08136239647865295
visibility: 0.9998221397399902
","x: 284.9890441894531
y: 365.99420166015625
z: -0.07431895285844803
visibility: 0.9834994673728943
","x: 242.54022216796875
y: 281.1563720703125
z: -0.10246944427490234
visibility: 0.9750035405158997
","x: 287.0199279785156
y: 396.6106872558594
z: -0.1415661871433258
visibility: 0.9730689525604248
","x: 237.51266479492188
y: 247.73922729492188
z: -0.14794695377349854
visibility: 0.9511403441429138
","x: 289.2265319824219
y: 407.37750244140625
z: -0.16424836218357086
visibility: 0.9465039968490601
","x: 236.2371826171875
y: 236.84007263183594
z: -0.17125660181045532
visibility: 0.9103428721427917
","x: 287.99200439453125
y: 408.27386474609375
z: -0.18246278166770935
visibility: 0.9508680701255798
","x: 236.77845764160156
y: 236.25143432617188
z: -0.1796690821647644
visibility: 0.9153819680213928
","x: 286.7718200683594
y: 404.9443054199219
z: -0.15166503190994263
visibility: 0.9394350051879883
","x: 237.1958770751953
y: 239.65890502929688
z: -0.1560731828212738
visibility: 0.9008386135101318
","x: 272.631591796875
y: 389.9841003417969
z: 0.004391344729810953
visibility: 0.9998276829719543
","x: 258.96844482421875
y: 390.1471252441406
z: -0.0042783054523169994
visibility: 0.9998748302459717
","x: 275.28106689453125
y: 438.3229064941406
z: -0.029536020010709763
visibility: 0.9489880800247192
","x: 263.144775390625
y: 442.55126953125
z: 0.03406418114900589
visibility: 0.982279896736145
","x: 275.145751953125
y: 484.25665283203125
z: 0.07743389159440994
visibility: 0.9505749940872192
","x: 268.796875
y: 482.5228576660156
z: 0.18855571746826172
visibility: 0.9655294418334961
","x: 275.7226257324219
y: 490.2560119628906
z: 0.08464273810386658
visibility: 0.8263477087020874
","x: 271.10662841796875
y: 488.4254150390625
z: 0.2002863585948944
visibility: 0.7821673154830933
","x: 275.42059326171875
y: 498.24017333984375
z: 0.0004795860149897635
visibility: 0.9456100463867188
","x: 266.09124755859375
y: 497.09515380859375
z: 0.13221248984336853
visibility: 0.9566619992256165
",,,,,,,,,,,,,,,,,,,,,,,,,,,,,,,,,,,,,,,,,,
7,"x: 273.7658386230469
y: 284.126220703125
z: -0.12592224776744843
visibility: 0.9995908141136169
","x: 275.36871337890625
y: 282.2042236328125
z: -0.11350788176059723
visibility: 0.9987843036651611
","x: 275.98712158203125
y: 282.72039794921875
z: -0.11355862766504288
visibility: 0.9988036751747131
","x: 276.6080017089844
y: 283.2113037109375
z: -0.11356975883245468
visibility: 0.9987314939498901
","x: 273.59710693359375
y: 281.0452575683594
z: -0.11595145612955093
visibility: 0.9985718727111816
","x: 272.9832458496094
y: 280.82513427734375
z: -0.11596449464559555
visibility: 0.99842369556427
","x: 272.3636169433594
y: 280.646728515625
z: -0.11598602682352066
visibility: 0.9984338283538818
","x: 277.3475341796875
y: 286.77191162109375
z: -0.0402626097202301
visibility: 0.996911883354187
","x: 271.4613037109375
y: 283.894775390625
z: -0.05249713733792305
visibility: 0.9969965219497681
","x: 274.38677978515625
y: 289.4229431152344
z: -0.09851805865764618
visibility: 0.998626708984375
","x: 271.8887023925781
y: 288.36041259765625
z: -0.10227105766534805
visibility: 0.9990004897117615
","x: 281.11376953125
y: 311.69989013671875
z: -0.020251816138625145
visibility: 0.9997379183769226
","x: 257.7911682128906
y: 302.38470458984375
z: -0.008184770122170448
visibility: 0.9997183680534363
","x: 285.2721862792969
y: 362.4853210449219
z: -0.0862911194562912
visibility: 0.9632056951522827
","x: 241.36544799804688
y: 300.2596740722656
z: -0.0396667905151844
visibility: 0.9767833948135376
","x: 285.7934265136719
y: 355.0257873535156
z: -0.22020716965198517
visibility: 0.9637920260429382
","x: 233.42724609375
y: 293.95050048828125
z: -0.13464224338531494
visibility: 0.9547498226165771
","x: 283.39093017578125
y: 356.7778015136719
z: -0.244856595993042
visibility: 0.9359489679336548
","x: 233.0543975830078
y: 291.34832763671875
z: -0.15815697610378265
visibility: 0.9160623550415039
","x: 281.6296691894531
y: 356.58929443359375
z: -0.2634802758693695
visibility: 0.9411013126373291
","x: 232.4840087890625
y: 290.795166015625
z: -0.17010489106178284
visibility: 0.9209522008895874
","x: 280.8505859375
y: 356.3985900878906
z: -0.2311316281557083
visibility: 0.928918719291687
","x: 236.85598754882812
y: 291.8893737792969
z: -0.14324171841144562
visibility: 0.9076948165893555
","x: 273.08740234375
y: 384.0069580078125
z: 0.0027261110953986645
visibility: 0.9997240900993347
","x: 262.71087646484375
y: 384.8495788574219
z: -0.002673887414857745
visibility: 0.9997509121894836
","x: 274.2356872558594
y: 437.67108154296875
z: -0.014925902709364891
visibility: 0.9486917853355408
","x: 266.44573974609375
y: 441.5174865722656
z: 0.012939589098095894
visibility: 0.9800119996070862
","x: 274.0415344238281
y: 487.4905700683594
z: 0.0647091343998909
visibility: 0.9511845707893372
","x: 268.3288879394531
y: 485.8927001953125
z: 0.10603984445333481
visibility: 0.9633155465126038
","x: 272.5944519042969
y: 493.640869140625
z: 0.06887838244438171
visibility: 0.8313519358634949
","x: 267.85797119140625
y: 492.02655029296875
z: 0.11177940666675568
visibility: 0.7776150703430176
","x: 275.6560974121094
y: 499.58978271484375
z: -0.010085655376315117
visibility: 0.9473437666893005
","x: 271.6008605957031
y: 500.7289123535156
z: 0.036485787481069565
visibility: 0.9551679491996765
",,,,,,,,,,,,,,,,,,,,,,,,,,,,,,,,,,,,,,,,,,
8,"x: 274.15753173828125
y: 284.9296875
z: -0.16749270260334015
visibility: 0.9996080994606018
","x: 274.7745056152344
y: 280.3316650390625
z: -0.1534005105495453
visibility: 0.9988222718238831
","x: 275.5411682128906
y: 280.2756042480469
z: -0.15342742204666138
visibility: 0.9988311529159546
","x: 276.30657958984375
y: 280.1888732910156
z: -0.1534367948770523
visibility: 0.998724639415741
","x: 272.2020568847656
y: 280.2749328613281
z: -0.15646396577358246
visibility: 0.9986628293991089
","x: 271.1378479003906
y: 280.28033447265625
z: -0.15648114681243896
visibility: 0.9985348582267761
","x: 270.0843505859375
y: 280.3642578125
z: -0.15647269785404205
visibility: 0.9985449314117432
","x: 277.1363830566406
y: 282.6700134277344
z: -0.06555505096912384
visibility: 0.9967741370201111
","x: 268.4443054199219
y: 283.1907958984375
z: -0.06817320734262466
visibility: 0.997267484664917
","x: 275.682861328125
y: 290.3573303222656
z: -0.13607528805732727
visibility: 0.9986070394515991
","x: 272.6396179199219
y: 290.06756591796875
z: -0.1415514349937439
visibility: 0.9990450739860535
","x: 281.873046875
y: 304.52874755859375
z: -0.010093647055327892
visibility: 0.9996365308761597
","x: 258.25054931640625
y: 305.04736328125
z: -0.05803220719099045
visibility: 0.9997247457504272
","x: 286.1092529296875
y: 316.84210205078125
z: -0.050144147127866745
visibility: 0.9404062032699585
","x: 248.59490966796875
y: 342.8973693847656
z: -0.03599802032113075
visibility: 0.977460503578186
","x: 281.49786376953125
y: 295.35943603515625
z: -0.1572229117155075
visibility: 0.9329642653465271
","x: 244.05850219726562
y: 379.74981689453125
z: -0.033744703978300095
visibility: 0.95283043384552
","x: 275.7454528808594
y: 292.88580322265625
z: -0.18058723211288452
visibility: 0.887981116771698
","x: 241.9044647216797
y: 389.9541931152344
z: -0.03689645603299141
visibility: 0.9105157256126404
","x: 275.54351806640625
y: 292.9527893066406
z: -0.18088890612125397
visibility: 0.8930203914642334
","x: 243.1625213623047
y: 390.7064208984375
z: -0.05779247358441353
visibility: 0.9154627323150635
","x: 275.7005615234375
y: 294.11676025390625
z: -0.1623738557100296
visibility: 0.8803518414497375
","x: 244.5554962158203
y: 388.2781677246094
z: -0.04006771743297577
visibility: 0.9011934995651245
","x: 274.0165710449219
y: 382.81597900390625
z: 0.023594480007886887
visibility: 0.9996131062507629
","x: 263.5664978027344
y: 381.6021423339844
z: -0.02382359281182289
visibility: 0.9996656775474548
","x: 273.3302307128906
y: 437.636474609375
z: -0.011467499658465385
visibility: 0.9127364754676819
","x: 269.4241638183594
y: 436.57464599609375
z: -0.030058234930038452
visibility: 0.9601526260375977
","x: 272.13311767578125
y: 487.0968322753906
z: 0.09372635185718536
visibility: 0.9201829433441162
","x: 268.100830078125
y: 485.2529602050781
z: 0.08052464574575424
visibility: 0.9390264749526978
","x: 269.3596496582031
y: 494.594482421875
z: 0.10034233331680298
visibility: 0.8078440427780151
","x: 265.0892639160156
y: 491.92156982421875
z: 0.08820711821317673
visibility: 0.7450087070465088
","x: 276.078125
y: 501.1422119140625
z: 0.0278994832187891
visibility: 0.9240206480026245
","x: 270.7125244140625
y: 498.7725830078125
z: 0.011343637481331825
visibility: 0.9328338503837585
",,,,,,,,,,,,,,,,,,,,,,,,,,,,,,,,,,,,,,,,,,
9,"x: 274.5792236328125
y: 286.2558288574219
z: -0.09547606855630875
visibility: 0.999462902545929
","x: 275.2684326171875
y: 282.0718688964844
z: -0.07897654175758362
visibility: 0.9986697435379028
","x: 275.7842712402344
y: 282.1579895019531
z: -0.0790046751499176
visibility: 0.9985626935958862
","x: 276.3109130859375
y: 282.22332763671875
z: -0.0790342316031456
visibility: 0.9985194802284241
","x: 273.3060607910156
y: 281.7086486816406
z: -0.09073386341333389
visibility: 0.998576819896698
","x: 272.3855895996094
y: 281.58929443359375
z: -0.09074123948812485
visibility: 0.9984411597251892
","x: 271.43121337890625
y: 281.538818359375
z: -0.09080354869365692
visibility: 0.998507559299469
","x: 275.9815368652344
y: 285.0291748046875
z: 0.004781603813171387
visibility: 0.9964170455932617
","x: 268.9895324707031
y: 284.3929748535156
z: -0.04842165485024452
visibility: 0.9973580837249756
","x: 274.9953918457031
y: 291.606201171875
z: -0.06399840116500854
visibility: 0.9982770085334778
","x: 272.3951721191406
y: 291.167724609375
z: -0.07974741607904434
visibility: 0.9988448619842529
","x: 280.7976989746094
y: 305.3619689941406
z: 0.047674909234046936
visibility: 0.9993090033531189
","x: 257.6882019042969
y: 312.0886535644531
z: -0.04608791321516037
visibility: 0.9995156526565552
","x: 285.8948669433594
y: 314.0849914550781
z: 0.01995140127837658
visibility: 0.9077083468437195
","x: 255.66758728027344
y: 343.1566162109375
z: -0.10293851047754288
visibility: 0.9746462106704712
","x: 278.3827209472656
y: 290.3014831542969
z: -0.04359552636742592
visibility: 0.9027018547058105
","x: 265.1972961425781
y: 352.6509094238281
z: -0.1474982053041458
visibility: 0.9493773579597473
","x: 279.4292907714844
y: 287.392333984375
z: -0.0626719519495964
visibility: 0.8459389805793762
","x: 267.759765625
y: 368.74713134765625
z: -0.16454169154167175
visibility: 0.9049180150032043
","x: 277.3116455078125
y: 284.5923156738281
z: -0.062319882214069366
visibility: 0.8506254553794861
","x: 267.90106201171875
y: 368.734130859375
z: -0.16084961593151093
visibility: 0.9087262153625488
","x: 276.2610168457031
y: 286.3813171386719
z: -0.04768454283475876
visibility: 0.8394470810890198
","x: 267.406494140625
y: 373.85919189453125
z: -0.1458124816417694
visibility: 0.8909281492233276
","x: 276.810546875
y: 383.765625
z: 0.02050473354756832
visibility: 0.9995244145393372
","x: 263.6214599609375
y: 383.3045654296875
z: -0.020409582182765007
visibility: 0.9995148181915283
","x: 275.2633056640625
y: 437.5880126953125
z: -0.02073899656534195
visibility: 0.909954845905304
","x: 266.9599914550781
y: 436.7559509277344
z: -0.03585734963417053
visibility: 0.9520014524459839
","x: 272.8329162597656
y: 486.6365051269531
z: 0.07188253849744797
visibility: 0.9126033782958984
","x: 267.1356201171875
y: 485.14892578125
z: 0.05892496183514595
visibility: 0.9319669008255005
","x: 270.4278259277344
y: 493.9610595703125
z: 0.07700254768133163
visibility: 0.8076440691947937
","x: 266.13092041015625
y: 491.85650634765625
z: 0.06422203779220581
visibility: 0.7333070039749146
","x: 276.2054138183594
y: 493.5815124511719
z: 0.0037771451752632856
visibility: 0.9164069890975952
","x: 267.41070556640625
y: 494.13189697265625
z: -0.01689361408352852
visibility: 0.9237920045852661
",,,,,,,,,,,,,,,,,,,,,,,,,,,,,,,,,,,,,,,,,,
10,"x: 273.814208984375
y: 286.573974609375
z: -0.1281471997499466
visibility: 0.9994949102401733
","x: 274.46624755859375
y: 282.2792663574219
z: -0.11357516050338745
visibility: 0.9987253546714783
","x: 275.0513610839844
y: 282.27667236328125
z: -0.11359747499227524
visibility: 0.9986182451248169
","x: 275.65936279296875
y: 282.21826171875
z: -0.11360467970371246
visibility: 0.9985498189926147
","x: 272.404052734375
y: 282.18035888671875
z: -0.12276555597782135
visibility: 0.9986735582351685
","x: 271.4701843261719
y: 282.14373779296875
z: -0.1227761059999466
visibility: 0.9985566735267639
","x: 270.5279235839844
y: 282.1021728515625
z: -0.12282265722751617
visibility: 0.9986198544502258
","x: 275.57244873046875
y: 284.365478515625
z: -0.035297609865665436
visibility: 0.9964569807052612
","x: 267.9284362792969
y: 284.4068298339844
z: -0.07584483176469803
visibility: 0.9975982904434204
","x: 274.5546875
y: 291.29534912109375
z: -0.09840365499258041
visibility: 0.9983591437339783
","x: 271.8377990722656
y: 291.5558166503906
z: -0.11065604537725449
visibility: 0.9989306926727295
","x: 280.95037841796875
y: 304.4525451660156
z: -0.0014094386715441942
visibility: 0.9992794990539551
","x: 257.41510009765625
y: 313.1109619140625
z: -0.04514732584357262
visibility: 0.9995433688163757
","x: 286.7478942871094
y: 310.3881530761719
z: -0.053564269095659256
visibility: 0.9023023843765259
","x: 254.466796875
y: 351.18719482421875
z: -0.026641536504030228
visibility: 0.9754571914672852
","x: 279.6502990722656
y: 278.1237487792969
z: -0.1598404347896576
visibility: 0.8985456228256226
","x: 254.9604949951172
y: 376.96112060546875
z: -0.023888951167464256
visibility: 0.9513015747070312
","x: 280.2432556152344
y: 269.76275634765625
z: -0.18673110008239746
visibility: 0.8361676931381226
","x: 254.59353637695312
y: 387.02752685546875
z: -0.030708730220794678
visibility: 0.9078009128570557
","x: 279.0289001464844
y: 269.52154541015625
z: -0.19309334456920624
visibility: 0.8396146297454834
","x: 255.33033752441406
y: 385.7016296386719
z: -0.044681090861558914
visibility: 0.9112472534179688
","x: 278.0957336425781
y: 272.5350341796875
z: -0.16761967539787292
visibility: 0.8285230994224548
","x: 256.310791015625
y: 381.867431640625
z: -0.028164729475975037
visibility: 0.8931887149810791
","x: 277.7048034667969
y: 384.6250915527344
z: 0.015616467222571373
visibility: 0.9995391368865967
","x: 263.950439453125
y: 384.373291015625
z: -0.015608628280460835
visibility: 0.9995229840278625
","x: 276.2301330566406
y: 437.8318786621094
z: -0.016329606994986534
visibility: 0.9172894954681396
","x: 265.0655517578125
y: 436.876220703125
z: 0.011711282655596733
visibility: 0.9543034434318542
","x: 275.4671325683594
y: 486.5440673828125
z: 0.11687763035297394
visibility: 0.9182358384132385
","x: 266.5531005859375
y: 483.08245849609375
z: 0.14575999975204468
visibility: 0.9348524808883667
","x: 273.80035400390625
y: 491.6407470703125
z: 0.1263032704591751
visibility: 0.8156435489654541
","x: 266.5050354003906
y: 488.6343688964844
z: 0.1552790403366089
visibility: 0.7371934056282043
","x: 276.80511474609375
y: 494.01373291015625
z: 0.05523668974637985
visibility: 0.9215245842933655
","x: 266.26263427734375
y: 494.2073059082031
z: 0.08036728203296661
visibility: 0.9267668128013611
",,,,,,,,,,,,,,,,,,,,,,,,,,,,,,,,,,,,,,,,,,
11,"x: 273.5326843261719
y: 288.05438232421875
z: -0.1205352395772934
visibility: 0.999483048915863
","x: 274.6108703613281
y: 283.1949768066406
z: -0.10531128942966461
visibility: 0.9986163377761841
","x: 275.34527587890625
y: 282.8751220703125
z: -0.10532259941101074
visibility: 0.9985037446022034
","x: 276.0710144042969
y: 282.511962890625
z: -0.10532840341329575
visibility: 0.9983654022216797
","x: 272.1754455566406
y: 283.7779846191406
z: -0.11116679012775421
visibility: 0.998668909072876
","x: 271.16717529296875
y: 283.9441223144531
z: -0.1111750453710556
visibility: 0.9985761642456055
","x: 270.1176452636719
y: 284.15399169921875
z: -0.1112082377076149
visibility: 0.9986278414726257
","x: 276.57220458984375
y: 285.23797607421875
z: -0.025692906230688095
visibility: 0.9959518313407898
","x: 267.5360107421875
y: 285.8553466796875
z: -0.05242646485567093
visibility: 0.997741162776947
","x: 274.6936950683594
y: 292.9397277832031
z: -0.09058304131031036
visibility: 0.9980984330177307
","x: 271.6863708496094
y: 293.8080139160156
z: -0.09838780760765076
visibility: 0.9988577365875244
","x: 281.2511901855469
y: 305.53173828125
z: 0.0025770356878638268
visibility: 0.9991781711578369
","x: 259.37091064453125
y: 314.1366271972656
z: -0.02441359870135784
visibility: 0.999521791934967
","x: 283.8717956542969
y: 288.3373718261719
z: -0.03385806456208229
visibility: 0.9005175828933716
","x: 256.07281494140625
y: 347.4971008300781
z: -0.0056369006633758545
visibility: 0.9703170657157898
","x: 280.4664306640625
y: 263.7847900390625
z: -0.09801147133111954
visibility: 0.8942919969558716
","x: 254.6146240234375
y: 370.6485290527344
z: -0.007130421698093414
visibility: 0.9376891255378723
","x: 281.11883544921875
y: 255.5666961669922
z: -0.12177447229623795
visibility: 0.8249866366386414
","x: 255.64610290527344
y: 380.72607421875
z: -0.0153316305950284
visibility: 0.8886289000511169
","x: 279.9109802246094
y: 255.4441680908203
z: -0.12649552524089813
visibility: 0.8277007937431335
","x: 256.45306396484375
y: 380.7931823730469
z: -0.032838016748428345
visibility: 0.8927276134490967
","x: 278.5876770019531
y: 258.2891540527344
z: -0.10491816699504852
visibility: 0.8185900449752808
","x: 257.5107116699219
y: 377.92547607421875
z: -0.013754909858107567
visibility: 0.8734046220779419
","x: 278.1610107421875
y: 384.7536926269531
z: 0.011795216239988804
visibility: 0.9995667338371277
","x: 264.01593017578125
y: 384.3052673339844
z: -0.011803901754319668
visibility: 0.9995391964912415
","x: 279.2603759765625
y: 437.6055908203125
z: -0.021300576627254486
visibility: 0.9243289828300476
","x: 266.1165771484375
y: 436.0499572753906
z: 0.013846744783222675
visibility: 0.9567955136299133
","x: 279.2186279296875
y: 486.3049621582031
z: 0.07474137842655182
visibility: 0.9239898920059204
","x: 266.94720458984375
y: 482.15631103515625
z: 0.14786329865455627
visibility: 0.9373447895050049
","x: 277.42193603515625
y: 490.6521911621094
z: 0.08022414892911911
visibility: 0.8223470449447632
","x: 267.00830078125
y: 487.15716552734375
z: 0.15695220232009888
visibility: 0.7356817126274109
","x: 281.0360107421875
y: 494.79736328125
z: -0.0029891780577600002
visibility: 0.9264278411865234
","x: 266.7548522949219
y: 494.3565368652344
z: 0.07814966887235641
visibility: 0.9294127225875854
",,,,,,,,,,,,,,,,,,,,,,,,,,,,,,,,,,,,,,,,,,
12,"x: 274.0799865722656
y: 288.4188537597656
z: -0.10213347524404526
visibility: 0.9994118809700012
","x: 275.07684326171875
y: 283.3875732421875
z: -0.08680005371570587
visibility: 0.998275876045227
","x: 275.7934265136719
y: 282.94293212890625
z: -0.08681328594684601
visibility: 0.9981703758239746
","x: 276.5188293457031
y: 282.82391357421875
z: -0.08681681752204895
visibility: 0.9979647397994995
","x: 272.6746520996094
y: 284.3056335449219
z: -0.0924300104379654
visibility: 0.9985274076461792
","x: 271.65045166015625
y: 284.54913330078125
z: -0.09243622422218323
visibility: 0.9984846115112305
","x: 270.6024475097656
y: 284.7960205078125
z: -0.09246279299259186
visibility: 0.9985360503196716
","x: 276.80889892578125
y: 285.8887939453125
z: -0.008324016816914082
visibility: 0.994960367679596
","x: 268.12506103515625
y: 286.2561950683594
z: -0.03452940657734871
visibility: 0.9977491497993469
","x: 275.2506103515625
y: 293.0042724609375
z: -0.07283500581979752
visibility: 0.9973962903022766
","x: 272.3056640625
y: 294.2104797363281
z: -0.08041702210903168
visibility: 0.9986039400100708
","x: 281.78228759765625
y: 304.38043212890625
z: 0.019904684275388718
visibility: 0.9990296363830566
","x: 261.2729187011719
y: 315.03778076171875
z: -0.00630207359790802
visibility: 0.9994360208511353
","x: 283.80316162109375
y: 280.321044921875
z: 0.005260004196316004
visibility: 0.904789924621582
","x: 259.3305969238281
y: 349.39923095703125
z: 0.006718984805047512
visibility: 0.966357409954071
","x: 280.74755859375
y: 254.44720458984375
z: -0.02983979322016239
visibility: 0.8985041975975037
","x: 260.73919677734375
y: 370.90679931640625
z: -0.010213623754680157
visibility: 0.9258368611335754
","x: 281.3824462890625
y: 246.6148223876953
z: -0.05094408243894577
visibility: 0.8265118598937988
","x: 260.83203125
y: 378.12188720703125
z: -0.01916384883224964
visibility: 0.8724473714828491
","x: 279.95172119140625
y: 246.52574157714844
z: -0.05596158653497696
visibility: 0.8284702897071838
","x: 261.4596252441406
y: 377.66070556640625
z: -0.03646738827228546
visibility: 0.877341628074646
","x: 279.0922546386719
y: 249.07713317871094
z: -0.03632573038339615
visibility: 0.821589469909668
","x: 262.0749206542969
y: 374.9989318847656
z: -0.017053816467523575
visibility: 0.856709361076355
","x: 279.580810546875
y: 382.80810546875
z: 0.012234385125339031
visibility: 0.9995551705360413
","x: 265.73199462890625
y: 382.521728515625
z: -0.01224442757666111
visibility: 0.9995144009590149
","x: 281.6314392089844
y: 434.2529602050781
z: -0.034403420984745026
visibility: 0.9292598962783813
","x: 269.2854309082031
y: 435.31591796875
z: -0.04101172462105751
visibility: 0.9583208560943604
","x: 278.35125732421875
y: 484.30316162109375
z: 0.044041771441698074
visibility: 0.9269942045211792
","x: 268.28582763671875
y: 482.2252197265625
z: 0.04449232667684555
visibility: 0.9384977221488953
","x: 276.7094421386719
y: 488.73876953125
z: 0.04756702855229378
visibility: 0.8246987462043762
","x: 267.3232116699219
y: 487.28369140625
z: 0.048449818044900894
visibility: 0.728714108467102
","x: 281.928955078125
y: 495.44451904296875
z: -0.033940013498067856
visibility: 0.928770124912262
","x: 269.63818359375
y: 494.4208984375
z: -0.03935832530260086
visibility: 0.9308838844299316
",,,,,,,,,,,,,,,,,,,,,,,,,,,,,,,,,,,,,,,,,,
13,"x: 274.0076599121094
y: 288.50225830078125
z: -0.10025601089000702
visibility: 0.9992755055427551
","x: 275.02734375
y: 283.73486328125
z: -0.08566809445619583
visibility: 0.9974926114082336
","x: 275.7192077636719
y: 283.4452209472656
z: -0.08569725602865219
visibility: 0.9974486231803894
","x: 276.4276123046875
y: 283.3763732910156
z: -0.08571161329746246
visibility: 0.9972206354141235
","x: 272.73077392578125
y: 284.4255676269531
z: -0.0908157229423523
visibility: 0.9981817603111267
","x: 271.7113952636719
y: 284.6167297363281
z: -0.09081600606441498
visibility: 0.9982208609580994
","x: 270.6817321777344
y: 284.8227844238281
z: -0.09083588421344757
visibility: 0.9982886910438538
","x: 276.6007080078125
y: 286.0567932128906
z: -0.012943586334586143
visibility: 0.992097020149231
","x: 268.2524719238281
y: 286.2716064453125
z: -0.03729037195444107
visibility: 0.9975330233573914
","x: 275.19305419921875
y: 292.8917541503906
z: -0.07338827848434448
visibility: 0.9959575533866882
","x: 272.2072448730469
y: 294.0482177734375
z: -0.08046446740627289
visibility: 0.9980416893959045
","x: 282.1689147949219
y: 303.9794616699219
z: 0.00955749861896038
visibility: 0.9989443421363831
","x: 262.5854797363281
y: 315.641357421875
z: -0.006471638567745686
visibility: 0.9993354678153992
","x: 283.7471923828125
y: 278.62677001953125
z: -0.0033396505750715733
visibility: 0.9094627499580383
","x: 261.59228515625
y: 351.2397766113281
z: 0.011750204488635063
visibility: 0.9571062326431274
","x: 281.19805908203125
y: 253.71990966796875
z: -0.038783490657806396
visibility: 0.9034989476203918
","x: 263.23687744140625
y: 376.41961669921875
z: -0.011979633942246437
visibility: 0.9007986187934875
","x: 281.9156494140625
y: 244.8474884033203
z: -0.05846116691827774
visibility: 0.8315900564193726
","x: 263.13958740234375
y: 382.9424743652344
z: -0.02113858424127102
visibility: 0.8453012704849243
","x: 280.91241455078125
y: 245.1781463623047
z: -0.0633137971162796
visibility: 0.832693338394165
","x: 262.0592346191406
y: 380.1451416015625
z: -0.03770530968904495
visibility: 0.8507210612297058
","x: 280.4056396484375
y: 248.13848876953125
z: -0.04467809945344925
visibility: 0.8270208835601807
","x: 262.24346923828125
y: 376.416015625
z: -0.01880999282002449
visibility: 0.8288907408714294
","x: 280.6377258300781
y: 381.21392822265625
z: 0.011010969057679176
visibility: 0.9995577335357666
","x: 267.3061218261719
y: 379.96044921875
z: -0.011026181280612946
visibility: 0.9995075464248657
","x: 281.6620788574219
y: 429.9300537109375
z: -0.04715942218899727
visibility: 0.9298923015594482
","x: 271.1745910644531
y: 426.3845520019531
z: -0.10550157725811005
visibility: 0.9598389267921448
","x: 281.5630798339844
y: 483.54541015625
z: 0.013087200000882149
visibility: 0.9252458810806274
","x: 269.2976379394531
y: 467.96466064453125
z: 0.0051918039098382
visibility: 0.9349103569984436
","x: 278.6051025390625
y: 488.8086242675781
z: 0.015264664776623249
visibility: 0.8183591365814209
","x: 268.4750061035156
y: 474.50872802734375
z: 0.01330199558287859
visibility: 0.7203804850578308
","x: 284.70587158203125
y: 495.1300048828125
z: -0.05819948762655258
visibility: 0.9267920851707458
","x: 270.99224853515625
y: 485.0736083984375
z: -0.05733181908726692
visibility: 0.9286981821060181
","x: 283.5185241699219
y: 256.4896240234375
z: 0.0
","x: 281.828857421875
y: 252.67388916015625
z: -0.0009636264876462519
","x: 281.27276611328125
y: 248.286376953125
z: -0.001955324085429311
","x: 282.21826171875
y: 245.77163696289062
z: -0.003302700351923704
","x: 283.5530090332031
y: 245.01466369628906
z: -0.004429539665579796
","x: 283.952880859375
y: 243.19354248046875
z: -0.0006155926384963095
","x: 284.91851806640625
y: 238.58290100097656
z: -0.0025254832580685616
","x: 285.6456298828125
y: 236.14682006835938
z: -0.00352862267754972
","x: 286.3750305175781
y: 234.3431854248047
z: -0.004126920830458403
","x: 285.3972473144531
y: 244.39405822753906
z: -0.0016282119322568178
","x: 286.03375244140625
y: 239.80490112304688
z: -0.003742973320186138
","x: 286.3948059082031
y: 236.96226501464844
z: -0.004604075103998184
","x: 286.8697509765625
y: 234.98526000976562
z: -0.005052049644291401
","x: 286.50634765625
y: 246.5377197265625
z: -0.0029495463240891695
","x: 286.73699951171875
y: 245.0146484375
z: -0.005005572456866503
","x: 285.572509765625
y: 246.92776489257812
z: -0.004714189562946558
","x: 284.77716064453125
y: 248.7513427734375
z: -0.003964957315474749
","x: 287.4201354980469
y: 249.2743682861328
z: -0.004585563205182552
","x: 287.5241394042969
y: 248.14639282226562
z: -0.00612677214667201
","x: 286.72283935546875
y: 249.32232666015625
z: -0.006015790160745382
","x: 286.152099609375
y: 250.72837829589844
z: -0.005466049537062645
",,,,,,,,,,,,,,,,,,,,,
14,"x: 274.0076599121094
y: 288.50225830078125
z: -0.10025601089000702
visibility: 0.9992755055427551
","x: 275.02734375
y: 283.73486328125
z: -0.08566809445619583
visibility: 0.9974926114082336
","x: 275.7192077636719
y: 283.4452209472656
z: -0.08569725602865219
visibility: 0.9974486231803894
","x: 276.4276123046875
y: 283.3763732910156
z: -0.08571161329746246
visibility: 0.9972206354141235
","x: 272.73077392578125
y: 284.4255676269531
z: -0.0908157229423523
visibility: 0.9981817603111267
","x: 271.7113952636719
y: 284.6167297363281
z: -0.09081600606441498
visibility: 0.9982208609580994
","x: 270.6817321777344
y: 284.8227844238281
z: -0.09083588421344757
visibility: 0.9982886910438538
","x: 276.6007080078125
y: 286.0567932128906
z: -0.012943586334586143
visibility: 0.992097020149231
","x: 268.2524719238281
y: 286.2716064453125
z: -0.03729037195444107
visibility: 0.9975330233573914
","x: 275.19305419921875
y: 292.8917541503906
z: -0.07338827848434448
visibility: 0.9959575533866882
","x: 272.2072448730469
y: 294.0482177734375
z: -0.08046446740627289
visibility: 0.9980416893959045
","x: 282.1689147949219
y: 303.9794616699219
z: 0.00955749861896038
visibility: 0.9989443421363831
","x: 262.5854797363281
y: 315.641357421875
z: -0.006471638567745686
visibility: 0.9993354678153992
","x: 283.7471923828125
y: 278.62677001953125
z: -0.0033396505750715733
visibility: 0.9094627499580383
","x: 261.59228515625
y: 351.2397766113281
z: 0.011750204488635063
visibility: 0.9571062326431274
","x: 281.19805908203125
y: 253.71990966796875
z: -0.038783490657806396
visibility: 0.9034989476203918
","x: 263.23687744140625
y: 376.41961669921875
z: -0.011979633942246437
visibility: 0.9007986187934875
","x: 281.9156494140625
y: 244.8474884033203
z: -0.05846116691827774
visibility: 0.8315900564193726
","x: 263.13958740234375
y: 382.9424743652344
z: -0.02113858424127102
visibility: 0.8453012704849243
","x: 280.91241455078125
y: 245.1781463623047
z: -0.0633137971162796
visibility: 0.832693338394165
","x: 262.0592346191406
y: 380.1451416015625
z: -0.03770530968904495
visibility: 0.8507210612297058
","x: 280.4056396484375
y: 248.13848876953125
z: -0.04467809945344925
visibility: 0.8270208835601807
","x: 262.24346923828125
y: 376.416015625
z: -0.01880999282002449
visibility: 0.8288907408714294
","x: 280.6377258300781
y: 381.21392822265625
z: 0.011010969057679176
visibility: 0.9995577335357666
","x: 267.3061218261719
y: 379.96044921875
z: -0.011026181280612946
visibility: 0.9995075464248657
","x: 281.6620788574219
y: 429.9300537109375
z: -0.04715942218899727
visibility: 0.9298923015594482
","x: 271.1745910644531
y: 426.3845520019531
z: -0.10550157725811005
visibility: 0.9598389267921448
","x: 281.5630798339844
y: 483.54541015625
z: 0.013087200000882149
visibility: 0.9252458810806274
","x: 269.2976379394531
y: 467.96466064453125
z: 0.0051918039098382
visibility: 0.9349103569984436
","x: 278.6051025390625
y: 488.8086242675781
z: 0.015264664776623249
visibility: 0.8183591365814209
","x: 268.4750061035156
y: 474.50872802734375
z: 0.01330199558287859
visibility: 0.7203804850578308
","x: 284.70587158203125
y: 495.1300048828125
z: -0.05819948762655258
visibility: 0.9267920851707458
","x: 270.99224853515625
y: 485.0736083984375
z: -0.05733181908726692
visibility: 0.9286981821060181
","x: 283.5185241699219
y: 256.4896240234375
z: 0.0
","x: 281.828857421875
y: 252.67388916015625
z: -0.0009636264876462519
","x: 281.27276611328125
y: 248.286376953125
z: -0.001955324085429311
","x: 282.21826171875
y: 245.77163696289062
z: -0.003302700351923704
","x: 283.5530090332031
y: 245.01466369628906
z: -0.004429539665579796
","x: 283.952880859375
y: 243.19354248046875
z: -0.0006155926384963095
","x: 284.91851806640625
y: 238.58290100097656
z: -0.0025254832580685616
","x: 285.6456298828125
y: 236.14682006835938
z: -0.00352862267754972
","x: 286.3750305175781
y: 234.3431854248047
z: -0.004126920830458403
","x: 285.3972473144531
y: 244.39405822753906
z: -0.0016282119322568178
","x: 286.03375244140625
y: 239.80490112304688
z: -0.003742973320186138
","x: 286.3948059082031
y: 236.96226501464844
z: -0.004604075103998184
","x: 286.8697509765625
y: 234.98526000976562
z: -0.005052049644291401
","x: 286.50634765625
y: 246.5377197265625
z: -0.0029495463240891695
","x: 286.73699951171875
y: 245.0146484375
z: -0.005005572456866503
","x: 285.572509765625
y: 246.92776489257812
z: -0.004714189562946558
","x: 284.77716064453125
y: 248.7513427734375
z: -0.003964957315474749
","x: 287.4201354980469
y: 249.2743682861328
z: -0.004585563205182552
","x: 287.5241394042969
y: 248.14639282226562
z: -0.00612677214667201
","x: 286.72283935546875
y: 249.32232666015625
z: -0.006015790160745382
","x: 286.152099609375
y: 250.72837829589844
z: -0.005466049537062645
",,,,,,,,,,,,,,,,,,,,,
15,"x: 274.02740478515625
y: 289.077392578125
z: -0.11722711473703384
visibility: 0.9992148280143738
","x: 275.1297607421875
y: 284.21929931640625
z: -0.10418541729450226
visibility: 0.9969831109046936
","x: 275.8281555175781
y: 283.85479736328125
z: -0.10419915616512299
visibility: 0.9969709515571594
","x: 276.5510559082031
y: 283.6426086425781
z: -0.1042054295539856
visibility: 0.9966723322868347
","x: 272.87774658203125
y: 284.926025390625
z: -0.1086551770567894
visibility: 0.9979585409164429
","x: 271.88616943359375
y: 285.09906005859375
z: -0.10866206884384155
visibility: 0.998069703578949
","x: 270.87322998046875
y: 285.27166748046875
z: -0.10868047177791595
visibility: 0.9981634616851807
","x: 276.87579345703125
y: 286.3327331542969
z: -0.03135119751095772
visibility: 0.9899574518203735
","x: 268.5511779785156
y: 286.3433837890625
z: -0.05335791036486626
visibility: 0.9974294304847717
","x: 275.1946105957031
y: 293.0013427734375
z: -0.09005863219499588
visibility: 0.9950418472290039
","x: 272.2138366699219
y: 294.1800842285156
z: -0.09625916182994843
visibility: 0.9977174401283264
","x: 282.725830078125
y: 303.19976806640625
z: -0.00324988248758018
visibility: 0.9988924264907837
","x: 262.61968994140625
y: 315.3954162597656
z: -0.015813302248716354
visibility: 0.9993121027946472
","x: 283.773681640625
y: 277.39202880859375
z: -0.01324637234210968
visibility: 0.9141874313354492
","x: 261.8678283691406
y: 349.665283203125
z: 0.011204485781490803
visibility: 0.9517738819122314
","x: 282.14727783203125
y: 251.84527587890625
z: -0.04668229818344116
visibility: 0.9075208902359009
","x: 263.1939697265625
y: 374.5045166015625
z: -0.006311304867267609
visibility: 0.8858515620231628
","x: 282.9532470703125
y: 243.68145751953125
z: -0.06508534401655197
visibility: 0.8344722390174866
","x: 263.030029296875
y: 381.26214599609375
z: -0.013501273468136787
visibility: 0.8274233937263489
","x: 282.0762939453125
y: 243.11456298828125
z: -0.07104244828224182
visibility: 0.8349217772483826
","x: 263.39520263671875
y: 378.201416015625
z: -0.02988797426223755
visibility: 0.8336389660835266
","x: 281.7164001464844
y: 245.98951721191406
z: -0.052919596433639526
visibility: 0.8308400511741638
","x: 263.4292297363281
y: 374.3991394042969
z: -0.012757046148180962
visibility: 0.8111981153488159
","x: 281.6622314453125
y: 378.6425476074219
z: 0.009176582098007202
visibility: 0.9995507001876831
","x: 267.7051696777344
y: 377.85870361328125
z: -0.009212043136358261
visibility: 0.9995084404945374
","x: 281.2391662597656
y: 428.53009033203125
z: -0.038809970021247864
visibility: 0.9333085417747498
","x: 270.88836669921875
y: 422.92193603515625
z: -0.07956792414188385
visibility: 0.961905837059021
","x: 282.32293701171875
y: 479.78936767578125
z: 0.026136338710784912
visibility: 0.9284716844558716
","x: 269.4188232421875
y: 465.8984680175781
z: 0.016878772526979446
visibility: 0.9375672340393066
","x: 280.2386169433594
y: 485.7292175292969
z: 0.028639737516641617
visibility: 0.8202519416809082
","x: 269.0791015625
y: 472.0172119140625
z: 0.023023344576358795
visibility: 0.723651647567749
","x: 284.0876159667969
y: 493.74517822265625
z: -0.04897496849298477
visibility: 0.9297645688056946
","x: 272.2630310058594
y: 485.498046875
z: -0.05536875128746033
visibility: 0.9320714473724365
","x: 284.4596252441406
y: 255.51803588867188
z: 0.0
","x: 286.50091552734375
y: 251.78443908691406
z: 1.4546657439495903e-05
","x: 287.7728576660156
y: 248.507080078125
z: -0.0005163484602235258
","x: 288.4208679199219
y: 246.64419555664062
z: -0.0016068759141489863
","x: 288.5870666503906
y: 245.76271057128906
z: -0.0025432282127439976
","x: 285.5965881347656
y: 242.77316284179688
z: 0.00047080652439035475
","x: 285.5718994140625
y: 238.16514587402344
z: -0.0012932255631312728
","x: 286.0086975097656
y: 235.37127685546875
z: -0.0024247418623417616
","x: 286.4956970214844
y: 233.0400848388672
z: -0.0030260873027145863
","x: 284.2898864746094
y: 243.1604766845703
z: -0.000955271243583411
","x: 284.4149169921875
y: 238.24868774414062
z: -0.002771644154563546
","x: 285.17828369140625
y: 235.46951293945312
z: -0.0035278256982564926
","x: 285.9030456542969
y: 233.2947540283203
z: -0.003848351538181305
","x: 283.10052490234375
y: 244.19708251953125
z: -0.0026753500569611788
","x: 283.5274963378906
y: 240.857177734375
z: -0.004418239463120699
","x: 284.57293701171875
y: 241.5584716796875
z: -0.004065241664648056
","x: 285.3882751464844
y: 242.62918090820312
z: -0.003429475938901305
","x: 282.0609436035156
y: 245.75296020507812
z: -0.00464635482057929
","x: 282.4745178222656
y: 242.78292846679688
z: -0.005914370063692331
","x: 283.2712707519531
y: 242.24493408203125
z: -0.005651656538248062
","x: 283.9570617675781
y: 242.2873077392578
z: -0.005113448016345501
",,,,,,,,,,,,,,,,,,,,,
16,"x: 274.02740478515625
y: 289.077392578125
z: -0.11722711473703384
visibility: 0.9992148280143738
","x: 275.1297607421875
y: 284.21929931640625
z: -0.10418541729450226
visibility: 0.9969831109046936
","x: 275.8281555175781
y: 283.85479736328125
z: -0.10419915616512299
visibility: 0.9969709515571594
","x: 276.5510559082031
y: 283.6426086425781
z: -0.1042054295539856
visibility: 0.9966723322868347
","x: 272.87774658203125
y: 284.926025390625
z: -0.1086551770567894
visibility: 0.9979585409164429
","x: 271.88616943359375
y: 285.09906005859375
z: -0.10866206884384155
visibility: 0.998069703578949
","x: 270.87322998046875
y: 285.27166748046875
z: -0.10868047177791595
visibility: 0.9981634616851807
","x: 276.87579345703125
y: 286.3327331542969
z: -0.03135119751095772
visibility: 0.9899574518203735
","x: 268.5511779785156
y: 286.3433837890625
z: -0.05335791036486626
visibility: 0.9974294304847717
","x: 275.1946105957031
y: 293.0013427734375
z: -0.09005863219499588
visibility: 0.9950418472290039
","x: 272.2138366699219
y: 294.1800842285156
z: -0.09625916182994843
visibility: 0.9977174401283264
","x: 282.725830078125
y: 303.19976806640625
z: -0.00324988248758018
visibility: 0.9988924264907837
","x: 262.61968994140625
y: 315.3954162597656
z: -0.015813302248716354
visibility: 0.9993121027946472
","x: 283.773681640625
y: 277.39202880859375
z: -0.01324637234210968
visibility: 0.9141874313354492
","x: 261.8678283691406
y: 349.665283203125
z: 0.011204485781490803
visibility: 0.9517738819122314
","x: 282.14727783203125
y: 251.84527587890625
z: -0.04668229818344116
visibility: 0.9075208902359009
","x: 263.1939697265625
y: 374.5045166015625
z: -0.006311304867267609
visibility: 0.8858515620231628
","x: 282.9532470703125
y: 243.68145751953125
z: -0.06508534401655197
visibility: 0.8344722390174866
","x: 263.030029296875
y: 381.26214599609375
z: -0.013501273468136787
visibility: 0.8274233937263489
","x: 282.0762939453125
y: 243.11456298828125
z: -0.07104244828224182
visibility: 0.8349217772483826
","x: 263.39520263671875
y: 378.201416015625
z: -0.02988797426223755
visibility: 0.8336389660835266
","x: 281.7164001464844
y: 245.98951721191406
z: -0.052919596433639526
visibility: 0.8308400511741638
","x: 263.4292297363281
y: 374.3991394042969
z: -0.012757046148180962
visibility: 0.8111981153488159
","x: 281.6622314453125
y: 378.6425476074219
z: 0.009176582098007202
visibility: 0.9995507001876831
","x: 267.7051696777344
y: 377.85870361328125
z: -0.009212043136358261
visibility: 0.9995084404945374
","x: 281.2391662597656
y: 428.53009033203125
z: -0.038809970021247864
visibility: 0.9333085417747498
","x: 270.88836669921875
y: 422.92193603515625
z: -0.07956792414188385
visibility: 0.961905837059021
","x: 282.32293701171875
y: 479.78936767578125
z: 0.026136338710784912
visibility: 0.9284716844558716
","x: 269.4188232421875
y: 465.8984680175781
z: 0.016878772526979446
visibility: 0.9375672340393066
","x: 280.2386169433594
y: 485.7292175292969
z: 0.028639737516641617
visibility: 0.8202519416809082
","x: 269.0791015625
y: 472.0172119140625
z: 0.023023344576358795
visibility: 0.723651647567749
","x: 284.0876159667969
y: 493.74517822265625
z: -0.04897496849298477
visibility: 0.9297645688056946
","x: 272.2630310058594
y: 485.498046875
z: -0.05536875128746033
visibility: 0.9320714473724365
","x: 284.4596252441406
y: 255.51803588867188
z: 0.0
","x: 286.50091552734375
y: 251.78443908691406
z: 1.4546657439495903e-05
","x: 287.7728576660156
y: 248.507080078125
z: -0.0005163484602235258
","x: 288.4208679199219
y: 246.64419555664062
z: -0.0016068759141489863
","x: 288.5870666503906
y: 245.76271057128906
z: -0.0025432282127439976
","x: 285.5965881347656
y: 242.77316284179688
z: 0.00047080652439035475
","x: 285.5718994140625
y: 238.16514587402344
z: -0.0012932255631312728
","x: 286.0086975097656
y: 235.37127685546875
z: -0.0024247418623417616
","x: 286.4956970214844
y: 233.0400848388672
z: -0.0030260873027145863
","x: 284.2898864746094
y: 243.1604766845703
z: -0.000955271243583411
","x: 284.4149169921875
y: 238.24868774414062
z: -0.002771644154563546
","x: 285.17828369140625
y: 235.46951293945312
z: -0.0035278256982564926
","x: 285.9030456542969
y: 233.2947540283203
z: -0.003848351538181305
","x: 283.10052490234375
y: 244.19708251953125
z: -0.0026753500569611788
","x: 283.5274963378906
y: 240.857177734375
z: -0.004418239463120699
","x: 284.57293701171875
y: 241.5584716796875
z: -0.004065241664648056
","x: 285.3882751464844
y: 242.62918090820312
z: -0.003429475938901305
","x: 282.0609436035156
y: 245.75296020507812
z: -0.00464635482057929
","x: 282.4745178222656
y: 242.78292846679688
z: -0.005914370063692331
","x: 283.2712707519531
y: 242.24493408203125
z: -0.005651656538248062
","x: 283.9570617675781
y: 242.2873077392578
z: -0.005113448016345501
",,,,,,,,,,,,,,,,,,,,,
17,"x: 274.2557373046875
y: 290.55853271484375
z: -0.1207595244050026
visibility: 0.999062180519104
","x: 275.3100280761719
y: 285.6654968261719
z: -0.1062292605638504
visibility: 0.9966157674789429
","x: 276.05450439453125
y: 285.39263916015625
z: -0.10625548660755157
visibility: 0.996528685092926
","x: 276.83941650390625
y: 285.2077941894531
z: -0.10627691447734833
visibility: 0.9962109327316284
","x: 273.0033264160156
y: 286.2652893066406
z: -0.11056484282016754
visibility: 0.9978327751159668
","x: 272.017578125
y: 286.4534606933594
z: -0.11056786775588989
visibility: 0.9979358315467834
","x: 271.0119323730469
y: 286.62298583984375
z: -0.11057857424020767
visibility: 0.9980786442756653
","x: 277.25225830078125
y: 287.2691650390625
z: -0.026707550510764122
visibility: 0.9893662929534912
","x: 268.863037109375
y: 287.4249267578125
z: -0.0472576767206192
visibility: 0.9973626732826233
","x: 275.5304870605469
y: 294.64288330078125
z: -0.09084496647119522
visibility: 0.9938850998878479
","x: 272.5108642578125
y: 295.5236511230469
z: -0.09686476737260818
visibility: 0.9973375797271729
","x: 283.0607604980469
y: 304.0132751464844
z: 0.002737373346462846
visibility: 0.9986738562583923
","x: 261.9659729003906
y: 316.9733581542969
z: -0.005206414498388767
visibility: 0.9990935921669006
","x: 284.06976318359375
y: 277.6392822265625
z: -0.00694017019122839
visibility: 0.9183713793754578
","x: 261.06695556640625
y: 353.25201416015625
z: -0.008480197750031948
visibility: 0.9341930747032166
","x: 282.347412109375
y: 250.74317932128906
z: -0.036199185997247696
visibility: 0.9105720520019531
","x: 261.5755310058594
y: 369.9144287109375
z: -0.07409895956516266
visibility: 0.861678957939148
","x: 283.0356750488281
y: 242.26708984375
z: -0.05611322447657585
visibility: 0.8368396162986755
","x: 264.11334228515625
y: 378.33929443359375
z: -0.09160621464252472
visibility: 0.8019038438796997
","x: 282.32293701171875
y: 241.7969970703125
z: -0.06212766841053963
visibility: 0.8365077972412109
","x: 264.8041687011719
y: 375.9233093261719
z: -0.10684968531131744
visibility: 0.8095587491989136
","x: 282.03277587890625
y: 244.8454132080078
z: -0.04224283993244171
visibility: 0.8331803679466248
","x: 265.2454528808594
y: 373.1191711425781
z: -0.08168169111013412
visibility: 0.7854136824607849
","x: 281.1028137207031
y: 379.9176025390625
z: 0.0043381801806390285
visibility: 0.9994773864746094
","x: 267.2930603027344
y: 379.35040283203125
z: -0.004306478425860405
visibility: 0.9994272589683533
","x: 280.6543273925781
y: 429.38543701171875
z: -0.03822663053870201
visibility: 0.9351746439933777
","x: 271.1728820800781
y: 426.19976806640625
z: -0.06116678565740585
visibility: 0.9578202366828918
","x: 281.016845703125
y: 482.9490966796875
z: 0.014812717214226723
visibility: 0.926554799079895
","x: 271.6919250488281
y: 469.31085205078125
z: 0.006502378731966019
visibility: 0.9344173669815063
","x: 279.3583068847656
y: 488.4439392089844
z: 0.015336778946220875
visibility: 0.8092140555381775
","x: 273.22076416015625
y: 482.87542724609375
z: 0.008610500022768974
visibility: 0.7187990546226501
","x: 282.3943786621094
y: 494.57598876953125
z: -0.06921952217817307
visibility: 0.9274162650108337
","x: 272.0077819824219
y: 486.0232849121094
z: -0.07807079702615738
visibility: 0.930266797542572
","x: 284.1785583496094
y: 254.0520477294922
z: 0.0
","x: 282.7265625
y: 249.70191955566406
z: 0.00020845206745434552
","x: 282.3167724609375
y: 245.37538146972656
z: -0.00040012734825722873
","x: 282.94061279296875
y: 242.94570922851562
z: -0.001473551383242011
","x: 283.86376953125
y: 241.948486328125
z: -0.002367452485486865
","x: 284.0497741699219
y: 241.505126953125
z: 2.478155874996446e-05
","x: 284.76483154296875
y: 236.7078857421875
z: -0.001462441054172814
","x: 285.5550537109375
y: 233.52191162109375
z: -0.0026192255318164825
","x: 286.24322509765625
y: 231.15476989746094
z: -0.003371705999597907
","x: 285.22406005859375
y: 242.56324768066406
z: -0.0011935608927160501
","x: 285.6956481933594
y: 240.483154296875
z: -0.0025913571007549763
","x: 285.1507568359375
y: 242.1089324951172
z: -0.0026674685068428516
","x: 284.716552734375
y: 243.71603393554688
z: -0.0024732183665037155
","x: 286.23345947265625
y: 244.38255310058594
z: -0.0025823363102972507
","x: 286.6468505859375
y: 242.8854217529297
z: -0.003823035629466176
","x: 285.9210510253906
y: 244.50955200195312
z: -0.003109387354925275
","x: 285.3544006347656
y: 245.91680908203125
z: -0.002441961085423827
","x: 287.1959228515625
y: 246.72354125976562
z: -0.004177735187113285
","x: 287.7207946777344
y: 245.43136596679688
z: -0.0049766236916184425
","x: 287.2176513671875
y: 246.44773864746094
z: -0.004396711941808462
","x: 286.73822021484375
y: 247.51220703125
z: -0.0037587990518659353
",,,,,,,,,,,,,,,,,,,,,
18,"x: 274.2557373046875
y: 290.55853271484375
z: -0.1207595244050026
visibility: 0.999062180519104
","x: 275.3100280761719
y: 285.6654968261719
z: -0.1062292605638504
visibility: 0.9966157674789429
","x: 276.05450439453125
y: 285.39263916015625
z: -0.10625548660755157
visibility: 0.996528685092926
","x: 276.83941650390625
y: 285.2077941894531
z: -0.10627691447734833
visibility: 0.9962109327316284
","x: 273.0033264160156
y: 286.2652893066406
z: -0.11056484282016754
visibility: 0.9978327751159668
","x: 272.017578125
y: 286.4534606933594
z: -0.11056786775588989
visibility: 0.9979358315467834
","x: 271.0119323730469
y: 286.62298583984375
z: -0.11057857424020767
visibility: 0.9980786442756653
","x: 277.25225830078125
y: 287.2691650390625
z: -0.026707550510764122
visibility: 0.9893662929534912
","x: 268.863037109375
y: 287.4249267578125
z: -0.0472576767206192
visibility: 0.9973626732826233
","x: 275.5304870605469
y: 294.64288330078125
z: -0.09084496647119522
visibility: 0.9938850998878479
","x: 272.5108642578125
y: 295.5236511230469
z: -0.09686476737260818
visibility: 0.9973375797271729
","x: 283.0607604980469
y: 304.0132751464844
z: 0.002737373346462846
visibility: 0.9986738562583923
","x: 261.9659729003906
y: 316.9733581542969
z: -0.005206414498388767
visibility: 0.9990935921669006
","x: 284.06976318359375
y: 277.6392822265625
z: -0.00694017019122839
visibility: 0.9183713793754578
","x: 261.06695556640625
y: 353.25201416015625
z: -0.008480197750031948
visibility: 0.9341930747032166
","x: 282.347412109375
y: 250.74317932128906
z: -0.036199185997247696
visibility: 0.9105720520019531
","x: 261.5755310058594
y: 369.9144287109375
z: -0.07409895956516266
visibility: 0.861678957939148
","x: 283.0356750488281
y: 242.26708984375
z: -0.05611322447657585
visibility: 0.8368396162986755
","x: 264.11334228515625
y: 378.33929443359375
z: -0.09160621464252472
visibility: 0.8019038438796997
","x: 282.32293701171875
y: 241.7969970703125
z: -0.06212766841053963
visibility: 0.8365077972412109
","x: 264.8041687011719
y: 375.9233093261719
z: -0.10684968531131744
visibility: 0.8095587491989136
","x: 282.03277587890625
y: 244.8454132080078
z: -0.04224283993244171
visibility: 0.8331803679466248
","x: 265.2454528808594
y: 373.1191711425781
z: -0.08168169111013412
visibility: 0.7854136824607849
","x: 281.1028137207031
y: 379.9176025390625
z: 0.0043381801806390285
visibility: 0.9994773864746094
","x: 267.2930603027344
y: 379.35040283203125
z: -0.004306478425860405
visibility: 0.9994272589683533
","x: 280.6543273925781
y: 429.38543701171875
z: -0.03822663053870201
visibility: 0.9351746439933777
","x: 271.1728820800781
y: 426.19976806640625
z: -0.06116678565740585
visibility: 0.9578202366828918
","x: 281.016845703125
y: 482.9490966796875
z: 0.014812717214226723
visibility: 0.926554799079895
","x: 271.6919250488281
y: 469.31085205078125
z: 0.006502378731966019
visibility: 0.9344173669815063
","x: 279.3583068847656
y: 488.4439392089844
z: 0.015336778946220875
visibility: 0.8092140555381775
","x: 273.22076416015625
y: 482.87542724609375
z: 0.008610500022768974
visibility: 0.7187990546226501
","x: 282.3943786621094
y: 494.57598876953125
z: -0.06921952217817307
visibility: 0.9274162650108337
","x: 272.0077819824219
y: 486.0232849121094
z: -0.07807079702615738
visibility: 0.930266797542572
","x: 284.1785583496094
y: 254.0520477294922
z: 0.0
","x: 282.7265625
y: 249.70191955566406
z: 0.00020845206745434552
","x: 282.3167724609375
y: 245.37538146972656
z: -0.00040012734825722873
","x: 282.94061279296875
y: 242.94570922851562
z: -0.001473551383242011
","x: 283.86376953125
y: 241.948486328125
z: -0.002367452485486865
","x: 284.0497741699219
y: 241.505126953125
z: 2.478155874996446e-05
","x: 284.76483154296875
y: 236.7078857421875
z: -0.001462441054172814
","x: 285.5550537109375
y: 233.52191162109375
z: -0.0026192255318164825
","x: 286.24322509765625
y: 231.15476989746094
z: -0.003371705999597907
","x: 285.22406005859375
y: 242.56324768066406
z: -0.0011935608927160501
","x: 285.6956481933594
y: 240.483154296875
z: -0.0025913571007549763
","x: 285.1507568359375
y: 242.1089324951172
z: -0.0026674685068428516
","x: 284.716552734375
y: 243.71603393554688
z: -0.0024732183665037155
","x: 286.23345947265625
y: 244.38255310058594
z: -0.0025823363102972507
","x: 286.6468505859375
y: 242.8854217529297
z: -0.003823035629466176
","x: 285.9210510253906
y: 244.50955200195312
z: -0.003109387354925275
","x: 285.3544006347656
y: 245.91680908203125
z: -0.002441961085423827
","x: 287.1959228515625
y: 246.72354125976562
z: -0.004177735187113285
","x: 287.7207946777344
y: 245.43136596679688
z: -0.0049766236916184425
","x: 287.2176513671875
y: 246.44773864746094
z: -0.004396711941808462
","x: 286.73822021484375
y: 247.51220703125
z: -0.0037587990518659353
",,,,,,,,,,,,,,,,,,,,,
19,"x: 273.8086853027344
y: 290.5811462402344
z: -0.16816239058971405
visibility: 0.9991251826286316
","x: 275.0514831542969
y: 285.7729797363281
z: -0.15469053387641907
visibility: 0.9968229532241821
","x: 275.81048583984375
y: 285.5128173828125
z: -0.154696986079216
visibility: 0.9967475533485413
","x: 276.60736083984375
y: 285.3243713378906
z: -0.15471290051937103
visibility: 0.9964466691017151
","x: 272.7140808105469
y: 286.3670654296875
z: -0.15547367930412292
visibility: 0.9979762434959412
","x: 271.7403869628906
y: 286.56304931640625
z: -0.15548118948936462
visibility: 0.9980737566947937
","x: 270.7602233886719
y: 286.7459716796875
z: -0.15548409521579742
visibility: 0.9982100129127502
","x: 277.11199951171875
y: 287.3284912109375
z: -0.07841434329748154
visibility: 0.9901537895202637
","x: 268.739990234375
y: 287.6271667480469
z: -0.0819503590464592
visibility: 0.9975413084030151
","x: 275.02252197265625
y: 294.6614685058594
z: -0.13926085829734802
visibility: 0.9942819476127625
","x: 271.9949035644531
y: 295.531005859375
z: -0.1405574530363083
visibility: 0.9975058436393738
","x: 282.8301696777344
y: 304.5069580078125
z: -0.055263616144657135
visibility: 0.9987356662750244
","x: 261.18524169921875
y: 317.038818359375
z: -0.015145061537623405
visibility: 0.9990981817245483
","x: 284.4457092285156
y: 278.0045166015625
z: -0.06842420995235443
visibility: 0.9247950315475464
","x: 259.7365417480469
y: 352.8768310546875
z: 0.02065780945122242
visibility: 0.9276260137557983
","x: 282.4967346191406
y: 249.94642639160156
z: -0.07733301818370819
visibility: 0.9155734777450562
","x: 259.1214294433594
y: 374.82720947265625
z: -0.0028505700174719095
visibility: 0.8556264042854309
","x: 283.3179931640625
y: 241.387451171875
z: -0.09379016607999802
visibility: 0.8426434993743896
","x: 260.863525390625
y: 385.35821533203125
z: -0.011015390045940876
visibility: 0.7928183078765869
","x: 282.5870666503906
y: 241.42897033691406
z: -0.10311029851436615
visibility: 0.8418964743614197
","x: 261.7262878417969
y: 384.51837158203125
z: -0.029662877321243286
visibility: 0.8015493750572205
","x: 282.1965026855469
y: 244.11074829101562
z: -0.0813032016158104
visibility: 0.8384859561920166
","x: 262.4175109863281
y: 381.0432434082031
z: -0.010486774146556854
visibility: 0.7773821353912354
","x: 280.8758239746094
y: 379.48199462890625
z: -0.00997050292789936
visibility: 0.9994903802871704
","x: 266.6460266113281
y: 380.0787353515625
z: 0.009967601858079433
visibility: 0.9994307160377502
","x: 280.1454772949219
y: 429.48260498046875
z: -0.03632315620779991
visibility: 0.940893292427063
","x: 269.6891784667969
y: 432.1456604003906
z: 0.0037009387742727995
visibility: 0.9600199460983276
","x: 280.5914306640625
y: 480.7717590332031
z: 0.07065900415182114
visibility: 0.9327265620231628
","x: 271.4740905761719
y: 477.1471862792969
z: 0.11706690490245819
visibility: 0.9390735030174255
","x: 280.17608642578125
y: 485.0894775390625
z: 0.07811537384986877
visibility: 0.815638542175293
","x: 272.43817138671875
y: 485.4825134277344
z: 0.1235412135720253
visibility: 0.7341196537017822
","x: 280.9001770019531
y: 494.0620422363281
z: -0.013713975436985493
visibility: 0.9332167506217957
","x: 271.07806396484375
y: 491.5864562988281
z: 0.03757519647479057
visibility: 0.9350623488426208
",,,,,,,,,,,,,,,,,,,,,,,,,,,,,,,,,,,,,,,,,,
20,"x: 273.51446533203125
y: 290.60186767578125
z: -0.16697092354297638
visibility: 0.999197781085968
","x: 274.819580078125
y: 285.95050048828125
z: -0.15256421267986298
visibility: 0.9970685243606567
","x: 275.5758056640625
y: 285.6902770996094
z: -0.15255357325077057
visibility: 0.9970079660415649
","x: 276.3755187988281
y: 285.47833251953125
z: -0.15257993340492249
visibility: 0.9967206120491028
","x: 272.455322265625
y: 286.6220397949219
z: -0.15300524234771729
visibility: 0.9981356263160706
","x: 271.4856262207031
y: 286.8520202636719
z: -0.1530209183692932
visibility: 0.998225748538971
","x: 270.5090026855469
y: 287.089599609375
z: -0.15300427377223969
visibility: 0.9983499050140381
","x: 277.0299377441406
y: 287.4017028808594
z: -0.07344438135623932
visibility: 0.9910614490509033
","x: 268.5989990234375
y: 288.06536865234375
z: -0.07749022543430328
visibility: 0.9977253079414368
","x: 274.73974609375
y: 294.6724853515625
z: -0.13711592555046082
visibility: 0.9947770237922668
","x: 271.68756103515625
y: 295.6192626953125
z: -0.13785988092422485
visibility: 0.9977138042449951
","x: 282.6789855957031
y: 304.7680969238281
z: -0.05579881742596626
visibility: 0.9988380074501038
","x: 260.7689514160156
y: 317.0910949707031
z: -0.002004065550863743
visibility: 0.9991621375083923
","x: 284.53643798828125
y: 277.079833984375
z: -0.0865517407655716
visibility: 0.9315976500511169
","x: 258.6028137207031
y: 352.8811950683594
z: 0.03300424665212631
visibility: 0.9287592768669128
","x: 282.5242004394531
y: 249.8392333984375
z: -0.1360667496919632
visibility: 0.9209896922111511
","x: 258.1815490722656
y: 377.9049377441406
z: -0.010240402072668076
visibility: 0.8575168251991272
","x: 283.3199157714844
y: 240.66122436523438
z: -0.1629602611064911
visibility: 0.8499020934104919
","x: 258.9045715332031
y: 386.4949951171875
z: -0.01835179701447487
visibility: 0.7934722900390625
","x: 282.54632568359375
y: 240.5384063720703
z: -0.16739913821220398
visibility: 0.8490298390388489
","x: 260.0832824707031
y: 386.6151123046875
z: -0.03706823289394379
visibility: 0.8030428290367126
","x: 282.1684265136719
y: 243.16778564453125
z: -0.14158472418785095
visibility: 0.8459097146987915
","x: 260.0582580566406
y: 381.7308349609375
z: -0.018072834238409996
visibility: 0.7777166962623596
","x: 281.1910095214844
y: 375.4991149902344
z: -0.01914205774664879
visibility: 0.9995365142822266
","x: 266.9888000488281
y: 379.4397277832031
z: 0.019193369895219803
visibility: 0.9994780421257019
","x: 279.21923828125
y: 419.9621276855469
z: -0.22431814670562744
visibility: 0.9463254809379578
","x: 269.0050048828125
y: 432.05682373046875
z: -0.012985894456505775
visibility: 0.960466742515564
","x: 280.22760009765625
y: 455.68560791015625
z: -0.09691222012042999
visibility: 0.9379430413246155
","x: 272.548828125
y: 477.01593017578125
z: 0.09537466615438461
visibility: 0.9429066181182861
","x: 280.9179382324219
y: 457.527587890625
z: -0.08628331869840622
visibility: 0.82634037733078
","x: 273.7718811035156
y: 484.3703918457031
z: 0.10155116021633148
visibility: 0.7526085376739502
","x: 279.3470458984375
y: 479.1917419433594
z: -0.16578815877437592
visibility: 0.9387495517730713
","x: 270.7191162109375
y: 491.7275695800781
z: 0.018769394606351852
visibility: 0.9386160969734192
","x: 282.64019775390625
y: 252.93724060058594
z: 0.0
","x: 280.9010009765625
y: 248.46981811523438
z: -0.0004167986917309463
","x: 280.09716796875
y: 243.38514709472656
z: -0.001125018927268684
","x: 280.8503112792969
y: 240.00650024414062
z: -0.0022885652724653482
","x: 282.3827819824219
y: 239.2127685546875
z: -0.0032219099812209606
","x: 282.66473388671875
y: 238.5169219970703
z: 0.0003558312891982496
","x: 283.3216247558594
y: 233.23240661621094
z: -0.001254746108315885
","x: 283.9129333496094
y: 230.42967224121094
z: -0.0021747001446783543
","x: 284.5499267578125
y: 228.2874755859375
z: -0.0027235792949795723
","x: 284.1113586425781
y: 239.50277709960938
z: -0.0008368786075152457
","x: 284.52728271484375
y: 234.84963989257812
z: -0.002426349790766835
","x: 284.55548095703125
y: 232.94338989257812
z: -0.002987478394061327
","x: 284.7585754394531
y: 231.82345581054688
z: -0.0032417746260762215
","x: 285.32745361328125
y: 241.2913818359375
z: -0.0023547415621578693
","x: 285.03118896484375
y: 238.97201538085938
z: -0.0039690532721579075
","x: 283.9834899902344
y: 240.91172790527344
z: -0.00358611810952425
","x: 283.42431640625
y: 242.81661987304688
z: -0.002883226377889514
","x: 286.329345703125
y: 243.67999267578125
z: -0.00416118698194623
","x: 285.853759765625
y: 241.744384765625
z: -0.005171018652617931
","x: 284.96307373046875
y: 242.83065795898438
z: -0.004854325205087662
","x: 284.468994140625
y: 244.26177978515625
z: -0.004282017238438129
",,,,,,,,,,,,,,,,,,,,,
21,"x: 273.51446533203125
y: 290.60186767578125
z: -0.16697092354297638
visibility: 0.999197781085968
","x: 274.819580078125
y: 285.95050048828125
z: -0.15256421267986298
visibility: 0.9970685243606567
","x: 275.5758056640625
y: 285.6902770996094
z: -0.15255357325077057
visibility: 0.9970079660415649
","x: 276.3755187988281
y: 285.47833251953125
z: -0.15257993340492249
visibility: 0.9967206120491028
","x: 272.455322265625
y: 286.6220397949219
z: -0.15300524234771729
visibility: 0.9981356263160706
","x: 271.4856262207031
y: 286.8520202636719
z: -0.1530209183692932
visibility: 0.998225748538971
","x: 270.5090026855469
y: 287.089599609375
z: -0.15300427377223969
visibility: 0.9983499050140381
","x: 277.0299377441406
y: 287.4017028808594
z: -0.07344438135623932
visibility: 0.9910614490509033
","x: 268.5989990234375
y: 288.06536865234375
z: -0.07749022543430328
visibility: 0.9977253079414368
","x: 274.73974609375
y: 294.6724853515625
z: -0.13711592555046082
visibility: 0.9947770237922668
","x: 271.68756103515625
y: 295.6192626953125
z: -0.13785988092422485
visibility: 0.9977138042449951
","x: 282.6789855957031
y: 304.7680969238281
z: -0.05579881742596626
visibility: 0.9988380074501038
","x: 260.7689514160156
y: 317.0910949707031
z: -0.002004065550863743
visibility: 0.9991621375083923
","x: 284.53643798828125
y: 277.079833984375
z: -0.0865517407655716
visibility: 0.9315976500511169
","x: 258.6028137207031
y: 352.8811950683594
z: 0.03300424665212631
visibility: 0.9287592768669128
","x: 282.5242004394531
y: 249.8392333984375
z: -0.1360667496919632
visibility: 0.9209896922111511
","x: 258.1815490722656
y: 377.9049377441406
z: -0.010240402072668076
visibility: 0.8575168251991272
","x: 283.3199157714844
y: 240.66122436523438
z: -0.1629602611064911
visibility: 0.8499020934104919
","x: 258.9045715332031
y: 386.4949951171875
z: -0.01835179701447487
visibility: 0.7934722900390625
","x: 282.54632568359375
y: 240.5384063720703
z: -0.16739913821220398
visibility: 0.8490298390388489
","x: 260.0832824707031
y: 386.6151123046875
z: -0.03706823289394379
visibility: 0.8030428290367126
","x: 282.1684265136719
y: 243.16778564453125
z: -0.14158472418785095
visibility: 0.8459097146987915
","x: 260.0582580566406
y: 381.7308349609375
z: -0.018072834238409996
visibility: 0.7777166962623596
","x: 281.1910095214844
y: 375.4991149902344
z: -0.01914205774664879
visibility: 0.9995365142822266
","x: 266.9888000488281
y: 379.4397277832031
z: 0.019193369895219803
visibility: 0.9994780421257019
","x: 279.21923828125
y: 419.9621276855469
z: -0.22431814670562744
visibility: 0.9463254809379578
","x: 269.0050048828125
y: 432.05682373046875
z: -0.012985894456505775
visibility: 0.960466742515564
","x: 280.22760009765625
y: 455.68560791015625
z: -0.09691222012042999
visibility: 0.9379430413246155
","x: 272.548828125
y: 477.01593017578125
z: 0.09537466615438461
visibility: 0.9429066181182861
","x: 280.9179382324219
y: 457.527587890625
z: -0.08628331869840622
visibility: 0.82634037733078
","x: 273.7718811035156
y: 484.3703918457031
z: 0.10155116021633148
visibility: 0.7526085376739502
","x: 279.3470458984375
y: 479.1917419433594
z: -0.16578815877437592
visibility: 0.9387495517730713
","x: 270.7191162109375
y: 491.7275695800781
z: 0.018769394606351852
visibility: 0.9386160969734192
","x: 282.64019775390625
y: 252.93724060058594
z: 0.0
","x: 280.9010009765625
y: 248.46981811523438
z: -0.0004167986917309463
","x: 280.09716796875
y: 243.38514709472656
z: -0.001125018927268684
","x: 280.8503112792969
y: 240.00650024414062
z: -0.0022885652724653482
","x: 282.3827819824219
y: 239.2127685546875
z: -0.0032219099812209606
","x: 282.66473388671875
y: 238.5169219970703
z: 0.0003558312891982496
","x: 283.3216247558594
y: 233.23240661621094
z: -0.001254746108315885
","x: 283.9129333496094
y: 230.42967224121094
z: -0.0021747001446783543
","x: 284.5499267578125
y: 228.2874755859375
z: -0.0027235792949795723
","x: 284.1113586425781
y: 239.50277709960938
z: -0.0008368786075152457
","x: 284.52728271484375
y: 234.84963989257812
z: -0.002426349790766835
","x: 284.55548095703125
y: 232.94338989257812
z: -0.002987478394061327
","x: 284.7585754394531
y: 231.82345581054688
z: -0.0032417746260762215
","x: 285.32745361328125
y: 241.2913818359375
z: -0.0023547415621578693
","x: 285.03118896484375
y: 238.97201538085938
z: -0.0039690532721579075
","x: 283.9834899902344
y: 240.91172790527344
z: -0.00358611810952425
","x: 283.42431640625
y: 242.81661987304688
z: -0.002883226377889514
","x: 286.329345703125
y: 243.67999267578125
z: -0.00416118698194623
","x: 285.853759765625
y: 241.744384765625
z: -0.005171018652617931
","x: 284.96307373046875
y: 242.83065795898438
z: -0.004854325205087662
","x: 284.468994140625
y: 244.26177978515625
z: -0.004282017238438129
",,,,,,,,,,,,,,,,,,,,,
22,"x: 273.36993408203125
y: 291.0363464355469
z: -0.19430938363075256
visibility: 0.9992669820785522
","x: 274.6396179199219
y: 286.58111572265625
z: -0.18120358884334564
visibility: 0.9973196983337402
","x: 275.3797912597656
y: 286.3538513183594
z: -0.18120135366916656
visibility: 0.9972670078277588
","x: 276.16473388671875
y: 286.17608642578125
z: -0.18122801184654236
visibility: 0.997004508972168
","x: 272.4364013671875
y: 287.2015075683594
z: -0.18242458999156952
visibility: 0.9982966780662537
","x: 271.4129638671875
y: 287.4091796875
z: -0.18244171142578125
visibility: 0.9983770251274109
","x: 270.3789367675781
y: 287.60589599609375
z: -0.18242725729942322
visibility: 0.9984899163246155
","x: 276.78118896484375
y: 287.9806823730469
z: -0.10032191127538681
visibility: 0.9918805360794067
","x: 268.47906494140625
y: 288.46942138671875
z: -0.10625270754098892
visibility: 0.997916042804718
","x: 274.5888366699219
y: 295.0104064941406
z: -0.16304269433021545
visibility: 0.9952506422996521
","x: 271.25225830078125
y: 295.9720458984375
z: -0.16481424868106842
visibility: 0.997906506061554
","x: 282.55499267578125
y: 304.92755126953125
z: -0.07169772684574127
visibility: 0.9989420175552368
","x: 260.4529724121094
y: 317.2589111328125
z: -0.025176381692290306
visibility: 0.9992054104804993
","x: 284.8209228515625
y: 274.9837341308594
z: -0.09397478401660919
visibility: 0.9375438094139099
","x: 258.2159118652344
y: 354.3896179199219
z: 0.010168703272938728
visibility: 0.929678201675415
","x: 282.6001281738281
y: 244.7403106689453
z: -0.148651584982872
visibility: 0.9255248308181763
","x: 257.4047546386719
y: 379.32196044921875
z: -0.04128686338663101
visibility: 0.8567366003990173
","x: 283.33636474609375
y: 235.8397674560547
z: -0.17487961053848267
visibility: 0.856469988822937
","x: 257.7261657714844
y: 389.9559326171875
z: -0.04946500062942505
visibility: 0.7899588346481323
","x: 282.551025390625
y: 235.1348876953125
z: -0.18136188387870789
visibility: 0.8554379343986511
","x: 258.6641540527344
y: 389.44073486328125
z: -0.07343335449695587
visibility: 0.8007372617721558
","x: 282.1806945800781
y: 238.19244384765625
z: -0.15510660409927368
visibility: 0.8523613810539246
","x: 259.0549011230469
y: 385.8575134277344
z: -0.05120038241147995
visibility: 0.7734031081199646
","x: 281.572021484375
y: 375.302490234375
z: -0.020500723272562027
visibility: 0.9995812177658081
","x: 267.2749938964844
y: 379.7397155761719
z: 0.020533112809062004
visibility: 0.9995178580284119
","x: 276.8314208984375
y: 421.3192443847656
z: -0.22373151779174805
visibility: 0.9511902928352356
","x: 268.85565185546875
y: 431.98046875
z: 0.03662785142660141
visibility: 0.9603058695793152
","x: 275.0094909667969
y: 466.5946044921875
z: -0.17728400230407715
visibility: 0.9437437653541565
","x: 276.9042053222656
y: 467.84979248046875
z: 0.18335939943790436
visibility: 0.9441710710525513
","x: 273.67669677734375
y: 468.75238037109375
z: -0.1764516532421112
visibility: 0.839654803276062
","x: 281.2422790527344
y: 470.9718017578125
z: 0.19383327662944794
visibility: 0.7696779370307922
","x: 273.4873046875
y: 482.0617370605469
z: -0.2820942997932434
visibility: 0.9444289207458496
","x: 273.0458679199219
y: 490.2796630859375
z: 0.1238323226571083
visibility: 0.9410837292671204
","x: 283.96160888671875
y: 251.17445373535156
z: 0.0
","x: 285.6948547363281
y: 245.16465759277344
z: 0.000607724767178297
","x: 285.81317138671875
y: 240.1329803466797
z: 0.0002026174624916166
","x: 284.7497253417969
y: 236.8234405517578
z: -0.0009497255668975413
","x: 283.1842956542969
y: 236.19943237304688
z: -0.0019649071618914604
","x: 283.6359558105469
y: 236.88723754882812
z: 0.0012226939434185624
","x: 283.25921630859375
y: 231.6214599609375
z: -0.00044540411909110844
","x: 283.5055847167969
y: 228.02528381347656
z: -0.0019331068033352494
","x: 283.8282470703125
y: 225.36581420898438
z: -0.0029316258151084185
","x: 282.6466369628906
y: 237.74688720703125
z: -0.00047855585580691695
","x: 282.74700927734375
y: 234.41824340820312
z: -0.0027754565235227346
","x: 283.6471252441406
y: 236.04934692382812
z: -0.003711661556735635
","x: 284.2801513671875
y: 238.3495330810547
z: -0.0038624487351626158
","x: 281.7559814453125
y: 239.22853088378906
z: -0.0023881534580141306
","x: 281.9570007324219
y: 236.01123046875
z: -0.004288716707378626
","x: 283.0864562988281
y: 237.3886260986328
z: -0.004260209854692221
","x: 283.86895751953125
y: 239.73252868652344
z: -0.003830195404589176
","x: 281.0126037597656
y: 241.0796356201172
z: -0.004474452696740627
","x: 280.8105163574219
y: 237.68064880371094
z: -0.005650787148624659
","x: 281.7785339355469
y: 237.22650146484375
z: -0.005543382838368416
","x: 282.5800476074219
y: 238.11187744140625
z: -0.005158823914825916
",,,,,,,,,,,,,,,,,,,,,
23,"x: 273.36993408203125
y: 291.0363464355469
z: -0.19430938363075256
visibility: 0.9992669820785522
","x: 274.6396179199219
y: 286.58111572265625
z: -0.18120358884334564
visibility: 0.9973196983337402
","x: 275.3797912597656
y: 286.3538513183594
z: -0.18120135366916656
visibility: 0.9972670078277588
","x: 276.16473388671875
y: 286.17608642578125
z: -0.18122801184654236
visibility: 0.997004508972168
","x: 272.4364013671875
y: 287.2015075683594
z: -0.18242458999156952
visibility: 0.9982966780662537
","x: 271.4129638671875
y: 287.4091796875
z: -0.18244171142578125
visibility: 0.9983770251274109
","x: 270.3789367675781
y: 287.60589599609375
z: -0.18242725729942322
visibility: 0.9984899163246155
","x: 276.78118896484375
y: 287.9806823730469
z: -0.10032191127538681
visibility: 0.9918805360794067
","x: 268.47906494140625
y: 288.46942138671875
z: -0.10625270754098892
visibility: 0.997916042804718
","x: 274.5888366699219
y: 295.0104064941406
z: -0.16304269433021545
visibility: 0.9952506422996521
","x: 271.25225830078125
y: 295.9720458984375
z: -0.16481424868106842
visibility: 0.997906506061554
","x: 282.55499267578125
y: 304.92755126953125
z: -0.07169772684574127
visibility: 0.9989420175552368
","x: 260.4529724121094
y: 317.2589111328125
z: -0.025176381692290306
visibility: 0.9992054104804993
","x: 284.8209228515625
y: 274.9837341308594
z: -0.09397478401660919
visibility: 0.9375438094139099
","x: 258.2159118652344
y: 354.3896179199219
z: 0.010168703272938728
visibility: 0.929678201675415
","x: 282.6001281738281
y: 244.7403106689453
z: -0.148651584982872
visibility: 0.9255248308181763
","x: 257.4047546386719
y: 379.32196044921875
z: -0.04128686338663101
visibility: 0.8567366003990173
","x: 283.33636474609375
y: 235.8397674560547
z: -0.17487961053848267
visibility: 0.856469988822937
","x: 257.7261657714844
y: 389.9559326171875
z: -0.04946500062942505
visibility: 0.7899588346481323
","x: 282.551025390625
y: 235.1348876953125
z: -0.18136188387870789
visibility: 0.8554379343986511
","x: 258.6641540527344
y: 389.44073486328125
z: -0.07343335449695587
visibility: 0.8007372617721558
","x: 282.1806945800781
y: 238.19244384765625
z: -0.15510660409927368
visibility: 0.8523613810539246
","x: 259.0549011230469
y: 385.8575134277344
z: -0.05120038241147995
visibility: 0.7734031081199646
","x: 281.572021484375
y: 375.302490234375
z: -0.020500723272562027
visibility: 0.9995812177658081
","x: 267.2749938964844
y: 379.7397155761719
z: 0.020533112809062004
visibility: 0.9995178580284119
","x: 276.8314208984375
y: 421.3192443847656
z: -0.22373151779174805
visibility: 0.9511902928352356
","x: 268.85565185546875
y: 431.98046875
z: 0.03662785142660141
visibility: 0.9603058695793152
","x: 275.0094909667969
y: 466.5946044921875
z: -0.17728400230407715
visibility: 0.9437437653541565
","x: 276.9042053222656
y: 467.84979248046875
z: 0.18335939943790436
visibility: 0.9441710710525513
","x: 273.67669677734375
y: 468.75238037109375
z: -0.1764516532421112
visibility: 0.839654803276062
","x: 281.2422790527344
y: 470.9718017578125
z: 0.19383327662944794
visibility: 0.7696779370307922
","x: 273.4873046875
y: 482.0617370605469
z: -0.2820942997932434
visibility: 0.9444289207458496
","x: 273.0458679199219
y: 490.2796630859375
z: 0.1238323226571083
visibility: 0.9410837292671204
","x: 283.96160888671875
y: 251.17445373535156
z: 0.0
","x: 285.6948547363281
y: 245.16465759277344
z: 0.000607724767178297
","x: 285.81317138671875
y: 240.1329803466797
z: 0.0002026174624916166
","x: 284.7497253417969
y: 236.8234405517578
z: -0.0009497255668975413
","x: 283.1842956542969
y: 236.19943237304688
z: -0.0019649071618914604
","x: 283.6359558105469
y: 236.88723754882812
z: 0.0012226939434185624
","x: 283.25921630859375
y: 231.6214599609375
z: -0.00044540411909110844
","x: 283.5055847167969
y: 228.02528381347656
z: -0.0019331068033352494
","x: 283.8282470703125
y: 225.36581420898438
z: -0.0029316258151084185
","x: 282.6466369628906
y: 237.74688720703125
z: -0.00047855585580691695
","x: 282.74700927734375
y: 234.41824340820312
z: -0.0027754565235227346
","x: 283.6471252441406
y: 236.04934692382812
z: -0.003711661556735635
","x: 284.2801513671875
y: 238.3495330810547
z: -0.0038624487351626158
","x: 281.7559814453125
y: 239.22853088378906
z: -0.0023881534580141306
","x: 281.9570007324219
y: 236.01123046875
z: -0.004288716707378626
","x: 283.0864562988281
y: 237.3886260986328
z: -0.004260209854692221
","x: 283.86895751953125
y: 239.73252868652344
z: -0.003830195404589176
","x: 281.0126037597656
y: 241.0796356201172
z: -0.004474452696740627
","x: 280.8105163574219
y: 237.68064880371094
z: -0.005650787148624659
","x: 281.7785339355469
y: 237.22650146484375
z: -0.005543382838368416
","x: 282.5800476074219
y: 238.11187744140625
z: -0.005158823914825916
",,,,,,,,,,,,,,,,,,,,,
24,"x: 273.4288330078125
y: 290.92413330078125
z: -0.13833419978618622
visibility: 0.9993046522140503
","x: 274.7303771972656
y: 286.4364318847656
z: -0.12632708251476288
visibility: 0.997439980506897
","x: 275.5282287597656
y: 286.2255554199219
z: -0.1263483464717865
visibility: 0.9973930716514587
","x: 276.3932189941406
y: 286.04937744140625
z: -0.12636908888816833
visibility: 0.9971509575843811
","x: 272.39898681640625
y: 287.0962219238281
z: -0.12488389015197754
visibility: 0.9983837604522705
","x: 271.4017028808594
y: 287.3438415527344
z: -0.12487989664077759
visibility: 0.9984509944915771
","x: 270.3893127441406
y: 287.5738830566406
z: -0.12486454099416733
visibility: 0.9985666871070862
","x: 277.2565612792969
y: 287.7768249511719
z: -0.05843845754861832
visibility: 0.9923946261405945
","x: 268.7686767578125
y: 288.4380798339844
z: -0.05245117098093033
visibility: 0.9980119466781616
","x: 274.8671875
y: 294.8031311035156
z: -0.11257757246494293
visibility: 0.9954768419265747
","x: 271.5740051269531
y: 295.911376953125
z: -0.1110064759850502
visibility: 0.997992217540741
","x: 283.6689758300781
y: 305.06536865234375
z: -0.06527511775493622
visibility: 0.9989766478538513
","x: 261.2723388671875
y: 317.10955810546875
z: 0.011787875555455685
visibility: 0.9991915822029114
","x: 286.3522644042969
y: 273.4234619140625
z: -0.07600376009941101
visibility: 0.9426280856132507
","x: 260.1904602050781
y: 353.04296875
z: 0.05516732856631279
visibility: 0.9148654937744141
","x: 282.8658447265625
y: 241.60272216796875
z: -0.11809109151363373
visibility: 0.9306336045265198
","x: 258.9942932128906
y: 376.33404541015625
z: 0.025797057896852493
visibility: 0.8416717052459717
","x: 283.4641418457031
y: 233.11318969726562
z: -0.14177916944026947
visibility: 0.8640104532241821
","x: 258.617919921875
y: 384.83538818359375
z: 0.017428578808903694
visibility: 0.7727875113487244
","x: 282.6249694824219
y: 232.03033447265625
z: -0.14616051316261292
visibility: 0.862734854221344
","x: 259.5337829589844
y: 383.89947509765625
z: -0.00016184950072783977
visibility: 0.7847702503204346
","x: 282.2644958496094
y: 235.4511260986328
z: -0.12352118641138077
visibility: 0.8597508668899536
","x: 260.25250244140625
y: 380.5167236328125
z: 0.01816166751086712
visibility: 0.7579236626625061
","x: 281.0542297363281
y: 376.1857604980469
z: -0.015415643341839314
visibility: 0.9995770454406738
","x: 267.00457763671875
y: 380.05267333984375
z: 0.015446971170604229
visibility: 0.9995224475860596
","x: 277.1645202636719
y: 426.8795166015625
z: -0.031126927584409714
visibility: 0.9545629620552063
","x: 268.8018798828125
y: 434.1981201171875
z: 0.0068038939498364925
visibility: 0.9624280333518982
","x: 279.45989990234375
y: 468.574462890625
z: 0.05895211547613144
visibility: 0.9475622773170471
","x: 274.0982971191406
y: 477.8172607421875
z: 0.12207947671413422
visibility: 0.9478563070297241
","x: 279.5885925292969
y: 473.33349609375
z: 0.06396616995334625
visibility: 0.8434932231903076
","x: 276.2904052734375
y: 482.6845703125
z: 0.11998707056045532
visibility: 0.7801517844200134
","x: 280.9165344238281
y: 483.2699890136719
z: -0.019466130062937737
visibility: 0.9480230212211609
","x: 273.2510070800781
y: 495.2743835449219
z: 0.035854537039995193
visibility: 0.944527268409729
","x: 283.37286376953125
y: 243.2208251953125
z: 0.0
","x: 281.5616455078125
y: 238.82220458984375
z: 5.438309017335996e-05
","x: 280.6894836425781
y: 233.86517333984375
z: -0.0005473392084240913
","x: 280.84490966796875
y: 230.3526611328125
z: -0.0017205781769007444
","x: 281.69793701171875
y: 228.72938537597656
z: -0.0026667157653719187
","x: 282.9850158691406
y: 229.3297576904297
z: 0.0006693130126222968
","x: 283.325927734375
y: 224.04739379882812
z: -0.0009937145514413714
","x: 283.5833435058594
y: 220.98329162597656
z: -0.0019253890495747328
","x: 283.902099609375
y: 218.54989624023438
z: -0.0025587850250303745
","x: 284.3058166503906
y: 230.17678833007812
z: -0.0008920953841879964
","x: 284.3835144042969
y: 224.60671997070312
z: -0.0028761241119354963
","x: 284.49005126953125
y: 221.2531280517578
z: -0.0038688844069838524
","x: 284.58526611328125
y: 218.94442749023438
z: -0.004479291383177042
","x: 285.4095458984375
y: 231.76361083984375
z: -0.0027126034256070852
","x: 284.1034851074219
y: 229.61465454101562
