uscmakers/ReverseChoreography/data/8_all_i_wanna_do_jay_park.csv
,NOSE,LEFT_EYE_INNER,LEFT_EYE,LEFT_EYE_OUTER,RIGHT_EYE_INNER,RIGHT_EYE,RIGHT_EYE_OUTER,LEFT_EAR,RIGHT_EAR,MOUTH_LEFT,MOUTH_RIGHT,LEFT_SHOULDER,RIGHT_SHOULDER,LEFT_ELBOW,RIGHT_ELBOW,LEFT_WRIST,RIGHT_WRIST,LEFT_PINKY,RIGHT_PINKY,LEFT_INDEX,RIGHT_INDEX,LEFT_THUMB,RIGHT_THUMB,LEFT_HIP,RIGHT_HIP,LEFT_KNEE,RIGHT_KNEE,LEFT_ANKLE,RIGHT_ANKLE,LEFT_HEEL,RIGHT_HEEL,LEFT_FOOT_INDEX,RIGHT_FOOT_INDEX,WRIST,THUMB_CPC,THUMB_MCP,THUMB_IP,THUMB_TIP,INDEX_FINGER_MCP,INDEX_FINGER_PIP,INDEX_FINGER_DIP,INDEX_FINGER_TIP,MIDDLE_FINGER_MCP,MIDDLE_FINGER_PIP,MIDDLE_FINGER_DIP,MIDDLE_FINGER_TIP,RING_FINGER_PIP,RING_FINGER_DIP,RING_FINGER_TIP,RING_FINGER_MCP,PINKY_MCP,PINKY_PIP,PINKY_DIP,PINKY_TIP,WRIST2,THUMB_CPC2,THUMB_MCP2,THUMB_IP2,THUMB_TIP2,INDEX_FINGER_MCP2,INDEX_FINGER_PIP2,INDEX_FINGER_DIP2,INDEX_FINGER_TIP2,MIDDLE_FINGER_MCP2,MIDDLE_FINGER_PIP2,MIDDLE_FINGER_DIP2,MIDDLE_FINGER_TIP2,RING_FINGER_PIP2,RING_FINGER_DIP2,RING_FINGER_TIP2,RING_FINGER_MCP2,PINKY_MCP2,PINKY_PIP2,PINKY_DIP2,PINKY_TIP2
0,"x: 293.6890869140625
y: 199.13482666015625
z: -0.2116917073726654
visibility: 0.999842643737793
","x: 294.65509033203125
y: 193.60928344726562
z: -0.18157464265823364
visibility: 0.9997062087059021
","x: 295.70416259765625
y: 194.35960388183594
z: -0.18160191178321838
visibility: 0.9995999932289124
","x: 296.6212463378906
y: 195.177978515625
z: -0.1815732717514038
visibility: 0.9994868040084839
","x: 290.4128112792969
y: 192.23031616210938
z: -0.2035037726163864
visibility: 0.9998019337654114
","x: 288.5494689941406
y: 192.0207977294922
z: -0.20352515578269958
visibility: 0.9998148083686829
","x: 286.4913330078125
y: 191.90341186523438
z: -0.2035180628299713
visibility: 0.9998283386230469
","x: 294.56512451171875
y: 201.509765625
z: -0.03247338533401489
visibility: 0.9979832172393799
","x: 280.9179382324219
y: 197.82728576660156
z: -0.12992914021015167
visibility: 0.9998143315315247
","x: 294.296875
y: 209.47340393066406
z: -0.15528802573680878
visibility: 0.9986053109169006
","x: 289.4463195800781
y: 208.52578735351562
z: -0.1831139624118805
visibility: 0.9994644522666931
","x: 290.0195617675781
y: 249.1529083251953
z: 0.1272035837173462
visibility: 0.9940748810768127
","x: 273.0956726074219
y: 243.4148406982422
z: -0.1659063845872879
visibility: 0.9998664855957031
","x: 284.8505859375
y: 314.4893493652344
z: 0.15965978801250458
visibility: 0.035225190222263336
","x: 260.6461181640625
y: 302.45928955078125
z: -0.18711088597774506
visibility: 0.9856305718421936
","x: 285.8654479980469
y: 360.9272766113281
z: 0.031015777960419655
visibility: 0.0709320530295372
","x: 262.1827087402344
y: 358.4490661621094
z: -0.2039024531841278
visibility: 0.9219043850898743
","x: 286.31451416015625
y: 374.5784912109375
z: 0.010633566416800022
visibility: 0.08581043034791946
","x: 261.0367736816406
y: 373.756103515625
z: -0.2284708470106125
visibility: 0.8688950538635254
","x: 286.7787170410156
y: 374.3025207519531
z: -0.018817512318491936
visibility: 0.09110148251056671
","x: 265.4887390136719
y: 374.0069580078125
z: -0.2345811426639557
visibility: 0.8680082559585571
","x: 285.9249267578125
y: 371.0908508300781
z: 0.012428810819983482
visibility: 0.08733420819044113
","x: 266.69549560546875
y: 370.3047180175781
z: -0.20446546375751495
visibility: 0.8496841788291931
","x: 286.9508972167969
y: 371.8118896484375
z: 0.10778681933879852
visibility: 0.9954254031181335
","x: 276.07879638671875
y: 369.3978576660156
z: -0.10780230909585953
visibility: 0.9984356760978699
","x: 283.17974853515625
y: 458.0456848144531
z: 0.11804477870464325
visibility: 0.41724705696105957
","x: 282.8320617675781
y: 461.6136169433594
z: -0.10817809402942657
visibility: 0.9542920589447021
","x: 267.67169189453125
y: 537.4459228515625
z: 0.19963368773460388
visibility: 0.6759243607521057
","x: 264.6940612792969
y: 549.2199096679688
z: -0.03080231323838234
visibility: 0.9551877975463867
","x: 257.8431396484375
y: 550.9945068359375
z: 0.20118872821331024
visibility: 0.6452158689498901
","x: 256.11944580078125
y: 560.5695190429688
z: -0.02848208323121071
visibility: 0.8371908664703369
","x: 285.48809814453125
y: 559.1058349609375
z: 0.139250248670578
visibility: 0.7852603197097778
","x: 282.66961669921875
y: 568.381103515625
z: -0.11817757785320282
visibility: 0.9497635364532471
",,,,,,,,,,,,,,,,,,,,,,,,,,,,,,,,,,,,,,,,,,
1,"x: 278.3364562988281
y: 199.44610595703125
z: -0.21677550673484802
visibility: 0.9998582005500793
","x: 280.7698669433594
y: 193.79029846191406
z: -0.1908782571554184
visibility: 0.999735414981842
","x: 282.29998779296875
y: 194.45570373535156
z: -0.190887913107872
visibility: 0.9996397495269775
","x: 283.9080810546875
y: 195.20693969726562
z: -0.1908617466688156
visibility: 0.9995378255844116
","x: 275.47125244140625
y: 192.5147705078125
z: -0.20528927445411682
visibility: 0.9998215436935425
","x: 273.98834228515625
y: 192.36053466796875
z: -0.20528766512870789
visibility: 0.9998331069946289
","x: 272.6764831542969
y: 192.23619079589844
z: -0.20528945326805115
visibility: 0.9998452663421631
","x: 285.88690185546875
y: 201.4755859375
z: -0.04178602248430252
visibility: 0.9981838464736938
","x: 269.2127990722656
y: 198.18548583984375
z: -0.11296137422323227
visibility: 0.9998326301574707
","x: 281.2969055175781
y: 209.5349884033203
z: -0.16110911965370178
visibility: 0.9987444877624512
","x: 274.6269836425781
y: 208.6080780029297
z: -0.18307822942733765
visibility: 0.9995178580284119
","x: 290.3377990722656
y: 252.6571044921875
z: 0.10066650807857513
visibility: 0.9946645498275757
","x: 255.2182159423828
y: 244.96624755859375
z: -0.10667361319065094
visibility: 0.9998789429664612
","x: 299.2699890136719
y: 314.93719482421875
z: 0.010612551122903824
visibility: 0.1289064586162567
","x: 243.25436401367188
y: 303.2385559082031
z: -0.2432030886411667
visibility: 0.9865729212760925
","x: 300.4189147949219
y: 278.6663513183594
z: -0.25470274686813354
visibility: 0.16318482160568237
","x: 259.25927734375
y: 271.20770263671875
z: -0.4360044002532959
visibility: 0.9292600154876709
","x: 300.9282531738281
y: 268.32196044921875
z: -0.3000953495502472
visibility: 0.1756608486175537
","x: 261.0411682128906
y: 261.78802490234375
z: -0.4826204776763916
visibility: 0.8808263540267944
","x: 300.1596984863281
y: 261.8092956542969
z: -0.2978833317756653
visibility: 0.1803787797689438
","x: 263.3214111328125
y: 253.886962890625
z: -0.47395220398902893
visibility: 0.8798475861549377
","x: 298.6133728027344
y: 264.5272521972656
z: -0.26037484407424927
visibility: 0.17612868547439575
","x: 263.3115539550781
y: 256.47021484375
z: -0.43432408571243286
visibility: 0.8623001575469971
","x: 279.96087646484375
y: 376.4744873046875
z: 0.09857432544231415
visibility: 0.9958558082580566
","x: 259.4726867675781
y: 372.461181640625
z: -0.09878455847501755
visibility: 0.9985826015472412
","x: 273.7767028808594
y: 463.7399597167969
z: 0.2277580052614212
visibility: 0.44993841648101807
","x: 262.5682373046875
y: 468.457763671875
z: -0.11451264470815659
visibility: 0.9581087827682495
","x: 267.243408203125
y: 543.887451171875
z: 0.4362454414367676
visibility: 0.7001801133155823
","x: 239.06590270996094
y: 555.0902709960938
z: -0.0426117442548275
visibility: 0.9586750268936157
","x: 261.35369873046875
y: 554.3482666015625
z: 0.4508623480796814
visibility: 0.6709742546081543
","x: 232.9945831298828
y: 568.6715087890625
z: -0.04189030081033707
visibility: 0.8444647192955017
","x: 284.7938232421875
y: 560.1781616210938
z: 0.3664027750492096
visibility: 0.8013442158699036
","x: 250.0352325439453
y: 585.407470703125
z: -0.18023741245269775
visibility: 0.9532040357589722
",,,,,,,,,,,,,,,,,,,,,,,,,,,,,,,,,,,,,,,,,,
2,"x: 265.0413513183594
y: 199.82760620117188
z: -0.26279059052467346
visibility: 0.9998723268508911
","x: 266.49945068359375
y: 194.1781768798828
z: -0.233857199549675
visibility: 0.9997618198394775
","x: 267.8060302734375
y: 194.8300018310547
z: -0.23390500247478485
visibility: 0.9996756911277771
","x: 269.32635498046875
y: 195.54396057128906
z: -0.23394909501075745
visibility: 0.9995839595794678
","x: 261.9355773925781
y: 192.99522399902344
z: -0.2472970187664032
visibility: 0.9998393058776855
","x: 260.0433044433594
y: 192.94580078125
z: -0.24727265536785126
visibility: 0.9998497366905212
","x: 257.8972473144531
y: 192.98590087890625
z: -0.24725067615509033
visibility: 0.9998606443405151
","x: 270.9462890625
y: 201.78099060058594
z: -0.07582543790340424
visibility: 0.9983652830123901
","x: 254.42333984375
y: 199.51080322265625
z: -0.13963216543197632
visibility: 0.9998492002487183
","x: 267.3820495605469
y: 209.66531372070312
z: -0.20466475188732147
visibility: 0.9988699555397034
","x: 261.1439208984375
y: 208.84649658203125
z: -0.22363606095314026
visibility: 0.9995660185813904
","x: 280.3565673828125
y: 258.3351745605469
z: 0.06033513695001602
visibility: 0.9951968193054199
","x: 241.0893096923828
y: 253.6451416015625
z: -0.12099753320217133
visibility: 0.9998877048492432
","x: 296.5397033691406
y: 322.38671875
z: 0.01008153147995472
visibility: 0.21042974293231964
","x: 233.61544799804688
y: 320.47186279296875
z: -0.28573471307754517
visibility: 0.9860345721244812
","x: 300.45318603515625
y: 285.2720947265625
z: -0.21823513507843018
visibility: 0.2463984340429306
","x: 239.87948608398438
y: 282.09100341796875
z: -0.5326606035232544
visibility: 0.9357337355613708
","x: 305.06854248046875
y: 274.87603759765625
z: -0.259876549243927
visibility: 0.257048100233078
","x: 240.54281616210938
y: 268.7801208496094
z: -0.58486008644104
visibility: 0.891541063785553
","x: 304.5327453613281
y: 268.9803466796875
z: -0.2682059407234192
visibility: 0.26130396127700806
","x: 240.72463989257812
y: 262.4403991699219
z: -0.586230993270874
visibility: 0.890559196472168
","x: 302.4119873046875
y: 271.4559631347656
z: -0.2282521277666092
visibility: 0.25695714354515076
","x: 241.58389282226562
y: 266.1165771484375
z: -0.5381806492805481
visibility: 0.8738653063774109
","x: 272.333984375
y: 379.9444274902344
z: 0.08410518616437912
visibility: 0.996261477470398
","x: 248.125244140625
y: 379.400146484375
z: -0.08436998724937439
visibility: 0.9987179040908813
","x: 275.3006286621094
y: 475.56768798828125
z: 0.17414137721061707
visibility: 0.5014640092849731
","x: 247.65420532226562
y: 477.7731628417969
z: -0.09605560451745987
visibility: 0.9616864323616028
","x: 269.3506164550781
y: 543.138916015625
z: 0.4235304892063141
visibility: 0.7260900139808655
","x: 236.4527587890625
y: 562.7432861328125
z: 0.029973279684782028
visibility: 0.961989164352417
","x: 263.0715637207031
y: 553.4135131835938
z: 0.4446929097175598
visibility: 0.6948426365852356
","x: 229.830810546875
y: 578.276123046875
z: 0.036528222262859344
visibility: 0.8464222550392151
","x: 286.0177001953125
y: 560.1749267578125
z: 0.36116063594818115
visibility: 0.8172367811203003
","x: 246.86148071289062
y: 589.3524780273438
z: -0.10940594971179962
visibility: 0.9566335678100586
",,,,,,,,,,,,,,,,,,,,,,,,,,,,,,,,,,,,,,,,,,
3,"x: 256.2322082519531
y: 201.98150634765625
z: -0.3266230523586273
visibility: 0.9998847246170044
","x: 258.05023193359375
y: 195.75875854492188
z: -0.2991594970226288
visibility: 0.9997850656509399
","x: 259.65142822265625
y: 196.09046936035156
z: -0.29916998744010925
visibility: 0.9997072815895081
","x: 260.99951171875
y: 196.4714813232422
z: -0.29919105768203735
visibility: 0.999624490737915
","x: 253.3755645751953
y: 195.78778076171875
z: -0.30196231603622437
visibility: 0.9998548626899719
","x: 251.2484893798828
y: 196.10012817382812
z: -0.3019782304763794
visibility: 0.9998641610145569
","x: 249.34017944335938
y: 196.55245971679688
z: -0.3019842207431793
visibility: 0.9998739957809448
","x: 263.68377685546875
y: 202.60140991210938
z: -0.14593777060508728
visibility: 0.9985268712043762
","x: 246.5512237548828
y: 203.35671997070312
z: -0.16011419892311096
visibility: 0.9998634457588196
","x: 259.4556884765625
y: 211.41839599609375
z: -0.27045100927352905
visibility: 0.9989824295043945
","x: 253.5689697265625
y: 211.46487426757812
z: -0.2747083604335785
visibility: 0.999609112739563
","x: 277.50506591796875
y: 259.2705078125
z: -0.030300984159111977
visibility: 0.995664656162262
","x: 233.23001098632812
y: 258.9124755859375
z: -0.10375199466943741
visibility: 0.999894917011261
","x: 291.4913635253906
y: 321.562744140625
z: -0.05017929524183273
visibility: 0.27538180351257324
","x: 222.12985229492188
y: 322.1502990722656
z: -0.22085228562355042
visibility: 0.9863924384117126
","x: 294.618408203125
y: 287.5738220214844
z: -0.2659420669078827
visibility: 0.3080660104751587
","x: 236.94393920898438
y: 308.9102783203125
z: -0.4355453848838806
visibility: 0.940483570098877
","x: 297.7043762207031
y: 280.14892578125
z: -0.3110382556915283
visibility: 0.31156694889068604
","x: 241.16380310058594
y: 310.1544494628906
z: -0.48858219385147095
visibility: 0.899042010307312
","x: 295.5538635253906
y: 288.2935791015625
z: -0.33169203996658325
visibility: 0.31576189398765564
","x: 243.3115234375
y: 305.52459716796875
z: -0.493609756231308
visibility: 0.8980565071105957
","x: 293.9169616699219
y: 294.950927734375
z: -0.27937665581703186
visibility: 0.30857741832733154
","x: 242.33779907226562
y: 304.71868896484375
z: -0.4412009119987488
visibility: 0.8812548518180847
","x: 269.18414306640625
y: 382.0437316894531
z: 0.0352071076631546
visibility: 0.9966186285018921
","x: 243.4525146484375
y: 382.4139099121094
z: -0.035404276102781296
visibility: 0.9988389015197754
","x: 276.0958251953125
y: 481.2756652832031
z: 0.029772892594337463
visibility: 0.5504382252693176
","x: 243.1551055908203
y: 484.0621643066406
z: -0.04611542075872421
visibility: 0.9652080535888672
","x: 273.4720764160156
y: 536.492431640625
z: 0.4146059453487396
visibility: 0.7501913905143738
","x: 236.16946411132812
y: 564.2056884765625
z: 0.17068621516227722
visibility: 0.965292751789093
","x: 270.1534118652344
y: 543.1786499023438
z: 0.44761061668395996
visibility: 0.7096413969993591
","x: 232.70840454101562
y: 578.4544677734375
z: 0.1861596256494522
visibility: 0.8492390513420105
","x: 283.4850769042969
y: 563.853271484375
z: 0.34683263301849365
visibility: 0.8315941095352173
","x: 247.81182861328125
y: 593.653564453125
z: 0.034971825778484344
visibility: 0.9599540829658508
",,,,,,,,,,,,,,,,,,,,,,,,,,,,,,,,,,,,,,,,,,
4,"x: 251.5789337158203
y: 201.89364624023438
z: -0.29067549109458923
visibility: 0.9998945593833923
","x: 253.29611206054688
y: 195.27391052246094
z: -0.2680027186870575
visibility: 0.9998039603233337
","x: 255.08297729492188
y: 195.1603546142578
z: -0.26801711320877075
visibility: 0.9997337460517883
","x: 256.88812255859375
y: 195.05145263671875
z: -0.2680237591266632
visibility: 0.99965900182724
","x: 248.44952392578125
y: 195.59378051757812
z: -0.26855409145355225
visibility: 0.9998658299446106
","x: 246.59808349609375
y: 195.8977508544922
z: -0.26857951283454895
visibility: 0.9998739361763
","x: 244.3078155517578
y: 196.39962768554688
z: -0.26856815814971924
visibility: 0.9998827576637268
","x: 260.3362731933594
y: 200.76657104492188
z: -0.13471461832523346
visibility: 0.9986711740493774
","x: 242.1429901123047
y: 203.30467224121094
z: -0.13856764137744904
visibility: 0.9998687505722046
","x: 255.0904998779297
y: 211.3643798828125
z: -0.24047470092773438
visibility: 0.9990831613540649
","x: 248.94117736816406
y: 211.37448120117188
z: -0.24160735309123993
visibility: 0.9996465444564819
","x: 276.7994384765625
y: 258.37060546875
z: -0.05767819285392761
visibility: 0.9960932731628418
","x: 232.2742919921875
y: 258.5555725097656
z: -0.040599945932626724
visibility: 0.9998633861541748
","x: 289.541015625
y: 320.7859802246094
z: -0.1457800269126892
visibility: 0.3469502627849579
","x: 223.2158966064453
y: 323.39007568359375
z: -0.15363827347755432
visibility: 0.9843994975090027
","x: 265.51922607421875
y: 308.5943603515625
z: -0.36172008514404297
visibility: 0.37575456500053406
","x: 240.9031982421875
y: 291.9073486328125
z: -0.4041515290737152
visibility: 0.942978024482727
","x: 259.7065124511719
y: 307.92108154296875
z: -0.4091576635837555
visibility: 0.3762087821960449
","x: 246.20907592773438
y: 287.1164855957031
z: -0.4574102461338043
visibility: 0.90152907371521
","x: 257.7384338378906
y: 303.2601013183594
z: -0.4082847535610199
visibility: 0.3797275722026825
","x: 248.2537078857422
y: 279.43060302734375
z: -0.4512919485569
visibility: 0.8996856808662415
","x: 258.4740295410156
y: 302.7680358886719
z: -0.36373448371887207
visibility: 0.37071606516838074
","x: 247.18817138671875
y: 280.927490234375
z: -0.40631192922592163
visibility: 0.8804104328155518
","x: 268.5465393066406
y: 379.7219543457031
z: 0.0030546789057552814
visibility: 0.9969273209571838
","x: 241.53155517578125
y: 379.756103515625
z: -0.0032609968911856413
visibility: 0.9989063143730164
","x: 269.7034912109375
y: 483.42144775390625
z: -0.04941771179437637
visibility: 0.5947422385215759
","x: 241.76959228515625
y: 483.203125
z: -0.02745671570301056
visibility: 0.96767258644104
","x: 272.5215759277344
y: 551.63818359375
z: 0.28335362672805786
visibility: 0.7738260626792908
","x: 236.29940795898438
y: 567.1409912109375
z: 0.22159364819526672
visibility: 0.9675772190093994
","x: 269.64837646484375
y: 556.4525146484375
z: 0.3189452290534973
visibility: 0.7175251841545105
","x: 235.1787872314453
y: 579.6362915039062
z: 0.23894119262695312
visibility: 0.8427973389625549
","x: 271.8983459472656
y: 587.046142578125
z: 0.1435963660478592
visibility: 0.8460622429847717
","x: 246.0321807861328
y: 595.5350952148438
z: 0.07902057468891144
visibility: 0.9619231224060059
",,,,,,,,,,,,,,,,,,,,,,,,,,,,,,,,,,,,,,,,,,
5,"x: 249.2231903076172
y: 202.19488525390625
z: -0.11677253246307373
visibility: 0.9998963475227356
","x: 250.7023468017578
y: 195.26104736328125
z: -0.09916003048419952
visibility: 0.9998089671134949
","x: 252.60560607910156
y: 194.8863067626953
z: -0.09918423742055893
visibility: 0.9997451305389404
","x: 254.52297973632812
y: 194.3700408935547
z: -0.09921985864639282
visibility: 0.9996771812438965
","x: 245.95919799804688
y: 195.92782592773438
z: -0.09147118031978607
visibility: 0.9998573660850525
","x: 244.193115234375
y: 196.66925048828125
z: -0.0914720967411995
visibility: 0.9998614192008972
","x: 242.59915161132812
y: 197.51959228515625
z: -0.0914156511425972
visibility: 0.9998704195022583
","x: 258.6176452636719
y: 199.07354736328125
z: 0.003981544636189938
visibility: 0.9987887740135193
","x: 241.03677368164062
y: 204.05210876464844
z: 0.04135943576693535
visibility: 0.999840497970581
","x: 253.98817443847656
y: 211.37857055664062
z: -0.0776747316122055
visibility: 0.9991664886474609
","x: 247.38389587402344
y: 211.80235290527344
z: -0.06721853464841843
visibility: 0.9996675252914429
","x: 277.46331787109375
y: 256.4329833984375
z: 0.018474100157618523
visibility: 0.9964720010757446
","x: 233.5419158935547
y: 258.66461181640625
z: 0.09726741909980774
visibility: 0.9998301863670349
","x: 287.8028564453125
y: 314.729736328125
z: -0.07400642335414886
visibility: 0.41065120697021484
","x: 225.62315368652344
y: 322.46820068359375
z: -0.009083347395062447
visibility: 0.9790970683097839
","x: 258.6723327636719
y: 273.58282470703125
z: -0.2152293175458908
visibility: 0.43600359559059143
","x: 241.54188537597656
y: 270.5969543457031
z: -0.19267119467258453
visibility: 0.9429440498352051
","x: 252.25144958496094
y: 261.41070556640625
z: -0.25119730830192566
visibility: 0.43256446719169617
","x: 244.6840362548828
y: 258.0045166015625
z: -0.2355329990386963
visibility: 0.8978030681610107
","x: 252.60556030273438
y: 256.61041259765625
z: -0.24517007172107697
visibility: 0.43508487939834595
","x: 245.74270629882812
y: 252.88514709472656
z: -0.22376671433448792
visibility: 0.8942809700965881
","x: 254.14198303222656
y: 259.57293701171875
z: -0.21465358138084412
visibility: 0.4240821301937103
","x: 245.3982391357422
y: 256.1016845703125
z: -0.19376537203788757
visibility: 0.8731915950775146
","x: 268.4548645019531
y: 380.4037780761719
z: -0.00861056987196207
visibility: 0.997219979763031
","x: 241.52383422851562
y: 379.6578369140625
z: 0.00857772957533598
visibility: 0.9989840984344482
","x: 265.9677734375
y: 484.13653564453125
z: -0.033516284078359604
visibility: 0.6346037983894348
","x: 242.3720703125
y: 484.1587829589844
z: -0.022646714001893997
visibility: 0.9698158502578735
","x: 271.9836730957031
y: 563.49072265625
z: 0.21179410815238953
visibility: 0.7952476739883423
","x: 241.08143615722656
y: 565.1959838867188
z: 0.2258116900920868
visibility: 0.9680427312850952
","x: 270.09271240234375
y: 571.2927856445312
z: 0.23120132088661194
visibility: 0.7205510139465332
","x: 238.9940185546875
y: 577.0499267578125
z: 0.24468326568603516
visibility: 0.8273494839668274
","x: 270.3542175292969
y: 596.3312377929688
z: 0.08562619984149933
visibility: 0.8589045405387878
","x: 244.52780151367188
y: 594.5304565429688
z: 0.1165158748626709
visibility: 0.9613966345787048
",,,,,,,,,,,,,,,,,,,,,,,,,,,,,,,,,,,,,,,,,,
6,"x: 247.5799102783203
y: 205.7412109375
z: -0.16182692348957062
visibility: 0.9999010562896729
","x: 249.22377014160156
y: 196.970458984375
z: -0.1454257220029831
visibility: 0.9998189210891724
","x: 251.3804931640625
y: 195.87806701660156
z: -0.1454745978116989
visibility: 0.999761164188385
","x: 253.40756225585938
y: 194.84661865234375
z: -0.14552661776542664
visibility: 0.9996991753578186
","x: 244.3270721435547
y: 200.05496215820312
z: -0.13633131980895996
visibility: 0.9998575448989868
","x: 242.6511688232422
y: 201.18064880371094
z: -0.13631924986839294
visibility: 0.9998582005500793
","x: 240.94287109375
y: 202.26072692871094
z: -0.13628342747688293
visibility: 0.9998646378517151
","x: 258.3609313964844
y: 199.1138916015625
z: -0.016441229730844498
visibility: 0.9989033937454224
","x: 240.14353942871094
y: 208.0377960205078
z: 0.003626003861427307
visibility: 0.9998261332511902
","x: 253.2169189453125
y: 213.28897094726562
z: -0.12238490581512451
visibility: 0.9992464184761047
","x: 245.90538024902344
y: 215.2798614501953
z: -0.11000170558691025
visibility: 0.999691903591156
","x: 277.8361511230469
y: 256.3747863769531
z: -0.021245962008833885
visibility: 0.9968141317367554
","x: 234.1201171875
y: 261.7005615234375
z: 0.07584092766046524
visibility: 0.9997944235801697
","x: 287.4465637207031
y: 314.7882080078125
z: -0.15889589488506317
visibility: 0.46866774559020996
","x: 227.27615356445312
y: 327.4208068847656
z: -0.04390702024102211
visibility: 0.9708717465400696
","x: 259.3686828613281
y: 276.46160888671875
z: -0.3082602620124817
visibility: 0.4911971092224121
","x: 240.1998748779297
y: 271.10797119140625
z: -0.2571256756782532
visibility: 0.9432420134544373
","x: 252.14361572265625
y: 264.3631591796875
z: -0.34472426772117615
visibility: 0.4858294427394867
","x: 242.49533081054688
y: 259.79583740234375
z: -0.2998545169830322
visibility: 0.8964183330535889
","x: 251.9241943359375
y: 259.4822082519531
z: -0.3272940516471863
visibility: 0.48762473464012146
","x: 242.63197326660156
y: 255.09320068359375
z: -0.29059678316116333
visibility: 0.8914891481399536
","x: 253.760498046875
y: 262.83441162109375
z: -0.30295825004577637
visibility: 0.47568321228027344
","x: 242.707763671875
y: 258.2247619628906
z: -0.2589889168739319
visibility: 0.8689332604408264
","x: 268.8838195800781
y: 384.2689208984375
z: -0.02629309520125389
visibility: 0.9974735379219055
","x: 241.8107452392578
y: 383.49908447265625
z: 0.026223206892609596
visibility: 0.9990406632423401
","x: 268.11669921875
y: 487.224853515625
z: -0.0495138093829155
visibility: 0.6705770492553711
","x: 241.052978515625
y: 488.84619140625
z: 0.008479072712361813
visibility: 0.9720281362533569
","x: 272.754150390625
y: 566.2279052734375
z: 0.22228439152240753
visibility: 0.8140098452568054
","x: 243.29415893554688
y: 566.8492431640625
z: 0.27776792645454407
visibility: 0.9688010811805725
","x: 271.4480895996094
y: 575.2669677734375
z: 0.24323320388793945
visibility: 0.7219679355621338
","x: 250.25502014160156
y: 577.2568359375
z: 0.2993502616882324
visibility: 0.8244854807853699
","x: 271.66705322265625
y: 596.0426025390625
z: 0.11065959930419922
visibility: 0.8697662949562073
","x: 243.32398986816406
y: 595.0000610351562
z: 0.18157103657722473
visibility: 0.9613839387893677
",,,,,,,,,,,,,,,,,,,,,,,,,,,,,,,,,,,,,,,,,,
7,"x: 245.9960479736328
y: 209.8326873779297
z: -0.23508784174919128
visibility: 0.9999102354049683
","x: 246.8415069580078
y: 201.02027893066406
z: -0.22039517760276794
visibility: 0.9998359084129333
","x: 248.37335205078125
y: 199.31317138671875
z: -0.22043471038341522
visibility: 0.9997840523719788
","x: 250.12513732910156
y: 197.57432556152344
z: -0.22046034038066864
visibility: 0.9997281432151794
","x: 242.27056884765625
y: 206.15011596679688
z: -0.2060604989528656
visibility: 0.9998694658279419
","x: 240.7600555419922
y: 208.07345581054688
z: -0.2060595452785492
visibility: 0.9998698234558105
","x: 238.91136169433594
y: 209.52354431152344
z: -0.206020787358284
visibility: 0.9998747706413269
","x: 255.09976196289062
y: 200.6844482421875
z: -0.11284096539020538
visibility: 0.9990124106407166
","x: 238.39476013183594
y: 214.78468322753906
z: -0.04141658544540405
visibility: 0.9998354911804199
","x: 251.61404418945312
y: 216.01483154296875
z: -0.19602744281291962
visibility: 0.999321460723877
","x: 245.04896545410156
y: 219.90728759765625
z: -0.17553511261940002
visibility: 0.9997209906578064
","x: 277.8024597167969
y: 257.810546875
z: -0.07177743315696716
visibility: 0.9971318244934082
","x: 234.12991333007812
y: 268.3387145996094
z: 0.025058740749955177
visibility: 0.9997733235359192
","x: 289.1724853515625
y: 322.6702880859375
z: -0.22110088169574738
visibility: 0.5215471982955933
","x: 229.3531951904297
y: 340.868408203125
z: -0.09698931127786636
visibility: 0.9623884558677673
","x: 265.7892761230469
y: 293.593505859375
z: -0.455097496509552
visibility: 0.5418412089347839
","x: 229.5172119140625
y: 286.9478759765625
z: -0.39564651250839233
visibility: 0.9457635879516602
","x: 259.5685729980469
y: 288.52716064453125
z: -0.502515435218811
visibility: 0.5364699363708496
","x: 230.81712341308594
y: 278.9968566894531
z: -0.4499317705631256
visibility: 0.9010127782821655
","x: 258.3990783691406
y: 282.95904541015625
z: -0.49090924859046936
visibility: 0.5380038619041443
","x: 231.00222778320312
y: 273.4826965332031
z: -0.4467352330684662
visibility: 0.8958780169487
","x: 259.94647216796875
y: 284.07818603515625
z: -0.4526360034942627
visibility: 0.526515543460846
","x: 231.1781005859375
y: 276.19281005859375
z: -0.4028872847557068
visibility: 0.8731674551963806
","x: 270.5454406738281
y: 385.1518249511719
z: -0.032515354454517365
visibility: 0.9977086782455444
","x: 243.42230224609375
y: 385.29345703125
z: 0.032305438071489334
visibility: 0.9991008043289185
","x: 269.025390625
y: 487.1568603515625
z: -0.07559530436992645
visibility: 0.7032128572463989
","x: 238.54672241210938
y: 487.67523193359375
z: -0.0005269466200843453
visibility: 0.9743114113807678
","x: 277.0977783203125
y: 561.976806640625
z: 0.22894427180290222
visibility: 0.8316972851753235
","x: 244.30223083496094
y: 565.7239990234375
z: 0.2779172956943512
visibility: 0.970776379108429
","x: 277.50970458984375
y: 570.5971069335938
z: 0.25158029794692993
visibility: 0.7261685132980347
","x: 251.3089599609375
y: 576.4644165039062
z: 0.3001613914966583
visibility: 0.8306365609169006
","x: 273.1143798828125
y: 593.9874267578125
z: 0.1085260882973671
visibility: 0.8810696601867676
","x: 243.31878662109375
y: 594.4989624023438
z: 0.1759842485189438
visibility: 0.9634900093078613
",,,,,,,,,,,,,,,,,,,,,,,,,,,,,,,,,,,,,,,,,,
8,"x: 246.5160675048828
y: 215.11502075195312
z: -0.2647860646247864
visibility: 0.9999185800552368
","x: 247.1968994140625
y: 205.6568145751953
z: -0.25415584444999695
visibility: 0.9998511672019958
","x: 248.90284729003906
y: 203.77891540527344
z: -0.25416603684425354
visibility: 0.9998045563697815
","x: 250.68943786621094
y: 201.8551025390625
z: -0.2541980743408203
visibility: 0.9997540712356567
","x: 242.85337829589844
y: 211.432373046875
z: -0.23998427391052246
visibility: 0.9998807907104492
","x: 241.39414978027344
y: 212.9808349609375
z: -0.2399849146604538
visibility: 0.9998809099197388
","x: 240.09976196289062
y: 214.1808319091797
z: -0.23997549712657928
visibility: 0.9998849630355835
","x: 255.9230194091797
y: 203.3932647705078
z: -0.1595481038093567
visibility: 0.9991105794906616
","x: 239.97325134277344
y: 218.77114868164062
z: -0.08282187581062317
visibility: 0.9998467564582825
","x: 252.5845489501953
y: 220.42730712890625
z: -0.22791878879070282
visibility: 0.9993890523910522
","x: 245.75723266601562
y: 225.4509735107422
z: -0.20765134692192078
visibility: 0.9997477531433105
","x: 278.0062561035156
y: 257.5892333984375
z: -0.10874098539352417
visibility: 0.9974169731140137
","x: 237.73460388183594
y: 269.8550720214844
z: 0.007984784431755543
visibility: 0.9997696280479431
","x: 303.8578796386719
y: 307.3446350097656
z: -0.262656569480896
visibility: 0.5692689418792725
","x: 227.74508666992188
y: 335.19598388671875
z: -0.10356798022985458
visibility: 0.9595144987106323
","x: 274.2731628417969
y: 286.7745361328125
z: -0.4767470955848694
visibility: 0.5872998833656311
","x: 222.67860412597656
y: 289.6557922363281
z: -0.38431233167648315
visibility: 0.9494667053222656
","x: 261.6276550292969
y: 282.83636474609375
z: -0.5197014808654785
visibility: 0.5813508033752441
","x: 221.20704650878906
y: 279.8391418457031
z: -0.4320712089538574
visibility: 0.9071550369262695
","x: 261.6565856933594
y: 277.6269226074219
z: -0.5032472610473633
visibility: 0.5825444459915161
","x: 221.65370178222656
y: 274.7802429199219
z: -0.43036189675331116
visibility: 0.9020469188690186
","x: 260.6288757324219
y: 278.3802185058594
z: -0.47158536314964294
visibility: 0.571100652217865
","x: 223.0516815185547
y: 278.30572509765625
z: -0.3912596106529236
visibility: 0.8800146579742432
","x: 271.16290283203125
y: 386.0858459472656
z: -0.039398837834596634
visibility: 0.9978935122489929
","x: 246.41876220703125
y: 385.065185546875
z: 0.03923390805721283
visibility: 0.9991396069526672
","x: 271.0113525390625
y: 486.0418701171875
z: -0.09444943815469742
visibility: 0.732608437538147
","x: 240.06283569335938
y: 485.9307556152344
z: -0.00032176959211938083
visibility: 0.9764177203178406
","x: 280.8089599609375
y: 552.6929321289062
z: 0.2314385175704956
visibility: 0.8473919034004211
","x: 245.4219512939453
y: 564.9453125
z: 0.23751315474510193
visibility: 0.9731360077857971
","x: 282.6195373535156
y: 555.2584228515625
z: 0.25657981634140015
visibility: 0.7349114418029785
","x: 250.79469299316406
y: 576.1165771484375
z: 0.25530141592025757
visibility: 0.8418989777565002
","x: 273.9352111816406
y: 589.5879516601562
z: 0.12943357229232788
visibility: 0.8908456563949585
","x: 242.2740478515625
y: 594.06640625
z: 0.1318110227584839
visibility: 0.9659977555274963
","x: 222.9971160888672
y: 289.29119873046875
z: 0.0
","x: 225.3248748779297
y: 284.34619140625
z: -0.0010930401040241122
","x: 226.45785522460938
y: 278.2156982421875
z: -0.003023680066689849
","x: 226.5290985107422
y: 273.7809753417969
z: -0.0054916380904614925
","x: 225.947509765625
y: 270.42364501953125
z: -0.007337347138673067
","x: 221.82688903808594
y: 268.7342834472656
z: -0.0016064179362729192
","x: 223.5299835205078
y: 268.2013244628906
z: -0.005022681783884764
","x: 224.72589111328125
y: 273.3525390625
z: -0.006253860890865326
","x: 224.89926147460938
y: 276.9228210449219
z: -0.00670198118314147
","x: 219.63978576660156
y: 270.1357727050781
z: -0.003420659340918064
","x: 221.87191772460938
y: 271.00628662109375
z: -0.006741473451256752
","x: 223.1586456298828
y: 276.6969909667969
z: -0.006364243105053902
","x: 223.20437622070312
y: 279.8049621582031
z: -0.005719009321182966
","x: 217.8976287841797
y: 273.21514892578125
z: -0.005715333856642246
","x: 220.33575439453125
y: 274.86004638671875
z: -0.008520576171576977
","x: 221.546630859375
y: 279.4207458496094
z: -0.007257713004946709
","x: 221.62405395507812
y: 281.70233154296875
z: -0.006036790087819099
","x: 216.56613159179688
y: 277.3542175292969
z: -0.008385595865547657
","x: 218.8458709716797
y: 278.7033386230469
z: -0.009704040363430977
","x: 220.10052490234375
y: 281.9635009765625
z: -0.008781155571341515
","x: 220.26483154296875
y: 283.8885803222656
z: -0.007786283735185862
",,,,,,,,,,,,,,,,,,,,,
9,"x: 246.5160675048828
y: 215.11502075195312
z: -0.2647860646247864
visibility: 0.9999185800552368
","x: 247.1968994140625
y: 205.6568145751953
z: -0.25415584444999695
visibility: 0.9998511672019958
","x: 248.90284729003906
y: 203.77891540527344
z: -0.25416603684425354
visibility: 0.9998045563697815
","x: 250.68943786621094
y: 201.8551025390625
z: -0.2541980743408203
visibility: 0.9997540712356567
","x: 242.85337829589844
y: 211.432373046875
z: -0.23998427391052246
visibility: 0.9998807907104492
","x: 241.39414978027344
y: 212.9808349609375
z: -0.2399849146604538
visibility: 0.9998809099197388
","x: 240.09976196289062
y: 214.1808319091797
z: -0.23997549712657928
visibility: 0.9998849630355835
","x: 255.9230194091797
y: 203.3932647705078
z: -0.1595481038093567
visibility: 0.9991105794906616
","x: 239.97325134277344
y: 218.77114868164062
z: -0.08282187581062317
visibility: 0.9998467564582825
","x: 252.5845489501953
y: 220.42730712890625
z: -0.22791878879070282
visibility: 0.9993890523910522
","x: 245.75723266601562
y: 225.4509735107422
z: -0.20765134692192078
visibility: 0.9997477531433105
","x: 278.0062561035156
y: 257.5892333984375
z: -0.10874098539352417
visibility: 0.9974169731140137
","x: 237.73460388183594
y: 269.8550720214844
z: 0.007984784431755543
visibility: 0.9997696280479431
","x: 303.8578796386719
y: 307.3446350097656
z: -0.262656569480896
visibility: 0.5692689418792725
","x: 227.74508666992188
y: 335.19598388671875
z: -0.10356798022985458
visibility: 0.9595144987106323
","x: 274.2731628417969
y: 286.7745361328125
z: -0.4767470955848694
visibility: 0.5872998833656311
","x: 222.67860412597656
y: 289.6557922363281
z: -0.38431233167648315
visibility: 0.9494667053222656
","x: 261.6276550292969
y: 282.83636474609375
z: -0.5197014808654785
visibility: 0.5813508033752441
","x: 221.20704650878906
y: 279.8391418457031
z: -0.4320712089538574
visibility: 0.9071550369262695
","x: 261.6565856933594
y: 277.6269226074219
z: -0.5032472610473633
visibility: 0.5825444459915161
","x: 221.65370178222656
y: 274.7802429199219
z: -0.43036189675331116
visibility: 0.9020469188690186
","x: 260.6288757324219
y: 278.3802185058594
z: -0.47158536314964294
visibility: 0.571100652217865
","x: 223.0516815185547
y: 278.30572509765625
z: -0.3912596106529236
visibility: 0.8800146579742432
","x: 271.16290283203125
y: 386.0858459472656
z: -0.039398837834596634
visibility: 0.9978935122489929
","x: 246.41876220703125
y: 385.065185546875
z: 0.03923390805721283
visibility: 0.9991396069526672
","x: 271.0113525390625
y: 486.0418701171875
z: -0.09444943815469742
visibility: 0.732608437538147
","x: 240.06283569335938
y: 485.9307556152344
z: -0.00032176959211938083
visibility: 0.9764177203178406
","x: 280.8089599609375
y: 552.6929321289062
z: 0.2314385175704956
visibility: 0.8473919034004211
","x: 245.4219512939453
y: 564.9453125
z: 0.23751315474510193
visibility: 0.9731360077857971
","x: 282.6195373535156
y: 555.2584228515625
z: 0.25657981634140015
visibility: 0.7349114418029785
","x: 250.79469299316406
y: 576.1165771484375
z: 0.25530141592025757
visibility: 0.8418989777565002
","x: 273.9352111816406
y: 589.5879516601562
z: 0.12943357229232788
visibility: 0.8908456563949585
","x: 242.2740478515625
y: 594.06640625
z: 0.1318110227584839
visibility: 0.9659977555274963
","x: 222.9971160888672
y: 289.29119873046875
z: 0.0
","x: 225.3248748779297
y: 284.34619140625
z: -0.0010930401040241122
","x: 226.45785522460938
y: 278.2156982421875
z: -0.003023680066689849
","x: 226.5290985107422
y: 273.7809753417969
z: -0.0054916380904614925
","x: 225.947509765625
y: 270.42364501953125
z: -0.007337347138673067
","x: 221.82688903808594
y: 268.7342834472656
z: -0.0016064179362729192
","x: 223.5299835205078
y: 268.2013244628906
z: -0.005022681783884764
","x: 224.72589111328125
y: 273.3525390625
z: -0.006253860890865326
","x: 224.89926147460938
y: 276.9228210449219
z: -0.00670198118314147
","x: 219.63978576660156
y: 270.1357727050781
z: -0.003420659340918064
","x: 221.87191772460938
y: 271.00628662109375
z: -0.006741473451256752
","x: 223.1586456298828
y: 276.6969909667969
z: -0.006364243105053902
","x: 223.20437622070312
y: 279.8049621582031
z: -0.005719009321182966
","x: 217.8976287841797
y: 273.21514892578125
z: -0.005715333856642246
","x: 220.33575439453125
y: 274.86004638671875
z: -0.008520576171576977
","x: 221.546630859375
y: 279.4207458496094
z: -0.007257713004946709
","x: 221.62405395507812
y: 281.70233154296875
z: -0.006036790087819099
","x: 216.56613159179688
y: 277.3542175292969
z: -0.008385595865547657
","x: 218.8458709716797
y: 278.7033386230469
z: -0.009704040363430977
","x: 220.10052490234375
y: 281.9635009765625
z: -0.008781155571341515
","x: 220.26483154296875
y: 283.8885803222656
z: -0.007786283735185862
",,,,,,,,,,,,,,,,,,,,,
10,"x: 250.44393920898438
y: 214.08352661132812
z: -0.2484014928340912
visibility: 0.9999259114265442
","x: 251.26634216308594
y: 205.24884033203125
z: -0.23031911253929138
visibility: 0.9998641014099121
","x: 252.90798950195312
y: 203.56692504882812
z: -0.23033180832862854
visibility: 0.999822199344635
","x: 254.64761352539062
y: 201.84994506835938
z: -0.23034918308258057
visibility: 0.9997763633728027
","x: 246.97657775878906
y: 210.54867553710938
z: -0.23400497436523438
visibility: 0.9998906254768372
","x: 245.71083068847656
y: 212.21343994140625
z: -0.23396393656730652
visibility: 0.9998906254768372
","x: 244.63966369628906
y: 213.8280487060547
z: -0.2339228391647339
visibility: 0.9998942017555237
","x: 259.6137390136719
y: 203.39784240722656
z: -0.13630886375904083
visibility: 0.9991979002952576
","x: 244.28701782226562
y: 218.95602416992188
z: -0.06611575186252594
visibility: 0.9998555779457092
","x: 256.24163818359375
y: 219.328369140625
z: -0.20511332154273987
visibility: 0.9994494915008545
","x: 249.84136962890625
y: 223.75267028808594
z: -0.1981976330280304
visibility: 0.9997709393501282
","x: 283.4165954589844
y: 250.64962768554688
z: -0.08143480122089386
visibility: 0.9976693391799927
","x: 243.3396759033203
y: 268.4088439941406
z: 0.032128505408763885
visibility: 0.9997689723968506
","x: 314.4161376953125
y: 285.545166015625
z: -0.23952290415763855
visibility: 0.6121503114700317
","x: 229.89271545410156
y: 329.97491455078125
z: -0.07916459441184998
visibility: 0.9577401280403137
","x: 283.66241455078125
y: 263.30181884765625
z: -0.43255525827407837
visibility: 0.6276326775550842
","x: 224.96507263183594
y: 281.1080627441406
z: -0.3536476790904999
visibility: 0.9523007869720459
","x: 273.8484802246094
y: 258.6419372558594
z: -0.4706737995147705
visibility: 0.6193965673446655
","x: 222.5188446044922
y: 271.5146789550781
z: -0.39851653575897217
visibility: 0.9109703302383423
","x: 272.7923889160156
y: 254.63783264160156
z: -0.4496702253818512
visibility: 0.6198474168777466
","x: 223.92092895507812
y: 267.5869445800781
z: -0.3960873484611511
visibility: 0.9057865738868713
","x: 274.14739990234375
y: 256.4022521972656
z: -0.4257606863975525
visibility: 0.6069690585136414
","x: 225.532470703125
y: 270.77581787109375
z: -0.35875940322875977
visibility: 0.8841403126716614
","x: 279.8534240722656
y: 385.821044921875
z: -0.04366510361433029
visibility: 0.9980436563491821
","x: 253.9161834716797
y: 382.952880859375
z: 0.04347199946641922
visibility: 0.999179482460022
","x: 276.6072692871094
y: 484.2980651855469
z: -0.053390782326459885
visibility: 0.7590989470481873
","x: 244.084228515625
y: 480.8771057128906
z: 0.018692653626203537
visibility: 0.9780371189117432
","x: 290.2236022949219
y: 552.6074829101562
z: 0.22567248344421387
visibility: 0.8618532419204712
","x: 245.75872802734375
y: 564.7833862304688
z: 0.19273822009563446
visibility: 0.9752856492996216
","x: 295.7913818359375
y: 555.72802734375
z: 0.2472362071275711
visibility: 0.7395681142807007
","x: 251.70704650878906
y: 576.3994140625
z: 0.2174878567457199
visibility: 0.8507689237594604
","x: 278.4413757324219
y: 586.8922729492188
z: 0.11908432096242905
visibility: 0.9002677202224731
","x: 241.20523071289062
y: 593.7598266601562
z: 0.08375240862369537
visibility: 0.9684193730354309
",,,,,,,,,,,,,,,,,,,,,,,,,,,,,,,,,,,,,,,,,,
11,"x: 252.7689208984375
y: 218.00006103515625
z: -0.20883628726005554
visibility: 0.9999328255653381
","x: 252.69149780273438
y: 209.73593139648438
z: -0.20291438698768616
visibility: 0.9998766779899597
","x: 254.48782348632812
y: 207.6768798828125
z: -0.20292897522449493
visibility: 0.9998388886451721
","x: 255.87518310546875
y: 205.70616149902344
z: -0.20293179154396057
visibility: 0.9997975826263428
","x: 249.4010009765625
y: 214.49337768554688
z: -0.18520903587341309
visibility: 0.9999004602432251
","x: 249.01104736328125
y: 215.7449493408203
z: -0.1852327436208725
visibility: 0.9999003410339355
","x: 248.61233520507812
y: 217.1383056640625
z: -0.1852295696735382
visibility: 0.9999036192893982
","x: 264.6802062988281
y: 206.27732849121094
z: -0.117378368973732
visibility: 0.9992773532867432
","x: 251.9328155517578
y: 221.96388244628906
z: -0.034751713275909424
visibility: 0.9998672604560852
","x: 261.1350402832031
y: 222.49732971191406
z: -0.1789109855890274
visibility: 0.9995040893554688
","x: 257.1203918457031
y: 227.22137451171875
z: -0.15314370393753052
visibility: 0.9997924566268921
","x: 294.7360534667969
y: 250.74435424804688
z: -0.07429550588130951
visibility: 0.9978994131088257
","x: 255.98451232910156
y: 271.1806640625
z: 0.07264868170022964
visibility: 0.9997787475585938
","x: 319.91119384765625
y: 289.4554443359375
z: -0.2321816235780716
visibility: 0.6508201956748962
","x: 241.95611572265625
y: 328.76141357421875
z: -0.03081979975104332
visibility: 0.9524866938591003
","x: 289.6857604980469
y: 264.9457702636719
z: -0.41048088669776917
visibility: 0.6644394993782043
","x: 228.84278869628906
y: 286.7712097167969
z: -0.3183959126472473
visibility: 0.9544420838356018
","x: 281.9382019042969
y: 260.5752258300781
z: -0.45007699728012085
visibility: 0.6556400060653687
","x: 229.5166015625
y: 279.193603515625
z: -0.3637360632419586
visibility: 0.9142346382141113
","x: 280.471435546875
y: 256.81500244140625
z: -0.4279443621635437
visibility: 0.6557832956314087
","x: 230.7696990966797
y: 274.4889221191406
z: -0.36853498220443726
visibility: 0.9091812372207642
","x: 281.9417724609375
y: 258.6192932128906
z: -0.40310120582580566
visibility: 0.6426390409469604
","x: 232.0537109375
y: 277.3013000488281
z: -0.32963961362838745
visibility: 0.8879891037940979
","x: 289.4752502441406
y: 386.7602844238281
z: -0.050855834037065506
visibility: 0.9981793761253357
","x: 264.2256164550781
y: 383.0693054199219
z: 0.05074390769004822
visibility: 0.9992097020149231
","x: 283.494873046875
y: 484.80615234375
z: -0.053436316549777985
visibility: 0.7828064560890198
","x: 245.11358642578125
y: 478.74517822265625
z: 0.022638419643044472
visibility: 0.9794152975082397
","x: 294.6524353027344
y: 557.6353759765625
z: 0.16110014915466309
visibility: 0.8747826814651489
","x: 247.267822265625
y: 564.9569091796875
z: 0.17866376042366028
visibility: 0.9769167900085449
","x: 300.1466064453125
y: 566.0245361328125
z: 0.17541567981243134
visibility: 0.7480867505073547
","x: 252.93846130371094
y: 576.8143310546875
z: 0.19974753260612488
visibility: 0.8576257228851318
","x: 280.6750793457031
y: 585.5499877929688
z: 0.04291423782706261
visibility: 0.9087392091751099
","x: 240.5015411376953
y: 593.39306640625
z: 0.0740717425942421
visibility: 0.9701180458068848
",,,,,,,,,,,,,,,,,,,,,,,,,,,,,,,,,,,,,,,,,,
12,"x: 262.6389465332031
y: 226.47796630859375
z: -0.21239344775676727
visibility: 0.9999390244483948
","x: 262.92822265625
y: 216.907958984375
z: -0.21073099970817566
visibility: 0.9998881816864014
","x: 264.837890625
y: 214.66783142089844
z: -0.21079763770103455
visibility: 0.9998542070388794
","x: 266.2749328613281
y: 212.53900146484375
z: -0.21082158386707306
visibility: 0.9998170733451843
","x: 259.39788818359375
y: 222.41961669921875
z: -0.18982526659965515
visibility: 0.9999093413352966
","x: 258.5393981933594
y: 223.99041748046875
z: -0.18984247744083405
visibility: 0.999908983707428
","x: 257.8562316894531
y: 225.60208129882812
z: -0.1898331642150879
visibility: 0.999911904335022
","x: 273.6123962402344
y: 211.19427490234375
z: -0.13914544880390167
visibility: 0.9993492364883423
","x: 260.8752746582031
y: 229.01776123046875
z: -0.04102114960551262
visibility: 0.9998773336410522
","x: 270.365478515625
y: 229.9351806640625
z: -0.1840875744819641
visibility: 0.999553382396698
","x: 266.3900146484375
y: 238.61886596679688
z: -0.15755866467952728
visibility: 0.9998118877410889
","x: 302.0389404296875
y: 253.85140991210938
z: -0.11712788045406342
visibility: 0.9981091022491455
","x: 266.14447021484375
y: 274.8058776855469
z: 0.09906215965747833
visibility: 0.9997914433479309
","x: 319.2923889160156
y: 309.41595458984375
z: -0.24850507080554962
visibility: 0.6856572031974792
","x: 264.04144287109375
y: 339.5943603515625
z: 0.02782338298857212
visibility: 0.9314411878585815
","x: 293.70135498046875
y: 298.85870361328125
z: -0.4326840043067932
visibility: 0.697766900062561
","x: 250.55296325683594
y: 314.75146484375
z: -0.27313166856765747
visibility: 0.9541261196136475
","x: 286.5387268066406
y: 301.8963317871094
z: -0.48018258810043335
visibility: 0.6893062591552734
","x: 246.10067749023438
y: 308.6294250488281
z: -0.3183867335319519
visibility: 0.9145448207855225
","x: 283.56793212890625
y: 296.396484375
z: -0.47026053071022034
visibility: 0.6893761157989502
","x: 245.83871459960938
y: 302.27142333984375
z: -0.33289384841918945
visibility: 0.9096336364746094
","x: 285.60540771484375
y: 294.691650390625
z: -0.4296916425228119
visibility: 0.6765612959861755
","x: 248.12017822265625
y: 303.6829833984375
z: -0.2883012294769287
visibility: 0.8879514336585999
","x: 295.4450988769531
y: 389.6075744628906
z: -0.07658694684505463
visibility: 0.9983320832252502
","x: 270.7145080566406
y: 384.5065612792969
z: 0.07661452144384384
visibility: 0.9992665648460388
","x: 286.36163330078125
y: 486.03631591796875
z: -0.08839825540781021
visibility: 0.804304838180542
","x: 247.09951782226562
y: 473.7545166015625
z: 0.005731106735765934
visibility: 0.9810804128646851
","x: 296.4647521972656
y: 559.36279296875
z: 0.11511898040771484
visibility: 0.8869279026985168
","x: 256.1805114746094
y: 563.2753295898438
z: 0.14887510240077972
visibility: 0.9788340330123901
","x: 300.8043212890625
y: 569.1552124023438
z: 0.12745846807956696
visibility: 0.7656153440475464
","x: 262.0886535644531
y: 576.4876708984375
z: 0.15838900208473206
visibility: 0.8696414828300476
","x: 281.6141357421875
y: 584.754150390625
z: -0.008106186985969543
visibility: 0.9172082543373108
","x: 241.20791625976562
y: 587.77197265625
z: 0.04192472994327545
visibility: 0.972527265548706
",,,,,,,,,,,,,,,,,,,,,,,,,,,,,,,,,,,,,,,,,,
13,"x: 269.0504455566406
y: 226.90748596191406
z: -0.1964968740940094
visibility: 0.9999440312385559
","x: 269.9660339355469
y: 217.6596221923828
z: -0.19676220417022705
visibility: 0.9998976588249207
","x: 271.7274169921875
y: 215.80125427246094
z: -0.1968494951725006
visibility: 0.9998673796653748
","x: 273.4197998046875
y: 213.7956085205078
z: -0.19692251086235046
visibility: 0.9998342394828796
","x: 266.2603454589844
y: 222.22909545898438
z: -0.174844890832901
visibility: 0.999915599822998
","x: 265.2889709472656
y: 223.7557830810547
z: -0.1748252809047699
visibility: 0.9999143481254578
","x: 264.5538330078125
y: 225.25778198242188
z: -0.17479392886161804
visibility: 0.9999160170555115
","x: 279.26165771484375
y: 213.6551055908203
z: -0.12973497807979584
visibility: 0.9994138479232788
","x: 266.6076354980469
y: 228.63473510742188
z: -0.034521203488111496
visibility: 0.9998800754547119
","x: 275.55718994140625
y: 231.55335998535156
z: -0.17063012719154358
visibility: 0.9995976090431213
","x: 270.4310302734375
y: 238.2237548828125
z: -0.14174790680408478
visibility: 0.9998266696929932
","x: 302.75927734375
y: 253.9802703857422
z: -0.12883059680461884
visibility: 0.9982980489730835
","x: 274.3059387207031
y: 272.8255615234375
z: 0.119725801050663
visibility: 0.9997559785842896
","x: 316.4967346191406
y: 316.30718994140625
z: -0.2062758207321167
visibility: 0.7169713377952576
","x: 273.6735534667969
y: 336.95916748046875
z: 0.08255738019943237
visibility: 0.8506959676742554
","x: 287.19525146484375
y: 311.1880798339844
z: -0.2928856313228607
visibility: 0.7275194525718689
","x: 261.8284606933594
y: 312.07952880859375
z: -0.14911440014839172
visibility: 0.899596095085144
","x: 276.8688659667969
y: 315.2261657714844
z: -0.32324114441871643
visibility: 0.7189019918441772
","x: 259.35772705078125
y: 311.13507080078125
z: -0.1819213628768921
visibility: 0.8640565276145935
","x: 273.9937744140625
y: 308.9760437011719
z: -0.31617626547813416
visibility: 0.7188767194747925
","x: 258.7275085449219
y: 304.4426574707031
z: -0.19337520003318787
visibility: 0.8582106828689575
","x: 277.04962158203125
y: 307.7703552246094
z: -0.2863338589668274
visibility: 0.705812931060791
","x: 260.29705810546875
y: 304.60345458984375
z: -0.162477508187294
visibility: 0.8359585404396057
","x: 298.8041076660156
y: 388.7527770996094
z: -0.08349286764860153
visibility: 0.9984838962554932
","x: 276.92962646484375
y: 384.2840881347656
z: 0.08349446207284927
visibility: 0.9993006587028503
","x: 288.28924560546875
y: 485.22845458984375
z: -0.10692085325717926
visibility: 0.8236834406852722
","x: 255.23162841796875
y: 470.641845703125
z: 0.026460688561201096
visibility: 0.9824594259262085
","x: 296.5071716308594
y: 559.4487915039062
z: 0.07786133885383606
visibility: 0.8979892134666443
","x: 272.04595947265625
y: 548.6925048828125
z: 0.25325363874435425
visibility: 0.9799637794494629
","x: 302.7634582519531
y: 571.8343505859375
z: 0.08900702744722366
visibility: 0.7818588614463806
","x: 278.6339111328125
y: 558.8829956054688
z: 0.27105265855789185
visibility: 0.8792961239814758
","x: 281.4197692871094
y: 584.3582763671875
z: -0.03758590295910835
visibility: 0.9249658584594727
","x: 255.10794067382812
y: 575.49951171875
z: 0.20485734939575195
visibility: 0.9739944338798523
",,,,,,,,,,,,,,,,,,,,,,,,,,,,,,,,,,,,,,,,,,
14,"x: 275.58648681640625
y: 224.3936004638672
z: -0.18970362842082977
visibility: 0.9999492168426514
","x: 277.4893798828125
y: 215.7322998046875
z: -0.18698851764202118
visibility: 0.9999074339866638
","x: 279.24798583984375
y: 214.3302001953125
z: -0.1870402991771698
visibility: 0.9998801946640015
","x: 281.01153564453125
y: 212.90513610839844
z: -0.18708954751491547
visibility: 0.999850332736969
","x: 273.51593017578125
y: 219.3765869140625
z: -0.16516807675361633
visibility: 0.9999233484268188
","x: 272.43353271484375
y: 220.5902099609375
z: -0.16518349945545197
visibility: 0.9999218583106995
","x: 271.5609130859375
y: 221.8170928955078
z: -0.16512641310691833
visibility: 0.9999231696128845
","x: 286.56890869140625
y: 212.8426513671875
z: -0.12254741042852402
visibility: 0.9994722604751587
","x: 273.2345886230469
y: 225.89688110351562
z: -0.016775602474808693
visibility: 0.9998887181282043
","x: 281.1063537597656
y: 229.86122131347656
z: -0.16070081293582916
visibility: 0.9996373057365417
","x: 275.7107849121094
y: 234.63958740234375
z: -0.13192874193191528
visibility: 0.9998416304588318
","x: 305.5133972167969
y: 252.81231689453125
z: -0.12593017518520355
visibility: 0.998467206954956
","x: 276.4075927734375
y: 272.4143371582031
z: 0.12811705470085144
visibility: 0.9997501969337463
","x: 310.19329833984375
y: 315.1201171875
z: -0.18657729029655457
visibility: 0.7447588443756104
","x: 274.79461669921875
y: 334.10089111328125
z: 0.029249396175146103
visibility: 0.7988517880439758
","x: 281.0716857910156
y: 277.6053161621094
z: -0.16855917870998383
visibility: 0.7537589073181152
","x: 267.391845703125
y: 292.24267578125
z: -0.2331329584121704
visibility: 0.8840492367744446
","x: 273.5308532714844
y: 268.4563903808594
z: -0.18553796410560608
visibility: 0.7447381615638733
","x: 264.3700256347656
y: 281.3242492675781
z: -0.270424485206604
visibility: 0.8496201038360596
","x: 273.41680908203125
y: 263.6875
z: -0.17580601572990417
visibility: 0.7446385025978088
","x: 265.3426818847656
y: 277.4134521484375
z: -0.2740716338157654
visibility: 0.8427773118019104
","x: 276.11090087890625
y: 265.7627258300781
z: -0.16058680415153503
visibility: 0.7316451668739319
","x: 267.2813720703125
y: 281.2105712890625
z: -0.24329355359077454
visibility: 0.8199978470802307
","x: 297.9846496582031
y: 388.5030517578125
z: -0.09939110279083252
visibility: 0.9986281991004944
","x: 278.5229187011719
y: 383.9784240722656
z: 0.09940178692340851
visibility: 0.9993467926979065
","x: 287.639404296875
y: 480.2051086425781
z: -0.1403231918811798
visibility: 0.8402659893035889
","x: 266.7217102050781
y: 469.7590637207031
z: 0.1483316719532013
visibility: 0.9729882478713989
","x: 303.9991149902344
y: 558.8275756835938
z: -0.06758510321378708
visibility: 0.9075486063957214
","x: 289.8200378417969
y: 538.0811157226562
z: 0.3209070861339569
visibility: 0.9750096797943115
","x: 312.3325500488281
y: 570.9755859375
z: -0.06521105766296387
visibility: 0.7980643510818481
","x: 295.0183410644531
y: 545.9778442382812
z: 0.3339349925518036
visibility: 0.8815914392471313
","x: 286.1582946777344
y: 580.0009765625
z: -0.1773029863834381
visibility: 0.9318339228630066
","x: 275.9111328125
y: 561.465576171875
z: 0.2769876718521118
visibility: 0.9722470045089722
",,,,,,,,,,,,,,,,,,,,,,,,,,,,,,,,,,,,,,,,,,
15,"x: 277.1974792480469
y: 224.64801025390625
z: -0.21364076435565948
visibility: 0.9999536871910095
","x: 279.81494140625
y: 215.45188903808594
z: -0.21919651329517365
visibility: 0.9999161958694458
","x: 281.703369140625
y: 214.26971435546875
z: -0.2192348688840866
visibility: 0.9998916983604431
","x: 283.6244812011719
y: 213.1977996826172
z: -0.21929307281970978
visibility: 0.9998646974563599
","x: 276.3607177734375
y: 218.36294555664062
z: -0.18725189566612244
visibility: 0.9999301433563232
","x: 275.4287109375
y: 219.2404022216797
z: -0.18728230893611908
visibility: 0.9999281764030457
","x: 274.5011291503906
y: 220.21096801757812
z: -0.18723681569099426
visibility: 0.9999290108680725
","x: 290.4560241699219
y: 213.9893798828125
z: -0.16427217423915863
visibility: 0.9995246529579163
","x: 277.7615661621094
y: 225.11976623535156
z: -0.032374799251556396
visibility: 0.9998956918716431
","x: 282.6761779785156
y: 231.08401489257812
z: -0.18998214602470398
visibility: 0.9996723532676697
","x: 277.51409912109375
y: 234.26268005371094
z: -0.1427469700574875
visibility: 0.9998536705970764
","x: 306.33782958984375
y: 254.26634216308594
z: -0.1727355420589447
visibility: 0.998618483543396
","x: 280.8379821777344
y: 264.2107849121094
z: 0.11712174117565155
visibility: 0.9997477531433105
","x: 297.9098815917969
y: 315.4056091308594
z: -0.2724441885948181
visibility: 0.7695760130882263
","x: 274.3494873046875
y: 323.3932800292969
z: 0.06661397218704224
visibility: 0.7429219484329224
","x: 280.34326171875
y: 264.99981689453125
z: -0.285488486289978
visibility: 0.7775315642356873
","x: 270.7878723144531
y: 283.087890625
z: -0.153095543384552
visibility: 0.8558468818664551
","x: 273.61761474609375
y: 254.4901123046875
z: -0.29027679562568665
visibility: 0.7687004804611206
","x: 269.0990295410156
y: 271.6165771484375
z: -0.1761852353811264
visibility: 0.824109673500061
","x: 276.27978515625
y: 249.2060089111328
z: -0.2651533782482147
visibility: 0.7686110138893127
","x: 270.5462646484375
y: 266.08343505859375
z: -0.18124189972877502
visibility: 0.8163671493530273
","x: 278.1321716308594
y: 253.03192138671875
z: -0.2711232304573059
visibility: 0.7557017207145691
","x: 271.7701416015625
y: 271.1212463378906
z: -0.16211244463920593
visibility: 0.7921953797340393
","x: 294.8560485839844
y: 388.1343078613281
z: -0.11019451916217804
visibility: 0.9987566471099854
","x: 278.0237121582031
y: 383.79736328125
z: 0.11022856086492538
visibility: 0.9993820786476135
","x: 285.1794128417969
y: 478.93023681640625
z: -0.1480439156293869
visibility: 0.8540647029876709
","x: 270.75439453125
y: 470.2462158203125
z: 0.19367747008800507
visibility: 0.950386106967926
","x: 303.6712646484375
y: 558.4828491210938
z: -0.11550237983465195
visibility: 0.9158822894096375
","x: 291.4429626464844
y: 541.6533813476562
z: 0.33345574140548706
visibility: 0.9636902809143066
","x: 313.01519775390625
y: 572.4359130859375
z: -0.11527750641107559
visibility: 0.8155102729797363
","x: 296.1301574707031
y: 551.2523803710938
z: 0.34356218576431274
visibility: 0.8819559812545776
","x: 285.3927001953125
y: 576.5136108398438
z: -0.21177132427692413
visibility: 0.9377878308296204
","x: 276.1017150878906
y: 558.3843994140625
z: 0.2886577248573303
visibility: 0.9664658904075623
",,,,,,,,,,,,,,,,,,,,,,,,,,,,,,,,,,,,,,,,,,
16,"x: 279.4161376953125
y: 224.98182678222656
z: -0.25967127084732056
visibility: 0.9999578595161438
","x: 282.2425842285156
y: 216.79563903808594
z: -0.2537018358707428
visibility: 0.9999239444732666
","x: 283.9407043457031
y: 216.07115173339844
z: -0.2537555396556854
visibility: 0.9999018311500549
","x: 285.868408203125
y: 215.52182006835938
z: -0.2538686692714691
visibility: 0.9998774528503418
","x: 278.2699279785156
y: 218.48397827148438
z: -0.23222804069519043
visibility: 0.9999362826347351
","x: 277.17950439453125
y: 218.9950408935547
z: -0.23219963908195496
visibility: 0.9999340772628784
","x: 276.04669189453125
y: 219.61050415039062
z: -0.23210088908672333
visibility: 0.9999344348907471
","x: 291.65325927734375
y: 219.11557006835938
z: -0.16853870451450348
visibility: 0.999571681022644
","x: 277.975341796875
y: 223.70126342773438
z: -0.06948249042034149
visibility: 0.9999030828475952
","x: 283.6850891113281
y: 232.66517639160156
z: -0.22376525402069092
visibility: 0.9997038245201111
","x: 278.72760009765625
y: 233.98504638671875
z: -0.19489672780036926
visibility: 0.9998651146888733
","x: 302.4632873535156
y: 259.4767150878906
z: -0.17664603888988495
visibility: 0.9987544417381287
","x: 280.5287780761719
y: 264.71270751953125
z: 0.10557503998279572
visibility: 0.9997392296791077
","x: 298.59954833984375
y: 324.73480224609375
z: -0.2238844633102417
visibility: 0.7917544841766357
","x: 280.8431701660156
y: 323.9147644042969
z: 0.1518154740333557
visibility: 0.6729297637939453
","x: 276.5504150390625
y: 269.6558837890625
z: -0.17808862030506134
visibility: 0.7955816388130188
","x: 273.1153869628906
y: 354.8807067871094
z: 0.038464225828647614
visibility: 0.7804929614067078
","x: 270.44561767578125
y: 264.7254333496094
z: -0.2002071589231491
visibility: 0.7837167978286743
","x: 270.9941101074219
y: 364.1990661621094
z: 0.030556946992874146
visibility: 0.7557451725006104
","x: 271.87750244140625
y: 259.4407043457031
z: -0.18495428562164307
visibility: 0.783848226070404
","x: 269.9211120605469
y: 358.4048767089844
z: -0.0014834960456937551
visibility: 0.7491136193275452
","x: 274.1662902832031
y: 260.2953796386719
z: -0.16901788115501404
visibility: 0.7698385715484619
","x: 271.1671447753906
y: 355.4115295410156
z: 0.022434230893850327
visibility: 0.7277116179466248
","x: 293.0650634765625
y: 392.8692626953125
z: -0.11369236558675766
visibility: 0.998871922492981
","x: 280.1285095214844
y: 388.4896545410156
z: 0.113702692091465
visibility: 0.9994072914123535
","x: 278.7236328125
y: 476.621337890625
z: -0.11975637823343277
visibility: 0.8678170442581177
","x: 272.01556396484375
y: 466.4349365234375
z: 0.21486961841583252
visibility: 0.9278083443641663
","x: 301.50994873046875
y: 555.7527465820312
z: -0.042510200291872025
visibility: 0.923251211643219
","x: 290.3744812011719
y: 536.4232788085938
z: 0.3607502281665802
visibility: 0.95355224609375
","x: 312.16510009765625
y: 568.4388427734375
z: -0.035912953317165375
visibility: 0.8323851227760315
","x: 296.62542724609375
y: 547.6224975585938
z: 0.37163349986076355
visibility: 0.8852269053459167
","x: 284.93475341796875
y: 569.1582641601562
z: -0.111879363656044
visibility: 0.941980242729187
","x: 274.4872741699219
y: 550.92431640625
z: 0.3290889263153076
visibility: 0.9556153416633606
",,,,,,,,,,,,,,,,,,,,,,,,,,,,,,,,,,,,,,,,,,
17,"x: 280.230712890625
y: 223.97225952148438
z: -0.24476805329322815
visibility: 0.9999601244926453
","x: 283.32501220703125
y: 215.82884216308594
z: -0.23678767681121826
visibility: 0.9999297261238098
","x: 285.2045593261719
y: 215.3019561767578
z: -0.23685625195503235
visibility: 0.9999096989631653
","x: 287.1812438964844
y: 214.99208068847656
z: -0.23694577813148499
visibility: 0.9998882412910461
","x: 278.78118896484375
y: 218.36892700195312
z: -0.21866805851459503
visibility: 0.9999393820762634
","x: 277.3916015625
y: 218.22024536132812
z: -0.218643456697464
visibility: 0.9999353289604187
","x: 275.8204650878906
y: 218.12767028808594
z: -0.21856191754341125
visibility: 0.9999346137046814
","x: 291.59283447265625
y: 219.57940673828125
z: -0.1534513384103775
visibility: 0.9996131658554077
","x: 275.84222412109375
y: 222.63487243652344
z: -0.0682128295302391
visibility: 0.9998946785926819
","x: 283.40704345703125
y: 232.17247009277344
z: -0.21104910969734192
visibility: 0.9997310638427734
","x: 277.8501281738281
y: 233.17892456054688
z: -0.1867365688085556
visibility: 0.9998673796653748
","x: 298.7989196777344
y: 259.32489013671875
z: -0.17901067435741425
visibility: 0.9988785982131958
","x: 280.95068359375
y: 263.1212158203125
z: 0.1056670993566513
visibility: 0.9995455741882324
","x: 306.29052734375
y: 322.0144348144531
z: -0.25896546244621277
visibility: 0.8124128580093384
","x: 282.51837158203125
y: 325.5386657714844
z: 0.17111852765083313
visibility: 0.6081834435462952
","x: 274.1046142578125
y: 307.8814392089844
z: -0.30102890729904175
visibility: 0.8150604367256165
","x: 270.8448486328125
y: 355.9659423828125
z: 0.08526353538036346
visibility: 0.7079591155052185
","x: 266.4329528808594
y: 308.1607360839844
z: -0.3357209861278534
visibility: 0.8027997612953186
","x: 267.1841125488281
y: 365.892333984375
z: 0.07833604514598846
visibility: 0.6885790228843689
","x: 265.9062805175781
y: 303.3090515136719
z: -0.313836932182312
visibility: 0.802897572517395
","x: 265.66949462890625
y: 362.65576171875
z: 0.04589004069566727
visibility: 0.6827812194824219
","x: 268.54669189453125
y: 302.453125
z: -0.289838969707489
visibility: 0.7885887026786804
","x: 267.4349060058594
y: 359.4586486816406
z: 0.06910575181245804
visibility: 0.6636446714401245
","x: 290.6810302734375
y: 392.325927734375
z: -0.1113319993019104
visibility: 0.998973548412323
","x: 279.52264404296875
y: 387.8837585449219
z: 0.11137568950653076
visibility: 0.9992673993110657
","x: 272.4355773925781
y: 472.75506591796875
z: -0.10939385741949081
visibility: 0.8772246241569519
","x: 268.40264892578125
y: 457.60675048828125
z: 0.19572612643241882
visibility: 0.8808057904243469
","x: 298.8428955078125
y: 550.2974243164062
z: -0.051925189793109894
visibility: 0.9291256666183472
","x: 288.7256774902344
y: 505.9676818847656
z: 0.3324100375175476
visibility: 0.9192483425140381
","x: 309.12091064453125
y: 559.1052856445312
z: -0.04923031106591225
visibility: 0.8455612659454346
","x: 295.1849670410156
y: 511.57891845703125
z: 0.34228822588920593
visibility: 0.8717204332351685
","x: 282.6738586425781
y: 565.1392211914062
z: -0.13166290521621704
visibility: 0.9456431865692139
","x: 274.7048645019531
y: 535.7327880859375
z: 0.30317479372024536
visibility: 0.9349051713943481
",,,,,,,,,,,,,,,,,,,,,,,,,,,,,,,,,,,,,,,,,,
18,"x: 280.04339599609375
y: 223.51136779785156
z: -0.2504326105117798
visibility: 0.9999629855155945
","x: 283.2609558105469
y: 215.22482299804688
z: -0.24193701148033142
visibility: 0.9999356269836426
","x: 285.0992736816406
y: 214.62155151367188
z: -0.24199709296226501
visibility: 0.9999175667762756
","x: 287.0198059082031
y: 214.37025451660156
z: -0.2420777976512909
visibility: 0.9998984932899475
","x: 278.54559326171875
y: 217.14266967773438
z: -0.22500336170196533
visibility: 0.9999435544013977
","x: 277.0396728515625
y: 216.527587890625
z: -0.22497782111167908
visibility: 0.9999387264251709
","x: 275.2349548339844
y: 216.0206756591797
z: -0.22486770153045654
visibility: 0.9999374747276306
","x: 290.2803649902344
y: 219.4183349609375
z: -0.15787456929683685
visibility: 0.9996511936187744
","x: 274.2851257324219
y: 220.52896118164062
z: -0.08168084919452667
visibility: 0.999897837638855
","x: 282.7462158203125
y: 231.56068420410156
z: -0.21752679347991943
visibility: 0.9997566342353821
","x: 276.9432067871094
y: 233.08575439453125
z: -0.19568201899528503
visibility: 0.999874472618103
","x: 295.00628662109375
y: 258.25067138671875
z: -0.19222889840602875
visibility: 0.998990535736084
","x: 277.8691101074219
y: 261.5115966796875
z: 0.1012411117553711
visibility: 0.9994459748268127
","x: 310.39080810546875
y: 302.7557373046875
z: -0.29779064655303955
visibility: 0.831110417842865
","x: 275.1331787109375
y: 301.45361328125
z: 0.18029986321926117
visibility: 0.5557838082313538
","x: 279.44659423828125
y: 315.6045227050781
z: -0.39243385195732117
visibility: 0.8332943320274353
","x: 267.4565124511719
y: 316.251220703125
z: 0.09315039217472076
visibility: 0.6739753484725952
","x: 269.05364990234375
y: 318.6847229003906
z: -0.4295600354671478
visibility: 0.8217074871063232
","x: 263.6086730957031
y: 329.56634521484375
z: 0.09211298078298569
visibility: 0.6653741598129272
","x: 266.0510559082031
y: 314.756103515625
z: -0.4164249897003174
visibility: 0.8217994570732117
","x: 262.99786376953125
y: 337.65863037109375
z: 0.06712271273136139
visibility: 0.6615233421325684
","x: 268.97332763671875
y: 313.31982421875
z: -0.38561728596687317
visibility: 0.8083053827285767
","x: 265.61578369140625
y: 331.68206787109375
z: 0.08094444870948792
visibility: 0.6427241563796997
","x: 289.7816467285156
y: 392.2264404296875
z: -0.11058710515499115
visibility: 0.9990680813789368
","x: 279.3572082519531
y: 386.5690612792969
z: 0.11060656607151031
visibility: 0.9992390275001526
","x: 266.7575988769531
y: 468.698486328125
z: -0.13848300278186798
visibility: 0.8874868750572205
","x: 264.3917236328125
y: 446.62554931640625
z: 0.1640579104423523
visibility: 0.8401944041252136
","x: 295.8257751464844
y: 545.8971557617188
z: -0.09826646000146866
visibility: 0.935110867023468
","x: 287.09454345703125
y: 495.9512634277344
z: 0.30501458048820496
visibility: 0.8893467783927917
","x: 306.10894775390625
y: 555.195556640625
z: -0.09629051387310028
visibility: 0.8586567044258118
","x: 293.9406433105469
y: 499.88116455078125
z: 0.3152434825897217
visibility: 0.8619042634963989
","x: 277.5644836425781
y: 563.3916625976562
z: -0.16924259066581726
visibility: 0.9497228860855103
","x: 279.6700439453125
y: 523.56494140625
z: 0.2842422425746918
visibility: 0.9175020456314087
",,,,,,,,,,,,,,,,,,,,,,,,,,,,,,,,,,,,,,,,,,
19,"x: 279.38250732421875
y: 216.20889282226562
z: -0.24801906943321228
visibility: 0.9999656677246094
","x: 282.8564758300781
y: 209.246826171875
z: -0.23112758994102478
visibility: 0.9999412894248962
","x: 284.73291015625
y: 209.65757751464844
z: -0.2311393916606903
visibility: 0.9999250173568726
","x: 286.7082214355469
y: 210.35638427734375
z: -0.2312532216310501
visibility: 0.999907910823822
","x: 277.9195861816406
y: 208.17727661132812
z: -0.21662414073944092
visibility: 0.9999480843544006
","x: 276.2241516113281
y: 207.44142150878906
z: -0.21655826270580292
visibility: 0.9999433159828186
","x: 274.4090270996094
y: 206.85626220703125
z: -0.2164170742034912
visibility: 0.9999420046806335
","x: 289.5661315917969
y: 216.98622131347656
z: -0.12899963557720184
visibility: 0.9996856451034546
","x: 273.0858154296875
y: 210.91490173339844
z: -0.06515423953533173
visibility: 0.9999060034751892
","x: 281.69891357421875
y: 226.74642944335938
z: -0.2079056203365326
visibility: 0.9997801780700684
","x: 275.9793395996094
y: 225.59536743164062
z: -0.19226601719856262
visibility: 0.9998847246170044
","x: 292.3755187988281
y: 248.60923767089844
z: -0.16194932162761688
visibility: 0.9990912675857544
","x: 275.56842041015625
y: 253.4059295654297
z: 0.12878946959972382
visibility: 0.9994319081306458
","x: 313.6910095214844
y: 283.42645263671875
z: -0.28616607189178467
visibility: 0.8479619026184082
","x: 271.9467468261719
y: 286.43011474609375
z: 0.20322754979133606
visibility: 0.5185127854347229
","x: 286.25634765625
y: 314.15869140625
z: -0.4168097972869873
visibility: 0.8497689962387085
","x: 256.3748474121094
y: 299.2041320800781
z: 0.09456883370876312
visibility: 0.6696426868438721
","x: 278.7749328613281
y: 309.999755859375
z: -0.4593733251094818
visibility: 0.8388851881027222
","x: 251.78048706054688
y: 308.4219055175781
z: 0.0917101725935936
visibility: 0.6668885350227356
","x: 275.4133605957031
y: 306.3702697753906
z: -0.4511808753013611
visibility: 0.8389585614204407
","x: 253.0426025390625
y: 312.85687255859375
z: 0.06700454652309418
visibility: 0.6652653813362122
","x: 276.68902587890625
y: 304.2829284667969
z: -0.41383594274520874
visibility: 0.8263729214668274
","x: 255.639892578125
y: 308.3438415527344
z: 0.08260753750801086
visibility: 0.6460598707199097
","x: 283.5269775390625
y: 382.4960021972656
z: -0.11116214096546173
visibility: 0.9991511702537537
","x: 278.1866760253906
y: 378.2532043457031
z: 0.11124368011951447
visibility: 0.9992377161979675
","x: 264.30401611328125
y: 466.74237060546875
z: -0.17092140018939972
visibility: 0.8981817364692688
","x: 265.1722412109375
y: 453.3887939453125
z: 0.13641420006752014
visibility: 0.8063631653785706
","x: 285.6256408691406
y: 546.7225952148438
z: -0.152547225356102
visibility: 0.9406260848045349
","x: 285.60577392578125
y: 505.3685302734375
z: 0.22733505070209503
visibility: 0.8770344853401184
","x: 295.1360778808594
y: 560.5231323242188
z: -0.1538730263710022
visibility: 0.8710525631904602
","x: 293.19488525390625
y: 504.631103515625
z: 0.23032140731811523
visibility: 0.8630475997924805
","x: 262.4031982421875
y: 569.2863159179688
z: -0.23424896597862244
visibility: 0.9533023238182068
","x: 280.14410400390625
y: 540.4707641601562
z: 0.18548014760017395
visibility: 0.9103410840034485
",,,,,,,,,,,,,,,,,,,,,,,,,,,,,,,,,,,,,,,,,,
20,"x: 277.9348449707031
y: 216.444091796875
z: -0.2675096392631531
visibility: 0.9999690651893616
","x: 281.31329345703125
y: 209.29483032226562
z: -0.25571101903915405
visibility: 0.9999471306800842
","x: 283.0787353515625
y: 209.892578125
z: -0.25571727752685547
visibility: 0.9999324679374695
","x: 285.0132141113281
y: 210.7022247314453
z: -0.2558005750179291
visibility: 0.9999170899391174
","x: 276.5697326660156
y: 208.62709045410156
z: -0.24240908026695251
visibility: 0.9999532103538513
","x: 274.885986328125
y: 208.08961486816406
z: -0.24240238964557648
visibility: 0.9999488592147827
","x: 273.1358642578125
y: 207.7094268798828
z: -0.24226224422454834
visibility: 0.999947726726532
","x: 288.2027893066406
y: 218.01068115234375
z: -0.15817736089229584
visibility: 0.9997170567512512
","x: 272.3899841308594
y: 211.6688232421875
z: -0.1011221781373024
visibility: 0.9999151825904846
","x: 281.403564453125
y: 226.89382934570312
z: -0.23015204071998596
visibility: 0.9998021125793457
","x: 275.6827697753906
y: 225.67620849609375
z: -0.21413400769233704
visibility: 0.9998961687088013
","x: 290.97894287109375
y: 257.4739990234375
z: -0.17419937252998352
visibility: 0.9991821050643921
","x: 267.2484130859375
y: 255.23130798339844
z: 0.09379611164331436
visibility: 0.9994684457778931
","x: 311.5261535644531
y: 305.0690612792969
z: -0.26374754309654236
visibility: 0.8631342053413391
","x: 264.91534423828125
y: 299.3182678222656
z: 0.14689257740974426
visibility: 0.49850237369537354
","x: 286.7337646484375
y: 317.02459716796875
z: -0.3779110610485077
visibility: 0.8646502494812012
","x: 247.8883056640625
y: 302.892822265625
z: 0.020723212510347366
visibility: 0.6742305159568787
","x: 279.2590026855469
y: 322.53057861328125
z: -0.4158109128475189
visibility: 0.8545787930488586
","x: 242.4479522705078
y: 312.5023193359375
z: 0.009979075752198696
visibility: 0.6748267412185669
","x: 276.55859375
y: 316.5977783203125
z: -0.40629953145980835
visibility: 0.8546381592750549
","x: 242.9251708984375
y: 314.9511413574219
z: -0.015507452189922333
visibility: 0.674893856048584
","x: 278.1138000488281
y: 313.8330383300781
z: -0.3731241822242737
visibility: 0.8430107831954956
","x: 245.34765625
y: 312.7083740234375
z: 0.0072498382069170475
visibility: 0.6554552912712097
","x: 277.5061950683594
y: 383.5621337890625
z: -0.10702308267354965
visibility: 0.9992336630821228
","x: 269.9288330078125
y: 378.9112548828125
z: 0.10707426071166992
visibility: 0.9992591142654419
","x: 256.59088134765625
y: 470.11529541015625
z: -0.166936457157135
visibility: 0.9079512357711792
","x: 261.7842712402344
y: 453.7637939453125
z: 0.14984098076820374
visibility: 0.7986166477203369
","x: 281.5030822753906
y: 550.7337646484375
z: -0.11658625304698944
visibility: 0.9463607668876648
","x: 296.23870849609375
y: 487.0295715332031
z: 0.3312680423259735
visibility: 0.8729525208473206
","x: 290.23931884765625
y: 564.2659912109375
z: -0.11511336266994476
visibility: 0.8829177618026733
","x: 304.65020751953125
y: 482.777099609375
z: 0.3472365736961365
visibility: 0.868759036064148
","x: 261.0801696777344
y: 573.7467041015625
z: -0.20371834933757782
visibility: 0.9576141834259033
","x: 297.9303283691406
y: 521.49755859375
z: 0.32225456833839417
visibility: 0.9097690582275391
",,,,,,,,,,,,,,,,,,,,,,,,,,,,,,,,,,,,,,,,,,
21,"x: 276.6354675292969
y: 216.6279754638672
z: -0.2624187767505646
visibility: 0.9999698996543884
","x: 280.74993896484375
y: 209.58645629882812
z: -0.25282779335975647
visibility: 0.9999496936798096
","x: 282.6282653808594
y: 210.33836364746094
z: -0.25291845202445984
visibility: 0.9999369978904724
","x: 284.5014953613281
y: 211.0944366455078
z: -0.25301259756088257
visibility: 0.9999234676361084
","x: 276.1921081542969
y: 208.9666748046875
z: -0.23672299087047577
visibility: 0.9999514222145081
","x: 274.80548095703125
y: 208.6248779296875
z: -0.236699178814888
visibility: 0.9999458193778992
","x: 272.97320556640625
y: 208.41555786132812
z: -0.23659738898277283
visibility: 0.9999445676803589
","x: 288.003662109375
y: 218.6641082763672
z: -0.1759210228919983
visibility: 0.9997440576553345
","x: 271.9543762207031
y: 212.1598663330078
z: -0.10252489149570465
visibility: 0.9999054670333862
","x: 278.6247253417969
y: 227.59971618652344
z: -0.2325926125049591
visibility: 0.9998202323913574
","x: 272.9511413574219
y: 225.7886962890625
z: -0.21165958046913147
visibility: 0.9998990297317505
","x: 287.68524169921875
y: 262.4701232910156
z: -0.22035348415374756
visibility: 0.9992635846138
","x: 266.0392150878906
y: 263.09368896484375
z: 0.08390340954065323
visibility: 0.9993382096290588
","x: 291.80084228515625
y: 322.43280029296875
z: -0.2568162679672241
visibility: 0.8767473697662354
","x: 261.8143310546875
y: 319.80999755859375
z: 0.18679484724998474
visibility: 0.47267022728919983
","x: 273.8773498535156
y: 373.26123046875
z: -0.29916825890541077
visibility: 0.8778366446495056
","x: 237.14312744140625
y: 326.2065124511719
z: 0.12643088400363922
visibility: 0.6759129762649536
","x: 270.88818359375
y: 386.71820068359375
z: -0.3285207152366638
visibility: 0.8680251240730286
","x: 229.469482421875
y: 330.0709533691406
z: 0.12203051894903183
visibility: 0.6776056885719299
","x: 267.307373046875
y: 383.971435546875
z: -0.337613582611084
visibility: 0.868108332157135
","x: 228.20477294921875
y: 329.2568359375
z: 0.0905122309923172
visibility: 0.6799224615097046
","x: 267.8705139160156
y: 380.3594970703125
z: -0.3008604347705841
visibility: 0.8571210503578186
","x: 230.94393920898438
y: 328.4239196777344
z: 0.11045841872692108
visibility: 0.6605473160743713
","x: 271.5838623046875
y: 389.83538818359375
z: -0.10584235191345215
visibility: 0.9992986917495728
","x: 258.824462890625
y: 385.7501525878906
z: 0.10574708878993988
visibility: 0.9992649555206299
","x: 253.37728881835938
y: 480.3279113769531
z: -0.1453101933002472
visibility: 0.9156059622764587
","x: 244.42137145996094
y: 468.870361328125
z: 0.08988629281520844
visibility: 0.8054830431938171
","x: 277.1689758300781
y: 550.8870849609375
z: 0.017907191067934036
visibility: 0.9508814811706543
","x: 277.4974060058594
y: 511.7501220703125
z: 0.31133922934532166
visibility: 0.8759911060333252
","x: 285.75732421875
y: 563.084228515625
z: 0.031391363590955734
visibility: 0.89005047082901
","x: 290.60137939453125
y: 485.21417236328125
z: 0.33689576387405396
visibility: 0.8734738230705261
","x: 262.42462158203125
y: 573.9243774414062
z: -0.0436408594250679
visibility: 0.9607667922973633
","x: 269.20855712890625
y: 548.1709594726562
z: 0.26200175285339355
visibility: 0.9122877717018127
",,,,,,,,,,,,,,,,,,,,,,,,,,,,,,,,,,,,,,,,,,
22,"x: 274.9917907714844
y: 214.20596313476562
z: -0.1925317496061325
visibility: 0.9999691843986511
","x: 279.9095153808594
y: 207.32583618164062
z: -0.18772277235984802
visibility: 0.9999501705169678
","x: 281.9625244140625
y: 208.0117950439453
z: -0.18785874545574188
visibility: 0.9999393224716187
","x: 284.0379638671875
y: 208.68618774414062
z: -0.1879817545413971
visibility: 0.9999281764030457
","x: 275.11029052734375
y: 206.30642700195312
z: -0.16727235913276672
visibility: 0.9999467134475708
","x: 273.4906921386719
y: 205.9976043701172
z: -0.16721540689468384
visibility: 0.9999371767044067
","x: 271.7995300292969
y: 205.81398010253906
z: -0.16712626814842224
visibility: 0.9999358654022217
","x: 287.3682861328125
y: 216.31105041503906
z: -0.12973597645759583
visibility: 0.999768078327179
","x: 271.4504699707031
y: 210.41583251953125
z: -0.03622088581323624
visibility: 0.999877393245697
","x: 276.8564147949219
y: 225.65289306640625
z: -0.1693039834499359
visibility: 0.999835729598999
","x: 271.2142639160156
y: 223.80728149414062
z: -0.14276382327079773
visibility: 0.9998986124992371
","x: 286.6012268066406
y: 261.7552795410156
z: -0.18514345586299896
visibility: 0.9993368983268738
","x: 264.85260009765625
y: 261.35693359375
z: 0.14264662563800812
visibility: 0.9993006587028503
","x: 283.6485290527344
y: 319.55645751953125
z: -0.21287336945533752
visibility: 0.8889635801315308
","x: 257.03057861328125
y: 315.42041015625
z: 0.21822814643383026
visibility: 0.4343482255935669
","x: 259.9769287109375
y: 361.3785400390625
z: -0.2143009901046753
visibility: 0.8893857598304749
","x: 236.1937255859375
y: 317.8992004394531
z: 0.11166880279779434
visibility: 0.6508201956748962
","x: 256.0326232910156
y: 375.663818359375
z: -0.24260678887367249
visibility: 0.8793666958808899
","x: 228.97096252441406
y: 319.2811279296875
z: 0.10195612907409668
visibility: 0.6598411202430725
","x: 253.4043731689453
y: 371.4054870605469
z: -0.24865512549877167
visibility: 0.8794661164283752
","x: 229.3717803955078
y: 317.570068359375
z: 0.07320884615182877
visibility: 0.664042055606842
","x: 254.3639373779297
y: 367.7644348144531
z: -0.21388962864875793
visibility: 0.8686438202857971
","x: 232.5096893310547
y: 317.7508239746094
z: 0.0952998697757721
visibility: 0.6452894806861877
","x: 266.664794921875
y: 384.1015319824219
z: -0.10753011703491211
visibility: 0.9993598461151123
","x: 252.09588623046875
y: 380.0516357421875
z: 0.10745751857757568
visibility: 0.9993072748184204
","x: 249.9977569580078
y: 476.8813781738281
z: -0.15887662768363953
visibility: 0.9214719533920288
","x: 238.06814575195312
y: 468.8214416503906
z: 0.08569841086864471
visibility: 0.7989265322685242
","x: 273.3815612792969
y: 550.91162109375
z: 0.00617145374417305
visibility: 0.9538500905036926
","x: 262.73095703125
y: 533.7658081054688
z: 0.22087733447551727
visibility: 0.8776002526283264
","x: 283.3153076171875
y: 562.6362915039062
z: 0.02148447558283806
visibility: 0.8928526639938354
","x: 271.5642395019531
y: 541.571533203125
z: 0.22918672859668732
visibility: 0.8748024106025696
","x: 260.1816101074219
y: 573.9319458007812
z: -0.07273538410663605
visibility: 0.9625574350357056
","x: 249.08151245117188
y: 569.75341796875
z: 0.16638556122779846
visibility: 0.9125147461891174
",,,,,,,,,,,,,,,,,,,,,,,,,,,,,,,,,,,,,,,,,,
23,"x: 273.7375793457031
y: 214.5552978515625
z: -0.061501067131757736
visibility: 0.9999712109565735
","x: 278.68902587890625
y: 207.58399963378906
z: -0.05579548329114914
visibility: 0.9999542236328125
","x: 280.877685546875
y: 208.07936096191406
z: -0.055869292467832565
visibility: 0.9999443888664246
","x: 283.0263977050781
y: 208.82147216796875
z: -0.05598065257072449
visibility: 0.9999346137046814
","x: 273.7383728027344
y: 206.83352661132812
z: -0.03779638558626175
visibility: 0.999950647354126
","x: 272.0116882324219
y: 206.56002807617188
z: -0.037781067192554474
visibility: 0.999941349029541
","x: 270.09161376953125
y: 206.34991455078125
z: -0.03767421469092369
visibility: 0.9999405145645142
","x: 285.5496520996094
y: 216.32815551757812
z: 0.002205817960202694
visibility: 0.9997909069061279
","x: 268.6658630371094
y: 210.82919311523438
z: 0.08255510777235031
visibility: 0.9998834133148193
","x: 275.33953857421875
y: 225.68704223632812
z: -0.03842595964670181
visibility: 0.9998511672019958
","x: 269.51239013671875
y: 223.87005615234375
z: -0.015761319547891617
visibility: 0.9999058246612549
","x: 284.8193054199219
y: 261.23974609375
z: -0.06404533237218857
visibility: 0.9994029998779297
","x: 259.6564025878906
y: 261.6040344238281
z: 0.2339138239622116
visibility: 0.999343752861023
","x: 277.95184326171875
y: 317.8607177734375
z: -0.07486508041620255
visibility: 0.8998557925224304
","x: 246.1988067626953
y: 317.7179260253906
z: 0.17219719290733337
visibility: 0.4106191396713257
","x: 246.5113983154297
y: 344.7212219238281
z: -0.008006704971194267
visibility: 0.8990574479103088
","x: 237.92092895507812
y: 297.7228088378906
z: -0.04693169891834259
visibility: 0.6321218609809875
","x: 241.47344970703125
y: 346.1477966308594
z: -0.02397896908223629
visibility: 0.8875519633293152
","x: 235.130615234375
y: 293.1604309082031
z: -0.07657087594270706
visibility: 0.6409960985183716
","x: 240.77969360351562
y: 335.9288024902344
z: -0.014991539530456066
visibility: 0.887474775314331
","x: 236.3749237060547
y: 287.2562255859375
z: -0.08017568290233612
visibility: 0.6435090899467468
","x: 242.6162872314453
y: 333.4684753417969
z: 0.0013962729135528207
visibility: 0.8758639693260193
","x: 238.2978515625
y: 292.7384033203125
z: -0.05653449892997742
visibility: 0.6236603260040283
","x: 260.1400146484375
y: 376.1639099121094
z: -0.1085464134812355
visibility: 0.9994196891784668
","x: 244.67092895507812
y: 373.09674072265625
z: 0.10846277326345444
visibility: 0.999363899230957
","x: 244.72128295898438
y: 469.70050048828125
z: -0.17604336142539978
visibility: 0.9277752637863159
","x: 233.44500732421875
y: 466.130615234375
z: 0.09291110187768936
visibility: 0.7913228273391724
","x: 269.36810302734375
y: 550.2472534179688
z: -0.08822321891784668
visibility: 0.9569941759109497
","x: 255.2497100830078
y: 538.307861328125
z: 0.18213298916816711
visibility: 0.8785930275917053
","x: 281.14556884765625
y: 560.3460083007812
z: -0.08194926381111145
visibility: 0.8940856456756592
","x: 261.548828125
y: 556.4210815429688
z: 0.18617340922355652
visibility: 0.8719415068626404
","x: 257.2424011230469
y: 574.4227294921875
z: -0.16169486939907074
visibility: 0.9647694826126099
","x: 241.41812133789062
y: 568.4482421875
z: 0.12392379343509674
visibility: 0.912997305393219
","x: 235.91656494140625
y: 295.6412658691406
z: 0.0
","x: 237.17633056640625
y: 291.454833984375
z: -0.0004998441436327994
","x: 238.07156372070312
y: 284.21551513671875
z: -0.002104216953739524
","x: 239.24234008789062
y: 278.2254943847656
z: -0.004088353831321001
","x: 240.0359649658203
y: 274.013427734375
z: -0.005398248787969351
","x: 233.7677764892578
y: 276.86785888671875
z: -0.0034778222907334566
","x: 238.83523559570312
y: 271.1856384277344
z: -0.005975381005555391
","x: 240.40606689453125
y: 274.8946838378906
z: -0.006569379009306431
","x: 239.65060424804688
y: 278.02069091796875
z: -0.006842487026005983
","x: 233.7761688232422
y: 277.480224609375
z: -0.005018217954784632
","x: 239.53692626953125
y: 272.4847106933594
z: -0.0077270944602787495
","x: 240.7870635986328
y: 276.223388671875
z: -0.007257016375660896
","x: 239.7235565185547
y: 278.931640625
z: -0.006848284509032965
","x: 234.61532592773438
y: 279.01751708984375
z: -0.006579267326742411
","x: 240.061279296875
y: 274.35943603515625
z: -0.008859009481966496
","x: 240.98439025878906
y: 277.9293212890625
z: -0.007385970558971167
","x: 239.85760498046875
y: 280.4693298339844
z: -0.006394773721694946
","x: 236.0198211669922
y: 281.1903991699219
z: -0.008290193974971771
","x: 240.3480987548828
y: 277.71319580078125
z: -0.009674635715782642
","x: 240.91307067871094
y: 280.7268981933594
z: -0.00851155910640955
","x: 239.95834350585938
y: 283.37298583984375
z: -0.0075492714531719685
",,,,,,,,,,,,,,,,,,,,,
24,"x: 273.7375793457031
y: 214.5552978515625
z: -0.061501067131757736
visibility: 0.9999712109565735
","x: 278.68902587890625
y: 207.58399963378906
z: -0.05579548329114914
visibility: 0.9999542236328125
","x: 280.877685546875
y: 208.07936096191406
z: -0.055869292467832565
visibility: 0.9999443888664246
","x: 283.0263977050781
y: 208.82147216796875
z: -0.05598065257072449
visibility: 0.9999346137046814
","x: 273.7383728027344
y: 206.83352661132812
z: -0.03779638558626175
visibility: 0.999950647354126
","x: 272.0116882324219
y: 206.56002807617188
z: -0.037781067192554474
visibility: 0.999941349029541
","x: 270.09161376953125
y: 206.34991455078125
z: -0.03767421469092369
visibility: 0.9999405145645142
","x: 285.5496520996094
y: 216.32815551757812
z: 0.002205817960202694
visibility: 0.9997909069061279
","x: 268.6658630371094
y: 210.82919311523438
z: 0.08255510777235031
visibility: 0.9998834133148193
","x: 275.33953857421875
y: 225.68704223632812
z: -0.03842595964670181
visibility: 0.9998511672019958
","x: 269.51239013671875
y: 223.87005615234375
z: -0.015761319547891617
visibility: 0.9999058246612549
","x: 284.8193054199219
y: 261.23974609375
z: -0.06404533237218857
visibility: 0.9994029998779297
","x: 259.6564025878906
y: 261.6040344238281
z: 0.2339138239622116
visibility: 0.999343752861023
","x: 277.95184326171875
y: 317.8607177734375
z: -0.07486508041620255
visibility: 0.8998557925224304
","x: 246.1988067626953
y: 317.7179260253906
z: 0.17219719290733337
visibility: 0.4106191396713257
","x: 246.5113983154297
y: 344.7212219238281
z: -0.008006704971194267
visibility: 0.8990574479103088
","x: 237.92092895507812
y: 297.7228088378906
z: -0.04693169891834259
visibility: 0.6321218609809875
","x: 241.47344970703125
y: 346.1477966308594
z: -0.02397896908223629
visibility: 0.8875519633293152
","x: 235.130615234375
y: 293.1604309082031
z: -0.07657087594270706
visibility: 0.6409960985183716
","x: 240.77969360351562
y: 335.9288024902344
z: -0.014991539530456066
visibility: 0.887474775314331
","x: 236.3749237060547
y: 287.2562255859375
z: -0.08017568290233612
visibility: 0.6435090899467468
","x: 242.6162872314453
y: 333.4684753417969
z: 0.0013962729135528207
visibility: 0.8758639693260193
","x: 238.2978515625
y: 292.7384033203125
z: -0.05653449892997742
visibility: 0.6236603260040283
","x: 260.1400146484375
y: 376.1639099121094
z: -0.1085464134812355
visibility: 0.9994196891784668
","x: 244.67092895507812
y: 373.09674072265625
z: 0.10846277326345444
visibility: 0.999363899230957
","x: 244.72128295898438
y: 469.70050048828125
z: -0.17604336142539978
visibility: 0.9277752637863159
","x: 233.44500732421875
y: 466.130615234375
z: 0.09291110187768936
visibility: 0.7913228273391724
","x: 269.36810302734375
y: 550.2472534179688
z: -0.08822321891784668
visibility: 0.9569941759109497
","x: 255.2497100830078
y: 538.307861328125
z: 0.18213298916816711
visibility: 0.8785930275917053
","x: 281.14556884765625
y: 560.3460083007812
z: -0.08194926381111145
visibility: 0.8940856456756592
","x: 261.548828125
y: 556.4210815429688
z: 0.18617340922355652
visibility: 0.8719415068626404
","x: 257.2424011230469
y: 574.4227294921875
z: -0.16169486939907074
visibility: 0.9647694826126099
","x: 241.41812133789062
y: 568.4482421875
z: 0.12392379343509674
visibility: 0.912997305393219
","x: 235.91656494140625
y: 295.6412658691406
z: 0.0
","x: 237.17633056640625
y: 291.454833984375
z: -0.0004998441436327994
","x: 238.07156372070312
y: 284.21551513671875
z: -0.002104216953739524
","x: 239.24234008789062
y: 278.2254943847656
z: -0.004088353831321001
","x: 240.0359649658203
y: 274.013427734375
z: -0.005398248787969351
","x: 233.7677764892578
y: 276.86785888671875
z: -0.0034778222907334566
","x: 238.83523559570312
y: 271.1856384277344
z: -0.005975381005555391
","x: 240.40606689453125
y: 274.8946838378906
z: -0.006569379009306431
","x: 239.65060424804688
y: 278.02069091796875
z: -0.006842487026005983
","x: 233.7761688232422
y: 277.480224609375
z: -0.005018217954784632
","x: 239.53692626953125
y: 272.4847106933594
z: -0.0077270944602787495
","x: 240.7870635986328
y: 276.223388671875
z: -0.007257016375660896
","x: 239.7235565185547
y: 278.931640625
z: -0.006848284509032965
","x: 234.61532592773438
y: 279.01751708984375
z: -0.006579267326742411
","x: 240.061279296875
y: 274.35943603515625
z: -0.008859009481966496
","x: 240.98439025878906
y: 277.9293212890625
z: -0.007385970558971167
","x: 239.85760498046875
y: 280.4693298339844
z: -0.006394773721694946
","x: 236.0198211669922
y: 281.1903991699219
z: -0.008290193974971771
","x: 240.3480987548828
y: 277.71319580078125
z: -0.009674635715782642
","x: 240.91307067871094
y: 280.7268981933594
z: -0.00851155910640955
","x: 239.95834350585938
y: 283.37298583984375
z: -0.0075492714531719685
",,,,,,,,,,,,,,,,,,,,,
25,"x: 269.9823303222656
y: 215.7762908935547
z: -0.14851219952106476
visibility: 0.999972939491272
","x: 274.375732421875
y: 209.6626434326172
z: -0.1390855610370636
visibility: 0.9999577403068542
","x: 276.2669982910156
y: 210.5426788330078
z: -0.13919678330421448
visibility: 0.9999486804008484
","x: 278.04949951171875
y: 211.57835388183594
z: -0.13932684063911438
visibility: 0.9999401569366455
","x: 269.844970703125
y: 207.74639892578125
z: -0.12306618690490723
visibility: 0.9999538064002991
","x: 268.06829833984375
y: 207.07589721679688
z: -0.12302480638027191
visibility: 0.9999440908432007
","x: 266.36236572265625
y: 206.435302734375
z: -0.12290416657924652
visibility: 0.9999433159828186
","x: 280.7554016113281
y: 219.70152282714844
z: -0.05981578305363655
visibility: 0.9998112320899963
","x: 264.49896240234375
y: 210.8820343017578
z: 0.012189434841275215
visibility: 0.9998877048492432
","x: 271.34808349609375
y: 227.35226440429688
z: -0.11788628995418549
visibility: 0.9998652338981628
","x: 265.7212219238281
y: 224.0596923828125
z: -0.09728368371725082
visibility: 0.9999122023582458
","x: 279.98773193359375
y: 264.9533996582031
z: -0.09239895641803741
visibility: 0.9994621276855469
","x: 255.61199951171875
y: 263.05224609375
z: 0.17220905423164368
visibility: 0.9993448853492737
","x: 275.3415832519531
y: 326.6919250488281
z: -0.11426625400781631
visibility: 0.9094739556312561
","x: 247.90362548828125
y: 325.68310546875
z: 0.17162668704986572
visibility: 0.3748783469200134
","x: 242.21266174316406
y: 319.50384521484375
z: -0.09942693263292313
visibility: 0.9066613912582397
","x: 238.29086303710938
y: 336.5967102050781
z: 0.017814066261053085
visibility: 0.5794975161552429
","x: 237.01251220703125
y: 313.68585205078125
z: -0.12557342648506165
visibility: 0.8926736116409302
","x: 234.69418334960938
y: 343.05194091796875
z: -0.004215815104544163
visibility: 0.5910711884498596
","x: 237.2083282470703
y: 304.8533020019531
z: -0.11147624254226685
visibility: 0.8926044702529907
","x: 234.68910217285156
y: 335.37872314453125
z: -0.02785893715918064
visibility: 0.5933156609535217
","x: 239.061767578125
y: 305.19036865234375
z: -0.09086963534355164
visibility: 0.8801938891410828
","x: 236.5619659423828
y: 333.41815185546875
z: 0.0020359312184154987
visibility: 0.575834333896637
","x: 254.89222717285156
y: 377.94573974609375
z: -0.10609443485736847
visibility: 0.9994712471961975
","x: 240.5875701904297
y: 374.4749755859375
z: 0.10591183602809906
visibility: 0.9993845224380493
","x: 235.5355224609375
y: 469.7515563964844
z: -0.15908712148666382
visibility: 0.931347131729126
","x: 229.5526123046875
y: 464.3612976074219
z: 0.15530875325202942
visibility: 0.7704073786735535
","x: 262.8958435058594
y: 549.4329833984375
z: -0.06565298140048981
visibility: 0.958574652671814
","x: 241.88902282714844
y: 532.627197265625
z: 0.33598360419273376
visibility: 0.8660314679145813
","x: 273.0103759765625
y: 559.9989013671875
z: -0.05971968173980713
visibility: 0.8963791728019714
","x: 240.60101318359375
y: 528.0384521484375
z: 0.3497043251991272
visibility: 0.8602046966552734
","x: 246.20057678222656
y: 571.3115234375
z: -0.14825884997844696
visibility: 0.9658178687095642
","x: 228.16421508789062
y: 555.2420654296875
z: 0.29444828629493713
visibility: 0.9076524972915649
",,,,,,,,,,,,,,,,,,,,,,"x: 244.38626098632812
y: 310.3387451171875
z: 0.0
","x: 241.16334533691406
y: 303.0836486816406
z: 0.0019363228930160403
","x: 237.38009643554688
y: 301.026123046875
z: 0.001834588940255344
","x: 234.8928680419922
y: 303.99542236328125
z: 0.0011931840563192964
","x: 233.78819274902344
y: 308.5002746582031
z: 0.0008476443472318351
","x: 233.67543029785156
y: 300.84588623046875
z: -0.00023714083363302052
","x: 231.95123291015625
y: 303.4365234375
z: -0.0006532667321152985
","x: 233.54348754882812
y: 305.70782470703125
z: -8.414435433223844e-05
","x: 235.4277801513672
y: 307.03326416015625
z: 0.0004329028306528926
","x: 232.8188018798828
y: 306.0824279785156
z: -0.002231265651062131
","x: 231.64193725585938
y: 309.07958984375
z: -0.0012950279051437974
","x: 233.07919311523438
y: 311.2274169921875
z: 0.000322778825648129
","x: 234.68496704101562
y: 312.80780029296875
z: 0.0008105254382826388
","x: 233.02015686035156
y: 311.3228454589844
z: -0.004026437643915415
","x: 232.38572692871094
y: 314.7114562988281
z: -0.0028637282084673643
","x: 233.75164794921875
y: 317.22528076171875
z: -0.0016161795938387513
","x: 234.9773406982422
y: 319.3346862792969
z: -0.0014198602875694633
","x: 233.9552764892578
y: 316.105224609375
z: -0.005875577684491873
","x: 233.98719787597656
y: 319.6676940917969
z: -0.005232538096606731
","x: 234.9451141357422
y: 322.5624084472656
z: -0.004422915168106556
","x: 235.62745666503906
y: 325.3753356933594
z: -0.004034509416669607
"
26,"x: 269.9823303222656
y: 215.7762908935547
z: -0.14851219952106476
visibility: 0.999972939491272
","x: 274.375732421875
y: 209.6626434326172
z: -0.1390855610370636
visibility: 0.9999577403068542
","x: 276.2669982910156
y: 210.5426788330078
z: -0.13919678330421448
visibility: 0.9999486804008484
","x: 278.04949951171875
y: 211.57835388183594
z: -0.13932684063911438
visibility: 0.9999401569366455
","x: 269.844970703125
y: 207.74639892578125
z: -0.12306618690490723
visibility: 0.9999538064002991
","x: 268.06829833984375
y: 207.07589721679688
z: -0.12302480638027191
visibility: 0.9999440908432007
","x: 266.36236572265625
y: 206.435302734375
z: -0.12290416657924652
visibility: 0.9999433159828186
","x: 280.7554016113281
y: 219.70152282714844
z: -0.05981578305363655
visibility: 0.9998112320899963
","x: 264.49896240234375
y: 210.8820343017578
z: 0.012189434841275215
visibility: 0.9998877048492432
","x: 271.34808349609375
y: 227.35226440429688
z: -0.11788628995418549
visibility: 0.9998652338981628
","x: 265.7212219238281
y: 224.0596923828125
z: -0.09728368371725082
visibility: 0.9999122023582458
","x: 279.98773193359375
y: 264.9533996582031
z: -0.09239895641803741
visibility: 0.9994621276855469
","x: 255.61199951171875
y: 263.05224609375
z: 0.17220905423164368
visibility: 0.9993448853492737
","x: 275.3415832519531
y: 326.6919250488281
z: -0.11426625400781631
visibility: 0.9094739556312561
","x: 247.90362548828125
y: 325.68310546875
z: 0.17162668704986572
visibility: 0.3748783469200134
","x: 242.21266174316406
y: 319.50384521484375
z: -0.09942693263292313
visibility: 0.9066613912582397
","x: 238.29086303710938
y: 336.5967102050781
z: 0.017814066261053085
visibility: 0.5794975161552429
","x: 237.01251220703125
y: 313.68585205078125
z: -0.12557342648506165
visibility: 0.8926736116409302
","x: 234.69418334960938
y: 343.05194091796875
z: -0.004215815104544163
visibility: 0.5910711884498596
","x: 237.2083282470703
y: 304.8533020019531
z: -0.11147624254226685
visibility: 0.8926044702529907
","x: 234.68910217285156
y: 335.37872314453125
z: -0.02785893715918064
visibility: 0.5933156609535217
","x: 239.061767578125
y: 305.19036865234375
z: -0.09086963534355164
visibility: 0.8801938891410828
","x: 236.5619659423828
y: 333.41815185546875
z: 0.0020359312184154987
visibility: 0.575834333896637
","x: 254.89222717285156
y: 377.94573974609375
z: -0.10609443485736847
visibility: 0.9994712471961975
","x: 240.5875701904297
y: 374.4749755859375
z: 0.10591183602809906
visibility: 0.9993845224380493
","x: 235.5355224609375
y: 469.7515563964844
z: -0.15908712148666382
visibility: 0.931347131729126
","x: 229.5526123046875
y: 464.3612976074219
z: 0.15530875325202942
visibility: 0.7704073786735535
","x: 262.8958435058594
y: 549.4329833984375
z: -0.06565298140048981
visibility: 0.958574652671814
","x: 241.88902282714844
y: 532.627197265625
z: 0.33598360419273376
visibility: 0.8660314679145813
","x: 273.0103759765625
y: 559.9989013671875
z: -0.05971968173980713
visibility: 0.8963791728019714
","x: 240.60101318359375
y: 528.0384521484375
z: 0.3497043251991272
visibility: 0.8602046966552734
","x: 246.20057678222656
y: 571.3115234375
z: -0.14825884997844696
visibility: 0.9658178687095642
","x: 228.16421508789062
y: 555.2420654296875
z: 0.29444828629493713
visibility: 0.9076524972915649
",,,,,,,,,,,,,,,,,,,,,,"x: 244.38626098632812
y: 310.3387451171875
z: 0.0
","x: 241.16334533691406
y: 303.0836486816406
z: 0.0019363228930160403
","x: 237.38009643554688
y: 301.026123046875
z: 0.001834588940255344
","x: 234.8928680419922
y: 303.99542236328125
z: 0.0011931840563192964
","x: 233.78819274902344
y: 308.5002746582031
z: 0.0008476443472318351
","x: 233.67543029785156
y: 300.84588623046875
z: -0.00023714083363302052
","x: 231.95123291015625
y: 303.4365234375
z: -0.0006532667321152985
","x: 233.54348754882812
y: 305.70782470703125
z: -8.414435433223844e-05
","x: 235.4277801513672
y: 307.03326416015625
z: 0.0004329028306528926
","x: 232.8188018798828
y: 306.0824279785156
z: -0.002231265651062131
","x: 231.64193725585938
y: 309.07958984375
z: -0.0012950279051437974
","x: 233.07919311523438
y: 311.2274169921875
z: 0.000322778825648129
","x: 234.68496704101562
y: 312.80780029296875
z: 0.0008105254382826388
","x: 233.02015686035156
y: 311.3228454589844
z: -0.004026437643915415
","x: 232.38572692871094
y: 314.7114562988281
z: -0.0028637282084673643
","x: 233.75164794921875
y: 317.22528076171875
z: -0.0016161795938387513
","x: 234.9773406982422
y: 319.3346862792969
z: -0.0014198602875694633
","x: 233.9552764892578
y: 316.105224609375
z: -0.005875577684491873
","x: 233.98719787597656
y: 319.6676940917969
z: -0.005232538096606731
","x: 234.9451141357422
y: 322.5624084472656
z: -0.004422915168106556
","x: 235.62745666503906
y: 325.3753356933594
z: -0.004034509416669607
"
27,"x: 266.0684509277344
y: 216.9062042236328
z: -0.24119678139686584
visibility: 0.9999743700027466
","x: 270.4229431152344
y: 211.35470581054688
z: -0.23129479587078094
visibility: 0.9999601244926453
","x: 272.22894287109375
y: 212.8063201904297
z: -0.23139870166778564
