uscmakers/ReverseChoreography/data/8_easily_bruno_major.csv
,NOSE,LEFT_EYE_INNER,LEFT_EYE,LEFT_EYE_OUTER,RIGHT_EYE_INNER,RIGHT_EYE,RIGHT_EYE_OUTER,LEFT_EAR,RIGHT_EAR,MOUTH_LEFT,MOUTH_RIGHT,LEFT_SHOULDER,RIGHT_SHOULDER,LEFT_ELBOW,RIGHT_ELBOW,LEFT_WRIST,RIGHT_WRIST,LEFT_PINKY,RIGHT_PINKY,LEFT_INDEX,RIGHT_INDEX,LEFT_THUMB,RIGHT_THUMB,LEFT_HIP,RIGHT_HIP,LEFT_KNEE,RIGHT_KNEE,LEFT_ANKLE,RIGHT_ANKLE,LEFT_HEEL,RIGHT_HEEL,LEFT_FOOT_INDEX,RIGHT_FOOT_INDEX,WRIST2,THUMB_CPC2,THUMB_MCP2,THUMB_IP2,THUMB_TIP2,INDEX_FINGER_MCP2,INDEX_FINGER_PIP2,INDEX_FINGER_DIP2,INDEX_FINGER_TIP2,MIDDLE_FINGER_MCP2,MIDDLE_FINGER_PIP2,MIDDLE_FINGER_DIP2,MIDDLE_FINGER_TIP2,RING_FINGER_PIP2,RING_FINGER_DIP2,RING_FINGER_TIP2,RING_FINGER_MCP2,PINKY_MCP2,PINKY_PIP2,PINKY_DIP2,PINKY_TIP2,WRIST,THUMB_CPC,THUMB_MCP,THUMB_IP,THUMB_TIP,INDEX_FINGER_MCP,INDEX_FINGER_PIP,INDEX_FINGER_DIP,INDEX_FINGER_TIP,MIDDLE_FINGER_MCP,MIDDLE_FINGER_PIP,MIDDLE_FINGER_DIP,MIDDLE_FINGER_TIP,RING_FINGER_PIP,RING_FINGER_DIP,RING_FINGER_TIP,RING_FINGER_MCP,PINKY_MCP,PINKY_PIP,PINKY_DIP,PINKY_TIP
0,"x: 239.13966369628906
y: 216.54840087890625
z: -0.07292567193508148
visibility: 0.9978986978530884
","x: 237.2189483642578
y: 208.93179321289062
z: -0.0611766092479229
visibility: 0.9969134330749512
","x: 236.6925811767578
y: 208.7314453125
z: -0.061203308403491974
visibility: 0.9969727993011475
","x: 236.149169921875
y: 208.59371948242188
z: -0.06117941811680794
visibility: 0.9972928166389465
","x: 237.38262939453125
y: 209.2369384765625
z: -0.0936848521232605
visibility: 0.9971177577972412
","x: 236.99961853027344
y: 209.2537841796875
z: -0.09369470179080963
visibility: 0.9974313378334045
","x: 236.596435546875
y: 209.33555603027344
z: -0.0937449112534523
visibility: 0.9977691173553467
","x: 231.0083465576172
y: 211.3572540283203
z: -0.0033904872834682465
visibility: 0.9936361312866211
","x: 232.15159606933594
y: 212.52969360351562
z: -0.1493312269449234
visibility: 0.9977403879165649
","x: 236.9903564453125
y: 223.43341064453125
z: -0.047132011502981186
visibility: 0.9956762194633484
","x: 237.10427856445312
y: 223.58328247070312
z: -0.08937209099531174
visibility: 0.9975608587265015
","x: 217.19544982910156
y: 252.14935302734375
z: 0.10203568637371063
visibility: 0.9975294470787048
","x: 223.7855224609375
y: 253.26824951171875
z: -0.21777598559856415
visibility: 0.9998742341995239
","x: 217.6410675048828
y: 323.4994201660156
z: 0.11350228637456894
visibility: 0.017247667536139488
","x: 229.98028564453125
y: 321.15777587890625
z: -0.24257512390613556
visibility: 0.9185601472854614
","x: 226.6384735107422
y: 369.775146484375
z: 0.06442130357027054
visibility: 0.024304604157805443
","x: 240.54660034179688
y: 373.624267578125
z: -0.1919006109237671
visibility: 0.7393743991851807
","x: 228.49378967285156
y: 381.5378112792969
z: 0.06703265756368637
visibility: 0.03544250503182411
","x: 242.64100646972656
y: 390.1405334472656
z: -0.21543142199516296
visibility: 0.7133497595787048
","x: 231.80165100097656
y: 381.06640625
z: 0.04624549299478531
visibility: 0.03490765765309334
","x: 243.28602600097656
y: 390.6210021972656
z: -0.20554177463054657
visibility: 0.6986689567565918
","x: 231.13247680664062
y: 376.93780517578125
z: 0.05260347202420235
visibility: 0.035311438143253326
","x: 242.23680114746094
y: 384.5638732910156
z: -0.18624696135520935
visibility: 0.6190749406814575
","x: 220.01034545898438
y: 372.39544677734375
z: 0.10012038797140121
visibility: 0.9979797005653381
","x: 226.85276794433594
y: 371.4775390625
z: -0.10020191967487335
visibility: 0.9986637830734253
","x: 227.83726501464844
y: 452.94549560546875
z: 0.15210828185081482
visibility: 0.5913364887237549
","x: 248.30886840820312
y: 449.9605712890625
z: -0.06950435042381287
visibility: 0.9839657545089722
","x: 217.25367736816406
y: 536.7804565429688
z: 0.23238015174865723
visibility: 0.8670669198036194
","x: 250.8418731689453
y: 539.6723022460938
z: 0.000895905657671392
visibility: 0.9838917851448059
","x: 211.99798583984375
y: 551.222900390625
z: 0.2355625331401825
visibility: 0.833682656288147
","x: 247.27145385742188
y: 555.3621826171875
z: 0.004038573242723942
visibility: 0.9412291646003723
","x: 234.69615173339844
y: 551.105712890625
z: 0.19333365559577942
visibility: 0.9042657017707825
","x: 269.527587890625
y: 550.1778564453125
z: -0.055580563843250275
visibility: 0.976379930973053
",,,,,,,,,,,,,,,,,,,,,,,,,,,,,,,,,,,,,,,,,,
1,"x: 239.13058471679688
y: 206.6103973388672
z: -0.2850509583950043
visibility: 0.9981067776679993
","x: 238.474609375
y: 201.0068359375
z: -0.26125162839889526
visibility: 0.9972173571586609
","x: 239.2830047607422
y: 201.18487548828125
z: -0.26128697395324707
visibility: 0.9972704648971558
","x: 240.09417724609375
y: 201.37403869628906
z: -0.26127734780311584
visibility: 0.9975574016571045
","x: 236.56124877929688
y: 200.68609619140625
z: -0.27574285864830017
visibility: 0.9974015951156616
","x: 235.02841186523438
y: 200.74917602539062
z: -0.27578020095825195
visibility: 0.9976842403411865
","x: 233.5240478515625
y: 200.92181396484375
z: -0.27584245800971985
visibility: 0.9979878664016724
","x: 239.69508361816406
y: 206.31224060058594
z: -0.12810257077217102
visibility: 0.9942552447319031
","x: 230.10488891601562
y: 206.31033325195312
z: -0.194851353764534
visibility: 0.9979605078697205
","x: 239.11227416992188
y: 215.8629150390625
z: -0.2346346378326416
visibility: 0.9961051940917969
","x: 236.4876251220703
y: 216.1365509033203
z: -0.2536769509315491
visibility: 0.9978028535842896
","x: 247.13967895507812
y: 255.24168395996094
z: 0.0059444596990942955
visibility: 0.9977673292160034
","x: 216.72549438476562
y: 251.61660766601562
z: -0.17987526953220367
visibility: 0.9998853206634521
","x: 252.26727294921875
y: 317.8643493652344
z: 0.06379233300685883
visibility: 0.1014440655708313
","x: 206.6586456298828
y: 311.6119079589844
z: -0.1732427477836609
visibility: 0.9262701869010925
","x: 267.3577575683594
y: 363.57012939453125
z: -0.06435622274875641
visibility: 0.11705698072910309
","x: 201.19898986816406
y: 366.2854309082031
z: -0.25367048382759094
visibility: 0.7646485567092896
","x: 271.3502197265625
y: 377.7804260253906
z: -0.08938348293304443
visibility: 0.12452049553394318
","x: 198.46334838867188
y: 383.2081604003906
z: -0.2906712293624878
visibility: 0.7400968670845032
","x: 271.04254150390625
y: 378.84503173828125
z: -0.12842155992984772
visibility: 0.12487461417913437
","x: 201.40093994140625
y: 383.8733215332031
z: -0.31428831815719604
visibility: 0.7269318699836731
","x: 269.424072265625
y: 375.04437255859375
z: -0.08417615294456482
visibility: 0.12376248091459274
","x: 203.09341430664062
y: 379.61285400390625
z: -0.2639511525630951
visibility: 0.6545562744140625
","x: 236.5631561279297
y: 367.8472900390625
z: 0.0764915943145752
visibility: 0.9979832172393799
","x: 220.8117218017578
y: 364.4862365722656
z: -0.0765567272901535
visibility: 0.9987567663192749
","x: 230.6836700439453
y: 449.3072814941406
z: 0.1510305255651474
visibility: 0.5895421504974365
","x: 230.59344482421875
y: 449.9455261230469
z: -0.1347900778055191
visibility: 0.9805846810340881
","x: 220.16696166992188
y: 525.37841796875
z: 0.3150753080844879
visibility: 0.8472481369972229
","x: 222.74749755859375
y: 540.284423828125
z: -0.07089415937662125
visibility: 0.9807913899421692
","x: 212.37632751464844
y: 535.331787109375
z: 0.32546401023864746
visibility: 0.8031066060066223
","x: 218.25059509277344
y: 555.3143920898438
z: -0.07244555652141571
visibility: 0.9225945472717285
","x: 232.46214294433594
y: 544.9346313476562
z: 0.2394247055053711
visibility: 0.8906328678131104
","x: 234.95947265625
y: 563.6221923828125
z: -0.2144675999879837
visibility: 0.9730697274208069
",,,,,,,,,,,,,,,,,,,,,,,,,,,,,,,,,,,,,,,,,,
2,"x: 238.83021545410156
y: 206.1515655517578
z: -0.33677175641059875
visibility: 0.998295247554779
","x: 238.60450744628906
y: 199.88870239257812
z: -0.31377461552619934
visibility: 0.9974929094314575
","x: 239.7056121826172
y: 200.01646423339844
z: -0.31380870938301086
visibility: 0.9975406527519226
","x: 240.84677124023438
y: 200.18968200683594
z: -0.3138088583946228
visibility: 0.9977981448173523
","x: 235.71697998046875
y: 199.9028778076172
z: -0.32279762625694275
visibility: 0.9976588487625122
","x: 233.8809814453125
y: 200.12521362304688
z: -0.3228517174720764
visibility: 0.9979134202003479
","x: 232.02342224121094
y: 200.4315948486328
z: -0.3228834569454193
visibility: 0.9981861114501953
","x: 241.40032958984375
y: 205.55441284179688
z: -0.17777372896671295
visibility: 0.9948211908340454
","x: 228.51461791992188
y: 206.16966247558594
z: -0.21763458847999573
visibility: 0.9981607794761658
","x: 239.66018676757812
y: 215.49481201171875
z: -0.2849876284599304
visibility: 0.9964926838874817
","x: 235.8878173828125
y: 215.78675842285156
z: -0.2964487373828888
visibility: 0.9980209469795227
","x: 251.32936096191406
y: 255.845947265625
z: -0.04875366389751434
visibility: 0.9979858994483948
","x: 214.72496032714844
y: 251.5916748046875
z: -0.1613105833530426
visibility: 0.9998940825462341
","x: 258.90771484375
y: 314.5914306640625
z: 0.0185728557407856
visibility: 0.18810993432998657
","x: 202.4983673095703
y: 309.5907287597656
z: -0.12431322038173676
visibility: 0.9331587553024292
","x: 274.45782470703125
y: 359.6656494140625
z: -0.10552801936864853
visibility: 0.2036774903535843
","x: 188.1141815185547
y: 356.89862060546875
z: -0.22882738709449768
visibility: 0.7874983549118042
","x: 278.0877380371094
y: 372.230224609375
z: -0.1294591724872589
visibility: 0.20868052542209625
","x: 183.83596801757812
y: 374.5789794921875
z: -0.257079541683197
visibility: 0.7644188404083252
","x: 277.7165832519531
y: 373.31646728515625
z: -0.168513685464859
visibility: 0.20946931838989258
","x: 185.2722625732422
y: 375.47589111328125
z: -0.2791401445865631
visibility: 0.7527276873588562
","x: 276.1261901855469
y: 369.95074462890625
z: -0.12476557493209839
visibility: 0.20800763368606567
","x: 187.32745361328125
y: 371.0823974609375
z: -0.23291704058647156
visibility: 0.6871911883354187
","x: 238.32618713378906
y: 367.3769836425781
z: 0.05242910236120224
visibility: 0.9980494379997253
","x: 218.72332763671875
y: 363.77764892578125
z: -0.052550058811903
visibility: 0.9988032579421997
","x: 230.39141845703125
y: 449.4974365234375
z: 0.06519171595573425
visibility: 0.6112198829650879
","x: 226.76853942871094
y: 450.44842529296875
z: -0.10841933637857437
visibility: 0.9773092269897461
","x: 222.50315856933594
y: 527.06982421875
z: 0.1900516152381897
visibility: 0.850868821144104
","x: 216.9390869140625
y: 541.3297119140625
z: -0.037110719829797745
visibility: 0.9769085645675659
","x: 215.4956512451172
y: 539.2689208984375
z: 0.19484558701515198
visibility: 0.7893130779266357
","x: 213.09909057617188
y: 555.9137573242188
z: -0.040068723261356354
visibility: 0.8995490670204163
","x: 232.6507568359375
y: 550.8828125
z: 0.08496782928705215
visibility: 0.8913753032684326
","x: 227.8169403076172
y: 564.6591796875
z: -0.14818328619003296
visibility: 0.9698829650878906
","x: 275.7601013183594
y: 358.49725341796875
z: 0.0
","x: 275.1318054199219
y: 364.55401611328125
z: -0.0013371926033869386
","x: 276.31134033203125
y: 371.3424987792969
z: -0.0017712624976411462
","x: 276.8775329589844
y: 377.0119934082031
z: -0.002405086299404502
","x: 276.9986877441406
y: 381.5772705078125
z: -0.002573008881881833
","x: 280.61395263671875
y: 374.58538818359375
z: 0.001319059170782566
","x: 280.5321350097656
y: 382.2845458984375
z: -8.946772868512198e-05
","x: 278.6227722167969
y: 385.5008544921875
z: -0.000917927420232445
","x: 276.8999328613281
y: 386.6975402832031
z: -0.001144064823165536
","x: 280.5983581542969
y: 374.37860107421875
z: 0.0010016887681558728
","x: 280.5364990234375
y: 382.3973083496094
z: -0.0005321460193954408
","x: 278.58935546875
y: 385.6322021484375
z: -0.0013791982783004642
","x: 276.9391784667969
y: 386.9140625
z: -0.0015893732197582722
","x: 279.9501647949219
y: 373.96636962890625
z: 0.00019472265557851642
","x: 279.82635498046875
y: 381.4727478027344
z: -0.0013899101177230477
","x: 278.12176513671875
y: 384.44427490234375
z: -0.0017848544521257281
","x: 276.6418151855469
y: 385.9449768066406
z: -0.0016353464452549815
","x: 278.6323547363281
y: 373.35919189453125
z: -0.0009334309143014252
","x: 278.691162109375
y: 379.4871826171875
z: -0.002086406806483865
","x: 277.8570251464844
y: 382.4877624511719
z: -0.0022869938984513283
","x: 276.9693298339844
y: 384.4963073730469
z: -0.0020686276257038116
",,,,,,,,,,,,,,,,,,,,,
3,"x: 238.83021545410156
y: 206.1515655517578
z: -0.33677175641059875
visibility: 0.998295247554779
","x: 238.60450744628906
y: 199.88870239257812
z: -0.31377461552619934
visibility: 0.9974929094314575
","x: 239.7056121826172
y: 200.01646423339844
z: -0.31380870938301086
visibility: 0.9975406527519226
","x: 240.84677124023438
y: 200.18968200683594
z: -0.3138088583946228
visibility: 0.9977981448173523
","x: 235.71697998046875
y: 199.9028778076172
z: -0.32279762625694275
visibility: 0.9976588487625122
","x: 233.8809814453125
y: 200.12521362304688
z: -0.3228517174720764
visibility: 0.9979134202003479
","x: 232.02342224121094
y: 200.4315948486328
z: -0.3228834569454193
visibility: 0.9981861114501953
","x: 241.40032958984375
y: 205.55441284179688
z: -0.17777372896671295
visibility: 0.9948211908340454
","x: 228.51461791992188
y: 206.16966247558594
z: -0.21763458847999573
visibility: 0.9981607794761658
","x: 239.66018676757812
y: 215.49481201171875
z: -0.2849876284599304
visibility: 0.9964926838874817
","x: 235.8878173828125
y: 215.78675842285156
z: -0.2964487373828888
visibility: 0.9980209469795227
","x: 251.32936096191406
y: 255.845947265625
z: -0.04875366389751434
visibility: 0.9979858994483948
","x: 214.72496032714844
y: 251.5916748046875
z: -0.1613105833530426
visibility: 0.9998940825462341
","x: 258.90771484375
y: 314.5914306640625
z: 0.0185728557407856
visibility: 0.18810993432998657
","x: 202.4983673095703
y: 309.5907287597656
z: -0.12431322038173676
visibility: 0.9331587553024292
","x: 274.45782470703125
y: 359.6656494140625
z: -0.10552801936864853
visibility: 0.2036774903535843
","x: 188.1141815185547
y: 356.89862060546875
z: -0.22882738709449768
visibility: 0.7874983549118042
","x: 278.0877380371094
y: 372.230224609375
z: -0.1294591724872589
visibility: 0.20868052542209625
","x: 183.83596801757812
y: 374.5789794921875
z: -0.257079541683197
visibility: 0.7644188404083252
","x: 277.7165832519531
y: 373.31646728515625
z: -0.168513685464859
visibility: 0.20946931838989258
","x: 185.2722625732422
y: 375.47589111328125
z: -0.2791401445865631
visibility: 0.7527276873588562
","x: 276.1261901855469
y: 369.95074462890625
z: -0.12476557493209839
visibility: 0.20800763368606567
","x: 187.32745361328125
y: 371.0823974609375
z: -0.23291704058647156
visibility: 0.6871911883354187
","x: 238.32618713378906
y: 367.3769836425781
z: 0.05242910236120224
visibility: 0.9980494379997253
","x: 218.72332763671875
y: 363.77764892578125
z: -0.052550058811903
visibility: 0.9988032579421997
","x: 230.39141845703125
y: 449.4974365234375
z: 0.06519171595573425
visibility: 0.6112198829650879
","x: 226.76853942871094
y: 450.44842529296875
z: -0.10841933637857437
visibility: 0.9773092269897461
","x: 222.50315856933594
y: 527.06982421875
z: 0.1900516152381897
visibility: 0.850868821144104
","x: 216.9390869140625
y: 541.3297119140625
z: -0.037110719829797745
visibility: 0.9769085645675659
","x: 215.4956512451172
y: 539.2689208984375
z: 0.19484558701515198
visibility: 0.7893130779266357
","x: 213.09909057617188
y: 555.9137573242188
z: -0.040068723261356354
visibility: 0.8995490670204163
","x: 232.6507568359375
y: 550.8828125
z: 0.08496782928705215
visibility: 0.8913753032684326
","x: 227.8169403076172
y: 564.6591796875
z: -0.14818328619003296
visibility: 0.9698829650878906
","x: 275.7601013183594
y: 358.49725341796875
z: 0.0
","x: 275.1318054199219
y: 364.55401611328125
z: -0.0013371926033869386
","x: 276.31134033203125
y: 371.3424987792969
z: -0.0017712624976411462
","x: 276.8775329589844
y: 377.0119934082031
z: -0.002405086299404502
","x: 276.9986877441406
y: 381.5772705078125
z: -0.002573008881881833
","x: 280.61395263671875
y: 374.58538818359375
z: 0.001319059170782566
","x: 280.5321350097656
y: 382.2845458984375
z: -8.946772868512198e-05
","x: 278.6227722167969
y: 385.5008544921875
z: -0.000917927420232445
","x: 276.8999328613281
y: 386.6975402832031
z: -0.001144064823165536
","x: 280.5983581542969
y: 374.37860107421875
z: 0.0010016887681558728
","x: 280.5364990234375
y: 382.3973083496094
z: -0.0005321460193954408
","x: 278.58935546875
y: 385.6322021484375
z: -0.0013791982783004642
","x: 276.9391784667969
y: 386.9140625
z: -0.0015893732197582722
","x: 279.9501647949219
y: 373.96636962890625
z: 0.00019472265557851642
","x: 279.82635498046875
y: 381.4727478027344
z: -0.0013899101177230477
","x: 278.12176513671875
y: 384.44427490234375
z: -0.0017848544521257281
","x: 276.6418151855469
y: 385.9449768066406
z: -0.0016353464452549815
","x: 278.6323547363281
y: 373.35919189453125
z: -0.0009334309143014252
","x: 278.691162109375
y: 379.4871826171875
z: -0.002086406806483865
","x: 277.8570251464844
y: 382.4877624511719
z: -0.0022869938984513283
","x: 276.9693298339844
y: 384.4963073730469
z: -0.0020686276257038116
",,,,,,,,,,,,,,,,,,,,,
4,"x: 237.46041870117188
y: 205.31187438964844
z: -0.36790814995765686
visibility: 0.9984648823738098
","x: 238.47042846679688
y: 198.7484588623047
z: -0.3467981517314911
visibility: 0.9977408051490784
","x: 239.47216796875
y: 198.83148193359375
z: -0.3468356430530548
visibility: 0.997783899307251
","x: 240.54808044433594
y: 198.96188354492188
z: -0.346847802400589
visibility: 0.9980152249336243
","x: 234.2774200439453
y: 198.81919860839844
z: -0.3516334295272827
visibility: 0.9978899359703064
","x: 232.18243408203125
y: 199.0239715576172
z: -0.3516843020915985
visibility: 0.9981189966201782
","x: 230.25978088378906
y: 199.36001586914062
z: -0.3517138659954071
visibility: 0.9983635544776917
","x: 241.61581420898438
y: 204.23483276367188
z: -0.21457092463970184
visibility: 0.9953330755233765
","x: 226.57081604003906
y: 205.6249237060547
z: -0.2358890324831009
visibility: 0.9983376860618591
","x: 239.48341369628906
y: 214.92626953125
z: -0.3174082934856415
visibility: 0.9968416690826416
","x: 234.689453125
y: 215.428955078125
z: -0.323580801486969
visibility: 0.9982166290283203
","x: 252.0485076904297
y: 255.66221618652344
z: -0.10172245651483536
visibility: 0.9981845617294312
","x: 213.35321044921875
y: 251.19024658203125
z: -0.14988547563552856
visibility: 0.9998961091041565
","x: 261.7843322753906
y: 311.1268005371094
z: -0.04273083060979843
visibility: 0.26839926838874817
","x: 200.39906311035156
y: 306.41363525390625
z: -0.09715089946985245
visibility: 0.9385897517204285
","x: 276.93878173828125
y: 356.3602294921875
z: -0.16451728343963623
visibility: 0.2826654016971588
","x: 183.9716796875
y: 349.9443359375
z: -0.20036526024341583
visibility: 0.8074294924736023
","x: 280.9237365722656
y: 370.17724609375
z: -0.19127488136291504
visibility: 0.28619375824928284
","x: 177.84007263183594
y: 365.8087158203125
z: -0.22821667790412903
visibility: 0.785087525844574
","x: 280.1401672363281
y: 371.41650390625
z: -0.23037683963775635
visibility: 0.287140816450119
","x: 178.0504913330078
y: 366.75390625
z: -0.26163625717163086
visibility: 0.774925172328949
","x: 278.4519348144531
y: 367.2078857421875
z: -0.1829649657011032
visibility: 0.2855263948440552
","x: 180.41390991210938
y: 362.728759765625
z: -0.2236081063747406
visibility: 0.7154894471168518
","x: 238.93533325195312
y: 366.3104248046875
z: 0.0234647486358881
visibility: 0.9980825185775757
","x: 218.07838439941406
y: 363.01934814453125
z: -0.023561416193842888
visibility: 0.9987900853157043
","x: 230.3188018798828
y: 450.464599609375
z: 0.026219764724373817
visibility: 0.6374860405921936
","x: 223.81289672851562
y: 451.730712890625
z: -0.06481651961803436
visibility: 0.9704499244689941
","x: 222.31625366210938
y: 527.5126342773438
z: 0.16659119725227356
visibility: 0.8543820977210999
","x: 215.65402221679688
y: 542.6488647460938
z: 0.05759890004992485
visibility: 0.9699450135231018
","x: 216.37188720703125
y: 541.125244140625
z: 0.17255525290966034
visibility: 0.7695474028587341
","x: 212.90150451660156
y: 557.3893432617188
z: 0.06113121658563614
visibility: 0.8686595559120178
","x: 229.5596923828125
y: 554.8568115234375
z: 0.05168181657791138
visibility: 0.8906300663948059
","x: 221.57534790039062
y: 565.2728881835938
z: -0.08744879066944122
visibility: 0.9634871482849121
",,,,,,,,,,,,,,,,,,,,,,,,,,,,,,,,,,,,,,,,,,
5,"x: 234.7538299560547
y: 204.67733764648438
z: -0.36135369539260864
visibility: 0.9986177682876587
","x: 236.52236938476562
y: 198.02838134765625
z: -0.34166908264160156
visibility: 0.9979645013809204
","x: 238.0382537841797
y: 198.01083374023438
z: -0.34170395135879517
visibility: 0.9980034232139587
","x: 239.76226806640625
y: 198.04226684570312
z: -0.3417055904865265
visibility: 0.9982114434242249
","x: 231.25177001953125
y: 198.46902465820312
z: -0.3444889187812805
visibility: 0.9980983138084412
","x: 228.9458465576172
y: 198.8641357421875
z: -0.3445416986942291
visibility: 0.9983044862747192
","x: 227.1063995361328
y: 199.37344360351562
z: -0.34456831216812134
visibility: 0.9985238313674927
","x: 240.39857482910156
y: 203.25735473632812
z: -0.21778103709220886
visibility: 0.9957950711250305
","x: 224.20779418945312
y: 205.43153381347656
z: -0.2307356297969818
visibility: 0.998497724533081
","x: 238.13812255859375
y: 214.67515563964844
z: -0.31457996368408203
visibility: 0.9971563220024109
","x: 231.80978393554688
y: 215.3460693359375
z: -0.31810545921325684
visibility: 0.9983932971954346
","x: 251.93035888671875
y: 255.67054748535156
z: -0.11401168256998062
visibility: 0.9983635544776917
","x: 211.63929748535156
y: 251.34228515625
z: -0.14694175124168396
visibility: 0.9998997449874878
","x: 261.0871887207031
y: 312.5293884277344
z: -0.06377539783716202
visibility: 0.34079620242118835
","x: 198.5617218017578
y: 308.0101623535156
z: -0.09311844408512115
visibility: 0.9436591267585754
","x: 274.89495849609375
y: 358.33697509765625
z: -0.1830379217863083
visibility: 0.3536717891693115
","x: 181.62371826171875
y: 351.8053894042969
z: -0.1871221512556076
visibility: 0.825312614440918
","x: 279.1880798339844
y: 371.6868591308594
z: -0.2108239233493805
visibility: 0.35572999715805054
","x: 175.43658447265625
y: 367.2018737792969
z: -0.21377909183502197
visibility: 0.8035784363746643
","x: 277.97198486328125
y: 372.4786376953125
z: -0.24875254929065704
visibility: 0.3568553030490875
","x: 175.83248901367188
y: 368.1275939941406
z: -0.25392669439315796
visibility: 0.7947891354560852
","x: 276.02667236328125
y: 367.95428466796875
z: -0.20092353224754333
visibility: 0.35512131452560425
","x: 178.17825317382812
y: 364.2048645019531
z: -0.21521833539009094
visibility: 0.7409214973449707
","x: 238.94476318359375
y: 366.62298583984375
z: 0.02302471175789833
visibility: 0.9981547594070435
","x: 217.22434997558594
y: 363.65625
z: -0.023142576217651367
visibility: 0.9987934827804565
","x: 230.18943786621094
y: 451.94677734375
z: 0.011079744435846806
visibility: 0.6626068353652954
","x: 222.19290161132812
y: 453.3642883300781
z: -0.04436579719185829
visibility: 0.966380774974823
","x: 222.60488891601562
y: 530.3641357421875
z: 0.14609642326831818
visibility: 0.8605272173881531
","x: 213.53457641601562
y: 543.174560546875
z: 0.08579839766025543
visibility: 0.9651008248329163
","x: 217.04164123535156
y: 541.4564208984375
z: 0.1517600119113922
visibility: 0.7632762789726257
","x: 210.7979736328125
y: 557.3389892578125
z: 0.0902247205376625
visibility: 0.8418638110160828
","x: 228.7781524658203
y: 558.7329711914062
z: 0.030330320820212364
visibility: 0.8932331204414368
","x: 218.5083770751953
y: 567.6993408203125
z: -0.05023486539721489
visibility: 0.9580752849578857
","x: 275.6180725097656
y: 363.5177307128906
z: 0.0
","x: 274.2162780761719
y: 370.4777526855469
z: -0.00016511815192643553
","x: 274.65045166015625
y: 377.3775939941406
z: -0.0006911196396686137
","x: 274.8287658691406
y: 383.09722900390625
z: -0.001676882617175579
","x: 274.970458984375
y: 387.09149169921875
z: -0.002182736760005355
","x: 280.38824462890625
y: 379.7026062011719
z: -0.0006137125310488045
","x: 278.49462890625
y: 388.1666564941406
z: -0.0024491320364177227
","x: 275.8725280761719
y: 388.27313232421875
z: -0.0028527884278446436
","x: 274.5225830078125
y: 385.8108825683594
z: -0.0027652790304273367
","x: 280.9776306152344
y: 379.45391845703125
z: -0.0017713777488097548
","x: 278.7945861816406
y: 387.8521728515625
z: -0.0038459082134068012
","x: 276.17230224609375
y: 388.05535888671875
z: -0.0037464553024619818
","x: 274.8222351074219
y: 385.9384765625
z: -0.003272891975939274
","x: 280.7860107421875
y: 378.64166259765625
z: -0.0030826833099126816
","x: 278.913330078125
y: 386.7889404296875
z: -0.005125280469655991
","x: 276.5214538574219
y: 386.9009094238281
z: -0.004193343687802553
","x: 275.2409973144531
y: 385.04693603515625
z: -0.0031618382781744003
","x: 279.8909912109375
y: 377.6692199707031
z: -0.004588013514876366
","x: 278.59539794921875
y: 384.3299865722656
z: -0.006102453451603651
","x: 276.8671875
y: 385.6697082519531
z: -0.005385152995586395
","x: 275.6666564941406
y: 385.16119384765625
z: -0.004370368085801601
","x: 179.79052734375
y: 356.0057067871094
z: 0.0
","x: 178.80206298828125
y: 364.6508483886719
z: 0.0006825849413871765
","x: 176.93296813964844
y: 372.205078125
z: 0.0002387626882409677
","x: 176.60647583007812
y: 378.45770263671875
z: -0.0005493037751875818
","x: 177.01882934570312
y: 383.23553466796875
z: -0.0007517536287195981
","x: 171.55812072753906
y: 372.2436828613281
z: -5.120044806972146e-05
","x: 171.11643981933594
y: 382.7919006347656
z: -0.0009605373488739133
","x: 172.62388610839844
y: 387.24920654296875
z: -0.0005690660327672958
","x: 174.00794982910156
y: 388.9857482910156
z: 5.082954521640204e-05
","x: 172.32415771484375
y: 371.6838073730469
z: -0.0012388325994834304
","x: 172.0973358154297
y: 382.730712890625
z: -0.002182885305956006
","x: 174.08665466308594
y: 385.8657531738281
z: -0.0013815277488902211
","x: 175.8444366455078
y: 385.9602355957031
z: -0.00040579886990599334
","x: 173.84088134765625
y: 371.21221923828125
z: -0.0024560168385505676
","x: 174.30841064453125
y: 380.8749084472656
z: -0.002982699079439044
","x: 176.02703857421875
y: 383.2168273925781
z: -0.0019613848999142647
","x: 177.22386169433594
y: 383.30810546875
z: -0.0009456544066779315
","x: 175.83583068847656
y: 370.7885437011719
z: -0.0037971960846334696
","x: 176.61282348632812
y: 378.2956237792969
z: -0.003935839049518108
","x: 177.72457885742188
y: 380.79742431640625
z: -0.0032285319175571203
","x: 178.42733764648438
y: 381.46612548828125
z: -0.0024308895226567984
"
6,"x: 234.7538299560547
y: 204.67733764648438
z: -0.36135369539260864
visibility: 0.9986177682876587
","x: 236.52236938476562
y: 198.02838134765625
z: -0.34166908264160156
visibility: 0.9979645013809204
","x: 238.0382537841797
y: 198.01083374023438
z: -0.34170395135879517
visibility: 0.9980034232139587
","x: 239.76226806640625
y: 198.04226684570312
z: -0.3417055904865265
visibility: 0.9982114434242249
","x: 231.25177001953125
y: 198.46902465820312
z: -0.3444889187812805
visibility: 0.9980983138084412
","x: 228.9458465576172
y: 198.8641357421875
z: -0.3445416986942291
visibility: 0.9983044862747192
","x: 227.1063995361328
y: 199.37344360351562
z: -0.34456831216812134
visibility: 0.9985238313674927
","x: 240.39857482910156
y: 203.25735473632812
z: -0.21778103709220886
visibility: 0.9957950711250305
","x: 224.20779418945312
y: 205.43153381347656
z: -0.2307356297969818
visibility: 0.998497724533081
","x: 238.13812255859375
y: 214.67515563964844
z: -0.31457996368408203
visibility: 0.9971563220024109
","x: 231.80978393554688
y: 215.3460693359375
z: -0.31810545921325684
visibility: 0.9983932971954346
","x: 251.93035888671875
y: 255.67054748535156
z: -0.11401168256998062
visibility: 0.9983635544776917
","x: 211.63929748535156
y: 251.34228515625
z: -0.14694175124168396
visibility: 0.9998997449874878
","x: 261.0871887207031
y: 312.5293884277344
z: -0.06377539783716202
visibility: 0.34079620242118835
","x: 198.5617218017578
y: 308.0101623535156
z: -0.09311844408512115
visibility: 0.9436591267585754
","x: 274.89495849609375
y: 358.33697509765625
z: -0.1830379217863083
visibility: 0.3536717891693115
","x: 181.62371826171875
y: 351.8053894042969
z: -0.1871221512556076
visibility: 0.825312614440918
","x: 279.1880798339844
y: 371.6868591308594
z: -0.2108239233493805
visibility: 0.35572999715805054
","x: 175.43658447265625
y: 367.2018737792969
z: -0.21377909183502197
visibility: 0.8035784363746643
","x: 277.97198486328125
y: 372.4786376953125
z: -0.24875254929065704
visibility: 0.3568553030490875
","x: 175.83248901367188
y: 368.1275939941406
z: -0.25392669439315796
visibility: 0.7947891354560852
","x: 276.02667236328125
y: 367.95428466796875
z: -0.20092353224754333
visibility: 0.35512131452560425
","x: 178.17825317382812
y: 364.2048645019531
z: -0.21521833539009094
visibility: 0.7409214973449707
","x: 238.94476318359375
y: 366.62298583984375
z: 0.02302471175789833
visibility: 0.9981547594070435
","x: 217.22434997558594
y: 363.65625
z: -0.023142576217651367
visibility: 0.9987934827804565
","x: 230.18943786621094
y: 451.94677734375
z: 0.011079744435846806
visibility: 0.6626068353652954
","x: 222.19290161132812
y: 453.3642883300781
z: -0.04436579719185829
visibility: 0.966380774974823
","x: 222.60488891601562
y: 530.3641357421875
z: 0.14609642326831818
visibility: 0.8605272173881531
","x: 213.53457641601562
y: 543.174560546875
z: 0.08579839766025543
visibility: 0.9651008248329163
","x: 217.04164123535156
y: 541.4564208984375
z: 0.1517600119113922
visibility: 0.7632762789726257
","x: 210.7979736328125
y: 557.3389892578125
z: 0.0902247205376625
visibility: 0.8418638110160828
","x: 228.7781524658203
y: 558.7329711914062
z: 0.030330320820212364
visibility: 0.8932331204414368
","x: 218.5083770751953
y: 567.6993408203125
z: -0.05023486539721489
visibility: 0.9580752849578857
","x: 275.6180725097656
y: 363.5177307128906
z: 0.0
","x: 274.2162780761719
y: 370.4777526855469
z: -0.00016511815192643553
","x: 274.65045166015625
y: 377.3775939941406
z: -0.0006911196396686137
","x: 274.8287658691406
y: 383.09722900390625
z: -0.001676882617175579
","x: 274.970458984375
y: 387.09149169921875
z: -0.002182736760005355
","x: 280.38824462890625
y: 379.7026062011719
z: -0.0006137125310488045
","x: 278.49462890625
y: 388.1666564941406
z: -0.0024491320364177227
","x: 275.8725280761719
y: 388.27313232421875
z: -0.0028527884278446436
","x: 274.5225830078125
y: 385.8108825683594
z: -0.0027652790304273367
","x: 280.9776306152344
y: 379.45391845703125
z: -0.0017713777488097548
","x: 278.7945861816406
y: 387.8521728515625
z: -0.0038459082134068012
","x: 276.17230224609375
y: 388.05535888671875
z: -0.0037464553024619818
","x: 274.8222351074219
y: 385.9384765625
z: -0.003272891975939274
","x: 280.7860107421875
y: 378.64166259765625
z: -0.0030826833099126816
","x: 278.913330078125
y: 386.7889404296875
z: -0.005125280469655991
","x: 276.5214538574219
y: 386.9009094238281
z: -0.004193343687802553
","x: 275.2409973144531
y: 385.04693603515625
z: -0.0031618382781744003
","x: 279.8909912109375
y: 377.6692199707031
z: -0.004588013514876366
","x: 278.59539794921875
y: 384.3299865722656
z: -0.006102453451603651
","x: 276.8671875
y: 385.6697082519531
z: -0.005385152995586395
","x: 275.6666564941406
y: 385.16119384765625
z: -0.004370368085801601
","x: 179.79052734375
y: 356.0057067871094
z: 0.0
","x: 178.80206298828125
y: 364.6508483886719
z: 0.0006825849413871765
","x: 176.93296813964844
y: 372.205078125
z: 0.0002387626882409677
","x: 176.60647583007812
y: 378.45770263671875
z: -0.0005493037751875818
","x: 177.01882934570312
y: 383.23553466796875
z: -0.0007517536287195981
","x: 171.55812072753906
y: 372.2436828613281
z: -5.120044806972146e-05
","x: 171.11643981933594
y: 382.7919006347656
z: -0.0009605373488739133
","x: 172.62388610839844
y: 387.24920654296875
z: -0.0005690660327672958
","x: 174.00794982910156
y: 388.9857482910156
z: 5.082954521640204e-05
","x: 172.32415771484375
y: 371.6838073730469
z: -0.0012388325994834304
","x: 172.0973358154297
y: 382.730712890625
z: -0.002182885305956006
","x: 174.08665466308594
y: 385.8657531738281
z: -0.0013815277488902211
","x: 175.8444366455078
y: 385.9602355957031
z: -0.00040579886990599334
","x: 173.84088134765625
y: 371.21221923828125
z: -0.0024560168385505676
","x: 174.30841064453125
y: 380.8749084472656
z: -0.002982699079439044
","x: 176.02703857421875
y: 383.2168273925781
z: -0.0019613848999142647
","x: 177.22386169433594
y: 383.30810546875
z: -0.0009456544066779315
","x: 175.83583068847656
y: 370.7885437011719
z: -0.0037971960846334696
","x: 176.61282348632812
y: 378.2956237792969
z: -0.003935839049518108
","x: 177.72457885742188
y: 380.79742431640625
z: -0.0032285319175571203
","x: 178.42733764648438
y: 381.46612548828125
z: -0.0024308895226567984
"
7,"x: 234.7538299560547
y: 204.67733764648438
z: -0.36135369539260864
visibility: 0.9986177682876587
","x: 236.52236938476562
y: 198.02838134765625
z: -0.34166908264160156
visibility: 0.9979645013809204
","x: 238.0382537841797
y: 198.01083374023438
z: -0.34170395135879517
visibility: 0.9980034232139587
","x: 239.76226806640625
y: 198.04226684570312
z: -0.3417055904865265
visibility: 0.9982114434242249
","x: 231.25177001953125
y: 198.46902465820312
z: -0.3444889187812805
visibility: 0.9980983138084412
","x: 228.9458465576172
y: 198.8641357421875
z: -0.3445416986942291
visibility: 0.9983044862747192
","x: 227.1063995361328
y: 199.37344360351562
z: -0.34456831216812134
visibility: 0.9985238313674927
","x: 240.39857482910156
y: 203.25735473632812
z: -0.21778103709220886
visibility: 0.9957950711250305
","x: 224.20779418945312
y: 205.43153381347656
z: -0.2307356297969818
visibility: 0.998497724533081
","x: 238.13812255859375
y: 214.67515563964844
z: -0.31457996368408203
visibility: 0.9971563220024109
","x: 231.80978393554688
y: 215.3460693359375
z: -0.31810545921325684
visibility: 0.9983932971954346
","x: 251.93035888671875
y: 255.67054748535156
z: -0.11401168256998062
visibility: 0.9983635544776917
","x: 211.63929748535156
y: 251.34228515625
z: -0.14694175124168396
visibility: 0.9998997449874878
","x: 261.0871887207031
y: 312.5293884277344
z: -0.06377539783716202
visibility: 0.34079620242118835
","x: 198.5617218017578
y: 308.0101623535156
z: -0.09311844408512115
visibility: 0.9436591267585754
","x: 274.89495849609375
y: 358.33697509765625
z: -0.1830379217863083
visibility: 0.3536717891693115
","x: 181.62371826171875
y: 351.8053894042969
z: -0.1871221512556076
visibility: 0.825312614440918
","x: 279.1880798339844
y: 371.6868591308594
z: -0.2108239233493805
visibility: 0.35572999715805054
","x: 175.43658447265625
y: 367.2018737792969
z: -0.21377909183502197
visibility: 0.8035784363746643
","x: 277.97198486328125
y: 372.4786376953125
z: -0.24875254929065704
visibility: 0.3568553030490875
","x: 175.83248901367188
y: 368.1275939941406
z: -0.25392669439315796
visibility: 0.7947891354560852
","x: 276.02667236328125
y: 367.95428466796875
z: -0.20092353224754333
visibility: 0.35512131452560425
","x: 178.17825317382812
y: 364.2048645019531
z: -0.21521833539009094
visibility: 0.7409214973449707
","x: 238.94476318359375
y: 366.62298583984375
z: 0.02302471175789833
visibility: 0.9981547594070435
","x: 217.22434997558594
y: 363.65625
z: -0.023142576217651367
visibility: 0.9987934827804565
","x: 230.18943786621094
y: 451.94677734375
z: 0.011079744435846806
visibility: 0.6626068353652954
","x: 222.19290161132812
y: 453.3642883300781
z: -0.04436579719185829
visibility: 0.966380774974823
","x: 222.60488891601562
y: 530.3641357421875
z: 0.14609642326831818
visibility: 0.8605272173881531
","x: 213.53457641601562
y: 543.174560546875
z: 0.08579839766025543
visibility: 0.9651008248329163
","x: 217.04164123535156
y: 541.4564208984375
z: 0.1517600119113922
visibility: 0.7632762789726257
","x: 210.7979736328125
y: 557.3389892578125
z: 0.0902247205376625
visibility: 0.8418638110160828
","x: 228.7781524658203
y: 558.7329711914062
z: 0.030330320820212364
visibility: 0.8932331204414368
","x: 218.5083770751953
y: 567.6993408203125
z: -0.05023486539721489
visibility: 0.9580752849578857
","x: 275.6180725097656
y: 363.5177307128906
z: 0.0
","x: 274.2162780761719
y: 370.4777526855469
z: -0.00016511815192643553
","x: 274.65045166015625
y: 377.3775939941406
z: -0.0006911196396686137
","x: 274.8287658691406
y: 383.09722900390625
z: -0.001676882617175579
","x: 274.970458984375
y: 387.09149169921875
z: -0.002182736760005355
","x: 280.38824462890625
y: 379.7026062011719
z: -0.0006137125310488045
","x: 278.49462890625
y: 388.1666564941406
z: -0.0024491320364177227
","x: 275.8725280761719
y: 388.27313232421875
z: -0.0028527884278446436
","x: 274.5225830078125
y: 385.8108825683594
z: -0.0027652790304273367
","x: 280.9776306152344
y: 379.45391845703125
z: -0.0017713777488097548
","x: 278.7945861816406
y: 387.8521728515625
z: -0.0038459082134068012
","x: 276.17230224609375
y: 388.05535888671875
z: -0.0037464553024619818
","x: 274.8222351074219
y: 385.9384765625
z: -0.003272891975939274
","x: 280.7860107421875
y: 378.64166259765625
z: -0.0030826833099126816
","x: 278.913330078125
y: 386.7889404296875
z: -0.005125280469655991
","x: 276.5214538574219
y: 386.9009094238281
z: -0.004193343687802553
","x: 275.2409973144531
y: 385.04693603515625
z: -0.0031618382781744003
","x: 279.8909912109375
y: 377.6692199707031
z: -0.004588013514876366
","x: 278.59539794921875
y: 384.3299865722656
z: -0.006102453451603651
","x: 276.8671875
y: 385.6697082519531
z: -0.005385152995586395
","x: 275.6666564941406
y: 385.16119384765625
z: -0.004370368085801601
","x: 179.79052734375
y: 356.0057067871094
z: 0.0
","x: 178.80206298828125
y: 364.6508483886719
z: 0.0006825849413871765
","x: 176.93296813964844
y: 372.205078125
z: 0.0002387626882409677
","x: 176.60647583007812
y: 378.45770263671875
z: -0.0005493037751875818
","x: 177.01882934570312
y: 383.23553466796875
z: -0.0007517536287195981
","x: 171.55812072753906
y: 372.2436828613281
z: -5.120044806972146e-05
","x: 171.11643981933594
y: 382.7919006347656
z: -0.0009605373488739133
","x: 172.62388610839844
y: 387.24920654296875
z: -0.0005690660327672958
","x: 174.00794982910156
y: 388.9857482910156
z: 5.082954521640204e-05
","x: 172.32415771484375
y: 371.6838073730469
z: -0.0012388325994834304
","x: 172.0973358154297
y: 382.730712890625
z: -0.002182885305956006
","x: 174.08665466308594
y: 385.8657531738281
z: -0.0013815277488902211
","x: 175.8444366455078
y: 385.9602355957031
z: -0.00040579886990599334
","x: 173.84088134765625
y: 371.21221923828125
z: -0.0024560168385505676
","x: 174.30841064453125
y: 380.8749084472656
z: -0.002982699079439044
","x: 176.02703857421875
y: 383.2168273925781
z: -0.0019613848999142647
","x: 177.22386169433594
y: 383.30810546875
z: -0.0009456544066779315
","x: 175.83583068847656
y: 370.7885437011719
z: -0.0037971960846334696
","x: 176.61282348632812
y: 378.2956237792969
z: -0.003935839049518108
","x: 177.72457885742188
y: 380.79742431640625
z: -0.0032285319175571203
","x: 178.42733764648438
y: 381.46612548828125
z: -0.0024308895226567984
"
8,"x: 231.19320678710938
y: 205.744873046875
z: -0.384115606546402
visibility: 0.9987556338310242
","x: 233.2530517578125
y: 198.98141479492188
z: -0.36535197496414185
visibility: 0.9981668591499329
","x: 235.09536743164062
y: 198.9466094970703
z: -0.36538004875183105
visibility: 0.9982019662857056
","x: 237.14112854003906
y: 198.96090698242188
z: -0.36538347601890564
visibility: 0.9983890652656555
","x: 227.8876953125
y: 199.33953857421875
z: -0.3666284680366516
visibility: 0.9982869625091553
","x: 225.94021606445312
y: 199.5767364501953
z: -0.36668023467063904
visibility: 0.9984723925590515
","x: 224.24618530273438
y: 199.88243103027344
z: -0.36671313643455505
visibility: 0.9986693263053894
","x: 239.6415252685547
y: 203.788818359375
z: -0.24255013465881348
visibility: 0.9962130784988403
","x: 222.25779724121094
y: 205.69619750976562
z: -0.24809607863426208
visibility: 0.9986438751220703
","x: 235.48365783691406
y: 215.2686767578125
z: -0.33769020438194275
visibility: 0.9974400401115417
","x: 228.32374572753906
y: 215.86117553710938
z: -0.33930259943008423
visibility: 0.9985529184341431
","x: 251.21749877929688
y: 256.5594177246094
z: -0.14017942547798157
visibility: 0.9985252022743225
","x: 210.9113311767578
y: 253.24424743652344
z: -0.1584327518939972
visibility: 0.9999024868011475
","x: 258.239990234375
y: 313.7294616699219
z: -0.08794070035219193
visibility: 0.40592533349990845
","x: 198.53219604492188
y: 309.2403564453125
z: -0.10729473829269409
visibility: 0.9479381442070007
","x: 270.4521484375
y: 363.6065368652344
z: -0.19805142283439636
visibility: 0.4176021218299866
","x: 182.4336700439453
y: 354.7352600097656
z: -0.19030728936195374
visibility: 0.8408718705177307
","x: 274.44482421875
y: 379.5309143066406
z: -0.22602300345897675
visibility: 0.41836971044540405
","x: 176.5236358642578
y: 370.4154052734375
z: -0.21659719944000244
visibility: 0.8191785216331482
","x: 273.0801086425781
y: 379.75604248046875
z: -0.2638440728187561
visibility: 0.4196368157863617
","x: 177.2329559326172
y: 371.2259216308594
z: -0.2597844898700714
visibility: 0.8117064833641052
","x: 271.3491516113281
y: 376.1425476074219
z: -0.21548211574554443
visibility: 0.4177604019641876
","x: 179.33290100097656
y: 365.3519287109375
z: -0.21390166878700256
visibility: 0.7627810835838318
","x: 238.68003845214844
y: 366.74200439453125
z: 0.01823563128709793
visibility: 0.99825519323349
","x: 215.70358276367188
y: 364.124267578125
z: -0.018381956964731216
visibility: 0.9988201856613159
","x: 230.53988647460938
y: 456.0417175292969
z: 0.010161525569856167
visibility: 0.6905032396316528
","x: 219.77439880371094
y: 456.8411560058594
z: -0.02685791254043579
visibility: 0.9651724696159363
","x: 223.10772705078125
y: 533.7764892578125
z: 0.16342797875404358
visibility: 0.8699880242347717
","x: 213.1830291748047
y: 543.484130859375
z: 0.11968685686588287
visibility: 0.9630807638168335
","x: 218.3851318359375
y: 542.6671752929688
z: 0.17067228257656097
visibility: 0.766194224357605
","x: 210.97694396972656
y: 557.3226318359375
z: 0.12608854472637177
visibility: 0.8200697302818298
","x: 228.51451110839844
y: 561.30224609375
z: 0.04715605080127716
visibility: 0.8987886905670166
","x: 216.1677703857422
y: 568.3438720703125
z: -0.01352399867027998
visibility: 0.9555209279060364
",,,,,,,,,,,,,,,,,,,,,,"x: 181.5079345703125
y: 360.95111083984375
z: 0.0
","x: 179.5929412841797
y: 369.097900390625
z: 0.0027944014873355627
","x: 177.3845672607422
y: 376.27191162109375
z: 0.002504688687622547
","x: 176.4629364013672
y: 382.34197998046875
z: 0.0014330160338431597
","x: 176.8529510498047
y: 387.3677978515625
z: 0.0007997778011485934
","x: 172.3275146484375
y: 376.1491394042969
z: 0.0007013530703261495
","x: 172.79266357421875
y: 386.4171142578125
z: -0.0005060237599536777
","x: 174.6363525390625
y: 391.12847900390625
z: -0.0005766864051111042
","x: 176.3707733154297
y: 393.41082763671875
z: -0.0003677103668451309
","x: 173.08775329589844
y: 375.971923828125
z: -0.002007880248129368
","x: 173.33004760742188
y: 386.56097412109375
z: -0.003153241937980056
","x: 175.38270568847656
y: 390.9234313964844
z: -0.0027898475527763367
","x: 177.48118591308594
y: 392.7817077636719
z: -0.0024489860516041517
","x: 174.80026245117188
y: 376.1495666503906
z: -0.00453275116160512
","x: 175.1072998046875
y: 386.02337646484375
z: -0.004968231078237295
","x: 176.9947509765625
y: 390.1040954589844
z: -0.003886814694851637
","x: 178.6344757080078
y: 391.9028015136719
z: -0.0032236608676612377
","x: 177.0618438720703
y: 376.64239501953125
z: -0.006986967287957668
","x: 177.39321899414062
y: 384.0571594238281
z: -0.007046089973300695
","x: 178.33816528320312
y: 387.80615234375
z: -0.006099207326769829
","x: 179.20651245117188
y: 390.0893859863281
z: -0.005396684166043997
"
9,"x: 231.19320678710938
y: 205.744873046875
z: -0.384115606546402
visibility: 0.9987556338310242
","x: 233.2530517578125
y: 198.98141479492188
z: -0.36535197496414185
visibility: 0.9981668591499329
","x: 235.09536743164062
y: 198.9466094970703
z: -0.36538004875183105
visibility: 0.9982019662857056
","x: 237.14112854003906
y: 198.96090698242188
z: -0.36538347601890564
visibility: 0.9983890652656555
","x: 227.8876953125
y: 199.33953857421875
z: -0.3666284680366516
visibility: 0.9982869625091553
","x: 225.94021606445312
y: 199.5767364501953
z: -0.36668023467063904
visibility: 0.9984723925590515
","x: 224.24618530273438
y: 199.88243103027344
z: -0.36671313643455505
visibility: 0.9986693263053894
","x: 239.6415252685547
y: 203.788818359375
z: -0.24255013465881348
visibility: 0.9962130784988403
","x: 222.25779724121094
y: 205.69619750976562
z: -0.24809607863426208
visibility: 0.9986438751220703
","x: 235.48365783691406
y: 215.2686767578125
z: -0.33769020438194275
visibility: 0.9974400401115417
","x: 228.32374572753906
y: 215.86117553710938
z: -0.33930259943008423
visibility: 0.9985529184341431
","x: 251.21749877929688
y: 256.5594177246094
z: -0.14017942547798157
visibility: 0.9985252022743225
","x: 210.9113311767578
y: 253.24424743652344
z: -0.1584327518939972
visibility: 0.9999024868011475
","x: 258.239990234375
y: 313.7294616699219
z: -0.08794070035219193
visibility: 0.40592533349990845
","x: 198.53219604492188
y: 309.2403564453125
z: -0.10729473829269409
visibility: 0.9479381442070007
","x: 270.4521484375
y: 363.6065368652344
z: -0.19805142283439636
visibility: 0.4176021218299866
","x: 182.4336700439453
y: 354.7352600097656
z: -0.19030728936195374
visibility: 0.8408718705177307
","x: 274.44482421875
y: 379.5309143066406
z: -0.22602300345897675
visibility: 0.41836971044540405
","x: 176.5236358642578
y: 370.4154052734375
z: -0.21659719944000244
visibility: 0.8191785216331482
","x: 273.0801086425781
y: 379.75604248046875
z: -0.2638440728187561
visibility: 0.4196368157863617
","x: 177.2329559326172
y: 371.2259216308594
z: -0.2597844898700714
visibility: 0.8117064833641052
","x: 271.3491516113281
y: 376.1425476074219
z: -0.21548211574554443
visibility: 0.4177604019641876
","x: 179.33290100097656
y: 365.3519287109375
z: -0.21390166878700256
visibility: 0.7627810835838318
","x: 238.68003845214844
y: 366.74200439453125
z: 0.01823563128709793
visibility: 0.99825519323349
","x: 215.70358276367188
y: 364.124267578125
z: -0.018381956964731216
visibility: 0.9988201856613159
","x: 230.53988647460938
y: 456.0417175292969
z: 0.010161525569856167
visibility: 0.6905032396316528
","x: 219.77439880371094
y: 456.8411560058594
z: -0.02685791254043579
visibility: 0.9651724696159363
","x: 223.10772705078125
y: 533.7764892578125
z: 0.16342797875404358
visibility: 0.8699880242347717
","x: 213.1830291748047
y: 543.484130859375
z: 0.11968685686588287
visibility: 0.9630807638168335
","x: 218.3851318359375
y: 542.6671752929688
z: 0.17067228257656097
visibility: 0.766194224357605
","x: 210.97694396972656
y: 557.3226318359375
z: 0.12608854472637177
visibility: 0.8200697302818298
","x: 228.51451110839844
y: 561.30224609375
z: 0.04715605080127716
visibility: 0.8987886905670166
","x: 216.1677703857422
y: 568.3438720703125
z: -0.01352399867027998
visibility: 0.9555209279060364
",,,,,,,,,,,,,,,,,,,,,,"x: 181.5079345703125
y: 360.95111083984375
z: 0.0
","x: 179.5929412841797
y: 369.097900390625
z: 0.0027944014873355627
","x: 177.3845672607422
y: 376.27191162109375
z: 0.002504688687622547
","x: 176.4629364013672
y: 382.34197998046875
z: 0.0014330160338431597
","x: 176.8529510498047
y: 387.3677978515625
z: 0.0007997778011485934
","x: 172.3275146484375
y: 376.1491394042969
z: 0.0007013530703261495
","x: 172.79266357421875
y: 386.4171142578125
z: -0.0005060237599536777
","x: 174.6363525390625
y: 391.12847900390625
z: -0.0005766864051111042
","x: 176.3707733154297
y: 393.41082763671875
z: -0.0003677103668451309
","x: 173.08775329589844
y: 375.971923828125
z: -0.002007880248129368
","x: 173.33004760742188
y: 386.56097412109375
z: -0.003153241937980056
","x: 175.38270568847656
y: 390.9234313964844
z: -0.0027898475527763367
","x: 177.48118591308594
y: 392.7817077636719
z: -0.0024489860516041517
","x: 174.80026245117188
y: 376.1495666503906
z: -0.00453275116160512
","x: 175.1072998046875
y: 386.02337646484375
z: -0.004968231078237295
","x: 176.9947509765625
y: 390.1040954589844
z: -0.003886814694851637
","x: 178.6344757080078
y: 391.9028015136719
z: -0.0032236608676612377
","x: 177.0618438720703
y: 376.64239501953125
z: -0.006986967287957668
","x: 177.39321899414062
y: 384.0571594238281
z: -0.007046089973300695
","x: 178.33816528320312
y: 387.80615234375
z: -0.006099207326769829
","x: 179.20651245117188
y: 390.0893859863281
z: -0.005396684166043997
"
10,"x: 223.33456420898438
y: 209.7086181640625
z: -0.3309090733528137
visibility: 0.9988782405853271
","x: 225.05931091308594
y: 201.626953125
z: -0.31874018907546997
visibility: 0.9983439445495605
","x: 226.74021911621094
y: 200.9044189453125
z: -0.31877976655960083
visibility: 0.9983763098716736
","x: 228.64398193359375
y: 200.14743041992188
z: -0.31880074739456177
visibility: 0.9985448122024536
","x: 220.5888671875
y: 203.53955078125
z: -0.3146553039550781
visibility: 0.9984487295150757
","x: 219.1651611328125
y: 204.1458282470703
z: -0.314674973487854
visibility: 0.9986138343811035
","x: 217.60470581054688
y: 204.75955200195312
z: -0.31471386551856995
visibility: 0.9987881183624268
","x: 233.58413696289062
y: 204.24142456054688
z: -0.2172394096851349
visibility: 0.9965837597846985
","x: 216.4940643310547
y: 209.21714782714844
z: -0.20925426483154297
visibility: 0.9987503886222839
","x: 227.39791870117188
y: 217.42539978027344
z: -0.2909318506717682
visibility: 0.9976940751075745
","x: 221.53369140625
y: 218.7924041748047
z: -0.2856380045413971
visibility: 0.9986933469772339
","x: 247.25486755371094
y: 256.4215087890625
z: -0.1275903433561325
visibility: 0.9986710548400879
","x: 208.22682189941406
y: 254.50506591796875
z: -0.09834402799606323
visibility: 0.9999004602432251
","x: 253.64842224121094
y: 314.3916015625
z: -0.08501333743333817
visibility: 0.46459805965423584
","x: 198.4537811279297
y: 311.39727783203125
z: -0.03374464809894562
visibility: 0.9475117921829224
","x: 264.3014831542969
y: 369.6039123535156
z: -0.18808671832084656
visibility: 0.4751238524913788
","x: 184.13279724121094
y: 359.750732421875
z: -0.11758159101009369
visibility: 0.8509317636489868
","x: 268.0594787597656
y: 385.1141662597656
z: -0.21589656174182892
visibility: 0.47476106882095337
","x: 177.8457489013672
y: 371.2853698730469
z: -0.1391223967075348
visibility: 0.8271531462669373
","x: 271.2906494140625
y: 386.2354736328125
z: -0.2516635060310364
visibility: 0.47611477971076965
","x: 177.64097595214844
y: 372.9765625
z: -0.1830044388771057
visibility: 0.8213359117507935
","x: 270.0563049316406
y: 382.9083557128906
z: -0.20378024876117706
visibility: 0.47395041584968567
","x: 179.91090393066406
y: 369.9853210449219
z: -0.13770069181919098
visibility: 0.7767701148986816
","x: 237.2610626220703
y: 367.59906005859375
z: 0.009627770632505417
visibility: 0.9983144998550415
","x: 213.05587768554688
y: 364.2920227050781
z: -0.00973134022206068
visibility: 0.9988011717796326
","x: 232.14187622070312
y: 461.5050048828125
z: -0.01135793887078762
visibility: 0.7179058790206909
","x: 216.2874298095703
y: 460.2735595703125
z: -0.028068488463759422
visibility: 0.9659641981124878
","x: 223.44493103027344
y: 535.6791381835938
z: 0.15320494771003723
visibility: 0.8794626593589783
","x: 213.04591369628906
y: 543.625244140625
z: 0.11592300236225128
visibility: 0.962556004524231
","x: 219.4312744140625
y: 543.14404296875
z: 0.16147008538246155
visibility: 0.7664288282394409
","x: 211.489990234375
y: 557.0105590820312
z: 0.12234912067651749
visibility: 0.8048070669174194
","x: 228.2212371826172
y: 562.7969970703125
z: 0.030291978269815445
visibility: 0.9036116003990173
","x: 215.28012084960938
y: 569.2968139648438
z: -0.015696905553340912
visibility: 0.9540499448776245
",,,,,,,,,,,,,,,,,,,,,,,,,,,,,,,,,,,,,,,,,,
11,"x: 217.3059844970703
y: 210.49234008789062
z: -0.3188554346561432
visibility: 0.998988687992096
","x: 218.79945373535156
y: 202.02110290527344
z: -0.3085566759109497
visibility: 0.9985038042068481
","x: 220.3411102294922
y: 200.9801025390625
z: -0.30860722064971924
visibility: 0.9985339045524597
","x: 222.04705810546875
y: 200.47837829589844
z: -0.3086372911930084
visibility: 0.9986854791641235
","x: 214.6575927734375
y: 204.773681640625
z: -0.3008401393890381
visibility: 0.9985944032669067
","x: 213.45985412597656
y: 205.50062561035156
z: -0.3008488416671753
visibility: 0.9987404942512512
","x: 212.2180633544922
y: 206.1953582763672
z: -0.3008840084075928
visibility: 0.9988932609558105
","x: 227.22006225585938
y: 204.02456665039062
z: -0.2122882902622223
visibility: 0.9969189763069153
","x: 212.80540466308594
y: 209.5726776123047
z: -0.1769067496061325
visibility: 0.9988450407981873
","x: 221.68972778320312
y: 217.51556396484375
z: -0.28059032559394836
visibility: 0.9979230165481567
","x: 216.8397674560547
y: 219.10888671875
z: -0.27026548981666565
visibility: 0.9988196492195129
","x: 244.85452270507812
y: 254.46519470214844
z: -0.12425900995731354
visibility: 0.9988024830818176
","x: 206.19723510742188
y: 254.45777893066406
z: -0.07448865473270416
visibility: 0.9998992085456848
","x: 250.84860229492188
y: 312.5010070800781
z: -0.09859707951545715
visibility: 0.5172690749168396
","x: 196.14837646484375
y: 311.521240234375
z: -0.005214682314544916
visibility: 0.9452503323554993
","x: 261.2589416503906
y: 368.8792724609375
z: -0.2165655791759491
visibility: 0.5268639326095581
","x: 177.2251739501953
y: 357.5539855957031
z: -0.08616819977760315
visibility: 0.860098123550415
","x: 264.65496826171875
y: 383.5084533691406
z: -0.2460295408964157
visibility: 0.5255574584007263
","x: 169.4145050048828
y: 369.2555236816406
z: -0.1058022752404213
visibility: 0.8345895409584045
","x: 266.81951904296875
y: 385.96514892578125
z: -0.2826074957847595
visibility: 0.527014970779419
","x: 168.19078063964844
y: 369.6258239746094
z: -0.1497415453195572
visibility: 0.8303312063217163
","x: 266.7962951660156
y: 381.9820861816406
z: -0.23282139003276825
visibility: 0.5246081948280334
","x: 170.93572998046875
y: 367.1072998046875
z: -0.10651174932718277
visibility: 0.7899739742279053
","x: 236.09356689453125
y: 367.6514892578125
z: 0.008190596476197243
visibility: 0.9983596801757812
","x: 210.65040588378906
y: 364.539794921875
z: -0.008255461230874062
visibility: 0.998773992061615
","x: 232.55226135253906
y: 463.3938903808594
z: -0.019646883010864258
visibility: 0.742725670337677
","x: 215.04443359375
y: 461.9248046875
z: -0.0300254188477993
visibility: 0.9673619270324707
","x: 224.98959350585938
y: 535.1915893554688
z: 0.16120906174182892
visibility: 0.8880935907363892
","x: 213.30426025390625
y: 543.5790405273438
z: 0.12081749737262726
visibility: 0.9632225036621094
","x: 221.0888671875
y: 542.295166015625
z: 0.1709759533405304
visibility: 0.7688431143760681
","x: 212.01429748535156
y: 556.5857543945312
z: 0.12811943888664246
visibility: 0.7975879907608032
","x: 228.64791870117188
y: 562.15771484375
z: 0.042488209903240204
visibility: 0.9081117510795593
","x: 215.5971221923828
y: 569.6705322265625
z: -0.009341727010905743
visibility: 0.9540625214576721
",,,,,,,,,,,,,,,,,,,,,,,,,,,,,,,,,,,,,,,,,,
12,"x: 213.05113220214844
y: 210.4481658935547
z: -0.25822561979293823
visibility: 0.9990880489349365
","x: 214.91244506835938
y: 202.0131072998047
z: -0.2538456916809082
visibility: 0.9986478686332703
","x: 216.35226440429688
y: 201.05352783203125
z: -0.25395667552948
visibility: 0.9986758828163147
","x: 217.80967712402344
y: 200.4428253173828
z: -0.25401318073272705
visibility: 0.9988122582435608
","x: 210.91815185546875
y: 204.7598114013672
z: -0.23465847969055176
visibility: 0.9987258315086365
","x: 209.68234252929688
y: 205.4733123779297
z: -0.23464444279670715
visibility: 0.9988551735877991
","x: 208.49295043945312
y: 206.1521759033203
z: -0.23466137051582336
visibility: 0.9989903569221497
","x: 222.59475708007812
y: 203.61260986328125
z: -0.20738860964775085
visibility: 0.9972212314605713
","x: 210.0792694091797
y: 209.54922485351562
z: -0.10259287059307098
visibility: 0.9989373087882996
","x: 217.32081604003906
y: 217.50238037109375
z: -0.22822816669940948
visibility: 0.9981293082237244
","x: 212.66835021972656
y: 219.0757598876953
z: -0.2039780169725418
visibility: 0.9989345073699951
","x: 243.7153778076172
y: 253.09051513671875
z: -0.09160782396793365
visibility: 0.998920738697052
","x: 204.73056030273438
y: 254.64479064941406
z: -0.009339126758277416
visibility: 0.9999020099639893
","x: 250.27325439453125
y: 307.2589416503906
z: -0.10430332273244858
visibility: 0.5637228488922119
","x: 192.52427673339844
y: 309.9786376953125
z: 0.051678966730833054
visibility: 0.9441611170768738
","x: 263.55517578125
y: 345.69879150390625
z: -0.2613374590873718
visibility: 0.5723549127578735
","x: 168.6869659423828
y: 348.03887939453125
z: -0.04433618485927582
visibility: 0.8698570132255554
","x: 268.1845703125
y: 352.5521240234375
z: -0.29619303345680237
visibility: 0.569595992565155
","x: 161.3187255859375
y: 357.3651428222656
z: -0.06531388312578201
visibility: 0.8435415625572205
","x: 269.14984130859375
y: 352.7526550292969
z: -0.33108818531036377
visibility: 0.5714278817176819
","x: 160.17193603515625
y: 356.9630126953125
z: -0.10667572170495987
visibility: 0.8405905961990356
","x: 267.5489501953125
y: 350.390625
z: -0.2786490321159363
visibility: 0.5685630440711975
","x: 162.39637756347656
y: 354.90399169921875
z: -0.06463053077459335
visibility: 0.804080069065094
","x: 235.0823974609375
y: 367.7850036621094
z: -0.001931519596837461
visibility: 0.9984220862388611
","x: 209.1660919189453
y: 364.7478942871094
z: 0.001938705099746585
visibility: 0.9987598061561584
","x: 232.24285888671875
y: 462.6892395019531
z: -0.040104616433382034
visibility: 0.7647963762283325
","x: 213.6527557373047
y: 461.7304992675781
z: -0.028675073757767677
visibility: 0.9688540697097778
","x: 225.36358642578125
y: 534.5924682617188
z: 0.1445687711238861
visibility: 0.8961337804794312
","x: 213.67942810058594
y: 543.5421142578125
z: 0.12319663912057877
visibility: 0.9643210172653198
","x: 222.14764404296875
y: 542.4907836914062
z: 0.15537777543067932
visibility: 0.7721331715583801
","x: 212.69773864746094
y: 556.5839233398438
z: 0.1308206021785736
visibility: 0.7962328195571899
","x: 228.8291015625
y: 561.2906494140625
z: 0.02437434159219265
visibility: 0.9125723838806152
","x: 215.42559814453125
y: 569.7930297851562
z: -0.0035317998845130205
visibility: 0.9548063278198242
",,,,,,,,,,,,,,,,,,,,,,,,,,,,,,,,,,,,,,,,,,
13,"x: 210.37413024902344
y: 210.2850341796875
z: -0.20036348700523376
visibility: 0.999178409576416
","x: 212.1819610595703
y: 201.86465454101562
z: -0.18983194231987
visibility: 0.9987800717353821
","x: 213.6864471435547
y: 200.92724609375
z: -0.18991482257843018
visibility: 0.9988061785697937
","x: 215.05215454101562
y: 200.19015502929688
z: -0.18993929028511047
visibility: 0.9989286661148071
","x: 208.47073364257812
y: 204.6548614501953
z: -0.1774366945028305
visibility: 0.9988460540771484
","x: 207.39129638671875
y: 205.4344024658203
z: -0.1773853749036789
visibility: 0.9989595413208008
","x: 206.39706420898438
y: 206.13198852539062
z: -0.17737409472465515
visibility: 0.9990755915641785
","x: 219.72323608398438
y: 202.92477416992188
z: -0.10205419361591339
visibility: 0.9974963068962097
","x: 208.54737854003906
y: 209.41781616210938
z: -0.042540911585092545
visibility: 0.999022364616394
","x: 214.8328857421875
y: 217.23570251464844
z: -0.16542038321495056
visibility: 0.9983156323432922
","x: 210.40228271484375
y: 218.8699188232422
z: -0.1483825445175171
visibility: 0.9990386962890625
","x: 243.1660614013672
y: 251.5695343017578
z: -0.03691733628511429
visibility: 0.9990283846855164
","x: 203.4130096435547
y: 254.1571044921875
z: 0.05003190040588379
visibility: 0.9999063611030579
","x: 249.85902404785156
y: 302.6815185546875
z: -0.10812358558177948
visibility: 0.6066904067993164
","x: 190.3780059814453
y: 304.8102111816406
z: 0.11877302080392838
visibility: 0.9459396004676819
","x: 264.3167724609375
y: 306.6199951171875
z: -0.33543792366981506
visibility: 0.6149646043777466
","x: 164.6431121826172
y: 334.0431213378906
z: 0.04075153172016144
visibility: 0.8816351890563965
","x: 268.9194030761719
y: 308.4021301269531
z: -0.37776926159858704
visibility: 0.6122530698776245
","x: 157.3022003173828
y: 341.7581481933594
z: 0.026796186342835426
visibility: 0.8565466403961182
","x: 268.5879821777344
y: 303.56732177734375
z: -0.4011436402797699
visibility: 0.613960862159729
","x: 155.90283203125
y: 341.1656188964844
z: -0.011394516564905643
visibility: 0.8542376756668091
","x: 266.6383361816406
y: 302.62030029296875
z: -0.34969109296798706
visibility: 0.6112043857574463
","x: 158.65904235839844
y: 339.6656799316406
z: 0.02220173552632332
visibility: 0.8212338089942932
","x: 233.78390502929688
y: 366.9689636230469
z: -0.002149594482034445
visibility: 0.9985301494598389
","x: 208.33937072753906
y: 364.1490173339844
z: 0.002157845301553607
visibility: 0.9988040328025818
","x: 232.17056274414062
y: 461.86456298828125
z: -0.03561951965093613
visibility: 0.7857258319854736
","x: 212.91786193847656
y: 461.1578063964844
z: -0.02898564003407955
visibility: 0.9709020853042603
","x: 226.36268615722656
y: 533.8618774414062
z: 0.1429699808359146
visibility: 0.9042280316352844
","x: 213.21163940429688
y: 543.4036865234375
z: 0.1200294941663742
visibility: 0.9661263227462769
","x: 223.73500061035156
y: 542.2091064453125
z: 0.15427765250205994
visibility: 0.7787039279937744
","x: 212.9066619873047
y: 555.1573486328125
z: 0.1279120296239853
visibility: 0.7965782880783081
","x: 228.99005126953125
y: 560.7744140625
z: 0.027053168043494225
visibility: 0.9180768728256226
","x: 215.3563232421875
y: 569.591552734375
z: -0.00354505586437881
visibility: 0.9567592144012451
","x: 264.6119384765625
y: 306.70654296875
z: 0.0
","x: 264.4022521972656
y: 301.9979248046875
z: -0.005720951594412327
","x: 265.27825927734375
y: 297.7967529296875
z: -0.009797363542020321
","x: 266.895263671875
y: 298.53570556640625
z: -0.01336031872779131
","x: 268.2282409667969
y: 302.03302001953125
z: -0.01626262068748474
","x: 271.4750061035156
y: 295.9911193847656
z: -0.008310792967677116
","x: 271.7148132324219
y: 299.5791320800781
z: -0.013645014725625515
","x: 269.3408508300781
y: 301.4114685058594
z: -0.015666861087083817
","x: 268.2966613769531
y: 301.2807922363281
z: -0.016588987782597542
","x: 272.36505126953125
y: 301.43023681640625
z: -0.008181586861610413
","x: 271.8481140136719
y: 305.82281494140625
z: -0.014353248290717602
","x: 268.6546325683594
y: 306.4162902832031
z: -0.014653908088803291
","x: 268.0416564941406
y: 305.0158386230469
z: -0.014012503437697887
","x: 272.34674072265625
y: 306.4825134277344
z: -0.008687298744916916
","x: 271.3503723144531
y: 310.27655029296875
z: -0.013957629911601543
","x: 268.504150390625
y: 309.7619323730469
z: -0.012873196974396706
","x: 267.8990478515625
y: 307.86859130859375
z: -0.01132048200815916
","x: 271.75146484375
y: 311.17791748046875
z: -0.009814050048589706
","x: 270.6665344238281
y: 313.81298828125
z: -0.012737688608467579
","x: 268.3565673828125
y: 313.06939697265625
z: -0.012268949300050735
","x: 267.67523193359375
y: 311.19390869140625
z: -0.011352543719112873
",,,,,,,,,,,,,,,,,,,,,
14,"x: 210.37413024902344
y: 210.2850341796875
z: -0.20036348700523376
visibility: 0.999178409576416
","x: 212.1819610595703
y: 201.86465454101562
z: -0.18983194231987
visibility: 0.9987800717353821
","x: 213.6864471435547
y: 200.92724609375
z: -0.18991482257843018
visibility: 0.9988061785697937
","x: 215.05215454101562
y: 200.19015502929688
z: -0.18993929028511047
visibility: 0.9989286661148071
","x: 208.47073364257812
y: 204.6548614501953
z: -0.1774366945028305
visibility: 0.9988460540771484
","x: 207.39129638671875
y: 205.4344024658203
z: -0.1773853749036789
visibility: 0.9989595413208008
","x: 206.39706420898438
y: 206.13198852539062
z: -0.17737409472465515
visibility: 0.9990755915641785
","x: 219.72323608398438
y: 202.92477416992188
z: -0.10205419361591339
visibility: 0.9974963068962097
","x: 208.54737854003906
y: 209.41781616210938
z: -0.042540911585092545
visibility: 0.999022364616394
","x: 214.8328857421875
y: 217.23570251464844
z: -0.16542038321495056
visibility: 0.9983156323432922
","x: 210.40228271484375
y: 218.8699188232422
z: -0.1483825445175171
visibility: 0.9990386962890625
","x: 243.1660614013672
y: 251.5695343017578
z: -0.03691733628511429
visibility: 0.9990283846855164
","x: 203.4130096435547
y: 254.1571044921875
z: 0.05003190040588379
visibility: 0.9999063611030579
","x: 249.85902404785156
y: 302.6815185546875
z: -0.10812358558177948
visibility: 0.6066904067993164
","x: 190.3780059814453
y: 304.8102111816406
z: 0.11877302080392838
visibility: 0.9459396004676819
","x: 264.3167724609375
y: 306.6199951171875
z: -0.33543792366981506
visibility: 0.6149646043777466
","x: 164.6431121826172
y: 334.0431213378906
z: 0.04075153172016144
visibility: 0.8816351890563965
","x: 268.9194030761719
y: 308.4021301269531
z: -0.37776926159858704
visibility: 0.6122530698776245
","x: 157.3022003173828
y: 341.7581481933594
z: 0.026796186342835426
visibility: 0.8565466403961182
","x: 268.5879821777344
y: 303.56732177734375
z: -0.4011436402797699
visibility: 0.613960862159729
","x: 155.90283203125
y: 341.1656188964844
z: -0.011394516564905643
visibility: 0.8542376756668091
","x: 266.6383361816406
y: 302.62030029296875
z: -0.34969109296798706
visibility: 0.6112043857574463
","x: 158.65904235839844
y: 339.6656799316406
z: 0.02220173552632332
visibility: 0.8212338089942932
","x: 233.78390502929688
y: 366.9689636230469
z: -0.002149594482034445
visibility: 0.9985301494598389
","x: 208.33937072753906
y: 364.1490173339844
z: 0.002157845301553607
visibility: 0.9988040328025818
","x: 232.17056274414062
y: 461.86456298828125
z: -0.03561951965093613
visibility: 0.7857258319854736
","x: 212.91786193847656
y: 461.1578063964844
z: -0.02898564003407955
visibility: 0.9709020853042603
","x: 226.36268615722656
y: 533.8618774414062
z: 0.1429699808359146
visibility: 0.9042280316352844
","x: 213.21163940429688
y: 543.4036865234375
z: 0.1200294941663742
visibility: 0.9661263227462769
","x: 223.73500061035156
y: 542.2091064453125
z: 0.15427765250205994
visibility: 0.7787039279937744
","x: 212.9066619873047
y: 555.1573486328125
z: 0.1279120296239853
visibility: 0.7965782880783081
","x: 228.99005126953125
y: 560.7744140625
z: 0.027053168043494225
visibility: 0.9180768728256226
","x: 215.3563232421875
y: 569.591552734375
z: -0.00354505586437881
visibility: 0.9567592144012451
","x: 264.6119384765625
y: 306.70654296875
z: 0.0
","x: 264.4022521972656
y: 301.9979248046875
z: -0.005720951594412327
","x: 265.27825927734375
y: 297.7967529296875
z: -0.009797363542020321
","x: 266.895263671875
y: 298.53570556640625
z: -0.01336031872779131
","x: 268.2282409667969
y: 302.03302001953125
z: -0.01626262068748474
","x: 271.4750061035156
y: 295.9911193847656
z: -0.008310792967677116
","x: 271.7148132324219
y: 299.5791320800781
z: -0.013645014725625515
","x: 269.3408508300781
y: 301.4114685058594
z: -0.015666861087083817
","x: 268.2966613769531
y: 301.2807922363281
z: -0.016588987782597542
","x: 272.36505126953125
y: 301.43023681640625
z: -0.008181586861610413
","x: 271.8481140136719
y: 305.82281494140625
z: -0.014353248290717602
","x: 268.6546325683594
y: 306.4162902832031
z: -0.014653908088803291
","x: 268.0416564941406
y: 305.0158386230469
z: -0.014012503437697887
","x: 272.34674072265625
y: 306.4825134277344
z: -0.008687298744916916
","x: 271.3503723144531
y: 310.27655029296875
z: -0.013957629911601543
","x: 268.504150390625
y: 309.7619323730469
z: -0.012873196974396706
","x: 267.8990478515625
y: 307.86859130859375
z: -0.01132048200815916
","x: 271.75146484375
y: 311.17791748046875
z: -0.009814050048589706
","x: 270.6665344238281
y: 313.81298828125
z: -0.012737688608467579
","x: 268.3565673828125
y: 313.06939697265625
z: -0.012268949300050735
","x: 267.67523193359375
y: 311.19390869140625
z: -0.011352543719112873
",,,,,,,,,,,,,,,,,,,,,
15,"x: 207.73773193359375
y: 210.12673950195312
z: -0.15237635374069214
visibility: 0.9992596507072449
","x: 210.114013671875
y: 201.7597198486328
z: -0.1464938372373581
visibility: 0.9988992214202881
","x: 211.55982971191406
y: 200.89195251464844
z: -0.14655275642871857
visibility: 0.9989237189292908
","x: 212.91180419921875
y: 200.1603546142578
z: -0.14656957983970642
visibility: 0.999033510684967
","x: 207.1981201171875
y: 204.2716064453125
z: -0.13177365064620972
visibility: 0.9989544153213501
","x: 206.5557403564453
y: 204.9468994140625
z: -0.1317247897386551
visibility: 0.9990553259849548
","x: 205.9427490234375
y: 205.49853515625
z: -0.13172106444835663
visibility: 0.9991571307182312
","x: 218.54769897460938
y: 203.02981567382812
z: -0.07766037434339523
visibility: 0.997745156288147
","x: 209.2785186767578
y: 208.67445373535156
z: -0.009453775361180305
visibility: 0.9991117119789124
","x: 212.0171356201172
y: 217.0511474609375
z: -0.12506210803985596
visibility: 0.998483419418335
","x: 208.50482177734375
y: 218.45654296875
z: -0.1053028479218483
visibility: 0.9991330504417419
","x: 240.11309814453125
y: 249.98361206054688
z: -0.03377426043152809
visibility: 0.9991253018379211
","x: 203.71861267089844
y: 254.187744140625
z: 0.0937555655837059
visibility: 0.9999122023582458
","x: 252.0438995361328
y: 294.50933837890625
z: -0.15438900887966156
visibility: 0.6458595395088196
","x: 187.86366271972656
y: 302.8865661621094
z: 0.19305388629436493
visibility: 0.9473949074745178
","x: 265.0375061035156
y: 271.5918273925781
z: -0.37517184019088745
visibility: 0.6533878445625305
","x: 161.29315185546875
y: 312.5051574707031
z: 0.1433643400669098
visibility: 0.892754077911377
","x: 269.0832214355469
y: 264.8324890136719
z: -0.41160526871681213
visibility: 0.6507030129432678
","x: 153.6419677734375
y: 316.9800720214844
z: 0.14312921464443207
visibility: 0.8691368699073792
","x: 268.4090576171875
y: 260.60150146484375
z: -0.4192320704460144
visibility: 0.6522536277770996
","x: 152.16172790527344
y: 315.12158203125
z: 0.10942445695400238
visibility: 0.8672865629196167
","x: 266.6247863769531
y: 262.7352600097656
z: -0.38347405195236206
visibility: 0.6496101021766663
","x: 154.84591674804688
y: 314.3575439453125
z: 0.12745694816112518
visibility: 0.8374309539794922
","x: 232.8467254638672
y: 365.0108642578125
z: -0.02681945636868477
visibility: 0.9986411929130554
","x: 207.6671142578125
y: 363.29534912109375
z: 0.026828935369849205
visibility: 0.9988826513290405
","x: 231.93661499023438
y: 461.6177978515625
z: -0.06479954719543457
visibility: 0.8062143921852112
","x: 211.09771728515625
y: 460.6594543457031
z: -0.009337029419839382
visibility: 0.9731579422950745
","x: 233.38790893554688
y: 533.491455078125
z: 0.11918012797832489
visibility: 0.9122549295425415
","x: 212.44644165039062
y: 543.4447631835938
z: 0.12635287642478943
visibility: 0.9685885310173035
","x: 233.20147705078125
y: 541.5419311523438
z: 0.1318514198064804
visibility: 0.782938539981842
","x: 213.50637817382812
y: 553.9000244140625
z: 0.13329920172691345
visibility: 0.805199146270752
","x: 229.05616760253906
y: 561.17041015625
z: 0.005763867869973183
visibility: 0.9242223501205444
","x: 214.75570678710938
y: 570.1384887695312
z: 0.0077468277886509895
visibility: 0.9597293734550476
",,,,,,,,,,,,,,,,,,,,,,,,,,,,,,,,,,,,,,,,,,
16,"x: 207.68380737304688
y: 209.8616180419922
z: -0.15408381819725037
visibility: 0.999332845211029
","x: 209.8548583984375
y: 201.32135009765625
z: -0.14687898755073547
visibility: 0.9990072250366211
","x: 211.3871612548828
y: 200.3843994140625
z: -0.14693045616149902
visibility: 0.9990299344062805
","x: 212.8557586669922
y: 199.50927734375
z: -0.1469487100839615
visibility: 0.9991284608840942
","x: 206.28677368164062
y: 204.00535583496094
z: -0.13266471028327942
visibility: 0.9990543723106384
","x: 205.35400390625
y: 204.75241088867188
z: -0.13263367116451263
visibility: 0.9991443753242493
","x: 204.4464874267578
y: 205.3597869873047
z: -0.1326187252998352
visibility: 0.9992348551750183
","x: 218.61473083496094
y: 202.1292724609375
z: -0.07223589718341827
visibility: 0.9979696273803711
","x: 207.20413208007812
y: 208.44775390625
z: -0.003895927919074893
visibility: 0.9991955161094666
","x: 212.2008056640625
y: 216.76499938964844
z: -0.12428195774555206
visibility: 0.9986344575881958
","x: 208.0843963623047
y: 218.18128967285156
z: -0.10477542877197266
visibility: 0.9992179870605469
","x: 240.09861755371094
y: 249.14187622070312
z: -0.027443328872323036
visibility: 0.9992122054100037
","x: 203.62225341796875
y: 254.17893981933594
z: 0.10363234579563141
visibility: 0.9999155402183533
","x: 256.14337158203125
y: 287.15985107421875
z: -0.16586963832378387
visibility: 0.6810993552207947
","x: 187.78526306152344
y: 298.9923400878906
z: 0.20615406334400177
visibility: 0.9488940238952637
","x: 263.9025573730469
y: 254.50721740722656
z: -0.39193177223205566
visibility: 0.6878599524497986
","x: 159.60081481933594
y: 291.89697265625
z: 0.15266218781471252
visibility: 0.9028562903404236
","x: 267.5356140136719
y: 246.16432189941406
z: -0.4304335117340088
visibility: 0.6849430203437805
","x: 151.4020538330078
y: 293.27044677734375
z: 0.14862260222434998
visibility: 0.8806633949279785
","x: 268.1340026855469
y: 241.23483276367188
z: -0.43140143156051636
visibility: 0.6863311529159546
","x: 149.89297485351562
y: 290.8080749511719
z: 0.11543484777212143
visibility: 0.8792219758033752
","x: 266.48876953125
y: 244.77291870117188
z: -0.39791399240493774
visibility: 0.6836305856704712
","x: 152.71490478515625
y: 290.64544677734375
z: 0.13649103045463562
visibility: 0.8522270917892456
","x: 232.45639038085938
y: 364.3437194824219
z: -0.03918778523802757
visibility: 0.9987209439277649
","x: 207.89756774902344
y: 363.4234313964844
z: 0.0392005518078804
visibility: 0.9989293813705444
","x: 231.7816162109375
y: 461.5444641113281
z: -0.06479955464601517
visibility: 0.8245280981063843
","x: 210.49301147460938
y: 460.33123779296875
z: 0.009738851338624954
visibility: 0.974870502948761
","x: 238.45545959472656
y: 533.8544921875
z: 0.09792172163724899
visibility: 0.9194291234016418
","x: 212.01034545898438
y: 543.67236328125
z: 0.12694303691387177
visibility: 0.9706568717956543
","x: 240.53126525878906
y: 541.9190063476562
z: 0.1078452467918396
visibility: 0.7806301116943359
","x: 214.04273986816406
y: 553.9055786132812
z: 0.13230954110622406
visibility: 0.8148875832557678
","x: 228.81324768066406
y: 562.2974243164062
z: -0.021336358040571213
visibility: 0.929471492767334
","x: 213.92408752441406
y: 570.5523071289062
z: 0.009454251267015934
visibility: 0.9622352123260498
",,,,,,,,,,,,,,,,,,,,,,,,,,,,,,,,,,,,,,,,,,
17,"x: 208.42913818359375
y: 210.09341430664062
z: -0.16316218674182892
visibility: 0.9993911385536194
","x: 210.4134063720703
y: 201.48561096191406
z: -0.16103775799274445
visibility: 0.9990772604942322
","x: 211.83993530273438
y: 200.54800415039062
z: -0.16108152270317078
visibility: 0.9991063475608826
","x: 213.28079223632812
y: 199.6549835205078
z: -0.16107948124408722
visibility: 0.9991874098777771
","x: 207.4217529296875
y: 204.02676391601562
z: -0.1422780454158783
visibility: 0.9990990161895752
","x: 206.7639923095703
y: 204.74623107910156
z: -0.14226384460926056
visibility: 0.9991801977157593
","x: 206.14846801757812
y: 205.35433959960938
z: -0.14229050278663635
visibility: 0.9992574453353882
","x: 219.4944305419922
y: 202.2262420654297
z: -0.09794071316719055
visibility: 0.9981499314308167
","x: 209.09988403320312
y: 208.31393432617188
z: -0.016717830672860146
visibility: 0.9992160797119141
","x: 212.63465881347656
y: 216.7984161376953
z: -0.1406344473361969
visibility: 0.9987608790397644
","x: 209.2269744873047
y: 218.16082763671875
z: -0.11495226621627808
visibility: 0.999272882938385
","x: 240.66990661621094
y: 247.7358856201172
z: -0.06170099228620529
visibility: 0.9992820620536804
","x: 204.1409454345703
y: 254.13168334960938
z: 0.07861356437206268
visibility: 0.9999054074287415
","x: 259.28509521484375
y: 281.3042297363281
z: -0.23659877479076385
visibility: 0.7126617431640625
","x: 184.43406677246094
y: 294.4150390625
z: 0.16821101307868958
visibility: 0.9525284171104431
","x: 260.65863037109375
y: 248.2815399169922
z: -0.47277218103408813
visibility: 0.7184025049209595
","x: 157.71160888671875
y: 274.4263000488281
z: 0.10358327627182007
visibility: 0.9123033285140991
","x: 260.4583435058594
y: 242.0979461669922
z: -0.5122025012969971
visibility: 0.7141798734664917
","x: 149.8642578125
y: 274.6497802734375
z: 0.09687797725200653
visibility: 0.8917996883392334
","x: 256.85675048828125
y: 237.84625244140625
z: -0.5069110989570618
visibility: 0.7153051495552063
","x: 148.92523193359375
y: 272.2926940917969
z: 0.06758482754230499
visibility: 0.8906110525131226
","x: 256.32586669921875
y: 241.14407348632812
z: -0.47580331563949585
visibility: 0.7119871377944946
","x: 151.59483337402344
y: 272.421875
z: 0.08902005851268768
visibility: 0.8661836981773376
","x: 232.5310821533203
y: 363.4378356933594
z: -0.04580770805478096
visibility: 0.9987086057662964
","x: 208.34689331054688
y: 363.27813720703125
z: 0.045721136033535004
visibility: 0.9989475011825562
","x: 231.9224395751953
y: 459.1534118652344
z: -0.07435145974159241
visibility: 0.8410428166389465
","x: 210.47177124023438
y: 460.1335144042969
z: 0.020309481769800186
visibility: 0.9763757586479187
","x: 240.8268585205078
y: 528.7139282226562
z: 0.12083468586206436
visibility: 0.925453782081604
","x: 212.4257354736328
y: 543.8095703125
z: 0.13990704715251923
visibility: 0.9727087616920471
","x: 244.3250732421875
y: 535.244140625
z: 0.13317011296749115
visibility: 0.7780174016952515
","x: 214.64373779296875
y: 554.3611450195312
z: 0.14576390385627747
visibility: 0.8255895972251892
","x: 230.21961975097656
y: 560.7264404296875
z: 0.012929251417517662
visibility: 0.9339084029197693
","x: 213.50184631347656
y: 570.1218872070312
z: 0.02580750361084938
visibility: 0.9647212624549866
",,,,,,,,,,,,,,,,,,,,,,"x: 154.223388671875
y: 271.07672119140625
z: 0.0
","x: 150.93682861328125
y: 270.467041015625
z: -0.00159429048653692
","x: 147.23045349121094
y: 270.9052734375
z: -0.002139319898560643
","x: 144.42477416992188
y: 273.6585388183594
z: -0.002812617225572467
","x: 142.62767028808594
y: 277.44329833984375
z: -0.0029654751997441053
","x: 143.3979949951172
y: 270.1214599609375
z: 0.001211772090755403
","x: 140.88677978515625
y: 275.7799987792969
z: -0.0001548746513435617
","x: 141.44400024414062
y: 279.84375
z: -0.0008882410475052893
","x: 142.87442016601562
y: 282.164794921875
z: -0.0009724322590045631
","x: 143.89865112304688
y: 272.81915283203125
z: 0.0011300472542643547
","x: 141.6050262451172
y: 277.8195495605469
z: -3.293833287898451e-05
","x: 142.65505981445312
y: 281.4165344238281
z: -0.0008499051327817142
","x: 144.46429443359375
y: 283.13360595703125
z: -0.0010525393299758434
","x: 144.97283935546875
y: 275.46588134765625
z: 0.0005383881507441401
","x: 143.1865692138672
y: 280.0063781738281
z: -0.00036263337824493647
","x: 144.07237243652344
y: 282.458251953125
z: -0.0007342468597926199
","x: 145.4907989501953
y: 283.36920166015625
z: -0.0006577819585800171
","x: 146.54261779785156
y: 277.8898010253906
z: -0.0004207048914395273
","x: 145.07977294921875
y: 281.1980895996094
z: -0.0009950638050213456
","x: 145.65179443359375
y: 282.94476318359375
z: -0.0010784993646666408
","x: 146.63705444335938
y: 283.6385498046875
z: -0.0007871008128859103
"
18,"x: 208.42913818359375
y: 210.09341430664062
z: -0.16316218674182892
visibility: 0.9993911385536194
","x: 210.4134063720703
y: 201.48561096191406
z: -0.16103775799274445
visibility: 0.9990772604942322
","x: 211.83993530273438
y: 200.54800415039062
z: -0.16108152270317078
visibility: 0.9991063475608826
","x: 213.28079223632812
y: 199.6549835205078
z: -0.16107948124408722
visibility: 0.9991874098777771
","x: 207.4217529296875
y: 204.02676391601562
z: -0.1422780454158783
visibility: 0.9990990161895752
","x: 206.7639923095703
y: 204.74623107910156
z: -0.14226384460926056
visibility: 0.9991801977157593
","x: 206.14846801757812
y: 205.35433959960938
z: -0.14229050278663635
visibility: 0.9992574453353882
","x: 219.4944305419922
y: 202.2262420654297
z: -0.09794071316719055
visibility: 0.9981499314308167
","x: 209.09988403320312
y: 208.31393432617188
z: -0.016717830672860146
visibility: 0.9992160797119141
","x: 212.63465881347656
y: 216.7984161376953
z: -0.1406344473361969
visibility: 0.9987608790397644
","x: 209.2269744873047
y: 218.16082763671875
z: -0.11495226621627808
visibility: 0.999272882938385
","x: 240.66990661621094
y: 247.7358856201172
z: -0.06170099228620529
visibility: 0.9992820620536804
","x: 204.1409454345703
y: 254.13168334960938
z: 0.07861356437206268
visibility: 0.9999054074287415
","x: 259.28509521484375
y: 281.3042297363281
z: -0.23659877479076385
visibility: 0.7126617431640625
","x: 184.43406677246094
y: 294.4150390625
z: 0.16821101307868958
visibility: 0.9525284171104431
","x: 260.65863037109375
y: 248.2815399169922
z: -0.47277218103408813
visibility: 0.7184025049209595
","x: 157.71160888671875
y: 274.4263000488281
z: 0.10358327627182007
visibility: 0.9123033285140991
","x: 260.4583435058594
y: 242.0979461669922
z: -0.5122025012969971
visibility: 0.7141798734664917
","x: 149.8642578125
y: 274.6497802734375
z: 0.09687797725200653
visibility: 0.8917996883392334
","x: 256.85675048828125
y: 237.84625244140625
z: -0.5069110989570618
visibility: 0.7153051495552063
","x: 148.92523193359375
y: 272.2926940917969
z: 0.06758482754230499
visibility: 0.8906110525131226
","x: 256.32586669921875
y: 241.14407348632812
z: -0.47580331563949585
visibility: 0.7119871377944946
","x: 151.59483337402344
y: 272.421875
z: 0.08902005851268768
visibility: 0.8661836981773376
","x: 232.5310821533203
y: 363.4378356933594
z: -0.04580770805478096
visibility: 0.9987086057662964
","x: 208.34689331054688
y: 363.27813720703125
z: 0.045721136033535004
visibility: 0.9989475011825562
","x: 231.9224395751953
y: 459.1534118652344
z: -0.07435145974159241
visibility: 0.8410428166389465
","x: 210.47177124023438
y: 460.1335144042969
z: 0.020309481769800186
visibility: 0.9763757586479187
","x: 240.8268585205078
y: 528.7139282226562
z: 0.12083468586206436
visibility: 0.925453782081604
","x: 212.4257354736328
y: 543.8095703125
z: 0.13990704715251923
visibility: 0.9727087616920471
","x: 244.3250732421875
y: 535.244140625
z: 0.13317011296749115
visibility: 0.7780174016952515
","x: 214.64373779296875
y: 554.3611450195312
z: 0.14576390385627747
visibility: 0.8255895972251892
","x: 230.21961975097656
y: 560.7264404296875
z: 0.012929251417517662
visibility: 0.9339084029197693
","x: 213.50184631347656
y: 570.1218872070312
z: 0.02580750361084938
visibility: 0.9647212624549866
",,,,,,,,,,,,,,,,,,,,,,"x: 154.223388671875
y: 271.07672119140625
z: 0.0
","x: 150.93682861328125
y: 270.467041015625
z: -0.00159429048653692
","x: 147.23045349121094
y: 270.9052734375
z: -0.002139319898560643
","x: 144.42477416992188
y: 273.6585388183594
z: -0.002812617225572467
","x: 142.62767028808594
y: 277.44329833984375
z: -0.0029654751997441053
","x: 143.3979949951172
y: 270.1214599609375
z: 0.001211772090755403
","x: 140.88677978515625
y: 275.7799987792969
z: -0.0001548746513435617
","x: 141.44400024414062
y: 279.84375
z: -0.0008882410475052893
","x: 142.87442016601562
y: 282.164794921875
z: -0.0009724322590045631
","x: 143.89865112304688
y: 272.81915283203125
z: 0.0011300472542643547
","x: 141.6050262451172
y: 277.8195495605469
z: -3.293833287898451e-05
","x: 142.65505981445312
y: 281.4165344238281
z: -0.0008499051327817142
","x: 144.46429443359375
y: 283.13360595703125
z: -0.0010525393299758434
","x: 144.97283935546875
y: 275.46588134765625
z: 0.0005383881507441401
","x: 143.1865692138672
y: 280.0063781738281
z: -0.00036263337824493647
","x: 144.07237243652344
y: 282.458251953125
z: -0.0007342468597926199
","x: 145.4907989501953
y: 283.36920166015625
z: -0.0006577819585800171
","x: 146.54261779785156
y: 277.8898010253906
z: -0.0004207048914395273
","x: 145.07977294921875
y: 281.1980895996094
z: -0.0009950638050213456
","x: 145.65179443359375
y: 282.94476318359375
z: -0.0010784993646666408
","x: 146.63705444335938
y: 283.6385498046875
z: -0.0007871008128859103
"
19,"x: 210.89593505859375
y: 209.94573974609375
z: -0.17531898617744446
visibility: 0.9994105100631714
","x: 213.0590362548828
y: 201.5272216796875
z: -0.172455295920372
visibility: 0.9990060329437256
","x: 214.37496948242188
y: 200.5726776123047
z: -0.1724831759929657
visibility: 0.9990571737289429
","x: 215.6981964111328
y: 199.76380920410156
z: -0.17247167229652405
visibility: 0.999101459980011
","x: 210.02252197265625
y: 203.6561737060547
z: -0.15439948439598083
visibility: 0.9989725947380066
","x: 209.24252319335938
y: 204.1253662109375
z: -0.15441209077835083
visibility: 0.9990605711936951
","x: 208.49774169921875
y: 204.48904418945312
z: -0.1544438898563385
visibility: 0.999139666557312
","x: 220.97714233398438
y: 202.69076538085938
z: -0.11717400699853897
visibility: 0.9981182217597961
","x: 209.718505859375
y: 207.83445739746094
z: -0.03790615499019623
visibility: 0.9989590048789978
","x: 214.5106201171875
y: 216.45555114746094
z: -0.1554037630558014
visibility: 0.998833954334259
","x: 211.19346618652344
y: 217.3485107421875
z: -0.13156475126743317
visibility: 0.9992606043815613
","x: 241.50457763671875
y: 247.9313507080078
z: -0.09339635819196701
visibility: 0.9992966055870056
","x: 203.97093200683594
y: 254.62220764160156
z: 0.03711235895752907
visibility: 0.9998680353164673
","x: 264.4544677734375
y: 270.99249267578125
z: -0.2425960749387741
visibility: 0.7404112219810486
","x: 179.98255920410156
y: 286.277587890625
z: 0.09934087842702866
visibility: 0.9564622044563293
","x: 256.2644348144531
y: 259.3948059082031
z: -0.43501201272010803
visibility: 0.7424062490463257
","x: 154.0211944580078
y: 270.5813903808594
z: 0.035900019109249115
visibility: 0.920594334602356
","x: 252.32574462890625
y: 257.119873046875
z: -0.4732476770877838
visibility: 0.7308235168457031
","x: 146.8182830810547
y: 274.59393310546875
z: 0.026289204135537148
visibility: 0.9011821746826172
","x: 248.6098175048828
y: 252.11209106445312
z: -0.46882542967796326
visibility: 0.7313796877861023
","x: 146.52932739257812
y: 272.2930603027344
z: -0.008431604132056236
visibility: 0.9003280997276306
","x: 248.45501708984375
y: 252.7183837890625
z: -0.43799299001693726
visibility: 0.7268868684768677
","x: 148.8032684326172
y: 271.2947998046875
z: 0.02121591754257679
visibility: 0.8781968951225281
","x: 234.556396484375
y: 363.7313232421875
z: -0.0309666208922863
visibility: 0.9986563324928284
","x: 209.08168029785156
y: 363.35260009765625
z: 0.030862649902701378
visibility: 0.9988974928855896
","x: 235.43194580078125
y: 459.1094665527344
z: -0.0709124505519867
visibility: 0.8555646538734436
","x: 211.5692138671875
y: 459.97216796875
z: 0.0008918402018025517
visibility: 0.9776678085327148
","x: 244.38795471191406
y: 526.557861328125
z: 0.14679984748363495
visibility: 0.9303696751594543
","x: 212.1918487548828
y: 543.89404296875
z: 0.1438344568014145
visibility: 0.9741120338439941
","x: 245.049072265625
y: 531.09912109375
z: 0.1668851524591446
visibility: 0.775764524936676
","x: 214.07608032226562
y: 554.28369140625
z: 0.1531214863061905
visibility: 0.8261212110519409
","x: 243.06057739257812
y: 560.42431640625
z: 0.04339912533760071
visibility: 0.9371891021728516
","x: 214.31759643554688
y: 570.7453002929688
z: 0.02838287688791752
visibility: 0.9662157297134399
",,,,,,,,,,,,,,,,,,,,,,"x: 153.1520538330078
y: 268.66082763671875
z: 0.0
","x: 150.9607696533203
y: 267.9066162109375
z: -0.0020255965646356344
","x: 147.72337341308594
y: 269.3255920410156
z: -0.002782761352136731
","x: 145.24029541015625
y: 273.63995361328125
z: -0.003896634327247739
","x: 143.67864990234375
y: 278.447998046875
z: -0.004638136830180883
","x: 143.4594268798828
y: 272.7406005859375
z: 0.0012156193843111396
","x: 141.0807647705078
y: 277.45562744140625
z: -0.0009021598962135613
","x: 141.77622985839844
y: 280.6550598144531
z: -0.0020148709882050753
","x: 143.37611389160156
y: 282.47943115234375
z: -0.0022036670707166195
","x: 143.5574493408203
y: 275.23638916015625
z: 0.0008839755319058895
","x: 141.73782348632812
y: 281.1938781738281
z: -0.0010905455565080047
","x: 143.50816345214844
y: 284.1906433105469
z: -0.0019909001421183348
","x: 145.75982666015625
y: 284.9118347167969
z: -0.002001516055315733
","x: 144.08184814453125
y: 276.984130859375
z: -0.000154020162881352
","x: 142.55735778808594
y: 282.8951110839844
z: -0.00213908520527184
","x: 144.23081970214844
y: 285.1525573730469
z: -0.0024372930638492107
","x: 146.26272583007812
y: 285.37896728515625
z: -0.002041941275820136
","x: 145.1446533203125
y: 278.0950927734375
z: -0.001623182208277285
","x: 143.7093505859375
y: 282.81591796875
z: -0.0029376395978033543
","x: 144.8026123046875
y: 284.76007080078125
z: -0.0029369026888161898
","x: 146.40402221679688
y: 284.975830078125
z: -0.002394698793068528
"
20,"x: 210.89593505859375
y: 209.94573974609375
z: -0.17531898617744446
visibility: 0.9994105100631714
","x: 213.0590362548828
y: 201.5272216796875
z: -0.172455295920372
visibility: 0.9990060329437256
","x: 214.37496948242188
y: 200.5726776123047
z: -0.1724831759929657
visibility: 0.9990571737289429
","x: 215.6981964111328
y: 199.76380920410156
z: -0.17247167229652405
visibility: 0.999101459980011
","x: 210.02252197265625
y: 203.6561737060547
z: -0.15439948439598083
visibility: 0.9989725947380066
","x: 209.24252319335938
y: 204.1253662109375
z: -0.15441209077835083
visibility: 0.9990605711936951
","x: 208.49774169921875
y: 204.48904418945312
z: -0.1544438898563385
visibility: 0.999139666557312
","x: 220.97714233398438
y: 202.69076538085938
z: -0.11717400699853897
visibility: 0.9981182217597961
","x: 209.718505859375
y: 207.83445739746094
z: -0.03790615499019623
visibility: 0.9989590048789978
","x: 214.5106201171875
y: 216.45555114746094
z: -0.1554037630558014
visibility: 0.998833954334259
","x: 211.19346618652344
y: 217.3485107421875
z: -0.13156475126743317
visibility: 0.9992606043815613
","x: 241.50457763671875
y: 247.9313507080078
z: -0.09339635819196701
visibility: 0.9992966055870056
","x: 203.97093200683594
y: 254.62220764160156
z: 0.03711235895752907
visibility: 0.9998680353164673
","x: 264.4544677734375
y: 270.99249267578125
z: -0.2425960749387741
visibility: 0.7404112219810486
","x: 179.98255920410156
y: 286.277587890625
z: 0.09934087842702866
visibility: 0.9564622044563293
","x: 256.2644348144531
y: 259.3948059082031
z: -0.43501201272010803
visibility: 0.7424062490463257
","x: 154.0211944580078
y: 270.5813903808594
z: 0.035900019109249115
visibility: 0.920594334602356
","x: 252.32574462890625
y: 257.119873046875
z: -0.4732476770877838
visibility: 0.7308235168457031
","x: 146.8182830810547
y: 274.59393310546875
z: 0.026289204135537148
visibility: 0.9011821746826172
","x: 248.6098175048828
y: 252.11209106445312
z: -0.46882542967796326
visibility: 0.7313796877861023
","x: 146.52932739257812
y: 272.2930603027344
z: -0.008431604132056236
visibility: 0.9003280997276306
","x: 248.45501708984375
y: 252.7183837890625
z: -0.43799299001693726
visibility: 0.7268868684768677
","x: 148.8032684326172
y: 271.2947998046875
z: 0.02121591754257679
visibility: 0.8781968951225281
","x: 234.556396484375
y: 363.7313232421875
z: -0.0309666208922863
visibility: 0.9986563324928284
","x: 209.08168029785156
y: 363.35260009765625
z: 0.030862649902701378
visibility: 0.9988974928855896
","x: 235.43194580078125
y: 459.1094665527344
z: -0.0709124505519867
visibility: 0.8555646538734436
","x: 211.5692138671875
y: 459.97216796875
z: 0.0008918402018025517
visibility: 0.9776678085327148
","x: 244.38795471191406
y: 526.557861328125
z: 0.14679984748363495
visibility: 0.9303696751594543
","x: 212.1918487548828
y: 543.89404296875
z: 0.1438344568014145
visibility: 0.9741120338439941
","x: 245.049072265625
y: 531.09912109375
z: 0.1668851524591446
visibility: 0.775764524936676
","x: 214.07608032226562
y: 554.28369140625
z: 0.1531214863061905
visibility: 0.8261212110519409
","x: 243.06057739257812
y: 560.42431640625
z: 0.04339912533760071
visibility: 0.9371891021728516
","x: 214.31759643554688
y: 570.7453002929688
z: 0.02838287688791752
visibility: 0.9662157297134399
",,,,,,,,,,,,,,,,,,,,,,"x: 153.1520538330078
y: 268.66082763671875
z: 0.0
","x: 150.9607696533203
y: 267.9066162109375
z: -0.0020255965646356344
","x: 147.72337341308594
y: 269.3255920410156
z: -0.002782761352136731
","x: 145.24029541015625
y: 273.63995361328125
z: -0.003896634327247739
","x: 143.67864990234375
y: 278.447998046875
z: -0.004638136830180883
","x: 143.4594268798828
y: 272.7406005859375
z: 0.0012156193843111396
","x: 141.0807647705078
y: 277.45562744140625
z: -0.0009021598962135613
","x: 141.77622985839844
y: 280.6550598144531
z: -0.0020148709882050753
","x: 143.37611389160156
y: 282.47943115234375
z: -0.0022036670707166195
","x: 143.5574493408203
y: 275.23638916015625
z: 0.0008839755319058895
","x: 141.73782348632812
y: 281.1938781738281
z: -0.0010905455565080047
","x: 143.50816345214844
y: 284.1906433105469
z: -0.0019909001421183348
","x: 145.75982666015625
y: 284.9118347167969
z: -0.002001516055315733
","x: 144.08184814453125
y: 276.984130859375
z: -0.000154020162881352
","x: 142.55735778808594
y: 282.8951110839844
z: -0.00213908520527184
","x: 144.23081970214844
y: 285.1525573730469
z: -0.0024372930638492107
","x: 146.26272583007812
y: 285.37896728515625
z: -0.002041941275820136
","x: 145.1446533203125
y: 278.0950927734375
z: -0.001623182208277285
","x: 143.7093505859375
y: 282.81591796875
z: -0.0029376395978033543
","x: 144.8026123046875
y: 284.76007080078125
z: -0.0029369026888161898
","x: 146.40402221679688
y: 284.975830078125
z: -0.002394698793068528
"
21,"x: 217.93386840820312
y: 209.63897705078125
z: -0.17811651527881622
visibility: 0.9994633793830872
","x: 220.796630859375
y: 201.57290649414062
z: -0.16626447439193726
visibility: 0.9990825057029724
","x: 222.28736877441406
y: 200.82745361328125
z: -0.16630741953849792
visibility: 0.9991293549537659
","x: 223.90786743164062
y: 200.29904174804688
z: -0.16630849242210388
visibility: 0.999170184135437
","x: 217.80015563964844
y: 203.54815673828125
z: -0.15710856020450592
visibility: 0.9990488886833191
","x: 217.02865600585938
y: 203.98374938964844
z: -0.15710677206516266
visibility: 0.9991236925125122
","x: 216.26673889160156
y: 204.32859802246094
z: -0.15710201859474182
visibility: 0.99919593334198
","x: 228.8203125
y: 205.45986938476562
z: -0.08259317278862
visibility: 0.9982673525810242
","x: 217.0362548828125
y: 208.05941772460938
z: -0.041235219687223434
visibility: 0.998994767665863
","x: 221.1343231201172
y: 216.4678192138672
z: -0.14836671948432922
visibility: 0.9989412426948547
","x: 217.0218963623047
y: 217.2047119140625
z: -0.13561739027500153
visibility: 0.9993204474449158
","x: 245.3213348388672
y: 248.2537078857422
z: -0.05606241896748543
visibility: 0.9993578791618347
","x: 207.1029052734375
y: 255.29702758789062
z: 0.03286752849817276
visibility: 0.9998666644096375
","x: 271.21881103515625
y: 275.0538330078125
z: -0.18057407438755035
visibility: 0.7658690214157104
","x: 183.25643920898438
y: 286.82623291015625
z: 0.08077581971883774
visibility: 0.9603139758110046
","x: 255.87350463867188
y: 278.9083557128906
z: -0.39404526352882385
visibility: 0.7670267224311829
","x: 155.5291748046875
y: 282.7880554199219
z: -0.00042419260716997087
visibility: 0.9281112551689148
","x: 252.94163513183594
y: 280.18115234375
z: -0.437159925699234
visibility: 0.7542874813079834
","x: 149.13279724121094
y: 290.2184753417969
z: -0.02671854756772518
visibility: 0.9098495244979858
","x: 249.5424041748047
y: 276.1044921875
z: -0.4397055506706238
visibility: 0.7547931671142578
","x: 148.89195251464844
y: 289.2355651855469
z: -0.0537421889603138
visibility: 0.9092476963996887
","x: 249.48751831054688
y: 277.4709777832031
z: -0.39946258068084717
visibility: 0.7499075531959534
","x: 150.99221801757812
y: 287.5414123535156
z: -0.014890171587467194
visibility: 0.889164388179779
","x: 237.9851531982422
y: 363.7626647949219
z: -0.027959614992141724
visibility: 0.9987156987190247
","x: 212.61785888671875
y: 363.4414978027344
z: 0.027854349464178085
visibility: 0.9989324808120728
","x: 241.81192016601562
y: 459.2080078125
z: -0.02235083095729351
visibility: 0.8679441809654236
","x: 212.7519989013672
y: 459.8333435058594
z: -0.011133166961371899
visibility: 0.9790937900543213
","x: 248.51708984375
y: 527.427734375
z: 0.14300577342510223
visibility: 0.9346442222595215
","x: 212.3319854736328
y: 543.7044677734375
z: 0.09680509567260742
visibility: 0.9752836227416992
","x: 247.5180206298828
y: 532.76904296875
z: 0.1556895524263382
visibility: 0.7788717150688171
","x: 213.5504913330078
y: 553.93359375
z: 0.10190210491418839
visibility: 0.8203544020652771
","x: 254.90135192871094
y: 559.5830688476562
z: 0.0336148627102375
visibility: 0.9394806027412415
","x: 214.35928344726562
y: 570.5223999023438
z: -0.02611513063311577
visibility: 0.966694712638855
",,,,,,,,,,,,,,,,,,,,,,,,,,,,,,,,,,,,,,,,,,
22,"x: 226.60105895996094
y: 215.47991943359375
z: -0.1663326919078827
visibility: 0.9995130300521851
","x: 229.6875457763672
y: 209.51881408691406
z: -0.1574063003063202
visibility: 0.9991647601127625
","x: 231.14959716796875
y: 209.26718139648438
z: -0.15747177600860596
visibility: 0.9992070198059082
","x: 232.6017608642578
y: 209.056396484375
z: -0.15748330950737
visibility: 0.999244749546051
","x: 226.59933471679688
y: 210.3561553955078
z: -0.14606937766075134
visibility: 0.9991313219070435
","x: 225.94505310058594
y: 210.62094116210938
z: -0.1460636705160141
visibility: 0.9991958737373352
","x: 225.2923583984375
y: 210.8999481201172
z: -0.14604385197162628
visibility: 0.999261200428009
","x: 237.66510009765625
y: 213.33778381347656
z: -0.08526633679866791
visibility: 0.998425304889679
","x: 227.06668090820312
y: 214.66925048828125
z: -0.03298376500606537
visibility: 0.9990603923797607
","x: 230.44468688964844
y: 222.70742797851562
z: -0.13986338675022125
visibility: 0.9990417957305908
","x: 226.4497833251953
y: 222.7452850341797
z: -0.12449856102466583
visibility: 0.999379575252533
","x: 253.6479949951172
y: 254.8516845703125
z: -0.0549013614654541
visibility: 0.9994180798530579
","x: 216.43600463867188
y: 259.8894958496094
z: 0.04410040006041527
visibility: 0.9998676776885986
","x: 273.17578125
y: 287.69537353515625
z: -0.17951518297195435
visibility: 0.7887262105941772
","x: 194.31201171875
y: 290.51470947265625
z: 0.09804732352495193
visibility: 0.9633792638778687
","x: 257.9750671386719
y: 306.3156433105469
z: -0.35578685998916626
visibility: 0.78962641954422
","x: 156.17420959472656
y: 291.7034606933594
z: 0.0025893726851791143
visibility: 0.9345903396606445
","x: 253.93995666503906
y: 319.2314758300781
z: -0.3962332606315613
visibility: 0.7770667672157288
","x: 153.6059112548828
y: 299.795166015625
z: -0.024529244750738144
visibility: 0.9170411229133606
","x: 252.0859375
y: 315.8056945800781
z: -0.40844249725341797
visibility: 0.7775747776031494
","x: 153.25070190429688
y: 299.2662658691406
z: -0.05360659956932068
visibility: 0.9167446494102478
","x: 251.57144165039062
y: 312.4950866699219
z: -0.3640204071998596
visibility: 0.7724343538284302
","x: 154.65814208984375
y: 297.4872131347656
z: -0.013474494218826294
