uscmakers/ReverseChoreography/data/8_feed_the_fire_lucky_daye.csv
,NOSE,LEFT_EYE_INNER,LEFT_EYE,LEFT_EYE_OUTER,RIGHT_EYE_INNER,RIGHT_EYE,RIGHT_EYE_OUTER,LEFT_EAR,RIGHT_EAR,MOUTH_LEFT,MOUTH_RIGHT,LEFT_SHOULDER,RIGHT_SHOULDER,LEFT_ELBOW,RIGHT_ELBOW,LEFT_WRIST,RIGHT_WRIST,LEFT_PINKY,RIGHT_PINKY,LEFT_INDEX,RIGHT_INDEX,LEFT_THUMB,RIGHT_THUMB,LEFT_HIP,RIGHT_HIP,LEFT_KNEE,RIGHT_KNEE,LEFT_ANKLE,RIGHT_ANKLE,LEFT_HEEL,RIGHT_HEEL,LEFT_FOOT_INDEX,RIGHT_FOOT_INDEX,WRIST,THUMB_CPC,THUMB_MCP,THUMB_IP,THUMB_TIP,INDEX_FINGER_MCP,INDEX_FINGER_PIP,INDEX_FINGER_DIP,INDEX_FINGER_TIP,MIDDLE_FINGER_MCP,MIDDLE_FINGER_PIP,MIDDLE_FINGER_DIP,MIDDLE_FINGER_TIP,RING_FINGER_PIP,RING_FINGER_DIP,RING_FINGER_TIP,RING_FINGER_MCP,PINKY_MCP,PINKY_PIP,PINKY_DIP,PINKY_TIP,WRIST2,THUMB_CPC2,THUMB_MCP2,THUMB_IP2,THUMB_TIP2,INDEX_FINGER_MCP2,INDEX_FINGER_PIP2,INDEX_FINGER_DIP2,INDEX_FINGER_TIP2,MIDDLE_FINGER_MCP2,MIDDLE_FINGER_PIP2,MIDDLE_FINGER_DIP2,MIDDLE_FINGER_TIP2,RING_FINGER_PIP2,RING_FINGER_DIP2,RING_FINGER_TIP2,RING_FINGER_MCP2,PINKY_MCP2,PINKY_PIP2,PINKY_DIP2,PINKY_TIP2
0,"x: 235.5135498046875
y: 207.6624298095703
z: -0.22881004214286804
visibility: 0.9999713897705078
","x: 237.6334991455078
y: 200.05422973632812
z: -0.21131297945976257
visibility: 0.9999419450759888
","x: 239.4789276123047
y: 199.81752014160156
z: -0.2113306224346161
visibility: 0.9999392032623291
","x: 241.17864990234375
y: 199.5371856689453
z: -0.2113131731748581
visibility: 0.99993896484375
","x: 232.18600463867188
y: 201.0539093017578
z: -0.2098131626844406
visibility: 0.9999161958694458
","x: 230.36090087890625
y: 201.6071319580078
z: -0.20981928706169128
visibility: 0.9999048709869385
","x: 228.5705108642578
y: 202.1763916015625
z: -0.20981042087078094
visibility: 0.9999053478240967
","x: 243.2572784423828
y: 203.7708282470703
z: -0.0938703715801239
visibility: 0.999855637550354
","x: 226.7533721923828
y: 208.0150604248047
z: -0.08847125619649887
visibility: 0.9997369647026062
","x: 239.2769317626953
y: 217.11666870117188
z: -0.18460553884506226
visibility: 0.9999529123306274
","x: 232.33877563476562
y: 218.1189727783203
z: -0.1831432431936264
visibility: 0.9999338388442993
","x: 259.8109130859375
y: 254.36474609375
z: -0.019290931522846222
visibility: 0.9999337196350098
","x: 218.4505157470703
y: 258.10516357421875
z: -0.011363579891622066
visibility: 0.999748170375824
","x: 272.3150939941406
y: 312.8981628417969
z: -0.14158189296722412
visibility: 0.9929476976394653
","x: 209.46331787109375
y: 321.8424987792969
z: -0.11008857190608978
visibility: 0.9760903120040894
","x: 267.80877685546875
y: 282.0687255859375
z: -0.39576202630996704
visibility: 0.9955111742019653
","x: 208.80801391601562
y: 287.186767578125
z: -0.35332247614860535
visibility: 0.9863330721855164
","x: 265.2291564941406
y: 272.3117370605469
z: -0.44411903619766235
visibility: 0.9858134388923645
","x: 208.39512634277344
y: 277.0324401855469
z: -0.39955928921699524
visibility: 0.9663134813308716
","x: 263.71466064453125
y: 265.651123046875
z: -0.4389001727104187
visibility: 0.9856324195861816
","x: 209.59713745117188
y: 271.5668029785156
z: -0.39904263615608215
visibility: 0.9644712209701538
","x: 262.8316650390625
y: 267.6583557128906
z: -0.3987497389316559
visibility: 0.9757879376411438
","x: 210.8701171875
y: 274.36322021484375
z: -0.3586372137069702
visibility: 0.9480272531509399
","x: 252.90350341796875
y: 367.7066345214844
z: 0.004600701853632927
visibility: 0.9996121525764465
","x: 227.30950927734375
y: 366.06884765625
z: -0.0047511449083685875
visibility: 0.9994379878044128
","x: 254.73057556152344
y: 458.70166015625
z: -0.0012530459789559245
visibility: 0.9915878176689148
","x: 223.64007568359375
y: 456.9909362792969
z: -0.009201648645102978
visibility: 0.9922756552696228
","x: 256.6568298339844
y: 533.9579467773438
z: 0.19051529467105865
visibility: 0.9902481436729431
","x: 215.6495819091797
y: 530.6657104492188
z: 0.18877039849758148
visibility: 0.9897913932800293
","x: 254.85128784179688
y: 544.0242919921875
z: 0.2026749849319458
visibility: 0.8923633098602295
","x: 216.09690856933594
y: 540.287109375
z: 0.20158612728118896
visibility: 0.8362842202186584
","x: 260.28741455078125
y: 557.7837524414062
z: 0.06797827780246735
visibility: 0.9860381484031677
","x: 215.75924682617188
y: 558.2745361328125
z: 0.0668669044971466
visibility: 0.9848206639289856
","x: 208.83287048339844
y: 287.2525634765625
z: 0.0
","x: 211.89430236816406
y: 280.0172119140625
z: 0.001047933124937117
","x: 212.73501586914062
y: 273.9182434082031
z: 2.893365490308497e-05
","x: 212.55575561523438
y: 270.35882568359375
z: -0.0018309479346498847
","x: 211.57220458984375
y: 268.6644287109375
z: -0.0032162736169993877
","x: 208.09567260742188
y: 265.6645202636719
z: -7.624217687407508e-05
","x: 210.65631103515625
y: 265.6748962402344
z: -0.0021247281692922115
","x: 212.55445861816406
y: 268.6896057128906
z: -0.0028474770952016115
","x: 213.35060119628906
y: 271.15289306640625
z: -0.0031127759721130133
","x: 206.30455017089844
y: 267.60302734375
z: -0.0024810731410980225
","x: 209.2603302001953
y: 267.6944580078125
z: -0.004016738850623369
","x: 211.04835510253906
y: 270.41973876953125
z: -0.0033381537068635225
","x: 211.79934692382812
y: 273.03076171875
z: -0.0030062543228268623
","x: 205.14566040039062
y: 271.1129150390625
z: -0.004994714166969061
","x: 208.30540466308594
y: 271.6662292480469
z: -0.006320382002741098
","x: 209.77035522460938
y: 274.2745056152344
z: -0.004809466190636158
","x: 210.29751586914062
y: 276.50921630859375
z: -0.0037988806143403053
","x: 204.65806579589844
y: 275.5326232910156
z: -0.007672986015677452
","x: 207.2392120361328
y: 275.9034423828125
z: -0.008482156321406364
","x: 208.59786987304688
y: 277.7823181152344
z: -0.007267177104949951
","x: 209.16775512695312
y: 279.4931640625
z: -0.006215079687535763
",,,,,,,,,,,,,,,,,,,,,
1,"x: 235.5135498046875
y: 207.6624298095703
z: -0.22881004214286804
visibility: 0.9999713897705078
","x: 237.6334991455078
y: 200.05422973632812
z: -0.21131297945976257
visibility: 0.9999419450759888
","x: 239.4789276123047
y: 199.81752014160156
z: -0.2113306224346161
visibility: 0.9999392032623291
","x: 241.17864990234375
y: 199.5371856689453
z: -0.2113131731748581
visibility: 0.99993896484375
","x: 232.18600463867188
y: 201.0539093017578
z: -0.2098131626844406
visibility: 0.9999161958694458
","x: 230.36090087890625
y: 201.6071319580078
z: -0.20981928706169128
visibility: 0.9999048709869385
","x: 228.5705108642578
y: 202.1763916015625
z: -0.20981042087078094
visibility: 0.9999053478240967
","x: 243.2572784423828
y: 203.7708282470703
z: -0.0938703715801239
visibility: 0.999855637550354
","x: 226.7533721923828
y: 208.0150604248047
z: -0.08847125619649887
visibility: 0.9997369647026062
","x: 239.2769317626953
y: 217.11666870117188
z: -0.18460553884506226
visibility: 0.9999529123306274
","x: 232.33877563476562
y: 218.1189727783203
z: -0.1831432431936264
visibility: 0.9999338388442993
","x: 259.8109130859375
y: 254.36474609375
z: -0.019290931522846222
visibility: 0.9999337196350098
","x: 218.4505157470703
y: 258.10516357421875
z: -0.011363579891622066
visibility: 0.999748170375824
","x: 272.3150939941406
y: 312.8981628417969
z: -0.14158189296722412
visibility: 0.9929476976394653
","x: 209.46331787109375
y: 321.8424987792969
z: -0.11008857190608978
visibility: 0.9760903120040894
","x: 267.80877685546875
y: 282.0687255859375
z: -0.39576202630996704
visibility: 0.9955111742019653
","x: 208.80801391601562
y: 287.186767578125
z: -0.35332247614860535
visibility: 0.9863330721855164
","x: 265.2291564941406
y: 272.3117370605469
z: -0.44411903619766235
visibility: 0.9858134388923645
","x: 208.39512634277344
y: 277.0324401855469
z: -0.39955928921699524
visibility: 0.9663134813308716
","x: 263.71466064453125
y: 265.651123046875
z: -0.4389001727104187
visibility: 0.9856324195861816
","x: 209.59713745117188
y: 271.5668029785156
z: -0.39904263615608215
visibility: 0.9644712209701538
","x: 262.8316650390625
y: 267.6583557128906
z: -0.3987497389316559
visibility: 0.9757879376411438
","x: 210.8701171875
y: 274.36322021484375
z: -0.3586372137069702
visibility: 0.9480272531509399
","x: 252.90350341796875
y: 367.7066345214844
z: 0.004600701853632927
visibility: 0.9996121525764465
","x: 227.30950927734375
y: 366.06884765625
z: -0.0047511449083685875
visibility: 0.9994379878044128
","x: 254.73057556152344
y: 458.70166015625
z: -0.0012530459789559245
visibility: 0.9915878176689148
","x: 223.64007568359375
y: 456.9909362792969
z: -0.009201648645102978
visibility: 0.9922756552696228
","x: 256.6568298339844
y: 533.9579467773438
z: 0.19051529467105865
visibility: 0.9902481436729431
","x: 215.6495819091797
y: 530.6657104492188
z: 0.18877039849758148
visibility: 0.9897913932800293
","x: 254.85128784179688
y: 544.0242919921875
z: 0.2026749849319458
visibility: 0.8923633098602295
","x: 216.09690856933594
y: 540.287109375
z: 0.20158612728118896
visibility: 0.8362842202186584
","x: 260.28741455078125
y: 557.7837524414062
z: 0.06797827780246735
visibility: 0.9860381484031677
","x: 215.75924682617188
y: 558.2745361328125
z: 0.0668669044971466
visibility: 0.9848206639289856
","x: 208.83287048339844
y: 287.2525634765625
z: 0.0
","x: 211.89430236816406
y: 280.0172119140625
z: 0.001047933124937117
","x: 212.73501586914062
y: 273.9182434082031
z: 2.893365490308497e-05
","x: 212.55575561523438
y: 270.35882568359375
z: -0.0018309479346498847
","x: 211.57220458984375
y: 268.6644287109375
z: -0.0032162736169993877
","x: 208.09567260742188
y: 265.6645202636719
z: -7.624217687407508e-05
","x: 210.65631103515625
y: 265.6748962402344
z: -0.0021247281692922115
","x: 212.55445861816406
y: 268.6896057128906
z: -0.0028474770952016115
","x: 213.35060119628906
y: 271.15289306640625
z: -0.0031127759721130133
","x: 206.30455017089844
y: 267.60302734375
z: -0.0024810731410980225
","x: 209.2603302001953
y: 267.6944580078125
z: -0.004016738850623369
","x: 211.04835510253906
y: 270.41973876953125
z: -0.0033381537068635225
","x: 211.79934692382812
y: 273.03076171875
z: -0.0030062543228268623
","x: 205.14566040039062
y: 271.1129150390625
z: -0.004994714166969061
","x: 208.30540466308594
y: 271.6662292480469
z: -0.006320382002741098
","x: 209.77035522460938
y: 274.2745056152344
z: -0.004809466190636158
","x: 210.29751586914062
y: 276.50921630859375
z: -0.0037988806143403053
","x: 204.65806579589844
y: 275.5326232910156
z: -0.007672986015677452
","x: 207.2392120361328
y: 275.9034423828125
z: -0.008482156321406364
","x: 208.59786987304688
y: 277.7823181152344
z: -0.007267177104949951
","x: 209.16775512695312
y: 279.4931640625
z: -0.006215079687535763
",,,,,,,,,,,,,,,,,,,,,
2,"x: 254.39248657226562
y: 207.66421508789062
z: -0.24619761109352112
visibility: 0.9999731183052063
","x: 257.0083923339844
y: 200.0914764404297
z: -0.2276146113872528
visibility: 0.999946117401123
","x: 258.6093444824219
y: 199.9535369873047
z: -0.22764189541339874
visibility: 0.9999434947967529
","x: 259.8612365722656
y: 199.89111328125
z: -0.2276637852191925
visibility: 0.9999432563781738
","x: 251.7194061279297
y: 200.98883056640625
z: -0.22592587769031525
visibility: 0.9999220371246338
","x: 249.81863403320312
y: 201.49652099609375
z: -0.22594185173511505
visibility: 0.9999114274978638
","x: 248.17880249023438
y: 202.0054473876953
z: -0.22592154145240784
visibility: 0.999911904335022
","x: 262.81378173828125
y: 204.7112274169922
z: -0.10758328437805176
visibility: 0.9998666644096375
","x: 246.3150177001953
y: 207.214111328125
z: -0.10159318149089813
visibility: 0.9997571706771851
","x: 257.4318542480469
y: 217.0866241455078
z: -0.2015884667634964
visibility: 0.9999563694000244
","x: 251.021240234375
y: 217.66343688964844
z: -0.20007756352424622
visibility: 0.9999387860298157
","x: 273.8509521484375
y: 256.257568359375
z: -0.03699546679854393
visibility: 0.999932050704956
","x: 232.43765258789062
y: 254.43426513671875
z: -0.0238764900714159
visibility: 0.9997293949127197
","x: 283.7098083496094
y: 313.518310546875
z: -0.17837946116924286
visibility: 0.9930433630943298
","x: 216.8748779296875
y: 309.9335021972656
z: -0.1455378383398056
visibility: 0.9764580726623535
","x: 281.02398681640625
y: 279.9438781738281
z: -0.4235561490058899
visibility: 0.9955441951751709
","x: 216.6606903076172
y: 264.95892333984375
z: -0.39760369062423706
visibility: 0.9855621457099915
","x: 278.92803955078125
y: 269.2978210449219
z: -0.47046270966529846
visibility: 0.9858707189559937
","x: 218.85598754882812
y: 254.70602416992188
z: -0.4456952214241028
visibility: 0.9643171429634094
","x: 278.229736328125
y: 263.70648193359375
z: -0.4636085033416748
visibility: 0.9856405854225159
","x: 220.03802490234375
y: 250.67352294921875
z: -0.44086211919784546
visibility: 0.9623234868049622
","x: 277.42425537109375
y: 266.2082824707031
z: -0.4258933663368225
visibility: 0.9757254123687744
","x: 220.20263671875
y: 254.4369659423828
z: -0.40192317962646484
visibility: 0.9451677799224854
","x: 258.66717529296875
y: 369.46368408203125
z: 0.0030191466212272644
visibility: 0.999616801738739
","x: 233.80551147460938
y: 365.9570007324219
z: -0.0031463229097425938
visibility: 0.9994363188743591
","x: 256.83172607421875
y: 458.5531921386719
z: 0.0005098580732010305
visibility: 0.9918769001960754
","x: 224.3977813720703
y: 456.09246826171875
z: -0.006112149450927973
visibility: 0.9925965070724487
","x: 257.0816345214844
y: 534.1991577148438
z: 0.2014588862657547
visibility: 0.9904987215995789
","x: 216.52745056152344
y: 529.0197143554688
z: 0.18953397870063782
visibility: 0.9900335669517517
","x: 255.03695678710938
y: 544.01611328125
z: 0.2147628366947174
visibility: 0.8918214440345764
","x: 217.195556640625
y: 539.0634765625
z: 0.20242705941200256
visibility: 0.8377760052680969
","x: 258.31787109375
y: 557.724365234375
z: 0.08311052620410919
visibility: 0.9862367510795593
","x: 215.82305908203125
y: 556.6489868164062
z: 0.06999637186527252
visibility: 0.9850735068321228
","x: 219.8786163330078
y: 262.344482421875
z: 0.0
","x: 223.0962677001953
y: 257.2723693847656
z: 0.0007111035520210862
","x: 224.8938446044922
y: 252.89305114746094
z: -0.0005616997950710356
","x: 225.84178161621094
y: 250.48570251464844
z: -0.002813961822539568
","x: 226.03631591796875
y: 249.03125
z: -0.004611987620592117
","x: 222.47482299804688
y: 243.7205810546875
z: -0.0004962670500390232
","x: 224.19256591796875
y: 241.1560821533203
z: -0.003432012163102627
","x: 225.42135620117188
y: 245.0382080078125
z: -0.004546126816421747
","x: 225.667724609375
y: 248.3345184326172
z: -0.004906125366687775
","x: 220.61082458496094
y: 244.7635040283203
z: -0.0030023956205695868
","x: 222.47256469726562
y: 243.08047485351562
z: -0.005789042916148901
","x: 223.79119873046875
y: 247.48123168945312
z: -0.005472221877425909
","x: 223.90032958984375
y: 250.67227172851562
z: -0.004860828630626202
","x: 218.9358367919922
y: 247.21124267578125
z: -0.0057895430363714695
","x: 220.900146484375
y: 246.07699584960938
z: -0.008398931473493576
","x: 222.1686553955078
y: 249.90289306640625
z: -0.006902579218149185
","x: 222.3199462890625
y: 252.77528381347656
z: -0.0054404642432928085
","x: 217.58023071289062
y: 250.6058349609375
z: -0.008754989132285118
","x: 219.33981323242188
y: 249.5139923095703
z: -0.010469038970768452
","x: 220.6487274169922
y: 252.0392608642578
z: -0.009263991378247738
","x: 221.0027313232422
y: 254.3470458984375
z: -0.007905368693172932
",,,,,,,,,,,,,,,,,,,,,
3,"x: 254.39248657226562
y: 207.66421508789062
z: -0.24619761109352112
visibility: 0.9999731183052063
","x: 257.0083923339844
y: 200.0914764404297
z: -0.2276146113872528
visibility: 0.999946117401123
","x: 258.6093444824219
y: 199.9535369873047
z: -0.22764189541339874
visibility: 0.9999434947967529
","x: 259.8612365722656
y: 199.89111328125
z: -0.2276637852191925
visibility: 0.9999432563781738
","x: 251.7194061279297
y: 200.98883056640625
z: -0.22592587769031525
visibility: 0.9999220371246338
","x: 249.81863403320312
y: 201.49652099609375
z: -0.22594185173511505
visibility: 0.9999114274978638
","x: 248.17880249023438
y: 202.0054473876953
z: -0.22592154145240784
visibility: 0.999911904335022
","x: 262.81378173828125
y: 204.7112274169922
z: -0.10758328437805176
visibility: 0.9998666644096375
","x: 246.3150177001953
y: 207.214111328125
z: -0.10159318149089813
visibility: 0.9997571706771851
","x: 257.4318542480469
y: 217.0866241455078
z: -0.2015884667634964
visibility: 0.9999563694000244
","x: 251.021240234375
y: 217.66343688964844
z: -0.20007756352424622
visibility: 0.9999387860298157
","x: 273.8509521484375
y: 256.257568359375
z: -0.03699546679854393
visibility: 0.999932050704956
","x: 232.43765258789062
y: 254.43426513671875
z: -0.0238764900714159
visibility: 0.9997293949127197
","x: 283.7098083496094
y: 313.518310546875
z: -0.17837946116924286
visibility: 0.9930433630943298
","x: 216.8748779296875
y: 309.9335021972656
z: -0.1455378383398056
visibility: 0.9764580726623535
","x: 281.02398681640625
y: 279.9438781738281
z: -0.4235561490058899
visibility: 0.9955441951751709
","x: 216.6606903076172
y: 264.95892333984375
z: -0.39760369062423706
visibility: 0.9855621457099915
","x: 278.92803955078125
y: 269.2978210449219
z: -0.47046270966529846
visibility: 0.9858707189559937
","x: 218.85598754882812
y: 254.70602416992188
z: -0.4456952214241028
visibility: 0.9643171429634094
","x: 278.229736328125
y: 263.70648193359375
z: -0.4636085033416748
visibility: 0.9856405854225159
","x: 220.03802490234375
y: 250.67352294921875
z: -0.44086211919784546
visibility: 0.9623234868049622
","x: 277.42425537109375
y: 266.2082824707031
z: -0.4258933663368225
visibility: 0.9757254123687744
","x: 220.20263671875
y: 254.4369659423828
z: -0.40192317962646484
visibility: 0.9451677799224854
","x: 258.66717529296875
y: 369.46368408203125
z: 0.0030191466212272644
visibility: 0.999616801738739
","x: 233.80551147460938
y: 365.9570007324219
z: -0.0031463229097425938
visibility: 0.9994363188743591
","x: 256.83172607421875
y: 458.5531921386719
z: 0.0005098580732010305
visibility: 0.9918769001960754
","x: 224.3977813720703
y: 456.09246826171875
z: -0.006112149450927973
visibility: 0.9925965070724487
","x: 257.0816345214844
y: 534.1991577148438
z: 0.2014588862657547
visibility: 0.9904987215995789
","x: 216.52745056152344
y: 529.0197143554688
z: 0.18953397870063782
visibility: 0.9900335669517517
","x: 255.03695678710938
y: 544.01611328125
z: 0.2147628366947174
visibility: 0.8918214440345764
","x: 217.195556640625
y: 539.0634765625
z: 0.20242705941200256
visibility: 0.8377760052680969
","x: 258.31787109375
y: 557.724365234375
z: 0.08311052620410919
visibility: 0.9862367510795593
","x: 215.82305908203125
y: 556.6489868164062
z: 0.06999637186527252
visibility: 0.9850735068321228
","x: 219.8786163330078
y: 262.344482421875
z: 0.0
","x: 223.0962677001953
y: 257.2723693847656
z: 0.0007111035520210862
","x: 224.8938446044922
y: 252.89305114746094
z: -0.0005616997950710356
","x: 225.84178161621094
y: 250.48570251464844
z: -0.002813961822539568
","x: 226.03631591796875
y: 249.03125
z: -0.004611987620592117
","x: 222.47482299804688
y: 243.7205810546875
z: -0.0004962670500390232
","x: 224.19256591796875
y: 241.1560821533203
z: -0.003432012163102627
","x: 225.42135620117188
y: 245.0382080078125
z: -0.004546126816421747
","x: 225.667724609375
y: 248.3345184326172
z: -0.004906125366687775
","x: 220.61082458496094
y: 244.7635040283203
z: -0.0030023956205695868
","x: 222.47256469726562
y: 243.08047485351562
z: -0.005789042916148901
","x: 223.79119873046875
y: 247.48123168945312
z: -0.005472221877425909
","x: 223.90032958984375
y: 250.67227172851562
z: -0.004860828630626202
","x: 218.9358367919922
y: 247.21124267578125
z: -0.0057895430363714695
","x: 220.900146484375
y: 246.07699584960938
z: -0.008398931473493576
","x: 222.1686553955078
y: 249.90289306640625
z: -0.006902579218149185
","x: 222.3199462890625
y: 252.77528381347656
z: -0.0054404642432928085
","x: 217.58023071289062
y: 250.6058349609375
z: -0.008754989132285118
","x: 219.33981323242188
y: 249.5139923095703
z: -0.010469038970768452
","x: 220.6487274169922
y: 252.0392608642578
z: -0.009263991378247738
","x: 221.0027313232422
y: 254.3470458984375
z: -0.007905368693172932
",,,,,,,,,,,,,,,,,,,,,
4,"x: 252.91639709472656
y: 208.22821044921875
z: -0.20422668755054474
visibility: 0.9999752640724182
","x: 255.82325744628906
y: 201.37033081054688
z: -0.18449974060058594
visibility: 0.999950647354126
","x: 257.4583740234375
y: 201.95558166503906
z: -0.18453407287597656
visibility: 0.9999481439590454
","x: 258.735107421875
y: 202.6239013671875
z: -0.18455150723457336
visibility: 0.9999479651451111
","x: 251.26425170898438
y: 201.03277587890625
z: -0.18540889024734497
visibility: 0.9999285340309143
","x: 249.30250549316406
y: 201.42596435546875
z: -0.18540431559085846
visibility: 0.9999186396598816
","x: 247.5625762939453
y: 201.6224822998047
z: -0.18537476658821106
visibility: 0.9999191164970398
","x: 261.5343933105469
y: 208.97283935546875
z: -0.06319226324558258
visibility: 0.9998778104782104
","x: 244.5832977294922
y: 206.3525390625
z: -0.07025684416294098
visibility: 0.9997780323028564
","x: 254.81185913085938
y: 217.61941528320312
z: -0.15916569530963898
visibility: 0.9999601244926453
","x: 248.9243927001953
y: 217.52755737304688
z: -0.16148671507835388
visibility: 0.9999441504478455
","x: 270.6843566894531
y: 258.6243896484375
z: 0.0004047212132718414
visibility: 0.9999356269836426
","x: 229.3555908203125
y: 251.76913452148438
z: 0.005549385212361813
visibility: 0.999740481376648
","x: 281.6824035644531
y: 315.40960693359375
z: -0.123667873442173
visibility: 0.9925388693809509
","x: 215.2774658203125
y: 306.5780029296875
z: -0.10749068111181259
visibility: 0.9753575325012207
","x: 277.4900817871094
y: 283.4259033203125
z: -0.36560866236686707
visibility: 0.9952983260154724
","x: 215.66220092773438
y: 269.33062744140625
z: -0.352649986743927
visibility: 0.9839405417442322
","x: 276.2405090332031
y: 272.0513916015625
z: -0.4122861921787262
visibility: 0.9852844476699829
","x: 217.56663513183594
y: 258.09967041015625
z: -0.397655725479126
visibility: 0.9611771106719971
","x: 275.4824523925781
y: 266.39544677734375
z: -0.40676769614219666
visibility: 0.9850464463233948
","x: 218.65879821777344
y: 254.25390625
z: -0.3960835337638855
visibility: 0.959071934223175
","x: 274.38165283203125
y: 269.2490234375
z: -0.368585467338562
visibility: 0.9746880531311035
","x: 218.75807189941406
y: 257.695556640625
z: -0.35782963037490845
visibility: 0.9410467147827148
","x: 257.9649963378906
y: 369.4355773925781
z: 0.004266216419637203
visibility: 0.9996320605278015
","x: 232.5428009033203
y: 365.3979797363281
z: -0.004419817589223385
visibility: 0.9994473457336426
","x: 256.1444396972656
y: 457.8507080078125
z: -0.0067783258855342865
visibility: 0.9918707013130188
","x: 224.38507080078125
y: 455.9212646484375
z: -0.012412946671247482
visibility: 0.9920127987861633
","x: 257.041015625
y: 534.4154663085938
z: 0.181636244058609
visibility: 0.9904639720916748
","x: 216.5375518798828
y: 528.361328125
z: 0.1912510097026825
visibility: 0.9890835881233215
","x: 255.01641845703125
y: 544.2315063476562
z: 0.1937594711780548
visibility: 0.8888534903526306
","x: 216.40338134765625
y: 537.6104125976562
z: 0.20532450079917908
visibility: 0.8292852640151978
","x: 258.6047058105469
y: 558.02587890625
z: 0.058297205716371536
visibility: 0.9861011505126953
","x: 216.8924560546875
y: 556.4878540039062
z: 0.07424227893352509
visibility: 0.9839233756065369
",,,,,,,,,,,,,,,,,,,,,,"x: 272.8829040527344
y: 283.14862060546875
z: 0.0
","x: 269.2108154296875
y: 277.25439453125
z: -0.0004057076876051724
","x: 266.990234375
y: 270.2249450683594
z: -0.003350748447701335
","x: 267.003662109375
y: 265.243408203125
z: -0.0072054434567689896
","x: 268.18048095703125
y: 262.84295654296875
z: -0.010250694118440151
","x: 270.5329895019531
y: 259.76226806640625
z: -0.004462163895368576
","x: 268.9595947265625
y: 253.54376220703125
z: -0.009271952323615551
","x: 268.1381530761719
y: 258.7021179199219
z: -0.010606145486235619
","x: 268.5615234375
y: 262.926513671875
z: -0.010990616865456104
","x: 273.30438232421875
y: 261.39727783203125
z: -0.007356966845691204
","x: 270.5240173339844
y: 263.15069580078125
z: -0.011742542497813702
","x: 269.4588623046875
y: 268.647216796875
z: -0.010911471210420132
","x: 269.8086853027344
y: 271.124755859375
z: -0.010009805671870708
","x: 275.5641784667969
y: 264.9805603027344
z: -0.010524371638894081
","x: 272.5406494140625
y: 268.0765075683594
z: -0.013751532882452011
","x: 271.4936218261719
y: 272.3314208984375
z: -0.011525154113769531
","x: 271.6656494140625
y: 273.9674072265625
z: -0.009905163198709488
","x: 277.2296142578125
y: 269.2476806640625
z: -0.014038341119885445
","x: 274.59063720703125
y: 272.12139892578125
z: -0.014986971393227577
","x: 273.4671630859375
y: 275.0065002441406
z: -0.013219586573541164
","x: 273.57623291015625
y: 276.2024841308594
z: -0.011918735690414906
"
5,"x: 252.91639709472656
y: 208.22821044921875
z: -0.20422668755054474
visibility: 0.9999752640724182
","x: 255.82325744628906
y: 201.37033081054688
z: -0.18449974060058594
visibility: 0.999950647354126
","x: 257.4583740234375
y: 201.95558166503906
z: -0.18453407287597656
visibility: 0.9999481439590454
","x: 258.735107421875
y: 202.6239013671875
z: -0.18455150723457336
visibility: 0.9999479651451111
","x: 251.26425170898438
y: 201.03277587890625
z: -0.18540889024734497
visibility: 0.9999285340309143
","x: 249.30250549316406
y: 201.42596435546875
z: -0.18540431559085846
visibility: 0.9999186396598816
","x: 247.5625762939453
y: 201.6224822998047
z: -0.18537476658821106
visibility: 0.9999191164970398
","x: 261.5343933105469
y: 208.97283935546875
z: -0.06319226324558258
visibility: 0.9998778104782104
","x: 244.5832977294922
y: 206.3525390625
z: -0.07025684416294098
visibility: 0.9997780323028564
","x: 254.81185913085938
y: 217.61941528320312
z: -0.15916569530963898
visibility: 0.9999601244926453
","x: 248.9243927001953
y: 217.52755737304688
z: -0.16148671507835388
visibility: 0.9999441504478455
","x: 270.6843566894531
y: 258.6243896484375
z: 0.0004047212132718414
visibility: 0.9999356269836426
","x: 229.3555908203125
y: 251.76913452148438
z: 0.005549385212361813
visibility: 0.999740481376648
","x: 281.6824035644531
y: 315.40960693359375
z: -0.123667873442173
visibility: 0.9925388693809509
","x: 215.2774658203125
y: 306.5780029296875
z: -0.10749068111181259
visibility: 0.9753575325012207
","x: 277.4900817871094
y: 283.4259033203125
z: -0.36560866236686707
visibility: 0.9952983260154724
","x: 215.66220092773438
y: 269.33062744140625
z: -0.352649986743927
visibility: 0.9839405417442322
","x: 276.2405090332031
y: 272.0513916015625
z: -0.4122861921787262
visibility: 0.9852844476699829
","x: 217.56663513183594
y: 258.09967041015625
z: -0.397655725479126
visibility: 0.9611771106719971
","x: 275.4824523925781
y: 266.39544677734375
z: -0.40676769614219666
visibility: 0.9850464463233948
","x: 218.65879821777344
y: 254.25390625
z: -0.3960835337638855
visibility: 0.959071934223175
","x: 274.38165283203125
y: 269.2490234375
z: -0.368585467338562
visibility: 0.9746880531311035
","x: 218.75807189941406
y: 257.695556640625
z: -0.35782963037490845
visibility: 0.9410467147827148
","x: 257.9649963378906
y: 369.4355773925781
z: 0.004266216419637203
visibility: 0.9996320605278015
","x: 232.5428009033203
y: 365.3979797363281
z: -0.004419817589223385
visibility: 0.9994473457336426
","x: 256.1444396972656
y: 457.8507080078125
z: -0.0067783258855342865
visibility: 0.9918707013130188
","x: 224.38507080078125
y: 455.9212646484375
z: -0.012412946671247482
visibility: 0.9920127987861633
","x: 257.041015625
y: 534.4154663085938
z: 0.181636244058609
visibility: 0.9904639720916748
","x: 216.5375518798828
y: 528.361328125
z: 0.1912510097026825
visibility: 0.9890835881233215
","x: 255.01641845703125
y: 544.2315063476562
z: 0.1937594711780548
visibility: 0.8888534903526306
","x: 216.40338134765625
y: 537.6104125976562
z: 0.20532450079917908
visibility: 0.8292852640151978
","x: 258.6047058105469
y: 558.02587890625
z: 0.058297205716371536
visibility: 0.9861011505126953
","x: 216.8924560546875
y: 556.4878540039062
z: 0.07424227893352509
visibility: 0.9839233756065369
",,,,,,,,,,,,,,,,,,,,,,"x: 272.8829040527344
y: 283.14862060546875
z: 0.0
","x: 269.2108154296875
y: 277.25439453125
z: -0.0004057076876051724
","x: 266.990234375
y: 270.2249450683594
z: -0.003350748447701335
","x: 267.003662109375
y: 265.243408203125
z: -0.0072054434567689896
","x: 268.18048095703125
y: 262.84295654296875
z: -0.010250694118440151
","x: 270.5329895019531
y: 259.76226806640625
z: -0.004462163895368576
","x: 268.9595947265625
y: 253.54376220703125
z: -0.009271952323615551
","x: 268.1381530761719
y: 258.7021179199219
z: -0.010606145486235619
","x: 268.5615234375
y: 262.926513671875
z: -0.010990616865456104
","x: 273.30438232421875
y: 261.39727783203125
z: -0.007356966845691204
","x: 270.5240173339844
y: 263.15069580078125
z: -0.011742542497813702
","x: 269.4588623046875
y: 268.647216796875
z: -0.010911471210420132
","x: 269.8086853027344
y: 271.124755859375
z: -0.010009805671870708
","x: 275.5641784667969
y: 264.9805603027344
z: -0.010524371638894081
","x: 272.5406494140625
y: 268.0765075683594
z: -0.013751532882452011
","x: 271.4936218261719
y: 272.3314208984375
z: -0.011525154113769531
","x: 271.6656494140625
y: 273.9674072265625
z: -0.009905163198709488
","x: 277.2296142578125
y: 269.2476806640625
z: -0.014038341119885445
","x: 274.59063720703125
y: 272.12139892578125
z: -0.014986971393227577
","x: 273.4671630859375
y: 275.0065002441406
z: -0.013219586573541164
","x: 273.57623291015625
y: 276.2024841308594
z: -0.011918735690414906
"
6,"x: 249.0342559814453
y: 208.28009033203125
z: -0.2022278606891632
visibility: 0.9999776482582092
","x: 251.77708435058594
y: 201.65151977539062
z: -0.18137873709201813
visibility: 0.9999554753303528
","x: 253.39402770996094
y: 202.40744018554688
z: -0.18143121898174286
visibility: 0.9999532103538513
","x: 254.80044555664062
y: 203.1938018798828
z: -0.18145157396793365
visibility: 0.999953031539917
","x: 246.79412841796875
y: 200.9429168701172
z: -0.1856197565793991
visibility: 0.9999354481697083
","x: 244.8361358642578
y: 200.9407958984375
z: -0.18560686707496643
visibility: 0.9999265074729919
","x: 243.14268493652344
y: 200.67562866210938
z: -0.18553845584392548
visibility: 0.9999268651008606
","x: 256.68817138671875
y: 209.03805541992188
z: -0.0528581365942955
visibility: 0.9998897314071655
","x: 240.04498291015625
y: 205.02484130859375
z: -0.07457048445940018
visibility: 0.9997997879981995
","x: 251.15541076660156
y: 217.61572265625
z: -0.1542923003435135
visibility: 0.9999639987945557
","x: 244.8562774658203
y: 216.98464965820312
z: -0.16090810298919678
visibility: 0.9999496340751648
","x: 264.947021484375
y: 258.3235778808594
z: 0.021715395152568817
visibility: 0.9999416470527649
","x: 224.30572509765625
y: 250.270751953125
z: 0.01033773273229599
visibility: 0.9997634291648865
","x: 270.0726013183594
y: 316.42462158203125
z: -0.06109144538640976
visibility: 0.9921414852142334
","x: 208.4947509765625
y: 307.2466125488281
z: -0.07008256018161774
visibility: 0.976479172706604
","x: 275.8114013671875
y: 285.7191162109375
z: -0.30427664518356323
visibility: 0.9955019950866699
","x: 202.69020080566406
y: 272.70794677734375
z: -0.31433945894241333
visibility: 0.9851230382919312
","x: 275.55560302734375
y: 277.556640625
z: -0.35342374444007874
visibility: 0.986062228679657
","x: 202.9136962890625
y: 261.8208923339844
z: -0.35919874906539917
visibility: 0.9641259908676147
","x: 274.9806823730469
y: 271.5815124511719
z: -0.36107128858566284
visibility: 0.9858747720718384
","x: 204.43202209472656
y: 257.2640380859375
z: -0.3700275123119354
visibility: 0.9622437953948975
","x: 273.9017333984375
y: 273.82525634765625
z: -0.3130294382572174
visibility: 0.9761161208152771
","x: 204.66079711914062
y: 260.3150634765625
z: -0.3241235613822937
visibility: 0.9455667734146118
","x: 253.64273071289062
y: 367.7539367675781
z: 0.010777381248772144
visibility: 0.9996580481529236
","x: 229.53262329101562
y: 364.09368896484375
z: -0.010887946002185345
visibility: 0.9994823932647705
","x: 256.1274108886719
y: 456.9250183105469
z: -0.004015480168163776
visibility: 0.992201566696167
","x: 223.71336364746094
y: 455.6941223144531
z: -0.028185833245515823
visibility: 0.9919991493225098
","x: 256.9593811035156
y: 534.4786987304688
z: 0.17337071895599365
visibility: 0.9907777309417725
","x: 216.50157165527344
y: 528.395751953125
z: 0.1633778065443039
visibility: 0.9888858795166016
","x: 254.8070526123047
y: 544.3438720703125
z: 0.18350735306739807
visibility: 0.892000675201416
","x: 216.11915588378906
y: 537.650634765625
z: 0.17579591274261475
visibility: 0.8263225555419922
","x: 260.41729736328125
y: 557.9903564453125
z: 0.05334659293293953
visibility: 0.9864702820777893
","x: 217.0844268798828
y: 556.5285034179688
z: 0.04604577273130417
visibility: 0.9837138652801514
",,,,,,,,,,,,,,,,,,,,,,,,,,,,,,,,,,,,,,,,,,
7,"x: 247.1157684326172
y: 207.94674682617188
z: -0.19696006178855896
visibility: 0.9999797940254211
","x: 249.7145233154297
y: 201.57321166992188
z: -0.1765320599079132
visibility: 0.9999598264694214
","x: 251.37388610839844
y: 202.37335205078125
z: -0.17658385634422302
visibility: 0.9999577403068542
","x: 252.87417602539062
y: 203.0771026611328
z: -0.17659878730773926
visibility: 0.9999575614929199
","x: 244.5767822265625
y: 200.62721252441406
z: -0.17959557473659515
visibility: 0.9999417066574097
","x: 242.65423583984375
y: 200.45050048828125
z: -0.17958584427833557
visibility: 0.9999336004257202
","x: 241.01480102539062
y: 200.1929931640625
z: -0.17951315641403198
visibility: 0.9999338984489441
","x: 254.74356079101562
y: 208.95639038085938
z: -0.051775507628917694
visibility: 0.9999005198478699
","x: 238.1583251953125
y: 204.5953369140625
z: -0.06798027455806732
visibility: 0.9998193383216858
","x: 249.5629425048828
y: 217.146728515625
z: -0.15040189027786255
visibility: 0.9999675154685974
","x: 243.12420654296875
y: 216.03463745117188
z: -0.15514352917671204
visibility: 0.9999545812606812
","x: 263.0721130371094
y: 256.1177673339844
z: 0.019641179591417313
visibility: 0.9999471306800842
","x: 222.23782348632812
y: 248.93338012695312
z: 0.018925022333860397
visibility: 0.9997832775115967
","x: 270.69464111328125
y: 314.0920104980469
z: -0.06321529299020767
visibility: 0.9923533797264099
","x: 207.48953247070312
y: 307.089111328125
z: -0.05772768706083298
visibility: 0.9777637720108032
","x: 278.62274169921875
y: 280.76318359375
z: -0.2947074770927429
visibility: 0.9958143830299377
","x: 198.86984252929688
y: 271.61932373046875
z: -0.3038325905799866
visibility: 0.9863427877426147
","x: 279.7272033691406
y: 273.4811096191406
z: -0.34168222546577454
visibility: 0.9870373010635376
","x: 196.4226837158203
y: 259.1421203613281
z: -0.3486766815185547
visibility: 0.9670528173446655
","x: 279.2049255371094
y: 269.11676025390625
z: -0.3492047190666199
visibility: 0.9868773221969604
","x: 197.185791015625
y: 253.60406494140625
z: -0.359449565410614
visibility: 0.9653740525245667
","x: 277.9764099121094
y: 270.7361145019531
z: -0.30323317646980286
visibility: 0.9778386354446411
","x: 198.45913696289062
y: 256.3771667480469
z: -0.3141605257987976
visibility: 0.9500690698623657
","x: 253.64419555664062
y: 366.3025207519531
z: 0.010601961053907871
visibility: 0.9996793866157532
","x: 229.4637908935547
y: 363.3470458984375
z: -0.01063591055572033
visibility: 0.999510645866394
","x: 257.94256591796875
y: 456.4364318847656
z: -0.0057700015604496
visibility: 0.9925967454910278
","x: 223.57322692871094
y: 454.553466796875
z: -0.026846537366509438
visibility: 0.9919648170471191
","x: 258.2043151855469
y: 534.29248046875
z: 0.1744759976863861
visibility: 0.990951657295227
","x: 215.60728454589844
y: 528.0426025390625
z: 0.161835715174675
visibility: 0.9885830283164978
","x: 255.85287475585938
y: 543.862060546875
z: 0.18536274135112762
visibility: 0.8921998739242554
","x: 214.53956604003906
y: 537.3217163085938
z: 0.17409464716911316
visibility: 0.8223145604133606
","x: 260.8131103515625
y: 557.74609375
z: 0.05541551858186722
visibility: 0.9866070747375488
","x: 217.0441436767578
y: 556.1517944335938
z: 0.044579751789569855
visibility: 0.9833325743675232
",,,,,,,,,,,,,,,,,,,,,,,,,,,,,,,,,,,,,,,,,,
8,"x: 246.3838348388672
y: 207.69085693359375
z: -0.18406841158866882
visibility: 0.999981701374054
","x: 248.83326721191406
y: 201.16151428222656
z: -0.16558556258678436
visibility: 0.999963641166687
","x: 250.56942749023438
y: 201.683349609375
z: -0.16563686728477478
visibility: 0.9999617338180542
","x: 252.15359497070312
y: 202.15919494628906
z: -0.1656595915555954
visibility: 0.9999615550041199
","x: 243.6156463623047
y: 200.5610809326172
z: -0.16616226732730865
visibility: 0.9999471306800842
","x: 241.68313598632812
y: 200.45355224609375
z: -0.16616548597812653
visibility: 0.9999397397041321
","x: 240.1083984375
y: 200.23089599609375
z: -0.1661020815372467
visibility: 0.9999399781227112
","x: 254.01162719726562
y: 207.75543212890625
z: -0.045477017760276794
visibility: 0.9999101758003235
","x: 237.50918579101562
y: 204.85052490234375
z: -0.049148134887218475
visibility: 0.9998366236686707
","x: 249.3166046142578
y: 216.84954833984375
z: -0.13878853619098663
visibility: 0.9999706149101257
","x: 242.49151611328125
y: 215.98184204101562
z: -0.1398417204618454
visibility: 0.999958872795105
","x: 264.16595458984375
y: 253.427734375
z: 0.028175467625260353
visibility: 0.9999518990516663
","x: 223.92543029785156
y: 249.70684814453125
z: 0.03501046448945999
visibility: 0.9997987151145935
","x: 273.6328125
y: 310.80572509765625
z: -0.0696440264582634
visibility: 0.9925929307937622
","x: 210.36712646484375
y: 308.594970703125
z: -0.04550148546695709
visibility: 0.9780463576316833
","x: 281.88287353515625
y: 276.1811218261719
z: -0.29871970415115356
visibility: 0.9960607290267944
","x: 201.3701629638672
y: 272.3880310058594
z: -0.2906973659992218
visibility: 0.9871804118156433
","x: 283.6169128417969
y: 267.4452819824219
z: -0.3450140058994293
visibility: 0.9877907633781433
","x: 199.29054260253906
y: 260.7236633300781
z: -0.3353530764579773
visibility: 0.9691430926322937
","x: 283.2953796386719
y: 264.42608642578125
z: -0.34766489267349243
visibility: 0.9876493215560913
","x: 200.1344757080078
y: 255.18161010742188
z: -0.3460610508918762
visibility: 0.967654287815094
","x: 282.267333984375
y: 265.8923645019531
z: -0.3051968812942505
visibility: 0.9791772365570068
","x: 201.23728942871094
y: 257.95355224609375
z: -0.3013351857662201
visibility: 0.9534081816673279
","x: 255.5929718017578
y: 366.2950134277344
z: 0.007518332451581955
visibility: 0.9996938705444336
","x: 231.1646270751953
y: 363.4219055175781
z: -0.007477671839296818
visibility: 0.999527633190155
","x: 258.2459411621094
y: 456.41357421875
z: -0.007476842496544123
visibility: 0.992610514163971
","x: 225.33786010742188
y: 454.515869140625
z: -0.02373620867729187
visibility: 0.9914946556091309
","x: 258.39599609375
y: 534.6312255859375
z: 0.17241594195365906
visibility: 0.9907055497169495
","x: 216.98410034179688
y: 528.1566162109375
z: 0.15502655506134033
visibility: 0.9880626201629639
","x: 256.3144226074219
y: 543.912841796875
z: 0.18333174288272858
visibility: 0.8895837664604187
","x: 216.09332275390625
y: 537.587646484375
z: 0.16569176316261292
visibility: 0.8183754682540894
","x: 260.4409484863281
y: 557.7618408203125
z: 0.05209483578801155
visibility: 0.9862222075462341
","x: 217.44003295898438
y: 556.1792602539062
z: 0.03284724801778793
visibility: 0.9826592803001404
",,,,,,,,,,,,,,,,,,,,,,"x: 282.4747619628906
y: 273.1357116699219
z: 0.0
","x: 281.0417785644531
y: 268.32208251953125
z: -0.0008143093436956406
","x: 280.8719787597656
y: 262.61651611328125
z: -0.002050007227808237
","x: 282.15679931640625
y: 259.5190124511719
z: -0.003968110308051109
","x: 283.9006042480469
y: 258.5079345703125
z: -0.005461873486638069
","x: 283.015380859375
y: 257.6401062011719
z: -0.00028285622829571366
","x: 283.6502380371094
y: 253.8499755859375
z: -0.0035278748255223036
","x: 282.9759521484375
y: 256.84332275390625
z: -0.004873133730143309
","x: 282.59991455078125
y: 259.6482849121094
z: -0.005277227144688368
","x: 284.7353515625
y: 259.1068115234375
z: -0.0018727494170889258
","x: 285.4354553222656
y: 255.45822143554688
z: -0.005460178013890982
","x: 284.4949035644531
y: 259.1842041015625
z: -0.006011591758579016
","x: 283.9373779296875
y: 261.79193115234375
z: -0.005561270285397768
","x: 286.39404296875
y: 261.3249816894531
z: -0.004026688169687986
","x: 287.1827392578125
y: 257.6490478515625
z: -0.006957971025258303
","x: 286.14288330078125
y: 260.90887451171875
z: -0.006011298857629299
","x: 285.3830261230469
y: 263.3966369628906
z: -0.004709462635219097
","x: 287.95159912109375
y: 264.3108825683594
z: -0.006501398980617523
","x: 288.7540283203125
y: 260.6829833984375
z: -0.00776352034881711
","x: 287.7817687988281
y: 262.5796813964844
z: -0.006871936377137899
","x: 286.949951171875
y: 264.5838928222656
z: -0.005799634847790003
"
9,"x: 246.3838348388672
y: 207.69085693359375
z: -0.18406841158866882
visibility: 0.999981701374054
","x: 248.83326721191406
y: 201.16151428222656
z: -0.16558556258678436
visibility: 0.999963641166687
","x: 250.56942749023438
y: 201.683349609375
z: -0.16563686728477478
visibility: 0.9999617338180542
","x: 252.15359497070312
y: 202.15919494628906
z: -0.1656595915555954
visibility: 0.9999615550041199
","x: 243.6156463623047
y: 200.5610809326172
z: -0.16616226732730865
visibility: 0.9999471306800842
","x: 241.68313598632812
y: 200.45355224609375
z: -0.16616548597812653
visibility: 0.9999397397041321
","x: 240.1083984375
y: 200.23089599609375
z: -0.1661020815372467
visibility: 0.9999399781227112
","x: 254.01162719726562
y: 207.75543212890625
z: -0.045477017760276794
visibility: 0.9999101758003235
","x: 237.50918579101562
y: 204.85052490234375
z: -0.049148134887218475
visibility: 0.9998366236686707
","x: 249.3166046142578
y: 216.84954833984375
z: -0.13878853619098663
visibility: 0.9999706149101257
","x: 242.49151611328125
y: 215.98184204101562
z: -0.1398417204618454
visibility: 0.999958872795105
","x: 264.16595458984375
y: 253.427734375
z: 0.028175467625260353
visibility: 0.9999518990516663
","x: 223.92543029785156
y: 249.70684814453125
z: 0.03501046448945999
visibility: 0.9997987151145935
","x: 273.6328125
y: 310.80572509765625
z: -0.0696440264582634
visibility: 0.9925929307937622
","x: 210.36712646484375
y: 308.594970703125
z: -0.04550148546695709
visibility: 0.9780463576316833
","x: 281.88287353515625
y: 276.1811218261719
z: -0.29871970415115356
visibility: 0.9960607290267944
","x: 201.3701629638672
y: 272.3880310058594
z: -0.2906973659992218
visibility: 0.9871804118156433
","x: 283.6169128417969
y: 267.4452819824219
z: -0.3450140058994293
visibility: 0.9877907633781433
","x: 199.29054260253906
y: 260.7236633300781
z: -0.3353530764579773
visibility: 0.9691430926322937
","x: 283.2953796386719
y: 264.42608642578125
z: -0.34766489267349243
visibility: 0.9876493215560913
","x: 200.1344757080078
y: 255.18161010742188
z: -0.3460610508918762
visibility: 0.967654287815094
","x: 282.267333984375
y: 265.8923645019531
z: -0.3051968812942505
visibility: 0.9791772365570068
","x: 201.23728942871094
y: 257.95355224609375
z: -0.3013351857662201
visibility: 0.9534081816673279
","x: 255.5929718017578
y: 366.2950134277344
z: 0.007518332451581955
visibility: 0.9996938705444336
","x: 231.1646270751953
y: 363.4219055175781
z: -0.007477671839296818
visibility: 0.999527633190155
","x: 258.2459411621094
y: 456.41357421875
z: -0.007476842496544123
visibility: 0.992610514163971
","x: 225.33786010742188
y: 454.515869140625
z: -0.02373620867729187
visibility: 0.9914946556091309
","x: 258.39599609375
y: 534.6312255859375
z: 0.17241594195365906
visibility: 0.9907055497169495
","x: 216.98410034179688
y: 528.1566162109375
z: 0.15502655506134033
visibility: 0.9880626201629639
","x: 256.3144226074219
y: 543.912841796875
z: 0.18333174288272858
visibility: 0.8895837664604187
","x: 216.09332275390625
y: 537.587646484375
z: 0.16569176316261292
visibility: 0.8183754682540894
","x: 260.4409484863281
y: 557.7618408203125
z: 0.05209483578801155
visibility: 0.9862222075462341
","x: 217.44003295898438
y: 556.1792602539062
z: 0.03284724801778793
visibility: 0.9826592803001404
",,,,,,,,,,,,,,,,,,,,,,"x: 282.4747619628906
y: 273.1357116699219
z: 0.0
","x: 281.0417785644531
y: 268.32208251953125
z: -0.0008143093436956406
","x: 280.8719787597656
y: 262.61651611328125
z: -0.002050007227808237
","x: 282.15679931640625
y: 259.5190124511719
z: -0.003968110308051109
","x: 283.9006042480469
y: 258.5079345703125
z: -0.005461873486638069
","x: 283.015380859375
y: 257.6401062011719
z: -0.00028285622829571366
","x: 283.6502380371094
y: 253.8499755859375
z: -0.0035278748255223036
","x: 282.9759521484375
y: 256.84332275390625
z: -0.004873133730143309
","x: 282.59991455078125
y: 259.6482849121094
z: -0.005277227144688368
","x: 284.7353515625
y: 259.1068115234375
z: -0.0018727494170889258
","x: 285.4354553222656
y: 255.45822143554688
z: -0.005460178013890982
","x: 284.4949035644531
y: 259.1842041015625
z: -0.006011591758579016
","x: 283.9373779296875
y: 261.79193115234375
z: -0.005561270285397768
","x: 286.39404296875
y: 261.3249816894531
z: -0.004026688169687986
","x: 287.1827392578125
y: 257.6490478515625
z: -0.006957971025258303
","x: 286.14288330078125
y: 260.90887451171875
z: -0.006011298857629299
","x: 285.3830261230469
y: 263.3966369628906
z: -0.004709462635219097
","x: 287.95159912109375
y: 264.3108825683594
z: -0.006501398980617523
","x: 288.7540283203125
y: 260.6829833984375
z: -0.00776352034881711
","x: 287.7817687988281
y: 262.5796813964844
z: -0.006871936377137899
","x: 286.949951171875
y: 264.5838928222656
z: -0.005799634847790003
"
10,"x: 247.68385314941406
y: 207.7725830078125
z: -0.1896486133337021
visibility: 0.9999832510948181
","x: 249.89796447753906
y: 201.17469787597656
z: -0.17138764262199402
visibility: 0.9999668002128601
","x: 251.53292846679688
y: 201.63906860351562
z: -0.17143210768699646
visibility: 0.9999650716781616
","x: 253.04083251953125
y: 202.11846923828125
z: -0.17144186794757843
visibility: 0.9999648928642273
","x: 244.55801391601562
y: 200.98776245117188
z: -0.17066530883312225
visibility: 0.9999516010284424
","x: 242.63723754882812
y: 201.263916015625
z: -0.17067135870456696
visibility: 0.9999447464942932
","x: 241.13742065429688
y: 201.53176879882812
z: -0.17062635719776154
visibility: 0.9999448657035828
","x: 255.60581970214844
y: 207.6973876953125
z: -0.05259454995393753
visibility: 0.9999184012413025
","x: 238.87730407714844
y: 206.41868591308594
z: -0.049880921840667725
visibility: 0.9998509883880615
","x: 250.95074462890625
y: 216.85540771484375
z: -0.1453143060207367
visibility: 0.9999732971191406
","x: 244.37704467773438
y: 216.11349487304688
z: -0.14461304247379303
visibility: 0.9999625086784363
","x: 267.62957763671875
y: 254.4585418701172
z: 0.01959143951535225
visibility: 0.9999551773071289
","x: 228.84695434570312
y: 249.97491455078125
z: 0.027584398165345192
visibility: 0.9998090863227844
","x: 276.5465393066406
y: 311.921142578125
z: -0.08328413218259811
visibility: 0.9924765825271606
","x: 219.12136840820312
y: 313.7828674316406
z: -0.05888690426945686
visibility: 0.9762887358665466
","x: 283.5802917480469
y: 281.0333251953125
z: -0.3431621491909027
visibility: 0.996107816696167
","x: 210.99525451660156
y: 287.6861877441406
z: -0.3096701204776764
visibility: 0.9874280691146851
","x: 284.8812255859375
y: 273.5965270996094
z: -0.3959180414676666
visibility: 0.9880987405776978
","x: 207.74314880371094
y: 278.517333984375
z: -0.3558516502380371
visibility: 0.9702856540679932
","x: 284.1551513671875
y: 269.3602294921875
z: -0.40017157793045044
visibility: 0.9879934191703796
","x: 207.1977996826172
y: 273.24072265625
z: -0.36179110407829285
visibility: 0.9690149426460266
","x: 283.4476623535156
y: 271.58172607421875
z: -0.35219845175743103
visibility: 0.9798354506492615
","x: 208.85092163085938
y: 275.5623779296875
z: -0.3196175694465637
visibility: 0.9554877281188965
","x: 257.5470275878906
y: 367.90093994140625
z: 0.005734469275921583
visibility: 0.9997020363807678
","x: 233.7410888671875
y: 364.24603271484375
z: -0.005715846084058285
visibility: 0.9995372295379639
","x: 258.82208251953125
y: 456.7589111328125
z: -0.011286764405667782
visibility: 0.9926962852478027
","x: 225.98101806640625
y: 455.344970703125
z: -0.023512592539191246
visibility: 0.9914834499359131
","x: 258.3797302246094
y: 534.822021484375
z: 0.17486973106861115
visibility: 0.990653395652771
","x: 217.1173858642578
y: 528.169189453125
z: 0.1604398638010025
visibility: 0.9880086779594421
","x: 256.2998046875
y: 544.1986083984375
z: 0.1861482709646225
visibility: 0.8880570530891418
","x: 216.24168395996094
y: 537.5940551757812
z: 0.1717587113380432
visibility: 0.8175917863845825
","x: 260.14044189453125
y: 557.7454223632812
z: 0.053758006542921066
visibility: 0.9861108064651489
","x: 217.4978485107422
y: 556.2149658203125
z: 0.03806838393211365
visibility: 0.9826215505599976
",,,,,,,,,,,,,,,,,,,,,,,,,,,,,,,,,,,,,,,,,,
11,"x: 247.76792907714844
y: 207.9983673095703
z: -0.23737263679504395
visibility: 0.999984085559845
","x: 249.9033966064453
y: 201.2451934814453
z: -0.21895715594291687
visibility: 0.9999690055847168
","x: 251.67372131347656
y: 201.62855529785156
z: -0.21898145973682404
visibility: 0.9999672770500183
","x: 253.09030151367188
y: 202.0500030517578
z: -0.2189949005842209
visibility: 0.9999670386314392
","x: 244.59100341796875
y: 201.2555694580078
z: -0.2175302803516388
visibility: 0.9999548196792603
","x: 242.9278564453125
y: 201.6934051513672
z: -0.21755072474479675
visibility: 0.9999485015869141
","x: 241.3662567138672
y: 202.0963134765625
z: -0.2175384759902954
visibility: 0.9999486804008484
","x: 255.93804931640625
y: 207.5698699951172
z: -0.09644148498773575
visibility: 0.9999244809150696
","x: 239.5018768310547
y: 207.11297607421875
z: -0.08956526219844818
visibility: 0.9998632073402405
","x: 251.2506561279297
y: 216.98489379882812
z: -0.19138436019420624
visibility: 0.9999753832817078
","x: 244.7398223876953
y: 216.40760803222656
z: -0.18967898190021515
visibility: 0.9999655485153198
","x: 269.1451721191406
y: 255.2083740234375
z: -0.01629151962697506
visibility: 0.999954342842102
","x: 229.39768981933594
y: 250.34823608398438
z: -0.01647249050438404
visibility: 0.9998131990432739
","x: 278.67132568359375
y: 311.8930969238281
z: -0.15180227160453796
visibility: 0.9918704628944397
","x: 216.94949340820312
y: 310.9705505371094
z: -0.13245005905628204
visibility: 0.9769411683082581
","x: 281.18280029296875
y: 287.716552734375
z: -0.4153493046760559
visibility: 0.9951493144035339
","x: 218.2705535888672
y: 286.42138671875
z: -0.3854725658893585
visibility: 0.9867264032363892
","x: 280.4852600097656
y: 280.82965087890625
z: -0.4667518138885498
visibility: 0.985717236995697
","x: 220.28175354003906
y: 278.15582275390625
z: -0.4354579448699951
visibility: 0.968600869178772
","x: 278.9930419921875
y: 275.814453125
z: -0.46275144815444946
visibility: 0.9855288863182068
","x: 221.60545349121094
y: 273.039794921875
z: -0.4339178502559662
visibility: 0.9671780467033386
","x: 277.9067687988281
y: 277.6987609863281
z: -0.41952961683273315
visibility: 0.9758527278900146
","x: 221.85879516601562
y: 275.6191711425781
z: -0.3904159665107727
visibility: 0.9526996612548828
","x: 257.4254455566406
y: 368.9020080566406
z: 0.005157977808266878
visibility: 0.9997007846832275
","x: 233.30987548828125
y: 364.510009765625
z: -0.005179709754884243
visibility: 0.9995378851890564
","x: 258.7575988769531
y: 456.7991943359375
z: -0.01194457896053791
visibility: 0.992892861366272
","x: 225.3915252685547
y: 455.1823425292969
z: -0.023014629259705544
visibility: 0.99178546667099
","x: 258.3670654296875
y: 534.8186645507812
z: 0.19594654440879822
visibility: 0.9909302592277527
","x: 217.08209228515625
y: 527.824951171875
z: 0.1767207235097885
visibility: 0.9883742928504944
","x: 256.2785949707031
y: 544.1343994140625
z: 0.2097737342119217
visibility: 0.8883131742477417
","x: 216.23666381835938
y: 537.0227661132812
z: 0.18983080983161926
visibility: 0.8190434575080872
","x: 259.3658142089844
y: 557.5142822265625
z: 0.06757199764251709
visibility: 0.986399233341217
","x: 217.50494384765625
y: 556.068359375
z: 0.046000611037015915
visibility: 0.9829977750778198
",,,,,,,,,,,,,,,,,,,,,,,,,,,,,,,,,,,,,,,,,,
12,"x: 247.24453735351562
y: 208.3511199951172
z: -0.2456749677658081
visibility: 0.9999855756759644
","x: 249.605224609375
y: 201.7596435546875
z: -0.2263234406709671
visibility: 0.9999719262123108
","x: 251.3242950439453
y: 202.301513671875
z: -0.22632896900177002
visibility: 0.9999703168869019
","x: 252.85955810546875
y: 202.85218811035156
z: -0.2263268530368805
visibility: 0.9999701380729675
","x: 244.2542266845703
y: 201.36318969726562
z: -0.22839048504829407
visibility: 0.9999591708183289
","x: 242.47640991210938
y: 201.68881225585938
z: -0.22839510440826416
visibility: 0.9999534487724304
","x: 240.96646118164062
y: 202.05908203125
z: -0.22835370898246765
visibility: 0.9999536275863647
","x: 255.2926025390625
y: 208.13528442382812
z: -0.10096365213394165
visibility: 0.9999316334724426
","x: 238.83255004882812
y: 206.96755981445312
z: -0.11195625364780426
visibility: 0.9998766779899597
","x: 250.84799194335938
y: 217.30072021484375
z: -0.19833390414714813
visibility: 0.9999777674674988
","x: 244.24180603027344
y: 216.43231201171875
z: -0.20162808895111084
visibility: 0.9999688863754272
","x: 267.0827331542969
y: 255.44210815429688
z: -0.01831303909420967
visibility: 0.9999575614929199
","x: 226.01199340820312
y: 250.67543029785156
z: -0.03183411806821823
visibility: 0.9998292326927185
","x: 278.46270751953125
y: 312.0762023925781
z: -0.15040795505046844
visibility: 0.9920254945755005
","x: 207.16552734375
y: 306.4720458984375
z: -0.13269111514091492
visibility: 0.9787187576293945
","x: 270.9501647949219
y: 292.1127014160156
z: -0.3935239315032959
visibility: 0.9950092434883118
","x: 220.27896118164062
y: 285.44140625
z: -0.3687630891799927
visibility: 0.9872037768363953
","x: 268.8937072753906
y: 286.2756652832031
z: -0.44078129529953003
visibility: 0.9852190613746643
","x: 225.33201599121094
y: 280.6933288574219
z: -0.41640108823776245
visibility: 0.9691669940948486
","x: 266.2366027832031
y: 281.495849609375
z: -0.43871942162513733
visibility: 0.9850038290023804
","x: 227.3389892578125
y: 275.2948913574219
z: -0.4143208861351013
visibility: 0.9676452875137329
","x: 265.6404724121094
y: 282.6638488769531
z: -0.39943450689315796
visibility: 0.9748567342758179
","x: 226.45834350585938
y: 276.728271484375
z: -0.37197890877723694
visibility: 0.9529688358306885
","x: 254.8220977783203
y: 368.86883544921875
z: 0.005749586038291454
visibility: 0.9997073411941528
","x: 230.69728088378906
y: 364.41363525390625
z: -0.005815277807414532
visibility: 0.9995555877685547
","x: 256.15887451171875
y: 456.7383117675781
z: 0.00022132208687253296
visibility: 0.993179440498352
","x: 221.96682739257812
y: 455.131103515625
z: -0.022916125133633614
visibility: 0.9921663403511047
","x: 258.3353576660156
y: 534.7692260742188
z: 0.19548390805721283
visibility: 0.9912949800491333
","x: 214.35772705078125
y: 528.2367553710938
z: 0.17226147651672363
visibility: 0.9887627959251404
","x: 256.23455810546875
y: 544.0428466796875
z: 0.20771503448486328
visibility: 0.8905492424964905
","x: 214.720947265625
y: 537.6961669921875
z: 0.18438147008419037
visibility: 0.821724534034729
","x: 259.4641418457031
y: 557.2542114257812
z: 0.0683845803141594
visibility: 0.9867925643920898
","x: 212.423095703125
y: 555.8870849609375
z: 0.04446851834654808
visibility: 0.9833151698112488
",,,,,,,,,,,,,,,,,,,,,,,,,,,,,,,,,,,,,,,,,,
13,"x: 242.20533752441406
y: 209.25387573242188
z: -0.17415766417980194
visibility: 0.999987006187439
","x: 245.193359375
y: 203.54013061523438
z: -0.15282945334911346
visibility: 0.9999746680259705
","x: 246.82960510253906
y: 204.45494079589844
z: -0.15284354984760284
visibility: 0.9999732375144958
","x: 248.37628173828125
y: 205.3166046142578
z: -0.15285302698612213
visibility: 0.9999730587005615
","x: 241.1720428466797
y: 201.7119140625
z: -0.15852729976177216
visibility: 0.9999632239341736
","x: 239.3851776123047
y: 201.69705200195312
z: -0.1584869623184204
visibility: 0.9999580383300781
","x: 237.9749298095703
y: 201.90809631347656
z: -0.15839694440364838
visibility: 0.9999582171440125
","x: 250.3795623779297
y: 210.93789672851562
z: -0.02754671312868595
visibility: 0.9999383091926575
","x: 234.30076599121094
y: 206.03573608398438
z: -0.05798119306564331
visibility: 0.9998889565467834
","x: 243.21078491210938
y: 218.45741271972656
z: -0.12746450304985046
visibility: 0.9999799728393555
","x: 238.14633178710938
y: 216.52011108398438
z: -0.136123925447464
visibility: 0.9999719858169556
","x: 256.94512939453125
y: 255.72105407714844
z: 0.052885979413986206
visibility: 0.9999615550041199
","x: 217.0423583984375
y: 250.35488891601562
z: 0.01014317199587822
visibility: 0.9998458027839661
","x: 264.7848815917969
y: 312.1752624511719
z: -0.01632494106888771
visibility: 0.991744339466095
","x: 199.64988708496094
y: 304.45587158203125
z: -0.06948396563529968
visibility: 0.9802220463752747
","x: 271.84649658203125
y: 290.4834289550781
z: -0.24982735514640808
visibility: 0.9952489137649536
","x: 219.43368530273438
y: 294.452880859375
z: -0.27772170305252075
visibility: 0.9880696535110474
","x: 276.41107177734375
y: 283.6022644042969
z: -0.2990216612815857
visibility: 0.9860363006591797
","x: 219.9650115966797
y: 300.06854248046875
z: -0.3226369321346283
visibility: 0.9711125493049622
","x: 275.9357604980469
y: 278.6648254394531
z: -0.3081818222999573
visibility: 0.9858719706535339
","x: 221.5565643310547
y: 294.349365234375
z: -0.32421353459358215
visibility: 0.969706654548645
","x: 272.8451232910156
y: 280.1680908203125
z: -0.2599639594554901
visibility: 0.9763386249542236
","x: 221.41407775878906
y: 292.6123352050781
z: -0.28158414363861084
visibility: 0.9559118151664734
","x: 247.10452270507812
y: 367.096435546875
z: 0.01063260156661272
visibility: 0.9997276663780212
","x: 223.0968475341797
y: 364.3087158203125
z: -0.010663417167961597
visibility: 0.9995887875556946
","x: 252.4125518798828
y: 455.94317626953125
z: 0.0075966366566717625
visibility: 0.9934504628181458
","x: 219.13682556152344
y: 454.8248596191406
z: -0.03516718000173569
visibility: 0.9923558235168457
","x: 258.2132263183594
y: 534.7662963867188
z: 0.16968505084514618
visibility: 0.9916293621063232
","x: 212.98013305664062
y: 529.7493286132812
z: 0.13298386335372925
visibility: 0.9890056252479553
","x: 256.22088623046875
y: 544.0234375
z: 0.17799445986747742
visibility: 0.8925579190254211
","x: 213.64955139160156
y: 539.921142578125
z: 0.14303967356681824
visibility: 0.8240013718605042
","x: 260.13140869140625
y: 556.889404296875
z: 0.049282435327768326
visibility: 0.9871751070022583
","x: 211.19842529296875
y: 555.7052001953125
z: 0.01381821371614933
visibility: 0.9835600852966309
",,,,,,,,,,,,,,,,,,,,,,"x: 271.442626953125
y: 283.8958435058594
z: 0.0
","x: 270.30206298828125
y: 279.00433349609375
z: -0.003017993876710534
","x: 271.3191833496094
y: 273.7671203613281
z: -0.004711195360869169
","x: 273.1717529296875
y: 271.0061340332031
z: -0.006422725971788168
","x: 274.99578857421875
y: 269.5538024902344
z: -0.008108838461339474
","x: 277.12506103515625
y: 271.8659362792969
z: -0.0016084337839856744
","x: 280.1692810058594
y: 268.9819030761719
z: -0.0037068750243633986
","x: 282.3223876953125
y: 267.5134582519531
z: -0.005270873196423054
","x: 283.9721984863281
y: 266.81451416015625
z: -0.006267220713198185
","x: 278.6748962402344
y: 274.6936340332031
z: -0.0019206887809559703
","x: 281.96258544921875
y: 271.75103759765625
z: -0.0038067237474024296
","x: 284.2033996582031
y: 270.2862854003906
z: -0.00536876916885376
","x: 286.0470886230469
y: 269.44635009765625
z: -0.0064599281176924706
","x: 279.571044921875
y: 278.22637939453125
z: -0.0027820905670523643
","x: 282.97509765625
y: 275.7691345214844
z: -0.005110258236527443
","x: 285.0638427734375
y: 274.5745544433594
z: -0.006692860275506973
","x: 286.6680603027344
y: 273.8966064453125
z: -0.007623111363500357
","x: 279.8863525390625
y: 282.5945739746094
z: -0.004027999937534332
","x: 282.9904479980469
y: 281.8415222167969
z: -0.0061822631396353245
","x: 285.0821533203125
y: 281.7100524902344
z: -0.0074299173429608345
","x: 286.75152587890625
y: 281.7846374511719
z: -0.00812713336199522
"
14,"x: 242.20533752441406
y: 209.25387573242188
z: -0.17415766417980194
visibility: 0.999987006187439
","x: 245.193359375
y: 203.54013061523438
z: -0.15282945334911346
visibility: 0.9999746680259705
","x: 246.82960510253906
y: 204.45494079589844
z: -0.15284354984760284
visibility: 0.9999732375144958
","x: 248.37628173828125
y: 205.3166046142578
z: -0.15285302698612213
visibility: 0.9999730587005615
","x: 241.1720428466797
y: 201.7119140625
z: -0.15852729976177216
visibility: 0.9999632239341736
","x: 239.3851776123047
y: 201.69705200195312
z: -0.1584869623184204
visibility: 0.9999580383300781
","x: 237.9749298095703
y: 201.90809631347656
z: -0.15839694440364838
visibility: 0.9999582171440125
","x: 250.3795623779297
y: 210.93789672851562
z: -0.02754671312868595
visibility: 0.9999383091926575
","x: 234.30076599121094
y: 206.03573608398438
z: -0.05798119306564331
visibility: 0.9998889565467834
","x: 243.21078491210938
y: 218.45741271972656
z: -0.12746450304985046
visibility: 0.9999799728393555
","x: 238.14633178710938
y: 216.52011108398438
z: -0.136123925447464
visibility: 0.9999719858169556
","x: 256.94512939453125
y: 255.72105407714844
z: 0.052885979413986206
visibility: 0.9999615550041199
","x: 217.0423583984375
y: 250.35488891601562
z: 0.01014317199587822
visibility: 0.9998458027839661
","x: 264.7848815917969
y: 312.1752624511719
z: -0.01632494106888771
visibility: 0.991744339466095
","x: 199.64988708496094
y: 304.45587158203125
z: -0.06948396563529968
visibility: 0.9802220463752747
","x: 271.84649658203125
y: 290.4834289550781
z: -0.24982735514640808
visibility: 0.9952489137649536
","x: 219.43368530273438
y: 294.452880859375
z: -0.27772170305252075
visibility: 0.9880696535110474
","x: 276.41107177734375
y: 283.6022644042969
z: -0.2990216612815857
visibility: 0.9860363006591797
","x: 219.9650115966797
y: 300.06854248046875
z: -0.3226369321346283
visibility: 0.9711125493049622
","x: 275.9357604980469
y: 278.6648254394531
z: -0.3081818222999573
visibility: 0.9858719706535339
","x: 221.5565643310547
y: 294.349365234375
z: -0.32421353459358215
visibility: 0.969706654548645
","x: 272.8451232910156
y: 280.1680908203125
z: -0.2599639594554901
visibility: 0.9763386249542236
","x: 221.41407775878906
y: 292.6123352050781
z: -0.28158414363861084
visibility: 0.9559118151664734
","x: 247.10452270507812
y: 367.096435546875
z: 0.01063260156661272
visibility: 0.9997276663780212
","x: 223.0968475341797
y: 364.3087158203125
z: -0.010663417167961597
visibility: 0.9995887875556946
","x: 252.4125518798828
y: 455.94317626953125
z: 0.0075966366566717625
visibility: 0.9934504628181458
","x: 219.13682556152344
y: 454.8248596191406
z: -0.03516718000173569
visibility: 0.9923558235168457
","x: 258.2132263183594
y: 534.7662963867188
z: 0.16968505084514618
visibility: 0.9916293621063232
","x: 212.98013305664062
y: 529.7493286132812
z: 0.13298386335372925
visibility: 0.9890056252479553
","x: 256.22088623046875
y: 544.0234375
z: 0.17799445986747742
visibility: 0.8925579190254211
","x: 213.64955139160156
y: 539.921142578125
z: 0.14303967356681824
visibility: 0.8240013718605042
","x: 260.13140869140625
y: 556.889404296875
z: 0.049282435327768326
visibility: 0.9871751070022583
","x: 211.19842529296875
y: 555.7052001953125
z: 0.01381821371614933
visibility: 0.9835600852966309
",,,,,,,,,,,,,,,,,,,,,,"x: 271.442626953125
y: 283.8958435058594
z: 0.0
","x: 270.30206298828125
y: 279.00433349609375
z: -0.003017993876710534
","x: 271.3191833496094
y: 273.7671203613281
z: -0.004711195360869169
","x: 273.1717529296875
y: 271.0061340332031
z: -0.006422725971788168
","x: 274.99578857421875
y: 269.5538024902344
z: -0.008108838461339474
","x: 277.12506103515625
y: 271.8659362792969
z: -0.0016084337839856744
","x: 280.1692810058594
y: 268.9819030761719
z: -0.0037068750243633986
","x: 282.3223876953125
y: 267.5134582519531
z: -0.005270873196423054
","x: 283.9721984863281
y: 266.81451416015625
z: -0.006267220713198185
","x: 278.6748962402344
y: 274.6936340332031
z: -0.0019206887809559703
","x: 281.96258544921875
y: 271.75103759765625
z: -0.0038067237474024296
","x: 284.2033996582031
y: 270.2862854003906
z: -0.00536876916885376
","x: 286.0470886230469
y: 269.44635009765625
z: -0.0064599281176924706
","x: 279.571044921875
y: 278.22637939453125
z: -0.0027820905670523643
","x: 282.97509765625
y: 275.7691345214844
z: -0.005110258236527443
","x: 285.0638427734375
y: 274.5745544433594
z: -0.006692860275506973
","x: 286.6680603027344
y: 273.8966064453125
z: -0.007623111363500357
","x: 279.8863525390625
y: 282.5945739746094
z: -0.004027999937534332
","x: 282.9904479980469
y: 281.8415222167969
z: -0.0061822631396353245
","x: 285.0821533203125
y: 281.7100524902344
z: -0.0074299173429608345
","x: 286.75152587890625
y: 281.7846374511719
z: -0.00812713336199522
"
15,"x: 235.55630493164062
y: 209.52731323242188
z: -0.166720911860466
visibility: 0.999988317489624
","x: 238.5347900390625
y: 204.190673828125
z: -0.14399182796478271
visibility: 0.999977171421051
","x: 240.08180236816406
y: 205.1852569580078
z: -0.14400210976600647
visibility: 0.999975860118866
","x: 241.534423828125
y: 206.05567932128906
z: -0.14401504397392273
visibility: 0.9999756813049316
","x: 234.849609375
y: 201.74879455566406
z: -0.151485875248909
visibility: 0.9999668598175049
","x: 233.38153076171875
y: 201.6387939453125
z: -0.15144288539886475
visibility: 0.9999622106552124
","x: 231.89886474609375
y: 201.4267120361328
z: -0.1513487696647644
visibility: 0.999962329864502
","x: 242.67958068847656
y: 211.0721435546875
z: -0.01593286171555519
visibility: 0.9999443888664246
","x: 227.79039001464844
y: 204.3419189453125
z: -0.054575808346271515
visibility: 0.9999000430107117
","x: 235.86790466308594
y: 218.55960083007812
z: -0.11925806850194931
visibility: 0.9999819397926331
","x: 231.1761474609375
y: 216.4676513671875
z: -0.1303730607032776
visibility: 0.99997478723526
","x: 248.94725036621094
y: 254.37574768066406
z: 0.062198977917432785
visibility: 0.9999653100967407
","x: 208.84950256347656
y: 249.25640869140625
z: 0.014079660177230835
visibility: 0.9998608827590942
","x: 260.02996826171875
y: 303.71759033203125
z: 0.011948374100029469
visibility: 0.9920585751533508
","x: 193.5864715576172
y: 302.7218933105469
z: -0.06556536257266998
visibility: 0.98152095079422
","x: 275.8211364746094
y: 284.86712646484375
z: -0.21224138140678406
visibility: 0.9956071376800537
","x: 207.328857421875
y: 301.43914794921875
z: -0.27847400307655334
visibility: 0.9888807535171509
","x: 284.12359619140625
y: 283.0575256347656
z: -0.2610887885093689
visibility: 0.98710036277771
","x: 212.8422088623047
y: 310.1321716308594
z: -0.32382363080978394
visibility: 0.9730294346809387
","x: 283.80999755859375
y: 277.9648742675781
z: -0.2765718102455139
visibility: 0.9869847893714905
","x: 215.50433349609375
y: 305.7711181640625
z: -0.33125466108322144
visibility: 0.9717748165130615
","x: 280.6519775390625
y: 278.6623229980469
z: -0.2253333330154419
visibility: 0.9782297611236572
","x: 214.03701782226562
y: 302.544677734375
z: -0.2849789261817932
visibility: 0.9588837027549744
","x: 242.11709594726562
y: 363.663818359375
z: 0.01233536098152399
visibility: 0.9997497200965881
","x: 218.7416534423828
y: 363.36138916015625
z: -0.012361304834485054
visibility: 0.999622642993927
","x: 250.47320556640625
y: 455.28851318359375
z: 0.0062975334003567696
visibility: 0.9938592314720154
","x: 216.40322875976562
y: 454.5628356933594
z: -0.04734877496957779
visibility: 0.9926241636276245
","x: 257.94268798828125
y: 533.891357421875
z: 0.15284661948680878
visibility: 0.9920812249183655
","x: 211.9379119873047
y: 529.7783203125
z: 0.1221662163734436
visibility: 0.9893743991851807
","x: 256.20111083984375
y: 542.9619140625
z: 0.1604643315076828
visibility: 0.8954615592956543
","x: 213.23721313476562
y: 540.1337280273438
z: 0.13205882906913757
visibility: 0.8283807635307312
","x: 260.83245849609375
y: 556.6663818359375
z: 0.03136887401342392
visibility: 0.9877341389656067
","x: 210.26284790039062
y: 555.65234375
z: 0.005021959543228149
visibility: 0.9840074181556702
",,,,,,,,,,,,,,,,,,,,,,"x: 276.3580322265625
y: 280.6333312988281
z: 0.0
","x: 281.4537353515625
y: 280.45623779296875
z: -0.0006567038362845778
","x: 286.0322265625
y: 278.6155700683594
z: -0.0011423721443861723
","x: 289.9971923828125
y: 278.1571044921875
z: -0.002176818437874317
","x: 293.0188903808594
y: 278.7486267089844
z: -0.0029156680684536695
","x: 285.6553649902344
y: 269.2762451171875
z: 0.000698294781614095
","x: 290.3203430175781
y: 269.5220642089844
z: -0.0013843963388353586
","x: 292.3814392089844
y: 272.99981689453125
z: -0.0025713604409247637
","x: 293.3687438964844
y: 276.3995666503906
z: -0.00302251148968935
","x: 284.5345153808594
y: 267.29248046875
z: -0.0004292023368179798
","x: 289.34393310546875
y: 267.84344482421875
z: -0.0026232157833874226
","x: 291.5585021972656
y: 271.6064147949219
z: -0.003666527569293976
","x: 292.54791259765625
y: 275.3229675292969
z: -0.004041609354317188
","x: 283.2286071777344
y: 266.7778015136719
z: -0.0019274069927632809
","x: 287.7955627441406
y: 266.9068603515625
z: -0.004094115924090147
","x: 289.7466125488281
y: 270.2685852050781
z: -0.004265990573912859
","x: 290.6002197265625
y: 273.8333435058594
z: -0.004003808833658695
","x: 281.89898681640625
y: 267.50958251953125
z: -0.0037129055708646774
","x: 285.57061767578125
y: 266.5778503417969
z: -0.005464363377541304
","x: 287.5234375
y: 268.5311279296875
z: -0.005418017972260714
","x: 288.56109619140625
y: 271.06512451171875
z: -0.004932809621095657
"
16,"x: 235.55630493164062
y: 209.52731323242188
z: -0.166720911860466
visibility: 0.999988317489624
","x: 238.5347900390625
y: 204.190673828125
z: -0.14399182796478271
visibility: 0.999977171421051
","x: 240.08180236816406
y: 205.1852569580078
z: -0.14400210976600647
visibility: 0.999975860118866
","x: 241.534423828125
y: 206.05567932128906
z: -0.14401504397392273
visibility: 0.9999756813049316
","x: 234.849609375
y: 201.74879455566406
z: -0.151485875248909
visibility: 0.9999668598175049
","x: 233.38153076171875
y: 201.6387939453125
z: -0.15144288539886475
visibility: 0.9999622106552124
","x: 231.89886474609375
y: 201.4267120361328
z: -0.1513487696647644
visibility: 0.999962329864502
","x: 242.67958068847656
y: 211.0721435546875
z: -0.01593286171555519
visibility: 0.9999443888664246
","x: 227.79039001464844
y: 204.3419189453125
z: -0.054575808346271515
visibility: 0.9999000430107117
","x: 235.86790466308594
y: 218.55960083007812
z: -0.11925806850194931
visibility: 0.9999819397926331
","x: 231.1761474609375
y: 216.4676513671875
z: -0.1303730607032776
visibility: 0.99997478723526
","x: 248.94725036621094
y: 254.37574768066406
z: 0.062198977917432785
visibility: 0.9999653100967407
","x: 208.84950256347656
y: 249.25640869140625
z: 0.014079660177230835
visibility: 0.9998608827590942
","x: 260.02996826171875
y: 303.71759033203125
z: 0.011948374100029469
visibility: 0.9920585751533508
","x: 193.5864715576172
y: 302.7218933105469
z: -0.06556536257266998
visibility: 0.98152095079422
","x: 275.8211364746094
y: 284.86712646484375
z: -0.21224138140678406
visibility: 0.9956071376800537
","x: 207.328857421875
y: 301.43914794921875
z: -0.27847400307655334
visibility: 0.9888807535171509
","x: 284.12359619140625
y: 283.0575256347656
z: -0.2610887885093689
visibility: 0.98710036277771
","x: 212.8422088623047
y: 310.1321716308594
z: -0.32382363080978394
visibility: 0.9730294346809387
","x: 283.80999755859375
y: 277.9648742675781
z: -0.2765718102455139
visibility: 0.9869847893714905
","x: 215.50433349609375
y: 305.7711181640625
z: -0.33125466108322144
visibility: 0.9717748165130615
","x: 280.6519775390625
y: 278.6623229980469
z: -0.2253333330154419
visibility: 0.9782297611236572
","x: 214.03701782226562
y: 302.544677734375
z: -0.2849789261817932
visibility: 0.9588837027549744
","x: 242.11709594726562
y: 363.663818359375
z: 0.01233536098152399
visibility: 0.9997497200965881
","x: 218.7416534423828
y: 363.36138916015625
z: -0.012361304834485054
visibility: 0.999622642993927
","x: 250.47320556640625
y: 455.28851318359375
z: 0.0062975334003567696
visibility: 0.9938592314720154
","x: 216.40322875976562
y: 454.5628356933594
z: -0.04734877496957779
visibility: 0.9926241636276245
","x: 257.94268798828125
y: 533.891357421875
z: 0.15284661948680878
visibility: 0.9920812249183655
","x: 211.9379119873047
y: 529.7783203125
z: 0.1221662163734436
visibility: 0.9893743991851807
","x: 256.20111083984375
y: 542.9619140625
z: 0.1604643315076828
visibility: 0.8954615592956543
","x: 213.23721313476562
y: 540.1337280273438
z: 0.13205882906913757
visibility: 0.8283807635307312
","x: 260.83245849609375
y: 556.6663818359375
z: 0.03136887401342392
visibility: 0.9877341389656067
","x: 210.26284790039062
y: 555.65234375
z: 0.005021959543228149
visibility: 0.9840074181556702
",,,,,,,,,,,,,,,,,,,,,,"x: 276.3580322265625
y: 280.6333312988281
z: 0.0
","x: 281.4537353515625
y: 280.45623779296875
z: -0.0006567038362845778
","x: 286.0322265625
y: 278.6155700683594
z: -0.0011423721443861723
","x: 289.9971923828125
y: 278.1571044921875
z: -0.002176818437874317
","x: 293.0188903808594
y: 278.7486267089844
z: -0.0029156680684536695
","x: 285.6553649902344
y: 269.2762451171875
z: 0.000698294781614095
","x: 290.3203430175781
y: 269.5220642089844
z: -0.0013843963388353586
","x: 292.3814392089844
y: 272.99981689453125
z: -0.0025713604409247637
","x: 293.3687438964844
y: 276.3995666503906
z: -0.00302251148968935
","x: 284.5345153808594
y: 267.29248046875
z: -0.0004292023368179798
","x: 289.34393310546875
y: 267.84344482421875
z: -0.0026232157833874226
","x: 291.5585021972656
y: 271.6064147949219
z: -0.003666527569293976
","x: 292.54791259765625
y: 275.3229675292969
z: -0.004041609354317188
","x: 283.2286071777344
y: 266.7778015136719
z: -0.0019274069927632809
","x: 287.7955627441406
y: 266.9068603515625
z: -0.004094115924090147
","x: 289.7466125488281
y: 270.2685852050781
z: -0.004265990573912859
","x: 290.6002197265625
y: 273.8333435058594
z: -0.004003808833658695
","x: 281.89898681640625
y: 267.50958251953125
z: -0.0037129055708646774
","x: 285.57061767578125
y: 266.5778503417969
z: -0.005464363377541304
","x: 287.5234375
y: 268.5311279296875
z: -0.005418017972260714
","x: 288.56109619140625
y: 271.06512451171875
z: -0.004932809621095657
"
17,"x: 229.06063842773438
y: 209.28256225585938
z: -0.16622194647789001
visibility: 0.9999894499778748
","x: 232.41465759277344
y: 204.14503479003906
z: -0.14229878783226013
visibility: 0.9999793767929077
","x: 233.88275146484375
y: 204.99205017089844
z: -0.1423151195049286
visibility: 0.9999781250953674
","x: 235.36831665039062
y: 205.7135772705078
z: -0.1423238217830658
visibility: 0.9999779462814331
","x: 228.1999053955078
y: 201.4929962158203
z: -0.1475258320569992
visibility: 0.9999700784683228
","x: 226.60977172851562
y: 201.0102081298828
z: -0.14749076962471008
visibility: 0.9999659061431885
","x: 224.8363800048828
y: 200.22265625
z: -0.147393599152565
visibility: 0.999966025352478
","x: 236.1725616455078
y: 210.68829345703125
z: -0.016305241733789444
visibility: 0.9999496936798096
","x: 220.719482421875
y: 202.63299560546875
z: -0.04319725185632706
visibility: 0.9999099373817444
","x: 229.58407592773438
y: 218.5394287109375
z: -0.12046440690755844
visibility: 0.9999836683273315
","x: 224.72142028808594
y: 216.1678924560547
z: -0.1282384842634201
visibility: 0.9999772906303406
","x: 243.0668182373047
y: 250.726318359375
z: 0.04523133859038353
visibility: 0.9999681115150452
","x: 202.77651977539062
y: 248.74510192871094
z: 0.015388515777885914
visibility: 0.9998728036880493
","x: 260.28826904296875
y: 277.9085388183594
z: -0.020316585898399353
visibility: 0.9919740557670593
","x: 188.01869201660156
y: 300.007568359375
z: -0.06911446899175644
visibility: 0.9828086495399475
","x: 283.7369384765625
y: 277.221435546875
z: -0.24514219164848328
visibility: 0.9955457448959351
","x: 199.4344482421875
y: 304.0862731933594
z: -0.300306499004364
visibility: 0.9894727468490601
","x: 291.269775390625
y: 283.32733154296875
z: -0.29473474621772766
visibility: 0.987338662147522
","x: 204.58560180664062
y: 311.9158935546875
z: -0.34708520770072937
visibility: 0.9743478298187256
","x: 290.5574035644531
y: 280.95635986328125
z: -0.3179554343223572
visibility: 0.9873875975608826
","x: 207.46762084960938
y: 308.59283447265625
z: -0.35228604078292847
visibility: 0.9732716679573059
","x: 287.717041015625
y: 279.0162353515625
z: -0.26144886016845703
visibility: 0.9792371988296509
","x: 206.11647033691406
y: 305.6885986328125
z: -0.30662116408348083
visibility: 0.961083710193634
","x: 238.61004638671875
y: 362.75439453125
z: 0.008158160373568535
visibility: 0.9997663497924805
","x: 214.72042846679688
y: 363.3985595703125
z: -0.008150276727974415
visibility: 0.9996446371078491
","x: 249.6205291748047
y: 453.408935546875
z: -0.0214022658765316
visibility: 0.9940574765205383
","x: 212.72520446777344
y: 453.68017578125
z: -0.039059121161699295
visibility: 0.9927557110786438
","x: 257.78533935546875
y: 531.197998046875
z: 0.14166292548179626
visibility: 0.9921859502792358
","x: 210.89053344726562
y: 530.4072265625
z: 0.11949263513088226
visibility: 0.9897401928901672
","x: 256.1762390136719
y: 539.3236694335938
z: 0.15007345378398895
visibility: 0.8916217088699341
","x: 212.5422821044922
y: 541.3914184570312
z: 0.12757954001426697
visibility: 0.8327302932739258
","x: 260.84197998046875
y: 555.9398803710938
z: 0.016296841204166412
visibility: 0.9876068830490112
","x: 209.493408203125
y: 555.43408203125
z: -0.006512513849884272
visibility: 0.9842764139175415
",,,,,,,,,,,,,,,,,,,,,,,,,,,,,,,,,,,,,,,,,,
18,"x: 224.451171875
y: 206.41954040527344
z: -0.172886461019516
visibility: 0.9999902248382568
","x: 227.7879180908203
y: 201.10806274414062
z: -0.15045250952243805
visibility: 0.9999806880950928
","x: 229.2646484375
y: 202.24388122558594
z: -0.1503937989473343
visibility: 0.9999793767929077
","x: 230.753173828125
y: 203.25933837890625
z: -0.1503482609987259
visibility: 0.9999791979789734
","x: 223.18679809570312
y: 197.7529754638672
z: -0.149837464094162
visibility: 0.9999724626541138
","x: 221.47288513183594
y: 196.8773193359375
z: -0.14963844418525696
visibility: 0.9999686479568481
","x: 220.01132202148438
y: 195.95556640625
z: -0.14930063486099243
visibility: 0.9999688267707825
","x: 231.67605590820312
y: 208.81788635253906
z: -0.0275263674557209
visibility: 0.9999532699584961
","x: 216.31350708007812
y: 199.32269287109375
z: -0.058369435369968414
visibility: 0.9999179840087891
","x: 225.6432342529297
y: 216.97698974609375
z: -0.13081708550453186
visibility: 0.9999849200248718
","x: 220.3491668701172
y: 214.01609802246094
z: -0.14312276244163513
visibility: 0.9999793171882629
","x: 239.36550903320312
y: 245.10507202148438
z: 0.020742142572999
visibility: 0.999970018863678
","x: 199.5460205078125
y: 248.39463806152344
z: 0.008780410513281822
visibility: 0.9998769760131836
","x: 262.510009765625
y: 265.49359130859375
z: -0.03802422806620598
visibility: 0.9923104047775269
","x: 185.57437133789062
y: 301.481201171875
z: -0.07585053145885468
visibility: 0.9837772846221924
","x: 283.187255859375
y: 279.885498046875
z: -0.2540792226791382
visibility: 0.9952499270439148
","x: 195.76683044433594
y: 304.40167236328125
z: -0.3064236044883728
visibility: 0.9898890256881714
","x: 289.19305419921875
y: 293.8191833496094
z: -0.30287933349609375
visibility: 0.9868282079696655
","x: 200.30003356933594
y: 310.55084228515625
z: -0.35458073019981384
visibility: 0.975334882736206
","x: 287.3143615722656
y: 295.90924072265625
z: -0.32715123891830444
visibility: 0.9870870113372803
","x: 203.1341552734375
y: 306.366455078125
z: -0.3579675853252411
visibility: 0.974434494972229
","x: 284.7718811035156
y: 292.84197998046875
z: -0.2696753442287445
visibility: 0.9793516397476196
","x: 202.07843017578125
y: 304.2010192871094
z: -0.31339892745018005
visibility: 0.962708055973053
","x: 235.8189239501953
y: 361.503662109375
z: -0.0012211984721943736
visibility: 0.9997607469558716
","x: 212.084228515625
y: 362.9215087890625
z: 0.00126661267131567
visibility: 0.9996236562728882
","x: 245.44349670410156
y: 452.6811218261719
z: -0.020704058930277824
visibility: 0.9942471981048584
","x: 210.48977661132812
y: 453.4403991699219
z: -0.024142496287822723
visibility: 0.9929378032684326
","x: 255.1957550048828
y: 530.9522705078125
z: 0.1148911714553833
visibility: 0.9924003481864929
","x: 210.5834197998047
y: 530.95166015625
z: 0.10943438857793808
visibility: 0.99007248878479
","x: 254.19786071777344
y: 539.0625610351562
z: 0.11901579797267914
visibility: 0.8852226734161377
","x: 212.63417053222656
y: 542.5963745117188
z: 0.11405396461486816
visibility: 0.8371763825416565
","x: 257.8479309082031
y: 555.9135131835938
z: -0.02246328443288803
visibility: 0.9874919056892395
","x: 208.671142578125
y: 555.2886962890625
z: -0.021024465560913086
visibility: 0.9845127463340759
",,,,,,,,,,,,,,,,,,,,,,,,,,,,,,,,,,,,,,,,,,
19,"x: 220.55348205566406
y: 206.51947021484375
z: -0.171623095870018
visibility: 0.9999909400939941
","x: 223.5743865966797
y: 201.06082153320312
z: -0.1485489457845688
visibility: 0.9999819993972778
","x: 225.1360321044922
y: 202.11801147460938
z: -0.14859163761138916
visibility: 0.9999807476997375
","x: 226.71612548828125
y: 203.0823516845703
z: -0.1486027091741562
visibility: 0.9999805688858032
","x: 218.73614501953125
y: 197.99359130859375
z: -0.15120132267475128
visibility: 0.9999745488166809
","x: 217.02052307128906
y: 197.20664978027344
z: -0.151149183511734
visibility: 0.9999710917472839
","x: 215.4239501953125
y: 196.44102478027344
z: -0.1510089933872223
visibility: 0.9999712705612183
","x: 227.93231201171875
y: 208.3916473388672
z: -0.02508305385708809
visibility: 0.9999569058418274
","x: 212.54974365234375
y: 200.00497436523438
z: -0.042514290660619736
visibility: 0.9999249577522278
","x: 222.33436584472656
y: 216.85838317871094
z: -0.12727710604667664
visibility: 0.9999859929084778
","x: 216.59228515625
y: 214.11582946777344
z: -0.13292354345321655
visibility: 0.9999810457229614
","x: 239.33290100097656
y: 246.34588623046875
z: 0.02902853488922119
visibility: 0.9999722242355347
","x: 198.8555145263672
y: 250.41592407226562
z: 0.02606620267033577
visibility: 0.9998781681060791
","x: 261.8262939453125
y: 273.72418212890625
z: -0.040010374039411545
visibility: 0.9924321174621582
","x: 188.0188446044922
y: 305.3509521484375
z: -0.06399965286254883
visibility: 0.9839600920677185
","x: 281.85394287109375
y: 289.36639404296875
z: -0.27369236946105957
visibility: 0.9950478672981262
","x: 195.0874786376953
y: 309.00250244140625
z: -0.300489604473114
visibility: 0.989978551864624
","x: 287.57464599609375
y: 304.0113525390625
z: -0.32496729493141174
visibility: 0.9866364598274231
","x: 198.7584991455078
y: 313.758056640625
z: -0.35202980041503906
visibility: 0.9758358001708984
","x: 285.65679931640625
y: 304.4088134765625
z: -0.34042784571647644
visibility: 0.9870657324790955
","x: 200.96365356445312
y: 308.42718505859375
z: -0.3604697287082672
visibility: 0.975114107131958
","x: 283.17437744140625
y: 301.4645080566406
z: -0.2882183790206909
visibility: 0.9796729683876038
","x: 200.30133056640625
y: 306.750732421875
z: -0.30920878052711487
visibility: 0.9636164307594299
","x: 235.18814086914062
y: 361.7687683105469
z: -0.0028381862211972475
visibility: 0.9997667670249939
","x: 211.5714569091797
y: 362.90057373046875
z: 0.002881050342693925
visibility: 0.9996171593666077
","x: 244.42391967773438
y: 452.8329162597656
z: -0.01959598809480667
visibility: 0.9942888617515564
","x: 210.96913146972656
y: 453.6288146972656
z: -0.01674089953303337
visibility: 0.9929199814796448
","x: 254.08352661132812
y: 531.1055908203125
z: 0.11578696966171265
visibility: 0.9925653338432312
","x: 210.47222900390625
y: 531.0030517578125
z: 0.12239214032888412
visibility: 0.990202784538269
","x: 253.2053985595703
y: 539.2699584960938
z: 0.12037362903356552
visibility: 0.8817058801651001
","x: 212.05886840820312
y: 542.5289306640625
z: 0.12849996984004974
visibility: 0.8377451300621033
","x: 256.87506103515625
y: 555.9093017578125
z: -0.02353411354124546
visibility: 0.9874839186668396
","x: 209.49229431152344
y: 555.3245849609375
z: -0.008097965270280838
visibility: 0.9845201969146729
",,,,,,,,,,,,,,,,,,,,,,"x: 280.4840087890625
y: 291.96856689453125
z: 0.0
","x: 279.28607177734375
y: 298.8183898925781
z: 0.0012091111857444048
","x: 279.92645263671875
y: 305.881103515625
z: 0.0011354682501405478
","x: 280.2613525390625
y: 310.69891357421875
z: 5.395337211666629e-05
","x: 280.4434814453125
y: 314.0562744140625
z: -0.0008912511984817684
","x: 285.17919921875
y: 310.517822265625
z: 0.002950008027255535
","x: 287.94122314453125
y: 317.16107177734375
z: 0.0011091259075328708
","x: 288.7310791015625
y: 320.8529968261719
z: -9.27446671994403e-05
","x: 289.114990234375
y: 323.47454833984375
z: -0.0006780619150958955
","x: 286.1357116699219
y: 309.3453674316406
z: 0.000500854046549648
","x: 289.1985168457031
y: 316.080810546875
z: -0.000986012862995267
","x: 289.84332275390625
y: 320.25787353515625
z: -0.0016182756517082453
","x: 290.0519714355469
y: 323.1499938964844
z: -0.0019273789366707206
","x: 286.6587219238281
y: 307.5177001953125
z: -0.0024337435606867075
","x: 289.5399169921875
y: 313.54742431640625
z: -0.004146268591284752
","x: 290.4098815917969
y: 317.53631591796875
z: -0.004460366442799568
","x: 290.8100891113281
y: 320.38671875
z: -0.004520352929830551
","x: 286.6727294921875
y: 305.13568115234375
z: -0.005565084051340818
","x: 289.17254638671875
y: 309.342529296875
z: -0.006941902916878462
","x: 290.31866455078125
y: 312.1411437988281
z: -0.007170150056481361
","x: 290.99176025390625
y: 314.3105773925781
z: -0.0071899727918207645
"
20,"x: 220.55348205566406
y: 206.51947021484375
z: -0.171623095870018
visibility: 0.9999909400939941
","x: 223.5743865966797
y: 201.06082153320312
z: -0.1485489457845688
visibility: 0.9999819993972778
","x: 225.1360321044922
y: 202.11801147460938
z: -0.14859163761138916
visibility: 0.9999807476997375
","x: 226.71612548828125
y: 203.0823516845703
z: -0.1486027091741562
visibility: 0.9999805688858032
","x: 218.73614501953125
y: 197.99359130859375
z: -0.15120132267475128
visibility: 0.9999745488166809
","x: 217.02052307128906
y: 197.20664978027344
z: -0.151149183511734
visibility: 0.9999710917472839
","x: 215.4239501953125
y: 196.44102478027344
z: -0.1510089933872223
visibility: 0.9999712705612183
","x: 227.93231201171875
y: 208.3916473388672
z: -0.02508305385708809
visibility: 0.9999569058418274
","x: 212.54974365234375
y: 200.00497436523438
z: -0.042514290660619736
visibility: 0.9999249577522278
","x: 222.33436584472656
y: 216.85838317871094
z: -0.12727710604667664
visibility: 0.9999859929084778
","x: 216.59228515625
y: 214.11582946777344
z: -0.13292354345321655
visibility: 0.9999810457229614
","x: 239.33290100097656
y: 246.34588623046875
z: 0.02902853488922119
visibility: 0.9999722242355347
","x: 198.8555145263672
y: 250.41592407226562
z: 0.02606620267033577
visibility: 0.9998781681060791
","x: 261.8262939453125
y: 273.72418212890625
z: -0.040010374039411545
visibility: 0.9924321174621582
","x: 188.0188446044922
y: 305.3509521484375
z: -0.06399965286254883
visibility: 0.9839600920677185
","x: 281.85394287109375
y: 289.36639404296875
z: -0.27369236946105957
visibility: 0.9950478672981262
","x: 195.0874786376953
y: 309.00250244140625
z: -0.300489604473114
visibility: 0.989978551864624
","x: 287.57464599609375
y: 304.0113525390625
z: -0.32496729493141174
visibility: 0.9866364598274231
","x: 198.7584991455078
y: 313.758056640625
z: -0.35202980041503906
visibility: 0.9758358001708984
","x: 285.65679931640625
y: 304.4088134765625
z: -0.34042784571647644
visibility: 0.9870657324790955
","x: 200.96365356445312
y: 308.42718505859375
z: -0.3604697287082672
visibility: 0.975114107131958
","x: 283.17437744140625
y: 301.4645080566406
z: -0.2882183790206909
visibility: 0.9796729683876038
","x: 200.30133056640625
y: 306.750732421875
z: -0.30920878052711487
visibility: 0.9636164307594299
","x: 235.18814086914062
y: 361.7687683105469
z: -0.0028381862211972475
visibility: 0.9997667670249939
","x: 211.5714569091797
y: 362.90057373046875
z: 0.002881050342693925
visibility: 0.9996171593666077
","x: 244.42391967773438
y: 452.8329162597656
z: -0.01959598809480667
visibility: 0.9942888617515564
","x: 210.96913146972656
y: 453.6288146972656
z: -0.01674089953303337
visibility: 0.9929199814796448
","x: 254.08352661132812
y: 531.1055908203125
z: 0.11578696966171265
visibility: 0.9925653338432312
","x: 210.47222900390625
y: 531.0030517578125
z: 0.12239214032888412
visibility: 0.990202784538269
","x: 253.2053985595703
y: 539.2699584960938
z: 0.12037362903356552
visibility: 0.8817058801651001
","x: 212.05886840820312
y: 542.5289306640625
z: 0.12849996984004974
visibility: 0.8377451300621033
","x: 256.87506103515625
y: 555.9093017578125
z: -0.02353411354124546
visibility: 0.9874839186668396
","x: 209.49229431152344
y: 555.3245849609375
z: -0.008097965270280838
visibility: 0.9845201969146729
",,,,,,,,,,,,,,,,,,,,,,"x: 280.4840087890625
y: 291.96856689453125
z: 0.0
","x: 279.28607177734375
y: 298.8183898925781
z: 0.0012091111857444048
","x: 279.92645263671875
y: 305.881103515625
z: 0.0011354682501405478
","x: 280.2613525390625
y: 310.69891357421875
z: 5.395337211666629e-05
","x: 280.4434814453125
y: 314.0562744140625
z: -0.0008912511984817684
","x: 285.17919921875
y: 310.517822265625
z: 0.002950008027255535
","x: 287.94122314453125
y: 317.16107177734375
z: 0.0011091259075328708
","x: 288.7310791015625
y: 320.8529968261719
z: -9.27446671994403e-05
","x: 289.114990234375
y: 323.47454833984375
z: -0.0006780619150958955
","x: 286.1357116699219
y: 309.3453674316406
z: 0.000500854046549648
","x: 289.1985168457031
y: 316.080810546875
z: -0.000986012862995267
","x: 289.84332275390625
y: 320.25787353515625
z: -0.0016182756517082453
","x: 290.0519714355469
y: 323.1499938964844
z: -0.0019273789366707206
","x: 286.6587219238281
y: 307.5177001953125
z: -0.0024337435606867075
","x: 289.5399169921875
y: 313.54742431640625
z: -0.004146268591284752
","x: 290.4098815917969
y: 317.53631591796875
z: -0.004460366442799568
","x: 290.8100891113281
y: 320.38671875
z: -0.004520352929830551
","x: 286.6727294921875
y: 305.13568115234375
z: -0.005565084051340818
","x: 289.17254638671875
y: 309.342529296875
z: -0.006941902916878462
","x: 290.31866455078125
y: 312.1411437988281
z: -0.007170150056481361
","x: 290.99176025390625
y: 314.3105773925781
z: -0.0071899727918207645
"
21,"x: 217.57374572753906
y: 206.5520477294922
z: -0.11218271404504776
visibility: 0.9999914765357971
","x: 220.1560821533203
y: 200.92214965820312
z: -0.09077365696430206
visibility: 0.9999831914901733
","x: 221.8018798828125
y: 201.6264190673828
z: -0.09084846824407578
visibility: 0.9999819993972778
","x: 223.46267700195312
y: 202.13827514648438
z: -0.09090150147676468
visibility: 0.9999819397926331
","x: 215.0360565185547
y: 198.51417541503906
z: -0.09192901849746704
visibility: 0.9999760389328003
","x: 213.25344848632812
y: 198.31637573242188
z: -0.0919206365942955
visibility: 0.9999727010726929
","x: 211.97552490234375
y: 198.11448669433594
z: -0.09183774888515472
visibility: 0.9999728798866272
","x: 225.54908752441406
y: 206.91806030273438
z: 0.021238919347524643
visibility: 0.9999604821205139
","x: 209.75588989257812
y: 202.65394592285156
z: 0.015430130064487457
visibility: 0.9999291896820068
","x: 220.74801635742188
y: 216.67153930664062
z: -0.07175134867429733
visibility: 0.9999867081642151
","x: 214.42288208007812
y: 214.47061157226562
z: -0.07338611036539078
visibility: 0.999981701374054
","x: 238.70358276367188
y: 246.5272216796875
z: 0.05956396460533142
visibility: 0.999974250793457
","x: 200.2254180908203
y: 251.60292053222656
z: 0.06984531134366989
visibility: 0.9998478293418884
","x: 256.4234924316406
y: 281.36932373046875
z: 0.011222509667277336
visibility: 0.9920309782028198
","x: 191.5030975341797
y: 306.7608642578125
z: -0.018720123916864395
visibility: 0.9721658229827881
","x: 281.40411376953125
y: 299.8282775878906
z: -0.16189321875572205
visibility: 0.9949920773506165
","x: 193.98350524902344
y: 310.1330871582031
z: -0.2471296489238739
visibility: 0.984720766544342
","x: 286.84173583984375
y: 310.0002746582031
z: -0.20436203479766846
visibility: 0.9868336319923401
","x: 194.59205627441406
y: 317.5375671386719
z: -0.2950415015220642
visibility: 0.9697585105895996
","x: 285.9164733886719
y: 309.39312744140625
z: -0.2313840687274933
visibility: 0.9873768091201782
","x: 196.619873046875
y: 312.80474853515625
z: -0.31406664848327637
visibility: 0.9699283242225647
","x: 283.1584777832031
y: 307.0058898925781
z: -0.17800506949424744
visibility: 0.9804061055183411
","x: 197.3241424560547
y: 310.3618469238281
z: -0.261663019657135
visibility: 0.9583624005317688
","x: 236.99681091308594
y: 361.9853210449219
z: -0.0032464186660945415
visibility: 0.99977046251297
","x: 212.8096160888672
y: 363.86407470703125
z: 0.0032795786391943693
visibility: 0.9996113181114197
","x: 245.77491760253906
y: 452.966064453125
z: -0.037678495049476624
visibility: 0.9943716526031494
","x: 210.3258819580078
y: 454.2364196777344
z: -0.03641509637236595
visibility: 0.9926385283470154
","x: 254.15829467773438
y: 530.8890991210938
z: 0.11123977601528168
visibility: 0.9924259185791016
","x: 210.10548400878906
y: 530.985595703125
z: 0.10455568134784698
visibility: 0.9899845719337463
","x: 253.26661682128906
y: 538.7769165039062
z: 0.11799739301204681
visibility: 0.8734481930732727
","x: 211.66831970214844
y: 542.509521484375
z: 0.11103358119726181
visibility: 0.8340575695037842
","x: 257.1594543457031
y: 555.5406494140625
z: -0.01863321103155613
visibility: 0.9867855310440063
","x: 209.8040771484375
y: 555.33251953125
z: -0.019305948168039322
visibility: 0.9839069247245789
","x: 196.5108184814453
y: 304.35223388671875
z: 0.0
","x: 199.83465576171875
y: 307.8640441894531
z: 0.0008397478959523141
","x: 201.98558044433594
y: 313.6334228515625
z: 0.00019886619702447206
","x: 202.54281616210938
y: 318.59814453125
z: -0.001071482663974166
","x: 202.32594299316406
y: 321.94464111328125
z: -0.002040399005636573
","x: 201.246826171875
y: 316.4873046875
z: -0.0011594643583521247
","x: 200.88333129882812
y: 322.43341064453125
z: -0.0031314906664192677
","x: 200.40684509277344
y: 320.7510681152344
z: -0.003396086161956191
","x: 200.47360229492188
y: 318.1206359863281
z: -0.0032559013925492764
","x: 198.84474182128906
y: 316.94134521484375
z: -0.0030336861964315176
","x: 198.52377319335938
y: 323.1390075683594
z: -0.005424579605460167
","x: 198.2030792236328
y: 320.9770202636719
z: -0.005130256991833448
","x: 198.19676208496094
y: 318.059814453125
z: -0.004467069637030363
","x: 196.2807159423828
y: 317.1099548339844
z: -0.004911826923489571
","x: 195.9138641357422
y: 323.2565002441406
z: -0.006691338960081339
","x: 195.80404663085938
y: 321.1626892089844
z: -0.005167024675756693
","x: 195.79269409179688
y: 318.1554870605469
z: -0.0038361758925020695
","x: 193.65380859375
y: 316.7376403808594
z: -0.006867079995572567
","x: 193.46493530273438
y: 322.3086853027344
z: -0.007757300511002541
","x: 193.427001953125
y: 320.6372375488281
z: -0.006605326198041439
","x: 193.39483642578125
y: 318.0039978027344
z: -0.005491616204380989
","x: 277.65234375
y: 296.482666015625
z: 0.0
","x: 279.2479248046875
y: 306.1251525878906
z: 0.004113240633159876
","x: 281.6946716308594
y: 311.3799743652344
z: 0.005191461183130741
","x: 283.1317443847656
y: 315.2366027832031
z: 0.00484337517991662
","x: 283.2066650390625
y: 317.9229736328125
z: 0.004688093438744545
","x: 286.2454528808594
y: 310.91998291015625
z: 0.005739571060985327
","x: 290.0045166015625
y: 314.15771484375
z: 0.004643648397177458
","x: 292.44183349609375
y: 316.23248291015625
z: 0.003766462439671159
","x: 294.4985046386719
y: 317.9749450683594
z: 0.003407681593671441
","x: 286.5107421875
y: 309.9440002441406
z: 0.002362870844081044
","x: 290.437744140625
y: 313.1515197753906
z: 0.0015496154082939029
","x: 293.13397216796875
y: 315.309326171875
z: 0.000950487854424864
","x: 295.4033203125
y: 317.3591003417969
z: 0.0005280592595227063
","x: 286.2115783691406
y: 308.97186279296875
z: -0.0012086390051990747
","x: 290.0203552246094
y: 311.97503662109375
z: -0.002038448117673397
","x: 292.5860900878906
y: 313.9576416015625
z: -0.002103031612932682
","x: 294.6675720214844
y: 315.540771484375
z: -0.002149110659956932
","x: 285.4593505859375
y: 308.01263427734375
z: -0.004689407534897327
","x: 288.8320617675781
y: 310.43145751953125
z: -0.005126411560922861
","x: 290.93792724609375
y: 312.4205322265625
z: -0.00479020643979311
","x: 292.48797607421875
y: 313.9002380371094
z: -0.004526158329099417
"
22,"x: 217.57374572753906
y: 206.5520477294922
z: -0.11218271404504776
visibility: 0.9999914765357971
","x: 220.1560821533203
y: 200.92214965820312
z: -0.09077365696430206
visibility: 0.9999831914901733
","x: 221.8018798828125
y: 201.6264190673828
z: -0.09084846824407578
visibility: 0.9999819993972778
","x: 223.46267700195312
y: 202.13827514648438
z: -0.09090150147676468
visibility: 0.9999819397926331
","x: 215.0360565185547
y: 198.51417541503906
z: -0.09192901849746704
visibility: 0.9999760389328003
","x: 213.25344848632812
y: 198.31637573242188
z: -0.0919206365942955
visibility: 0.9999727010726929
","x: 211.97552490234375
y: 198.11448669433594
z: -0.09183774888515472
visibility: 0.9999728798866272
","x: 225.54908752441406
y: 206.91806030273438
z: 0.021238919347524643
visibility: 0.9999604821205139
","x: 209.75588989257812
y: 202.65394592285156
z: 0.015430130064487457
visibility: 0.9999291896820068
","x: 220.74801635742188
y: 216.67153930664062
z: -0.07175134867429733
visibility: 0.9999867081642151
","x: 214.42288208007812
y: 214.47061157226562
z: -0.07338611036539078
visibility: 0.999981701374054
","x: 238.70358276367188
y: 246.5272216796875
z: 0.05956396460533142
visibility: 0.999974250793457
","x: 200.2254180908203
y: 251.60292053222656
z: 0.06984531134366989
visibility: 0.9998478293418884
","x: 256.4234924316406
y: 281.36932373046875
z: 0.011222509667277336
visibility: 0.9920309782028198
","x: 191.5030975341797
y: 306.7608642578125
z: -0.018720123916864395
visibility: 0.9721658229827881
","x: 281.40411376953125
y: 299.8282775878906
z: -0.16189321875572205
visibility: 0.9949920773506165
","x: 193.98350524902344
y: 310.1330871582031
z: -0.2471296489238739
visibility: 0.984720766544342
","x: 286.84173583984375
y: 310.0002746582031
z: -0.20436203479766846
visibility: 0.9868336319923401
","x: 194.59205627441406
y: 317.5375671386719
z: -0.2950415015220642
visibility: 0.9697585105895996
","x: 285.9164733886719
y: 309.39312744140625
z: -0.2313840687274933
visibility: 0.9873768091201782
","x: 196.619873046875
y: 312.80474853515625
z: -0.31406664848327637
visibility: 0.9699283242225647
","x: 283.1584777832031
y: 307.0058898925781
z: -0.17800506949424744
visibility: 0.9804061055183411
","x: 197.3241424560547
y: 310.3618469238281
z: -0.261663019657135
visibility: 0.9583624005317688
","x: 236.99681091308594
y: 361.9853210449219
z: -0.0032464186660945415
visibility: 0.99977046251297
","x: 212.8096160888672
y: 363.86407470703125
