uscmakers/ReverseChoreography/data/8_fool_around_yas.csv
,NOSE,LEFT_EYE_INNER,LEFT_EYE,LEFT_EYE_OUTER,RIGHT_EYE_INNER,RIGHT_EYE,RIGHT_EYE_OUTER,LEFT_EAR,RIGHT_EAR,MOUTH_LEFT,MOUTH_RIGHT,LEFT_SHOULDER,RIGHT_SHOULDER,LEFT_ELBOW,RIGHT_ELBOW,LEFT_WRIST,RIGHT_WRIST,LEFT_PINKY,RIGHT_PINKY,LEFT_INDEX,RIGHT_INDEX,LEFT_THUMB,RIGHT_THUMB,LEFT_HIP,RIGHT_HIP,LEFT_KNEE,RIGHT_KNEE,LEFT_ANKLE,RIGHT_ANKLE,LEFT_HEEL,RIGHT_HEEL,LEFT_FOOT_INDEX,RIGHT_FOOT_INDEX,WRIST,THUMB_CPC,THUMB_MCP,THUMB_IP,THUMB_TIP,INDEX_FINGER_MCP,INDEX_FINGER_PIP,INDEX_FINGER_DIP,INDEX_FINGER_TIP,MIDDLE_FINGER_MCP,MIDDLE_FINGER_PIP,MIDDLE_FINGER_DIP,MIDDLE_FINGER_TIP,RING_FINGER_PIP,RING_FINGER_DIP,RING_FINGER_TIP,RING_FINGER_MCP,PINKY_MCP,PINKY_PIP,PINKY_DIP,PINKY_TIP,WRIST2,THUMB_CPC2,THUMB_MCP2,THUMB_IP2,THUMB_TIP2,INDEX_FINGER_MCP2,INDEX_FINGER_PIP2,INDEX_FINGER_DIP2,INDEX_FINGER_TIP2,MIDDLE_FINGER_MCP2,MIDDLE_FINGER_PIP2,MIDDLE_FINGER_DIP2,MIDDLE_FINGER_TIP2,RING_FINGER_PIP2,RING_FINGER_DIP2,RING_FINGER_TIP2,RING_FINGER_MCP2,PINKY_MCP2,PINKY_PIP2,PINKY_DIP2,PINKY_TIP2
0,"x: 233.73541259765625
y: 200.43972778320312
z: -0.31047481298446655
visibility: 0.9999827146530151
","x: 236.09815979003906
y: 192.43927001953125
z: -0.2845243811607361
visibility: 0.9999613761901855
","x: 237.80442810058594
y: 192.6881561279297
z: -0.2844398319721222
visibility: 0.9999487400054932
","x: 239.25466918945312
y: 192.82705688476562
z: -0.28441759943962097
visibility: 0.9999537467956543
","x: 230.71932983398438
y: 193.0751953125
z: -0.2856402099132538
visibility: 0.9999696016311646
","x: 228.9227752685547
y: 193.59628295898438
z: -0.28567543625831604
visibility: 0.9999676942825317
","x: 227.21530151367188
y: 193.91282653808594
z: -0.2856486141681671
visibility: 0.9999758005142212
","x: 243.0413818359375
y: 199.22711181640625
z: -0.15625181794166565
visibility: 0.9999228715896606
","x: 224.240478515625
y: 201.29478454589844
z: -0.16355851292610168
visibility: 0.999970555305481
","x: 237.61976623535156
y: 210.9911346435547
z: -0.2660055458545685
visibility: 0.9999749660491943
","x: 230.8907012939453
y: 210.87384033203125
z: -0.2682958245277405
visibility: 0.9999850988388062
","x: 256.20574951171875
y: 250.2082061767578
z: -0.11486973613500595
visibility: 0.9996230602264404
","x: 212.29884338378906
y: 253.59051513671875
z: -0.1161583811044693
visibility: 0.9995027780532837
","x: 288.38067626953125
y: 244.19073486328125
z: -0.2934195399284363
visibility: 0.9973279237747192
","x: 177.92340087890625
y: 251.24691772460938
z: -0.29399800300598145
visibility: 0.998429000377655
","x: 267.725341796875
y: 236.79307556152344
z: -0.47213253378868103
visibility: 0.9765536785125732
","x: 205.64781188964844
y: 239.38497924804688
z: -0.4431666433811188
visibility: 0.9577215313911438
","x: 260.275146484375
y: 238.1215057373047
z: -0.516362190246582
visibility: 0.8936927914619446
","x: 213.28616333007812
y: 238.9727020263672
z: -0.487800657749176
visibility: 0.8203395009040833
","x: 257.3682861328125
y: 239.310302734375
z: -0.49574747681617737
visibility: 0.8797307014465332
","x: 215.9259490966797
y: 240.07415771484375
z: -0.45639556646347046
visibility: 0.7949831485748291
","x: 258.2895812988281
y: 240.3516845703125
z: -0.46934905648231506
visibility: 0.8517411947250366
","x: 213.8743896484375
y: 241.79409790039062
z: -0.43666213750839233
visibility: 0.7624937295913696
","x: 246.8173065185547
y: 377.8542785644531
z: 0.0011895031202584505
visibility: 0.999383807182312
","x: 220.40005493164062
y: 375.80560302734375
z: -0.0015265796100720763
visibility: 0.9992640614509583
","x: 244.77984619140625
y: 469.20281982421875
z: 0.04675669968128204
visibility: 0.9883427023887634
","x: 223.1378936767578
y: 469.1404724121094
z: 0.027111496776342392
visibility: 0.9911728501319885
","x: 248.11277770996094
y: 551.5698852539062
z: 0.2658597230911255
visibility: 0.9868305325508118
","x: 221.6970977783203
y: 553.7923583984375
z: 0.2116166055202484
visibility: 0.9882230162620544
","x: 246.60964965820312
y: 561.2609252929688
z: 0.28016549348831177
visibility: 0.8213189840316772
","x: 223.8603057861328
y: 564.3042602539062
z: 0.22296257317066193
visibility: 0.774002194404602
","x: 248.74609375
y: 576.5421752929688
z: 0.1392684429883957
visibility: 0.9816156029701233
","x: 221.9014892578125
y: 578.8104248046875
z: 0.08334114402532578
visibility: 0.9814541935920715
",,,,,,,,,,,,,,,,,,,,,,,,,,,,,,,,,,,,,,,,,,
1,"x: 231.12591552734375
y: 201.6044464111328
z: -0.29466623067855835
visibility: 0.9999781250953674
","x: 234.18869018554688
y: 194.27284240722656
z: -0.2728172838687897
visibility: 0.9999514818191528
","x: 236.20425415039062
y: 194.6235809326172
z: -0.272788405418396
visibility: 0.9999380111694336
","x: 238.0384063720703
y: 194.9688720703125
z: -0.2728007733821869
visibility: 0.9999427199363708
","x: 228.5683135986328
y: 193.9189453125
z: -0.2724536657333374
visibility: 0.9999611377716064
","x: 226.9983367919922
y: 194.03440856933594
z: -0.2724856436252594
visibility: 0.999959409236908
","x: 225.49038696289062
y: 194.12664794921875
z: -0.27243831753730774
visibility: 0.9999680519104004
","x: 241.09320068359375
y: 201.47906494140625
z: -0.15203353762626648
visibility: 0.9999116659164429
","x: 222.60076904296875
y: 201.48309326171875
z: -0.15160243213176727
visibility: 0.9999585151672363
","x: 234.65060424804688
y: 212.46942138671875
z: -0.2512526512145996
visibility: 0.9999711513519287
","x: 227.814453125
y: 211.7695770263672
z: -0.25107094645500183
visibility: 0.999981164932251
","x: 253.74082946777344
y: 250.4542236328125
z: -0.10399285703897476
visibility: 0.9996346831321716
","x: 210.27301025390625
y: 253.59083557128906
z: -0.09088504314422607
visibility: 0.9994861483573914
","x: 286.5845947265625
y: 261.625244140625
z: -0.2596239745616913
visibility: 0.9969232678413391
","x: 178.79074096679688
y: 269.6811218261719
z: -0.2482098788022995
visibility: 0.9977784752845764
","x: 264.0098876953125
y: 276.0885314941406
z: -0.4574459493160248
visibility: 0.9739933013916016
","x: 199.3755645751953
y: 270.4356689453125
z: -0.4509294629096985
visibility: 0.9571387767791748
","x: 258.3120422363281
y: 282.0666198730469
z: -0.5042837858200073
visibility: 0.8885813355445862
","x: 206.8394012451172
y: 271.82025146484375
z: -0.5007619857788086
visibility: 0.8253719210624695
","x: 255.29345703125
y: 280.8301696777344
z: -0.49291929602622986
visibility: 0.8747919797897339
","x: 210.24996948242188
y: 269.58135986328125
z: -0.4850323796272278
visibility: 0.801303505897522
","x: 256.60455322265625
y: 278.60797119140625
z: -0.4577479958534241
visibility: 0.8459451794624329
","x: 208.7361602783203
y: 269.75775146484375
z: -0.44946423172950745
visibility: 0.7683627009391785
","x: 243.47906494140625
y: 373.94024658203125
z: -0.0024512819945812225
visibility: 0.9993784427642822
","x: 217.0276336669922
y: 372.5020751953125
z: 0.0022197035141289234
visibility: 0.9992406964302063
","x: 242.4264373779297
y: 469.1168212890625
z: 0.017680754885077477
visibility: 0.9880864024162292
","x: 222.37669372558594
y: 468.8671875
z: 0.02211976982653141
visibility: 0.9907652139663696
","x: 248.0178985595703
y: 551.5107421875
z: 0.19488883018493652
visibility: 0.9867720603942871
","x: 221.854736328125
y: 553.8361206054688
z: 0.1855243593454361
visibility: 0.9879640340805054
","x: 246.54981994628906
y: 561.26123046875
z: 0.20444552600383759
visibility: 0.815551221370697
","x: 224.1796417236328
y: 564.4263916015625
z: 0.1943359076976776
visibility: 0.7731108665466309
","x: 248.77020263671875
y: 576.3704833984375
z: 0.06265205889940262
visibility: 0.9811647534370422
","x: 221.78314208984375
y: 578.8837280273438
z: 0.05742756649851799
visibility: 0.9809167385101318
",,,,,,,,,,,,,,,,,,,,,,,,,,,,,,,,,,,,,,,,,,
2,"x: 229.44313049316406
y: 200.88076782226562
z: -0.2876449227333069
visibility: 0.9999781847000122
","x: 231.86328125
y: 194.02734375
z: -0.2680959105491638
visibility: 0.9999496340751648
","x: 233.72726440429688
y: 194.46104431152344
z: -0.26809507608413696
visibility: 0.999937117099762
","x: 235.55918884277344
y: 194.9453582763672
z: -0.26811477541923523
visibility: 0.999941885471344
","x: 226.8763427734375
y: 193.28439331054688
z: -0.26842373609542847
visibility: 0.9999589323997498
","x: 225.54820251464844
y: 193.3132781982422
z: -0.26843541860580444
visibility: 0.9999570846557617
","x: 223.88473510742188
y: 193.4268798828125
z: -0.2683890163898468
visibility: 0.9999658465385437
","x: 238.1056365966797
y: 201.38723754882812
z: -0.15167032182216644
visibility: 0.9999103546142578
","x: 220.65098571777344
y: 201.25962829589844
z: -0.1526983380317688
visibility: 0.9999513030052185
","x: 232.62460327148438
y: 211.95457458496094
z: -0.2447083443403244
visibility: 0.9999714493751526
","x: 226.22731018066406
y: 210.83457946777344
z: -0.2452823668718338
visibility: 0.9999803304672241
","x: 251.8046875
y: 250.7424774169922
z: -0.08084370940923691
visibility: 0.9996649622917175
","x: 206.6644287109375
y: 253.59402465820312
z: -0.04773690551519394
visibility: 0.9994988441467285
","x: 275.6221923828125
y: 285.7456359863281
z: -0.01750163547694683
visibility: 0.9967491626739502
","x: 182.6693878173828
y: 290.9744873046875
z: 0.021585317328572273
visibility: 0.9963263273239136
","x: 258.1319580078125
y: 319.1427307128906
z: -0.08166871219873428
visibility: 0.9733262658119202
","x: 198.61178588867188
y: 307.26611328125
z: -0.031023483723402023
visibility: 0.954949140548706
","x: 255.0233154296875
y: 331.8312072753906
z: -0.10654842853546143
visibility: 0.8896728754043579
","x: 205.3125762939453
y: 313.6923828125
z: -0.05331616476178169
visibility: 0.8276332020759583
","x: 252.44842529296875
y: 327.75567626953125
z: -0.12467974424362183
visibility: 0.8773015737533569
","x: 207.4031524658203
y: 308.5690002441406
z: -0.06549185514450073
visibility: 0.8059202432632446
","x: 252.820556640625
y: 323.5416259765625
z: -0.08851353824138641
visibility: 0.8487184643745422
","x: 206.15444946289062
y: 305.8221740722656
z: -0.036024145781993866
visibility: 0.773438036441803
","x: 240.79977416992188
y: 373.3169250488281
z: -0.012038584798574448
visibility: 0.9992288947105408
","x: 215.60440063476562
y: 371.7330627441406
z: 0.011962348595261574
visibility: 0.9990488886833191
","x: 240.43092346191406
y: 469.0762023925781
z: -0.004748399369418621
visibility: 0.9883536100387573
","x: 220.8021240234375
y: 468.554931640625
z: 0.01812012866139412
visibility: 0.9903608560562134
","x: 248.1500244140625
y: 551.4826049804688
z: 0.1531175971031189
visibility: 0.9872901439666748
","x: 221.97152709960938
y: 553.9556274414062
z: 0.16011205315589905
visibility: 0.9881203174591064
","x: 247.1309814453125
y: 561.1071166992188
z: 0.16048970818519592
visibility: 0.8180949687957764
","x: 224.50096130371094
y: 565.055908203125
z: 0.167015939950943
visibility: 0.7827429175376892
","x: 247.6864776611328
y: 576.3765869140625
z: 0.02159751020371914
visibility: 0.981646716594696
","x: 221.7399444580078
y: 579.0294189453125
z: 0.03528600558638573
visibility: 0.9812694787979126
",,,,,,,,,,,,,,,,,,,,,,,,,,,,,,,,,,,,,,,,,,
3,"x: 227.41221618652344
y: 200.68756103515625
z: -0.23176658153533936
visibility: 0.9999784231185913
","x: 229.68930053710938
y: 193.9958953857422
z: -0.21259307861328125
visibility: 0.999949038028717
","x: 231.49395751953125
y: 194.44027709960938
z: -0.2126302719116211
visibility: 0.9999376535415649
","x: 233.31056213378906
y: 194.9061737060547
z: -0.2126525193452835
visibility: 0.9999419450759888
","x: 225.01158142089844
y: 193.17318725585938
z: -0.21300378441810608
visibility: 0.9999572038650513
","x: 223.61614990234375
y: 193.21144104003906
z: -0.21299457550048828
visibility: 0.9999551177024841
","x: 221.8007354736328
y: 193.347412109375
z: -0.21293947100639343
visibility: 0.9999635219573975
","x: 235.83956909179688
y: 201.36331176757812
z: -0.09548147022724152
visibility: 0.9999117255210876
","x: 218.83517456054688
y: 201.1885986328125
z: -0.09685242921113968
visibility: 0.999944269657135
","x: 230.54095458984375
y: 211.78659057617188
z: -0.18737541139125824
visibility: 0.9999722242355347
","x: 224.3297882080078
y: 210.65757751464844
z: -0.1878538280725479
visibility: 0.9999799132347107
","x: 249.72433471679688
y: 250.1061248779297
z: -0.02424684166908264
visibility: 0.9996961951255798
","x: 205.06533813476562
y: 253.0340576171875
z: 0.003223573789000511
visibility: 0.9995236992835999
","x: 267.4610595703125
y: 291.5408020019531
z: 0.024248892441391945
visibility: 0.9965329170227051
","x: 187.56103515625
y: 297.1868896484375
z: 0.023469336330890656
visibility: 0.9939978718757629
","x: 256.3995666503906
y: 326.2186279296875
z: -0.08121488243341446
visibility: 0.9743635058403015
","x: 198.2447052001953
y: 313.1688232421875
z: -0.12449304759502411
visibility: 0.9563722610473633
","x: 254.2463836669922
y: 340.8406066894531
z: -0.11651796102523804
visibility: 0.8965434432029724
","x: 204.03106689453125
y: 322.2734069824219
z: -0.1633247435092926
visibility: 0.8390023112297058
","x: 251.39059448242188
y: 337.063232421875
z: -0.14157766103744507
visibility: 0.8855863809585571
","x: 205.99713134765625
y: 316.4321594238281
z: -0.181568905711174
visibility: 0.8196609616279602
","x: 251.1873779296875
y: 332.43621826171875
z: -0.09233541041612625
visibility: 0.8585494756698608
","x: 204.91256713867188
y: 312.7785949707031
z: -0.1343449056148529
visibility: 0.7886990904808044
","x: 238.79513549804688
y: 372.1011962890625
z: -0.01313782949000597
visibility: 0.9992306232452393
","x: 213.9125518798828
y: 370.2511291503906
z: 0.013114124536514282
visibility: 0.9990359544754028
","x: 239.38815307617188
y: 469.08038330078125
z: -0.02243196964263916
visibility: 0.9887803196907043
","x: 219.61727905273438
y: 468.2635498046875
z: -0.00046623480739071965
visibility: 0.9898426532745361
","x: 248.14710998535156
y: 551.4833984375
z: 0.12854328751564026
visibility: 0.9878396987915039
","x: 221.96536254882812
y: 553.9599609375
z: 0.1405002474784851
visibility: 0.9882289171218872
","x: 247.15396118164062
y: 561.0531005859375
z: 0.13467039167881012
visibility: 0.8207312226295471
","x: 224.6189422607422
y: 565.5211791992188
z: 0.1468009650707245
visibility: 0.7922587394714355
","x: 247.62765502929688
y: 576.4844970703125
z: -0.007121360395103693
visibility: 0.9820787906646729
","x: 221.04638671875
y: 578.9601440429688
z: 0.013156985864043236
visibility: 0.9814881086349487
",,,,,,,,,,,,,,,,,,,,,,,,,,,,,,,,,,,,,,,,,,
4,"x: 225.84109497070312
y: 200.90463256835938
z: -0.20911738276481628
visibility: 0.9999784827232361
","x: 228.2259979248047
y: 194.31842041015625
z: -0.1898663192987442
visibility: 0.9999476075172424
","x: 230.0698699951172
y: 194.70298767089844
z: -0.18990221619606018
visibility: 0.999937117099762
","x: 231.88319396972656
y: 195.11451721191406
z: -0.1899283230304718
visibility: 0.999940812587738
","x: 223.5223846435547
y: 193.538818359375
z: -0.1901557743549347
visibility: 0.999954879283905
","x: 222.0581512451172
y: 193.54638671875
z: -0.19015708565711975
visibility: 0.9999528527259827
","x: 220.19442749023438
y: 193.686767578125
z: -0.1901026964187622
visibility: 0.9999614357948303
","x: 234.5264434814453
y: 201.31716918945312
z: -0.07082398235797882
visibility: 0.9999122023582458
","x: 217.47874450683594
y: 201.29904174804688
z: -0.07157913595438004
visibility: 0.9999387860298157
","x: 229.05148315429688
y: 211.85366821289062
z: -0.16377492249011993
visibility: 0.9999727606773376
","x: 222.83370971679688
y: 210.77120971679688
z: -0.16404089331626892
visibility: 0.9999794363975525
","x: 248.40013122558594
y: 246.80020141601562
z: 0.0002704724611248821
visibility: 0.9997246265411377
","x: 204.14512634277344
y: 251.22964477539062
z: 0.025157710537314415
visibility: 0.9995526075363159
","x: 266.1785583496094
y: 287.1991882324219
z: 0.042516425251960754
visibility: 0.9963710904121399
","x: 188.72689819335938
y: 295.0448303222656
z: 0.042543936520814896
visibility: 0.9926440715789795
","x: 255.98265075683594
y: 325.034423828125
z: -0.0668381005525589
visibility: 0.9752951860427856
","x: 198.21421813964844
y: 312.3924865722656
z: -0.1046714037656784
visibility: 0.958554744720459
","x: 254.0095672607422
y: 339.8971862792969
z: -0.10293350368738174
visibility: 0.9024547338485718
","x: 203.2811279296875
y: 322.1000671386719
z: -0.14403045177459717
visibility: 0.8506935834884644
","x: 251.0291290283203
y: 336.08294677734375
z: -0.1283726841211319
visibility: 0.8927835822105408
","x: 205.4340057373047
y: 316.1828918457031
z: -0.16217640042304993
visibility: 0.8334551453590393
","x: 250.73635864257812
y: 331.2798767089844
z: -0.07847268879413605
visibility: 0.8671209812164307
","x: 204.4694366455078
y: 312.39996337890625
z: -0.1142641082406044
visibility: 0.8041827082633972
","x: 238.25938415527344
y: 370.183837890625
z: -0.013707200065255165
visibility: 0.9992284774780273
","x: 213.06190490722656
y: 368.5379638671875
z: 0.01370217651128769
visibility: 0.9990373849868774
","x: 239.47508239746094
y: 469.0622253417969
z: -0.037540510296821594
visibility: 0.9890866279602051
","x: 218.52520751953125
y: 467.5787353515625
z: -0.01427395362406969
visibility: 0.989154040813446
","x: 248.07354736328125
y: 550.6817016601562
z: 0.12555959820747375
visibility: 0.9880824089050293
","x: 221.72579956054688
y: 553.7239990234375
z: 0.13124194741249084
visibility: 0.9882211685180664
","x: 247.11276245117188
y: 560.2146606445312
z: 0.13326340913772583
visibility: 0.8204496502876282
","x: 224.57455444335938
y: 565.5121459960938
z: 0.13801062107086182
visibility: 0.8003033399581909
","x: 247.60008239746094
y: 576.1505737304688
z: -0.007653278298676014
visibility: 0.982109785079956
","x: 219.95938110351562
y: 578.7848510742188
z: 0.0022252588532865047
visibility: 0.9814848899841309
",,,,,,,,,,,,,,,,,,,,,,,,,,,,,,,,,,,,,,,,,,
5,"x: 225.628173828125
y: 200.96742248535156
z: -0.21348616480827332
visibility: 0.9999787211418152
","x: 228.100341796875
y: 194.44578552246094
z: -0.1936742067337036
visibility: 0.9999470710754395
","x: 229.86392211914062
y: 194.78860473632812
z: -0.19370752573013306
visibility: 0.9999375343322754
","x: 231.6241455078125
y: 195.16864013671875
z: -0.19374336302280426
visibility: 0.9999405145645142
","x: 223.0697479248047
y: 193.75152587890625
z: -0.1950976550579071
visibility: 0.9999530911445618
","x: 221.62136840820312
y: 193.83200073242188
z: -0.1950823813676834
visibility: 0.9999510645866394
","x: 219.819580078125
y: 193.96719360351562
z: -0.19500993192195892
visibility: 0.9999598264694214
","x: 234.1767120361328
y: 201.2786102294922
z: -0.07186548411846161
visibility: 0.9999146461486816
","x: 216.6453094482422
y: 201.3561248779297
z: -0.07788887619972229
visibility: 0.9999357461929321
","x: 228.85943603515625
y: 211.84286499023438
z: -0.1670731008052826
visibility: 0.9999735951423645
","x: 222.37010192871094
y: 210.82891845703125
z: -0.16884180903434753
visibility: 0.9999792575836182
","x: 247.4833221435547
y: 243.4133758544922
z: -0.0011656808201223612
visibility: 0.999750554561615
","x: 204.10472106933594
y: 249.35107421875
z: 0.022875376045703888
visibility: 0.9995738863945007
","x: 267.1257629394531
y: 281.2718505859375
z: 0.04201774299144745
visibility: 0.9961729049682617
","x: 189.01211547851562
y: 291.6281433105469
z: 0.06785956025123596
visibility: 0.9910897016525269
","x: 256.85980224609375
y: 319.88177490234375
z: -0.064664326608181
visibility: 0.9758332371711731
","x: 198.59336853027344
y: 309.58935546875
z: -0.035450708121061325
visibility: 0.9597495794296265
","x: 254.47222900390625
y: 335.0149230957031
z: -0.10006634891033173
visibility: 0.9067423939704895
","x: 203.42567443847656
y: 319.0485534667969
z: -0.06773440539836884
visibility: 0.8596958518028259
","x: 251.55702209472656
y: 331.3247375488281
z: -0.12547758221626282
visibility: 0.8982765674591064
","x: 205.87582397460938
y: 314.2369689941406
z: -0.08530293405056
visibility: 0.8444522619247437
","x: 251.362548828125
y: 326.84405517578125
z: -0.07654193788766861
visibility: 0.8737179636955261
","x: 204.96292114257812
y: 310.71337890625
z: -0.043515272438526154
visibility: 0.816676676273346
","x: 238.73863220214844
y: 367.802978515625
z: -0.014285122975707054
visibility: 0.9992063641548157
","x: 213.12939453125
y: 367.23321533203125
z: 0.014311474747955799
visibility: 0.9990162253379822
","x: 239.5681915283203
y: 468.4869384765625
z: -0.054573435336351395
visibility: 0.9893131852149963
","x: 218.1181182861328
y: 466.6261291503906
z: -0.02526545524597168
visibility: 0.9881890416145325
","x: 250.11618041992188
y: 545.79638671875
z: 0.12827005982398987
visibility: 0.9879267811775208
","x: 221.61837768554688
y: 552.6369018554688
z: 0.1281810700893402
visibility: 0.9880539774894714
","x: 251.33282470703125
y: 553.3363037109375
z: 0.13816365599632263
visibility: 0.8144421577453613
","x: 224.56912231445312
y: 564.4793090820312
z: 0.1358218491077423
visibility: 0.8074004650115967
","x: 249.48904418945312
y: 574.6708374023438
z: -0.0007886160165071487
visibility: 0.9814565181732178
","x: 220.04351806640625
y: 578.7435302734375
z: -0.00016878634050954133
visibility: 0.9811124801635742
",,,,,,,,,,,,,,,,,,,,,,,,,,,,,,,,,,,,,,,,,,
6,"x: 225.79554748535156
y: 201.6643524169922
z: -0.22774870693683624
visibility: 0.999979555606842
","x: 228.4376220703125
y: 194.8074188232422
z: -0.2080998718738556
visibility: 0.9999483227729797
","x: 230.20901489257812
y: 195.0704345703125
z: -0.20813342928886414
visibility: 0.9999395608901978
","x: 232.01123046875
y: 195.38246154785156
z: -0.20816035568714142
visibility: 0.9999420046806335
","x: 223.31614685058594
y: 194.4632110595703
z: -0.2080591470003128
visibility: 0.9999532103538513
","x: 221.60948181152344
y: 194.5944061279297
z: -0.20806284248828888
visibility: 0.9999510645866394
","x: 220.04542541503906
y: 194.78355407714844
z: -0.20799410343170166
visibility: 0.9999593496322632
","x: 234.55502319335938
y: 201.24993896484375
z: -0.08722560852766037
visibility: 0.9999189972877502
","x: 217.19309997558594
y: 201.52207946777344
z: -0.08658599108457565
visibility: 0.9999326467514038
","x: 229.22267150878906
y: 212.07742309570312
z: -0.18193119764328003
visibility: 0.9999749660491943
","x: 222.56675720214844
y: 211.26121520996094
z: -0.1817934215068817
visibility: 0.999979555606842
","x: 248.26669311523438
y: 243.8663330078125
z: -0.019027110189199448
visibility: 0.9997739791870117
","x: 204.81829833984375
y: 249.5083770751953
z: 0.012993511743843555
visibility: 0.9995921850204468
","x: 268.850341796875
y: 283.62921142578125
z: 0.015071840956807137
visibility: 0.9962151050567627
","x: 191.2432403564453
y: 297.0495300292969
z: 0.015395010821521282
visibility: 0.9891065955162048
","x: 257.4541320800781
y: 323.86083984375
z: -0.09425540268421173
visibility: 0.977042019367218
","x: 198.83099365234375
y: 311.6954345703125
z: -0.15088841319084167
visibility: 0.9605597257614136
","x: 254.80355834960938
y: 338.6056213378906
z: -0.1305372416973114
visibility: 0.9123818874359131
","x: 203.69281005859375
y: 322.1322326660156
z: -0.19274789094924927
visibility: 0.8677664995193481
","x: 251.91539001464844
y: 335.57818603515625
z: -0.1561867892742157
visibility: 0.9048742055892944
","x: 206.06101989746094
y: 316.75482177734375
z: -0.20637845993041992
visibility: 0.8542410731315613
","x: 251.76747131347656
y: 331.18902587890625
z: -0.10562050342559814
visibility: 0.8817084431648254
","x: 205.31126403808594
y: 313.56903076171875
z: -0.15981242060661316
visibility: 0.8276169896125793
","x: 239.388427734375
y: 368.0282897949219
z: -0.013848690316081047
visibility: 0.9992180466651917
","x: 213.683349609375
y: 367.77874755859375
z: 0.013844737783074379
visibility: 0.9990324378013611
","x: 243.96531677246094
y: 468.59173583984375
z: -0.05287150293588638
visibility: 0.9898080229759216
","x: 218.3089141845703
y: 466.8581848144531
z: -0.020948680117726326
visibility: 0.988277792930603
","x: 254.62525939941406
y: 541.492919921875
z: 0.15730668604373932
visibility: 0.9879761934280396
","x: 221.37167358398438
y: 552.2734375
z: 0.14683599770069122
visibility: 0.9884002804756165
","x: 255.0875701904297
y: 548.802978515625
z: 0.1693192571401596
visibility: 0.8130588531494141
","x: 224.38143920898438
y: 563.9136962890625
z: 0.1556234061717987
visibility: 0.8158189058303833
","x: 255.90768432617188
y: 569.9151000976562
z: 0.03075495734810829
visibility: 0.9813376665115356
","x: 220.00491333007812
y: 578.535888671875
z: 0.018303660675883293
visibility: 0.9814659953117371
",,,,,,,,,,,,,,,,,,,,,,,,,,,,,,,,,,,,,,,,,,
7,"x: 226.6714324951172
y: 202.3570556640625
z: -0.2346581667661667
visibility: 0.999980628490448
","x: 229.18524169921875
y: 195.25015258789062
z: -0.2157987654209137
visibility: 0.9999502897262573
","x: 230.9461669921875
y: 195.4013671875
z: -0.21583154797554016
visibility: 0.9999422430992126
","x: 232.276611328125
y: 195.62017822265625
z: -0.2158367931842804
visibility: 0.9999443888664246
","x: 223.94947814941406
y: 195.18832397460938
z: -0.21540287137031555
visibility: 0.9999545812606812
","x: 222.08248901367188
y: 195.46827697753906
z: -0.21540406346321106
visibility: 0.9999522566795349
","x: 220.57151794433594
y: 195.88375854492188
z: -0.21535181999206543
visibility: 0.9999601244926453
","x: 235.2312469482422
y: 201.22439575195312
z: -0.09789146482944489
visibility: 0.9999218583106995
","x: 218.3740234375
y: 201.98367309570312
z: -0.09689226746559143
visibility: 0.9999315738677979
","x: 230.27371215820312
y: 212.38214111328125
z: -0.19057950377464294
visibility: 0.9999760389328003
","x: 223.6922149658203
y: 211.8488311767578
z: -0.19009432196617126
visibility: 0.999980092048645
","x: 249.8245849609375
y: 246.02491760253906
z: -0.03071001172065735
visibility: 0.999793529510498
","x: 207.6034698486328
y: 250.42300415039062
z: -0.0036521856673061848
visibility: 0.9996152520179749
","x: 269.9223327636719
y: 294.4022216796875
z: 0.002618074417114258
visibility: 0.9960355758666992
","x: 196.29139709472656
y: 302.5644226074219
z: 0.018301228061318398
visibility: 0.9877710342407227
","x: 258.72662353515625
y: 334.0321044921875
z: -0.11831198632717133
visibility: 0.9777430295944214
","x: 202.5205078125
y: 326.1004638671875
z: -0.1253376454114914
visibility: 0.9613176584243774
","x: 257.93115234375
y: 349.2822570800781
z: -0.15548951923847198
visibility: 0.9169993996620178
","x: 204.77813720703125
y: 338.1025695800781
z: -0.16480103135108948
visibility: 0.8749069571495056
","x: 254.46356201171875
y: 346.82122802734375
z: -0.18341784179210663
visibility: 0.910415530204773
","x: 207.17669677734375
y: 332.1894836425781
z: -0.18384432792663574
visibility: 0.8629679083824158
","x: 253.788818359375
y: 342.5083923339844
z: -0.13101062178611755
visibility: 0.8882880806922913
","x: 207.3739013671875
y: 328.27764892578125
z: -0.13549163937568665
visibility: 0.8373994827270508
","x: 240.7020721435547
y: 368.6663818359375
z: -0.013087816536426544
visibility: 0.9992212057113647
","x: 215.73394775390625
y: 368.3360595703125
z: 0.013042387552559376
visibility: 0.9990573525428772
","x: 246.99102783203125
y: 468.25213623046875
z: -0.03183646500110626
visibility: 0.9902244806289673
","x: 218.37905883789062
y: 466.8755798339844
z: -0.012710675597190857
visibility: 0.988744854927063
","x: 257.7547912597656
y: 542.3638305664062
z: 0.15430644154548645
visibility: 0.9883897304534912
","x: 221.0961151123047
y: 552.1845092773438
z: 0.1410195529460907
visibility: 0.9889559745788574
","x: 256.9755554199219
y: 549.9390258789062
z: 0.16383491456508636
visibility: 0.8173388242721558
","x: 224.00599670410156
y: 563.5185546875
z: 0.1481625735759735
visibility: 0.8244510293006897
","x: 259.8224182128906
y: 570.1402587890625
z: 0.02871904894709587
visibility: 0.9818746447563171
","x: 219.996826171875
y: 578.4159545898438
z: 0.014280167408287525
visibility: 0.9821803569793701
","x: 204.23324584960938
y: 327.84967041015625
z: 0.0
","x: 208.32752990722656
y: 324.5057678222656
z: -0.0031535967718809843
","x: 212.67396545410156
y: 326.348388671875
z: -0.0053330217488110065
","x: 216.45066833496094
y: 330.30572509765625
z: -0.006531032733619213
","x: 219.00222778320312
y: 333.8804931640625
z: -0.006946496199816465
","x: 210.09823608398438
y: 337.0010681152344
z: -0.009021579287946224
","x: 216.07861328125
y: 342.3636474609375
z: -0.011068196967244148
","x: 218.01638793945312
y: 338.5489196777344
z: -0.009753474965691566
","x: 217.88711547851562
y: 335.31439208984375
z: -0.008149120025336742
","x: 209.34901428222656
y: 341.42987060546875
z: -0.007810892071574926
","x: 215.44268798828125
y: 345.5882568359375
z: -0.009535540826618671
","x: 217.14862060546875
y: 341.6625671386719
z: -0.007270728703588247
","x: 216.51486206054688
y: 339.0180969238281
z: -0.005250462796539068
","x: 209.27639770507812
y: 343.92132568359375
z: -0.006468314677476883
","x: 214.91818237304688
y: 348.1268310546875
z: -0.007895827293395996
","x: 216.2193603515625
y: 344.5681457519531
z: -0.005705111660063267
","x: 215.59532165527344
y: 341.86163330078125
z: -0.0038995358627289534
","x: 209.70571899414062
y: 345.2498779296875
z: -0.005290606990456581
","x: 214.30783081054688
y: 349.04608154296875
z: -0.006209109909832478
","x: 215.69189453125
y: 347.145263671875
z: -0.0052717202343046665
","x: 215.5887908935547
y: 345.349853515625
z: -0.004197100177407265
",,,,,,,,,,,,,,,,,,,,,
8,"x: 226.6714324951172
y: 202.3570556640625
z: -0.2346581667661667
visibility: 0.999980628490448
","x: 229.18524169921875
y: 195.25015258789062
z: -0.2157987654209137
visibility: 0.9999502897262573
","x: 230.9461669921875
y: 195.4013671875
z: -0.21583154797554016
visibility: 0.9999422430992126
","x: 232.276611328125
y: 195.62017822265625
z: -0.2158367931842804
visibility: 0.9999443888664246
","x: 223.94947814941406
y: 195.18832397460938
z: -0.21540287137031555
visibility: 0.9999545812606812
","x: 222.08248901367188
y: 195.46827697753906
z: -0.21540406346321106
visibility: 0.9999522566795349
","x: 220.57151794433594
y: 195.88375854492188
z: -0.21535181999206543
visibility: 0.9999601244926453
","x: 235.2312469482422
y: 201.22439575195312
z: -0.09789146482944489
visibility: 0.9999218583106995
","x: 218.3740234375
y: 201.98367309570312
z: -0.09689226746559143
visibility: 0.9999315738677979
","x: 230.27371215820312
y: 212.38214111328125
z: -0.19057950377464294
visibility: 0.9999760389328003
","x: 223.6922149658203
y: 211.8488311767578
z: -0.19009432196617126
visibility: 0.999980092048645
","x: 249.8245849609375
y: 246.02491760253906
z: -0.03071001172065735
visibility: 0.999793529510498
","x: 207.6034698486328
y: 250.42300415039062
z: -0.0036521856673061848
visibility: 0.9996152520179749
","x: 269.9223327636719
y: 294.4022216796875
z: 0.002618074417114258
visibility: 0.9960355758666992
","x: 196.29139709472656
y: 302.5644226074219
z: 0.018301228061318398
visibility: 0.9877710342407227
","x: 258.72662353515625
y: 334.0321044921875
z: -0.11831198632717133
visibility: 0.9777430295944214
","x: 202.5205078125
y: 326.1004638671875
z: -0.1253376454114914
visibility: 0.9613176584243774
","x: 257.93115234375
y: 349.2822570800781
z: -0.15548951923847198
visibility: 0.9169993996620178
","x: 204.77813720703125
y: 338.1025695800781
z: -0.16480103135108948
visibility: 0.8749069571495056
","x: 254.46356201171875
y: 346.82122802734375
z: -0.18341784179210663
visibility: 0.910415530204773
","x: 207.17669677734375
y: 332.1894836425781
z: -0.18384432792663574
visibility: 0.8629679083824158
","x: 253.788818359375
y: 342.5083923339844
z: -0.13101062178611755
visibility: 0.8882880806922913
","x: 207.3739013671875
y: 328.27764892578125
z: -0.13549163937568665
visibility: 0.8373994827270508
","x: 240.7020721435547
y: 368.6663818359375
z: -0.013087816536426544
visibility: 0.9992212057113647
","x: 215.73394775390625
y: 368.3360595703125
z: 0.013042387552559376
visibility: 0.9990573525428772
","x: 246.99102783203125
y: 468.25213623046875
z: -0.03183646500110626
visibility: 0.9902244806289673
","x: 218.37905883789062
y: 466.8755798339844
z: -0.012710675597190857
visibility: 0.988744854927063
","x: 257.7547912597656
y: 542.3638305664062
z: 0.15430644154548645
visibility: 0.9883897304534912
","x: 221.0961151123047
y: 552.1845092773438
z: 0.1410195529460907
visibility: 0.9889559745788574
","x: 256.9755554199219
y: 549.9390258789062
z: 0.16383491456508636
visibility: 0.8173388242721558
","x: 224.00599670410156
y: 563.5185546875
z: 0.1481625735759735
visibility: 0.8244510293006897
","x: 259.8224182128906
y: 570.1402587890625
z: 0.02871904894709587
visibility: 0.9818746447563171
","x: 219.996826171875
y: 578.4159545898438
z: 0.014280167408287525
visibility: 0.9821803569793701
","x: 204.23324584960938
y: 327.84967041015625
z: 0.0
","x: 208.32752990722656
y: 324.5057678222656
z: -0.0031535967718809843
","x: 212.67396545410156
y: 326.348388671875
z: -0.0053330217488110065
","x: 216.45066833496094
y: 330.30572509765625
z: -0.006531032733619213
","x: 219.00222778320312
y: 333.8804931640625
z: -0.006946496199816465
","x: 210.09823608398438
y: 337.0010681152344
z: -0.009021579287946224
","x: 216.07861328125
y: 342.3636474609375
z: -0.011068196967244148
","x: 218.01638793945312
y: 338.5489196777344
z: -0.009753474965691566
","x: 217.88711547851562
y: 335.31439208984375
z: -0.008149120025336742
","x: 209.34901428222656
y: 341.42987060546875
z: -0.007810892071574926
","x: 215.44268798828125
y: 345.5882568359375
z: -0.009535540826618671
","x: 217.14862060546875
y: 341.6625671386719
z: -0.007270728703588247
","x: 216.51486206054688
y: 339.0180969238281
z: -0.005250462796539068
","x: 209.27639770507812
y: 343.92132568359375
z: -0.006468314677476883
","x: 214.91818237304688
y: 348.1268310546875
z: -0.007895827293395996
","x: 216.2193603515625
y: 344.5681457519531
z: -0.005705111660063267
","x: 215.59532165527344
y: 341.86163330078125
z: -0.0038995358627289534
","x: 209.70571899414062
y: 345.2498779296875
z: -0.005290606990456581
","x: 214.30783081054688
y: 349.04608154296875
z: -0.006209109909832478
","x: 215.69189453125
y: 347.145263671875
z: -0.0052717202343046665
","x: 215.5887908935547
y: 345.349853515625
z: -0.004197100177407265
",,,,,,,,,,,,,,,,,,,,,
9,"x: 231.6973114013672
y: 202.81210327148438
z: -0.21417708694934845
visibility: 0.9999815821647644
","x: 234.3162078857422
y: 195.58045959472656
z: -0.19531549513339996
visibility: 0.9999527335166931
","x: 236.17543029785156
y: 195.68894958496094
z: -0.19536587595939636
visibility: 0.9999450445175171
","x: 237.67254638671875
y: 195.89820861816406
z: -0.19537508487701416
visibility: 0.9999471306800842
","x: 229.3184051513672
y: 195.5918731689453
z: -0.1944407969713211
visibility: 0.9999566078186035
","x: 227.30667114257812
y: 195.86915588378906
z: -0.19445674121379852
visibility: 0.9999540448188782
","x: 225.5210723876953
y: 196.31455993652344
z: -0.1943986713886261
visibility: 0.9999614953994751
","x: 241.3651123046875
y: 201.4381103515625
z: -0.07760359346866608
visibility: 0.9999257326126099
","x: 223.1705780029297
y: 202.29241943359375
z: -0.07382466644048691
visibility: 0.9999321699142456
","x: 234.8309326171875
y: 212.6844024658203
z: -0.17032726109027863
visibility: 0.9999772310256958
","x: 228.81130981445312
y: 212.1389617919922
z: -0.16923868656158447
visibility: 0.9999808073043823
","x: 255.61886596679688
y: 248.2735595703125
z: -0.012104418128728867
visibility: 0.9998102784156799
","x: 212.0382843017578
y: 252.10130310058594
z: 0.014868220314383507
visibility: 0.9996389746665955
","x: 273.3663330078125
y: 292.0003356933594
z: -0.01641329936683178
visibility: 0.9957427382469177
","x: 198.6510009765625
y: 300.4764404296875
z: -0.005054384935647249
visibility: 0.9863370656967163
","x: 267.32086181640625
y: 327.31060791015625
z: -0.16793149709701538
visibility: 0.9780239462852478
","x: 197.93922424316406
y: 318.5486755371094
z: -0.14689531922340393
visibility: 0.9613351225852966
","x: 266.6421203613281
y: 341.2801818847656
z: -0.20949797332286835
visibility: 0.9205465912818909
","x: 197.78768920898438
y: 330.1504211425781
z: -0.2251330316066742
visibility: 0.8805335760116577
","x: 263.1521301269531
y: 338.01324462890625
z: -0.22622975707054138
visibility: 0.914959192276001
","x: 200.70501708984375
y: 324.72052001953125
z: -0.2695264220237732
visibility: 0.8703696727752686
","x: 262.2277526855469
y: 333.73846435546875
z: -0.17954573035240173
visibility: 0.8936725854873657
","x: 201.36737060546875
y: 320.9239501953125
z: -0.1989734023809433
visibility: 0.8462350368499756
","x: 246.7342987060547
y: 368.99249267578125
z: -0.0081032020971179
visibility: 0.9992296099662781
","x: 220.6780548095703
y: 368.5321044921875
z: 0.008157890290021896
visibility: 0.9990942478179932
","x: 249.8682403564453
y: 468.0238342285156
z: -0.025576749816536903
visibility: 0.9907087087631226
","x: 221.63693237304688
y: 466.8790283203125
z: -0.023074131458997726
visibility: 0.9893375039100647
","x: 257.3854064941406
y: 543.0577392578125
z: 0.1606438010931015
visibility: 0.9887624979019165
","x: 221.09677124023438
y: 551.9913330078125
z: 0.1185540109872818
visibility: 0.9894388914108276
","x: 256.1249084472656
y: 550.941650390625
z: 0.16962888836860657
visibility: 0.8224574327468872
","x: 223.96705627441406
y: 563.138671875
z: 0.1236041933298111
visibility: 0.8300575017929077
","x: 260.13214111328125
y: 569.9806518554688
z: 0.02984352968633175
visibility: 0.9823242425918579
","x: 220.01637268066406
y: 577.900634765625
z: -0.02080468460917473
visibility: 0.9827146530151367
",,,,,,,,,,,,,,,,,,,,,,,,,,,,,,,,,,,,,,,,,,
10,"x: 239.35061645507812
y: 203.15463256835938
z: -0.22965088486671448
visibility: 0.9999829530715942
","x: 242.21420288085938
y: 195.79937744140625
z: -0.20967431366443634
visibility: 0.9999564290046692
","x: 244.1044464111328
y: 195.92958068847656
z: -0.20974388718605042
visibility: 0.9999493956565857
","x: 246.06651306152344
y: 196.14682006835938
z: -0.20979776978492737
visibility: 0.999951183795929
","x: 237.1857452392578
y: 195.8199462890625
z: -0.19860517978668213
visibility: 0.9999599456787109
","x: 235.10211181640625
y: 196.05018615722656
z: -0.19854915142059326
visibility: 0.9999576210975647
","x: 233.4033660888672
y: 196.42245483398438
z: -0.19844964146614075
visibility: 0.9999642968177795
","x: 249.5431671142578
y: 201.7833251953125
z: -0.09461882710456848
visibility: 0.9999313950538635
","x: 230.9557647705078
y: 202.5088653564453
z: -0.08652956783771515
visibility: 0.9999371767044067
","x: 242.28292846679688
y: 213.06527709960938
z: -0.19015052914619446
visibility: 0.9999790191650391
","x: 236.47457885742188
y: 212.42611694335938
z: -0.16960030794143677
visibility: 0.9999822378158569
","x: 261.6112060546875
y: 250.4698028564453
z: -0.023377442732453346
visibility: 0.9998170733451843
","x: 218.55665588378906
y: 252.3597412109375
z: -0.0026341425254940987
visibility: 0.9996598958969116
","x: 284.13690185546875
y: 287.65386962890625
z: -0.18631595373153687
visibility: 0.995931088924408
","x: 196.78822326660156
y: 296.17999267578125
z: -0.11481495201587677
visibility: 0.9871828556060791
","x: 286.04998779296875
y: 260.6191711425781
z: -0.4319288730621338
visibility: 0.9797943830490112
","x: 189.05856323242188
y: 271.1501770019531
z: -0.38721007108688354
visibility: 0.9646767377853394
","x: 287.9353942871094
y: 246.29437255859375
z: -0.4798623025417328
visibility: 0.9268401265144348
","x: 184.57923889160156
y: 256.6427917480469
z: -0.44047707319259644
visibility: 0.8907800316810608
","x: 285.0556640625
y: 242.78433227539062
z: -0.476950079202652
visibility: 0.9217460751533508
","x: 186.36183166503906
y: 252.553955078125
z: -0.4401414394378662
visibility: 0.8816297054290771
","x: 282.68792724609375
y: 248.92538452148438
z: -0.4370010793209076
visibility: 0.901837944984436
","x: 188.8860626220703
y: 257.12371826171875
z: -0.39604315161705017
visibility: 0.8593214750289917
","x: 253.35675048828125
y: 370.0077819824219
z: -0.007354770787060261
visibility: 0.9992334246635437
","x: 228.02503967285156
y: 368.57843017578125
z: 0.007370966486632824
visibility: 0.9991235733032227
","x: 253.37876892089844
y: 468.16229248046875
z: -0.011188791133463383
visibility: 0.991145670413971
","x: 225.238037109375
y: 466.89019775390625
z: -0.0213466789573431
visibility: 0.9899075031280518
","x: 257.7564697265625
y: 543.1795043945312
z: 0.2085157185792923
visibility: 0.9886447787284851
","x: 221.42288208007812
y: 551.7893676757812
z: 0.16338208317756653
visibility: 0.9895458817481995
","x: 256.9210205078125
y: 551.5265502929688
z: 0.22285357117652893
visibility: 0.822336733341217
","x: 224.07151794433594
y: 562.8754272460938
z: 0.1738187074661255
visibility: 0.8296645879745483
","x: 259.5149841308594
y: 570.173828125
z: 0.08367029577493668
visibility: 0.9821452498435974
","x: 220.04750061035156
y: 577.4095458984375
z: 0.0222880020737648
visibility: 0.982694685459137
",,,,,,,,,,,,,,,,,,,,,,,,,,,,,,,,,,,,,,,,,,
11,"x: 245.8340301513672
y: 203.69293212890625
z: -0.25481846928596497
visibility: 0.9999834895133972
","x: 248.53013610839844
y: 196.4456024169922
z: -0.2293771207332611
visibility: 0.9999575018882751
","x: 250.4495391845703
y: 196.61497497558594
z: -0.22938919067382812
visibility: 0.9999499917030334
","x: 252.3997344970703
y: 196.86773681640625
z: -0.22946467995643616
visibility: 0.9999518394470215
","x: 243.44467163085938
y: 196.32757568359375
z: -0.22244933247566223
visibility: 0.9999617338180542
","x: 241.6652069091797
y: 196.46597290039062
z: -0.2224477082490921
visibility: 0.9999591708183289
","x: 239.7795867919922
y: 196.6917724609375
z: -0.22242319583892822
visibility: 0.9999660849571228
","x: 255.21534729003906
y: 202.2901611328125
z: -0.11088226735591888
visibility: 0.9999305009841919
","x: 237.111083984375
y: 202.78750610351562
z: -0.08933445811271667
visibility: 0.9999406933784485
","x: 248.8186492919922
y: 213.52174377441406
z: -0.2140645682811737
visibility: 0.9999769330024719
","x: 242.98052978515625
y: 212.69464111328125
z: -0.20474287867546082
visibility: 0.9999819993972778
","x: 267.3382873535156
y: 251.5963592529297
z: -0.041271962225437164
visibility: 0.9996776580810547
","x: 224.0931396484375
y: 253.93026733398438
z: -0.006439036689698696
visibility: 0.999607264995575
","x: 297.3211669921875
y: 262.8185729980469
z: -0.1306869238615036
visibility: 0.9961873888969421
","x: 195.6157684326172
y: 271.4470520019531
z: -0.0580466091632843
visibility: 0.9883654713630676
","x: 291.47845458984375
y: 201.56939697265625
z: -0.33519846200942993
visibility: 0.9812015891075134
","x: 191.40855407714844
y: 208.52719116210938
z: -0.17602001130580902
visibility: 0.967747151851654
","x: 293.281982421875
y: 184.08486938476562
z: -0.43436020612716675
visibility: 0.9306945204734802
","x: 191.3238983154297
y: 192.10885620117188
z: -0.21724967658519745
visibility: 0.8985658884048462
","x: 290.500732421875
y: 182.97410583496094
z: -0.3341899514198303
visibility: 0.9256683588027954
","x: 190.6156463623047
y: 190.2021942138672
z: -0.20254294574260712
visibility: 0.8899073004722595
","x: 288.3764953613281
y: 190.21304321289062
z: -0.3902328312397003
visibility: 0.9067429900169373
","x: 192.51589965820312
y: 195.7087860107422
z: -0.1766190379858017
visibility: 0.8690113425254822
","x: 258.4801330566406
y: 372.7005615234375
z: -0.00794120505452156
visibility: 0.9990332722663879
","x: 233.20416259765625
y: 370.9337158203125
z: 0.00796897616237402
visibility: 0.9990495443344116
","x: 256.1357116699219
y: 469.1082763671875
z: -0.003544687060639262
visibility: 0.9914500117301941
","x: 228.1336669921875
y: 468.34307861328125
z: -0.00736420089378953
visibility: 0.9903906583786011
","x: 258.07818603515625
y: 543.540771484375
z: 0.21538572013378143
visibility: 0.9885535836219788
","x: 222.28834533691406
y: 552.7237548828125
z: 0.1717202514410019
visibility: 0.9898859262466431
","x: 257.0924987792969
y: 551.8262939453125
z: 0.22947236895561218
visibility: 0.8245540261268616
","x: 224.6063995361328
y: 564.92919921875
z: 0.1812523454427719
visibility: 0.8354080319404602
","x: 259.365966796875
y: 570.4190673828125
z: 0.09256378561258316
visibility: 0.9818729162216187
","x: 218.94168090820312
y: 577.5281372070312
z: 0.03296396881341934
visibility: 0.9828460216522217
","x: 197.44619750976562
y: 207.61228942871094
z: 0.0
","x: 202.17257690429688
y: 201.38604736328125
z: -0.0004808907106053084
","x: 205.10067749023438
y: 192.85479736328125
z: -0.000898683734703809
","x: 206.876953125
y: 186.39788818359375
z: -0.001793527277186513
","x: 208.66761779785156
y: 182.1644744873047
z: -0.0022824215702712536
","x: 199.89491271972656
y: 183.12142944335938
z: 0.0016602419782429934
","x: 200.6449432373047
y: 173.13629150390625
z: 9.664950630394742e-05
","x: 202.0829315185547
y: 168.10214233398438
z: -0.0007235912489704788
","x: 203.3377227783203
y: 165.04983520507812
z: -0.0008475614013150334
","x: 197.29458618164062
y: 183.02789306640625
z: 0.0004774851549882442
","x: 198.36001586914062
y: 172.97622680664062
z: -0.0005835671327076852
","x: 200.21546936035156
y: 167.88499450683594
z: -0.0008207669598050416
","x: 201.7583770751953
y: 164.48294067382812
z: -0.0008163952152244747
","x: 195.31939697265625
y: 183.92816162109375
z: -0.0012120563769713044
","x: 196.5396270751953
y: 174.44454956054688
z: -0.002742912620306015
","x: 198.25979614257812
y: 169.5603790283203
z: -0.0028645573183894157
","x: 199.8920135498047
y: 166.39878845214844
z: -0.0026630768552422523
","x: 193.9732208251953
y: 185.64683532714844
z: -0.0032313030678778887
","x: 194.99407958984375
y: 177.109375
z: -0.00472254678606987
","x: 196.40904235839844
y: 171.81753540039062
z: -0.004914171528071165
","x: 198.00900268554688
y: 168.0821990966797
z: -0.004707866348326206
",,,,,,,,,,,,,,,,,,,,,
12,"x: 245.8340301513672
y: 203.69293212890625
z: -0.25481846928596497
visibility: 0.9999834895133972
","x: 248.53013610839844
y: 196.4456024169922
z: -0.2293771207332611
visibility: 0.9999575018882751
","x: 250.4495391845703
y: 196.61497497558594
z: -0.22938919067382812
visibility: 0.9999499917030334
","x: 252.3997344970703
y: 196.86773681640625
z: -0.22946467995643616
visibility: 0.9999518394470215
","x: 243.44467163085938
y: 196.32757568359375
z: -0.22244933247566223
visibility: 0.9999617338180542
","x: 241.6652069091797
y: 196.46597290039062
z: -0.2224477082490921
visibility: 0.9999591708183289
","x: 239.7795867919922
y: 196.6917724609375
z: -0.22242319583892822
visibility: 0.9999660849571228
","x: 255.21534729003906
y: 202.2901611328125
z: -0.11088226735591888
visibility: 0.9999305009841919
","x: 237.111083984375
y: 202.78750610351562
z: -0.08933445811271667
visibility: 0.9999406933784485
","x: 248.8186492919922
y: 213.52174377441406
z: -0.2140645682811737
visibility: 0.9999769330024719
","x: 242.98052978515625
y: 212.69464111328125
z: -0.20474287867546082
visibility: 0.9999819993972778
","x: 267.3382873535156
y: 251.5963592529297
z: -0.041271962225437164
visibility: 0.9996776580810547
","x: 224.0931396484375
y: 253.93026733398438
z: -0.006439036689698696
visibility: 0.999607264995575
","x: 297.3211669921875
y: 262.8185729980469
z: -0.1306869238615036
visibility: 0.9961873888969421
","x: 195.6157684326172
y: 271.4470520019531
z: -0.0580466091632843
visibility: 0.9883654713630676
","x: 291.47845458984375
y: 201.56939697265625
z: -0.33519846200942993
visibility: 0.9812015891075134
","x: 191.40855407714844
y: 208.52719116210938
z: -0.17602001130580902
visibility: 0.967747151851654
","x: 293.281982421875
y: 184.08486938476562
z: -0.43436020612716675
visibility: 0.9306945204734802
","x: 191.3238983154297
y: 192.10885620117188
z: -0.21724967658519745
visibility: 0.8985658884048462
","x: 290.500732421875
y: 182.97410583496094
z: -0.3341899514198303
visibility: 0.9256683588027954
","x: 190.6156463623047
y: 190.2021942138672
z: -0.20254294574260712
visibility: 0.8899073004722595
","x: 288.3764953613281
y: 190.21304321289062
z: -0.3902328312397003
visibility: 0.9067429900169373
","x: 192.51589965820312
y: 195.7087860107422
z: -0.1766190379858017
visibility: 0.8690113425254822
","x: 258.4801330566406
y: 372.7005615234375
z: -0.00794120505452156
visibility: 0.9990332722663879
","x: 233.20416259765625
y: 370.9337158203125
z: 0.00796897616237402
visibility: 0.9990495443344116
","x: 256.1357116699219
y: 469.1082763671875
z: -0.003544687060639262
visibility: 0.9914500117301941
","x: 228.1336669921875
y: 468.34307861328125
z: -0.00736420089378953
visibility: 0.9903906583786011
","x: 258.07818603515625
y: 543.540771484375
z: 0.21538572013378143
visibility: 0.9885535836219788
","x: 222.28834533691406
y: 552.7237548828125
z: 0.1717202514410019
visibility: 0.9898859262466431
","x: 257.0924987792969
y: 551.8262939453125
z: 0.22947236895561218
visibility: 0.8245540261268616
","x: 224.6063995361328
y: 564.92919921875
z: 0.1812523454427719
visibility: 0.8354080319404602
","x: 259.365966796875
y: 570.4190673828125
z: 0.09256378561258316
visibility: 0.9818729162216187
","x: 218.94168090820312
y: 577.5281372070312
z: 0.03296396881341934
visibility: 0.9828460216522217
","x: 197.44619750976562
y: 207.61228942871094
z: 0.0
","x: 202.17257690429688
y: 201.38604736328125
z: -0.0004808907106053084
","x: 205.10067749023438
y: 192.85479736328125
z: -0.000898683734703809
","x: 206.876953125
y: 186.39788818359375
z: -0.001793527277186513
","x: 208.66761779785156
y: 182.1644744873047
z: -0.0022824215702712536
","x: 199.89491271972656
y: 183.12142944335938
z: 0.0016602419782429934
","x: 200.6449432373047
y: 173.13629150390625
z: 9.664950630394742e-05
","x: 202.0829315185547
y: 168.10214233398438
z: -0.0007235912489704788
","x: 203.3377227783203
y: 165.04983520507812
z: -0.0008475614013150334
","x: 197.29458618164062
y: 183.02789306640625
z: 0.0004774851549882442
","x: 198.36001586914062
y: 172.97622680664062
z: -0.0005835671327076852
","x: 200.21546936035156
y: 167.88499450683594
z: -0.0008207669598050416
","x: 201.7583770751953
y: 164.48294067382812
z: -0.0008163952152244747
","x: 195.31939697265625
y: 183.92816162109375
z: -0.0012120563769713044
","x: 196.5396270751953
y: 174.44454956054688
z: -0.002742912620306015
","x: 198.25979614257812
y: 169.5603790283203
z: -0.0028645573183894157
","x: 199.8920135498047
y: 166.39878845214844
z: -0.0026630768552422523
","x: 193.9732208251953
y: 185.64683532714844
z: -0.0032313030678778887
","x: 194.99407958984375
y: 177.109375
z: -0.00472254678606987
","x: 196.40904235839844
y: 171.81753540039062
z: -0.004914171528071165
","x: 198.00900268554688
y: 168.0821990966797
z: -0.004707866348326206
",,,,,,,,,,,,,,,,,,,,,
13,"x: 252.3007049560547
y: 203.70713806152344
z: -0.22167713940143585
visibility: 0.9999847412109375
","x: 255.306640625
y: 197.3166046142578
z: -0.19328130781650543
visibility: 0.9999608993530273
","x: 257.0171203613281
y: 197.6497802734375
z: -0.19325871765613556
visibility: 0.99995356798172
","x: 258.88348388671875
y: 198.0782470703125
z: -0.19331501424312592
visibility: 0.9999554753303528
","x: 249.9086151123047
y: 196.73458862304688
z: -0.18915067613124847
visibility: 0.9999648928642273
","x: 248.13943481445312
y: 196.6938018798828
z: -0.18915703892707825
visibility: 0.9999622702598572
","x: 246.4578399658203
y: 196.7584228515625
z: -0.18912145495414734
visibility: 0.999968945980072
","x: 261.3160705566406
y: 203.27838134765625
z: -0.06810473650693893
visibility: 0.9999353885650635
","x: 243.82933044433594
y: 202.78158569335938
z: -0.04962548241019249
visibility: 0.9999459981918335
","x: 254.7567901611328
y: 213.6234893798828
z: -0.17896229028701782
visibility: 0.9999774098396301
","x: 248.76852416992188
y: 212.70657348632812
z: -0.1731358766555786
visibility: 0.999983012676239
","x: 273.04779052734375
y: 250.97593688964844
z: -0.02116529457271099
visibility: 0.9996008276939392
","x: 229.42294311523438
y: 253.34634399414062
z: 0.01364928763359785
visibility: 0.9995744228363037
","x: 298.6305236816406
y: 223.1881103515625
z: -0.08675731718540192
visibility: 0.996275007724762
","x: 201.81686401367188
y: 226.93312072753906
z: -0.025504877790808678
visibility: 0.9894269704818726
","x: 295.53240966796875
y: 163.4908905029297
z: -0.16823157668113708
visibility: 0.9819868803024292
","x: 208.0853271484375
y: 169.95562744140625
z: -0.1036568284034729
visibility: 0.9701645970344543
","x: 297.00439453125
y: 146.5030059814453
z: -0.2082388699054718
visibility: 0.933061957359314
","x: 209.82455444335938
y: 156.34164428710938
z: -0.1466110199689865
visibility: 0.9034634232521057
","x: 294.7720947265625
y: 144.62710571289062
z: -0.20546960830688477
visibility: 0.9280035495758057
","x: 213.4900360107422
y: 156.06777954101562
z: -0.13110102713108063
visibility: 0.8948188424110413
","x: 293.3538513183594
y: 150.4794464111328
z: -0.17999616265296936
visibility: 0.9102810025215149
","x: 214.14749145507812
y: 160.54605102539062
z: -0.1050470620393753
visibility: 0.8757286667823792
","x: 263.0191650390625
y: 372.6978759765625
z: -0.008164291270077229
visibility: 0.9990736246109009
","x: 237.2728729248047
y: 370.92327880859375
z: 0.008193966001272202
visibility: 0.9990937113761902
","x: 260.3125915527344
y: 470.786865234375
z: -0.030414974316954613
visibility: 0.9916154742240906
","x: 229.7089385986328
y: 468.3287353515625
z: -0.02205961011350155
visibility: 0.990719735622406
","x: 259.2408447265625
y: 543.849609375
z: 0.21095387637615204
visibility: 0.9880942702293396
","x: 223.28480529785156
y: 552.5830688476562
z: 0.17626415193080902
visibility: 0.9900866746902466
","x: 257.534912109375
y: 552.112060546875
z: 0.22731086611747742
visibility: 0.8235597014427185
","x: 225.37098693847656
y: 563.8974609375
z: 0.1882687360048294
visibility: 0.8413017392158508
","x: 260.2081604003906
y: 570.4771728515625
z: 0.08622737973928452
visibility: 0.9808835387229919
","x: 219.41653442382812
y: 577.09033203125
z: 0.03934212774038315
visibility: 0.9827643036842346
","x: 210.91380310058594
y: 166.06744384765625
z: 0.0
","x: 215.28671264648438
y: 165.0476837158203
z: -0.0003720907843671739
","x: 218.97499084472656
y: 161.23898315429688
z: -0.0012582824565470219
","x: 221.62844848632812
y: 157.94747924804688
z: -0.0022824013140052557
","x: 224.0607147216797
y: 156.02102661132812
z: -0.003080627415329218
","x: 217.40609741210938
y: 153.47799682617188
z: -0.0012621197383850813
","x: 220.6726837158203
y: 147.59136962890625
z: -0.0030456469394266605
","x: 223.32968139648438
y: 144.15924072265625
z: -0.004072209820151329
","x: 225.52415466308594
y: 141.8614501953125
z: -0.004596157930791378
","x: 216.30677795410156
y: 152.39198303222656
z: -0.0022612102329730988
","x: 219.67288208007812
y: 146.38531494140625
z: -0.003976686857640743
","x: 222.7028350830078
y: 143.36172485351562
z: -0.004534310661256313
","x: 225.21356201171875
y: 141.23739624023438
z: -0.0048758103512227535
","x: 215.513916015625
y: 152.35537719726562
z: -0.003397683845832944
","x: 218.64520263671875
y: 146.61318969726562
z: -0.005116819404065609
","x: 221.53175354003906
y: 143.70542907714844
z: -0.005509897600859404
","x: 223.96676635742188
y: 141.874267578125
z: -0.005722488276660442
","x: 215.05613708496094
y: 153.3788299560547
z: -0.0046506617218256
","x: 217.37405395507812
y: 148.3918914794922
z: -0.005949146579951048
","x: 219.4857177734375
y: 145.72695922851562
z: -0.006218021735548973
","x: 221.41070556640625
y: 144.06346130371094
z: -0.006370870862156153
","x: 295.2010498046875
y: 156.681884765625
z: 0.0
","x: 292.6455993652344
y: 150.34463500976562
z: -0.0003021939191967249
","x: 291.46624755859375
y: 143.36195373535156
z: -0.0008972887299023569
","x: 291.47540283203125
y: 138.08229064941406
z: -0.0021437255199998617
","x: 292.00445556640625
y: 133.7819061279297
z: -0.003190109971910715
","x: 294.7889404296875
y: 135.9202423095703
z: 0.0020171436481177807
","x: 294.7937927246094
y: 128.76296997070312
z: 0.000583887449465692
","x: 294.62518310546875
y: 124.38621520996094
z: -0.000513234524987638
","x: 294.5586242675781
y: 120.71473693847656
z: -0.0011822425294667482
","x: 296.48419189453125
y: 136.6237030029297
z: 0.0003627483092714101
","x: 296.4901123046875
y: 129.3099365234375
z: -0.0008455958450213075
","x: 296.0227355957031
y: 124.86621856689453
z: -0.0017046217108145356
","x: 295.51947021484375
y: 120.97866821289062
z: -0.002311812713742256
","x: 297.9892578125
y: 138.4364471435547
z: -0.0017876112833619118
","x: 297.7570495605469
y: 132.4366455078125
z: -0.0032594637013971806
","x: 296.9756164550781
y: 129.811767578125
z: -0.003639338305220008
","x: 296.2681579589844
y: 127.9695816040039
z: -0.0037377015687525272
","x: 299.30975341796875
y: 141.303466796875
z: -0.004283044952899218
","x: 299.0253601074219
y: 136.7651824951172
z: -0.00520641403272748
","x: 298.06915283203125
y: 135.22027587890625
z: -0.005196927115321159
","x: 297.1706848144531
y: 134.55503845214844
z: -0.005075662396848202
"
14,"x: 252.3007049560547
y: 203.70713806152344
z: -0.22167713940143585
visibility: 0.9999847412109375
","x: 255.306640625
y: 197.3166046142578
z: -0.19328130781650543
visibility: 0.9999608993530273
","x: 257.0171203613281
y: 197.6497802734375
z: -0.19325871765613556
visibility: 0.99995356798172
","x: 258.88348388671875
y: 198.0782470703125
z: -0.19331501424312592
visibility: 0.9999554753303528
","x: 249.9086151123047
y: 196.73458862304688
z: -0.18915067613124847
visibility: 0.9999648928642273
","x: 248.13943481445312
y: 196.6938018798828
z: -0.18915703892707825
visibility: 0.9999622702598572
","x: 246.4578399658203
y: 196.7584228515625
z: -0.18912145495414734
visibility: 0.999968945980072
","x: 261.3160705566406
y: 203.27838134765625
z: -0.06810473650693893
visibility: 0.9999353885650635
","x: 243.82933044433594
y: 202.78158569335938
z: -0.04962548241019249
visibility: 0.9999459981918335
","x: 254.7567901611328
y: 213.6234893798828
z: -0.17896229028701782
visibility: 0.9999774098396301
","x: 248.76852416992188
y: 212.70657348632812
z: -0.1731358766555786
visibility: 0.999983012676239
","x: 273.04779052734375
y: 250.97593688964844
z: -0.02116529457271099
visibility: 0.9996008276939392
","x: 229.42294311523438
y: 253.34634399414062
z: 0.01364928763359785
visibility: 0.9995744228363037
","x: 298.6305236816406
y: 223.1881103515625
z: -0.08675731718540192
visibility: 0.996275007724762
","x: 201.81686401367188
y: 226.93312072753906
z: -0.025504877790808678
visibility: 0.9894269704818726
","x: 295.53240966796875
y: 163.4908905029297
z: -0.16823157668113708
visibility: 0.9819868803024292
","x: 208.0853271484375
y: 169.95562744140625
z: -0.1036568284034729
visibility: 0.9701645970344543
","x: 297.00439453125
y: 146.5030059814453
z: -0.2082388699054718
visibility: 0.933061957359314
","x: 209.82455444335938
y: 156.34164428710938
z: -0.1466110199689865
visibility: 0.9034634232521057
","x: 294.7720947265625
y: 144.62710571289062
z: -0.20546960830688477
visibility: 0.9280035495758057
","x: 213.4900360107422
y: 156.06777954101562
z: -0.13110102713108063
visibility: 0.8948188424110413
","x: 293.3538513183594
y: 150.4794464111328
z: -0.17999616265296936
visibility: 0.9102810025215149
","x: 214.14749145507812
y: 160.54605102539062
z: -0.1050470620393753
visibility: 0.8757286667823792
","x: 263.0191650390625
y: 372.6978759765625
z: -0.008164291270077229
visibility: 0.9990736246109009
","x: 237.2728729248047
y: 370.92327880859375
z: 0.008193966001272202
visibility: 0.9990937113761902
","x: 260.3125915527344
y: 470.786865234375
z: -0.030414974316954613
visibility: 0.9916154742240906
","x: 229.7089385986328
y: 468.3287353515625
z: -0.02205961011350155
visibility: 0.990719735622406
","x: 259.2408447265625
y: 543.849609375
z: 0.21095387637615204
visibility: 0.9880942702293396
","x: 223.28480529785156
y: 552.5830688476562
z: 0.17626415193080902
visibility: 0.9900866746902466
","x: 257.534912109375
y: 552.112060546875
z: 0.22731086611747742
visibility: 0.8235597014427185
","x: 225.37098693847656
y: 563.8974609375
z: 0.1882687360048294
visibility: 0.8413017392158508
","x: 260.2081604003906
y: 570.4771728515625
z: 0.08622737973928452
visibility: 0.9808835387229919
","x: 219.41653442382812
y: 577.09033203125
z: 0.03934212774038315
visibility: 0.9827643036842346
","x: 210.91380310058594
y: 166.06744384765625
z: 0.0
","x: 215.28671264648438
y: 165.0476837158203
z: -0.0003720907843671739
","x: 218.97499084472656
y: 161.23898315429688
z: -0.0012582824565470219
","x: 221.62844848632812
y: 157.94747924804688
z: -0.0022824013140052557
","x: 224.0607147216797
y: 156.02102661132812
z: -0.003080627415329218
","x: 217.40609741210938
y: 153.47799682617188
z: -0.0012621197383850813
","x: 220.6726837158203
y: 147.59136962890625
z: -0.0030456469394266605
","x: 223.32968139648438
y: 144.15924072265625
z: -0.004072209820151329
","x: 225.52415466308594
y: 141.8614501953125
z: -0.004596157930791378
","x: 216.30677795410156
y: 152.39198303222656
z: -0.0022612102329730988
","x: 219.67288208007812
y: 146.38531494140625
z: -0.003976686857640743
","x: 222.7028350830078
y: 143.36172485351562
z: -0.004534310661256313
","x: 225.21356201171875
y: 141.23739624023438
z: -0.0048758103512227535
","x: 215.513916015625
y: 152.35537719726562
z: -0.003397683845832944
","x: 218.64520263671875
y: 146.61318969726562
z: -0.005116819404065609
","x: 221.53175354003906
y: 143.70542907714844
z: -0.005509897600859404
","x: 223.96676635742188
y: 141.874267578125
z: -0.005722488276660442
","x: 215.05613708496094
y: 153.3788299560547
z: -0.0046506617218256
","x: 217.37405395507812
y: 148.3918914794922
z: -0.005949146579951048
","x: 219.4857177734375
y: 145.72695922851562
z: -0.006218021735548973
","x: 221.41070556640625
y: 144.06346130371094
z: -0.006370870862156153
","x: 295.2010498046875
y: 156.681884765625
z: 0.0
","x: 292.6455993652344
y: 150.34463500976562
z: -0.0003021939191967249
","x: 291.46624755859375
y: 143.36195373535156
z: -0.0008972887299023569
","x: 291.47540283203125
y: 138.08229064941406
z: -0.0021437255199998617
","x: 292.00445556640625
y: 133.7819061279297
z: -0.003190109971910715
","x: 294.7889404296875
y: 135.9202423095703
z: 0.0020171436481177807
","x: 294.7937927246094
y: 128.76296997070312
z: 0.000583887449465692
","x: 294.62518310546875
y: 124.38621520996094
z: -0.000513234524987638
","x: 294.5586242675781
y: 120.71473693847656
z: -0.0011822425294667482
","x: 296.48419189453125
y: 136.6237030029297
z: 0.0003627483092714101
","x: 296.4901123046875
y: 129.3099365234375
z: -0.0008455958450213075
","x: 296.0227355957031
y: 124.86621856689453
z: -0.0017046217108145356
","x: 295.51947021484375
y: 120.97866821289062
z: -0.002311812713742256
","x: 297.9892578125
y: 138.4364471435547
z: -0.0017876112833619118
","x: 297.7570495605469
y: 132.4366455078125
z: -0.0032594637013971806
","x: 296.9756164550781
y: 129.811767578125
z: -0.003639338305220008
","x: 296.2681579589844
y: 127.9695816040039
z: -0.0037377015687525272
","x: 299.30975341796875
y: 141.303466796875
z: -0.004283044952899218
","x: 299.0253601074219
y: 136.7651824951172
z: -0.00520641403272748
","x: 298.06915283203125
y: 135.22027587890625
z: -0.005196927115321159
","x: 297.1706848144531
y: 134.55503845214844
z: -0.005075662396848202
"
15,"x: 252.3007049560547
y: 203.70713806152344
z: -0.22167713940143585
visibility: 0.9999847412109375
","x: 255.306640625
y: 197.3166046142578
z: -0.19328130781650543
visibility: 0.9999608993530273
","x: 257.0171203613281
y: 197.6497802734375
z: -0.19325871765613556
visibility: 0.99995356798172
","x: 258.88348388671875
y: 198.0782470703125
z: -0.19331501424312592
visibility: 0.9999554753303528
","x: 249.9086151123047
y: 196.73458862304688
z: -0.18915067613124847
visibility: 0.9999648928642273
","x: 248.13943481445312
y: 196.6938018798828
z: -0.18915703892707825
visibility: 0.9999622702598572
","x: 246.4578399658203
y: 196.7584228515625
z: -0.18912145495414734
visibility: 0.999968945980072
","x: 261.3160705566406
y: 203.27838134765625
z: -0.06810473650693893
visibility: 0.9999353885650635
","x: 243.82933044433594
y: 202.78158569335938
z: -0.04962548241019249
visibility: 0.9999459981918335
","x: 254.7567901611328
y: 213.6234893798828
z: -0.17896229028701782
visibility: 0.9999774098396301
","x: 248.76852416992188
y: 212.70657348632812
z: -0.1731358766555786
visibility: 0.999983012676239
","x: 273.04779052734375
y: 250.97593688964844
z: -0.02116529457271099
visibility: 0.9996008276939392
","x: 229.42294311523438
y: 253.34634399414062
z: 0.01364928763359785
visibility: 0.9995744228363037
","x: 298.6305236816406
y: 223.1881103515625
z: -0.08675731718540192
visibility: 0.996275007724762
","x: 201.81686401367188
y: 226.93312072753906
z: -0.025504877790808678
visibility: 0.9894269704818726
","x: 295.53240966796875
y: 163.4908905029297
z: -0.16823157668113708
visibility: 0.9819868803024292
","x: 208.0853271484375
y: 169.95562744140625
z: -0.1036568284034729
visibility: 0.9701645970344543
","x: 297.00439453125
y: 146.5030059814453
z: -0.2082388699054718
visibility: 0.933061957359314
","x: 209.82455444335938
y: 156.34164428710938
z: -0.1466110199689865
visibility: 0.9034634232521057
","x: 294.7720947265625
y: 144.62710571289062
z: -0.20546960830688477
visibility: 0.9280035495758057
","x: 213.4900360107422
y: 156.06777954101562
z: -0.13110102713108063
visibility: 0.8948188424110413
","x: 293.3538513183594
y: 150.4794464111328
z: -0.17999616265296936
visibility: 0.9102810025215149
","x: 214.14749145507812
y: 160.54605102539062
z: -0.1050470620393753
visibility: 0.8757286667823792
","x: 263.0191650390625
y: 372.6978759765625
z: -0.008164291270077229
visibility: 0.9990736246109009
","x: 237.2728729248047
y: 370.92327880859375
z: 0.008193966001272202
visibility: 0.9990937113761902
","x: 260.3125915527344
y: 470.786865234375
z: -0.030414974316954613
visibility: 0.9916154742240906
","x: 229.7089385986328
y: 468.3287353515625
z: -0.02205961011350155
visibility: 0.990719735622406
","x: 259.2408447265625
y: 543.849609375
z: 0.21095387637615204
visibility: 0.9880942702293396
","x: 223.28480529785156
y: 552.5830688476562
z: 0.17626415193080902
visibility: 0.9900866746902466
","x: 257.534912109375
y: 552.112060546875
z: 0.22731086611747742
visibility: 0.8235597014427185
","x: 225.37098693847656
y: 563.8974609375
z: 0.1882687360048294
visibility: 0.8413017392158508
","x: 260.2081604003906
y: 570.4771728515625
z: 0.08622737973928452
visibility: 0.9808835387229919
","x: 219.41653442382812
y: 577.09033203125
z: 0.03934212774038315
visibility: 0.9827643036842346
","x: 210.91380310058594
y: 166.06744384765625
z: 0.0
","x: 215.28671264648438
y: 165.0476837158203
z: -0.0003720907843671739
","x: 218.97499084472656
y: 161.23898315429688
z: -0.0012582824565470219
","x: 221.62844848632812
y: 157.94747924804688
z: -0.0022824013140052557
","x: 224.0607147216797
y: 156.02102661132812
z: -0.003080627415329218
","x: 217.40609741210938
y: 153.47799682617188
z: -0.0012621197383850813
","x: 220.6726837158203
y: 147.59136962890625
z: -0.0030456469394266605
","x: 223.32968139648438
y: 144.15924072265625
z: -0.004072209820151329
","x: 225.52415466308594
y: 141.8614501953125
z: -0.004596157930791378
","x: 216.30677795410156
y: 152.39198303222656
z: -0.0022612102329730988
","x: 219.67288208007812
y: 146.38531494140625
z: -0.003976686857640743
","x: 222.7028350830078
y: 143.36172485351562
z: -0.004534310661256313
","x: 225.21356201171875
y: 141.23739624023438
z: -0.0048758103512227535
","x: 215.513916015625
y: 152.35537719726562
z: -0.003397683845832944
","x: 218.64520263671875
y: 146.61318969726562
z: -0.005116819404065609
","x: 221.53175354003906
y: 143.70542907714844
z: -0.005509897600859404
","x: 223.96676635742188
y: 141.874267578125
z: -0.005722488276660442
","x: 215.05613708496094
y: 153.3788299560547
z: -0.0046506617218256
","x: 217.37405395507812
y: 148.3918914794922
z: -0.005949146579951048
","x: 219.4857177734375
y: 145.72695922851562
z: -0.006218021735548973
","x: 221.41070556640625
y: 144.06346130371094
z: -0.006370870862156153
","x: 295.2010498046875
y: 156.681884765625
z: 0.0
","x: 292.6455993652344
y: 150.34463500976562
z: -0.0003021939191967249
","x: 291.46624755859375
y: 143.36195373535156
z: -0.0008972887299023569
","x: 291.47540283203125
y: 138.08229064941406
z: -0.0021437255199998617
","x: 292.00445556640625
y: 133.7819061279297
z: -0.003190109971910715
","x: 294.7889404296875
y: 135.9202423095703
z: 0.0020171436481177807
","x: 294.7937927246094
y: 128.76296997070312
z: 0.000583887449465692
","x: 294.62518310546875
y: 124.38621520996094
z: -0.000513234524987638
","x: 294.5586242675781
y: 120.71473693847656
z: -0.0011822425294667482
","x: 296.48419189453125
y: 136.6237030029297
z: 0.0003627483092714101
","x: 296.4901123046875
y: 129.3099365234375
z: -0.0008455958450213075
","x: 296.0227355957031
y: 124.86621856689453
z: -0.0017046217108145356
","x: 295.51947021484375
y: 120.97866821289062
z: -0.002311812713742256
","x: 297.9892578125
y: 138.4364471435547
z: -0.0017876112833619118
","x: 297.7570495605469
y: 132.4366455078125
z: -0.0032594637013971806
","x: 296.9756164550781
y: 129.811767578125
z: -0.003639338305220008
","x: 296.2681579589844
y: 127.9695816040039
z: -0.0037377015687525272
","x: 299.30975341796875
y: 141.303466796875
z: -0.004283044952899218
","x: 299.0253601074219
y: 136.7651824951172
z: -0.00520641403272748
","x: 298.06915283203125
y: 135.22027587890625
z: -0.005196927115321159
","x: 297.1706848144531
y: 134.55503845214844
z: -0.005075662396848202
"
16,"x: 254.86163330078125
y: 204.2155303955078
z: -0.1708190143108368
visibility: 0.9999857544898987
","x: 257.389404296875
y: 197.8921356201172
z: -0.1437096893787384
visibility: 0.9999638795852661
","x: 259.3100280761719
y: 198.22161865234375
z: -0.1436857432126999
visibility: 0.9999567270278931
","x: 261.44232177734375
y: 198.587158203125
z: -0.14373567700386047
visibility: 0.9999587535858154
","x: 252.859130859375
y: 197.1837158203125
z: -0.13899926841259003
visibility: 0.9999675750732422
","x: 251.4132537841797
y: 197.1147003173828
z: -0.13899549841880798
visibility: 0.9999647736549377
","x: 249.83551025390625
y: 197.07424926757812
z: -0.1389543116092682
visibility: 0.9999712705612183
","x: 265.00970458984375
y: 203.9346160888672
z: -0.027896780520677567
visibility: 0.9999400973320007
","x: 247.3428497314453
y: 202.8063201904297
z: -0.005180262960493565
visibility: 0.9999504089355469
","x: 257.37542724609375
y: 214.09017944335938
z: -0.1313774734735489
visibility: 0.9999777674674988
","x: 252.06439208984375
y: 213.08587646484375
z: -0.12506309151649475
visibility: 0.9999834895133972
","x: 275.5406188964844
y: 250.2836456298828
z: -0.000889600079972297
visibility: 0.9995795488357544
","x: 234.51145935058594
y: 250.82151794433594
z: 0.04146323353052139
visibility: 0.9995378851890564
","x: 296.63348388671875
y: 208.94996643066406
z: -0.05663686245679855
visibility: 0.9963604211807251
","x: 209.0773468017578
y: 209.18515014648438
z: -0.014705267734825611
visibility: 0.9901993870735168
","x: 294.1231689453125
y: 151.39817810058594
z: -0.09755298495292664
visibility: 0.9828668236732483
","x: 215.83721923828125
y: 160.47201538085938
z: -0.10043058544397354
visibility: 0.9716361165046692
","x: 294.273681640625
y: 135.1219482421875
z: -0.12925736606121063
visibility: 0.9362487196922302
","x: 216.8514862060547
y: 150.99783325195312
z: -0.14457808434963226
visibility: 0.9057801961898804
","x: 292.0749816894531
y: 133.44500732421875
z: -0.1307907998561859
visibility: 0.9312232136726379
","x: 220.40008544921875
y: 150.4569091796875
z: -0.13202351331710815
visibility: 0.8969547748565674
","x: 291.361328125
y: 139.38894653320312
z: -0.10364864766597748
visibility: 0.9147024750709534
","x: 221.16671752929688
y: 153.8295440673828
z: -0.104036346077919
visibility: 0.8798718452453613
","x: 264.4378967285156
y: 372.642333984375
z: -0.009251095354557037
visibility: 0.999146580696106
","x: 238.40748596191406
y: 370.062744140625
z: 0.009269840084016323
visibility: 0.999156653881073
","x: 260.5736389160156
y: 470.8907470703125
z: -0.025235846638679504
visibility: 0.9918439984321594
","x: 230.7177276611328
y: 467.204345703125
z: -0.01485417503863573
visibility: 0.9909980893135071
","x: 259.79937744140625
y: 543.840576171875
z: 0.2128102332353592
visibility: 0.9880816340446472
","x: 225.2197723388672
y: 548.3348388671875
z: 0.19503168761730194
visibility: 0.9903453588485718
","x: 258.0178527832031
y: 552.1455078125
z: 0.22896018624305725
visibility: 0.8250141739845276
","x: 226.6591339111328
y: 557.7296142578125
z: 0.20784077048301697
visibility: 0.8471711874008179
","x: 259.4721984863281
y: 569.9598388671875
z: 0.09006357938051224
visibility: 0.9805477857589722
","x: 220.74600219726562
y: 573.355224609375
z: 0.07026322185993195
visibility: 0.9830083250999451
",,,,,,,,,,,,,,,,,,,,,,"x: 292.90997314453125
y: 147.4658660888672
z: 0.0
","x: 290.0413513183594
y: 140.04229736328125
z: 0.00037924168282188475
","x: 288.7027282714844
y: 133.50343322753906
z: -0.0005487534799613059
","x: 288.88494873046875
y: 128.7128143310547
z: -0.0023680420126765966
","x: 289.6565856933594
y: 126.01985931396484
z: -0.0039939479902386665
","x: 291.6039733886719
y: 127.93397521972656
z: -2.3985408915905282e-05
","x: 291.6112060546875
y: 121.81120300292969
z: -0.003032620530575514
","x: 291.2697448730469
y: 118.36456298828125
z: -0.004612322431057692
","x: 290.9134826660156
y: 115.67086791992188
z: -0.005451963748782873
","x: 293.6777038574219
y: 129.42543029785156
z: -0.0025479882024228573
","x: 293.41143798828125
y: 123.37919616699219
z: -0.005887179169803858
","x: 292.49609375
y: 120.34471130371094
z: -0.006786286365240812
","x: 291.7013244628906
y: 118.26453399658203
z: -0.007101141847670078
","x: 295.5787048339844
y: 132.08987426757812
z: -0.00542251905426383
","x: 294.8197021484375
y: 128.923583984375
z: -0.008460148237645626
","x: 293.44427490234375
y: 130.97109985351562
z: -0.007477685809135437
","x: 292.53900146484375
y: 133.30474853515625
z: -0.006145539693534374
","x: 297.1961364746094
y: 135.7589874267578
z: -0.00863507017493248
","x: 296.72308349609375
y: 133.03688049316406
z: -0.0106826676055789
","x: 295.635009765625
y: 133.5299835205078
z: -0.010046059265732765
","x: 294.8838195800781
y: 134.7868194580078
z: -0.009044680744409561
"
17,"x: 254.86163330078125
y: 204.2155303955078
z: -0.1708190143108368
visibility: 0.9999857544898987
","x: 257.389404296875
y: 197.8921356201172
z: -0.1437096893787384
visibility: 0.9999638795852661
","x: 259.3100280761719
y: 198.22161865234375
z: -0.1436857432126999
visibility: 0.9999567270278931
","x: 261.44232177734375
y: 198.587158203125
z: -0.14373567700386047
visibility: 0.9999587535858154
","x: 252.859130859375
y: 197.1837158203125
z: -0.13899926841259003
visibility: 0.9999675750732422
","x: 251.4132537841797
y: 197.1147003173828
z: -0.13899549841880798
visibility: 0.9999647736549377
","x: 249.83551025390625
y: 197.07424926757812
z: -0.1389543116092682
visibility: 0.9999712705612183
","x: 265.00970458984375
y: 203.9346160888672
z: -0.027896780520677567
visibility: 0.9999400973320007
","x: 247.3428497314453
y: 202.8063201904297
z: -0.005180262960493565
visibility: 0.9999504089355469
","x: 257.37542724609375
y: 214.09017944335938
z: -0.1313774734735489
visibility: 0.9999777674674988
","x: 252.06439208984375
y: 213.08587646484375
z: -0.12506309151649475
visibility: 0.9999834895133972
","x: 275.5406188964844
y: 250.2836456298828
z: -0.000889600079972297
visibility: 0.9995795488357544
","x: 234.51145935058594
y: 250.82151794433594
z: 0.04146323353052139
visibility: 0.9995378851890564
","x: 296.63348388671875
y: 208.94996643066406
z: -0.05663686245679855
visibility: 0.9963604211807251
","x: 209.0773468017578
y: 209.18515014648438
z: -0.014705267734825611
visibility: 0.9901993870735168
","x: 294.1231689453125
y: 151.39817810058594
z: -0.09755298495292664
visibility: 0.9828668236732483
","x: 215.83721923828125
y: 160.47201538085938
z: -0.10043058544397354
visibility: 0.9716361165046692
","x: 294.273681640625
y: 135.1219482421875
z: -0.12925736606121063
visibility: 0.9362487196922302
","x: 216.8514862060547
y: 150.99783325195312
z: -0.14457808434963226
visibility: 0.9057801961898804
","x: 292.0749816894531
y: 133.44500732421875
z: -0.1307907998561859
visibility: 0.9312232136726379
","x: 220.40008544921875
y: 150.4569091796875
z: -0.13202351331710815
visibility: 0.8969547748565674
","x: 291.361328125
y: 139.38894653320312
z: -0.10364864766597748
visibility: 0.9147024750709534
","x: 221.16671752929688
y: 153.8295440673828
z: -0.104036346077919
visibility: 0.8798718452453613
","x: 264.4378967285156
y: 372.642333984375
z: -0.009251095354557037
visibility: 0.999146580696106
","x: 238.40748596191406
y: 370.062744140625
z: 0.009269840084016323
visibility: 0.999156653881073
","x: 260.5736389160156
y: 470.8907470703125
z: -0.025235846638679504
visibility: 0.9918439984321594
","x: 230.7177276611328
y: 467.204345703125
z: -0.01485417503863573
visibility: 0.9909980893135071
","x: 259.79937744140625
y: 543.840576171875
z: 0.2128102332353592
visibility: 0.9880816340446472
","x: 225.2197723388672
y: 548.3348388671875
z: 0.19503168761730194
visibility: 0.9903453588485718
","x: 258.0178527832031
y: 552.1455078125
z: 0.22896018624305725
visibility: 0.8250141739845276
","x: 226.6591339111328
y: 557.7296142578125
z: 0.20784077048301697
visibility: 0.8471711874008179
","x: 259.4721984863281
y: 569.9598388671875
z: 0.09006357938051224
visibility: 0.9805477857589722
","x: 220.74600219726562
y: 573.355224609375
z: 0.07026322185993195
visibility: 0.9830083250999451
",,,,,,,,,,,,,,,,,,,,,,"x: 292.90997314453125
y: 147.4658660888672
z: 0.0
","x: 290.0413513183594
y: 140.04229736328125
z: 0.00037924168282188475
","x: 288.7027282714844
y: 133.50343322753906
z: -0.0005487534799613059
","x: 288.88494873046875
y: 128.7128143310547
z: -0.0023680420126765966
","x: 289.6565856933594
y: 126.01985931396484
z: -0.0039939479902386665
","x: 291.6039733886719
y: 127.93397521972656
z: -2.3985408915905282e-05
","x: 291.6112060546875
y: 121.81120300292969
z: -0.003032620530575514
","x: 291.2697448730469
y: 118.36456298828125
z: -0.004612322431057692
","x: 290.9134826660156
y: 115.67086791992188
z: -0.005451963748782873
","x: 293.6777038574219
y: 129.42543029785156
z: -0.0025479882024228573
","x: 293.41143798828125
y: 123.37919616699219
z: -0.005887179169803858
","x: 292.49609375
y: 120.34471130371094
z: -0.006786286365240812
","x: 291.7013244628906
y: 118.26453399658203
z: -0.007101141847670078
","x: 295.5787048339844
y: 132.08987426757812
z: -0.00542251905426383
","x: 294.8197021484375
y: 128.923583984375
z: -0.008460148237645626
","x: 293.44427490234375
y: 130.97109985351562
z: -0.007477685809135437
","x: 292.53900146484375
y: 133.30474853515625
z: -0.006145539693534374
","x: 297.1961364746094
y: 135.7589874267578
z: -0.00863507017493248
","x: 296.72308349609375
y: 133.03688049316406
z: -0.0106826676055789
","x: 295.635009765625
y: 133.5299835205078
z: -0.010046059265732765
","x: 294.8838195800781
y: 134.7868194580078
z: -0.009044680744409561
"
18,"x: 255.6913604736328
y: 209.50869750976562
z: -0.1394604742527008
visibility: 0.9999869465827942
","x: 258.8609924316406
y: 203.01979064941406
z: -0.11372312158346176
visibility: 0.999967098236084
","x: 260.6717529296875
y: 203.35296630859375
z: -0.11370022594928741
visibility: 0.9999603629112244
","x: 262.5504150390625
y: 203.80169677734375
z: -0.11371646821498871
visibility: 0.999962329864502
","x: 254.19580078125
y: 202.3232879638672
z: -0.11127623170614243
visibility: 0.9999704360961914
","x: 252.55995178222656
y: 202.24356079101562
z: -0.11128010600805283
visibility: 0.9999676942825317
","x: 250.90484619140625
y: 202.24423217773438
z: -0.1112421303987503
visibility: 0.9999737739562988
","x: 265.7665710449219
y: 208.36978149414062
z: -5.644178600050509e-05
visibility: 0.9999452829360962
","x: 248.4925994873047
y: 205.8516845703125
z: 0.01202118769288063
visibility: 0.999954879283905
","x: 258.0500793457031
y: 219.6361083984375
z: -0.10002139955759048
visibility: 0.9999790191650391
","x: 252.52590942382812
y: 218.29965209960938
z: -0.09693197906017303
visibility: 0.9999844431877136
","x: 274.8655090332031
y: 250.3885498046875
z: 0.01986880972981453
visibility: 0.9995930790901184
","x: 235.0224609375
y: 250.32498168945312
z: 0.036507684737443924
visibility: 0.9995554685592651
","x: 292.3819580078125
y: 209.5283203125
z: -0.06219257786870003
visibility: 0.9962450861930847
","x: 214.60350036621094
y: 211.10784912109375
z: -0.09162145853042603
visibility: 0.9907366037368774
","x: 291.4359130859375
y: 157.38267517089844
z: -0.13663259148597717
visibility: 0.9836612343788147
","x: 217.5984649658203
y: 162.47067260742188
z: -0.24971380829811096
visibility: 0.9730687141418457
","x: 292.1725158691406
y: 143.14431762695312
z: -0.1720070242881775
visibility: 0.9396300315856934
","x: 217.6969757080078
y: 153.3887939453125
z: -0.3040494918823242
visibility: 0.9097595810890198
","x: 290.47735595703125
y: 142.56350708007812
z: -0.17601856589317322
visibility: 0.9348212480545044
","x: 220.02099609375
y: 152.23379516601562
z: -0.29297956824302673
visibility: 0.9012799263000488
","x: 289.5987548828125
y: 146.88619995117188
z: -0.14435379207134247
visibility: 0.9195616245269775
","x: 220.64097595214844
y: 155.89511108398438
z: -0.2564610540866852
visibility: 0.8860207200050354
","x: 262.192138671875
y: 373.22747802734375
z: -0.00872129574418068
visibility: 0.9992212057113647
","x: 236.39366149902344
y: 370.0705261230469
z: 0.008727531880140305
visibility: 0.9992288947105408
","x: 258.54840087890625
y: 470.8378601074219
z: -0.006444224156439304
visibility: 0.9923132061958313
","x: 230.6181640625
y: 466.6620178222656
z: 0.0027189927641302347
visibility: 0.9914470314979553
","x: 259.9754943847656
y: 543.990234375
z: 0.19197054207324982
visibility: 0.9885010123252869
","x: 226.600341796875
y: 546.5062866210938
z: 0.1845664083957672
visibility: 0.9907584190368652
","x: 257.9635314941406
y: 552.4818115234375
z: 0.20215189456939697
visibility: 0.8299105167388916
","x: 228.33828735351562
y: 555.4999389648438
z: 0.19623446464538574
visibility: 0.8545636534690857
","x: 260.1033020019531
y: 569.751953125
z: 0.06523114442825317
visibility: 0.9810141324996948
","x: 220.7495880126953
y: 570.9593505859375
z: 0.05758311599493027
visibility: 0.9836298823356628
",,,,,,,,,,,,,,,,,,,,,,"x: 290.85986328125
y: 151.036865234375
z: 0.0
","x: 288.0611572265625
y: 145.72264099121094
z: -0.0005640235613100231
","x: 285.88555908203125
y: 141.3543701171875
z: -0.001940658432431519
","x: 285.17364501953125
y: 138.2177276611328
z: -0.0039300741627812386
","x: 285.9552917480469
y: 136.08961486816406
z: -0.005375906825065613
","x: 289.09161376953125
y: 134.56202697753906
z: -0.000735262525267899
","x: 289.632568359375
y: 129.78640747070312
z: -0.0036680472549051046
","x: 289.70526123046875
y: 131.5353240966797
z: -0.0047562518157064915
","x: 289.3664245605469
y: 134.48487854003906
z: -0.004989320877939463
","x: 291.5506591796875
y: 136.3790740966797
z: -0.0022557126358151436
","x: 292.65631103515625
y: 132.76756286621094
z: -0.005599132739007473
","x: 292.2627868652344
y: 135.81954956054688
z: -0.006037343759089708
","x: 291.4549865722656
y: 139.34019470214844
z: -0.0055620609782636166
","x: 293.6573486328125
y: 138.89173889160156
z: -0.004082841333001852
","x: 294.4048156738281
y: 138.16690063476562
z: -0.0069765630178153515
","x: 293.4266357421875
y: 141.66952514648438
z: -0.006221150979399681
","x: 292.4147033691406
y: 144.58937072753906
z: -0.004857582040131092
","x: 295.2872009277344
y: 142.0699462890625
z: -0.0062099932692945
","x: 295.92901611328125
y: 141.72824096679688
z: -0.007852712646126747
","x: 294.9525451660156
y: 144.39906311035156
z: -0.007217207923531532
","x: 293.8738098144531
y: 146.69239807128906
z: -0.006094883196055889
"
19,"x: 255.6913604736328
y: 209.50869750976562
z: -0.1394604742527008
visibility: 0.9999869465827942
","x: 258.8609924316406
y: 203.01979064941406
z: -0.11372312158346176
visibility: 0.999967098236084
","x: 260.6717529296875
y: 203.35296630859375
z: -0.11370022594928741
visibility: 0.9999603629112244
","x: 262.5504150390625
y: 203.80169677734375
z: -0.11371646821498871
visibility: 0.999962329864502
","x: 254.19580078125
y: 202.3232879638672
z: -0.11127623170614243
visibility: 0.9999704360961914
","x: 252.55995178222656
y: 202.24356079101562
z: -0.11128010600805283
visibility: 0.9999676942825317
","x: 250.90484619140625
y: 202.24423217773438
z: -0.1112421303987503
visibility: 0.9999737739562988
","x: 265.7665710449219
y: 208.36978149414062
z: -5.644178600050509e-05
visibility: 0.9999452829360962
","x: 248.4925994873047
y: 205.8516845703125
z: 0.01202118769288063
visibility: 0.999954879283905
","x: 258.0500793457031
y: 219.6361083984375
z: -0.10002139955759048
visibility: 0.9999790191650391
","x: 252.52590942382812
y: 218.29965209960938
z: -0.09693197906017303
visibility: 0.9999844431877136
","x: 274.8655090332031
y: 250.3885498046875
z: 0.01986880972981453
visibility: 0.9995930790901184
","x: 235.0224609375
y: 250.32498168945312
z: 0.036507684737443924
visibility: 0.9995554685592651
","x: 292.3819580078125
y: 209.5283203125
z: -0.06219257786870003
visibility: 0.9962450861930847
","x: 214.60350036621094
y: 211.10784912109375
z: -0.09162145853042603
visibility: 0.9907366037368774
","x: 291.4359130859375
y: 157.38267517089844
z: -0.13663259148597717
visibility: 0.9836612343788147
","x: 217.5984649658203
y: 162.47067260742188
z: -0.24971380829811096
visibility: 0.9730687141418457
","x: 292.1725158691406
y: 143.14431762695312
z: -0.1720070242881775
visibility: 0.9396300315856934
","x: 217.6969757080078
y: 153.3887939453125
z: -0.3040494918823242
visibility: 0.9097595810890198
","x: 290.47735595703125
y: 142.56350708007812
z: -0.17601856589317322
visibility: 0.9348212480545044
","x: 220.02099609375
y: 152.23379516601562
z: -0.29297956824302673
visibility: 0.9012799263000488
","x: 289.5987548828125
y: 146.88619995117188
z: -0.14435379207134247
visibility: 0.9195616245269775
","x: 220.64097595214844
y: 155.89511108398438
z: -0.2564610540866852
visibility: 0.8860207200050354
","x: 262.192138671875
y: 373.22747802734375
z: -0.00872129574418068
visibility: 0.9992212057113647
","x: 236.39366149902344
y: 370.0705261230469
z: 0.008727531880140305
visibility: 0.9992288947105408
","x: 258.54840087890625
y: 470.8378601074219
z: -0.006444224156439304
visibility: 0.9923132061958313
","x: 230.6181640625
y: 466.6620178222656
z: 0.0027189927641302347
visibility: 0.9914470314979553
","x: 259.9754943847656
y: 543.990234375
z: 0.19197054207324982
visibility: 0.9885010123252869
","x: 226.600341796875
y: 546.5062866210938
z: 0.1845664083957672
visibility: 0.9907584190368652
","x: 257.9635314941406
y: 552.4818115234375
z: 0.20215189456939697
visibility: 0.8299105167388916
","x: 228.33828735351562
y: 555.4999389648438
z: 0.19623446464538574
visibility: 0.8545636534690857
","x: 260.1033020019531
y: 569.751953125
z: 0.06523114442825317
visibility: 0.9810141324996948
","x: 220.7495880126953
y: 570.9593505859375
z: 0.05758311599493027
visibility: 0.9836298823356628
",,,,,,,,,,,,,,,,,,,,,,"x: 290.85986328125
y: 151.036865234375
z: 0.0
","x: 288.0611572265625
y: 145.72264099121094
z: -0.0005640235613100231
","x: 285.88555908203125
y: 141.3543701171875
z: -0.001940658432431519
","x: 285.17364501953125
y: 138.2177276611328
z: -0.0039300741627812386
","x: 285.9552917480469
y: 136.08961486816406
z: -0.005375906825065613
","x: 289.09161376953125
y: 134.56202697753906
z: -0.000735262525267899
","x: 289.632568359375
y: 129.78640747070312
z: -0.0036680472549051046
","x: 289.70526123046875
y: 131.5353240966797
z: -0.0047562518157064915
","x: 289.3664245605469
y: 134.48487854003906
z: -0.004989320877939463
","x: 291.5506591796875
y: 136.3790740966797
z: -0.0022557126358151436
","x: 292.65631103515625
y: 132.76756286621094
z: -0.005599132739007473
","x: 292.2627868652344
y: 135.81954956054688
z: -0.006037343759089708
","x: 291.4549865722656
y: 139.34019470214844
z: -0.0055620609782636166
","x: 293.6573486328125
y: 138.89173889160156
z: -0.004082841333001852
","x: 294.4048156738281
y: 138.16690063476562
z: -0.0069765630178153515
","x: 293.4266357421875
y: 141.66952514648438
z: -0.006221150979399681
","x: 292.4147033691406
y: 144.58937072753906
z: -0.004857582040131092
","x: 295.2872009277344
y: 142.0699462890625
z: -0.0062099932692945
","x: 295.92901611328125
y: 141.72824096679688
z: -0.007852712646126747
","x: 294.9525451660156
y: 144.39906311035156
z: -0.007217207923531532
","x: 293.8738098144531
y: 146.69239807128906
z: -0.006094883196055889
"
20,"x: 253.69091796875
y: 217.54916381835938
z: -0.12734165787696838
visibility: 0.9999874830245972
","x: 256.9393310546875
y: 210.54415893554688
z: -0.10230296850204468
visibility: 0.9999688863754272
","x: 258.7431945800781
y: 211.13922119140625
z: -0.10230682045221329
visibility: 0.9999620318412781
","x: 260.48486328125
y: 211.7233428955078
z: -0.10233161598443985
visibility: 0.9999642968177795
","x: 251.9753875732422
y: 209.4258270263672
z: -0.09750405699014664
visibility: 0.9999719262123108
","x: 250.35948181152344
y: 209.2365264892578
z: -0.09750089049339294
visibility: 0.9999685287475586
","x: 248.8333282470703
y: 209.14547729492188
z: -0.09744059294462204
visibility: 0.9999748468399048
","x: 263.7398986816406
y: 216.5889129638672
z: 0.0025062120985239744
visibility: 0.999948263168335
","x: 247.26673889160156
y: 212.34678649902344
z: 0.026427071541547775
visibility: 0.9999567866325378
","x: 256.3589782714844
y: 228.1149444580078
z: -0.09170982986688614
visibility: 0.9999775290489197
","x: 250.50184631347656
y: 226.85665893554688
z: -0.08514336496591568
visibility: 0.9999831914901733
","x: 272.8805847167969
y: 256.9620056152344
z: 0.00718995276838541
visibility: 0.999594509601593
","x: 233.62246704101562
y: 254.33387756347656
z: 0.060393668711185455
visibility: 0.999539852142334
","x: 291.97259521484375
y: 214.544677734375
z: -0.06603450328111649
visibility: 0.9962722063064575
","x: 215.93609619140625
y: 215.99114990234375
z: -0.023685049265623093
visibility: 0.9909313321113586
","x: 289.9320068359375
y: 162.1564483642578
z: -0.1526024490594864
visibility: 0.9843388795852661
","x: 216.57237243652344
y: 163.68531799316406
z: -0.14356805384159088
visibility: 0.9740682244300842
","x: 291.2019958496094
y: 150.0389404296875
z: -0.19132104516029358
visibility: 0.9426941871643066
","x: 214.66748046875
y: 153.82989501953125
z: -0.192997545003891
visibility: 0.9125871062278748
","x: 288.7514343261719
y: 148.92306518554688
z: -0.1990877091884613
visibility: 0.9381169676780701
","x: 217.3223419189453
y: 152.16738891601562
z: -0.18997403979301453
visibility: 0.9045999646186829
","x: 287.5121154785156
y: 153.10009765625
z: -0.16243977844715118
visibility: 0.9242444038391113
","x: 218.43955993652344
y: 156.14523315429688
z: -0.15360146760940552
visibility: 0.8914348483085632
","x: 259.4625549316406
y: 376.62908935546875
z: -0.0164666548371315
visibility: 0.9992789030075073
","x: 233.92762756347656
y: 371.7856140136719
z: 0.01652541384100914
visibility: 0.999282956123352
","x: 257.59112548828125
y: 471.1424560546875
z: -0.006165944505482912
visibility: 0.9926313161849976
","x: 229.60385131835938
y: 466.9024963378906
z: 0.0228734128177166
visibility: 0.9917483925819397
","x: 260.0153503417969
y: 543.9891967773438
z: 0.17085982859134674
visibility: 0.9888392686843872
","x: 227.4266357421875
y: 546.9340209960938
z: 0.18269333243370056
visibility: 0.9911429286003113
","x: 258.53656005859375
y: 552.495361328125
z: 0.1792943775653839
visibility: 0.8331947922706604
","x: 229.37355041503906
y: 556.216552734375
z: 0.1917427033185959
visibility: 0.8632351160049438
","x: 259.88677978515625
y: 569.5863647460938
z: 0.04098677635192871
visibility: 0.9812659025192261
","x: 220.77735900878906
y: 571.0614624023438
z: 0.06140552833676338
visibility: 0.9841668605804443
",,,,,,,,,,,,,,,,,,,,,,,,,,,,,,,,,,,,,,,,,,
21,"x: 251.86849975585938
y: 221.2119140625
z: -0.12363778054714203
visibility: 0.9999884963035583
","x: 255.12582397460938
y: 213.933349609375
z: -0.10063494741916656
visibility: 0.9999715089797974
","x: 256.965576171875
y: 214.662109375
z: -0.1006561741232872
visibility: 0.9999651312828064
","x: 258.8246154785156
y: 215.51316833496094
z: -0.10068120807409286
visibility: 0.9999672770500183
","x: 249.9020233154297
y: 212.33621215820312
z: -0.09465185552835464
visibility: 0.9999740719795227
","x: 248.22735595703125
y: 212.03009033203125
z: -0.09463724493980408
visibility: 0.999970555305481
","x: 246.6090545654297
y: 211.79632568359375
z: -0.09456159174442291
visibility: 0.9999764561653137
","x: 261.3566589355469
y: 221.09463500976562
z: -0.0035306927748024464
visibility: 0.9999526143074036
","x: 244.74749755859375
y: 214.93405151367188
z: 0.026750480756163597
visibility: 0.9999598264694214
","x: 254.4215545654297
y: 231.19667053222656
z: -0.09033171087503433
visibility: 0.9999787211418152
","x: 248.4213409423828
y: 229.75375366210938
z: -0.0818352922797203
visibility: 0.9999837875366211
","x: 270.6557922363281
y: 262.34869384765625
z: -0.001031164196319878
visibility: 0.9996263384819031
","x: 230.9374237060547
y: 256.91265869140625
z: 0.0644666999578476
visibility: 0.9995546340942383
","x: 285.0928649902344
y: 223.10946655273438
z: -0.15936024487018585
visibility: 0.996451735496521
","x: 212.3478240966797
y: 221.63438415527344
z: -0.013011476024985313
visibility: 0.9912002682685852
","x: 288.07672119140625
y: 170.40158081054688
z: -0.3075132966041565
visibility: 0.9855872988700867
","x: 213.76834106445312
y: 165.40438842773438
z: -0.1278730034828186
visibility: 0.9758061170578003
","x: 290.90087890625
y: 155.78033447265625
z: -0.35879772901535034
visibility: 0.9475364089012146
","x: 214.4377899169922
y: 150.20350646972656
z: -0.17499211430549622
visibility: 0.9181943535804749
","x: 288.6573181152344
y: 154.7277374267578
z: -0.3662819266319275
visibility: 0.9433432817459106
","x: 216.47955322265625
y: 147.44760131835938
z: -0.1730368286371231
visibility: 0.9108551144599915
","x: 286.77545166015625
y: 160.10256958007812
z: -0.31964999437332153
visibility: 0.9308002591133118
","x: 217.06748962402344
y: 153.56036376953125
z: -0.13797786831855774
visibility: 0.8993520736694336
","x: 256.29443359375
y: 380.5600280761719
z: -0.026929717510938644
visibility: 0.9993422031402588
","x: 232.38656616210938
y: 375.73284912109375
z: 0.026921724900603294
visibility: 0.9993411898612976
","x: 251.37307739257812
y: 473.56201171875
z: -0.009651551023125648
visibility: 0.9929731488227844
","x: 227.38055419921875
y: 470.09649658203125
z: 0.04346480220556259
visibility: 0.9920607209205627
","x: 259.548095703125
y: 544.0172729492188
z: 0.17264260351657867
visibility: 0.9892718195915222
","x: 227.18467712402344
y: 546.6478271484375
z: 0.21322758495807648
visibility: 0.991515040397644
","x: 258.90570068359375
y: 552.7794189453125
z: 0.18276146054267883
visibility: 0.8367114067077637
","x: 229.2550506591797
y: 556.1243286132812
z: 0.22273914515972137
visibility: 0.8724027276039124
","x: 259.7159729003906
y: 569.6641845703125
z: 0.04720321670174599
visibility: 0.9817095398902893
","x: 219.92581176757812
y: 569.9759521484375
z: 0.10764503479003906
visibility: 0.9847517013549805
","x: 211.9114990234375
y: 163.80841064453125
z: 0.0
","x: 214.3789520263672
y: 156.65586853027344
z: -0.001856755930930376
","x: 215.4564208984375
y: 149.12918090820312
z: -0.002381917554885149
","x: 214.5507049560547
y: 143.44923400878906
z: -0.0033616479486227036
","x: 212.91973876953125
y: 140.30877685546875
z: -0.004247700795531273
","x: 212.40869140625
y: 140.98208618164062
z: 0.0015813095960766077
","x: 212.0716552734375
y: 133.1073760986328
z: 6.931920506758615e-05
","x: 211.87062072753906
y: 128.5814208984375
z: -0.00123592687305063
","x: 211.52415466308594
y: 124.7462158203125
z: -0.002073949668556452
","x: 210.1305389404297
y: 141.59786987304688
z: 0.0005678795860148966
","x: 208.432861328125
y: 134.01190185546875
z: -0.0002139314019586891
","x: 207.5373992919922
y: 130.58297729492188
z: -0.0010258086258545518
","x: 206.74559020996094
y: 127.97384643554688
z: -0.001671251025982201
","x: 208.2183837890625
y: 143.70040893554688
z: -0.001206117682158947
","x: 206.22642517089844
y: 137.22633361816406
z: -0.002853736747056246
","x: 205.22341918945312
y: 134.4552459716797
z: -0.003850568551570177
","x: 204.45944213867188
y: 132.60113525390625
z: -0.0043604690581560135
","x: 206.57615661621094
y: 147.10696411132812
z: -0.0034607835114002228
","x: 204.79763793945312
y: 142.6927947998047
z: -0.004983403719961643
","x: 203.728759765625
y: 140.5157470703125
z: -0.005536333192139864
","x: 202.87794494628906
y: 139.13258361816406
z: -0.005723800975829363
","x: 286.75042724609375
y: 168.4213409423828
z: 0.0
","x: 284.7372131347656
y: 163.58177185058594
z: -0.001535434857942164
","x: 284.01214599609375
y: 157.1693572998047
z: -0.0029097902588546276
","x: 284.52984619140625
y: 152.68980407714844
z: -0.004731722641736269
","x: 284.9606018066406
y: 149.18875122070312
z: -0.006595042999833822
","x: 287.4678955078125
y: 150.03811645507812
z: -0.000540355104021728
","x: 288.66339111328125
y: 142.73709106445312
z: -0.002753238892182708
","x: 289.7208251953125
y: 138.03857421875
z: -0.0044754198752343655
","x: 290.6343078613281
y: 134.45272827148438
z: -0.005668070167303085
","x: 289.739013671875
y: 151.4168701171875
z: -0.0020188100170344114
","x: 291.8273620605469
y: 144.35313415527344
z: -0.0036802079994231462
","x: 293.19354248046875
y: 140.15684509277344
z: -0.005038089118897915
","x: 294.2624206542969
y: 136.82701110839844
z: -0.006163634825497866
","x: 291.36993408203125
y: 154.47076416015625
z: -0.004024570807814598
","x: 293.3177795410156
y: 149.29017639160156
z: -0.006338547915220261
","x: 294.48138427734375
y: 146.61985778808594
z: -0.007829384878277779
","x: 295.2927551269531
y: 144.77870178222656
z: -0.008765093050897121
","x: 292.5916442871094
y: 159.03988647460938
z: -0.006367248483002186
","x: 293.82757568359375
y: 156.5526580810547
z: -0.008352093398571014
","x: 294.13134765625
y: 156.73458862304688
z: -0.009111625142395496
","x: 294.22857666015625
y: 157.42498779296875
z: -0.009532270953059196
"
22,"x: 251.86849975585938
y: 221.2119140625
z: -0.12363778054714203
visibility: 0.9999884963035583
","x: 255.12582397460938
y: 213.933349609375
z: -0.10063494741916656
visibility: 0.9999715089797974
","x: 256.965576171875
y: 214.662109375
z: -0.1006561741232872
visibility: 0.9999651312828064
","x: 258.8246154785156
y: 215.51316833496094
z: -0.10068120807409286
visibility: 0.9999672770500183
","x: 249.9020233154297
y: 212.33621215820312
z: -0.09465185552835464
visibility: 0.9999740719795227
","x: 248.22735595703125
y: 212.03009033203125
z: -0.09463724493980408
visibility: 0.999970555305481
","x: 246.6090545654297
y: 211.79632568359375
z: -0.09456159174442291
visibility: 0.9999764561653137
","x: 261.3566589355469
y: 221.09463500976562
z: -0.0035306927748024464
visibility: 0.9999526143074036
","x: 244.74749755859375
y: 214.93405151367188
z: 0.026750480756163597
visibility: 0.9999598264694214
","x: 254.4215545654297
y: 231.19667053222656
z: -0.09033171087503433
visibility: 0.9999787211418152
","x: 248.4213409423828
y: 229.75375366210938
z: -0.0818352922797203
visibility: 0.9999837875366211
","x: 270.6557922363281
y: 262.34869384765625
z: -0.001031164196319878
visibility: 0.9996263384819031
","x: 230.9374237060547
y: 256.91265869140625
z: 0.0644666999578476
visibility: 0.9995546340942383
","x: 285.0928649902344
y: 223.10946655273438
z: -0.15936024487018585
visibility: 0.996451735496521
","x: 212.3478240966797
y: 221.63438415527344
z: -0.013011476024985313
visibility: 0.9912002682685852
","x: 288.07672119140625
y: 170.40158081054688
z: -0.3075132966041565
visibility: 0.9855872988700867
","x: 213.76834106445312
y: 165.40438842773438
z: -0.1278730034828186
visibility: 0.9758061170578003
","x: 290.90087890625
y: 155.78033447265625
z: -0.35879772901535034
visibility: 0.9475364089012146
","x: 214.4377899169922
y: 150.20350646972656
z: -0.17499211430549622
visibility: 0.9181943535804749
","x: 288.6573181152344
y: 154.7277374267578
z: -0.3662819266319275
visibility: 0.9433432817459106
","x: 216.47955322265625
y: 147.44760131835938
z: -0.1730368286371231
visibility: 0.9108551144599915
","x: 286.77545166015625
y: 160.10256958007812
