uscmakers/ReverseChoreography/data/8_get_up_ciara.csv
,NOSE,LEFT_EYE_INNER,LEFT_EYE,LEFT_EYE_OUTER,RIGHT_EYE_INNER,RIGHT_EYE,RIGHT_EYE_OUTER,LEFT_EAR,RIGHT_EAR,MOUTH_LEFT,MOUTH_RIGHT,LEFT_SHOULDER,RIGHT_SHOULDER,LEFT_ELBOW,RIGHT_ELBOW,LEFT_WRIST,RIGHT_WRIST,LEFT_PINKY,RIGHT_PINKY,LEFT_INDEX,RIGHT_INDEX,LEFT_THUMB,RIGHT_THUMB,LEFT_HIP,RIGHT_HIP,LEFT_KNEE,RIGHT_KNEE,LEFT_ANKLE,RIGHT_ANKLE,LEFT_HEEL,RIGHT_HEEL,LEFT_FOOT_INDEX,RIGHT_FOOT_INDEX,WRIST2,THUMB_CPC2,THUMB_MCP2,THUMB_IP2,THUMB_TIP2,INDEX_FINGER_MCP2,INDEX_FINGER_PIP2,INDEX_FINGER_DIP2,INDEX_FINGER_TIP2,MIDDLE_FINGER_MCP2,MIDDLE_FINGER_PIP2,MIDDLE_FINGER_DIP2,MIDDLE_FINGER_TIP2,RING_FINGER_PIP2,RING_FINGER_DIP2,RING_FINGER_TIP2,RING_FINGER_MCP2,PINKY_MCP2,PINKY_PIP2,PINKY_DIP2,PINKY_TIP2,WRIST,THUMB_CPC,THUMB_MCP,THUMB_IP,THUMB_TIP,INDEX_FINGER_MCP,INDEX_FINGER_PIP,INDEX_FINGER_DIP,INDEX_FINGER_TIP,MIDDLE_FINGER_MCP,MIDDLE_FINGER_PIP,MIDDLE_FINGER_DIP,MIDDLE_FINGER_TIP,RING_FINGER_PIP,RING_FINGER_DIP,RING_FINGER_TIP,RING_FINGER_MCP,PINKY_MCP,PINKY_PIP,PINKY_DIP,PINKY_TIP
0,"x: 226.61639404296875
y: 210.4582977294922
z: -0.3641120493412018
visibility: 0.9999866485595703
","x: 228.3285369873047
y: 201.3931427001953
z: -0.34819909930229187
visibility: 0.9999531507492065
","x: 230.23374938964844
y: 200.93116760253906
z: -0.34821295738220215
visibility: 0.9999576807022095
","x: 231.62759399414062
y: 200.7714080810547
z: -0.34820014238357544
visibility: 0.9999573230743408
","x: 222.81092834472656
y: 203.09954833984375
z: -0.34657880663871765
visibility: 0.9999252557754517
","x: 221.1690673828125
y: 203.64205932617188
z: -0.34659719467163086
visibility: 0.9999227523803711
","x: 219.4259490966797
y: 204.33213806152344
z: -0.34660524129867554
visibility: 0.9999082088470459
","x: 234.66748046875
y: 204.18307495117188
z: -0.22745999693870544
visibility: 0.9998884201049805
","x: 217.85577392578125
y: 209.63156127929688
z: -0.2223091870546341
visibility: 0.9997057318687439
","x: 230.85311889648438
y: 219.2655029296875
z: -0.317391037940979
visibility: 0.9999665021896362
","x: 224.19456481933594
y: 221.27969360351562
z: -0.31583184003829956
visibility: 0.9999407529830933
","x: 249.9972381591797
y: 251.5770721435547
z: -0.13612091541290283
visibility: 0.9999847412109375
","x: 211.17910766601562
y: 257.97222900390625
z: -0.10561211407184601
visibility: 0.9998180270195007
","x: 261.7748718261719
y: 309.9794921875
z: -0.08369819819927216
visibility: 0.9929938912391663
","x: 204.24508666992188
y: 316.2539367675781
z: -0.030845755711197853
visibility: 0.9677773714065552
","x: 274.344482421875
y: 359.4547119140625
z: -0.20405256748199463
visibility: 0.9940600991249084
","x: 196.65484619140625
y: 370.9878845214844
z: -0.1280146837234497
visibility: 0.9548792243003845
","x: 280.3062438964844
y: 370.9326171875
z: -0.23533514142036438
visibility: 0.9844990372657776
","x: 192.8587188720703
y: 386.3973388671875
z: -0.15430104732513428
visibility: 0.9144251346588135
","x: 279.89898681640625
y: 372.403564453125
z: -0.2757760286331177
visibility: 0.9866228699684143
","x: 193.40869140625
y: 388.2571716308594
z: -0.19548241794109344
visibility: 0.9245266914367676
","x: 277.5700378417969
y: 369.0254211425781
z: -0.22235038876533508
visibility: 0.9822394847869873
","x: 195.30194091796875
y: 383.5049743652344
z: -0.14696580171585083
visibility: 0.9172011613845825
","x: 247.83482360839844
y: 369.5001525878906
z: -0.003980415873229504
visibility: 0.9996274709701538
","x: 222.2127685546875
y: 370.3348388671875
z: 0.0038781638722866774
visibility: 0.9993487000465393
","x: 246.94444274902344
y: 468.2994384765625
z: -0.012041175737977028
visibility: 0.9850382208824158
","x: 221.6912384033203
y: 463.78546142578125
z: -0.00952447485178709
visibility: 0.9864097237586975
","x: 246.4958953857422
y: 545.1904907226562
z: 0.15916912257671356
visibility: 0.987862229347229
","x: 214.21603393554688
y: 543.9644775390625
z: 0.15828631818294525
visibility: 0.9823178052902222
","x: 244.7756805419922
y: 555.552978515625
z: 0.1681617796421051
visibility: 0.826818585395813
","x: 214.74046325683594
y: 553.73095703125
z: 0.16711650788784027
visibility: 0.7313913106918335
","x: 245.77134704589844
y: 570.3349609375
z: 0.02654080092906952
visibility: 0.981423020362854
","x: 215.5729522705078
y: 569.00537109375
z: 0.027471592649817467
visibility: 0.9758762717247009
",,,,,,,,,,,,,,,,,,,,,,,,,,,,,,,,,,,,,,,,,,
1,"x: 240.21096801757812
y: 214.08265686035156
z: -0.28632527589797974
visibility: 0.9999869465827942
","x: 243.31861877441406
y: 207.51121520996094
z: -0.26455873250961304
visibility: 0.9999557733535767
","x: 245.1632080078125
y: 207.9827880859375
z: -0.2645529806613922
visibility: 0.9999589920043945
","x: 246.75779724121094
y: 208.34310913085938
z: -0.26451534032821655
visibility: 0.9999586343765259
","x: 237.8690185546875
y: 206.24838256835938
z: -0.26714882254600525
visibility: 0.9999309182167053
","x: 236.17474365234375
y: 205.90414428710938
z: -0.2671627402305603
visibility: 0.9999285936355591
","x: 234.6210174560547
y: 205.77410888671875
z: -0.26715555787086487
visibility: 0.9999159574508667
","x: 248.92318725585938
y: 212.049072265625
z: -0.13830874860286713
visibility: 0.9998902678489685
","x: 231.64837646484375
y: 210.98934936523438
z: -0.15167059004306793
visibility: 0.9997326135635376
","x: 242.6969451904297
y: 223.91888427734375
z: -0.2397812157869339
visibility: 0.9999686479568481
","x: 236.43771362304688
y: 223.0441436767578
z: -0.2436053305864334
visibility: 0.9999460577964783
","x: 259.9605407714844
y: 257.84356689453125
z: -0.05948547646403313
visibility: 0.999980628490448
","x: 216.53411865234375
y: 258.60321044921875
z: -0.07782411575317383
visibility: 0.9998276829719543
","x: 272.7479553222656
y: 311.53094482421875
z: -0.08073508739471436
visibility: 0.9915435910224915
","x: 203.8333282470703
y: 316.783935546875
z: -0.10626538842916489
visibility: 0.9701862335205078
","x: 266.92266845703125
y: 339.2837219238281
z: -0.26050662994384766
visibility: 0.9912706613540649
","x: 224.19143676757812
y: 342.99005126953125
z: -0.2713461220264435
visibility: 0.9567100405693054
","x: 263.56500244140625
y: 348.4197692871094
z: -0.30839818716049194
visibility: 0.9797029495239258
","x: 232.2582550048828
y: 353.7992858886719
z: -0.3158307373523712
visibility: 0.9170600175857544
","x: 262.08746337890625
y: 342.86822509765625
z: -0.32559189200401306
visibility: 0.9816704392433167
","x: 235.34088134765625
y: 349.12451171875
z: -0.32544976472854614
visibility: 0.9259897470474243
","x: 262.3446044921875
y: 339.2320556640625
z: -0.2709815502166748
visibility: 0.9752522706985474
","x: 233.1824493408203
y: 344.9329833984375
z: -0.2764948308467865
visibility: 0.9169405102729797
","x: 250.6538543701172
y: 375.8758239746094
z: 0.003049795050173998
visibility: 0.9996508955955505
","x: 223.60562133789062
y: 372.19049072265625
z: -0.003143050242215395
visibility: 0.9993882179260254
","x: 251.43316650390625
y: 466.5990905761719
z: -0.020432420074939728
visibility: 0.9860836267471313
","x: 217.50242614746094
y: 463.6512451171875
z: 0.006806056015193462
visibility: 0.9871785044670105
","x: 249.8226318359375
y: 544.589111328125
z: 0.16025784611701965
visibility: 0.9885366559028625
","x: 207.0138702392578
y: 532.2978515625
z: 0.21355290710926056
visibility: 0.9831640124320984
","x: 247.582763671875
y: 554.684814453125
z: 0.17041048407554626
visibility: 0.8334245085716248
","x: 207.28970336914062
y: 540.9802856445312
z: 0.22743555903434753
visibility: 0.7405191659927368
","x: 248.03012084960938
y: 569.9461669921875
z: 0.030924314633011818
visibility: 0.9821969270706177
","x: 207.29258728027344
y: 564.0735473632812
z: 0.09738026559352875
visibility: 0.97674959897995
",,,,,,,,,,,,,,,,,,,,,,,,,,,,,,,,,,,,,,,,,,
2,"x: 238.65545654296875
y: 220.20809936523438
z: -0.31985536217689514
visibility: 0.9999878406524658
","x: 241.876953125
y: 214.07931518554688
z: -0.2989957332611084
visibility: 0.999959409236908
","x: 243.56689453125
y: 214.6791229248047
z: -0.29899898171424866
visibility: 0.9999620914459229
","x: 245.06861877441406
y: 215.21868896484375
z: -0.29899102449417114
visibility: 0.9999617338180542
","x: 236.89295959472656
y: 211.90086364746094
z: -0.30193454027175903
visibility: 0.9999370574951172
","x: 234.9077606201172
y: 210.96693420410156
z: -0.3019530475139618
visibility: 0.9999349117279053
","x: 233.05471801757812
y: 210.31614685058594
z: -0.3019455671310425
visibility: 0.9999236464500427
","x: 246.93380737304688
y: 218.9095916748047
z: -0.1605904996395111
visibility: 0.999897837638855
","x: 229.36184692382812
y: 214.48849487304688
z: -0.18173931539058685
visibility: 0.9997583627700806
","x: 240.4796142578125
y: 230.25657653808594
z: -0.2694953382015228
visibility: 0.9999712109565735
","x: 234.131103515625
y: 227.58995056152344
z: -0.27430206537246704
visibility: 0.9999511241912842
","x: 257.5386962890625
y: 262.27886962890625
z: -0.06338097155094147
visibility: 0.9999802112579346
","x: 216.009033203125
y: 259.4726867675781
z: -0.09524352848529816
visibility: 0.9998401403427124
","x: 271.03472900390625
y: 316.19403076171875
z: -0.14678482711315155
visibility: 0.9917987585067749
","x: 201.60733032226562
y: 321.3133239746094
z: -0.13506624102592468
visibility: 0.9717488884925842
","x: 248.35389709472656
y: 313.6046447753906
z: -0.40481463074684143
visibility: 0.990868330001831
","x: 224.36012268066406
y: 351.3900146484375
z: -0.29331526160240173
visibility: 0.9553905725479126
","x: 241.4938507080078
y: 314.8745422363281
z: -0.4626258313655853
visibility: 0.9780899882316589
","x: 230.1350555419922
y: 363.52362060546875
z: -0.33677101135253906
visibility: 0.9135457873344421
","x: 239.49481201171875
y: 308.66363525390625
z: -0.4602997899055481
visibility: 0.979897141456604
","x: 233.3495635986328
y: 357.3803405761719
z: -0.3475016951560974
visibility: 0.9212875366210938
","x: 241.19647216796875
y: 307.8643798828125
z: -0.40905824303627014
visibility: 0.9718404412269592
","x: 231.51565551757812
y: 353.6465148925781
z: -0.297933429479599
visibility: 0.9077428579330444
","x: 244.02162170410156
y: 376.19091796875
z: 0.017874112352728844
visibility: 0.9996704459190369
","x: 218.23443603515625
y: 372.3262023925781
z: -0.018081089481711388
visibility: 0.9994199872016907
","x: 248.9962615966797
y: 464.8468322753906
z: 0.008374335244297981
visibility: 0.986579179763794
","x: 210.84942626953125
y: 463.1402893066406
z: -0.0242614708840847
visibility: 0.9878939986228943
","x: 249.47116088867188
y: 544.4843139648438
z: 0.16805216670036316
visibility: 0.9890478253364563
","x: 199.40451049804688
y: 533.7470092773438
z: 0.17148661613464355
visibility: 0.9838256239891052
","x: 247.52197265625
y: 554.8475341796875
z: 0.1766001582145691
visibility: 0.8405848145484924
","x: 198.01834106445312
y: 543.1614990234375
z: 0.185354083776474
visibility: 0.7452958822250366
","x: 250.37939453125
y: 569.880615234375
z: 0.03633013367652893
visibility: 0.9827523827552795
","x: 203.36045837402344
y: 563.6566772460938
z: 0.051900021731853485
visibility: 0.9772317409515381
","x: 246.750732421875
y: 307.5283508300781
z: 0.0
","x: 243.239501953125
y: 301.9727478027344
z: 0.0010035461746156216
","x: 238.8506622314453
y: 300.79730224609375
z: -0.00017156287503894418
","x: 235.61453247070312
y: 302.3827209472656
z: -0.0015907675260677934
","x: 233.54119873046875
y: 304.88983154296875
z: -0.00314180925488472
","x: 237.65809631347656
y: 300.3056640625
z: -0.004269830416887999
","x: 232.57199096679688
y: 301.67181396484375
z: -0.006657734978944063
","x: 229.256103515625
y: 302.9269714355469
z: -0.007544599939137697
","x: 226.90074157714844
y: 304.1719665527344
z: -0.007932085543870926
","x: 237.87960815429688
y: 304.4900817871094
z: -0.006215656641870737
","x: 232.33493041992188
y: 306.0822448730469
z: -0.008309751749038696
","x: 228.6941375732422
y: 307.24237060546875
z: -0.008328219875693321
","x: 226.082763671875
y: 308.25531005859375
z: -0.008458330295979977
","x: 238.42445373535156
y: 309.12286376953125
z: -0.00783749483525753
","x: 233.20114135742188
y: 310.6415100097656
z: -0.009501011110842228
","x: 230.02577209472656
y: 311.11798095703125
z: -0.008992312476038933
","x: 227.93751525878906
y: 311.455810546875
z: -0.008862243965268135
","x: 239.31561279296875
y: 313.6972351074219
z: -0.009365333244204521
","x: 235.54681396484375
y: 315.0297546386719
z: -0.010386670008301735
","x: 233.91033935546875
y: 315.0832824707031
z: -0.00971195474267006
","x: 233.00494384765625
y: 314.9566650390625
z: -0.009364225901663303
",,,,,,,,,,,,,,,,,,,,,
3,"x: 238.65545654296875
y: 220.20809936523438
z: -0.31985536217689514
visibility: 0.9999878406524658
","x: 241.876953125
y: 214.07931518554688
z: -0.2989957332611084
visibility: 0.999959409236908
","x: 243.56689453125
y: 214.6791229248047
z: -0.29899898171424866
visibility: 0.9999620914459229
","x: 245.06861877441406
y: 215.21868896484375
z: -0.29899102449417114
visibility: 0.9999617338180542
","x: 236.89295959472656
y: 211.90086364746094
z: -0.30193454027175903
visibility: 0.9999370574951172
","x: 234.9077606201172
y: 210.96693420410156
z: -0.3019530475139618
visibility: 0.9999349117279053
","x: 233.05471801757812
y: 210.31614685058594
z: -0.3019455671310425
visibility: 0.9999236464500427
","x: 246.93380737304688
y: 218.9095916748047
z: -0.1605904996395111
visibility: 0.999897837638855
","x: 229.36184692382812
y: 214.48849487304688
z: -0.18173931539058685
visibility: 0.9997583627700806
","x: 240.4796142578125
y: 230.25657653808594
z: -0.2694953382015228
visibility: 0.9999712109565735
","x: 234.131103515625
y: 227.58995056152344
z: -0.27430206537246704
visibility: 0.9999511241912842
","x: 257.5386962890625
y: 262.27886962890625
z: -0.06338097155094147
visibility: 0.9999802112579346
","x: 216.009033203125
y: 259.4726867675781
z: -0.09524352848529816
visibility: 0.9998401403427124
","x: 271.03472900390625
y: 316.19403076171875
z: -0.14678482711315155
visibility: 0.9917987585067749
","x: 201.60733032226562
y: 321.3133239746094
z: -0.13506624102592468
visibility: 0.9717488884925842
","x: 248.35389709472656
y: 313.6046447753906
z: -0.40481463074684143
visibility: 0.990868330001831
","x: 224.36012268066406
y: 351.3900146484375
z: -0.29331526160240173
visibility: 0.9553905725479126
","x: 241.4938507080078
y: 314.8745422363281
z: -0.4626258313655853
visibility: 0.9780899882316589
","x: 230.1350555419922
y: 363.52362060546875
z: -0.33677101135253906
visibility: 0.9135457873344421
","x: 239.49481201171875
y: 308.66363525390625
z: -0.4602997899055481
visibility: 0.979897141456604
","x: 233.3495635986328
y: 357.3803405761719
z: -0.3475016951560974
visibility: 0.9212875366210938
","x: 241.19647216796875
y: 307.8643798828125
z: -0.40905824303627014
visibility: 0.9718404412269592
","x: 231.51565551757812
y: 353.6465148925781
z: -0.297933429479599
visibility: 0.9077428579330444
","x: 244.02162170410156
y: 376.19091796875
z: 0.017874112352728844
visibility: 0.9996704459190369
","x: 218.23443603515625
y: 372.3262023925781
z: -0.018081089481711388
visibility: 0.9994199872016907
","x: 248.9962615966797
y: 464.8468322753906
z: 0.008374335244297981
visibility: 0.986579179763794
","x: 210.84942626953125
y: 463.1402893066406
z: -0.0242614708840847
visibility: 0.9878939986228943
","x: 249.47116088867188
y: 544.4843139648438
z: 0.16805216670036316
visibility: 0.9890478253364563
","x: 199.40451049804688
y: 533.7470092773438
z: 0.17148661613464355
visibility: 0.9838256239891052
","x: 247.52197265625
y: 554.8475341796875
z: 0.1766001582145691
visibility: 0.8405848145484924
","x: 198.01834106445312
y: 543.1614990234375
z: 0.185354083776474
visibility: 0.7452958822250366
","x: 250.37939453125
y: 569.880615234375
z: 0.03633013367652893
visibility: 0.9827523827552795
","x: 203.36045837402344
y: 563.6566772460938
z: 0.051900021731853485
visibility: 0.9772317409515381
","x: 246.750732421875
y: 307.5283508300781
z: 0.0
","x: 243.239501953125
y: 301.9727478027344
z: 0.0010035461746156216
","x: 238.8506622314453
y: 300.79730224609375
z: -0.00017156287503894418
","x: 235.61453247070312
y: 302.3827209472656
z: -0.0015907675260677934
","x: 233.54119873046875
y: 304.88983154296875
z: -0.00314180925488472
","x: 237.65809631347656
y: 300.3056640625
z: -0.004269830416887999
","x: 232.57199096679688
y: 301.67181396484375
z: -0.006657734978944063
","x: 229.256103515625
y: 302.9269714355469
z: -0.007544599939137697
","x: 226.90074157714844
y: 304.1719665527344
z: -0.007932085543870926
","x: 237.87960815429688
y: 304.4900817871094
z: -0.006215656641870737
","x: 232.33493041992188
y: 306.0822448730469
z: -0.008309751749038696
","x: 228.6941375732422
y: 307.24237060546875
z: -0.008328219875693321
","x: 226.082763671875
y: 308.25531005859375
z: -0.008458330295979977
","x: 238.42445373535156
y: 309.12286376953125
z: -0.00783749483525753
","x: 233.20114135742188
y: 310.6415100097656
z: -0.009501011110842228
","x: 230.02577209472656
y: 311.11798095703125
z: -0.008992312476038933
","x: 227.93751525878906
y: 311.455810546875
z: -0.008862243965268135
","x: 239.31561279296875
y: 313.6972351074219
z: -0.009365333244204521
","x: 235.54681396484375
y: 315.0297546386719
z: -0.010386670008301735
","x: 233.91033935546875
y: 315.0832824707031
z: -0.00971195474267006
","x: 233.00494384765625
y: 314.9566650390625
z: -0.009364225901663303
",,,,,,,,,,,,,,,,,,,,,
4,"x: 236.30856323242188
y: 231.85243225097656
z: -0.41962695121765137
visibility: 0.9999865293502808
","x: 238.93496704101562
y: 225.9919891357422
z: -0.40005117654800415
visibility: 0.9999583959579468
","x: 240.77516174316406
y: 226.65127563476562
z: -0.40006351470947266
visibility: 0.9999602437019348
","x: 242.3895263671875
y: 227.30877685546875
z: -0.40013831853866577
visibility: 0.9999602437019348
","x: 233.71971130371094
y: 223.7596893310547
z: -0.4085480570793152
visibility: 0.9999380111694336
","x: 231.8733673095703
y: 222.72525024414062
z: -0.4085909426212311
visibility: 0.9999357461929321
","x: 230.07687377929688
y: 221.59751892089844
z: -0.408562034368515
visibility: 0.9999260902404785
","x: 244.9247589111328
y: 230.46865844726562
z: -0.263422429561615
visibility: 0.9998950958251953
","x: 227.17617797851562
y: 222.92242431640625
z: -0.30283302068710327
visibility: 0.999775230884552
","x: 238.76914978027344
y: 241.24940490722656
z: -0.3666100800037384
visibility: 0.9999718070030212
","x: 233.4264373779297
y: 238.42739868164062
z: -0.3781854510307312
visibility: 0.9999542236328125
","x: 248.19842529296875
y: 267.94683837890625
z: -0.16184821724891663
visibility: 0.9999801516532898
","x: 207.12811279296875
y: 267.9624328613281
z: -0.2063702642917633
visibility: 0.9998478889465332
","x: 265.1484069824219
y: 323.2899475097656
z: -0.24487462639808655
visibility: 0.992211103439331
","x: 195.3058319091797
y: 332.96270751953125
z: -0.23729965090751648
visibility: 0.9733312726020813
","x: 237.95712280273438
y: 324.612060546875
z: -0.4730824828147888
visibility: 0.9899072051048279
","x: 219.7156524658203
y: 354.7613830566406
z: -0.3712843060493469
visibility: 0.9541863203048706
","x: 230.17364501953125
y: 328.7833251953125
z: -0.528511643409729
visibility: 0.9745653867721558
","x: 226.11981201171875
y: 367.3442077636719
z: -0.4142996370792389
visibility: 0.911368191242218
","x: 227.97354125976562
y: 324.563720703125
z: -0.5267689228057861
visibility: 0.9761159420013428
","x: 228.77137756347656
y: 361.3107604980469
z: -0.42291459441185
visibility: 0.9179399013519287
","x: 229.5439910888672
y: 323.6418151855469
z: -0.4768197536468506
visibility: 0.9655943512916565
","x: 226.68258666992188
y: 357.6258544921875
z: -0.37523090839385986
visibility: 0.8995242118835449
","x: 231.0924072265625
y: 378.2972412109375
z: 0.015514789149165154
visibility: 0.9996763467788696
","x: 206.33299255371094
y: 374.90496826171875
z: -0.015705285593867302
visibility: 0.999424934387207
","x: 243.55691528320312
y: 463.9190368652344
z: 0.002368846209719777
visibility: 0.9874219298362732
","x: 204.67495727539062
y: 463.677734375
z: -0.020685039460659027
visibility: 0.9885368347167969
","x: 249.26565551757812
y: 543.5521850585938
z: 0.1407853662967682
visibility: 0.9896426200866699
","x: 198.19287109375
y: 534.2647705078125
z: 0.15481558442115784
visibility: 0.9841242432594299
","x: 247.3040771484375
y: 553.1536254882812
z: 0.14773651957511902
visibility: 0.8465616703033447
","x: 197.83424377441406
y: 543.5449829101562
z: 0.16607347130775452
visibility: 0.7439807653427124
","x: 250.67459106445312
y: 569.8587646484375
z: 0.01175536960363388
visibility: 0.9832890033721924
","x: 202.41505432128906
y: 563.6097412109375
z: 0.03921351581811905
visibility: 0.9768939018249512
",,,,,,,,,,,,,,,,,,,,,,,,,,,,,,,,,,,,,,,,,,
5,"x: 230.41758728027344
y: 245.74449157714844
z: -0.40554872155189514
visibility: 0.9999752640724182
","x: 233.6333465576172
y: 239.350341796875
z: -0.38649940490722656
visibility: 0.9999334216117859
","x: 235.013427734375
y: 240.14993286132812
z: -0.3865193724632263
visibility: 0.999933123588562
","x: 236.29608154296875
y: 240.77978515625
z: -0.38658764958381653
visibility: 0.9999326467514038
","x: 228.83258056640625
y: 236.25555419921875
z: -0.3926659822463989
visibility: 0.9999126195907593
","x: 226.83001708984375
y: 234.9526824951172
z: -0.39271944761276245
visibility: 0.9999093413352966
","x: 225.21975708007812
y: 233.75454711914062
z: -0.3927137553691864
visibility: 0.9999011754989624
","x: 236.18673706054688
y: 243.76016235351562
z: -0.2579912841320038
visibility: 0.9998424649238586
","x: 220.8086395263672
y: 234.3428192138672
z: -0.2873658239841461
visibility: 0.9997430443763733
","x: 230.8076171875
y: 254.82388305664062
z: -0.3556855320930481
visibility: 0.9999592900276184
","x: 225.90728759765625
y: 251.52635192871094
z: -0.36444997787475586
visibility: 0.9999479055404663
","x: 240.3595733642578
y: 279.0098876953125
z: -0.1574033796787262
visibility: 0.9999712109565735
","x: 199.5641632080078
y: 276.0122985839844
z: -0.2093699425458908
visibility: 0.9998405575752258
","x: 253.4312744140625
y: 338.41912841796875
z: -0.1989063322544098
visibility: 0.9922667741775513
","x: 190.39404296875
y: 342.25909423828125
z: -0.26772060990333557
visibility: 0.9743273258209229
","x: 228.87835693359375
y: 352.7296142578125
z: -0.362200528383255
visibility: 0.9875805974006653
","x: 217.75128173828125
y: 340.5445556640625
z: -0.40892449021339417
visibility: 0.9549806118011475
","x: 222.51670837402344
y: 362.20989990234375
z: -0.40535521507263184
visibility: 0.9669642448425293
","x: 224.679931640625
y: 340.03179931640625
z: -0.4526657164096832
visibility: 0.9128825664520264
","x: 220.07156372070312
y: 355.657958984375
z: -0.41288501024246216
visibility: 0.9676969051361084
","x: 225.95822143554688
y: 334.2740173339844
z: -0.45321282744407654
visibility: 0.9181500673294067
","x: 221.55963134765625
y: 351.69683837890625
z: -0.36725762486457825
visibility: 0.9544024467468262
","x: 223.81015014648438
y: 335.06707763671875
z: -0.41036781668663025
visibility: 0.8963913917541504
","x: 222.49639892578125
y: 379.91473388671875
z: 0.024242814630270004
visibility: 0.9996671080589294
","x: 198.23895263671875
y: 377.8262939453125
z: -0.024391692131757736
visibility: 0.999421238899231
","x: 237.5262908935547
y: 457.65069580078125
z: -0.019676141440868378
visibility: 0.9878048896789551
","x: 200.8666534423828
y: 463.3126220703125
z: -0.05888606980443001
visibility: 0.9890843629837036
","x: 238.1353302001953
y: 538.6470336914062
z: 0.11533305794000626
visibility: 0.989927351474762
","x: 198.8100128173828
y: 535.0453491210938
z: 0.0818033367395401
visibility: 0.985107421875
","x: 234.1474151611328
y: 549.8031005859375
z: 0.12275807559490204
visibility: 0.8568186163902283
","x: 198.3340301513672
y: 547.0023193359375
z: 0.08917005360126495
visibility: 0.7578284740447998
","x: 249.0184326171875
y: 562.2807006835938
z: 0.001219246769323945
visibility: 0.9836322069168091
","x: 203.44459533691406
y: 563.6640014648438
z: -0.04722709208726883
visibility: 0.9778635501861572
",,,,,,,,,,,,,,,,,,,,,,,,,,,,,,,,,,,,,,,,,,
6,"x: 226.78866577148438
y: 250.65267944335938
z: -0.40591931343078613
visibility: 0.9999610781669617
","x: 229.4220733642578
y: 243.80972290039062
z: -0.3876047730445862
visibility: 0.999899685382843
","x: 230.45333862304688
y: 244.49951171875
z: -0.3876264691352844
visibility: 0.9998994469642639
","x: 231.6205596923828
y: 245.1728973388672
z: -0.3876917064189911
visibility: 0.9998974204063416
","x: 225.07749938964844
y: 241.36305236816406
z: -0.3953070044517517
visibility: 0.9998800754547119
","x: 223.04779052734375
y: 240.2633514404297
z: -0.3953654170036316
visibility: 0.9998741745948792
","x: 221.2887725830078
y: 239.13510131835938
z: -0.3953705132007599
visibility: 0.9998659491539001
","x: 230.69058227539062
y: 247.1989288330078
z: -0.25753846764564514
visibility: 0.999771237373352
","x: 216.3431854248047
y: 239.20162963867188
z: -0.29356157779693604
visibility: 0.9996742010116577
","x: 226.76089477539062
y: 258.91839599609375
z: -0.3546990752220154
visibility: 0.9999411106109619
","x: 221.758544921875
y: 256.6954345703125
z: -0.36536961793899536
visibility: 0.9999387264251709
","x: 236.19960021972656
y: 280.7574768066406
z: -0.15187108516693115
visibility: 0.9999656081199646
","x: 195.6822052001953
y: 277.84722900390625
z: -0.21079805493354797
visibility: 0.999829113483429
","x: 245.23593139648438
y: 342.2870178222656
z: -0.1956329047679901
visibility: 0.9921993017196655
","x: 185.2436065673828
y: 340.8115234375
z: -0.2804736793041229
visibility: 0.9749972820281982
","x: 223.54542541503906
y: 353.418701171875
z: -0.37502241134643555
visibility: 0.9865577816963196
","x: 216.1407012939453
y: 329.78662109375
z: -0.44004958868026733
visibility: 0.9555004239082336
","x: 217.0594482421875
y: 364.1041259765625
z: -0.4187183976173401
visibility: 0.963993489742279
","x: 219.99037170410156
y: 328.11895751953125
z: -0.4854949414730072
visibility: 0.9141973257064819
","x: 214.98165893554688
y: 357.9110107421875
z: -0.4248161315917969
visibility: 0.9643263220787048
","x: 221.427978515625
y: 321.931640625
z: -0.48362430930137634
visibility: 0.918324887752533
","x: 216.76812744140625
y: 353.9342956542969
z: -0.3797854781150818
visibility: 0.9494089484214783
","x: 220.01095581054688
y: 323.0357360839844
z: -0.4407274127006531
visibility: 0.8929636478424072
","x: 219.2926788330078
y: 379.2357177734375
z: 0.030903059989213943
visibility: 0.99957275390625
","x: 195.1970672607422
y: 377.23193359375
z: -0.030981501564383507
visibility: 0.9994033575057983
","x: 228.59344482421875
y: 454.2879638671875
z: 0.0216740220785141
visibility: 0.9874891638755798
","x: 200.8636932373047
y: 460.7181091308594
z: -0.10371121019124985
visibility: 0.989540696144104
","x: 225.23291015625
y: 523.4124145507812
z: 0.21542704105377197
visibility: 0.9894225001335144
","x: 197.56991577148438
y: 535.4778442382812
z: 0.014685514383018017
visibility: 0.9860910177230835
","x: 221.0405731201172
y: 531.88720703125
z: 0.2288742959499359
visibility: 0.8626315593719482
","x: 196.79176330566406
y: 548.959716796875
z: 0.019412849098443985
visibility: 0.7722746133804321
","x: 234.00775146484375
y: 551.74755859375
z: 0.11962141841650009
visibility: 0.9830542802810669
","x: 204.25350952148438
y: 563.8541259765625
z: -0.12539690732955933
visibility: 0.978990375995636
",,,,,,,,,,,,,,,,,,,,,,,,,,,,,,,,,,,,,,,,,,
7,"x: 225.13690185546875
y: 255.90354919433594
z: -0.42794257402420044
visibility: 0.9999595284461975
","x: 227.4352569580078
y: 248.71249389648438
z: -0.4093862473964691
visibility: 0.9998994469642639
","x: 228.23239135742188
y: 249.1025390625
z: -0.40942326188087463
visibility: 0.9998988509178162
","x: 228.95199584960938
y: 249.4974365234375
z: -0.40951046347618103
visibility: 0.9998969435691833
","x: 223.6546630859375
y: 246.88287353515625
z: -0.4169772267341614
visibility: 0.9998809695243835
","x: 221.5894775390625
y: 245.91943359375
z: -0.41702741384506226
visibility: 0.9998736381530762
","x: 219.7426300048828
y: 244.993896484375
z: -0.41702574491500854
visibility: 0.9998654127120972
","x: 228.3135223388672
y: 251.16656494140625
z: -0.2726403474807739
visibility: 0.9997742176055908
","x: 214.72796630859375
y: 244.48834228515625
z: -0.3072115182876587
visibility: 0.9996901750564575
","x: 225.09689331054688
y: 264.08575439453125
z: -0.3736717104911804
visibility: 0.999941885471344
","x: 220.19863891601562
y: 262.25347900390625
z: -0.38402464985847473
visibility: 0.9999416470527649
","x: 234.490478515625
y: 283.5018005371094
z: -0.15465028584003448
visibility: 0.9999656081199646
","x: 194.6034393310547
y: 278.66290283203125
z: -0.20858803391456604
visibility: 0.9998354315757751
","x: 240.5989532470703
y: 347.152587890625
z: -0.19584128260612488
visibility: 0.9921115040779114
","x: 185.32118225097656
y: 338.5604553222656
z: -0.23774802684783936
visibility: 0.9750138521194458
","x: 223.29063415527344
y: 350.70025634765625
z: -0.40061888098716736
visibility: 0.9860696196556091
","x: 210.11451721191406
y: 339.11669921875
z: -0.3875347971916199
visibility: 0.9522588849067688
","x: 218.2437286376953
y: 356.14385986328125
z: -0.44999152421951294
visibility: 0.9630355834960938
","x: 216.32479858398438
y: 343.23974609375
z: -0.42997169494628906
visibility: 0.9103366732597351
","x: 216.96917724609375
y: 346.7375183105469
z: -0.4581027030944824
visibility: 0.963292121887207
","x: 218.69143676757812
y: 339.7928161621094
z: -0.44057077169418335
visibility: 0.9136620163917542
","x: 218.69046020507812
y: 343.7391662597656
z: -0.40715521574020386
visibility: 0.947263777256012
","x: 216.67538452148438
y: 338.39129638671875
z: -0.3929418921470642
visibility: 0.8843756914138794
","x: 218.80892944335938
y: 378.9154357910156
z: 0.033753372728824615
visibility: 0.9995123744010925
","x: 195.3866729736328
y: 376.7779541015625
z: -0.03378432244062424
visibility: 0.9993797540664673
","x: 225.80557250976562
y: 455.0583190917969
z: 0.01471678912639618
visibility: 0.9870533347129822
","x: 203.60484313964844
y: 459.00518798828125
z: -0.09290502965450287
visibility: 0.98987877368927
","x: 220.27279663085938
y: 525.558837890625
z: 0.20064520835876465
visibility: 0.9888582229614258
","x: 198.3666229248047
y: 534.576904296875
z: 0.01869509182870388
visibility: 0.9868552684783936
","x: 216.32122802734375
y: 535.3731079101562
z: 0.22183337807655334
visibility: 0.8679518699645996
","x: 195.666015625
y: 549.0882568359375
z: 0.02213226817548275
visibility: 0.785774290561676
","x: 228.90682983398438
y: 553.41162109375
z: 0.07031844556331635
visibility: 0.9824860095977783
","x: 205.04010009765625
y: 560.221923828125
z: -0.12101300060749054
visibility: 0.9799044132232666
",,,,,,,,,,,,,,,,,,,,,,,,,,,,,,,,,,,,,,,,,,
8,"x: 224.11392211914062
y: 265.7108154296875
z: -0.47680145502090454
visibility: 0.9999572038650513
","x: 225.6322021484375
y: 258.2397766113281
z: -0.4579688608646393
visibility: 0.9998931884765625
","x: 226.4615020751953
y: 258.2027587890625
z: -0.457986980676651
visibility: 0.99989253282547
","x: 227.51612854003906
y: 258.3007507324219
z: -0.4580509662628174
visibility: 0.9998885989189148
","x: 221.94493103027344
y: 256.9476623535156
z: -0.4706273674964905
visibility: 0.9998779892921448
","x: 219.93679809570312
y: 256.03912353515625
z: -0.4707367420196533
visibility: 0.9998723268508911
","x: 217.8594970703125
y: 255.12371826171875
z: -0.4707513749599457
visibility: 0.9998640418052673
","x: 227.38795471191406
y: 259.19903564453125
z: -0.3151167929172516
visibility: 0.9997614622116089
","x: 212.75318908691406
y: 255.347412109375
z: -0.3714830279350281
visibility: 0.9997029900550842
","x: 224.22267150878906
y: 272.81024169921875
z: -0.4189198613166809
visibility: 0.9999383687973022
","x: 219.41098022460938
y: 271.29705810546875
z: -0.43554145097732544
visibility: 0.9999423027038574
","x: 234.77723693847656
y: 285.50775146484375
z: -0.16539211571216583
visibility: 0.9999656677246094
","x: 195.22010803222656
y: 286.64019775390625
z: -0.29661136865615845
visibility: 0.9998453855514526
","x: 245.4960479736328
y: 343.6365051269531
z: -0.17727544903755188
visibility: 0.9919743537902832
","x: 188.4886016845703
y: 349.2501525878906
z: -0.3572801649570465
visibility: 0.9771329164505005
","x: 226.1919403076172
y: 366.1815185546875
z: -0.3549864590167999
visibility: 0.9842307567596436
","x: 216.744384765625
y: 338.5643005371094
z: -0.48053115606307983
visibility: 0.9560185074806213
","x: 221.6868438720703
y: 376.0931091308594
z: -0.3856320083141327
visibility: 0.9578522443771362
","x: 223.958740234375
y: 336.54248046875
z: -0.5258285403251648
visibility: 0.916793167591095
","x: 218.96365356445312
y: 370.61566162109375
z: -0.39704373478889465
visibility: 0.957619845867157
","x: 225.16693115234375
y: 332.7386169433594
z: -0.5267625451087952
visibility: 0.9195215702056885
","x: 220.06939697265625
y: 366.52996826171875
z: -0.3609892725944519
visibility: 0.9404241442680359
","x: 222.96400451660156
y: 333.22283935546875
z: -0.48129573464393616
visibility: 0.89030921459198
","x: 218.75257873535156
y: 378.55487060546875
z: 0.052916329354047775
visibility: 0.9995079636573792
","x: 196.554931640625
y: 376.8244934082031
z: -0.05294658616185188
visibility: 0.9994088411331177
","x: 228.42861938476562
y: 453.0386047363281
z: 0.039332710206508636
visibility: 0.985421359539032
","x: 203.87509155273438
y: 457.31988525390625
z: -0.1694052666425705
visibility: 0.9904250502586365
","x: 222.6561737060547
y: 521.6708984375
z: 0.2182854861021042
visibility: 0.9872527718544006
","x: 199.21531677246094
y: 533.74560546875
z: -0.07950986921787262
visibility: 0.9877455830574036
","x: 217.77777099609375
y: 531.300048828125
z: 0.23026800155639648
visibility: 0.8724539875984192
","x: 195.71533203125
y: 548.309814453125
z: -0.0775609165430069
visibility: 0.8008008003234863
","x: 232.21499633789062
y: 548.9782104492188
z: 0.12305537611246109
visibility: 0.9808390736579895
","x: 208.62461853027344
y: 557.3858032226562
z: -0.22675061225891113
visibility: 0.9811432361602783
",,,,,,,,,,,,,,,,,,,,,,,,,,,,,,,,,,,,,,,,,,
9,"x: 223.5283203125
y: 263.2763671875
z: -0.43592149019241333
visibility: 0.9999529719352722
","x: 224.8253936767578
y: 255.4757537841797
z: -0.4176206588745117
visibility: 0.9998849630355835
","x: 225.7471466064453
y: 255.3616180419922
z: -0.41765469312667847
visibility: 0.9998814463615417
","x: 226.92019653320312
y: 255.3359832763672
z: -0.4177230894565582
visibility: 0.9998774528503418
","x: 220.71798706054688
y: 255.29446411132812
z: -0.4253923296928406
visibility: 0.9998735785484314
","x: 218.6608428955078
y: 255.08538818359375
z: -0.4254608750343323
visibility: 0.999865710735321
","x: 216.69566345214844
y: 254.82305908203125
z: -0.42545652389526367
visibility: 0.9998573064804077
","x: 227.62220764160156
y: 256.63720703125
z: -0.27994588017463684
visibility: 0.9997421503067017
","x: 212.21829223632812
y: 256.6592102050781
z: -0.3132738471031189
visibility: 0.9997118711471558
","x: 224.50296020507812
y: 270.5087890625
z: -0.3808757960796356
visibility: 0.9999335408210754
","x: 219.63189697265625
y: 270.31549072265625
z: -0.39067381620407104
visibility: 0.9999397397041321
","x: 236.75985717773438
y: 282.9861755371094
z: -0.14077217876911163
visibility: 0.9999656677246094
","x: 197.181884765625
y: 291.5538635253906
z: -0.24089482426643372
visibility: 0.9998534321784973
","x: 248.2369384765625
y: 332.4635009765625
z: -0.17121614515781403
visibility: 0.9910818934440613
","x: 195.42947387695312
y: 350.572509765625
z: -0.2708987593650818
visibility: 0.9782624244689941
","x: 233.11337280273438
y: 350.017822265625
z: -0.35287681221961975
visibility: 0.9808014631271362
","x: 225.1929168701172
y: 347.6504211425781
z: -0.38218578696250916
visibility: 0.9575570225715637
","x: 229.1929168701172
y: 358.854248046875
z: -0.39700695872306824
visibility: 0.9503417015075684
","x: 231.56158447265625
y: 354.4181823730469
z: -0.4240557551383972
visibility: 0.9198090434074402
","x: 226.94679260253906
y: 352.4168395996094
z: -0.4047814905643463
visibility: 0.949845016002655
","x: 232.98153686523438
y: 346.4957275390625
z: -0.43680471181869507
visibility: 0.9219800233840942
","x: 227.9807586669922
y: 349.1217041015625
z: -0.35987621545791626
visibility: 0.9312155246734619
","x: 231.22879028320312
y: 341.2477111816406
z: -0.3895242214202881
visibility: 0.8913512229919434
","x: 223.5779571533203
y: 379.413330078125
z: 0.048150986433029175
visibility: 0.9994909167289734
","x: 200.1495819091797
y: 379.9120788574219
z: -0.04815514385700226
visibility: 0.9994180798530579
","x: 233.4290008544922
y: 454.2671203613281
z: 0.04516897723078728
visibility: 0.9844079613685608
","x: 208.45245361328125
y: 457.7296142578125
z: -0.10749919712543488
visibility: 0.9910028576850891
","x: 226.00250244140625
y: 524.130615234375
z: 0.1982482373714447
visibility: 0.9864591956138611
","x: 199.77642822265625
y: 534.33984375
z: -0.015313362702727318
visibility: 0.9885067939758301
","x: 221.99606323242188
y: 534.60302734375
z: 0.20772778987884521
visibility: 0.8801838159561157
","x: 196.11245727539062
y: 548.4252319335938
z: -0.012832310982048512
visibility: 0.8131908178329468
","x: 245.40232849121094
y: 548.3464965820312
z: 0.1055065244436264
visibility: 0.9802746772766113
","x: 210.66555786132812
y: 558.1616821289062
z: -0.14640837907791138
visibility: 0.9821284413337708
",,,,,,,,,,,,,,,,,,,,,,,,,,,,,,,,,,,,,,,,,,
10,"x: 224.7880859375
y: 256.5804443359375
z: -0.4325619339942932
visibility: 0.9999567866325378
","x: 225.9437713623047
y: 249.48556518554688
z: -0.4158434271812439
visibility: 0.999894380569458
","x: 227.0321044921875
y: 252.04904174804688
z: -0.415876567363739
visibility: 0.9998911023139954
","x: 228.2225799560547
y: 253.60665893554688
z: -0.41594481468200684
visibility: 0.9998874068260193
","x: 221.461181640625
y: 246.5798797607422
z: -0.41921669244766235
visibility: 0.9998839497566223
","x: 219.34779357910156
y: 245.97503662109375
z: -0.4192872643470764
visibility: 0.9998764991760254
","x: 217.35379028320312
y: 245.49095153808594
z: -0.41928696632385254
visibility: 0.999868631362915
","x: 228.91456604003906
y: 250.86483764648438
z: -0.2842637598514557
visibility: 0.9997629523277283
","x: 212.90283203125
y: 247.42567443847656
z: -0.29828840494155884
visibility: 0.9997377991676331
","x: 227.6019744873047
y: 268.2099609375
z: -0.3797255754470825
visibility: 0.9999390244483948
","x: 223.21998596191406
y: 262.04705810546875
z: -0.3832087516784668
visibility: 0.9999443888664246
","x: 242.75076293945312
y: 270.20880126953125
z: -0.1479707956314087
visibility: 0.9999681711196899
","x: 204.98336791992188
y: 285.4538879394531
z: -0.22054478526115417
visibility: 0.9998641610145569
","x: 262.2925109863281
y: 319.1287841796875
z: -0.22449693083763123
visibility: 0.9913100004196167
","x: 204.58811950683594
y: 345.804443359375
z: -0.24093827605247498
visibility: 0.9786691069602966
","x: 235.7569122314453
y: 321.42144775390625
z: -0.43379607796669006
visibility: 0.9805969595909119
","x: 229.51712036132812
y: 353.2892150878906
z: -0.30452433228492737
visibility: 0.9573118686676025
","x: 230.8352508544922
y: 325.29132080078125
z: -0.4858339726924896
visibility: 0.9490031599998474
","x: 234.5218963623047
y: 358.6856384277344
z: -0.3407202363014221
visibility: 0.9194474220275879
","x: 228.24969482421875
y: 320.1147766113281
z: -0.48323455452919006
visibility: 0.9482628703117371
","x: 235.95626831054688
y: 353.3755187988281
z: -0.354649156332016
visibility: 0.9209362864494324
","x: 229.6488494873047
y: 319.2740478515625
z: -0.4370490610599518
visibility: 0.9280651807785034
","x: 234.48829650878906
y: 349.2385559082031
z: -0.3096480667591095
visibility: 0.8879075050354004
","x: 231.82736206054688
y: 379.337158203125
z: 0.039626143872737885
visibility: 0.9995238780975342
","x: 210.12579345703125
y: 379.2103576660156
z: -0.0396571084856987
visibility: 0.9994540214538574
","x: 248.5188446044922
y: 455.0746154785156
z: 0.03722262382507324
visibility: 0.985073447227478
","x: 214.7243194580078
y: 458.6032409667969
z: -0.059545475989580154
visibility: 0.991590142250061
","x: 256.2303161621094
y: 532.3327026367188
z: 0.16585448384284973
visibility: 0.9873360991477966
","x: 200.04734802246094
y: 534.40087890625
z: 0.026301899924874306
visibility: 0.9893012046813965
","x: 252.86419677734375
y: 543.71923828125
z: 0.1708265244960785
visibility: 0.8885724544525146
","x: 195.78968811035156
y: 548.46484375
z: 0.033214226365089417
visibility: 0.8220788240432739
","x: 267.6833190917969
y: 550.4563598632812
z: 0.05406586080789566
visibility: 0.9813687205314636
","x: 211.6519317626953
y: 558.74169921875
z: -0.14029881358146667
visibility: 0.9831503629684448
",,,,,,,,,,,,,,,,,,,,,,,,,,,,,,,,,,,,,,,,,,
11,"x: 232.6885986328125
y: 235.87197875976562
z: -0.3548277020454407
visibility: 0.9999598264694214
","x: 233.0420379638672
y: 227.0965576171875
z: -0.33856743574142456
visibility: 0.9999021291732788
","x: 234.3911590576172
y: 226.58636474609375
z: -0.3385940492153168
visibility: 0.9998989701271057
","x: 235.7054443359375
y: 225.8900604248047
z: -0.33859020471572876
visibility: 0.9998947381973267
","x: 228.41799926757812
y: 230.43539428710938
z: -0.34216341376304626
visibility: 0.9998928904533386
","x: 226.356689453125
y: 231.82879638671875
z: -0.3422401547431946
visibility: 0.9998863339424133
","x: 224.4993896484375
y: 233.5006866455078
z: -0.3422713577747345
visibility: 0.9998788833618164
","x: 237.30111694335938
y: 225.30474853515625
z: -0.2116061896085739
visibility: 0.9997777342796326
","x: 221.9080047607422
y: 237.5182342529297
z: -0.22223050892353058
visibility: 0.999761164188385
","x: 236.61012268066406
y: 243.686279296875
z: -0.3037845492362976
visibility: 0.9999430179595947
","x: 231.04751586914062
y: 245.7355499267578
z: -0.30701714754104614
visibility: 0.9999480247497559
","x: 255.99020385742188
y: 262.6013488769531
z: -0.07675734907388687
visibility: 0.9999666213989258
","x: 216.96994018554688
y: 277.9614562988281
z: -0.1562371701002121
visibility: 0.9998741149902344
","x: 267.4241027832031
y: 317.69268798828125
z: -0.12448998540639877
visibility: 0.9859345555305481
","x: 213.87396240234375
y: 344.76556396484375
z: -0.15990093350410461
visibility: 0.9794645309448242
","x: 251.2386932373047
y: 328.6539306640625
z: -0.34933263063430786
visibility: 0.9648094773292542
","x: 239.261474609375
y: 331.7199401855469
z: -0.24595054984092712
visibility: 0.9581507444381714
","x: 245.5227508544922
y: 332.7087097167969
z: -0.3954455852508545
visibility: 0.9247125387191772
","x: 245.68113708496094
y: 334.91595458984375
z: -0.2775638997554779
visibility: 0.9202600121498108
","x: 243.3716583251953
y: 327.09271240234375
z: -0.39783379435539246
visibility: 0.9239517450332642
","x: 246.15174865722656
y: 328.07391357421875
z: -0.28718191385269165
visibility: 0.9209316968917847
","x: 244.93955993652344
y: 325.30523681640625
z: -0.3552693724632263
visibility: 0.9000580906867981
","x: 243.87098693847656
y: 325.8607482910156
z: -0.24849963188171387
visibility: 0.8864800333976746
","x: 248.50161743164062
y: 378.5253601074219
z: 0.03590825945138931
visibility: 0.9995273351669312
","x: 225.91201782226562
y: 378.2109069824219
z: -0.03597237169742584
visibility: 0.9994710683822632
","x: 258.90850830078125
y: 457.9642333984375
z: 0.03505847603082657
visibility: 0.9849515557289124
","x: 226.8608856201172
y: 458.7110595703125
z: -0.05158789083361626
visibility: 0.9920768737792969
","x: 262.8670654296875
y: 536.9825439453125
z: 0.17040590941905975
visibility: 0.9877964854240417
","x: 201.75914001464844
y: 531.1823120117188
z: 0.05647590011358261
visibility: 0.9899031519889832
","x: 258.0845947265625
y: 548.3942260742188
z: 0.17436343431472778
visibility: 0.8930119276046753
","x: 196.48414611816406
y: 543.5828857421875
z: 0.06280909478664398
visibility: 0.8292990922927856
","x: 269.84503173828125
y: 555.7371215820312
z: 0.05416148900985718
visibility: 0.9817163348197937
","x: 212.4927978515625
y: 558.7630004882812
z: -0.07472121715545654
visibility: 0.9838309288024902
",,,,,,,,,,,,,,,,,,,,,,,,,,,,,,,,,,,,,,,,,,
12,"x: 244.72091674804688
y: 222.3134002685547
z: -0.329131156206131
visibility: 0.999963104724884
","x: 245.79100036621094
y: 214.30950927734375
z: -0.31016236543655396
visibility: 0.9999105334281921
","x: 247.3899688720703
y: 213.78038024902344
z: -0.3101959228515625
visibility: 0.9999076724052429
","x: 248.6905059814453
y: 213.28488159179688
z: -0.310202956199646
visibility: 0.9999034404754639
","x: 240.57606506347656
y: 216.17425537109375
z: -0.31328749656677246
visibility: 0.9999021291732788
","x: 238.6029815673828
y: 216.92742919921875
z: -0.3133719265460968
visibility: 0.9998963475227356
","x: 236.98776245117188
y: 217.66079711914062
z: -0.31337082386016846
visibility: 0.9998891353607178
","x: 250.35043334960938
y: 215.6504669189453
z: -0.18021489679813385
visibility: 0.9997971057891846
","x: 235.60386657714844
y: 222.0818328857422
z: -0.19010666012763977
visibility: 0.9997832179069519
","x: 248.270751953125
y: 230.93148803710938
z: -0.27873218059539795
visibility: 0.999948263168335
","x: 242.12991333007812
y: 233.11380004882812
z: -0.28168973326683044
visibility: 0.9999523758888245
","x: 267.44683837890625
y: 256.36407470703125
z: -0.0603877417743206
visibility: 0.9999693632125854
","x: 227.56190490722656
y: 275.3017883300781
z: -0.13126081228256226
visibility: 0.9998812675476074
","x: 285.1717224121094
y: 308.5792236328125
z: -0.11699243634939194
visibility: 0.9859623908996582
","x: 229.40060424804688
y: 344.6557922363281
z: -0.20323947072029114
visibility: 0.980591893196106
","x: 268.05413818359375
y: 323.2206726074219
z: -0.33178025484085083
visibility: 0.9658342003822327
","x: 247.48529052734375
y: 309.4339904785156
z: -0.41550207138061523
visibility: 0.9612219333648682
","x: 262.4697265625
y: 326.6876220703125
z: -0.37414300441741943
visibility: 0.9261409044265747
","x: 252.70883178710938
y: 303.78912353515625
z: -0.4616699814796448
visibility: 0.9258124828338623
","x: 260.184814453125
y: 320.07977294921875
z: -0.3769764304161072
visibility: 0.9254348278045654
","x: 252.90081787109375
y: 295.89031982421875
z: -0.45996469259262085
visibility: 0.9261242151260376
","x: 261.09954833984375
y: 318.5456237792969
z: -0.3356800973415375
visibility: 0.9014338254928589
","x: 251.57644653320312
y: 296.89385986328125
z: -0.4166392385959625
visibility: 0.8931312561035156
","x: 261.18951416015625
y: 374.77532958984375
z: 0.036960311233997345
visibility: 0.999573290348053
","x: 238.37823486328125
y: 373.9512939453125
z: -0.0371098630130291
visibility: 0.999518871307373
","x: 269.39923095703125
y: 460.17889404296875
z: -0.007012018468230963
visibility: 0.9854860305786133
","x: 246.8514862060547
y: 458.49053955078125
z: -0.06977429986000061
visibility: 0.9924231767654419
","x: 263.5210876464844
y: 537.7943725585938
z: 0.17670783400535583
visibility: 0.9881604313850403
","x: 222.7373046875
y: 508.5064697265625
z: 0.24246490001678467
visibility: 0.9851905703544617
","x: 258.8285217285156
y: 548.6258544921875
z: 0.18911316990852356
visibility: 0.894614577293396
","x: 217.2682342529297
y: 510.634765625
z: 0.27322691679000854
visibility: 0.8087451457977295
","x: 270.9500427246094
y: 559.662353515625
z: 0.0848187655210495
visibility: 0.9820735454559326
","x: 228.72845458984375
y: 541.7593994140625
z: 0.20831985771656036
visibility: 0.9793109893798828
",,,,,,,,,,,,,,,,,,,,,,,,,,,,,,,,,,,,,,,,,,
13,"x: 253.218505859375
y: 217.48426818847656
z: -0.31207340955734253
visibility: 0.99995356798172
","x: 254.82968139648438
y: 210.6307830810547
z: -0.29205065965652466
visibility: 0.9998970031738281
","x: 256.5688171386719
y: 210.65133666992188
z: -0.2920948565006256
visibility: 0.9998939633369446
","x: 257.9031066894531
y: 210.49520874023438
z: -0.2921255826950073
visibility: 0.9998867511749268
","x: 249.37420654296875
y: 210.5048370361328
z: -0.2966011166572571
visibility: 0.9998839497566223
","x: 247.40049743652344
y: 210.71270751953125
z: -0.2966519296169281
visibility: 0.9998820424079895
","x: 245.9326171875
y: 210.88941955566406
z: -0.29667454957962036
visibility: 0.9998714327812195
","x: 259.283935546875
y: 213.90052795410156
z: -0.16186392307281494
visibility: 0.9997717142105103
","x: 243.87921142578125
y: 215.974365234375
z: -0.1787019670009613
visibility: 0.9997772574424744
","x: 256.3301696777344
y: 227.2230224609375
z: -0.26207247376441956
visibility: 0.9999455809593201
","x: 250.10098266601562
y: 228.05535888671875
z: -0.2671608328819275
visibility: 0.9999479055404663
","x: 274.2510986328125
y: 256.843017578125
z: -0.0516844168305397
visibility: 0.9999616742134094
","x: 234.00833129882812
y: 271.01416015625
z: -0.1274992823600769
visibility: 0.9998668432235718
","x: 291.0401306152344
y: 310.0780029296875
z: -0.148696169257164
visibility: 0.9844943881034851
","x: 233.9165496826172
y: 337.7177734375
z: -0.22527571022510529
visibility: 0.9815388917922974
","x: 277.9949035644531
y: 290.9814758300781
z: -0.3965214788913727
visibility: 0.9648202061653137
","x: 251.8586883544922
y: 292.605224609375
z: -0.4107864499092102
visibility: 0.9634446501731873
","x: 272.1517333984375
y: 286.31976318359375
z: -0.44029170274734497
visibility: 0.9229025840759277
","x: 256.450439453125
y: 283.1057434082031
z: -0.45327845215797424
visibility: 0.9287450909614563
","x: 271.6628112792969
y: 280.3229064941406
z: -0.4287547171115875
visibility: 0.9216280579566956
","x: 255.65087890625
y: 275.93438720703125
z: -0.4463569223880768
visibility: 0.9282885789871216
","x: 272.2666015625
y: 280.9860534667969
z: -0.3968488574028015
visibility: 0.8959963321685791
","x: 254.96560668945312
y: 278.235595703125
z: -0.4098844528198242
visibility: 0.8954206109046936
","x: 268.36126708984375
y: 371.2298278808594
z: 0.039722196757793427
visibility: 0.9995924234390259
","x: 244.7582244873047
y: 371.46856689453125
z: -0.03990796208381653
visibility: 0.9995076060295105
","x: 274.24627685546875
y: 460.1776428222656
z: -4.596172948367894e-05
visibility: 0.9792894124984741
","x: 257.76458740234375
y: 457.10467529296875
z: -0.08664838969707489
visibility: 0.990879476070404
","x: 266.3041076660156
y: 537.58251953125
z: 0.22971710562705994
visibility: 0.9834018349647522
","x: 246.46505737304688
y: 517.7376708984375
z: 0.17138004302978516
visibility: 0.9796750545501709
","x: 261.49591064453125
y: 548.33642578125
z: 0.24679315090179443
visibility: 0.8745632767677307
","x: 241.44937133789062
y: 524.7510986328125
z: 0.1928778886795044
visibility: 0.7908816933631897
","x: 270.1829833984375
y: 560.300048828125
z: 0.13474823534488678
visibility: 0.977238118648529
","x: 253.60610961914062
y: 544.2632446289062
z: 0.08779812604188919
visibility: 0.9750149846076965
",,,,,,,,,,,,,,,,,,,,,,,,,,,,,,,,,,,,,,,,,,
14,"x: 260.8793029785156
y: 222.19857788085938
z: -0.26311174035072327
visibility: 0.9999561905860901
","x: 262.8602600097656
y: 215.25369262695312
z: -0.2420545071363449
visibility: 0.9999046921730042
","x: 264.46038818359375
y: 215.3883514404297
z: -0.24209746718406677
visibility: 0.9999015927314758
","x: 265.66241455078125
y: 215.35403442382812
z: -0.2421194314956665
visibility: 0.9998948574066162
","x: 257.5508728027344
y: 214.55690002441406
z: -0.24925597012043
visibility: 0.9998924136161804
","x: 255.4191436767578
y: 214.36195373535156
z: -0.2492797076702118
visibility: 0.9998904466629028
","x: 253.6451873779297
y: 214.08688354492188
z: -0.24929098784923553
visibility: 0.9998806118965149
","x: 266.462646484375
y: 218.06703186035156
z: -0.11035841703414917
visibility: 0.999787449836731
","x: 250.6886444091797
y: 218.12376403808594
z: -0.14279405772686005
visibility: 0.9997960925102234
","x: 263.02899169921875
y: 231.31056213378906
z: -0.21328675746917725
visibility: 0.9999492764472961
","x: 256.8056945800781
y: 231.24725341796875
z: -0.22264845669269562
visibility: 0.9999518990516663
","x: 277.41265869140625
y: 264.4958801269531
z: -0.00998973473906517
visibility: 0.9999592900276184
","x: 236.62728881835938
y: 271.21990966796875
z: -0.0884438306093216
visibility: 0.9998689293861389
","x: 285.94708251953125
y: 324.07598876953125
z: -0.1002623587846756
visibility: 0.978185772895813
","x: 233.83460998535156
y: 337.5567626953125
z: -0.18223467469215393
visibility: 0.9823236465454102
","x: 279.8994140625
y: 301.1076965332031
z: -0.36246657371520996
visibility: 0.9648796319961548
","x: 250.6759033203125
y: 304.4727783203125
z: -0.3756919801235199
visibility: 0.9655301570892334
","x: 278.6025390625
y: 291.3170166015625
z: -0.4118174910545349
visibility: 0.924507200717926
","x: 255.21348571777344
y: 296.24127197265625
z: -0.4159674644470215
visibility: 0.9321759343147278
","x: 279.204833984375
y: 285.4687194824219
z: -0.4039127826690674
visibility: 0.9233800172805786
","x: 255.3995361328125
y: 289.8962707519531
z: -0.4190601706504822
visibility: 0.9314261674880981
","x: 278.43450927734375
y: 288.5442810058594
z: -0.3674946427345276
visibility: 0.8977192640304565
","x: 254.55325317382812
y: 291.99481201171875
z: -0.3777453601360321
visibility: 0.8996485471725464
","x: 270.71435546875
y: 374.98699951171875
z: 0.04263204336166382
visibility: 0.9996190667152405
","x: 246.71685791015625
y: 375.47039794921875
z: -0.04278581961989403
visibility: 0.999519944190979
","x: 277.2302551269531
y: 465.43798828125
z: -0.03229394182562828
visibility: 0.9778468608856201
","x: 260.81964111328125
y: 460.69378662109375
z: -0.0823429524898529
visibility: 0.9903522729873657
","x: 265.10302734375
y: 537.8240356445312
z: 0.18577232956886292
visibility: 0.9808464646339417
","x: 249.55484008789062
y: 521.2159423828125
z: 0.18561242520809174
visibility: 0.9732075929641724
","x: 259.556640625
y: 548.2274780273438
z: 0.2052217274904251
visibility: 0.8676316142082214
","x: 246.75198364257812
y: 529.7073974609375
z: 0.20813357830047607
visibility: 0.7746047973632812
","x: 269.6278991699219
y: 561.107421875
z: 0.12424992024898529
visibility: 0.9746660590171814
","x: 254.55213928222656
y: 548.6130981445312
z: 0.1157628744840622
visibility: 0.969806432723999
",,,,,,,,,,,,,,,,,,,,,,,,,,,,,,,,,,,,,,,,,,
15,"x: 264.232421875
y: 222.54937744140625
z: -0.26608359813690186
visibility: 0.9999572038650513
","x: 266.6029968261719
y: 216.9642333984375
z: -0.2443854808807373
visibility: 0.9999101758003235
","x: 268.03802490234375
y: 218.1248779296875
z: -0.24442000687122345
visibility: 0.9999057054519653
","x: 269.32781982421875
y: 219.297607421875
z: -0.2444763481616974
visibility: 0.9998997449874878
","x: 261.909423828125
y: 216.45362854003906
z: -0.2540600299835205
visibility: 0.9998997449874878
","x: 260.1380920410156
y: 216.81739807128906
z: -0.254083514213562
visibility: 0.9998974204063416
","x: 258.5772399902344
y: 216.78717041015625
z: -0.2541144788265228
visibility: 0.9998888373374939
","x: 269.8746032714844
y: 223.46405029296875
z: -0.11276348680257797
visibility: 0.9997904896736145
","x: 254.9478759765625
y: 220.15921020507812
z: -0.15731942653656006
visibility: 0.9998143315315247
","x: 265.43768310546875
y: 231.89842224121094
z: -0.21608999371528625
visibility: 0.9999520778656006
","x: 260.1064453125
y: 233.53004455566406
z: -0.22913996875286102
visibility: 0.9999556541442871
","x: 276.338134765625
y: 267.93487548828125
z: -0.011037716642022133
visibility: 0.9999522566795349
","x: 236.8177490234375
y: 271.0776062011719
z: -0.11399320513010025
visibility: 0.9998764395713806
","x: 288.94573974609375
y: 325.0477294921875
z: -0.1231173649430275
visibility: 0.9752086400985718
","x: 230.13592529296875
y: 334.482177734375
z: -0.1910887509584427
visibility: 0.9833577871322632
","x: 277.9274597167969
y: 295.8724670410156
z: -0.3891984820365906
visibility: 0.964012086391449
","x: 257.13690185546875
y: 313.80609130859375
z: -0.3713996410369873
visibility: 0.9663443565368652
","x: 275.09576416015625
y: 290.3974609375
z: -0.43786463141441345
visibility: 0.9239921569824219
","x: 263.45147705078125
y: 310.51416015625
z: -0.40704837441444397
visibility: 0.9322696328163147
","x: 274.36541748046875
y: 283.39019775390625
z: -0.42642951011657715
visibility: 0.9226464033126831
","x: 264.176513671875
y: 304.5960693359375
z: -0.39285194873809814
visibility: 0.9308509826660156
","x: 274.150390625
y: 285.2570495605469
z: -0.3914336562156677
visibility: 0.8965457677841187
","x: 262.7437744140625
y: 305.0310974121094
z: -0.36459285020828247
visibility: 0.8985723853111267
","x: 268.3865966796875
y: 379.9014587402344
z: 0.04701991006731987
visibility: 0.9996524453163147
","x: 243.92218017578125
y: 378.2253723144531
z: -0.047207143157720566
visibility: 0.9995540380477905
","x: 277.92169189453125
y: 469.1570739746094
z: -0.02085200697183609
visibility: 0.9759506583213806
","x: 251.68292236328125
y: 465.8206481933594
z: -0.08356402814388275
visibility: 0.9894217252731323
","x: 265.6920471191406
y: 539.137939453125
z: 0.19038692116737366
visibility: 0.976516842842102
","x: 237.81271362304688
y: 514.3712768554688
z: 0.23085391521453857
visibility: 0.955460786819458
","x: 261.7270202636719
y: 549.100830078125
z: 0.20863524079322815
visibility: 0.8544458150863647
","x: 234.6356658935547
y: 517.297607421875
z: 0.2606542706489563
visibility: 0.7384176850318909
","x: 271.6498718261719
y: 561.532470703125
z: 0.12111006677150726
visibility: 0.9690180420875549
","x: 242.53065490722656
y: 545.0073852539062
z: 0.19566623866558075
visibility: 0.9525639414787292
","x: 278.8039855957031
y: 285.1460266113281
z: 0.0
","x: 279.1591796875
y: 278.031982421875
z: 0.0008041565306484699
","x: 277.8331298828125
y: 271.0091552734375
z: -0.0007285712053999305
","x: 275.6742858886719
y: 267.0111999511719
z: -0.002551599405705929
","x: 273.4923095703125
y: 265.1607666015625
z: -0.003890328574925661
","x: 277.1880798339844
y: 269.9643859863281
z: -0.004666725639253855
","x: 271.96905517578125
y: 266.56201171875
z: -0.007126042153686285
","x: 272.0550842285156
y: 269.0848388671875
z: -0.007038656156510115
","x: 273.6794128417969
y: 271.2856750488281
z: -0.006628535222262144
","x: 275.9197998046875
y: 273.57257080078125
z: -0.006652097217738628
","x: 270.7218017578125
y: 270.119384765625
z: -0.008522124029695988
","x: 271.3356628417969
y: 272.1242370605469
z: -0.007189439609646797
","x: 273.0975646972656
y: 273.90655517578125
z: -0.0062021734192967415
","x: 274.6557312011719
y: 277.5632629394531
z: -0.008482099510729313
","x: 270.0518493652344
y: 274.41534423828125
z: -0.00959029234945774
","x: 270.751708984375
y: 275.9368591308594
z: -0.007416740991175175
","x: 272.3417663574219
y: 277.38189697265625
z: -0.006134876981377602
","x: 273.51043701171875
y: 281.7586975097656
z: -0.010244489647448063
","x: 269.83221435546875
y: 279.2241516113281
z: -0.011043169535696507
","x: 270.4670715332031
y: 280.2975158691406
z: -0.009625347331166267
","x: 271.808837890625
y: 281.6372985839844
z: -0.008549889549612999
",,,,,,,,,,,,,,,,,,,,,
16,"x: 264.232421875
y: 222.54937744140625
z: -0.26608359813690186
visibility: 0.9999572038650513
","x: 266.6029968261719
y: 216.9642333984375
z: -0.2443854808807373
visibility: 0.9999101758003235
","x: 268.03802490234375
y: 218.1248779296875
z: -0.24442000687122345
visibility: 0.9999057054519653
","x: 269.32781982421875
y: 219.297607421875
z: -0.2444763481616974
visibility: 0.9998997449874878
","x: 261.909423828125
y: 216.45362854003906
z: -0.2540600299835205
visibility: 0.9998997449874878
","x: 260.1380920410156
y: 216.81739807128906
z: -0.254083514213562
visibility: 0.9998974204063416
","x: 258.5772399902344
y: 216.78717041015625
z: -0.2541144788265228
visibility: 0.9998888373374939
","x: 269.8746032714844
y: 223.46405029296875
z: -0.11276348680257797
visibility: 0.9997904896736145
","x: 254.9478759765625
y: 220.15921020507812
z: -0.15731942653656006
visibility: 0.9998143315315247
","x: 265.43768310546875
y: 231.89842224121094
z: -0.21608999371528625
visibility: 0.9999520778656006
","x: 260.1064453125
y: 233.53004455566406
z: -0.22913996875286102
visibility: 0.9999556541442871
","x: 276.338134765625
y: 267.93487548828125
z: -0.011037716642022133
visibility: 0.9999522566795349
","x: 236.8177490234375
y: 271.0776062011719
z: -0.11399320513010025
visibility: 0.9998764395713806
","x: 288.94573974609375
y: 325.0477294921875
z: -0.1231173649430275
visibility: 0.9752086400985718
","x: 230.13592529296875
y: 334.482177734375
z: -0.1910887509584427
visibility: 0.9833577871322632
","x: 277.9274597167969
y: 295.8724670410156
z: -0.3891984820365906
visibility: 0.964012086391449
","x: 257.13690185546875
y: 313.80609130859375
z: -0.3713996410369873
visibility: 0.9663443565368652
","x: 275.09576416015625
y: 290.3974609375
z: -0.43786463141441345
visibility: 0.9239921569824219
","x: 263.45147705078125
y: 310.51416015625
z: -0.40704837441444397
visibility: 0.9322696328163147
","x: 274.36541748046875
y: 283.39019775390625
z: -0.42642951011657715
visibility: 0.9226464033126831
","x: 264.176513671875
y: 304.5960693359375
z: -0.39285194873809814
visibility: 0.9308509826660156
","x: 274.150390625
y: 285.2570495605469
z: -0.3914336562156677
visibility: 0.8965457677841187
","x: 262.7437744140625
y: 305.0310974121094
z: -0.36459285020828247
visibility: 0.8985723853111267
","x: 268.3865966796875
y: 379.9014587402344
z: 0.04701991006731987
visibility: 0.9996524453163147
","x: 243.92218017578125
y: 378.2253723144531
z: -0.047207143157720566
visibility: 0.9995540380477905
","x: 277.92169189453125
y: 469.1570739746094
z: -0.02085200697183609
visibility: 0.9759506583213806
","x: 251.68292236328125
y: 465.8206481933594
z: -0.08356402814388275
visibility: 0.9894217252731323
","x: 265.6920471191406
y: 539.137939453125
z: 0.19038692116737366
visibility: 0.976516842842102
","x: 237.81271362304688
y: 514.3712768554688
z: 0.23085391521453857
visibility: 0.955460786819458
","x: 261.7270202636719
y: 549.100830078125
z: 0.20863524079322815
visibility: 0.8544458150863647
","x: 234.6356658935547
y: 517.297607421875
z: 0.2606542706489563
visibility: 0.7384176850318909
","x: 271.6498718261719
y: 561.532470703125
z: 0.12111006677150726
visibility: 0.9690180420875549
","x: 242.53065490722656
y: 545.0073852539062
z: 0.19566623866558075
visibility: 0.9525639414787292
","x: 278.8039855957031
y: 285.1460266113281
z: 0.0
","x: 279.1591796875
y: 278.031982421875
z: 0.0008041565306484699
","x: 277.8331298828125
y: 271.0091552734375
z: -0.0007285712053999305
","x: 275.6742858886719
y: 267.0111999511719
z: -0.002551599405705929
","x: 273.4923095703125
y: 265.1607666015625
z: -0.003890328574925661
","x: 277.1880798339844
y: 269.9643859863281
z: -0.004666725639253855
","x: 271.96905517578125
y: 266.56201171875
z: -0.007126042153686285
","x: 272.0550842285156
y: 269.0848388671875
z: -0.007038656156510115
","x: 273.6794128417969
y: 271.2856750488281
z: -0.006628535222262144
","x: 275.9197998046875
y: 273.57257080078125
z: -0.006652097217738628
","x: 270.7218017578125
y: 270.119384765625
z: -0.008522124029695988
","x: 271.3356628417969
y: 272.1242370605469
z: -0.007189439609646797
","x: 273.0975646972656
y: 273.90655517578125
z: -0.0062021734192967415
","x: 274.6557312011719
y: 277.5632629394531
z: -0.008482099510729313
","x: 270.0518493652344
y: 274.41534423828125
z: -0.00959029234945774
","x: 270.751708984375
y: 275.9368591308594
z: -0.007416740991175175
","x: 272.3417663574219
y: 277.38189697265625
z: -0.006134876981377602
","x: 273.51043701171875
y: 281.7586975097656
z: -0.010244489647448063
","x: 269.83221435546875
y: 279.2241516113281
z: -0.011043169535696507
","x: 270.4670715332031
y: 280.2975158691406
z: -0.009625347331166267
","x: 271.808837890625
y: 281.6372985839844
z: -0.008549889549612999
",,,,,,,,,,,,,,,,,,,,,
17,"x: 262.85858154296875
y: 223.2112274169922
z: -0.19940368831157684
visibility: 0.9999609589576721
","x: 265.3341369628906
y: 217.2296142578125
z: -0.1744185984134674
visibility: 0.9999182820320129
","x: 266.7010192871094
y: 218.0225830078125
z: -0.1744210422039032
visibility: 0.99991375207901
","x: 267.8940124511719
y: 218.8156280517578
z: -0.17442481219768524
visibility: 0.999908447265625
","x: 260.9659729003906
y: 215.72439575195312
z: -0.18539990484714508
visibility: 0.9999090433120728
","x: 259.1113586425781
y: 215.16104125976562
z: -0.18540801107883453
visibility: 0.9999068975448608
","x: 257.4090576171875
y: 214.43267822265625
z: -0.18539685010910034
visibility: 0.9998993277549744
","x: 268.2410888671875
y: 223.1169891357422
z: -0.043295711278915405
visibility: 0.9998080730438232
","x: 253.2991485595703
y: 217.9371337890625
z: -0.09444420039653778
visibility: 0.9998323917388916
","x: 263.3062744140625
y: 232.512451171875
z: -0.15102089941501617
visibility: 0.9999565482139587
","x: 257.98077392578125
y: 232.16390991210938
z: -0.1660173088312149
visibility: 0.9999598860740662
","x: 273.0608825683594
y: 267.2683410644531
z: 0.0314338356256485
visibility: 0.9999557137489319
","x: 236.8649139404297
y: 262.6781921386719
z: -0.05550714582204819
visibility: 0.9998860359191895
","x: 291.3398132324219
y: 308.13134765625
z: -0.07788283377885818
visibility: 0.9771935343742371
","x: 228.14749145507812
y: 312.9227294921875
z: -0.1333814561367035
visibility: 0.9844027161598206
","x: 270.30621337890625
y: 289.9403076171875
z: -0.30196088552474976
visibility: 0.9668351411819458
","x: 252.0701141357422
y: 331.56427001953125
z: -0.27313607931137085
visibility: 0.9681139588356018
","x: 267.2197570800781
y: 288.9181823730469
z: -0.35118597745895386
visibility: 0.9291557669639587
","x: 257.10870361328125
y: 341.017578125
z: -0.3129957914352417
visibility: 0.935152530670166
","x: 267.67510986328125
y: 285.5289306640625
z: -0.3362031877040863
visibility: 0.9278083443641663
","x: 259.4457702636719
y: 336.05487060546875
z: -0.3139006495475769
visibility: 0.9336845874786377
","x: 266.19342041015625
y: 285.66424560546875
z: -0.30131837725639343
visibility: 0.9029834270477295
","x: 258.4994812011719
y: 333.36541748046875
z: -0.2735438942909241
visibility: 0.902353823184967
","x: 263.5431823730469
y: 379.4824523925781
z: 0.03560694307088852
visibility: 0.999684751033783
","x: 240.22584533691406
y: 375.60107421875
z: -0.03583451360464096
visibility: 0.999590277671814
","x: 272.3788146972656
y: 468.0762023925781
z: -0.022140298038721085
visibility: 0.9775857329368591
","x: 250.7879180908203
y: 465.27960205078125
z: -0.07517224550247192
visibility: 0.9896714687347412
","x: 268.3227233886719
y: 537.8428955078125
z: 0.16246706247329712
visibility: 0.9774112701416016
","x: 223.2373809814453
y: 512.917236328125
z: 0.17670489847660065
visibility: 0.9563454985618591
","x: 264.889404296875
y: 548.51318359375
z: 0.17565518617630005
visibility: 0.8452678322792053
","x: 220.63961791992188
y: 516.4063110351562
z: 0.19685742259025574
visibility: 0.7286887168884277
","x: 269.4652099609375
y: 561.2398681640625
z: 0.06528522074222565
visibility: 0.9691166281700134
","x: 219.15325927734375
y: 543.5343627929688
z: 0.10043253004550934
visibility: 0.9525027275085449
",,,,,,,,,,,,,,,,,,,,,,,,,,,,,,,,,,,,,,,,,,
18,"x: 256.53912353515625
y: 216.600830078125
z: -0.20923630893230438
visibility: 0.999962568283081
","x: 258.9197692871094
y: 212.3259735107422
z: -0.18675433099269867
visibility: 0.9999217391014099
","x: 260.2762451171875
y: 213.34266662597656
z: -0.18676558136940002
visibility: 0.9999158382415771
","x: 261.3595275878906
y: 214.30197143554688
z: -0.1867484301328659
visibility: 0.9999109506607056
","x: 254.49888610839844
y: 209.11416625976562
z: -0.19742442667484283
visibility: 0.9999142289161682
","x: 252.72360229492188
y: 207.78756713867188
z: -0.19744768738746643
visibility: 0.9999125003814697
","x: 251.0892333984375
y: 206.53939819335938
z: -0.1974470019340515
visibility: 0.9999064207077026
","x: 261.5623474121094
y: 218.87249755859375
z: -0.05833381414413452
visibility: 0.9998102188110352
","x: 247.5061798095703
y: 209.4869384765625
z: -0.10776720196008682
visibility: 0.9998459815979004
","x: 257.27862548828125
y: 226.55271911621094
z: -0.16066665947437286
visibility: 0.9999586343765259
","x: 251.91043090820312
y: 223.0661163330078
z: -0.17514893412590027
visibility: 0.9999628663063049
","x: 270.187744140625
y: 259.802978515625
z: 0.029098525643348694
visibility: 0.9999552369117737
","x: 236.65634155273438
y: 252.25665283203125
z: -0.06295237690210342
visibility: 0.9998943209648132
","x: 289.4951171875
y: 302.35467529296875
z: -0.0027256361208856106
visibility: 0.9758162498474121
","x: 222.5798797607422
y: 308.8061828613281
z: -0.10018324851989746
visibility: 0.985141932964325
","x: 266.5730895996094
y: 306.857177734375
z: -0.17352738976478577
visibility: 0.9580950140953064
","x: 248.837646484375
y: 326.5040283203125
z: -0.20525474846363068
visibility: 0.969089150428772
","x: 260.1385498046875
y: 320.9819030761719
z: -0.21563737094402313
visibility: 0.9134984016418457
","x: 254.31564331054688
y: 339.2052001953125
z: -0.24275639653205872
visibility: 0.9369463920593262
","x: 257.4859619140625
y: 319.5584716796875
z: -0.22076022624969482
visibility: 0.9125702381134033
","x: 256.18585205078125
y: 332.2997741699219
z: -0.2499382048845291
visibility: 0.9355332255363464
","x: 258.6217041015625
y: 314.6365661621094
z: -0.1799154281616211
visibility: 0.88543701171875
","x: 254.8971710205078
y: 332.2143249511719
z: -0.20737624168395996
visibility: 0.90433269739151
","x: 255.5496063232422
y: 375.14593505859375
z: 0.03234606236219406
visibility: 0.9997023344039917
","x: 231.580810546875
y: 370.5209655761719
z: -0.03248768299818039
visibility: 0.9996038675308228
","x: 267.32537841796875
y: 463.27490234375
z: -0.02043878100812435
visibility: 0.9791200160980225
","x: 225.0507354736328
y: 464.2196044921875
z: -0.0442197360098362
visibility: 0.9901129007339478
","x: 266.6083679199219
y: 537.79248046875
z: 0.14061248302459717
visibility: 0.9789894819259644
","x: 201.49258422851562
y: 516.005615234375
z: 0.15644600987434387
visibility: 0.9595377445220947
","x: 263.785888671875
y: 548.49951171875
z: 0.14776229858398438
visibility: 0.8492510318756104
","x: 196.5113067626953
y: 523.0203857421875
z: 0.16511030495166779
visibility: 0.7338592410087585
","x: 268.8659362792969
y: 561.0279541015625
z: 0.01771455444395542
visibility: 0.9706037640571594
","x: 206.068603515625
y: 543.6531982421875
z: 0.03194604068994522
visibility: 0.9551060199737549
",,,,,,,,,,,,,,,,,,,,,,,,,,,,,,,,,,,,,,,,,,
19,"x: 248.3505859375
y: 214.79672241210938
z: -0.2639857530593872
visibility: 0.9999614357948303
","x: 250.34185791015625
y: 209.47862243652344
z: -0.24300818145275116
visibility: 0.9999221563339233
","x: 251.2198486328125
y: 210.45921325683594
z: -0.2430330514907837
visibility: 0.9999158382415771
","x: 252.22146606445312
y: 211.41229248046875
z: -0.24304580688476562
visibility: 0.9999105334281921
","x: 247.07757568359375
y: 206.75885009765625
z: -0.2505820393562317
visibility: 0.999914824962616
","x: 245.76278686523438
y: 205.73635864257812
z: -0.25062355399131775
visibility: 0.9999132752418518
","x: 243.92398071289062
y: 204.52554321289062
z: -0.25062090158462524
visibility: 0.999907374382019
","x: 250.13096618652344
y: 215.79852294921875
z: -0.11234593391418457
visibility: 0.9998056888580322
","x: 238.33343505859375
y: 206.559326171875
z: -0.16805019974708557
visibility: 0.9998518824577332
","x: 247.0846710205078
y: 224.57444763183594
z: -0.21383869647979736
visibility: 0.9999569654464722
","x: 243.63719177246094
y: 221.40875244140625
z: -0.2234967052936554
visibility: 0.9999635219573975
","x: 252.9507598876953
y: 259.3908386230469
z: -0.005449641961604357
visibility: 0.999941885471344
","x: 217.42945861816406
y: 250.97616577148438
z: -0.1264035999774933
visibility: 0.9998955726623535
","x: 259.0003356933594
y: 305.9410400390625
z: -0.05094752460718155
visibility: 0.9706481695175171
","x: 208.87547302246094
y: 314.6142272949219
z: -0.22075848281383514
visibility: 0.9858174324035645
","x: 248.69241333007812
y: 312.144287109375
z: -0.2637651562690735
visibility: 0.9529321789741516
","x: 232.89634704589844
y: 299.681884765625
z: -0.3991473913192749
visibility: 0.9712504148483276
","x: 244.76522827148438
y: 320.7698974609375
z: -0.30680567026138306
visibility: 0.9048277139663696
","x: 238.91873168945312
y: 295.4096374511719
z: -0.4438471794128418
visibility: 0.9411607384681702
","x: 243.82595825195312
y: 319.32421875
z: -0.31124526262283325
visibility: 0.9040645956993103
","x: 238.7889404296875
y: 286.52117919921875
z: -0.4421605169773102
visibility: 0.9396795630455017
","x: 244.34532165527344
y: 314.5141906738281
z: -0.2702774703502655
visibility: 0.8741112947463989
","x: 237.19308471679688
y: 288.2614440917969
z: -0.39944785833358765
visibility: 0.9093930125236511
","x: 239.2542266845703
y: 370.2491760253906
z: 0.04750629886984825
visibility: 0.999699056148529
","x: 215.29933166503906
y: 365.8435363769531
z: -0.04770369082689285
visibility: 0.9995948672294617
","x: 258.3419189453125
y: 452.84674072265625
z: 0.02661684714257717
visibility: 0.9803516268730164
","x: 211.59642028808594
y: 459.9282531738281
z: -0.04574495926499367
visibility: 0.9907534122467041
","x: 259.7776184082031
y: 533.0847778320312
z: 0.18775181472301483
visibility: 0.9805878400802612
","x: 197.02734375
y: 523.9908447265625
z: 0.09176662564277649
visibility: 0.9631814956665039
","x: 256.0960388183594
y: 543.0390014648438
z: 0.19529886543750763
visibility: 0.8603242039680481
","x: 193.72586059570312
y: 536.5547485351562
z: 0.09938837587833405
visibility: 0.7495880722999573
","x: 268.7524108886719
y: 556.7394409179688
z: 0.07111042737960815
visibility: 0.9726084470748901
","x: 203.56626892089844
y: 547.4891357421875
z: -0.04239978641271591
visibility: 0.9587493538856506
",,,,,,,,,,,,,,,,,,,,,,,,,,,,,,,,,,,,,,,,,,
20,"x: 236.09280395507812
y: 216.2574462890625
z: -0.27566495537757874
visibility: 0.9999340176582336
","x: 237.39712524414062
y: 210.29547119140625
z: -0.25446826219558716
visibility: 0.9998763203620911
","x: 238.26058959960938
y: 211.04600524902344
z: -0.25450319051742554
visibility: 0.9998610019683838
","x: 239.30294799804688
y: 211.86004638671875
z: -0.2545366585254669
visibility: 0.9998520016670227
","x: 233.55938720703125
y: 208.0035400390625
z: -0.26474106311798096
visibility: 0.9998665452003479
","x: 231.64024353027344
y: 207.2176513671875
z: -0.2647707164287567
visibility: 0.9998599290847778
","x: 229.44297790527344
y: 206.3294677734375
z: -0.26479387283325195
visibility: 0.9998586773872375
","x: 238.51486206054688
y: 215.7673797607422
z: -0.12244302034378052
visibility: 0.9996907711029053
","x: 224.8102264404297
y: 208.57408142089844
z: -0.17039114236831665
visibility: 0.9998072385787964
","x: 236.31130981445312
y: 225.3683319091797
z: -0.22472569346427917
visibility: 0.9999374151229858
","x: 231.1058349609375
y: 223.12548828125
z: -0.23800376057624817
visibility: 0.9999540448188782
","x: 243.29034423828125
y: 259.5554504394531
z: -0.017032988369464874
visibility: 0.9998762607574463
","x: 204.88201904296875
y: 253.32322692871094
z: -0.1392841339111328
visibility: 0.999880313873291
","x: 246.14942932128906
y: 317.606689453125
z: -0.08817459642887115
visibility: 0.9579185247421265
","x: 197.548095703125
y: 316.6427307128906
z: -0.21613188087940216
visibility: 0.98638916015625
","x: 235.80702209472656
y: 300.91998291015625
z: -0.34425088763237
visibility: 0.9380325078964233
","x: 226.2422332763672
y: 300.8584289550781
z: -0.36076995730400085
visibility: 0.9719151258468628
","x: 233.6890106201172
y: 293.76531982421875
z: -0.39315682649612427
visibility: 0.8847927451133728
","x: 232.96363830566406
y: 299.23870849609375
z: -0.3881480395793915
visibility: 0.9416064023971558
","x: 233.49044799804688
y: 285.0501403808594
z: -0.38592150807380676
visibility: 0.8833991289138794
","x: 232.9210968017578
y: 290.760986328125
z: -0.3776274621486664
visibility: 0.9395803809165955
","x: 233.84396362304688
y: 286.6498107910156
z: -0.3484329283237457
visibility: 0.8506549596786499
","x: 230.7627410888672
y: 290.96356201171875
z: -0.35162243247032166
visibility: 0.9079177975654602
","x: 229.24195861816406
y: 370.1406555175781
z: 0.04663562774658203
visibility: 0.9996897578239441
","x: 205.2249298095703
y: 367.08203125
z: -0.04679170623421669
visibility: 0.9995605945587158
","x: 244.955810546875
y: 447.38201904296875
z: -0.06736946851015091
visibility: 0.9802885055541992
","x: 205.3721923828125
y: 458.3563537597656
z: -0.04852212965488434
visibility: 0.9897117614746094
","x: 229.24465942382812
y: 516.9745483398438
z: 0.185611754655838
visibility: 0.9797830581665039
","x: 197.49774169921875
y: 526.34814453125
z: 0.16946302354335785
visibility: 0.9644936919212341
","x: 223.26820373535156
y: 525.089111328125
z: 0.1956491768360138
visibility: 0.8641173243522644
","x: 194.2067413330078
y: 540.2432861328125
z: 0.1852758526802063
visibility: 0.7507949471473694
","x: 240.18804931640625
y: 544.1736450195312
z: 0.07766707241535187
visibility: 0.97237229347229
","x: 203.6529541015625
y: 548.3486328125
z: 0.04128174111247063
visibility: 0.959341824054718
",,,,,,,,,,,,,,,,,,,,,,,,,,,,,,,,,,,,,,,,,,
21,"x: 226.6627197265625
y: 216.66873168945312
z: -0.2066868096590042
visibility: 0.9999374747276306
","x: 228.13885498046875
y: 210.22596740722656
z: -0.1817760020494461
visibility: 0.9998825788497925
","x: 229.39479064941406
y: 210.89601135253906
z: -0.18180540204048157
visibility: 0.9998669028282166
","x: 230.4312744140625
y: 211.4883270263672
z: -0.1818307340145111
visibility: 0.9998590350151062
","x: 224.14894104003906
y: 208.41940307617188
z: -0.18961907923221588
visibility: 0.9998732209205627
","x: 222.19741821289062
y: 207.751220703125
z: -0.1895938366651535
visibility: 0.9998661279678345
","x: 220.25230407714844
y: 207.11570739746094
z: -0.18957427144050598
visibility: 0.999865710735321
","x: 230.3437957763672
y: 215.82040405273438
z: -0.04928049445152283
visibility: 0.9997073411941528
","x: 215.57403564453125
y: 210.13253784179688
z: -0.0853627398610115
visibility: 0.9998183846473694
","x: 227.84983825683594
y: 225.8270263671875
z: -0.15762189030647278
visibility: 0.9999416470527649
","x: 222.72152709960938
y: 224.05953979492188
z: -0.16817790269851685
visibility: 0.9999573826789856
","x: 236.58299255371094
y: 259.62872314453125
z: 0.027730843052268028
visibility: 0.9998827576637268
","x: 199.69107055664062
y: 254.00021362304688
z: -0.05282384157180786
visibility: 0.9998794794082642
","x: 250.67239379882812
y: 316.93560791015625
z: -0.0806732326745987
visibility: 0.9612874388694763
","x: 191.08099365234375
y: 311.1316223144531
z: -0.13580666482448578
visibility: 0.9865371584892273
","x: 231.49598693847656
y: 292.1328430175781
z: -0.3238408863544464
visibility: 0.9429913759231567
","x: 218.98484802246094
y: 316.32440185546875
z: -0.2778204083442688
visibility: 0.9717954993247986
","x: 225.1393585205078
y: 288.6965637207031
z: -0.3866715729236603
visibility: 0.8928051590919495
","x: 224.54104614257812
y: 326.73065185546875
z: -0.31852227449417114
visibility: 0.9410972595214844
","x: 223.59188842773438
y: 283.1600646972656
z: -0.35972556471824646
visibility: 0.8912922143936157
","x: 227.0928955078125
y: 322.5479736328125
z: -0.3149372935295105
visibility: 0.9387369155883789
","x: 224.82847595214844
y: 283.658203125
z: -0.3219674229621887
visibility: 0.8601783514022827
","x: 225.0012969970703
y: 318.820068359375
z: -0.2768026888370514
visibility: 0.9065001606941223
","x: 223.3832550048828
y: 369.9578857421875
z: 0.04512970149517059
visibility: 0.9996810555458069
","x: 200.9541015625
y: 367.2918395996094
z: -0.04528740793466568
visibility: 0.9995284080505371
","x: 230.12911987304688
y: 449.395263671875
z: -0.036143749952316284
visibility: 0.9798187017440796
","x: 202.60386657714844
y: 457.5344543457031
z: -0.05191071704030037
visibility: 0.9892611503601074
","x: 216.26864624023438
y: 516.3662109375
z: 0.22832708060741425
visibility: 0.97708660364151
","x: 196.11279296875
y: 528.003662109375
z: 0.13658007979393005
visibility: 0.966457188129425
","x: 210.15296936035156
y: 522.2835693359375
z: 0.248578280210495
visibility: 0.8618279099464417
","x: 193.6374969482422
y: 540.884521484375
z: 0.1492287814617157
visibility: 0.7580743432044983
","x: 220.94029235839844
y: 545.8472290039062
z: 0.14714740216732025
visibility: 0.9703836441040039
","x: 205.06996154785156
y: 552.0848999023438
z: 0.013340204954147339
visibility: 0.9608118534088135
",,,,,,,,,,,,,,,,,,,,,,,,,,,,,,,,,,,,,,,,,,
22,"x: 220.48471069335938
y: 217.56919860839844
z: -0.23001737892627716
visibility: 0.9999362230300903
","x: 220.7464599609375
y: 210.76077270507812
z: -0.20730464160442352
visibility: 0.9998767375946045
","x: 221.87713623046875
y: 211.00515747070312
z: -0.20733411610126495
visibility: 0.9998605251312256
","x: 223.0216827392578
y: 211.13853454589844
z: -0.20736603438854218
visibility: 0.9998521208763123
","x: 216.8231964111328
y: 209.65609741210938
z: -0.21304841339588165
visibility: 0.9998677968978882
","x: 215.040771484375
y: 208.77195739746094
z: -0.21303877234458923
visibility: 0.9998607039451599
","x: 212.99404907226562
y: 207.31451416015625
z: -0.21303875744342804
visibility: 0.9998614192008972
","x: 222.63340759277344
y: 214.8888397216797
z: -0.08304021507501602
visibility: 0.9996998310089111
","x: 208.26927185058594
y: 213.14385986328125
z: -0.10871188342571259
visibility: 0.9998109340667725
","x: 222.60418701171875
y: 226.62498474121094
z: -0.1838013082742691
visibility: 0.9999412894248962
","x: 217.8164520263672
y: 225.25369262695312
z: -0.1914394348859787
visibility: 0.9999573826789856
","x: 233.5411376953125
y: 259.8814697265625
z: 0.004756484646350145
visibility: 0.999883234500885
","x: 195.29132080078125
y: 257.2131042480469
z: -0.06923653930425644
visibility: 0.9998654127120972
","x: 250.27392578125
y: 313.3466491699219
z: -0.12710215151309967
visibility: 0.9638871550559998
","x: 182.6168212890625
y: 314.03680419921875
z: -0.15435664355754852
visibility: 0.9867957234382629
","x: 228.23153686523438
y: 288.9483337402344
z: -0.34225302934646606
visibility: 0.9463798999786377
","x: 212.94049072265625
y: 316.511474609375
z: -0.30873599648475647
visibility: 0.9710159301757812
","x: 221.8700408935547
y: 284.92486572265625
z: -0.39061689376831055
visibility: 0.8970047235488892
","x: 220.97622680664062
y: 318.4183349609375
z: -0.35116881132125854
visibility: 0.9381645321846008
","x: 220.23486328125
y: 280.44024658203125
z: -0.37207335233688354
visibility: 0.894938588142395
","x: 221.59481811523438
y: 314.58184814453125
z: -0.32840225100517273
visibility: 0.9348510503768921
","x: 221.70407104492188
y: 281.21697998046875
z: -0.3399174213409424
visibility: 0.8639142513275146
","x: 219.3408660888672
y: 313.220703125
z: -0.29914650321006775
visibility: 0.9005308151245117
","x: 221.66580200195312
y: 370.2373962402344
z: 0.03236852586269379
visibility: 0.9996451139450073
","x: 198.7964324951172
y: 367.75927734375
z: -0.03249235451221466
visibility: 0.9994935989379883
","x: 228.8203582763672
y: 451.2753601074219
z: -0.027267619967460632
visibility: 0.9800462126731873
","x: 199.9720458984375
y: 457.6785583496094
z: -0.06495140492916107
visibility: 0.9890316724777222
","x: 219.24755859375
y: 511.5095520019531
z: 0.24658015370368958
visibility: 0.97580486536026
","x: 194.01382446289062
y: 528.9779052734375
z: 0.09929540008306503
visibility: 0.9682610630989075
","x: 215.3229522705078
y: 515.5847778320312
z: 0.2681686282157898
visibility: 0.8541600704193115
","x: 190.58436584472656
y: 542.0709228515625
z: 0.10992871224880219
visibility: 0.7599177360534668
","x: 219.4757080078125
y: 544.1784057617188
z: 0.16443195939064026
visibility: 0.9690819382667542
","x: 205.03843688964844
y: 553.6547241210938
z: -0.025989335030317307
visibility: 0.9620874524116516
",,,,,,,,,,,,,,,,,,,,,,,,,,,,,,,,,,,,,,,,,,
23,"x: 216.03713989257812
y: 218.24578857421875
z: -0.27640020847320557
visibility: 0.9999420642852783
","x: 216.09388732910156
y: 211.14633178710938
z: -0.25595635175704956
visibility: 0.9998883008956909
","x: 217.34219360351562
y: 211.16421508789062
z: -0.2559964060783386
visibility: 0.9998735785484314
","x: 218.57977294921875
y: 211.1063995361328
z: -0.25604864954948425
visibility: 0.9998659491539001
","x: 212.19415283203125
y: 210.21868896484375
z: -0.2697671949863434
visibility: 0.9998801946640015
","x: 210.39825439453125
y: 209.40155029296875
z: -0.2697920799255371
visibility: 0.9998737573623657
","x: 208.5755615234375
y: 209.72998046875
z: -0.2698385417461395
visibility: 0.9998743534088135
","x: 218.58238220214844
y: 214.48764038085938
z: -0.12803789973258972
visibility: 0.9997283220291138
","x: 203.76495361328125
y: 217.0052947998047
z: -0.19051750004291534
visibility: 0.999829113483429
","x: 218.83934020996094
y: 227.15963745117188
z: -0.22713300585746765
visibility: 0.9999467730522156
","x: 213.31898498535156
y: 225.52828979492188
z: -0.24580053985118866
visibility: 0.9999614357948303
","x: 230.87127685546875
y: 259.40625
z: -0.0012186603853479028
visibility: 0.9998927712440491
","x: 191.81765747070312
y: 262.80010986328125
z: -0.15788987278938293
visibility: 0.9998770356178284
","x: 242.90342712402344
y: 314.1669006347656
z: -0.11701934039592743
visibility: 0.9654777646064758
","x: 179.77711486816406
y: 322.0657653808594
z: -0.28354933857917786
visibility: 0.9877058267593384
","x: 235.25650024414062
y: 281.87445068359375
z: -0.35350069403648376
visibility: 0.9510405659675598
","x: 201.2274169921875
y: 309.3025817871094
z: -0.47276726365089417
visibility: 0.9732971787452698
","x: 231.15940856933594
y: 269.57916259765625
z: -0.4017854630947113
visibility: 0.9056650996208191
","x: 204.78482055664062
y: 301.2729797363281
z: -0.5207623243331909
visibility: 0.9427146315574646
","x: 226.83074951171875
y: 264.8059387207031
z: -0.3968273997306824
visibility: 0.903677225112915
","x: 204.86981201171875
y: 295.1623840332031
z: -0.5139631032943726
visibility: 0.9394364953041077
","x: 231.3190155029297
y: 268.20074462890625
z: -0.35775285959243774
visibility: 0.8747240900993347
","x: 204.44082641601562
y: 297.6778869628906
z: -0.4726388454437256
visibility: 0.9068198800086975
","x: 224.80960083007812
y: 370.1776428222656
z: 0.055228639394044876
visibility: 0.9996588826179504
","x: 200.69119262695312
y: 369.97625732421875
z: -0.05525650456547737
visibility: 0.9995316863059998
","x: 238.29373168945312
y: 451.1039733886719
z: 0.03333114832639694
visibility: 0.9802007079124451
","x: 199.67567443847656
y: 457.9317932128906
z: -0.15598121285438538
visibility: 0.9897617697715759
","x: 225.7469940185547
y: 515.37890625
z: 0.29641273617744446
visibility: 0.9752940535545349
","x: 194.2549591064453
y: 530.8533325195312
z: -0.026821319013834
visibility: 0.9710213541984558
","x: 220.44773864746094
y: 521.9166259765625
z: 0.3170446753501892
visibility: 0.8617041110992432
","x: 191.39683532714844
y: 544.1870727539062
z: -0.020428676158189774
visibility: 0.7771514654159546
","x: 234.11465454101562
y: 543.708984375
z: 0.22746619582176208
visibility: 0.9693103432655334
","x: 205.5963134765625
y: 556.9368286132812
z: -0.16588875651359558
visibility: 0.9650774002075195
",,,,,,,,,,,,,,,,,,,,,,,,,,,,,,,,,,,,,,,,,,
24,"x: 217.5780792236328
y: 213.79576110839844
z: -0.21991614997386932
visibility: 0.999947726726532
","x: 217.55992126464844
y: 205.89479064941406
z: -0.20259980857372284
visibility: 0.9998992681503296
","x: 218.85557556152344
y: 205.43113708496094
z: -0.20265641808509827
visibility: 0.9998860359191895
","x: 219.9334259033203
y: 204.8778533935547
z: -0.20266909897327423
visibility: 0.9998791217803955
","x: 212.77139282226562
y: 207.288818359375
z: -0.20655854046344757
visibility: 0.9998918175697327
","x: 210.81802368164062
y: 207.95626831054688
z: -0.2065734565258026
visibility: 0.9998859763145447
","x: 208.98825073242188
y: 209.0814208984375
z: -0.20658311247825623
visibility: 0.9998864531517029
","x: 220.37974548339844
y: 208.21591186523438
z: -0.08681584894657135
visibility: 0.9997551441192627
","x: 205.2227325439453
y: 216.406982421875
z: -0.10422344505786896
visibility: 0.9998457431793213
","x: 220.426025390625
y: 222.42166137695312
z: -0.17531315982341766
visibility: 0.999951958656311
","x: 214.8150177001953
y: 224.58090209960938
z: -0.1806260049343109
visibility: 0.9999651312828064
","x: 234.67308044433594
y: 253.83706665039062
z: 0.0006419853889383376
visibility: 0.9999029636383057
","x: 194.8331756591797
y: 261.7419738769531
z: -0.047483548521995544
visibility: 0.9998856782913208
","x: 243.86326599121094
y: 313.765380859375
z: -0.1141728013753891
visibility: 0.9681248068809509
","x: 185.30149841308594
y: 322.322021484375
z: -0.15122376382350922
visibility: 0.9879785776138306
","x: 237.1507568359375
y: 275.99713134765625
z: -0.37229984998703003
visibility: 0.955804169178009
","x: 192.70999145507812
y: 296.5067443847656
z: -0.38734883069992065
visibility: 0.9756054878234863
","x: 240.3004608154297
y: 262.80743408203125
z: -0.4227353632450104
visibility: 0.9147577881813049
","x: 192.30374145507812
y: 284.54998779296875
z: -0.42977842688560486
visibility: 0.9475696682929993
","x: 240.54876708984375
y: 257.2824401855469
z: -0.422339528799057
visibility: 0.9129595160484314
","x: 192.41375732421875
y: 277.24072265625
z: -0.4285237193107605
visibility: 0.944550096988678
","x: 239.76112365722656
y: 261.1623840332031
z: -0.37797942757606506
visibility: 0.8866114020347595
","x: 193.48373413085938
y: 280.2999572753906
z: -0.3880156874656677
visibility: 0.9145880937576294
","x: 229.1447296142578
y: 367.7394104003906
z: 0.033192940056324005
visibility: 0.9996746182441711
","x: 204.78634643554688
y: 369.1577453613281
z: -0.03331713750958443
visibility: 0.9995414018630981
","x: 239.43988037109375
y: 451.24761962890625
z: -0.01675987057387829
visibility: 0.9814118146896362
","x: 202.95016479492188
y: 456.91107177734375
z: -0.1365034431219101
visibility: 0.9901447892189026
","x: 240.55552673339844
y: 526.7734985351562
z: 0.13829095661640167
visibility: 0.9768789410591125
","x: 194.4838409423828
y: 531.2889404296875
z: 0.059687960892915726
visibility: 0.9728127717971802
","x: 236.77337646484375
y: 538.65283203125
z: 0.14659565687179565
visibility: 0.868070125579834
","x: 191.41952514648438
y: 544.6550903320312
z: 0.07002387940883636
visibility: 0.7835477590560913
","x: 250.36302185058594
y: 552.6407470703125
z: 0.023551249876618385
visibility: 0.9709305167198181
","x: 205.2993621826172
y: 556.845703125
z: -0.06131798028945923
visibility: 0.9666633605957031
","x: 241.7063751220703
y: 272.5675354003906
z: 0.0
","x: 239.35546875
y: 266.28533935546875
z: -0.0009515907731838524
","x: 238.29139709472656
y: 259.68255615234375
z: -0.002296633552759886
","x: 238.3839569091797
y: 255.5736541748047
z: -0.0043572369031608105
","x: 238.51983642578125
y: 253.30215454101562
z: -0.0064849574118852615
","x: 242.43634033203125
y: 251.998291015625
z: -0.0006874485989101231
","x: 244.12091064453125
y: 244.63829040527344
z: -0.003612961620092392
","x: 245.11273193359375
y: 241.06582641601562
z: -0.005521127488464117
","x: 245.9424285888672
y: 238.11257934570312
z: -0.006700335536152124
","x: 244.55697631835938
y: 253.3204803466797
z: -0.002866014838218689
","x: 246.16407775878906
y: 245.73013305664062
z: -0.00565382232889533
","x: 246.91549682617188
y: 241.52383422851562
z: -0.00721566891297698
","x: 247.45497131347656
y: 237.89634704589844
z: -0.008310804143548012
","x: 246.32846069335938
y: 255.8798065185547
z: -0.005513814277946949
","x: 248.2974853515625
y: 249.57337951660156
z: -0.008553462103009224
","x: 249.05381774902344
y: 245.86158752441406
z: -0.009777274914085865
","x: 249.51498413085938
y: 242.77662658691406
z: -0.010476996190845966
","x: 247.7149200439453
y: 259.65673828125
z: -0.00848772656172514
","x: 249.90211486816406
y: 255.85089111328125
z: -0.010886223055422306
","x: 250.88087463378906
y: 253.189208984375
z: -0.011641012504696846
","x: 251.47213745117188
y: 250.95962524414062
z: -0.012079169042408466
","x: 194.74560546875
y: 292.7890625
z: 0.0
","x: 197.12347412109375
y: 286.7402648925781
z: -0.0015088048530742526
","x: 197.6051025390625
y: 278.2236328125
z: -0.0017813717713579535
","x: 196.2237091064453
y: 272.7339782714844
z: -0.00246563833206892
","x: 194.19586181640625
y: 273.00164794921875
z: -0.002835427178069949
","x: 192.46119689941406
y: 272.49468994140625
z: 0.0026894870679825544
","x: 190.5298614501953
y: 266.2105712890625
z: 0.0014056714717298746
","x: 190.3445281982422
y: 263.5337219238281
z: 0.000378897791961208
","x: 190.42880249023438
y: 262.1151428222656
z: -8.229530794778839e-05
","x: 190.61021423339844
y: 273.97137451171875
z: 0.0018843915313482285
","x: 188.29501342773438
y: 267.6628723144531
z: 0.001279371092095971
","x: 188.17990112304688
y: 264.80218505859375
z: 0.0005439610104076564
","x: 188.6078338623047
y: 263.6275939941406
z: 0.00012325840361882
","x: 189.08636474609375
y: 276.36871337890625
z: 0.00030459140543825924
","x: 186.8133087158203
y: 270.83758544921875
z: -0.0007245275191962719
","x: 186.7566375732422
y: 268.0162658691406
z: -0.0012883213348686695
","x: 187.3319549560547
y: 266.8115539550781
z: -0.0014644420007243752
","x: 187.81130981445312
y: 279.7004089355469
z: -0.0017485275166109204
","x: 185.84805297851562
y: 275.433837890625
z: -0.0026399462949484587
","x: 185.60955810546875
y: 272.8486328125
z: -0.0029464405961334705
","x: 186.04623413085938
y: 271.2344970703125
z: -0.0029403106309473515
"
25,"x: 217.5780792236328
y: 213.79576110839844
z: -0.21991614997386932
visibility: 0.999947726726532
","x: 217.55992126464844
y: 205.89479064941406
z: -0.20259980857372284
visibility: 0.9998992681503296
","x: 218.85557556152344
y: 205.43113708496094
z: -0.20265641808509827
visibility: 0.9998860359191895
","x: 219.9334259033203
y: 204.8778533935547
z: -0.20266909897327423
visibility: 0.9998791217803955
","x: 212.77139282226562
y: 207.288818359375
z: -0.20655854046344757
visibility: 0.9998918175697327
","x: 210.81802368164062
y: 207.95626831054688
z: -0.2065734565258026
visibility: 0.9998859763145447
","x: 208.98825073242188
y: 209.0814208984375
z: -0.20658311247825623
visibility: 0.9998864531517029
","x: 220.37974548339844
y: 208.21591186523438
z: -0.08681584894657135
visibility: 0.9997551441192627
","x: 205.2227325439453
y: 216.406982421875
z: -0.10422344505786896
visibility: 0.9998457431793213
","x: 220.426025390625
y: 222.42166137695312
z: -0.17531315982341766
visibility: 0.999951958656311
","x: 214.8150177001953
y: 224.58090209960938
z: -0.1806260049343109
visibility: 0.9999651312828064
","x: 234.67308044433594
y: 253.83706665039062
z: 0.0006419853889383376
visibility: 0.9999029636383057
","x: 194.8331756591797
y: 261.7419738769531
z: -0.047483548521995544
visibility: 0.9998856782913208
","x: 243.86326599121094
y: 313.765380859375
z: -0.1141728013753891
visibility: 0.9681248068809509
","x: 185.30149841308594
y: 322.322021484375
z: -0.15122376382350922
visibility: 0.9879785776138306
","x: 237.1507568359375
y: 275.99713134765625
z: -0.37229984998703003
visibility: 0.955804169178009
","x: 192.70999145507812
y: 296.5067443847656
z: -0.38734883069992065
visibility: 0.9756054878234863
","x: 240.3004608154297
y: 262.80743408203125
z: -0.4227353632450104
visibility: 0.9147577881813049
","x: 192.30374145507812
y: 284.54998779296875
z: -0.42977842688560486
visibility: 0.9475696682929993
","x: 240.54876708984375
y: 257.2824401855469
z: -0.422339528799057
visibility: 0.9129595160484314
","x: 192.41375732421875
y: 277.24072265625
z: -0.4285237193107605
visibility: 0.944550096988678
","x: 239.76112365722656
y: 261.1623840332031
z: -0.37797942757606506
visibility: 0.8866114020347595
","x: 193.48373413085938
y: 280.2999572753906
z: -0.3880156874656677
visibility: 0.9145880937576294
","x: 229.1447296142578
y: 367.7394104003906
z: 0.033192940056324005
visibility: 0.9996746182441711
","x: 204.78634643554688
y: 369.1577453613281
z: -0.03331713750958443
visibility: 0.9995414018630981
","x: 239.43988037109375
y: 451.24761962890625
z: -0.01675987057387829
visibility: 0.9814118146896362
","x: 202.95016479492188
y: 456.91107177734375
z: -0.1365034431219101
visibility: 0.9901447892189026
","x: 240.55552673339844
y: 526.7734985351562
z: 0.13829095661640167
visibility: 0.9768789410591125
","x: 194.4838409423828
y: 531.2889404296875
z: 0.059687960892915726
visibility: 0.9728127717971802
","x: 236.77337646484375
y: 538.65283203125
z: 0.14659565687179565
visibility: 0.868070125579834
","x: 191.41952514648438
y: 544.6550903320312
z: 0.07002387940883636
visibility: 0.7835477590560913
","x: 250.36302185058594
y: 552.6407470703125
z: 0.023551249876618385
visibility: 0.9709305167198181
","x: 205.2993621826172
y: 556.845703125
z: -0.06131798028945923
visibility: 0.9666633605957031
","x: 241.7063751220703
y: 272.5675354003906
z: 0.0
","x: 239.35546875
y: 266.28533935546875
z: -0.0009515907731838524
","x: 238.29139709472656
y: 259.68255615234375
z: -0.002296633552759886
","x: 238.3839569091797
y: 255.5736541748047
z: -0.0043572369031608105
","x: 238.51983642578125
y: 253.30215454101562
z: -0.0064849574118852615
","x: 242.43634033203125
y: 251.998291015625
z: -0.0006874485989101231
","x: 244.12091064453125
y: 244.63829040527344
z: -0.003612961620092392
","x: 245.11273193359375
y: 241.06582641601562
z: -0.005521127488464117
","x: 245.9424285888672
y: 238.11257934570312
z: -0.006700335536152124
","x: 244.55697631835938
y: 253.3204803466797
z: -0.002866014838218689
","x: 246.16407775878906
y: 245.73013305664062
z: -0.00565382232889533
","x: 246.91549682617188
y: 241.52383422851562
z: -0.00721566891297698
","x: 247.45497131347656
y: 237.89634704589844
z: -0.008310804143548012
","x: 246.32846069335938
y: 255.8798065185547
z: -0.005513814277946949
","x: 248.2974853515625
y: 249.57337951660156
z: -0.008553462103009224
","x: 249.05381774902344
y: 245.86158752441406
z: -0.009777274914085865
","x: 249.51498413085938
y: 242.77662658691406
z: -0.010476996190845966
","x: 247.7149200439453
y: 259.65673828125
z: -0.00848772656172514
","x: 249.90211486816406
y: 255.85089111328125
z: -0.010886223055422306
","x: 250.88087463378906
y: 253.189208984375
z: -0.011641012504696846
","x: 251.47213745117188
y: 250.95962524414062
z: -0.012079169042408466
","x: 194.74560546875
y: 292.7890625
z: 0.0
","x: 197.12347412109375
y: 286.7402648925781
z: -0.0015088048530742526
","x: 197.6051025390625
y: 278.2236328125
z: -0.0017813717713579535
","x: 196.2237091064453
y: 272.7339782714844
z: -0.00246563833206892
","x: 194.19586181640625
y: 273.00164794921875
z: -0.002835427178069949
","x: 192.46119689941406
y: 272.49468994140625
z: 0.0026894870679825544
","x: 190.5298614501953
y: 266.2105712890625
z: 0.0014056714717298746
","x: 190.3445281982422
y: 263.5337219238281
z: 0.000378897791961208
","x: 190.42880249023438
y: 262.1151428222656
z: -8.229530794778839e-05
","x: 190.61021423339844
y: 273.97137451171875
z: 0.0018843915313482285
","x: 188.29501342773438
y: 267.6628723144531
z: 0.001279371092095971
","x: 188.17990112304688
y: 264.80218505859375
z: 0.0005439610104076564
","x: 188.6078338623047
y: 263.6275939941406
z: 0.00012325840361882
","x: 189.08636474609375
y: 276.36871337890625
z: 0.00030459140543825924
","x: 186.8133087158203
y: 270.83758544921875
z: -0.0007245275191962719
","x: 186.7566375732422
y: 268.0162658691406
z: -0.0012883213348686695
","x: 187.3319549560547
y: 266.8115539550781
z: -0.0014644420007243752
","x: 187.81130981445312
y: 279.7004089355469
z: -0.0017485275166109204
","x: 185.84805297851562
y: 275.433837890625
z: -0.0026399462949484587
","x: 185.60955810546875
y: 272.8486328125
z: -0.0029464405961334705
","x: 186.04623413085938
y: 271.2344970703125
z: -0.0029403106309473515
"
26,"x: 217.5780792236328
y: 213.79576110839844
z: -0.21991614997386932
visibility: 0.999947726726532
","x: 217.55992126464844
y: 205.89479064941406
z: -0.20259980857372284
visibility: 0.9998992681503296
","x: 218.85557556152344
y: 205.43113708496094
z: -0.20265641808509827
visibility: 0.9998860359191895
","x: 219.9334259033203
y: 204.8778533935547
z: -0.20266909897327423
visibility: 0.9998791217803955
","x: 212.77139282226562
y: 207.288818359375
z: -0.20655854046344757
visibility: 0.9998918175697327
","x: 210.81802368164062
y: 207.95626831054688
z: -0.2065734565258026
visibility: 0.9998859763145447
","x: 208.98825073242188
y: 209.0814208984375
z: -0.20658311247825623
visibility: 0.9998864531517029
