uscmakers/ReverseChoreography/data/8_good_4_u_olivia_rodrigo.csv
,NOSE,LEFT_EYE_INNER,LEFT_EYE,LEFT_EYE_OUTER,RIGHT_EYE_INNER,RIGHT_EYE,RIGHT_EYE_OUTER,LEFT_EAR,RIGHT_EAR,MOUTH_LEFT,MOUTH_RIGHT,LEFT_SHOULDER,RIGHT_SHOULDER,LEFT_ELBOW,RIGHT_ELBOW,LEFT_WRIST,RIGHT_WRIST,LEFT_PINKY,RIGHT_PINKY,LEFT_INDEX,RIGHT_INDEX,LEFT_THUMB,RIGHT_THUMB,LEFT_HIP,RIGHT_HIP,LEFT_KNEE,RIGHT_KNEE,LEFT_ANKLE,RIGHT_ANKLE,LEFT_HEEL,RIGHT_HEEL,LEFT_FOOT_INDEX,RIGHT_FOOT_INDEX,WRIST2,THUMB_CPC2,THUMB_MCP2,THUMB_IP2,THUMB_TIP2,INDEX_FINGER_MCP2,INDEX_FINGER_PIP2,INDEX_FINGER_DIP2,INDEX_FINGER_TIP2,MIDDLE_FINGER_MCP2,MIDDLE_FINGER_PIP2,MIDDLE_FINGER_DIP2,MIDDLE_FINGER_TIP2,RING_FINGER_PIP2,RING_FINGER_DIP2,RING_FINGER_TIP2,RING_FINGER_MCP2,PINKY_MCP2,PINKY_PIP2,PINKY_DIP2,PINKY_TIP2,WRIST,THUMB_CPC,THUMB_MCP,THUMB_IP,THUMB_TIP,INDEX_FINGER_MCP,INDEX_FINGER_PIP,INDEX_FINGER_DIP,INDEX_FINGER_TIP,MIDDLE_FINGER_MCP,MIDDLE_FINGER_PIP,MIDDLE_FINGER_DIP,MIDDLE_FINGER_TIP,RING_FINGER_PIP,RING_FINGER_DIP,RING_FINGER_TIP,RING_FINGER_MCP,PINKY_MCP,PINKY_PIP,PINKY_DIP,PINKY_TIP
0,"x: 257.9778137207031
y: 202.06448364257812
z: -0.29779744148254395
visibility: 0.9999923706054688
","x: 260.5147705078125
y: 196.45437622070312
z: -0.27577322721481323
visibility: 0.9999864101409912
","x: 262.1335144042969
y: 196.85369873046875
z: -0.2757711410522461
visibility: 0.9999829530715942
","x: 263.9165954589844
y: 197.34609985351562
z: -0.27575257420539856
visibility: 0.9999828338623047
","x: 255.7643280029297
y: 195.56887817382812
z: -0.2779482901096344
visibility: 0.9999868869781494
","x: 253.93563842773438
y: 195.53369140625
z: -0.2779780626296997
visibility: 0.9999853372573853
","x: 251.8562469482422
y: 195.5349578857422
z: -0.27794262766838074
visibility: 0.9999865293502808
","x: 266.6698303222656
y: 203.5594482421875
z: -0.1447918564081192
visibility: 0.9999551773071289
","x: 249.8445281982422
y: 201.98587036132812
z: -0.15701259672641754
visibility: 0.9999721050262451
","x: 260.4409484863281
y: 212.48605346679688
z: -0.2496226578950882
visibility: 0.9999899864196777
","x: 254.82398986816406
y: 212.43283081054688
z: -0.2531912922859192
visibility: 0.9999912977218628
","x: 277.5032043457031
y: 254.26185607910156
z: -0.062107913196086884
visibility: 0.9999549388885498
","x: 235.9017791748047
y: 255.59490966796875
z: -0.0775933563709259
visibility: 0.9999102354049683
","x: 287.4217834472656
y: 311.9784240722656
z: -0.11564330756664276
visibility: 0.9933987855911255
","x: 222.3738555908203
y: 309.85174560546875
z: -0.1332262009382248
visibility: 0.9822235107421875
","x: 268.62689208984375
y: 328.04449462890625
z: -0.31869643926620483
visibility: 0.9874715209007263
","x: 236.606689453125
y: 317.11468505859375
z: -0.32587140798568726
visibility: 0.9606010317802429
","x: 262.9885559082031
y: 336.7461853027344
z: -0.36676737666130066
visibility: 0.9636973738670349
","x: 242.01922607421875
y: 326.5030517578125
z: -0.37401264905929565
visibility: 0.9161557555198669
","x: 260.92083740234375
y: 331.7017822265625
z: -0.3765692114830017
visibility: 0.9640913605690002
","x: 245.9422607421875
y: 323.56732177734375
z: -0.37840187549591064
visibility: 0.9120337963104248
","x: 261.8966064453125
y: 328.7774658203125
z: -0.3255690932273865
visibility: 0.9440771341323853
","x: 244.27943420410156
y: 319.56561279296875
z: -0.3302481770515442
visibility: 0.8725484013557434
","x: 262.50054931640625
y: 374.477294921875
z: 0.016039453446865082
visibility: 0.9997885823249817
","x: 237.49159240722656
y: 367.5582275390625
z: -0.016210315749049187
visibility: 0.9997773766517639
","x: 259.4195556640625
y: 462.38177490234375
z: 0.039201799780130386
visibility: 0.9912447333335876
","x: 226.99191284179688
y: 456.6695556640625
z: -0.0004640744882635772
visibility: 0.9959717392921448
","x: 258.9558410644531
y: 540.9105834960938
z: 0.2225140780210495
visibility: 0.9931643605232239
","x: 217.74853515625
y: 533.40380859375
z: 0.1852877140045166
visibility: 0.9954061508178711
","x: 255.06797790527344
y: 550.001708984375
z: 0.23266343772411346
visibility: 0.9359956979751587
","x: 217.73712158203125
y: 542.97119140625
z: 0.19602876901626587
visibility: 0.8855667114257812
","x: 265.8213806152344
y: 563.3028564453125
z: 0.09516114741563797
visibility: 0.988690197467804
","x: 213.69204711914062
y: 561.4762573242188
z: 0.056079648435115814
visibility: 0.9909137487411499
",,,,,,,,,,,,,,,,,,,,,,,,,,,,,,,,,,,,,,,,,,
1,"x: 217.0656280517578
y: 201.6070556640625
z: -0.3406035006046295
visibility: 0.9999924302101135
","x: 219.37965393066406
y: 195.5625762939453
z: -0.32424888014793396
visibility: 0.9999858140945435
","x: 221.10606384277344
y: 195.82749938964844
z: -0.32429641485214233
visibility: 0.9999829530715942
","x: 222.8045196533203
y: 196.17364501953125
z: -0.32433539628982544
visibility: 0.999983012676239
","x: 214.98614501953125
y: 195.0160369873047
z: -0.3190935254096985
visibility: 0.9999851584434509
","x: 213.3472900390625
y: 195.06475830078125
z: -0.3190751373767853
visibility: 0.9999831318855286
","x: 211.54403686523438
y: 195.09283447265625
z: -0.31905508041381836
visibility: 0.999983549118042
","x: 225.87681579589844
y: 201.76913452148438
z: -0.2142615020275116
visibility: 0.9999580383300781
","x: 209.19735717773438
y: 201.27349853515625
z: -0.1895451843738556
visibility: 0.9999631643295288
","x: 219.6425323486328
y: 211.66395568847656
z: -0.29865601658821106
visibility: 0.9999906420707703
","x: 214.1458740234375
y: 210.92019653320312
z: -0.2918616235256195
visibility: 0.999991238117218
","x: 237.4262237548828
y: 249.90074157714844
z: -0.16744261980056763
visibility: 0.9999591708183289
","x: 197.72274780273438
y: 254.73208618164062
z: -0.06614513695240021
visibility: 0.9999098181724548
","x: 244.74729919433594
y: 311.23321533203125
z: -0.19722625613212585
visibility: 0.9939361214637756
","x: 190.2057647705078
y: 310.9460144042969
z: 0.008697176352143288
visibility: 0.9719542264938354
","x: 219.98574829101562
y: 328.2180480957031
z: -0.34663549065589905
visibility: 0.9883760809898376
","x: 178.5553436279297
y: 358.2554626464844
z: -0.101432666182518
visibility: 0.9555920362472534
","x: 214.93923950195312
y: 337.4739074707031
z: -0.3902846574783325
visibility: 0.9661803841590881
","x: 174.9278564453125
y: 374.3490905761719
z: -0.1278497278690338
visibility: 0.9112145900726318
","x: 211.31735229492188
y: 332.386474609375
z: -0.39872097969055176
visibility: 0.9665254354476929
","x: 175.70620727539062
y: 375.8136291503906
z: -0.16559892892837524
visibility: 0.9083324670791626
","x: 212.12481689453125
y: 329.20916748046875
z: -0.3507237732410431
visibility: 0.9476577639579773
","x: 177.54013061523438
y: 371.0169677734375
z: -0.11912752687931061
visibility: 0.8709895014762878
","x: 230.65740966796875
y: 365.67608642578125
z: -0.025590861216187477
visibility: 0.9997764825820923
","x: 206.04519653320312
y: 365.5958557128906
z: 0.025482546538114548
visibility: 0.9997418522834778
","x: 224.34573364257812
y: 456.24981689453125
z: -0.03697674721479416
visibility: 0.9916521310806274
","x: 208.9570770263672
y: 456.8446350097656
z: 0.019790854305028915
visibility: 0.9938541650772095
","x: 232.8321533203125
y: 526.7828979492188
z: 0.17877539992332458
visibility: 0.9931619763374329
","x: 212.8201446533203
y: 533.7694091796875
z: 0.21272198855876923
visibility: 0.9941327571868896
","x: 233.90513610839844
y: 532.4436645507812
z: 0.19292105734348297
visibility: 0.9266843199729919
","x: 213.9495086669922
y: 543.4204711914062
z: 0.2240905463695526
visibility: 0.881263017654419
","x: 229.28115844726562
y: 558.1954345703125
z: 0.05919589474797249
visibility: 0.9887585639953613
","x: 212.05967712402344
y: 562.6934204101562
z: 0.09340667724609375
visibility: 0.9898221492767334
",,,,,,,,,,,,,,,,,,,,,,,,,,,,,,,,,,,,,,,,,,
2,"x: 214.06918334960938
y: 201.7252960205078
z: -0.35359805822372437
visibility: 0.9999929070472717
","x: 217.0221710205078
y: 195.58908081054688
z: -0.3346543610095978
visibility: 0.9999863505363464
","x: 218.697509765625
y: 195.88182067871094
z: -0.3346908688545227
visibility: 0.9999838471412659
","x: 220.4491729736328
y: 196.23526000976562
z: -0.3347092866897583
visibility: 0.9999838471412659
","x: 211.96670532226562
y: 195.02789306640625
z: -0.3326721489429474
visibility: 0.9999855756759644
","x: 210.159423828125
y: 195.0749969482422
z: -0.3326708972454071
visibility: 0.9999836683273315
","x: 208.00927734375
y: 195.11456298828125
z: -0.33265405893325806
visibility: 0.9999839067459106
","x: 223.8575439453125
y: 202.1060791015625
z: -0.21534514427185059
visibility: 0.9999608993530273
","x: 206.5889434814453
y: 201.2667999267578
z: -0.2065025269985199
visibility: 0.9999639987945557
","x: 216.65087890625
y: 211.90025329589844
z: -0.3085213601589203
visibility: 0.9999912977218628
","x: 210.58834838867188
y: 211.0699462890625
z: -0.3060937523841858
visibility: 0.9999915957450867
","x: 234.68521118164062
y: 249.29541015625
z: -0.15208585560321808
visibility: 0.9999625086784363
","x: 194.45660400390625
y: 255.33042907714844
z: -0.08066177368164062
visibility: 0.9999123215675354
","x: 242.1273956298828
y: 310.53369140625
z: -0.17360812425613403
visibility: 0.994271993637085
","x: 187.29356384277344
y: 317.53643798828125
z: -0.011307320557534695
visibility: 0.970345139503479
","x: 218.38755798339844
y: 330.239990234375
z: -0.3391035795211792
visibility: 0.9889607429504395
","x: 181.6129913330078
y: 370.5334777832031
z: -0.11911375820636749
visibility: 0.9542932510375977
","x: 212.78689575195312
y: 338.8946228027344
z: -0.38389351963996887
visibility: 0.9677939414978027
","x: 179.53602600097656
y: 386.91302490234375
z: -0.14912019670009613
visibility: 0.910163164138794
","x: 209.83946228027344
y: 333.257568359375
z: -0.3944167494773865
visibility: 0.9681418538093567
","x: 180.96121215820312
y: 388.2861328125
z: -0.1818860024213791
visibility: 0.9081357717514038
","x: 211.20840454101562
y: 330.3883361816406
z: -0.34482306241989136
visibility: 0.9500117301940918
","x: 182.09225463867188
y: 383.8666076660156
z: -0.13406017422676086
visibility: 0.8724796772003174
","x: 227.66317749023438
y: 365.5024719238281
z: -0.015432722866535187
visibility: 0.99976646900177
","x: 204.18978881835938
y: 365.66455078125
z: 0.015270089730620384
visibility: 0.9997189044952393
","x: 220.98194885253906
y: 456.57330322265625
z: -0.005520282778888941
visibility: 0.9918424487113953
","x: 208.18283081054688
y: 457.0065612792969
z: 0.02462662011384964
visibility: 0.993184506893158
","x: 223.57440185546875
y: 529.6915283203125
z: 0.19298933446407318
visibility: 0.9931573867797852
","x: 210.978271484375
y: 534.1962280273438
z: 0.21228532493114471
visibility: 0.993328332901001
","x: 223.2898712158203
y: 536.8644409179688
z: 0.20518624782562256
visibility: 0.9194499850273132
","x: 212.56744384765625
y: 543.5089111328125
z: 0.22300155460834503
visibility: 0.8720405101776123
","x: 224.5117645263672
y: 559.5624389648438
z: 0.06807073205709457
visibility: 0.9888104200363159
","x: 210.67416381835938
y: 563.593994140625
z: 0.08873895555734634
visibility: 0.9890921115875244
","x: 215.4169158935547
y: 334.3992919921875
z: 0.0
","x: 212.87261962890625
y: 340.8953552246094
z: -0.00018222862854599953
","x: 209.71401977539062
y: 345.0661926269531
z: -0.0008437632932327688
","x: 207.083984375
y: 346.0079650878906
z: -0.002012825571000576
","x: 205.19735717773438
y: 345.4083557128906
z: -0.0030547112692147493
","x: 205.07357788085938
y: 340.8144836425781
z: 0.0002590852964203805
","x: 200.74305725097656
y: 342.45758056640625
z: -0.001710693584755063
","x: 197.8943328857422
y: 343.68292236328125
z: -0.0028609666042029858
","x: 195.7528533935547
y: 344.35406494140625
z: -0.0034011860843747854
","x: 204.862548828125
y: 336.9810791015625
z: -0.0013801736058667302
","x: 200.4042205810547
y: 338.7491455078125
z: -0.003219367004930973
","x: 197.31703186035156
y: 340.0596923828125
z: -0.0037838888820260763
","x: 194.9072265625
y: 340.8426208496094
z: -0.0041050068102777
","x: 205.1294708251953
y: 333.2039794921875
z: -0.0033597054425626993
","x: 200.98133850097656
y: 334.1656799316406
z: -0.005132011603564024
","x: 198.16766357421875
y: 335.10516357421875
z: -0.00527395261451602
","x: 196.18182373046875
y: 335.6363525390625
z: -0.005246829241514206
","x: 205.9724578857422
y: 329.43731689453125
z: -0.005615476053208113
","x: 202.4386444091797
y: 329.32769775390625
z: -0.0067376187071204185
","x: 200.36343383789062
y: 330.08050537109375
z: -0.006720146629959345
","x: 199.02841186523438
y: 330.43841552734375
z: -0.006623556837439537
",,,,,,,,,,,,,,,,,,,,,
3,"x: 214.06918334960938
y: 201.7252960205078
z: -0.35359805822372437
visibility: 0.9999929070472717
","x: 217.0221710205078
y: 195.58908081054688
z: -0.3346543610095978
visibility: 0.9999863505363464
","x: 218.697509765625
y: 195.88182067871094
z: -0.3346908688545227
visibility: 0.9999838471412659
","x: 220.4491729736328
y: 196.23526000976562
z: -0.3347092866897583
visibility: 0.9999838471412659
","x: 211.96670532226562
y: 195.02789306640625
z: -0.3326721489429474
visibility: 0.9999855756759644
","x: 210.159423828125
y: 195.0749969482422
z: -0.3326708972454071
visibility: 0.9999836683273315
","x: 208.00927734375
y: 195.11456298828125
z: -0.33265405893325806
visibility: 0.9999839067459106
","x: 223.8575439453125
y: 202.1060791015625
z: -0.21534514427185059
visibility: 0.9999608993530273
","x: 206.5889434814453
y: 201.2667999267578
z: -0.2065025269985199
visibility: 0.9999639987945557
","x: 216.65087890625
y: 211.90025329589844
z: -0.3085213601589203
visibility: 0.9999912977218628
","x: 210.58834838867188
y: 211.0699462890625
z: -0.3060937523841858
visibility: 0.9999915957450867
","x: 234.68521118164062
y: 249.29541015625
z: -0.15208585560321808
visibility: 0.9999625086784363
","x: 194.45660400390625
y: 255.33042907714844
z: -0.08066177368164062
visibility: 0.9999123215675354
","x: 242.1273956298828
y: 310.53369140625
z: -0.17360812425613403
visibility: 0.994271993637085
","x: 187.29356384277344
y: 317.53643798828125
z: -0.011307320557534695
visibility: 0.970345139503479
","x: 218.38755798339844
y: 330.239990234375
z: -0.3391035795211792
visibility: 0.9889607429504395
","x: 181.6129913330078
y: 370.5334777832031
z: -0.11911375820636749
visibility: 0.9542932510375977
","x: 212.78689575195312
y: 338.8946228027344
z: -0.38389351963996887
visibility: 0.9677939414978027
","x: 179.53602600097656
y: 386.91302490234375
z: -0.14912019670009613
visibility: 0.910163164138794
","x: 209.83946228027344
y: 333.257568359375
z: -0.3944167494773865
visibility: 0.9681418538093567
","x: 180.96121215820312
y: 388.2861328125
z: -0.1818860024213791
visibility: 0.9081357717514038
","x: 211.20840454101562
y: 330.3883361816406
z: -0.34482306241989136
visibility: 0.9500117301940918
","x: 182.09225463867188
y: 383.8666076660156
z: -0.13406017422676086
visibility: 0.8724796772003174
","x: 227.66317749023438
y: 365.5024719238281
z: -0.015432722866535187
visibility: 0.99976646900177
","x: 204.18978881835938
y: 365.66455078125
z: 0.015270089730620384
visibility: 0.9997189044952393
","x: 220.98194885253906
y: 456.57330322265625
z: -0.005520282778888941
visibility: 0.9918424487113953
","x: 208.18283081054688
y: 457.0065612792969
z: 0.02462662011384964
visibility: 0.993184506893158
","x: 223.57440185546875
y: 529.6915283203125
z: 0.19298933446407318
visibility: 0.9931573867797852
","x: 210.978271484375
y: 534.1962280273438
z: 0.21228532493114471
visibility: 0.993328332901001
","x: 223.2898712158203
y: 536.8644409179688
z: 0.20518624782562256
visibility: 0.9194499850273132
","x: 212.56744384765625
y: 543.5089111328125
z: 0.22300155460834503
visibility: 0.8720405101776123
","x: 224.5117645263672
y: 559.5624389648438
z: 0.06807073205709457
visibility: 0.9888104200363159
","x: 210.67416381835938
y: 563.593994140625
z: 0.08873895555734634
visibility: 0.9890921115875244
","x: 215.4169158935547
y: 334.3992919921875
z: 0.0
","x: 212.87261962890625
y: 340.8953552246094
z: -0.00018222862854599953
","x: 209.71401977539062
y: 345.0661926269531
z: -0.0008437632932327688
","x: 207.083984375
y: 346.0079650878906
z: -0.002012825571000576
","x: 205.19735717773438
y: 345.4083557128906
z: -0.0030547112692147493
","x: 205.07357788085938
y: 340.8144836425781
z: 0.0002590852964203805
","x: 200.74305725097656
y: 342.45758056640625
z: -0.001710693584755063
","x: 197.8943328857422
y: 343.68292236328125
z: -0.0028609666042029858
","x: 195.7528533935547
y: 344.35406494140625
z: -0.0034011860843747854
","x: 204.862548828125
y: 336.9810791015625
z: -0.0013801736058667302
","x: 200.4042205810547
y: 338.7491455078125
z: -0.003219367004930973
","x: 197.31703186035156
y: 340.0596923828125
z: -0.0037838888820260763
","x: 194.9072265625
y: 340.8426208496094
z: -0.0041050068102777
","x: 205.1294708251953
y: 333.2039794921875
z: -0.0033597054425626993
","x: 200.98133850097656
y: 334.1656799316406
z: -0.005132011603564024
","x: 198.16766357421875
y: 335.10516357421875
z: -0.00527395261451602
","x: 196.18182373046875
y: 335.6363525390625
z: -0.005246829241514206
","x: 205.9724578857422
y: 329.43731689453125
z: -0.005615476053208113
","x: 202.4386444091797
y: 329.32769775390625
z: -0.0067376187071204185
","x: 200.36343383789062
y: 330.08050537109375
z: -0.006720146629959345
","x: 199.02841186523438
y: 330.43841552734375
z: -0.006623556837439537
",,,,,,,,,,,,,,,,,,,,,
4,"x: 214.16331481933594
y: 202.40325927734375
z: -0.35522159934043884
visibility: 0.9999932050704956
","x: 217.3436737060547
y: 196.0677490234375
z: -0.33596163988113403
visibility: 0.999986469745636
","x: 219.10667419433594
y: 196.35031127929688
z: -0.3359934091567993
visibility: 0.9999842643737793
","x: 220.86190795898438
y: 196.70758056640625
z: -0.3360118567943573
visibility: 0.9999842643737793
","x: 211.96536254882812
y: 195.6532440185547
z: -0.3356668949127197
visibility: 0.99998539686203
","x: 210.17520141601562
y: 195.64532470703125
z: -0.3356764316558838
visibility: 0.999983549118042
","x: 208.84182739257812
y: 195.57325744628906
z: -0.3356792628765106
visibility: 0.9999836683273315
","x: 223.00648498535156
y: 202.45327758789062
z: -0.2134239226579666
visibility: 0.9999627470970154
","x: 206.5121612548828
y: 201.33985900878906
z: -0.21229490637779236
visibility: 0.9999634623527527
","x: 217.16770935058594
y: 212.5938262939453
z: -0.30874040722846985
visibility: 0.999991774559021
","x: 210.5597686767578
y: 211.77459716796875
z: -0.30853456258773804
visibility: 0.999991774559021
","x: 233.97418212890625
y: 248.10711669921875
z: -0.14074069261550903
visibility: 0.9999653697013855
","x: 194.47784423828125
y: 255.1917266845703
z: -0.09200071543455124
visibility: 0.9999107718467712
","x: 241.60743713378906
y: 309.9183044433594
z: -0.15760920941829681
visibility: 0.994437575340271
","x: 189.17034912109375
y: 318.69964599609375
z: -0.02907898649573326
visibility: 0.9683097004890442
","x: 222.94003295898438
y: 340.3369445800781
z: -0.31177619099617004
visibility: 0.9892048239707947
","x: 187.43450927734375
y: 371.66033935546875
z: -0.13594362139701843
visibility: 0.950914740562439
","x: 219.1640625
y: 350.5732421875
z: -0.3546471893787384
visibility: 0.9685512781143188
","x: 185.21990966796875
y: 388.8606262207031
z: -0.1668628454208374
visibility: 0.9058119654655457
","x: 215.69366455078125
y: 346.16339111328125
z: -0.3722594082355499
visibility: 0.9689251184463501
","x: 187.230224609375
y: 390.1053161621094
z: -0.1993035227060318
visibility: 0.9046237468719482
","x: 216.2842254638672
y: 343.12481689453125
z: -0.32029128074645996
visibility: 0.9512755274772644
","x: 188.54196166992188
y: 385.3714294433594
z: -0.1503797471523285
visibility: 0.8698986172676086
","x: 227.74505615234375
y: 364.4486083984375
z: -0.010529634542763233
visibility: 0.9997583031654358
","x: 203.97975158691406
y: 365.166015625
z: 0.010378456674516201
visibility: 0.9996975064277649
","x: 225.19351196289062
y: 457.0732421875
z: -0.012075389735400677
visibility: 0.9921069741249084
","x: 207.63372802734375
y: 457.00311279296875
z: 0.021270859986543655
visibility: 0.9926688075065613
","x: 225.0819854736328
y: 531.2987060546875
z: 0.185390442609787
visibility: 0.9932249784469604
","x: 210.16360473632812
y: 535.0889282226562
z: 0.2062820941209793
visibility: 0.9926363229751587
","x: 223.44676208496094
y: 538.9701538085938
z: 0.19705712795257568
visibility: 0.9153603911399841
","x: 211.9311065673828
y: 543.8147583007812
z: 0.21704161167144775
visibility: 0.8652724027633667
","x: 225.66970825195312
y: 559.8372192382812
z: 0.05697266012430191
visibility: 0.9888930320739746
","x: 210.90847778320312
y: 564.280517578125
z: 0.08100969344377518
visibility: 0.9884431958198547
",,,,,,,,,,,,,,,,,,,,,,,,,,,,,,,,,,,,,,,,,,
5,"x: 215.37657165527344
y: 201.81260681152344
z: -0.34259912371635437
visibility: 0.9999927282333374
","x: 218.38128662109375
y: 195.0081787109375
z: -0.3224288523197174
visibility: 0.9999844431877136
","x: 219.85226440429688
y: 195.23841857910156
z: -0.32245853543281555
visibility: 0.9999825358390808
","x: 221.45199584960938
y: 195.5583038330078
z: -0.32246142625808716
visibility: 0.9999826550483704
","x: 213.08644104003906
y: 194.90008544921875
z: -0.3229067623615265
visibility: 0.9999825358390808
","x: 210.98114013671875
y: 195.08058166503906
z: -0.32292336225509644
visibility: 0.9999803900718689
","x: 209.30142211914062
y: 195.1734161376953
z: -0.32293349504470825
visibility: 0.9999801516532898
","x: 224.32052612304688
y: 201.46116638183594
z: -0.2000121772289276
visibility: 0.9999596476554871
","x: 207.1992645263672
y: 201.12062072753906
z: -0.20346686244010925
visibility: 0.9999549984931946
","x: 218.564453125
y: 212.20303344726562
z: -0.29700666666030884
visibility: 0.9999914765357971
","x: 211.7952117919922
y: 211.7284393310547
z: -0.2980138659477234
visibility: 0.9999910593032837
","x: 235.5634307861328
y: 248.16983032226562
z: -0.12954752147197723
visibility: 0.9999672770500183
","x: 194.6294403076172
y: 255.18902587890625
z: -0.098310187458992
visibility: 0.9999066591262817
","x: 242.4789276123047
y: 309.44775390625
z: -0.11392233520746231
visibility: 0.9944011569023132
","x: 189.3483123779297
y: 318.8811340332031
z: -0.0384923554956913
visibility: 0.9678751826286316
","x: 228.78207397460938
y: 354.3623352050781
z: -0.25000253319740295
visibility: 0.989275336265564
","x: 188.5035858154297
y: 370.9192199707031
z: -0.14183957874774933
visibility: 0.948543906211853
","x: 227.01388549804688
y: 368.9791564941406
z: -0.2922917306423187
visibility: 0.9691253900527954
","x: 186.6561279296875
y: 387.75286865234375
z: -0.1748368889093399
visibility: 0.90305095911026
","x: 223.24246215820312
y: 366.1224060058594
z: -0.32013267278671265
visibility: 0.9695927500724792
","x: 189.32537841796875
y: 388.22381591796875
z: -0.2087109535932541
visibility: 0.9026638269424438
","x: 223.07936096191406
y: 362.017822265625
z: -0.2626391649246216
visibility: 0.9525213241577148
","x: 190.71636962890625
y: 383.6811828613281
z: -0.15708014369010925
visibility: 0.8693016767501831
","x: 229.9185791015625
y: 364.76629638671875
z: -0.00836703460663557
visibility: 0.999748170375824
","x: 204.8072509765625
y: 365.24127197265625
z: 0.008374088443815708
visibility: 0.99968421459198
","x: 229.29168701171875
y: 457.08355712890625
z: -0.0007030065753497183
visibility: 0.9920228719711304
","x: 208.7465057373047
y: 457.1125793457031
z: 0.009096000343561172
visibility: 0.9921790361404419
","x: 230.41038513183594
y: 531.7381591796875
z: 0.19175365567207336
visibility: 0.9929823279380798
","x: 210.3779296875
y: 535.248046875
z: 0.19191782176494598
visibility: 0.9917864799499512
","x: 227.63160705566406
y: 540.08447265625
z: 0.20252780616283417
visibility: 0.9108797311782837
","x: 212.00848388671875
y: 544.2962036132812
z: 0.20145602524280548
visibility: 0.8538639545440674
","x: 232.9991912841797
y: 560.0062255859375
z: 0.05938505008816719
visibility: 0.9885480403900146
","x: 211.19577026367188
y: 564.204833984375
z: 0.057047050446271896
visibility: 0.9873514771461487
",,,,,,,,,,,,,,,,,,,,,,,,,,,,,,,,,,,,,,,,,,
6,"x: 224.7546844482422
y: 207.2687530517578
z: -0.2876857817173004
visibility: 0.9999836683273315
","x: 226.61663818359375
y: 200.7244110107422
z: -0.26795053482055664
visibility: 0.9999584555625916
","x: 227.61715698242188
y: 201.1477508544922
z: -0.26801598072052
visibility: 0.9999551177024841
","x: 228.58209228515625
y: 201.57167053222656
z: -0.2680366039276123
visibility: 0.9999552965164185
","x: 222.35809326171875
y: 199.93328857421875
z: -0.2766447365283966
visibility: 0.999958336353302
","x: 220.50502014160156
y: 199.70501708984375
z: -0.27664321660995483
visibility: 0.9999563694000244
","x: 218.7275848388672
y: 199.41061401367188
z: -0.2766801416873932
visibility: 0.999958336353302
","x: 227.23306274414062
y: 205.537841796875
z: -0.1465507447719574
visibility: 0.9999104142189026
","x: 215.03219604492188
y: 203.0846405029297
z: -0.19003665447235107
visibility: 0.9999223947525024
","x: 226.62335205078125
y: 216.1470184326172
z: -0.24159927666187286
visibility: 0.9999846816062927
","x: 221.2786102294922
y: 215.263427734375
z: -0.25287172198295593
visibility: 0.9999847412109375
","x: 238.83627319335938
y: 250.30357360839844
z: -0.07695330679416656
visibility: 0.9999669790267944
","x: 197.15390014648438
y: 257.71759033203125
z: -0.08663005381822586
visibility: 0.9999041557312012
","x: 252.20211791992188
y: 297.58416748046875
z: -0.07137180119752884
visibility: 0.9926180243492126
","x: 186.28009033203125
y: 318.12353515625
z: -0.014672246761620045
visibility: 0.9697556495666504
","x: 238.21893310546875
y: 326.6263122558594
z: -0.24340581893920898
visibility: 0.9847936034202576
","x: 174.54586791992188
y: 364.83587646484375
z: -0.09459071606397629
visibility: 0.9505956768989563
","x: 237.6007080078125
y: 339.2628173828125
z: -0.28534525632858276
visibility: 0.9602295160293579
","x: 170.75636291503906
y: 383.4482116699219
z: -0.11912889778614044
visibility: 0.906380295753479
","x: 234.77345275878906
y: 336.6966552734375
z: -0.30611199140548706
visibility: 0.961333155632019
","x: 171.76918029785156
y: 384.2757873535156
z: -0.15815512835979462
visibility: 0.9066500067710876
","x: 234.3142547607422
y: 331.75360107421875
z: -0.25532424449920654
visibility: 0.9421340227127075
","x: 173.2605743408203
y: 380.18963623046875
z: -0.11132548749446869
visibility: 0.8753843903541565
","x: 232.23155212402344
y: 365.2331237792969
z: -0.0066450536251068115
visibility: 0.9996625185012817
","x: 207.53330993652344
y: 366.54541015625
z: 0.00687925610691309
visibility: 0.9995984435081482
","x: 231.85626220703125
y: 457.3124694824219
z: 0.0005434090853668749
visibility: 0.9919953942298889
","x: 208.2012481689453
y: 458.0484313964844
z: 0.0038561844266951084
visibility: 0.991295576095581
","x: 232.9596405029297
y: 533.2483520507812
z: 0.17331455647945404
visibility: 0.9925310611724854
","x: 209.9315948486328
y: 535.3919677734375
z: 0.17391125857830048
visibility: 0.9903134703636169
","x: 230.07423400878906
y: 543.6766357421875
z: 0.18233826756477356
visibility: 0.9048876166343689
","x: 211.9779052734375
y: 544.6680297851562
z: 0.18249604105949402
visibility: 0.8412194848060608
","x: 233.4980010986328
y: 560.0591430664062
z: 0.04300142079591751
visibility: 0.9877918362617493
","x: 210.604736328125
y: 564.09375
z: 0.043972164392471313
visibility: 0.9855481386184692
",,,,,,,,,,,,,,,,,,,,,,,,,,,,,,,,,,,,,,,,,,
7,"x: 224.27316284179688
y: 184.6730194091797
z: -0.21761851012706757
visibility: 0.9999852180480957
","x: 226.58157348632812
y: 179.04702758789062
z: -0.1935330480337143
visibility: 0.999962329864502
","x: 228.18653869628906
y: 179.3645477294922
z: -0.19354400038719177
visibility: 0.9999593496322632
","x: 229.78591918945312
y: 179.496826171875
z: -0.19354264438152313
visibility: 0.9999594688415527
","x: 222.23513793945312
y: 178.7071533203125
z: -0.1985129415988922
visibility: 0.9999622702598572
","x: 220.77687072753906
y: 178.76309204101562
z: -0.19846880435943604
visibility: 0.9999604821205139
","x: 219.1146697998047
y: 178.78903198242188
z: -0.19844427704811096
visibility: 0.9999622106552124
","x: 231.3724822998047
y: 184.5912322998047
z: -0.05879945680499077
visibility: 0.9999187588691711
","x: 216.48875427246094
y: 184.73196411132812
z: -0.08283145725727081
visibility: 0.9999299645423889
","x: 226.84291076660156
y: 192.96420288085938
z: -0.16810819506645203
visibility: 0.9999860525131226
","x: 221.4940185546875
y: 192.56570434570312
z: -0.17504580318927765
visibility: 0.9999861717224121
","x: 241.6844024658203
y: 232.87176513671875
z: 0.010722333565354347
visibility: 0.9999682307243347
","x: 201.31179809570312
y: 238.0078125
z: 0.01035173237323761
visibility: 0.9999098777770996
","x: 257.4427795410156
y: 246.5776824951172
z: -0.09816742688417435
visibility: 0.9929725527763367
","x: 186.73590087890625
y: 289.3336181640625
z: 0.05670281499624252
visibility: 0.9710383415222168
","x: 256.39630126953125
y: 186.24229431152344
z: -0.304867684841156
visibility: 0.9856805205345154
","x: 168.0056915283203
y: 333.9226989746094
z: -0.017637308686971664
visibility: 0.9532954096794128
","x: 255.78489685058594
y: 170.8929443359375
z: -0.3520197868347168
visibility: 0.9616827368736267
","x: 161.85543823242188
y: 345.5985107421875
z: -0.03504641354084015
visibility: 0.9100569486618042
","x: 254.21018981933594
y: 168.91055297851562
z: -0.31391265988349915
visibility: 0.9625912308692932
","x: 161.98617553710938
y: 346.7584228515625
z: -0.07477286458015442
visibility: 0.9108701944351196
","x: 253.54840087890625
y: 174.8746337890625
z: -0.3084508180618286
visibility: 0.9444741010665894
","x: 164.1845703125
y: 344.0431213378906
z: -0.03509580343961716
visibility: 0.8822073340415955
","x: 234.82485961914062
y: 351.26666259765625
z: -0.004567496478557587
visibility: 0.9996860027313232
","x: 210.6097412109375
y: 350.1983337402344
z: 0.004662828985601664
visibility: 0.9996164441108704
","x: 234.5526123046875
y: 443.79254150390625
z: -0.00765319773927331
visibility: 0.9917623996734619
","x: 210.35519409179688
y: 444.16259765625
z: -0.0034112115390598774
visibility: 0.9901453852653503
","x: 234.9315643310547
y: 532.0988159179688
z: 0.124137282371521
visibility: 0.9922972917556763
","x: 209.43661499023438
y: 529.7883911132812
z: 0.14453403651714325
visibility: 0.9892140030860901
","x: 232.0485076904297
y: 542.4567260742188
z: 0.1291019469499588
visibility: 0.8996955156326294
","x: 210.6902618408203
y: 540.5216064453125
z: 0.15079203248023987
visibility: 0.8346483707427979
","x: 235.34927368164062
y: 560.028076171875
z: -0.014659021981060505
visibility: 0.9876089096069336
","x: 210.75888061523438
y: 560.791259765625
z: 0.014459775760769844
visibility: 0.9844256639480591
",,,,,,,,,,,,,,,,,,,,,,,,,,,,,,,,,,,,,,,,,,
8,"x: 227.090576171875
y: 182.6986846923828
z: -0.23069655895233154
visibility: 0.9999862909317017
","x: 229.42665100097656
y: 179.79933166503906
z: -0.20830102264881134
visibility: 0.9999642968177795
","x: 230.9205322265625
y: 180.60899353027344
z: -0.20829491317272186
visibility: 0.9999617338180542
","x: 232.40396118164062
y: 181.34677124023438
z: -0.2082713544368744
visibility: 0.9999610781669617
","x: 224.82119750976562
y: 178.8302001953125
z: -0.2118779718875885
visibility: 0.9999648928642273
","x: 223.02154541015625
y: 178.94248962402344
z: -0.21190145611763
visibility: 0.9999635815620422
","x: 220.8821563720703
y: 178.9384765625
z: -0.2118978500366211
visibility: 0.9999650716781616
","x: 233.78781127929688
y: 188.99636840820312
z: -0.08586932718753815
visibility: 0.999923050403595
","x: 218.5814208984375
y: 185.966796875
z: -0.10410045087337494
visibility: 0.9999363422393799
","x: 229.3601531982422
y: 193.61802673339844
z: -0.18592804670333862
visibility: 0.9999850988388062
","x: 224.07252502441406
y: 191.84320068359375
z: -0.19124338030815125
visibility: 0.9999865293502808
","x: 243.58657836914062
y: 232.7786865234375
z: -0.038505878299474716
visibility: 0.9999580383300781
","x: 203.59661865234375
y: 238.9462127685547
z: -0.009951344691216946
visibility: 0.999908983707428
","x: 261.5955810546875
y: 194.98504638671875
z: -0.13405844569206238
visibility: 0.9930115342140198
","x: 185.4414825439453
y: 287.3819274902344
z: 0.0383414663374424
visibility: 0.9723669290542603
","x: 258.74151611328125
y: 136.7652587890625
z: -0.30571189522743225
visibility: 0.985368013381958
","x: 163.5050811767578
y: 327.80767822265625
z: -0.025379249826073647
visibility: 0.9553981423377991
","x: 257.7341613769531
y: 122.235595703125
z: -0.35162514448165894
visibility: 0.9598228335380554
","x: 158.17327880859375
y: 341.5404052734375
z: -0.039656512439250946
visibility: 0.912580132484436
","x: 255.5741729736328
y: 122.07249450683594
z: -0.3365944027900696
visibility: 0.9603837728500366
","x: 158.0684051513672
y: 342.124755859375
z: -0.07581964135169983
visibility: 0.9139535427093506
","x: 255.28759765625
y: 127.34323120117188
z: -0.31151869893074036
visibility: 0.9436290860176086
","x: 159.6754913330078
y: 338.5368347167969
z: -0.041408151388168335
visibility: 0.8876340985298157
","x: 236.94268798828125
y: 349.80535888671875
z: -0.0094719547778368
visibility: 0.9997023344039917
","x: 212.59991455078125
y: 349.0136413574219
z: 0.009429744444787502
visibility: 0.9996326565742493
","x: 235.74066162109375
y: 444.99041748046875
z: -0.026535242795944214
visibility: 0.9912879467010498
","x: 211.39906311035156
y: 445.70733642578125
z: -0.003887643339112401
visibility: 0.9891413450241089
","x: 236.2635040283203
y: 532.3114013671875
z: 0.09798101335763931
visibility: 0.9914997220039368
","x: 208.83128356933594
y: 530.3722534179688
z: 0.13120171427726746
visibility: 0.9882641434669495
","x: 233.54122924804688
y: 542.8370361328125
z: 0.10252632200717926
visibility: 0.8896646499633789
","x: 209.741943359375
y: 540.952880859375
z: 0.1365407556295395
visibility: 0.8294700384140015
","x: 236.9151611328125
y: 560.1520385742188
z: -0.03820299357175827
visibility: 0.9867026805877686
","x: 210.63226318359375
y: 560.8723754882812
z: 0.0010680308332666755
visibility: 0.9830631017684937
",,,,,,,,,,,,,,,,,,,,,,,,,,,,,,,,,,,,,,,,,,
9,"x: 227.271240234375
y: 183.01266479492188
z: -0.24179215729236603
visibility: 0.999987006187439
","x: 229.7329559326172
y: 181.8927764892578
z: -0.21651215851306915
visibility: 0.9999647736549377
","x: 231.3738555908203
y: 183.24981689453125
z: -0.21617679297924042
visibility: 0.999962568283081
","x: 233.09852600097656
y: 184.27471923828125
z: -0.2158779799938202
visibility: 0.9999608993530273
","x: 225.36532592773438
y: 179.74407958984375
z: -0.22937040030956268
visibility: 0.9999660849571228
","x: 223.78807067871094
y: 180.80177307128906
z: -0.2293413132429123
visibility: 0.9999650716781616
","x: 222.0353240966797
y: 181.53421020507812
z: -0.22938545048236847
visibility: 0.9999663233757019
","x: 235.2985382080078
y: 191.50498962402344
z: -0.11391987651586533
visibility: 0.9999229907989502
","x: 220.0745086669922
y: 187.65158081054688
z: -0.13152636587619781
visibility: 0.9999400973320007
","x: 229.97535705566406
y: 196.91744995117188
z: -0.1904609501361847
visibility: 0.9999812841415405
","x: 224.87368774414062
y: 194.81849670410156
z: -0.21545198559761047
visibility: 0.9999842643737793
","x: 245.19058227539062
y: 235.7430419921875
z: -0.07465337216854095
visibility: 0.9999369382858276
","x: 204.52346801757812
y: 242.34840393066406
z: -0.03534599393606186
visibility: 0.9998943209648132
","x: 263.07452392578125
y: 194.3374481201172
z: -0.2116142064332962
visibility: 0.9934000968933105
","x: 189.4958038330078
y: 290.8675842285156
z: 0.010114198550581932
visibility: 0.9735318422317505
","x: 250.8236541748047
y: 151.3706817626953
z: -0.36689215898513794
visibility: 0.9857344031333923
","x: 167.3604278564453
y: 331.1070556640625
z: -0.03830106928944588
visibility: 0.956214427947998
","x: 245.9507598876953
y: 143.92483520507812
z: -0.40732353925704956
visibility: 0.9583767652511597
","x: 159.28915405273438
y: 344.3061828613281
z: -0.050479013472795486
visibility: 0.912013590335846
","x: 243.9016876220703
y: 145.39881896972656
z: -0.3933132290840149
visibility: 0.9584960341453552
","x: 158.90643310546875
y: 345.1125793457031
z: -0.08297628164291382
visibility: 0.9140017032623291
","x: 245.3599853515625
y: 149.8179473876953
z: -0.3685903549194336
visibility: 0.942536473274231
","x: 161.6070098876953
y: 341.5371398925781
z: -0.05246475338935852
visibility: 0.8896065950393677
","x: 237.82261657714844
y: 354.01593017578125
z: -0.007539607584476471
visibility: 0.9997023940086365
","x: 213.38731384277344
y: 351.53851318359375
z: 0.007466060575097799
visibility: 0.9996206164360046
","x: 236.42161560058594
y: 447.53912353515625
z: -0.020977647975087166
visibility: 0.9907395839691162
","x: 212.04220581054688
y: 447.39239501953125
z: -0.006072153337299824
visibility: 0.9891692996025085
","x: 236.9738006591797
y: 534.140869140625
z: 0.09712279587984085
visibility: 0.9908348321914673
","x: 206.92877197265625
y: 532.7186279296875
z: 0.11758867651224136
visibility: 0.9876537322998047
","x: 233.93905639648438
y: 545.9290771484375
z: 0.10183101892471313
visibility: 0.8869177103042603
","x: 206.96258544921875
y: 544.330810546875
z: 0.12234801054000854
visibility: 0.8211515545845032
","x: 238.13075256347656
y: 560.7608642578125
z: -0.0346151627600193
visibility: 0.9859281182289124
","x: 210.44229125976562
y: 561.6235961914062
z: -0.015056686475872993
visibility: 0.9817418456077576
",,,,,,,,,,,,,,,,,,,,,,,,,,,,,,,,,,,,,,,,,,
10,"x: 231.89556884765625
y: 182.64230346679688
z: -0.21353240311145782
visibility: 0.9999878406524658
","x: 233.93678283691406
y: 179.51907348632812
z: -0.1895444691181183
visibility: 0.9999661445617676
","x: 235.28065490722656
y: 180.65248107910156
z: -0.18951967358589172
visibility: 0.9999642968177795
","x: 236.57029724121094
y: 181.6502227783203
z: -0.18949507176876068
visibility: 0.9999622106552124
","x: 230.06300354003906
y: 177.2096405029297
z: -0.19248417019844055
visibility: 0.9999682307243347
","x: 228.56973266601562
y: 177.02273559570312
z: -0.19245639443397522
visibility: 0.9999674558639526
","x: 227.23065185546875
y: 176.70286560058594
z: -0.19241611659526825
visibility: 0.9999686479568481
","x: 236.99917602539062
y: 188.30538940429688
z: -0.0658138319849968
visibility: 0.9999257922172546
","x: 224.45814514160156
y: 181.70457458496094
z: -0.07869955897331238
visibility: 0.9999451637268066
","x: 232.57530212402344
y: 193.10264587402344
z: -0.16773994266986847
visibility: 0.9999803304672241
","x: 228.04798889160156
y: 190.66622924804688
z: -0.172902911901474
visibility: 0.9999848008155823
","x: 246.0902862548828
y: 227.7389678955078
z: -0.030912280082702637
visibility: 0.9999342560768127
","x: 205.47702026367188
y: 233.64492797851562
z: 0.019530771300196648
visibility: 0.9998968839645386
","x: 264.3207702636719
y: 182.10496520996094
z: -0.12148560583591461
visibility: 0.9934021234512329
","x: 189.65692138671875
y: 288.53436279296875
z: 0.088080033659935
visibility: 0.9735310077667236
","x: 265.06201171875
y: 125.40442657470703
z: -0.2619644105434418
visibility: 0.9858607649803162
","x: 177.3023223876953
y: 333.39404296875
z: 0.036828625947237015
visibility: 0.955946147441864
","x: 266.23284912109375
y: 112.37095642089844
z: -0.3064914345741272
visibility: 0.9585345983505249
","x: 173.66000366210938
y: 344.64337158203125
z: 0.02232525311410427
visibility: 0.9107389450073242
","x: 265.1025695800781
y: 110.94842529296875
z: -0.3149704337120056
visibility: 0.9585649967193604
","x: 174.544921875
y: 347.99261474609375
z: -0.011756433174014091
visibility: 0.9134662747383118
","x: 264.42431640625
y: 116.06392669677734
z: -0.27384036779403687
visibility: 0.9439038634300232
","x: 175.93019104003906
y: 342.1435546875
z: 0.02197236754000187
visibility: 0.8905637860298157
","x: 238.41806030273438
y: 344.85394287109375
z: -0.010998220182955265
visibility: 0.999724268913269
","x: 213.95095825195312
y: 343.24755859375
z: 0.01098320260643959
visibility: 0.9996469020843506
","x: 236.7799072265625
y: 442.42041015625
z: -0.03150048851966858
visibility: 0.99093097448349
","x: 212.20179748535156
y: 444.2091064453125
z: -0.006657985504716635
visibility: 0.9892804026603699
","x: 237.21116638183594
y: 533.4960327148438
z: 0.11477502435445786
visibility: 0.9909143447875977
","x: 205.19424438476562
y: 532.2242431640625
z: 0.14172717928886414
visibility: 0.9877626299858093
","x: 234.26185607910156
y: 545.011962890625
z: 0.12203434854745865
visibility: 0.8859420418739319
","x: 205.37265014648438
y: 543.8487548828125
z: 0.14885322749614716
visibility: 0.8227454423904419
","x: 238.27001953125
y: 560.796875
z: -0.02393754944205284
visibility: 0.9861425757408142
","x: 208.9140625
y: 561.42138671875
z: 0.009127751924097538
visibility: 0.9817754030227661
",,,,,,,,,,,,,,,,,,,,,,,,,,,,,,,,,,,,,,,,,,
11,"x: 233.0107421875
y: 192.60861206054688
z: -0.2193395346403122
visibility: 0.9999880790710449
","x: 234.92312622070312
y: 187.665771484375
z: -0.19434604048728943
visibility: 0.9999640583992004
","x: 236.34300231933594
y: 188.2536163330078
z: -0.19433562457561493
visibility: 0.9999626874923706
","x: 237.7418975830078
y: 188.72720336914062
z: -0.1942899525165558
visibility: 0.999959409236908
","x: 230.897216796875
y: 186.7154541015625
z: -0.19754964113235474
visibility: 0.9999678134918213
","x: 229.47608947753906
y: 186.70166015625
z: -0.19753938913345337
visibility: 0.999967634677887
","x: 228.1203155517578
y: 186.44989013671875
z: -0.19748345017433167
visibility: 0.9999685287475586
","x: 239.04849243164062
y: 195.9725341796875
z: -0.06801452487707138
visibility: 0.9999194145202637
","x: 226.055419921875
y: 192.69544982910156
z: -0.08465342223644257
visibility: 0.9999464750289917
","x: 234.74313354492188
y: 201.93975830078125
z: -0.1742081344127655
visibility: 0.9999768733978271
","x: 230.03005981445312
y: 200.50204467773438
z: -0.17909708619117737
visibility: 0.9999833703041077
","x: 248.94313049316406
y: 235.3272705078125
z: -0.03348374366760254
visibility: 0.9999219179153442
","x: 207.21282958984375
y: 247.2659149169922
z: 0.004605063237249851
visibility: 0.9998918771743774
","x: 269.0684814453125
y: 205.87538146972656
z: -0.1286287009716034
visibility: 0.9938595294952393
","x: 192.50990295410156
y: 303.0237731933594
z: 0.05842547491192818
visibility: 0.9743380546569824
","x: 261.00018310546875
y: 155.1084442138672
z: -0.26960083842277527
visibility: 0.9866268634796143
","x: 179.73916625976562
y: 349.160888671875
z: -0.0026576195377856493
visibility: 0.9562037587165833
","x: 258.8587646484375
y: 142.79486083984375
z: -0.31252068281173706
visibility: 0.9595077037811279
","x: 178.31396484375
y: 367.83892822265625
z: -0.020635101944208145
visibility: 0.9104770421981812
","x: 256.97381591796875
y: 141.94578552246094
z: -0.3087196946144104
visibility: 0.9592666625976562
","x: 179.51002502441406
y: 369.53369140625
z: -0.051886241883039474
visibility: 0.9135173559188843
","x: 256.91046142578125
y: 147.51095581054688
z: -0.275485098361969
visibility: 0.9458664059638977
","x: 180.51014709472656
y: 363.4124755859375
z: -0.016699809581041336
visibility: 0.8919007778167725
","x: 238.7262725830078
y: 363.08843994140625
z: -0.010762128978967667
visibility: 0.9997365474700928
","x: 214.0455322265625
y: 356.82122802734375
z: 0.010736847296357155
visibility: 0.9996623396873474
","x: 236.9713134765625
y: 454.802978515625
z: -0.02078195847570896
visibility: 0.9912413954734802
","x: 210.99069213867188
y: 453.2244567871094
z: -0.005733120255172253
visibility: 0.9899128675460815
","x: 237.4386749267578
y: 536.2484130859375
z: 0.1569354385137558
visibility: 0.9908745288848877
","x: 204.29635620117188
y: 534.9540405273438
z: 0.1545555591583252
visibility: 0.9882441163063049
","x: 234.5449676513672
y: 547.23291015625
z: 0.16829673945903778
visibility: 0.8874019980430603
","x: 205.45132446289062
y: 546.23779296875
z: 0.16374816000461578
visibility: 0.8275594115257263
","x: 237.694091796875
y: 562.3504028320312
z: 0.039133988320827484
visibility: 0.9861499071121216
","x: 205.3331298828125
y: 561.9349365234375
z: 0.02872050181031227
visibility: 0.9822522401809692
",,,,,,,,,,,,,,,,,,,,,,,,,,,,,,,,,,,,,,,,,,
12,"x: 233.17677307128906
y: 189.6627655029297
z: -0.2419954538345337
visibility: 0.9999887347221375
","x: 235.1737518310547
y: 184.30926513671875
z: -0.2189687192440033
visibility: 0.9999645948410034
","x: 236.638671875
y: 184.80902099609375
z: -0.21896764636039734
visibility: 0.999963641166687
","x: 238.0980682373047
y: 185.27728271484375
z: -0.2189423143863678
visibility: 0.9999599456787109
","x: 231.0439910888672
y: 183.4921112060547
z: -0.22133426368236542
visibility: 0.9999690651893616
","x: 229.5629119873047
y: 183.51467895507812
z: -0.2213376760482788
visibility: 0.9999692440032959
","x: 228.12657165527344
y: 183.51776123046875
z: -0.22130832076072693
visibility: 0.9999699592590332
","x: 239.51852416992188
y: 191.06980895996094
z: -0.09189848601818085
visibility: 0.9999207258224487
","x: 226.0294189453125
y: 189.251220703125
z: -0.10656966269016266
visibility: 0.9999499320983887
","x: 234.97592163085938
y: 199.36338806152344
z: -0.19632072746753693
visibility: 0.9999759793281555
","x: 230.21359252929688
y: 198.14527893066406
z: -0.20027479529380798
visibility: 0.9999831318855286
","x: 248.95948791503906
y: 231.40830993652344
z: -0.04218786209821701
visibility: 0.9999203681945801
","x: 209.96914672851562
y: 241.14346313476562
z: -0.009945731610059738
visibility: 0.9998955130577087
","x: 270.43505859375
y: 204.34622192382812
z: -0.14093728363513947
visibility: 0.9941855669021606
","x: 198.345458984375
y: 295.608642578125
z: 0.058957457542419434
visibility: 0.9748256206512451
","x: 261.7548828125
y: 157.01889038085938
z: -0.2858266532421112
visibility: 0.9868124723434448
","x: 186.9097442626953
y: 348.3265686035156
z: 0.02290010079741478
visibility: 0.9570384621620178
","x: 258.1490173339844
y: 146.365234375
z: -0.32822471857070923
visibility: 0.9584081768989563
","x: 183.18075561523438
y: 365.25469970703125
z: 0.008868874981999397
visibility: 0.9112861752510071
","x: 256.1405944824219
y: 145.97024536132812
z: -0.32351475954055786
visibility: 0.957798421382904
","x: 183.59652709960938
y: 366.4503173828125
z: -0.02108367159962654
visibility: 0.9144431948661804
","x: 256.530029296875
y: 151.52468872070312
z: -0.2870137393474579
visibility: 0.945338785648346
","x: 185.92881774902344
y: 361.13885498046875
z: 0.01072581298649311
visibility: 0.8937272429466248
","x: 240.011962890625
y: 352.271484375
z: -0.010132532566785812
visibility: 0.9997454881668091
","x: 215.1682891845703
y: 347.12054443359375
z: 0.010086357593536377
visibility: 0.9996747970581055
","x: 237.32350158691406
y: 446.8653564453125
z: -0.01672271639108658
visibility: 0.9916061758995056
","x: 211.51231384277344
y: 444.2361145019531
z: -0.004974718205630779
visibility: 0.9904277920722961
","x: 237.4623565673828
y: 534.3755493164062
z: 0.10860045999288559
visibility: 0.9910902976989746
","x: 205.1517333984375
y: 532.233642578125
z: 0.1311003416776657
visibility: 0.9885711073875427
","x: 235.15155029296875
y: 545.0946044921875
z: 0.1127852201461792
visibility: 0.8858184218406677
","x: 205.79869079589844
y: 544.12890625
z: 0.1357538402080536
visibility: 0.8303983211517334
","x: 237.33474731445312
y: 561.3866577148438
z: -0.03458605334162712
visibility: 0.9864004254341125
","x: 206.05740356445312
y: 560.6633911132812
z: -0.0035639586858451366
visibility: 0.9826021194458008
",,,,,,,,,,,,,,,,,,,,,,,,,,,,,,,,,,,,,,,,,,
13,"x: 234.66952514648438
y: 190.16278076171875
z: -0.2188759297132492
visibility: 0.9999890327453613
","x: 236.7545928955078
y: 185.2694091796875
z: -0.19489996135234833
visibility: 0.9999626874923706
","x: 238.2277374267578
y: 185.73779296875
z: -0.19488222897052765
visibility: 0.9999622702598572
","x: 239.6946258544922
y: 186.09426879882812
z: -0.19483892619609833
visibility: 0.9999570846557617
","x: 232.6120147705078
y: 184.34913635253906
z: -0.19588707387447357
visibility: 0.999968945980072
","x: 231.1669464111328
y: 184.23631286621094
z: -0.19586937129497528
visibility: 0.9999696612358093
","x: 229.77081298828125
y: 184.15277099609375
z: -0.1958138644695282
visibility: 0.9999702572822571
","x: 241.30224609375
y: 192.32696533203125
z: -0.07214666157960892
visibility: 0.999915361404419
","x: 228.4165496826172
y: 189.8683319091797
z: -0.07783390581607819
visibility: 0.9999517798423767
","x: 236.38893127441406
y: 199.49859619140625
z: -0.17492052912712097
visibility: 0.9999721050262451
","x: 232.01632690429688
y: 198.19802856445312
z: -0.17650410532951355
visibility: 0.9999822974205017
","x: 251.43499755859375
y: 232.24302673339844
z: -0.040201060473918915
visibility: 0.9999135732650757
","x: 212.12371826171875
y: 242.00738525390625
z: 0.011225762777030468
visibility: 0.9998968243598938
","x: 270.6017761230469
y: 203.44003295898438
z: -0.1402577906847
visibility: 0.9942067861557007
","x: 200.10781860351562
y: 296.2034912109375
z: 0.07652951776981354
visibility: 0.9756452441215515
","x: 267.964599609375
y: 152.0937957763672
z: -0.2881253659725189
visibility: 0.9869692921638489
","x: 187.26690673828125
y: 347.9521179199219
z: 0.024583062157034874
visibility: 0.9583524465560913
","x: 266.55218505859375
y: 135.15765380859375
z: -0.3295256495475769
visibility: 0.9588159918785095
","x: 183.3096466064453
y: 365.5149841308594
z: 0.008196304552257061
visibility: 0.9132780432701111
","x: 264.76153564453125
y: 134.47958374023438
z: -0.33300405740737915
visibility: 0.9581710696220398
","x: 183.98536682128906
y: 366.7685546875
z: -0.023066993802785873
visibility: 0.9167227745056152
","x: 264.9853210449219
y: 141.29269409179688
z: -0.28874295949935913
visibility: 0.9469791650772095
","x: 186.03619384765625
y: 361.9791259765625
z: 0.01081861462444067
visibility: 0.8974264860153198
","x: 240.9072265625
y: 353.65069580078125
z: -0.009329764172434807
visibility: 0.9997584223747253
","x: 215.66090393066406
y: 349.17291259765625
z: 0.009276280179619789
visibility: 0.9996897578239441
","x: 240.275146484375
y: 447.2196960449219
z: -0.049276623874902725
visibility: 0.9916872978210449
","x: 214.276123046875
y: 444.795654296875
z: -0.020128075033426285
visibility: 0.9905808568000793
","x: 239.0347137451172
y: 532.7814331054688
z: 0.1173626184463501
visibility: 0.9904801249504089
","x: 206.56932067871094
y: 531.6807861328125
z: 0.13308468461036682
visibility: 0.988243818283081
","x: 237.65782165527344
y: 541.7145385742188
z: 0.12923607230186462
visibility: 0.8784730434417725
","x: 206.20431518554688
y: 543.2396850585938
z: 0.14344516396522522
visibility: 0.8286461234092712
","x: 237.58168029785156
y: 561.1961669921875
z: -0.028981786221265793
visibility: 0.9857407808303833
","x: 209.5482177734375
y: 560.7221069335938
z: 0.005972793325781822
visibility: 0.9821515679359436
",,,,,,,,,,,,,,,,,,,,,,,,,,,,,,,,,,,,,,,,,,
14,"x: 233.658935546875
y: 195.08309936523438
z: -0.2618623673915863
visibility: 0.9999869465827942
","x: 236.20928955078125
y: 189.2646942138672
z: -0.23976151645183563
visibility: 0.9999475479125977
","x: 237.82920837402344
y: 189.50697326660156
z: -0.23976358771324158
visibility: 0.9999464750289917
","x: 239.44825744628906
y: 189.86715698242188
z: -0.2397373914718628
visibility: 0.9999392032623291
","x: 231.91517639160156
y: 188.82577514648438
z: -0.23973262310028076
visibility: 0.9999573230743408
","x: 230.40695190429688
y: 188.9157257080078
z: -0.23976409435272217
visibility: 0.9999601244926453
","x: 228.908935546875
y: 188.9446258544922
z: -0.23974104225635529
visibility: 0.999963104724884
","x: 241.37478637695312
y: 196.12266540527344
z: -0.119839608669281
visibility: 0.9998695850372314
","x: 227.74790954589844
y: 195.73524475097656
z: -0.11828996241092682
visibility: 0.9999356269836426
","x: 235.94361877441406
y: 203.8765869140625
z: -0.21929140388965607
visibility: 0.9999631643295288
","x: 231.49070739746094
y: 203.51840209960938
z: -0.21863961219787598
visibility: 0.9999747276306152
","x: 251.7179718017578
y: 235.22592163085938
z: -0.06067071482539177
visibility: 0.9999048709869385
","x: 212.8121795654297
y: 247.17828369140625
z: -0.03518444299697876
visibility: 0.9998892545700073
","x: 279.0108337402344
y: 222.66363525390625
z: -0.1433332860469818
visibility: 0.9936672449111938
","x: 201.27957153320312
y: 303.91717529296875
z: 0.011003019288182259
visibility: 0.9769368767738342
","x: 265.4098815917969
y: 239.8275604248047
z: -0.288906991481781
visibility: 0.9785779118537903
","x: 189.58567810058594
y: 353.4136657714844
z: -0.06442601978778839
visibility: 0.9597927331924438
","x: 265.9615478515625
y: 248.240478515625
z: -0.331745445728302
visibility: 0.9322754740715027
","x: 183.98155212402344
y: 369.6659851074219
z: -0.09046797454357147
visibility: 0.9150657653808594
","x: 263.2122802734375
y: 247.57322692871094
z: -0.33591240644454956
visibility: 0.9318685531616211
","x: 184.0761260986328
y: 370.9455871582031
z: -0.11907358467578888
visibility: 0.9186277389526367
","x: 264.0301208496094
y: 244.6881866455078
z: -0.29215362668037415
visibility: 0.9206839203834534
","x: 186.51539611816406
y: 366.9080810546875
z: -0.0773238092660904
visibility: 0.9001965522766113
","x: 242.8756103515625
y: 354.3182067871094
z: -0.008319243788719177
visibility: 0.9997429251670837
","x: 218.5283203125
y: 349.6072082519531
z: 0.008236577734351158
visibility: 0.9996722340583801
","x: 241.47769165039062
y: 447.89990234375
z: -0.03238964453339577
visibility: 0.9904864430427551
","x: 218.0336151123047
y: 445.947265625
z: -0.006931676063686609
visibility: 0.9901279211044312
","x: 239.2443084716797
y: 532.182861328125
z: 0.14403997361660004
visibility: 0.9892082810401917
","x: 209.0803985595703
y: 530.392333984375
z: 0.14918072521686554
visibility: 0.9873153567314148
","x: 237.9386444091797
y: 540.8244018554688
z: 0.15612205862998962
visibility: 0.873089075088501
","x: 208.09825134277344
y: 540.7723388671875
z: 0.1598760038614273
visibility: 0.8215190172195435
","x: 237.81817626953125
y: 560.6759033203125
z: 0.017506655305624008
visibility: 0.9843822717666626
","x: 212.09378051757812
y: 560.577880859375
z: 0.026981109753251076
visibility: 0.9809130430221558
",,,,,,,,,,,,,,,,,,,,,,,,,,,,,,,,,,,,,,,,,,
15,"x: 235.7902069091797
y: 190.9447021484375
z: -0.23007309436798096
visibility: 0.999987006187439
","x: 237.56019592285156
y: 186.37310791015625
z: -0.20857012271881104
visibility: 0.9999490976333618
","x: 238.97703552246094
y: 186.76451110839844
z: -0.20858483016490936
visibility: 0.9999476075172424
","x: 240.41162109375
y: 187.22808837890625
z: -0.20861491560935974
visibility: 0.9999417662620544
","x: 233.44322204589844
y: 185.8809814453125
z: -0.21549245715141296
visibility: 0.9999580383300781
","x: 231.75875854492188
y: 186.01358032226562
z: -0.2154865711927414
visibility: 0.9999603033065796
","x: 230.1819305419922
y: 186.16415405273438
z: -0.21543216705322266
visibility: 0.9999633431434631
","x: 241.78765869140625
y: 191.7465057373047
z: -0.08424369245767593
visibility: 0.9998705983161926
","x: 227.6361083984375
y: 191.62393188476562
z: -0.11470012366771698
visibility: 0.9999349117279053
","x: 237.724365234375
y: 199.4349365234375
z: -0.18371465802192688
visibility: 0.99996417760849
","x: 232.9358673095703
y: 199.09231567382812
z: -0.19271698594093323
visibility: 0.9999745488166809
","x: 252.32339477539062
y: 232.5890350341797
z: 0.0003578047617338598
visibility: 0.999913215637207
","x: 212.98785400390625
y: 241.39122009277344
z: -0.038639575242996216
visibility: 0.9998948574066162
","x: 275.55914306640625
y: 258.26068115234375
z: 0.03186063840985298
visibility: 0.9934370517730713
","x: 202.5804443359375
y: 296.5616455078125
z: 0.011624151840806007
visibility: 0.978452742099762
","x: 263.42572021484375
y: 298.3730163574219
z: -0.10300463438034058
visibility: 0.9795243740081787
","x: 198.6056671142578
y: 351.67413330078125
z: -0.06040676683187485
visibility: 0.9617564678192139
","x: 263.6962890625
y: 314.854248046875
z: -0.14352810382843018
visibility: 0.9354875087738037
","x: 197.10597229003906
y: 368.2844543457031
z: -0.08665534853935242
visibility: 0.9188542366027832
","x: 260.52313232421875
y: 314.4143371582031
z: -0.16762229800224304
visibility: 0.9354361891746521
","x: 199.04396057128906
y: 368.87579345703125
z: -0.11614930629730225
visibility: 0.9222605228424072
","x: 260.2170715332031
y: 308.6678771972656
z: -0.11582796275615692
visibility: 0.9243354201316833
","x: 200.4878692626953
y: 365.198974609375
z: -0.07332009822130203
visibility: 0.9045571684837341
","x: 244.4044647216797
y: 347.4298095703125
z: 0.024877628311514854
visibility: 0.9997356534004211
","x: 220.267333984375
y: 344.6046142578125
z: -0.024911196902394295
visibility: 0.9996631145477295
","x: 242.2007293701172
y: 443.975830078125
z: -0.01407119445502758
visibility: 0.9869868159294128
","x: 220.10797119140625
y: 442.1622009277344
z: -0.05532924458384514
visibility: 0.9888957738876343
","x: 239.0692138671875
y: 528.2006225585938
z: 0.11552409082651138
visibility: 0.9869667887687683
","x: 210.5416717529297
y: 524.3572387695312
z: 0.0722210556268692
visibility: 0.9855090975761414
","x: 235.43319702148438
y: 539.844482421875
z: 0.12073944509029388
visibility: 0.8722450137138367
","x: 208.88519287109375
y: 535.851806640625
z: 0.07800652086734772
visibility: 0.8064737319946289
","x: 242.2708740234375
y: 555.167236328125
z: -0.0006059872102923691
visibility: 0.9818005561828613
","x: 215.56045532226562
y: 555.03515625
z: -0.04971165210008621
visibility: 0.9782009720802307
",,,,,,,,,,,,,,,,,,,,,,,,,,,,,,,,,,,,,,,,,,
16,"x: 235.7208251953125
y: 209.51608276367188
z: -0.22041065990924835
visibility: 0.9999854564666748
","x: 237.4986572265625
y: 203.61135864257812
z: -0.19828684628009796
visibility: 0.9999449253082275
","x: 238.90365600585938
y: 203.90480041503906
z: -0.19830408692359924
visibility: 0.9999423623085022
","x: 240.34410095214844
y: 204.24932861328125
z: -0.19828684628009796
visibility: 0.9999365210533142
","x: 233.33921813964844
y: 202.95654296875
z: -0.20549440383911133
visibility: 0.9999526739120483
","x: 231.6741943359375
y: 202.75018310546875
z: -0.20548543334007263
visibility: 0.9999545812606812
","x: 230.05979919433594
y: 202.5450897216797
z: -0.20546261966228485
visibility: 0.999956488609314
","x: 241.76416015625
y: 210.01588439941406
z: -0.07342775911092758
visibility: 0.9998417496681213
","x: 227.0478057861328
y: 207.7824249267578
z: -0.10981221497058868
visibility: 0.9999237060546875
","x: 237.59010314941406
y: 218.35020446777344
z: -0.1743544638156891
visibility: 0.9999575018882751
","x: 232.74696350097656
y: 217.2935791015625
z: -0.18449990451335907
visibility: 0.999969482421875
","x: 252.27593994140625
y: 256.8329162597656
z: 0.020607680082321167
visibility: 0.9999082684516907
","x: 212.94566345214844
y: 252.7389373779297
z: -0.06419792771339417
visibility: 0.9998930096626282
","x: 260.8294372558594
y: 311.6443786621094
z: 0.08143896609544754
visibility: 0.9885785579681396
","x: 203.04615783691406
y: 300.4145202636719
z: -0.08155116438865662
visibility: 0.9795539975166321
","x: 263.8888244628906
y: 357.4665832519531
z: -0.02626754716038704
visibility: 0.9777501225471497
","x: 208.95558166503906
y: 333.63787841796875
z: -0.20320382714271545
visibility: 0.9635382294654846
","x: 265.89776611328125
y: 371.4645690917969
z: -0.05591374635696411
visibility: 0.9344702363014221
","x: 211.74563598632812
y: 348.5433654785156
z: -0.23809900879859924
visibility: 0.9228202700614929
","x: 264.9576416015625
y: 372.2764587402344
z: -0.08884652704000473
visibility: 0.935198962688446
","x: 214.35440063476562
y: 343.029541015625
z: -0.2594735026359558
visibility: 0.9260347485542297
","x: 263.4397888183594
y: 367.9107360839844
z: -0.04296018183231354
visibility: 0.9242973327636719
","x: 214.1028594970703
y: 338.3516845703125
z: -0.21350491046905518
visibility: 0.9090369939804077
","x: 245.5538787841797
y: 366.5838623046875
z: 0.037675872445106506
visibility: 0.9997208118438721
","x: 221.83734130859375
y: 365.499267578125
z: -0.037705011665821075
visibility: 0.9996528625488281
","x: 244.57125854492188
y: 455.1787109375
z: 0.03191199526190758
visibility: 0.9839050769805908
","x: 221.39529418945312
y: 452.3251037597656
z: -0.046515025198459625
visibility: 0.9884109497070312
","x: 237.26356506347656
y: 528.6635131835938
z: 0.1677756905555725
visibility: 0.9849135279655457
","x: 212.0823211669922
y: 525.248046875
z: 0.10414443910121918
visibility: 0.9845551252365112
","x: 233.1525115966797
y: 540.0477905273438
z: 0.1737353652715683
visibility: 0.874983549118042
","x: 209.6443634033203
y: 536.5528564453125
z: 0.11233047395944595
visibility: 0.8000131845474243
","x: 243.7747802734375
y: 554.7391357421875
z: 0.06550678610801697
visibility: 0.97991943359375
","x: 215.3373260498047
y: 552.418701171875
z: -0.01592377759516239
visibility: 0.976887047290802
",,,,,,,,,,,,,,,,,,,,,,,,,,,,,,,,,,,,,,,,,,
17,"x: 244.4622802734375
y: 208.31875610351562
z: -0.1480008065700531
visibility: 0.9999463558197021
","x: 243.6582794189453
y: 202.3780517578125
z: -0.12571147084236145
visibility: 0.9998756647109985
","x: 244.08311462402344
y: 202.774658203125
z: -0.12574192881584167
visibility: 0.999856173992157
","x: 244.4752655029297
y: 203.2249298095703
z: -0.1257331520318985
visibility: 0.9998570680618286
","x: 241.19561767578125
y: 201.38827514648438
z: -0.1438005268573761
visibility: 0.9998801946640015
","x: 239.76519775390625
y: 201.2252960205078
z: -0.1438455730676651
visibility: 0.9998904466629028
","x: 238.28636169433594
y: 201.10089111328125
z: -0.1438870131969452
visibility: 0.9998931884765625
","x: 242.377685546875
y: 209.2804718017578
z: -0.009711095131933689
visibility: 0.9995952248573303
","x: 233.17881774902344
y: 206.482666015625
z: -0.09180692583322525
visibility: 0.9998193979263306
","x: 244.33782958984375
y: 216.83572387695312
z: -0.10408345609903336
visibility: 0.9998339414596558
","x: 241.29776000976562
y: 216.81405639648438
z: -0.12778136134147644
visibility: 0.9998520612716675
","x: 250.19674682617188
y: 251.9349822998047
z: 0.08746521919965744
visibility: 0.9997590780258179
","x: 218.7809600830078
y: 248.96456909179688
z: -0.0966060608625412
visibility: 0.9998370409011841
","x: 249.8312530517578
y: 302.0867004394531
z: 0.14895853400230408
visibility: 0.9414078593254089
","x: 213.26817321777344
y: 298.02374267578125
z: -0.2269829958677292
visibility: 0.9808037281036377
","x: 258.65130615234375
y: 343.292724609375
z: 0.09745016694068909
visibility: 0.9288004040718079
","x: 223.848388671875
y: 240.04550170898438
z: -0.38110506534576416
visibility: 0.9666818976402283
","x: 264.2489013671875
y: 357.6293640136719
z: 0.09127568453550339
visibility: 0.8787973523139954
","x: 225.32809448242188
y: 224.6597137451172
z: -0.41808462142944336
visibility: 0.9294249415397644
","x: 262.1214294433594
y: 359.7005615234375
z: 0.06816253066062927
visibility: 0.8815940022468567
","x: 224.5579376220703
y: 221.42930603027344
z: -0.41706013679504395
visibility: 0.9322547912597656
","x: 262.3767395019531
y: 354.41107177734375
z: 0.08592548966407776
visibility: 0.8731207251548767
","x: 224.7469940185547
y: 225.82772827148438
z: -0.3834645450115204
visibility: 0.9161958694458008
","x: 245.1827392578125
y: 364.47265625
z: 0.06763038039207458
visibility: 0.9996681809425354
","x: 223.63021850585938
y: 363.213623046875
z: -0.06776637583971024
visibility: 0.9996001124382019
","x: 244.74337768554688
y: 448.9220886230469
z: 0.03722672909498215
visibility: 0.9715105295181274
","x: 224.38954162597656
y: 446.7791748046875
z: -0.08340181410312653
visibility: 0.9860800504684448
","x: 235.0843963623047
y: 526.4552612304688
z: 0.16131290793418884
visibility: 0.9800182580947876
","x: 212.37721252441406
y: 522.4759521484375
z: 0.02970707416534424
visibility: 0.9836779832839966
","x: 229.8542022705078
y: 538.0394287109375
z: 0.17339982092380524
visibility: 0.8751357793807983
","x: 209.48097229003906
y: 534.364013671875
z: 0.0349249504506588
visibility: 0.8005150556564331
","x: 244.94927978515625
y: 552.5060424804688
z: 0.06521812826395035
visibility: 0.9769077301025391
","x: 216.905517578125
y: 549.6222534179688
z: -0.0801801010966301
visibility: 0.9767035245895386
",,,,,,,,,,,,,,,,,,,,,,,,,,,,,,,,,,,,,,,,,,
18,"x: 247.86451721191406
y: 206.2220001220703
z: -0.061148129403591156
visibility: 0.9999434947967529
","x: 246.5072021484375
y: 200.14642333984375
z: -0.042418524622917175
visibility: 0.9998773336410522
","x: 246.50082397460938
y: 200.3823699951172
z: -0.04243863746523857
visibility: 0.9998545050621033
","x: 246.44427490234375
y: 200.69317626953125
z: -0.0424601249396801
visibility: 0.9998605251312256
","x: 245.21563720703125
y: 199.45223999023438
z: -0.06888309121131897
visibility: 0.9998787641525269
","x: 244.28146362304688
y: 199.2449188232422
z: -0.06890743970870972
visibility: 0.9998876452445984
","x: 243.24952697753906
y: 199.0775146484375
z: -0.06893020868301392
visibility: 0.9998897910118103
","x: 243.33978271484375
y: 206.2122802734375
z: 0.05257299542427063
visibility: 0.9996072053909302
","x: 237.69598388671875
y: 203.86676025390625
z: -0.06850528717041016
visibility: 0.9998095631599426
","x: 247.31231689453125
y: 214.07711791992188
z: -0.024043571203947067
visibility: 0.9998319149017334
","x: 245.7900848388672
y: 213.84310913085938
z: -0.05931320786476135
visibility: 0.999832034111023
","x: 248.12965393066406
y: 251.7347412109375
z: 0.14509689807891846
visibility: 0.9997203946113586
","x: 225.3331298828125
y: 238.62026977539062
z: -0.13363656401634216
visibility: 0.9998072385787964
","x: 246.66680908203125
y: 305.57794189453125
z: 0.22667968273162842
visibility: 0.8767786026000977
","x: 230.4420928955078
y: 240.7906951904297
z: -0.3467535376548767
visibility: 0.9814332127571106
","x: 259.8086853027344
y: 337.90777587890625
z: 0.23272982239723206
visibility: 0.887830913066864
","x: 233.48902893066406
y: 189.6549835205078
z: -0.5052779912948608
visibility: 0.9691214561462402
","x: 265.59356689453125
y: 347.5880126953125
z: 0.2424517571926117
visibility: 0.8367682695388794
","x: 232.37562561035156
y: 181.22772216796875
z: -0.550451934337616
visibility: 0.9348915815353394
","x: 266.1159362792969
y: 348.1539611816406
z: 0.21660122275352478
visibility: 0.8421041369438171
","x: 231.0747833251953
y: 180.7532501220703
z: -0.5420350432395935
visibility: 0.937235951423645
","x: 264.6718444824219
y: 344.94342041015625
z: 0.2214720994234085
visibility: 0.8329058289527893
","x: 231.816650390625
y: 184.54827880859375
z: -0.507217526435852
visibility: 0.9216342568397522
","x: 245.00967407226562
y: 363.52484130859375
z: 0.08963258564472198
visibility: 0.9996602535247803
","x: 228.9424591064453
y: 359.69647216796875
z: -0.0898069217801094
visibility: 0.9995975494384766
","x: 244.58673095703125
y: 445.74725341796875
z: 0.0744108036160469
visibility: 0.9546060562133789
","x: 230.7752685546875
y: 444.1241149902344
z: -0.11424833536148071
visibility: 0.984673261642456
","x: 232.37213134765625
y: 521.474609375
z: 0.15350838005542755
visibility: 0.9732664823532104
","x: 212.50804138183594
y: 522.3551025390625
z: -0.0605633370578289
visibility: 0.9836575388908386
","x: 226.1221160888672
y: 533.4022827148438
z: 0.15472346544265747
visibility: 0.8752361536026001
","x: 207.83152770996094
y: 533.8860473632812
z: -0.060821257531642914
visibility: 0.8100679516792297
","x: 247.79061889648438
y: 545.4736328125
z: 0.07237690687179565
visibility: 0.9737170338630676
","x: 221.81222534179688
y: 550.2470703125
z: -0.16311892867088318
visibility: 0.9772510528564453
",,,,,,,,,,,,,,,,,,,,,,,,,,,,,,,,,,,,,,,,,,
19,"x: 249.93630981445312
y: 223.79974365234375
z: 0.10123231261968613
visibility: 0.9999345541000366
","x: 247.48887634277344
y: 217.0793914794922
z: 0.10464310646057129
visibility: 0.999864935874939
","x: 246.94215393066406
y: 217.21238708496094
z: 0.10464330017566681
visibility: 0.9998313188552856
","x: 246.42327880859375
y: 217.3643798828125
z: 0.1046130433678627
visibility: 0.9998529553413391
","x: 247.83216857910156
y: 216.25271606445312
z: 0.07655492424964905
visibility: 0.9998592138290405
","x: 247.50875854492188
y: 215.82167053222656
z: 0.07653678953647614
visibility: 0.9998589754104614
","x: 247.1629638671875
y: 215.38461303710938
z: 0.07647337764501572
visibility: 0.9998648762702942
","x: 243.10781860351562
y: 221.3963165283203
z: 0.12046857923269272
visibility: 0.9995878338813782
","x: 243.10772705078125
y: 217.68646240234375
z: -0.007276809774339199
visibility: 0.9997580647468567
","x: 248.34934997558594
y: 230.94825744628906
z: 0.11102738231420517
visibility: 0.9997926950454712
","x: 248.61590576171875
y: 229.6924591064453
z: 0.07387101650238037
visibility: 0.999775767326355
","x: 231.2881622314453
y: 265.5389404296875
z: 0.1764952540397644
visibility: 0.9996659755706787
","x: 241.80250549316406
y: 243.27012634277344
z: -0.09828557074069977
visibility: 0.9997997879981995
","x: 243.85646057128906
y: 323.2619934082031
z: 0.2599450349807739
visibility: 0.7976826429367065
","x: 252.46722412109375
y: 219.44119262695312
z: -0.16637645661830902
visibility: 0.9819528460502625
","x: 262.2588195800781
y: 342.18121337890625
z: 0.2560270130634308
visibility: 0.8296648859977722
","x: 258.95123291015625
y: 179.7107696533203
z: -0.0868278294801712
visibility: 0.9704399704933167
","x: 269.5667724609375
y: 351.5431213378906
z: 0.2704603374004364
visibility: 0.7893622517585754
","x: 261.0757141113281
y: 173.85400390625
z: -0.1018950566649437
visibility: 0.937869668006897
","x: 270.6952819824219
y: 351.156982421875
z: 0.2388523370027542
visibility: 0.7961714863777161
","x: 258.4239196777344
y: 173.9962921142578
z: -0.08186085522174835
visibility: 0.9392114281654358
","x: 268.31976318359375
y: 348.3582763671875
z: 0.24203097820281982
visibility: 0.7872176170349121
","x: 257.2736511230469
y: 177.18606567382812
z: -0.07869701087474823
visibility: 0.9235259890556335
","x: 234.8287811279297
y: 367.8030700683594
z: 0.09210475534200668
visibility: 0.9996636509895325
","x: 238.3152313232422
y: 365.2235107421875
z: -0.09232913702726364
visibility: 0.9996128082275391
","x: 241.92417907714844
y: 446.39630126953125
z: 0.13112285733222961
visibility: 0.8997897505760193
","x: 239.75221252441406
y: 451.21051025390625
z: -0.09922553598880768
visibility: 0.9829369783401489
","x: 225.07830810546875
y: 522.0182495117188
z: 0.19969221949577332
visibility: 0.9431281685829163
","x: 213.18621826171875
y: 526.5198364257812
z: -0.061718523502349854
visibility: 0.9826144576072693
","x: 221.7139434814453
y: 535.8508911132812
z: 0.20494064688682556
visibility: 0.8556441068649292
","x: 205.29762268066406
y: 540.7330932617188
z: -0.05988074466586113
visibility: 0.8225060701370239
","x: 243.03369140625
y: 538.8480224609375
z: 0.17684867978096008
visibility: 0.9514027237892151
","x: 228.26206970214844
y: 551.1923828125
z: -0.12354765087366104
visibility: 0.9749382734298706
",,,,,,,,,,,,,,,,,,,,,,,,,,,,,,,,,,,,,,,,,,
20,"x: 248.07266235351562
y: 217.99630737304688
z: -0.003935837186872959
visibility: 0.999776303768158
","x: 246.10781860351562
y: 207.10516357421875
z: 0.0071625844575464725
visibility: 0.9994890689849854
","x: 245.8010711669922
y: 206.3699188232422
z: 0.007131967693567276
visibility: 0.9993368983268738
","x: 245.58262634277344
y: 205.77392578125
z: 0.007129032164812088
visibility: 0.9995269775390625
","x: 245.78138732910156
y: 207.9169464111328
z: -0.02676107920706272
visibility: 0.9996440410614014
","x: 245.1930389404297
y: 207.83143615722656
z: -0.026794355362653732
visibility: 0.9996238350868225
","x: 244.5828399658203
y: 207.802734375
z: -0.026916518807411194
visibility: 0.9996894598007202
","x: 241.81036376953125
y: 207.3794708251953
z: 0.06493806093931198
visibility: 0.9984150528907776
","x: 240.52557373046875
y: 209.41969299316406
z: -0.07103850692510605
visibility: 0.9994492530822754
","x: 246.8509521484375
y: 222.79661560058594
z: 0.02167319320142269
visibility: 0.9994769096374512
","x: 246.1075439453125
y: 224.99803161621094
z: -0.022472411394119263
visibility: 0.9995722770690918
","x: 235.71182250976562
y: 251.45455932617188
z: 0.16476230323314667
visibility: 0.9992533922195435
","x: 236.74221801757812
y: 238.44866943359375
z: -0.1898815929889679
visibility: 0.9998039603233337
","x: 246.2896728515625
y: 300.1199645996094
z: 0.20988409221172333
visibility: 0.7262746691703796
","x: 256.5296630859375
y: 234.3339385986328
z: -0.2458767592906952
visibility: 0.9834383726119995
","x: 258.16241455078125
y: 332.8114318847656
z: 0.15176495909690857
visibility: 0.7557757496833801
","x: 289.1772766113281
y: 261.8065185546875
z: -0.20595836639404297
visibility: 0.9718383550643921
","x: 266.1882629394531
y: 344.61297607421875
z: 0.1499117910861969
visibility: 0.7205114960670471
","x: 295.2543640136719
y: 271.82958984375
z: -0.233013316988945
visibility: 0.9411715269088745
","x: 269.9193115234375
y: 342.5512390136719
z: 0.12387975305318832
visibility: 0.7268657088279724
","x: 296.286865234375
y: 269.62347412109375
z: -0.21009071171283722
visibility: 0.9420271515846252
","x: 267.1139831542969
y: 339.2434387207031
z: 0.13718922436237335
visibility: 0.7194905877113342
","x: 294.111083984375
y: 265.0906066894531
z: -0.1951141506433487
visibility: 0.92500901222229
","x: 237.12039184570312
y: 356.6141052246094
z: 0.10662341117858887
visibility: 0.9988285303115845
","x: 236.829833984375
y: 356.77667236328125
z: -0.10675401985645294
visibility: 0.9992048144340515
","x: 242.9739532470703
y: 435.50518798828125
z: 0.16084584593772888
visibility: 0.8548495173454285
","x: 240.7455291748047
y: 444.39349365234375
z: -0.0934508889913559
visibility: 0.9786668419837952
","x: 226.19833374023438
y: 508.04620361328125
z: 0.26189103722572327
visibility: 0.9119991660118103
","x: 229.33639526367188
y: 525.411376953125
z: -0.03553192317485809
visibility: 0.9818333983421326
","x: 219.8143310546875
y: 516.071533203125
z: 0.26839736104011536
visibility: 0.842339813709259
","x: 222.57496643066406
y: 540.0414428710938
z: -0.0339784249663353
visibility: 0.8350249528884888
","x: 237.69595336914062
y: 528.9539184570312
z: 0.22237209975719452
visibility: 0.9363714456558228
","x: 243.15782165527344
y: 548.7998657226562
z: -0.11980383098125458
visibility: 0.9746599793434143
",,,,,,,,,,,,,,,,,,,,,,,,,,,,,,,,,,,,,,,,,,
21,"x: 248.44371032714844
y: 214.30702209472656
z: -0.23655596375465393
visibility: 0.9997984170913696
","x: 246.16123962402344
y: 204.68746948242188
z: -0.2102804183959961
visibility: 0.999539315700531
","x: 246.17474365234375
y: 204.3641357421875
z: -0.21028096973896027
visibility: 0.9994019269943237
","x: 246.2034912109375
y: 204.1252899169922
z: -0.21031606197357178
visibility: 0.9995730519294739
","x: 244.80593872070312
y: 205.01104736328125
z: -0.23959016799926758
visibility: 0.9996792674064636
","x: 243.76406860351562
y: 205.04884338378906
z: -0.23957931995391846
visibility: 0.9996610879898071
","x: 242.75433349609375
y: 205.1702117919922
z: -0.23962020874023438
visibility: 0.9997200965881348
","x: 242.80322265625
y: 207.63388061523438
z: -0.07997935265302658
visibility: 0.9985709190368652
","x: 238.54257202148438
y: 209.67124938964844
z: -0.21170231699943542
visibility: 0.9995038509368896
","x: 248.89649963378906
y: 220.62049865722656
z: -0.18698570132255554
visibility: 0.9995279908180237
","x: 246.7878875732422
y: 221.08358764648438
z: -0.2252223938703537
visibility: 0.9996142983436584
","x: 248.889892578125
y: 254.3885955810547
z: 0.09428759664297104
visibility: 0.9993185997009277
","x: 231.20668029785156
y: 252.09230041503906
z: -0.24148058891296387
visibility: 0.9998165965080261
","x: 255.95809936523438
y: 300.15667724609375
z: 0.22377371788024902
visibility: 0.7218281626701355
","x: 240.949462890625
y: 307.3556823730469
z: -0.3012111186981201
visibility: 0.9822083711624146
","x: 285.0702209472656
y: 296.841064453125
z: 0.2594970166683197
visibility: 0.7774389386177063
","x: 280.3988342285156
y: 370.6463928222656
z: -0.3687499165534973
visibility: 0.9690289497375488
","x: 291.0265808105469
y: 293.76080322265625
z: 0.26986294984817505
visibility: 0.7438597083091736
","x: 293.7041320800781
y: 383.7646484375
z: -0.4010157585144043
visibility: 0.9381490349769592
","x: 291.3819580078125
y: 288.89361572265625
z: 0.24055004119873047
visibility: 0.750203549861908
","x: 263.5484619140625
y: 383.0572814941406
z: -0.4186701774597168
visibility: 0.9384870529174805
","x: 289.05621337890625
y: 289.444091796875
z: 0.24685266613960266
visibility: 0.7424931526184082
","x: 275.9369812011719
y: 378.9519958496094
z: -0.37608838081359863
visibility: 0.9189412593841553
","x: 249.71580505371094
y: 370.73858642578125
z: 0.09585587680339813
visibility: 0.9988357424736023
","x: 238.48983764648438
y: 373.37841796875
z: -0.0960467979311943
visibility: 0.9991927146911621
","x: 248.3363037109375
y: 437.0885925292969
z: 0.22473350167274475
visibility: 0.8234114050865173
","x: 245.52069091796875
y: 452.4747009277344
z: -0.016263969242572784
visibility: 0.9765722155570984
","x: 226.668212890625
y: 505.02130126953125
z: 0.4203522801399231
visibility: 0.8929910063743591
","x: 229.14791870117188
y: 525.3887939453125
z: 0.14626237750053406
visibility: 0.9804380536079407
","x: 218.1280975341797
y: 510.08905029296875
z: 0.4359571039676666
visibility: 0.8329740166664124
","x: 222.36648559570312
y: 540.0108642578125
z: 0.15871234238147736
visibility: 0.8445852994918823
","x: 233.501220703125
y: 524.373779296875
z: 0.38464394211769104
visibility: 0.9265154004096985
","x: 242.30294799804688
y: 548.2152099609375
z: 0.06655152887105942
visibility: 0.9736213088035583
",,,,,,,,,,,,,,,,,,,,,,,,,,,,,,,,,,,,,,,,,,
22,"x: 246.91419982910156
y: 195.0363006591797
z: -0.2328324317932129
visibility: 0.9998181462287903
","x: 245.9878387451172
y: 189.16299438476562
z: -0.2061677724123001
visibility: 0.9995841979980469
","x: 246.76675415039062
y: 189.18333435058594
z: -0.20618394017219543
visibility: 0.9994603991508484
","x: 247.576416015625
y: 189.36724853515625
z: -0.20619280636310577
visibility: 0.9996141195297241
","x: 243.8187255859375
y: 189.48097229003906
z: -0.2161010056734085
visibility: 0.9997103214263916
","x: 243.01486206054688
y: 189.85292053222656
z: -0.21611937880516052
visibility: 0.9996938705444336
","x: 242.397705078125
y: 190.42611694335938
z: -0.2161390781402588
visibility: 0.9997467994689941
","x: 247.77841186523438
y: 194.2845458984375
z: -0.06482645869255066
visibility: 0.9987100958824158
","x: 237.5128173828125
y: 197.88888549804688
z: -0.19435447454452515
visibility: 0.9995527863502502
","x: 247.9025421142578
y: 203.03855895996094
z: -0.18042472004890442
visibility: 0.9995740652084351
","x: 245.25927734375
y: 204.10150146484375
z: -0.19395636022090912
visibility: 0.9996521472930908
","x: 261.29052734375
y: 241.462646484375
z: 0.04867056384682655
visibility: 0.9993768334388733
","x: 228.80963134765625
y: 242.76548767089844
z: -0.05346720665693283
visibility: 0.9998257756233215
","x: 284.0293273925781
y: 256.8947448730469
z: -0.021351512521505356
visibility: 0.7490599751472473
","x: 203.60186767578125
y: 293.8939514160156
z: -0.02655198611319065
visibility: 0.9835452437400818
","x: 295.0443115234375
y: 203.91445922851562
z: -0.22246582806110382
visibility: 0.7992820739746094
","x: 172.95750427246094
y: 352.77655029296875
z: -0.10986504703760147
visibility: 0.9713740348815918
","x: 297.80523681640625
y: 191.72982788085938
z: -0.25743868947029114
visibility: 0.7678797245025635
","x: 164.7939453125
y: 356.5282897949219
z: -0.1270582675933838
visibility: 0.9420047998428345
","x: 295.79241943359375
y: 188.8076934814453
z: -0.2643107771873474
visibility: 0.7736912369728088
","x: 163.3875732421875
y: 363.450927734375
z: -0.16545607149600983
visibility: 0.942674994468689
","x: 294.1932067871094
y: 192.49606323242188
z: -0.2328159064054489
visibility: 0.7665669322013855
","x: 166.4188690185547
y: 374.8387145996094
z: -0.12791964411735535
visibility: 0.9249210357666016
","x: 258.7518310546875
y: 359.7305603027344
z: 0.052912212908267975
visibility: 0.9988821148872375
","x: 238.963623046875
y: 359.84130859375
z: -0.052938543260097504
visibility: 0.999196469783783
","x: 257.2331237792969
y: 439.19207763671875
z: 0.05328987166285515
visibility: 0.8369295001029968
","x: 242.50814819335938
y: 448.82373046875
z: -0.030763765797019005
visibility: 0.9771745800971985
","x: 247.1541290283203
y: 508.2504577636719
z: 0.23630325496196747
visibility: 0.9007139205932617
","x: 236.25631713867188
y: 525.5049438476562
z: 0.0988970473408699
visibility: 0.9808530211448669
","x: 243.19960021972656
y: 517.965087890625
z: 0.2481062114238739
visibility: 0.8425580263137817
","x: 233.8528289794922
y: 539.8582763671875
z: 0.10599919408559799
visibility: 0.8443460464477539
","x: 257.3150329589844
y: 529.0628662109375
z: 0.11832835525274277
visibility: 0.931570291519165
","x: 244.12530517578125
y: 548.6084594726562
z: 0.014385947957634926
visibility: 0.9742712378501892
",,,,,,,,,,,,,,,,,,,,,,,,,,,,,,,,,,,,,,,,,,
23,"x: 245.71603393554688
y: 201.91937255859375
z: -0.3084039092063904
visibility: 0.9998343586921692
","x: 245.4976043701172
y: 195.62623596191406
z: -0.28551170229911804
visibility: 0.9996197819709778
","x: 246.5345458984375
y: 195.5555877685547
z: -0.28549638390541077
visibility: 0.9995075464248657
","x: 247.82000732421875
y: 195.48736572265625
z: -0.28552478551864624
visibility: 0.999645471572876
","x: 243.73114013671875
y: 196.2789764404297
z: -0.28939899802207947
visibility: 0.9997352957725525
","x: 242.558349609375
y: 196.7231903076172
z: -0.28946763277053833
visibility: 0.9997205138206482
","x: 241.476806640625
y: 197.1934814453125
z: -0.2895047068595886
visibility: 0.9997683167457581
","x: 250.35452270507812
y: 201.0540771484375
z: -0.16478927433490753
visibility: 0.9988253116607666
","x: 236.98397827148438
y: 204.95596313476562
z: -0.1876828372478485
visibility: 0.9995929002761841
","x: 247.05267333984375
y: 209.47628784179688
z: -0.2648411691188812
visibility: 0.999606728553772
","x: 244.4058074951172
y: 210.16085815429688
z: -0.27013975381851196
visibility: 0.9996791481971741
","x: 264.9203796386719
y: 247.3649444580078
z: -0.07663567364215851
visibility: 0.9992685317993164
","x: 227.93399047851562
y: 253.64938354492188
z: -0.09976017475128174
visibility: 0.9997103214263916
","x: 297.92474365234375
y: 249.5901336669922
z: -0.0987786203622818
visibility: 0.774008572101593
","x: 198.73455810546875
y: 290.8898620605469
z: -0.08349432796239853
visibility: 0.9848414659500122
","x: 299.2124938964844
y: 194.14039611816406
z: -0.19788531959056854
visibility: 0.8189681172370911
","x: 173.20985412597656
y: 259.3686218261719
z: -0.1508779227733612
visibility: 0.9735591411590576
","x: 300.721435546875
y: 181.63882446289062
z: -0.21584458649158478
visibility: 0.788845956325531
","x: 165.93565368652344
y: 252.96017456054688
z: -0.17582130432128906
visibility: 0.9449495673179626
","x: 297.7713623046875
y: 180.67579650878906
z: -0.21986910700798035
visibility: 0.7940970659255981
","x: 165.84158325195312
y: 248.33290100097656
z: -0.1965187042951584
visibility: 0.945706844329834
","x: 296.53460693359375
y: 184.8452911376953
z: -0.20391547679901123
visibility: 0.7876100540161133
","x: 168.59210205078125
y: 250.648193359375
z: -0.1594848334789276
visibility: 0.9294403791427612
","x: 260.94091796875
y: 364.53607177734375
z: 0.015350185334682465
visibility: 0.9987137913703918
","x: 237.66371154785156
y: 362.12841796875
z: -0.015475916676223278
visibility: 0.9991015791893005
","x: 261.8094177246094
y: 450.27001953125
z: 0.026228662580251694
visibility: 0.8505979180335999
","x: 240.01596069335938
y: 451.0263671875
z: -0.007641324307769537
visibility: 0.9775494337081909
","x: 253.91664123535156
y: 514.8558959960938
z: 0.1896907389163971
visibility: 0.9078384041786194
","x: 237.87818908691406
y: 527.9736938476562
z: 0.12686532735824585
visibility: 0.9805983901023865
","x: 251.39422607421875
y: 522.4657592773438
z: 0.19884103536605835
visibility: 0.8450537919998169
","x: 239.4412078857422
y: 541.0517578125
z: 0.13318145275115967
visibility: 0.8389948606491089
","x: 259.3532409667969
y: 534.4521484375
z: 0.0758344978094101
visibility: 0.9351620078086853
","x: 239.02784729003906
y: 549.1822509765625
z: 0.008105814456939697
visibility: 0.9739654064178467
",,,,,,,,,,,,,,,,,,,,,,,,,,,,,,,,,,,,,,,,,,
24,"x: 243.20074462890625
y: 193.94615173339844
z: -0.1632404774427414
visibility: 0.9998506307601929
","x: 245.21524047851562
y: 187.90869140625
z: -0.14694660902023315
visibility: 0.9996570944786072
","x: 246.24827575683594
y: 187.77825927734375
z: -0.14700713753700256
visibility: 0.9995561242103577
","x: 247.29953002929688
y: 187.7919921875
z: -0.147038072347641
visibility: 0.99968022108078
","x: 242.45115661621094
y: 188.8343048095703
z: -0.13544699549674988
visibility: 0.9997606873512268
","x: 241.30874633789062
y: 189.47903442382812
z: -0.1354457139968872
visibility: 0.9997472167015076
","x: 240.23394775390625
y: 190.17388916015625
z: -0.13540522754192352
visibility: 0.9997900724411011
","x: 250.20343017578125
y: 193.62698364257812
z: -0.049356717616319656
visibility: 0.9989417791366577
","x: 236.9139862060547
y: 197.73898315429688
z: -0.012381059117615223
visibility: 0.9996314644813538
","x: 246.1287384033203
y: 203.25376892089844
z: -0.1285087913274765
visibility: 0.9996455311775208
","x: 242.5316925048828
y: 203.3375701904297
z: -0.11404038965702057
visibility: 0.9997103810310364
","x: 266.1385192871094
y: 241.0305633544922
z: -0.02108512446284294
visibility: 0.9993395209312439
","x: 227.23095703125
y: 252.77362060546875
z: 0.06113039329648018
visibility: 0.9997304677963257
","x: 288.0264892578125
y: 262.80206298828125
z: -0.06119856238365173
visibility: 0.7962908148765564
","x: 206.5948944091797
y: 291.34161376953125
z: 0.031629834324121475
visibility: 0.9840397834777832
","x: 299.98443603515625
y: 235.7109375
z: -0.2634876072406769
visibility: 0.8368549346923828
","x: 186.6176300048828
y: 270.75079345703125
z: -0.14666488766670227
visibility: 0.9755102396011353
","x: 305.8743591308594
y: 230.39329528808594
z: -0.30220848321914673
visibility: 0.8092319369316101
","x: 179.550048828125
y: 271.5523376464844
z: -0.17832717299461365
visibility: 0.9488105773925781
","x: 303.84912109375
y: 226.67527770996094
z: -0.3127967417240143
visibility: 0.8140203356742859
","x: 179.35389709472656
y: 267.9287109375
z: -0.19871799647808075
visibility: 0.949668288230896
","x: 301.41387939453125
y: 229.03900146484375
z: -0.27355271577835083
visibility: 0.8079957365989685
","x: 181.7177276611328
y: 268.94366455078125
z: -0.16028742492198944
visibility: 0.9347479343414307
","x: 261.4056701660156
y: 353.79437255859375
z: -0.0011602346785366535
visibility: 0.9988024234771729
","x: 238.20095825195312
y: 354.1116027832031
z: 0.0011939855758100748
visibility: 0.9991457462310791
","x: 261.04345703125
y: 448.48309326171875
z: -0.0073853591457009315
visibility: 0.8637652397155762
","x: 239.23153686523438
y: 448.5635681152344
z: -0.020934179425239563
visibility: 0.9786858558654785
","x: 261.8231506347656
y: 515.1839599609375
z: 0.12886282801628113
visibility: 0.9152340292930603
","x: 240.40963745117188
y: 528.5777587890625
z: 0.10394428670406342
visibility: 0.9811698198318481
","x: 259.87213134765625
y: 523.3662109375
z: 0.13557377457618713
visibility: 0.8456641435623169
","x: 243.95425415039062
y: 541.5626831054688
z: 0.10912908613681793
visibility: 0.8353626728057861
","x: 266.1192626953125
y: 535.6368408203125
z: 0.01111692376434803
visibility: 0.9393310546875
","x: 239.9950408935547
y: 552.0079956054688
z: -0.010756531730294228
visibility: 0.9744629263877869
",,,,,,,,,,,,,,,,,,,,,,,,,,,,,,,,,,,,,,,,,,
25,"x: 242.523193359375
y: 194.16409301757812
z: -0.19408662617206573
visibility: 0.9998645782470703
","x: 245.0485076904297
y: 188.4651336669922
z: -0.1801750808954239
visibility: 0.9996895790100098
","x: 246.24412536621094
y: 188.29495239257812
z: -0.18023204803466797
visibility: 0.9995984435081482
","x: 247.55270385742188
y: 188.33425903320312
z: -0.18024560809135437
visibility: 0.9997100234031677
","x: 242.1939697265625
y: 189.391357421875
z: -0.1666906327009201
visibility: 0.9997824430465698
","x: 241.03829956054688
y: 189.96072387695312
z: -0.16669818758964539
visibility: 0.9997698664665222
","x: 239.9242706298828
y: 190.6128692626953
z: -0.1666664183139801
visibility: 0.9998087286949158
","x: 251.5995635986328
y: 194.60855102539062
z: -0.08003364503383636
visibility: 0.9990454912185669
","x: 238.28334045410156
y: 197.8480224609375
z: -0.045351434499025345
visibility: 0.9996640086174011
","x: 245.98162841796875
y: 203.7567901611328
z: -0.1571616381406784
visibility: 0.9996803402900696
","x: 241.14480590820312
y: 204.00082397460938
z: -0.13406547904014587
visibility: 0.9997383952140808
","x: 267.9254455566406
y: 245.04576110839844
z: -0.03116166964173317
visibility: 0.9993955492973328
","x: 228.5765380859375
y: 254.24099731445312
z: 0.049375489354133606
visibility: 0.9997491240501404
","x: 285.0565185546875
y: 299.3401794433594
z: -0.15333524346351624
visibility: 0.8153880834579468
","x: 215.0092315673828
y: 308.2495422363281
z: -0.004975934512913227
visibility: 0.9808276891708374
","x: 287.3525695800781
y: 272.0487060546875
z: -0.3940410017967224
visibility: 0.8512755632400513
","x: 196.05372619628906
y: 279.13885498046875
z: -0.2423986941576004
visibility: 0.9768877625465393
","x: 281.0635681152344
y: 256.53729248046875
z: -0.44066721200942993
visibility: 0.8242129683494568
","x: 190.66688537597656
y: 278.4317321777344
z: -0.28527072072029114
visibility: 0.9519141316413879
","x: 278.7760009765625
y: 249.37156677246094
z: -0.4389907717704773
visibility: 0.8284081220626831
","x: 190.61256408691406
y: 274.6545104980469
z: -0.3033369183540344
visibility: 0.9527751803398132
","x: 278.39703369140625
y: 254.67843627929688
z: -0.398277223110199
visibility: 0.8209571838378906
","x: 192.60992431640625
y: 275.47003173828125
z: -0.2571485638618469
visibility: 0.9387715458869934
","x: 261.0204772949219
y: 358.1612548828125
z: -0.024040017277002335
visibility: 0.998834490776062
","x: 237.885498046875
y: 358.3645935058594
z: 0.02396908774971962
visibility: 0.9991520047187805
","x: 261.4353942871094
y: 451.792724609375
z: -0.014181924052536488
visibility: 0.8766338229179382
","x: 238.2107391357422
y: 452.1295166015625
z: 0.021547552198171616
visibility: 0.9798464179039001
","x: 270.4199523925781
y: 524.416259765625
z: 0.1506752371788025
visibility: 0.9227621555328369
","x: 243.09768676757812
y: 533.1505126953125
z: 0.18082940578460693
visibility: 0.9820681810379028
","x: 269.4787292480469
y: 536.310546875
z: 0.1591864824295044
visibility: 0.8426879048347473
","x: 247.14154052734375
y: 545.4435424804688
z: 0.18888545036315918
visibility: 0.8409658670425415
","x: 268.87005615234375
y: 546.7412719726562
z: 0.026305917650461197
visibility: 0.9438877105712891
","x: 239.99127197265625
y: 555.8991088867188
z: 0.056217510253190994
visibility: 0.9755480289459229
",,,,,,,,,,,,,,,,,,,,,,,,,,,,,,,,,,,,,,,,,,
26,"x: 250.12664794921875
y: 195.28509521484375
z: -0.2037034034729004
visibility: 0.999877393245697
","x: 252.8798065185547
y: 188.8610076904297
z: -0.18562135100364685
visibility: 0.9997192025184631
","x: 254.32467651367188
y: 188.56280517578125
z: -0.18566392362117767
visibility: 0.9996371865272522
","x: 255.75364685058594
y: 189.34048461914062
z: -0.18569040298461914
visibility: 0.9997375011444092
","x: 248.97085571289062
y: 190.0978240966797
z: -0.17924480140209198
visibility: 0.9998022317886353
","x: 247.48414611816406
y: 190.66246032714844
z: -0.17924658954143524
visibility: 0.999790608882904
","x: 245.9311065673828
y: 191.22402954101562
z: -0.17922252416610718
visibility: 0.9998255968093872
","x: 257.7266540527344
y: 197.5634765625
z: -0.07986385375261307
visibility: 0.9991391897201538
","x: 242.9376678466797
y: 198.12506103515625
z: -0.0610065832734108
visibility: 0.9996927976608276
","x: 252.08433532714844
y: 203.94134521484375
z: -0.16535405814647675
visibility: 0.999711275100708
","x: 246.8033447265625
y: 204.7372589111328
z: -0.15537461638450623
visibility: 0.999763011932373
","x: 269.3038024902344
y: 248.03189086914062
z: -0.04158024117350578
visibility: 0.9994468092918396
","x: 230.49606323242188
y: 253.48870849609375
z: 0.035597074776887894
visibility: 0.9997292160987854
","x: 284.23236083984375
y: 302.19580078125
z: -0.16964399814605713
visibility: 0.833518922328949
","x: 214.88511657714844
y: 300.10931396484375
z: -0.0406276099383831
visibility: 0.9798603653907776
","x: 284.9715270996094
y: 250.70101928710938
z: -0.37738555669784546
visibility: 0.8659183979034424
","x: 197.13290405273438
y: 249.44749450683594
z: -0.27467918395996094
visibility: 0.9784184694290161
","x: 280.38592529296875
y: 233.3167266845703
z: -0.4206487238407135
visibility: 0.841059148311615
","x: 194.86326599121094
y: 237.2564697265625
z: -0.31464797258377075
visibility: 0.9547293186187744
","x: 278.631103515625
y: 228.48085021972656
z: -0.41261419653892517
visibility: 0.8447684645652771
","x: 197.94680786132812
y: 231.73223876953125
z: -0.3190702497959137
visibility: 0.9554408192634583
","x: 278.21783447265625
y: 235.08819580078125
z: -0.3789462447166443
visibility: 0.837543785572052
","x: 200.50320434570312
y: 235.9359130859375
z: -0.28393083810806274
visibility: 0.9422802925109863
","x: 262.04803466796875
y: 360.1561279296875
z: -0.03483990952372551
visibility: 0.9988524913787842
","x: 238.29737854003906
y: 360.865966796875
z: 0.03475265949964523
visibility: 0.9991319179534912
","x: 260.7822265625
y: 452.1716003417969
z: -0.01923353783786297
visibility: 0.8885006308555603
","x: 238.15283203125
y: 452.39031982421875
z: 0.04279019683599472
visibility: 0.9803204536437988
","x: 271.2289123535156
y: 527.816650390625
z: 0.1305907666683197
visibility: 0.9298095703125
","x: 243.51797485351562
y: 533.0638427734375
z: 0.18428508937358856
visibility: 0.9826317429542542
","x: 271.6541748046875
y: 538.7373657226562
z: 0.13755853474140167
visibility: 0.8416110277175903
","x: 247.8728485107422
y: 545.8930053710938
z: 0.19154074788093567
visibility: 0.8470748662948608
","x: 267.78741455078125
y: 551.2318115234375
z: 0.007058936171233654
visibility: 0.948392391204834
","x: 239.49046325683594
y: 556.5260009765625
z: 0.07193869352340698
visibility: 0.976390540599823
",,,,,,,,,,,,,,,,,,,,,,,,,,,,,,,,,,,,,,,,,,
27,"x: 249.72067260742188
y: 191.97828674316406
z: -0.1672920435667038
visibility: 0.9998894333839417
","x: 252.09695434570312
y: 186.2157440185547
z: -0.148601233959198
visibility: 0.9997468590736389
","x: 253.61366271972656
y: 186.2344207763672
z: -0.14860323071479797
visibility: 0.9996729493141174
","x: 255.22567749023438
y: 186.59097290039062
z: -0.14866645634174347
visibility: 0.9997632503509521
","x: 247.9970703125
y: 186.8460235595703
z: -0.13775402307510376
visibility: 0.9998215436935425
","x: 246.47225952148438
y: 187.38760375976562
z: -0.1377343088388443
visibility: 0.9998109340667725
","x: 244.87806701660156
y: 187.98611450195312
z: -0.13767467439174652
visibility: 0.999842643737793
","x: 258.6109313964844
y: 193.0989227294922
z: -0.042992137372493744
visibility: 0.9992247819900513
","x: 242.56033325195312
y: 195.06439208984375
z: 0.0001289394567720592
visibility: 0.9997228980064392
","x: 252.21392822265625
y: 201.60052490234375
z: -0.12899120151996613
visibility: 0.9997396469116211
","x: 247.09814453125
y: 201.5984344482422
z: -0.11478915065526962
visibility: 0.9997862577438354
","x: 270.0050964355469
y: 238.6686553955078
z: -0.013536359183490276
visibility: 0.9994987845420837
","x: 231.87374877929688
y: 241.1849365234375
z: 0.10824962705373764
visibility: 0.9997400641441345
","x: 291.4962158203125
y: 272.533203125
z: -0.07405693829059601
visibility: 0.8500905632972717
","x: 208.20050048828125
y: 261.2026062011719
z: 0.0801333338022232
visibility: 0.981648862361908
","x: 293.6242980957031
y: 213.098876953125
z: -0.259962260723114
visibility: 0.8790656328201294
","x: 209.85011291503906
y: 206.16046142578125
z: -0.04784015566110611
visibility: 0.9803301692008972
","x: 296.4237976074219
y: 200.07818603515625
z: -0.3807538151741028
visibility: 0.8555281758308411
","x: 211.1857452392578
y: 192.92642211914062
z: -0.08198846131563187
visibility: 0.9577634930610657
","x: 293.7464294433594
y: 195.80072021484375
z: -0.2585088014602661
visibility: 0.8586821556091309
","x: 215.03280639648438
y: 191.76995849609375
z: -0.07179611921310425
visibility: 0.9581825733184814
","x: 291.1541748046875
y: 200.6587371826172
z: -0.23314042389392853
visibility: 0.8514835834503174
","x: 216.30950927734375
y: 196.66744995117188
z: -0.05006019398570061
visibility: 0.9459033608436584
","x: 261.37054443359375
y: 353.74029541015625
z: -0.05540427565574646
visibility: 0.9989120960235596
","x: 237.73040771484375
y: 353.9311218261719
z: 0.055451683700084686
visibility: 0.9991639256477356
","x: 259.0828552246094
y: 448.0917053222656
z: -0.05093491077423096
visibility: 0.8989434838294983
","x: 237.6892547607422
y: 449.623291015625
z: 0.05400734394788742
visibility: 0.9795756936073303
","x: 271.66363525390625
y: 528.0635375976562
z: 0.053046517074108124
visibility: 0.9360795617103577
","x: 241.07626342773438
y: 532.71875
z: 0.160686194896698
visibility: 0.9828737378120422
","x: 273.97210693359375
y: 539.0595092773438
z: 0.055504005402326584
visibility: 0.8428100347518921
","x: 245.09840393066406
y: 545.39111328125
z: 0.16448555886745453
visibility: 0.8553850054740906
","x: 265.4747619628906
y: 553.7891845703125
z: -0.08419493585824966
visibility: 0.9524796605110168
","x: 238.15948486328125
y: 556.373046875
z: 0.04355257377028465
visibility: 0.9770986437797546
",,,,,,,,,,,,,,,,,,,,,,"x: 214.44482421875
y: 204.1781005859375
z: 0.0
","x: 218.44268798828125
y: 201.37350463867188
z: -0.0012867288896813989
","x: 221.14625549316406
y: 196.1851348876953
z: -0.0022016826551407576
","x: 222.8482208251953
y: 191.82293701171875
z: -0.0036437709350138903
","x: 224.52520751953125
y: 188.4512481689453
z: -0.004752150736749172
","x: 217.50048828125
y: 185.0083770751953
z: 0.0012766268337145448
","x: 219.15794372558594
y: 177.49566650390625
z: -0.0007299317512661219
","x: 221.1514129638672
y: 174.85861206054688
z: -0.00217562448233366
","x: 222.83621215820312
y: 174.1266632080078
z: -0.0027776663191616535
","x: 215.57122802734375
y: 184.16473388671875
z: 0.00026464692200534046
","x: 217.4528350830078
y: 176.59432983398438
z: -0.0016057775355875492
","x: 219.82647705078125
y: 174.1719970703125
z: -0.00281495857052505
","x: 221.83053588867188
y: 173.82980346679688
z: -0.003327621379867196
","x: 213.97357177734375
y: 184.44898986816406
z: -0.0013233363861218095
","x: 215.80763244628906
y: 177.58209228515625
z: -0.003297773189842701
","x: 217.9705352783203
y: 175.42739868164062
z: -0.00397743284702301
","x: 219.8498077392578
y: 175.23587036132812
z: -0.004084495827555656
","x: 212.6981964111328
y: 185.8718719482422
z: -0.003326665610074997
","x: 214.05162048339844
y: 179.94671630859375
z: -0.004976359661668539
","x: 215.71575927734375
y: 177.5855255126953
z: -0.0054137748666107655
","x: 217.3258819580078
y: 176.93153381347656
z: -0.00536299217492342
"
28,"x: 249.72067260742188
y: 191.97828674316406
z: -0.1672920435667038
visibility: 0.9998894333839417
","x: 252.09695434570312
y: 186.2157440185547
z: -0.148601233959198
visibility: 0.9997468590736389
","x: 253.61366271972656
y: 186.2344207763672
z: -0.14860323071479797
visibility: 0.9996729493141174
","x: 255.22567749023438
y: 186.59097290039062
z: -0.14866645634174347
visibility: 0.9997632503509521
","x: 247.9970703125
y: 186.8460235595703
z: -0.13775402307510376
visibility: 0.9998215436935425
","x: 246.47225952148438
y: 187.38760375976562
z: -0.1377343088388443
visibility: 0.9998109340667725
","x: 244.87806701660156
y: 187.98611450195312
z: -0.13767467439174652
visibility: 0.999842643737793
","x: 258.6109313964844
y: 193.0989227294922
z: -0.042992137372493744
visibility: 0.9992247819900513
","x: 242.56033325195312
y: 195.06439208984375
z: 0.0001289394567720592
visibility: 0.9997228980064392
","x: 252.21392822265625
y: 201.60052490234375
z: -0.12899120151996613
visibility: 0.9997396469116211
","x: 247.09814453125
