uscmakers/ReverseChoreography/data/8_humble_kendrick_lamar.csv
,NOSE,LEFT_EYE_INNER,LEFT_EYE,LEFT_EYE_OUTER,RIGHT_EYE_INNER,RIGHT_EYE,RIGHT_EYE_OUTER,LEFT_EAR,RIGHT_EAR,MOUTH_LEFT,MOUTH_RIGHT,LEFT_SHOULDER,RIGHT_SHOULDER,LEFT_ELBOW,RIGHT_ELBOW,LEFT_WRIST,RIGHT_WRIST,LEFT_PINKY,RIGHT_PINKY,LEFT_INDEX,RIGHT_INDEX,LEFT_THUMB,RIGHT_THUMB,LEFT_HIP,RIGHT_HIP,LEFT_KNEE,RIGHT_KNEE,LEFT_ANKLE,RIGHT_ANKLE,LEFT_HEEL,RIGHT_HEEL,LEFT_FOOT_INDEX,RIGHT_FOOT_INDEX,WRIST2,THUMB_CPC2,THUMB_MCP2,THUMB_IP2,THUMB_TIP2,INDEX_FINGER_MCP2,INDEX_FINGER_PIP2,INDEX_FINGER_DIP2,INDEX_FINGER_TIP2,MIDDLE_FINGER_MCP2,MIDDLE_FINGER_PIP2,MIDDLE_FINGER_DIP2,MIDDLE_FINGER_TIP2,RING_FINGER_PIP2,RING_FINGER_DIP2,RING_FINGER_TIP2,RING_FINGER_MCP2,PINKY_MCP2,PINKY_PIP2,PINKY_DIP2,PINKY_TIP2,WRIST,THUMB_CPC,THUMB_MCP,THUMB_IP,THUMB_TIP,INDEX_FINGER_MCP,INDEX_FINGER_PIP,INDEX_FINGER_DIP,INDEX_FINGER_TIP,MIDDLE_FINGER_MCP,MIDDLE_FINGER_PIP,MIDDLE_FINGER_DIP,MIDDLE_FINGER_TIP,RING_FINGER_PIP,RING_FINGER_DIP,RING_FINGER_TIP,RING_FINGER_MCP,PINKY_MCP,PINKY_PIP,PINKY_DIP,PINKY_TIP
0,"x: 235.83409118652344
y: 220.1139678955078
z: -0.2627096474170685
visibility: 0.99997878074646
","x: 238.92726135253906
y: 212.76808166503906
z: -0.2489650696516037
visibility: 0.9999396800994873
","x: 240.83370971679688
y: 212.5862274169922
z: -0.24903002381324768
visibility: 0.9999454021453857
","x: 242.77587890625
y: 212.2450408935547
z: -0.249045729637146
visibility: 0.9999467134475708
","x: 233.99290466308594
y: 213.38705444335938
z: -0.23971660435199738
visibility: 0.9999080896377563
","x: 232.36148071289062
y: 213.66998291015625
z: -0.23967358469963074
visibility: 0.9998780488967896
","x: 231.07571411132812
y: 213.912841796875
z: -0.23969678580760956
visibility: 0.9998552799224854
","x: 245.90277099609375
y: 215.9922637939453
z: -0.15359057486057281
visibility: 0.9998859167098999
","x: 230.83319091796875
y: 218.1635284423828
z: -0.1094776839017868
visibility: 0.9997329115867615
","x: 239.60714721679688
y: 228.9131317138672
z: -0.22635778784751892
visibility: 0.9999803304672241
","x: 233.48611450195312
y: 229.25071716308594
z: -0.2138224095106125
visibility: 0.9999521970748901
","x: 260.5744323730469
y: 262.1309814453125
z: -0.11992178112268448
visibility: 0.9999922513961792
","x: 223.23048400878906
y: 262.424072265625
z: 0.0032663356978446245
visibility: 0.9999485015869141
","x: 264.3246765136719
y: 322.99591064453125
z: -0.234619140625
visibility: 0.9955546259880066
","x: 216.29222106933594
y: 319.412353515625
z: 0.08352811634540558
visibility: 0.8768312931060791
","x: 247.6411895751953
y: 299.60711669921875
z: -0.4692566990852356
visibility: 0.99648118019104
","x: 209.54852294921875
y: 364.86798095703125
z: -0.013097971677780151
visibility: 0.9414291381835938
","x: 242.3682098388672
y: 291.3283996582031
z: -0.5208808183670044
visibility: 0.992143988609314
","x: 206.09356689453125
y: 376.6980285644531
z: -0.03128570690751076
visibility: 0.9041866660118103
","x: 242.54896545410156
y: 285.75823974609375
z: -0.518907904624939
visibility: 0.9920778870582581
","x: 206.37657165527344
y: 377.39306640625
z: -0.0689150020480156
visibility: 0.906493067741394
","x: 243.89439392089844
y: 287.7685241699219
z: -0.4725131392478943
visibility: 0.984001636505127
","x: 208.21934509277344
y: 373.79754638671875
z: -0.03025098517537117
visibility: 0.8906260132789612
","x: 249.32315063476562
y: 375.63153076171875
z: -0.038233205676078796
visibility: 0.9999635219573975
","x: 225.973388671875
y: 371.2120361328125
z: 0.0380895771086216
visibility: 0.999891996383667
","x: 246.881591796875
y: 460.93609619140625
z: -0.03366473689675331
visibility: 0.9931071400642395
","x: 219.46934509277344
y: 449.7510070800781
z: 0.07825510948896408
visibility: 0.9873993396759033
","x: 247.2425994873047
y: 529.3314208984375
z: 0.14843115210533142
visibility: 0.9923978447914124
","x: 220.16741943359375
y: 500.8369140625
z: 0.39059770107269287
visibility: 0.9481692314147949
","x: 247.23446655273438
y: 538.7171020507812
z: 0.16075435280799866
visibility: 0.8579421043395996
","x: 223.74386596679688
y: 511.55828857421875
z: 0.41768330335617065
visibility: 0.8116961121559143
","x: 246.58718872070312
y: 549.4457397460938
z: 0.041206881403923035
visibility: 0.987210750579834
","x: 202.8933563232422
y: 517.5733032226562
z: 0.34990984201431274
visibility: 0.9561266899108887
",,,,,,,,,,,,,,,,,,,,,,,,,,,,,,,,,,,,,,,,,,
1,"x: 207.44329833984375
y: 214.40005493164062
z: -0.24051518738269806
visibility: 0.9999790191650391
","x: 210.9582977294922
y: 206.9246063232422
z: -0.2265600860118866
visibility: 0.9999409914016724
","x: 212.87924194335938
y: 207.15902709960938
z: -0.22661523520946503
visibility: 0.9999463558197021
","x: 214.6263427734375
y: 207.49713134765625
z: -0.2266722023487091
visibility: 0.999947726726532
","x: 205.4998016357422
y: 206.24864196777344
z: -0.21630176901817322
visibility: 0.9999094009399414
","x: 203.76437377929688
y: 206.064697265625
z: -0.21626536548137665
visibility: 0.9998801946640015
","x: 202.56553649902344
y: 205.96649169921875
z: -0.21618762612342834
visibility: 0.999859094619751
","x: 216.53622436523438
y: 212.34619140625
z: -0.13660190999507904
visibility: 0.9998950958251953
","x: 201.1431427001953
y: 210.6773223876953
z: -0.08902827650308609
visibility: 0.9997352361679077
","x: 210.32818603515625
y: 224.38516235351562
z: -0.20732514560222626
visibility: 0.999981164932251
","x: 203.97113037109375
y: 223.7751922607422
z: -0.19379206001758575
visibility: 0.9999538064002991
","x: 226.51052856445312
y: 253.80545043945312
z: -0.14070247113704681
visibility: 0.9999926090240479
","x: 193.18418884277344
y: 258.73040771484375
z: 0.05330126732587814
visibility: 0.9999445080757141
","x: 255.95555114746094
y: 280.85028076171875
z: -0.27012723684310913
visibility: 0.9959403872489929
","x: 181.1472930908203
y: 305.6875915527344
z: 0.1414305865764618
visibility: 0.8766546249389648
","x: 228.98045349121094
y: 292.22906494140625
z: -0.43954044580459595
visibility: 0.996197521686554
","x: 159.40989685058594
y: 333.49432373046875
z: 0.08464216440916061
visibility: 0.9431160092353821
","x: 224.48355102539062
y: 296.53302001953125
z: -0.48027172684669495
visibility: 0.9901924133300781
","x: 152.54434204101562
y: 340.7627868652344
z: 0.08543092012405396
visibility: 0.9073461890220642
","x: 221.30152893066406
y: 294.6664733886719
z: -0.46856266260147095
visibility: 0.9899489879608154
","x: 151.4799346923828
y: 340.5600280761719
z: 0.048649340867996216
visibility: 0.9100435376167297
","x: 221.80792236328125
y: 291.1947021484375
z: -0.4369080662727356
visibility: 0.9813095927238464
","x: 153.49185180664062
y: 339.3402404785156
z: 0.0692048966884613
visibility: 0.8947131037712097
","x: 220.109619140625
y: 367.7827453613281
z: -0.0668085590004921
visibility: 0.9999637007713318
","x: 199.55104064941406
y: 367.0790100097656
z: 0.06672616302967072
visibility: 0.9998971819877625
","x: 199.6563720703125
y: 433.7989501953125
z: -0.28634005784988403
visibility: 0.9924374222755432
","x: 197.62802124023438
y: 449.7451477050781
z: 0.025648748502135277
visibility: 0.9803663492202759
","x: 229.45510864257812
y: 437.4795837402344
z: -0.014915804378688335
visibility: 0.9810713529586792
","x: 202.2003936767578
y: 531.3511962890625
z: 0.1325199455022812
visibility: 0.9505484700202942
","x: 235.06011962890625
y: 429.6688537597656
z: 0.012459153309464455
visibility: 0.8522640466690063
","x: 205.64974975585938
y: 545.5537109375
z: 0.13686487078666687
visibility: 0.8227567076683044
","x: 224.99853515625
y: 475.9407958984375
z: -0.01090926956385374
visibility: 0.9799533486366272
","x: 194.10037231445312
y: 555.5433349609375
z: 0.05978340655565262
visibility: 0.9561038613319397
",,,,,,,,,,,,,,,,,,,,,,,,,,,,,,,,,,,,,,,,,,
2,"x: 204.72409057617188
y: 207.90243530273438
z: -0.23770248889923096
visibility: 0.9999797940254211
","x: 207.69369506835938
y: 202.11053466796875
z: -0.22146761417388916
visibility: 0.9999446868896484
","x: 209.29959106445312
y: 202.59365844726562
z: -0.22152826189994812
visibility: 0.9999494552612305
","x: 210.9051513671875
y: 203.1470489501953
z: -0.22161419689655304
visibility: 0.9999508857727051
","x: 203.00265502929688
y: 200.78469848632812
z: -0.21223866939544678
visibility: 0.9999153017997742
","x: 201.3433837890625
y: 200.55227661132812
z: -0.21221959590911865
visibility: 0.9998877644538879
","x: 199.46200561523438
y: 200.54354858398438
z: -0.21216663718223572
visibility: 0.9998680949211121
","x: 213.1556396484375
y: 207.73150634765625
z: -0.12454859167337418
visibility: 0.999904215335846
","x: 197.89544677734375
y: 205.077392578125
z: -0.08179318904876709
visibility: 0.9997523427009583
","x: 207.0872039794922
y: 218.14202880859375
z: -0.2022179365158081
visibility: 0.9999825358390808
","x: 201.3666534423828
y: 217.04351806640625
z: -0.18996763229370117
visibility: 0.9999566674232483
","x: 222.6848907470703
y: 247.6431427001953
z: -0.1356484591960907
visibility: 0.9999932050704956
","x: 190.8697052001953
y: 254.53897094726562
z: 0.06558769941329956
visibility: 0.9999380111694336
","x: 249.09844970703125
y: 284.38128662109375
z: -0.24338436126708984
visibility: 0.9963144063949585
","x: 177.34835815429688
y: 303.1783752441406
z: 0.1439192295074463
visibility: 0.8759058117866516
","x: 221.77198791503906
y: 293.229248046875
z: -0.406716912984848
visibility: 0.9963874220848083
","x: 156.9252471923828
y: 330.6971740722656
z: 0.04743022099137306
visibility: 0.9450929164886475
","x: 214.7929229736328
y: 302.83416748046875
z: -0.45580369234085083
visibility: 0.9905332326889038
","x: 149.91207885742188
y: 336.61566162109375
z: 0.03719479590654373
visibility: 0.9109589457511902
","x: 211.70233154296875
y: 297.4101867675781
z: -0.4433198571205139
visibility: 0.9903002381324768
","x: 148.73348999023438
y: 336.2115783691406
z: -0.003078930312767625
visibility: 0.9140152931213379
","x: 212.5010986328125
y: 294.4864196777344
z: -0.40350255370140076
visibility: 0.9819846749305725
","x: 150.90768432617188
y: 335.15069580078125
z: 0.02922620251774788
visibility: 0.8991885781288147
","x: 216.9600372314453
y: 360.88916015625
z: -0.08405792713165283
visibility: 0.9999637603759766
","x: 197.5804443359375
y: 362.72320556640625
z: 0.08415810018777847
visibility: 0.9998799562454224
","x: 194.023681640625
y: 427.08001708984375
z: -0.29582327604293823
visibility: 0.9926389455795288
","x: 197.8835906982422
y: 441.56109619140625
z: 0.09640625864267349
visibility: 0.9381142258644104
","x: 206.814697265625
y: 456.0483093261719
z: -0.18159310519695282
visibility: 0.982237696647644
","x: 207.96798706054688
y: 522.8181762695312
z: 0.2610430121421814
visibility: 0.942417323589325
","x: 214.01953125
y: 460.268798828125
z: -0.17287814617156982
visibility: 0.8642333745956421
","x: 210.9234619140625
y: 534.7239990234375
z: 0.27216196060180664
visibility: 0.8283230662345886
","x: 196.8260498046875
y: 520.0590209960938
z: -0.26747196912765503
visibility: 0.9808359742164612
","x: 196.00201416015625
y: 546.3228759765625
z: 0.19145455956459045
visibility: 0.95028156042099
",,,,,,,,,,,,,,,,,,,,,,,,,,,,,,,,,,,,,,,,,,
3,"x: 204.3406982421875
y: 207.4905242919922
z: -0.23221036791801453
visibility: 0.9999813437461853
","x: 207.42160034179688
y: 201.1072540283203
z: -0.2170606404542923
visibility: 0.99994957447052
","x: 209.5117645263672
y: 201.482666015625
z: -0.21716484427452087
visibility: 0.9999539852142334
","x: 211.25498962402344
y: 201.84446716308594
z: -0.21725888550281525
visibility: 0.9999552965164185
","x: 202.382080078125
y: 200.0478973388672
z: -0.20804233849048615
visibility: 0.9999228715896606
","x: 200.9984893798828
y: 199.81690979003906
z: -0.20802989602088928
visibility: 0.9998976588249207
","x: 199.3122100830078
y: 199.65182495117188
z: -0.20801565051078796
visibility: 0.9998794794082642
","x: 213.6265869140625
y: 206.9009552001953
z: -0.1173967495560646
visibility: 0.9999135136604309
","x: 197.66026306152344
y: 204.0504150390625
z: -0.07659585773944855
visibility: 0.9997749328613281
","x: 206.9158477783203
y: 218.48590087890625
z: -0.19450990855693817
visibility: 0.9999840259552002
","x: 201.32479858398438
y: 217.13491821289062
z: -0.18285652995109558
visibility: 0.9999602437019348
","x: 223.30889892578125
y: 248.7827911376953
z: -0.1174752339720726
visibility: 0.9999937415122986
","x: 190.36900329589844
y: 255.4263916015625
z: 0.0753384381532669
visibility: 0.999937117099762
","x: 235.6614532470703
y: 292.97784423828125
z: -0.24325859546661377
visibility: 0.9966173768043518
","x: 178.99949645996094
y: 306.45355224609375
z: 0.15897604823112488
visibility: 0.8705564141273499
","x: 216.18878173828125
y: 290.7018737792969
z: -0.4191158413887024
visibility: 0.9965222477912903
","x: 157.52366638183594
y: 338.0383605957031
z: 0.06901625543832779
visibility: 0.9432077407836914
","x: 209.96803283691406
y: 287.63800048828125
z: -0.469637930393219
visibility: 0.9908324480056763
","x: 150.5157470703125
y: 345.4200439453125
z: 0.06068536639213562
visibility: 0.9093631505966187
","x: 209.7040252685547
y: 280.5664978027344
z: -0.45167508721351624
visibility: 0.9905925393104553
","x: 149.46109008789062
y: 345.0419921875
z: 0.019715888425707817
visibility: 0.912990927696228
","x: 210.84136962890625
y: 281.2005615234375
z: -0.4141713082790375
visibility: 0.9824250340461731
","x: 151.4608154296875
y: 343.61077880859375
z: 0.050024695694446564
visibility: 0.8978546857833862
","x: 214.98577880859375
y: 360.79730224609375
z: -0.07673624157905579
visibility: 0.999962329864502
","x: 195.4109344482422
y: 361.4856262207031
z: 0.07687585055828094
visibility: 0.9998607039451599
","x: 195.9898681640625
y: 435.9768981933594
z: -0.25760310888290405
visibility: 0.9896685481071472
","x: 193.1745147705078
y: 442.0819091796875
z: 0.055518437176942825
visibility: 0.9041351079940796
","x: 191.4911651611328
y: 520.1819458007812
z: -0.26384082436561584
visibility: 0.9814332127571106
","x: 196.5322723388672
y: 529.4127807617188
z: 0.12381098419427872
visibility: 0.9216700196266174
","x: 195.0220489501953
y: 544.2012939453125
z: -0.27026262879371643
visibility: 0.8705337643623352
","x: 200.4455108642578
y: 546.409912109375
z: 0.1228984147310257
visibility: 0.8161866664886475
","x: 176.39614868164062
y: 537.0933837890625
z: -0.40010467171669006
visibility: 0.9804561734199524
","x: 181.04037475585938
y: 544.7540893554688
z: 0.020844003185629845
visibility: 0.9345849752426147
",,,,,,,,,,,,,,,,,,,,,,,,,,,,,,,,,,,,,,,,,,
4,"x: 204.9530029296875
y: 211.1549072265625
z: -0.23853528499603271
visibility: 0.9999830722808838
","x: 208.07614135742188
y: 204.54678344726562
z: -0.2217804193496704
visibility: 0.9999542832374573
","x: 209.83255004882812
y: 205.0274658203125
z: -0.22186140716075897
visibility: 0.9999582767486572
","x: 211.5723419189453
y: 205.6044158935547
z: -0.22193506360054016
visibility: 0.9999594688415527
","x: 202.97467041015625
y: 202.71588134765625
z: -0.21412083506584167
visibility: 0.999930202960968
","x: 201.23171997070312
y: 202.06185913085938
z: -0.2141040861606598
visibility: 0.9999072551727295
","x: 199.95452880859375
y: 201.20089721679688
z: -0.21408267319202423
visibility: 0.9998906850814819
","x: 213.50852966308594
y: 210.92276000976562
z: -0.10813562572002411
visibility: 0.9999218583106995
","x: 197.643310546875
y: 204.979248046875
z: -0.07829569280147552
visibility: 0.999796450138092
","x: 207.56365966796875
y: 220.77084350585938
z: -0.19810061156749725
visibility: 0.9999854564666748
","x: 201.21533203125
y: 219.15509033203125
z: -0.1884830743074417
visibility: 0.9999638199806213
","x: 223.86428833007812
y: 249.806884765625
z: -0.08917181193828583
visibility: 0.9999942183494568
","x: 187.6024169921875
y: 257.75128173828125
z: 0.061233680695295334
visibility: 0.9999393224716187
","x: 234.35501098632812
y: 308.86602783203125
z: -0.23166337609291077
visibility: 0.9968093037605286
","x: 177.3202667236328
y: 314.76104736328125
z: 0.13626869022846222
visibility: 0.8718259930610657
","x: 216.6651611328125
y: 289.5364990234375
z: -0.4307350218296051
visibility: 0.9965718388557434
","x: 155.1098175048828
y: 348.30560302734375
z: 0.045054368674755096
visibility: 0.9439100623130798
","x: 211.19580078125
y: 281.80487060546875
z: -0.4924333095550537
visibility: 0.9909477829933167
","x: 147.5932159423828
y: 356.74188232421875
z: 0.033577535301446915
visibility: 0.9105505347251892
","x: 211.32147216796875
y: 275.2952880859375
z: -0.4727938771247864
visibility: 0.9907147288322449
","x: 146.30718994140625
y: 354.3914489746094
z: -0.0053029670380055904
visibility: 0.9146978259086609
","x: 212.4821319580078
y: 277.53564453125
z: -0.4282737672328949
visibility: 0.9825785756111145
","x: 148.2295684814453
y: 353.5342712402344
z: 0.027042141184210777
visibility: 0.9000182151794434
","x: 214.57949829101562
y: 361.4966125488281
z: -0.06908054649829865
visibility: 0.9999640583992004
","x: 193.73377990722656
y: 363.20843505859375
z: 0.0691794604063034
visibility: 0.999862551689148
","x: 197.337158203125
y: 438.0417175292969
z: -0.22908207774162292
visibility: 0.9880449175834656
","x: 191.541015625
y: 445.5057373046875
z: 0.08686381578445435
visibility: 0.8802480697631836
","x: 189.32769775390625
y: 536.3567504882812
z: -0.21080803871154785
visibility: 0.9820346832275391
","x: 200.18678283691406
y: 523.1683959960938
z: 0.2416488379240036
visibility: 0.9085482358932495
","x: 190.7279510498047
y: 554.37841796875
z: -0.21456289291381836
visibility: 0.8761220574378967
","x: 207.36753845214844
y: 541.2879028320312
z: 0.2548780143260956
visibility: 0.8110271692276001
","x: 175.22715759277344
y: 547.4427490234375
z: -0.3508383631706238
visibility: 0.9807252287864685
","x: 187.7162628173828
y: 544.2986450195312
z: 0.1699765920639038
visibility: 0.9238147139549255
","x: 216.3475341796875
y: 289.4242248535156
z: 0.0
","x: 211.4929656982422
y: 284.5169372558594
z: 0.0021242047660052776
","x: 208.7461700439453
y: 278.85888671875
z: 0.0020794717129319906
","x: 206.72555541992188
y: 275.26092529296875
z: 0.0008919962565414608
","x: 204.49021911621094
y: 273.0177001953125
z: -0.00014861550880596042
","x: 209.4322052001953
y: 269.81158447265625
z: 0.0034237124491482973
","x: 207.55433654785156
y: 263.8007507324219
z: 0.0015437935944646597
","x: 206.1469268798828
y: 260.7695617675781
z: 0.00019268256437499076
","x: 204.79925537109375
y: 258.1845703125
z: -0.0006288900622166693
","x: 210.48065185546875
y: 270.0200500488281
z: 0.00013645400758832693
","x: 208.65847778320312
y: 263.59796142578125
z: -0.0016132021555677056
","x: 207.28155517578125
y: 260.1987609863281
z: -0.002409182256087661
","x: 205.90863037109375
y: 257.287353515625
z: -0.0030089342035353184
","x: 211.58726501464844
y: 271.6204833984375
z: -0.003540756180882454
","x: 210.43943786621094
y: 265.58135986328125
z: -0.005400987342000008
","x: 209.29786682128906
y: 261.9067687988281
z: -0.005769184324890375
","x: 208.18142700195312
y: 258.99884033203125
z: -0.00604008324444294
","x: 212.66810607910156
y: 274.67083740234375
z: -0.007357729598879814
","x: 212.36537170410156
y: 270.0614013671875
z: -0.008724077604711056
","x: 211.62677001953125
y: 267.0068664550781
z: -0.008883321657776833
","x: 210.78036499023438
y: 264.5776672363281
z: -0.009028071537613869
",,,,,,,,,,,,,,,,,,,,,
5,"x: 204.9530029296875
y: 211.1549072265625
z: -0.23853528499603271
visibility: 0.9999830722808838
","x: 208.07614135742188
y: 204.54678344726562
z: -0.2217804193496704
visibility: 0.9999542832374573
","x: 209.83255004882812
y: 205.0274658203125
z: -0.22186140716075897
visibility: 0.9999582767486572
","x: 211.5723419189453
y: 205.6044158935547
z: -0.22193506360054016
visibility: 0.9999594688415527
","x: 202.97467041015625
y: 202.71588134765625
z: -0.21412083506584167
visibility: 0.999930202960968
","x: 201.23171997070312
y: 202.06185913085938
z: -0.2141040861606598
visibility: 0.9999072551727295
","x: 199.95452880859375
y: 201.20089721679688
z: -0.21408267319202423
visibility: 0.9998906850814819
","x: 213.50852966308594
y: 210.92276000976562
z: -0.10813562572002411
visibility: 0.9999218583106995
","x: 197.643310546875
y: 204.979248046875
z: -0.07829569280147552
visibility: 0.999796450138092
","x: 207.56365966796875
y: 220.77084350585938
z: -0.19810061156749725
visibility: 0.9999854564666748
","x: 201.21533203125
y: 219.15509033203125
z: -0.1884830743074417
visibility: 0.9999638199806213
","x: 223.86428833007812
y: 249.806884765625
z: -0.08917181193828583
visibility: 0.9999942183494568
","x: 187.6024169921875
y: 257.75128173828125
z: 0.061233680695295334
visibility: 0.9999393224716187
","x: 234.35501098632812
y: 308.86602783203125
z: -0.23166337609291077
visibility: 0.9968093037605286
","x: 177.3202667236328
y: 314.76104736328125
z: 0.13626869022846222
visibility: 0.8718259930610657
","x: 216.6651611328125
y: 289.5364990234375
z: -0.4307350218296051
visibility: 0.9965718388557434
","x: 155.1098175048828
y: 348.30560302734375
z: 0.045054368674755096
visibility: 0.9439100623130798
","x: 211.19580078125
y: 281.80487060546875
z: -0.4924333095550537
visibility: 0.9909477829933167
","x: 147.5932159423828
y: 356.74188232421875
z: 0.033577535301446915
visibility: 0.9105505347251892
","x: 211.32147216796875
y: 275.2952880859375
z: -0.4727938771247864
visibility: 0.9907147288322449
","x: 146.30718994140625
y: 354.3914489746094
z: -0.0053029670380055904
visibility: 0.9146978259086609
","x: 212.4821319580078
y: 277.53564453125
z: -0.4282737672328949
visibility: 0.9825785756111145
","x: 148.2295684814453
y: 353.5342712402344
z: 0.027042141184210777
visibility: 0.9000182151794434
","x: 214.57949829101562
y: 361.4966125488281
z: -0.06908054649829865
visibility: 0.9999640583992004
","x: 193.73377990722656
y: 363.20843505859375
z: 0.0691794604063034
visibility: 0.999862551689148
","x: 197.337158203125
y: 438.0417175292969
z: -0.22908207774162292
visibility: 0.9880449175834656
","x: 191.541015625
y: 445.5057373046875
z: 0.08686381578445435
visibility: 0.8802480697631836
","x: 189.32769775390625
y: 536.3567504882812
z: -0.21080803871154785
visibility: 0.9820346832275391
","x: 200.18678283691406
y: 523.1683959960938
z: 0.2416488379240036
visibility: 0.9085482358932495
","x: 190.7279510498047
y: 554.37841796875
z: -0.21456289291381836
visibility: 0.8761220574378967
","x: 207.36753845214844
y: 541.2879028320312
z: 0.2548780143260956
visibility: 0.8110271692276001
","x: 175.22715759277344
y: 547.4427490234375
z: -0.3508383631706238
visibility: 0.9807252287864685
","x: 187.7162628173828
y: 544.2986450195312
z: 0.1699765920639038
visibility: 0.9238147139549255
","x: 216.3475341796875
y: 289.4242248535156
z: 0.0
","x: 211.4929656982422
y: 284.5169372558594
z: 0.0021242047660052776
","x: 208.7461700439453
y: 278.85888671875
z: 0.0020794717129319906
","x: 206.72555541992188
y: 275.26092529296875
z: 0.0008919962565414608
","x: 204.49021911621094
y: 273.0177001953125
z: -0.00014861550880596042
","x: 209.4322052001953
y: 269.81158447265625
z: 0.0034237124491482973
","x: 207.55433654785156
y: 263.8007507324219
z: 0.0015437935944646597
","x: 206.1469268798828
y: 260.7695617675781
z: 0.00019268256437499076
","x: 204.79925537109375
y: 258.1845703125
z: -0.0006288900622166693
","x: 210.48065185546875
y: 270.0200500488281
z: 0.00013645400758832693
","x: 208.65847778320312
y: 263.59796142578125
z: -0.0016132021555677056
","x: 207.28155517578125
y: 260.1987609863281
z: -0.002409182256087661
","x: 205.90863037109375
y: 257.287353515625
z: -0.0030089342035353184
","x: 211.58726501464844
y: 271.6204833984375
z: -0.003540756180882454
","x: 210.43943786621094
y: 265.58135986328125
z: -0.005400987342000008
","x: 209.29786682128906
y: 261.9067687988281
z: -0.005769184324890375
","x: 208.18142700195312
y: 258.99884033203125
z: -0.00604008324444294
","x: 212.66810607910156
y: 274.67083740234375
z: -0.007357729598879814
","x: 212.36537170410156
y: 270.0614013671875
z: -0.008724077604711056
","x: 211.62677001953125
y: 267.0068664550781
z: -0.008883321657776833
","x: 210.78036499023438
y: 264.5776672363281
z: -0.009028071537613869
",,,,,,,,,,,,,,,,,,,,,
6,"x: 206.0359649658203
y: 209.52552795410156
z: -0.338807076215744
visibility: 0.9999805092811584
","x: 209.1570587158203
y: 202.86929321289062
z: -0.32309490442276
visibility: 0.999952495098114
","x: 210.88180541992188
y: 203.13706970214844
z: -0.3231905400753021
visibility: 0.9999572038650513
","x: 212.1199493408203
y: 203.4062957763672
z: -0.3232956826686859
visibility: 0.9999580383300781
","x: 203.73170471191406
y: 201.69761657714844
z: -0.31694385409355164
visibility: 0.9999287128448486
","x: 202.0166473388672
y: 201.3990478515625
z: -0.31694576144218445
visibility: 0.9999057650566101
","x: 200.37387084960938
y: 201.01995849609375
z: -0.31695324182510376
visibility: 0.9998887777328491
","x: 214.3677215576172
y: 208.18975830078125
z: -0.20676735043525696
visibility: 0.9999260902404785
","x: 198.55970764160156
y: 204.92788696289062
z: -0.1771468222141266
visibility: 0.9998012185096741
","x: 208.62872314453125
y: 219.25393676757812
z: -0.29332754015922546
visibility: 0.9999847412109375
","x: 202.10464477539062
y: 218.4752197265625
z: -0.28506559133529663
visibility: 0.9999628663063049
","x: 224.9251251220703
y: 249.97027587890625
z: -0.1671563684940338
visibility: 0.9999938011169434
","x: 188.51177978515625
y: 254.6809539794922
z: -0.017232272773981094
visibility: 0.9999316930770874
","x: 237.98655700683594
y: 308.2452087402344
z: -0.2975711524486542
visibility: 0.9970514178276062
","x: 177.063232421875
y: 313.5660705566406
z: 0.08247403800487518
visibility: 0.8727757334709167
","x: 217.7393798828125
y: 289.32177734375
z: -0.5261873006820679
visibility: 0.9966335296630859
","x: 157.36451721191406
y: 347.9277038574219
z: -0.0203830786049366
visibility: 0.9446020126342773
","x: 210.91928100585938
y: 283.701416015625
z: -0.5812849998474121
visibility: 0.9909690618515015
","x: 151.1058807373047
y: 357.3760986328125
z: -0.03763299435377121
visibility: 0.9118327498435974
","x: 209.63870239257812
y: 277.7045593261719
z: -0.575952410697937
visibility: 0.9907219409942627
","x: 150.08181762695312
y: 355.8560485839844
z: -0.08480040729045868
visibility: 0.9164695739746094
","x: 211.5858154296875
y: 279.230224609375
z: -0.5281093716621399
visibility: 0.9825516939163208
","x: 151.94790649414062
y: 354.0115051269531
z: -0.0418727770447731
visibility: 0.902217447757721
","x: 215.46897888183594
y: 362.11962890625
z: -0.06542443484067917
visibility: 0.9998527765274048
","x: 193.566162109375
y: 363.0532531738281
z: 0.0654723048210144
visibility: 0.9996745586395264
","x: 203.67019653320312
y: 439.5682373046875
z: -0.09921588003635406
visibility: 0.9827996492385864
","x: 196.8072052001953
y: 447.85955810546875
z: 0.02158830687403679
visibility: 0.8527777791023254
","x: 202.87225341796875
y: 540.3231201171875
z: -0.061438627541065216
visibility: 0.9765813946723938
","x: 202.72216796875
y: 536.3184814453125
z: 0.11567175388336182
visibility: 0.8886157274246216
","x: 204.19789123535156
y: 555.80224609375
z: -0.09403347223997116
visibility: 0.8537721037864685
","x: 205.51409912109375
y: 552.4669799804688
z: 0.1175096184015274
visibility: 0.7892483472824097
","x: 192.52139282226562
y: 554.2408447265625
z: -0.19458617269992828
visibility: 0.9729849696159363
","x: 189.91046142578125
y: 551.3455810546875
z: -0.007475045509636402
visibility: 0.908255398273468
",,,,,,,,,,,,,,,,,,,,,,,,,,,,,,,,,,,,,,,,,,
7,"x: 207.30007934570312
y: 209.3897705078125
z: -0.27932146191596985
visibility: 0.9999802708625793
","x: 210.1911163330078
y: 202.5853271484375
z: -0.26281091570854187
visibility: 0.999950647354126
","x: 211.65060424804688
y: 202.9315185546875
z: -0.2628284990787506
visibility: 0.9999544620513916
","x: 212.90098571777344
y: 203.31541442871094
z: -0.2628028690814972
visibility: 0.9999551773071289
","x: 205.21881103515625
y: 201.6350555419922
z: -0.26940658688545227
visibility: 0.9999280571937561
","x: 203.33802795410156
y: 201.4755401611328
z: -0.2694263458251953
visibility: 0.9999056458473206
","x: 201.72349548339844
y: 201.290283203125
z: -0.2693665623664856
visibility: 0.9998911619186401
","x: 215.2758026123047
y: 207.87518310546875
z: -0.1424160897731781
visibility: 0.9999270439147949
","x: 199.2795867919922
y: 205.16384887695312
z: -0.15008588135242462
visibility: 0.9997990727424622
","x: 209.79739379882812
y: 218.82240295410156
z: -0.2308945655822754
visibility: 0.9999844431877136
","x: 203.37643432617188
y: 217.96725463867188
z: -0.2359822690486908
visibility: 0.9999638199806213
","x: 225.78414916992188
y: 249.81143188476562
z: -0.0867374911904335
visibility: 0.9999929666519165
","x: 188.19166564941406
y: 250.0296173095703
z: 0.0017088486347347498
visibility: 0.9999244213104248
","x: 240.8387908935547
y: 296.02734375
z: -0.11039042472839355
visibility: 0.9970995187759399
","x: 177.17022705078125
y: 298.84783935546875
z: 0.06989961117506027
visibility: 0.8804391622543335
","x: 221.72169494628906
y: 314.0146484375
z: -0.27567848563194275
visibility: 0.9964420795440674
","x: 166.81478881835938
y: 332.82275390625
z: -0.061976008117198944
visibility: 0.9474366903305054
","x: 216.47996520996094
y: 332.10003662109375
z: -0.32217440009117126
visibility: 0.9904097318649292
","x: 161.59646606445312
y: 348.1325988769531
z: -0.09368585795164108
visibility: 0.916083812713623
","x: 214.5726776123047
y: 328.99603271484375
z: -0.3416488766670227
visibility: 0.9902040958404541
","x: 160.73716735839844
y: 347.9645080566406
z: -0.1290564239025116
visibility: 0.9206622838973999
","x: 215.2179718017578
y: 322.98480224609375
z: -0.28547149896621704
visibility: 0.9820215106010437
","x: 162.6195526123047
y: 343.7953186035156
z: -0.07871191948652267
visibility: 0.9070255756378174
","x: 219.0746307373047
y: 361.75640869140625
z: -0.036605916917324066
visibility: 0.9997330904006958
","x: 195.5955810546875
y: 363.3731689453125
z: 0.036666177213191986
visibility: 0.9996079802513123
","x: 209.6581268310547
y: 440.731201171875
z: -0.05004710704088211
visibility: 0.9837421774864197
","x: 196.99722290039062
y: 453.43560791015625
z: 0.001715444610454142
visibility: 0.8653597831726074
","x: 219.20840454101562
y: 529.2628173828125
z: 0.12655429542064667
visibility: 0.9773275256156921
","x: 199.7301483154297
y: 536.35302734375
z: 0.13168063759803772
visibility: 0.898501455783844
","x: 222.80368041992188
y: 535.8491821289062
z: 0.13530683517456055
visibility: 0.8433605432510376
","x: 202.99842834472656
y: 552.176513671875
z: 0.13585829734802246
visibility: 0.8015719056129456
","x: 212.63394165039062
y: 550.9031982421875
z: 0.007769094314426184
visibility: 0.9733667969703674
","x: 191.98472595214844
y: 558.8646850585938
z: 0.00634283060207963
visibility: 0.9154587388038635
",,,,,,,,,,,,,,,,,,,,,,,,,,,,,,,,,,,,,,,,,,
8,"x: 209.4048614501953
y: 209.83636474609375
z: -0.30790266394615173
visibility: 0.9999818801879883
","x: 211.7681427001953
y: 203.08729553222656
z: -0.2873258888721466
visibility: 0.9999548196792603
","x: 213.3673095703125
y: 203.35218811035156
z: -0.2873561680316925
visibility: 0.9999580383300781
","x: 214.7877960205078
y: 203.57882690429688
z: -0.28737473487854004
visibility: 0.9999585747718811
","x: 207.37889099121094
y: 202.11143493652344
z: -0.29040762782096863
visibility: 0.9999344944953918
","x: 205.60391235351562
y: 201.8500518798828
z: -0.29045039415359497
visibility: 0.9999141693115234
","x: 203.95582580566406
y: 201.62757873535156
z: -0.2904132604598999
visibility: 0.9999010562896729
","x: 216.893798828125
y: 208.09628295898438
z: -0.15509459376335144
visibility: 0.999933123588562
","x: 201.13453674316406
y: 205.79978942871094
z: -0.16939593851566315
visibility: 0.9998155236244202
","x: 211.52423095703125
y: 219.32949829101562
z: -0.2582206428050995
visibility: 0.9999852776527405
","x: 205.49163818359375
y: 218.14430236816406
z: -0.26271042227745056
visibility: 0.9999665021896362
","x: 227.68603515625
y: 250.5181121826172
z: -0.07258211076259613
visibility: 0.9999891519546509
","x: 188.6382598876953
y: 250.6300048828125
z: -0.06858976930379868
visibility: 0.9999176263809204
","x: 243.30116271972656
y: 297.7187805175781
z: -0.07227261364459991
visibility: 0.9967026114463806
","x: 180.35971069335938
y: 312.1722717285156
z: -0.11381921917200089
visibility: 0.8873968124389648
","x: 233.2218475341797
y: 323.54913330078125
z: -0.23609650135040283
visibility: 0.9953639507293701
","x: 170.25128173828125
y: 311.1993103027344
z: -0.3547809422016144
visibility: 0.9503324627876282
","x: 229.9316864013672
y: 338.238037109375
z: -0.2736884355545044
visibility: 0.9874818325042725
","x: 164.48556518554688
y: 309.0296325683594
z: -0.40358424186706543
visibility: 0.9210226535797119
","x: 226.90826416015625
y: 335.6286315917969
z: -0.29774925112724304
visibility: 0.9874083995819092
","x: 162.90679931640625
y: 303.1231689453125
z: -0.4244397282600403
visibility: 0.9254315495491028
","x: 226.9771728515625
y: 330.52850341796875
z: -0.24745729565620422
visibility: 0.9788367748260498
","x: 165.46484375
y: 303.63031005859375
z: -0.36860746145248413
visibility: 0.9118062257766724
","x: 221.3470001220703
y: 362.70916748046875
z: 0.00133201340213418
visibility: 0.999699592590332
","x: 197.75486755371094
y: 364.887451171875
z: -0.001346514793112874
visibility: 0.9996324181556702
","x: 226.34925842285156
y: 442.7391357421875
z: 0.025103125721216202
visibility: 0.9844012260437012
","x: 196.970703125
y: 455.7574157714844
z: -0.05073705315589905
visibility: 0.878185510635376
","x: 234.3140869140625
y: 502.8924560546875
z: 0.3146822154521942
visibility: 0.9745891094207764
","x: 199.28016662597656
y: 537.1072998046875
z: 0.060223568230867386
visibility: 0.9079948663711548
","x: 233.0848388671875
y: 508.43206787109375
z: 0.3379654288291931
visibility: 0.8359401226043701
","x: 202.56532287597656
y: 551.1009521484375
z: 0.06361684948205948
visibility: 0.8088381290435791
","x: 239.55404663085938
y: 528.9464111328125
z: 0.24345442652702332
visibility: 0.9701065421104431
","x: 192.1050567626953
y: 559.8726196289062
z: -0.0763695240020752
visibility: 0.9223501682281494
",,,,,,,,,,,,,,,,,,,,,,,,,,,,,,,,,,,,,,,,,,
9,"x: 214.0901641845703
y: 206.64466857910156
z: -0.3136236071586609
visibility: 0.9999834895133972
","x: 215.5731201171875
y: 201.05349731445312
z: -0.29367250204086304
visibility: 0.9999589920043945
","x: 216.48196411132812
y: 201.5315399169922
z: -0.29372212290763855
visibility: 0.9999619126319885
","x: 217.6300811767578
y: 202.08432006835938
z: -0.2937719225883484
visibility: 0.999962329864502
","x: 211.9597625732422
y: 199.7884521484375
z: -0.2967057526111603
visibility: 0.9999405741691589
","x: 210.30255126953125
y: 199.24798583984375
z: -0.29673320055007935
visibility: 0.9999221563339233
","x: 208.26654052734375
y: 198.54977416992188
z: -0.2966971695423126
visibility: 0.9999102354049683
","x: 216.96658325195312
y: 206.93772888183594
z: -0.1626812219619751
visibility: 0.9999392628669739
","x: 202.49203491210938
y: 201.9423065185547
z: -0.17966559529304504
visibility: 0.9998325109481812
","x: 214.5435791015625
y: 216.1685791015625
z: -0.26480668783187866
visibility: 0.9999863505363464
","x: 210.3204803466797
y: 214.2371826171875
z: -0.2696700096130371
visibility: 0.9999694228172302
","x: 229.95181274414062
y: 250.12548828125
z: -0.08054793626070023
visibility: 0.999987006187439
","x: 191.87335205078125
y: 251.82217407226562
z: -0.08450795710086823
visibility: 0.9999180436134338
","x: 239.84951782226562
y: 304.8675537109375
z: -0.15102452039718628
visibility: 0.9939820170402527
","x: 182.76881408691406
y: 313.14324951171875
z: -0.1911325454711914
visibility: 0.89689040184021
","x: 248.9655303955078
y: 297.0274658203125
z: -0.4495254456996918
visibility: 0.9951304197311401
","x: 171.18605041503906
y: 275.9487609863281
z: -0.46454277634620667
visibility: 0.9547497630119324
","x: 252.5759735107422
y: 294.9251708984375
z: -0.5011100172996521
visibility: 0.9872700572013855
","x: 166.35736083984375
y: 264.2838439941406
z: -0.513802170753479
visibility: 0.9278303980827332
","x: 252.89048767089844
y: 290.486083984375
z: -0.5203191637992859
visibility: 0.9872840046882629
","x: 165.4434356689453
y: 259.14361572265625
z: -0.5226305723190308
visibility: 0.9318287372589111
","x: 251.25588989257812
y: 291.2283020019531
z: -0.4643833637237549
visibility: 0.9788535237312317
","x: 167.6695098876953
y: 262.0166931152344
z: -0.4749736189842224
visibility: 0.9190293550491333
","x: 226.9159698486328
y: 363.17919921875
z: 0.008856726810336113
visibility: 0.999701201915741
","x: 202.3099822998047
y: 364.9722900390625
z: -0.008921036496758461
visibility: 0.9996563792228699
","x: 244.33004760742188
y: 444.21429443359375
z: 0.02637019380927086
visibility: 0.9855753779411316
","x: 199.62803649902344
y: 456.94049072265625
z: -0.03242339566349983
visibility: 0.890097975730896
","x: 247.23341369628906
y: 507.1510009765625
z: 0.29640060663223267
visibility: 0.9758456349372864
","x: 199.90577697753906
y: 535.8072509765625
z: 0.12736882269382477
visibility: 0.9167822003364563
","x: 244.56076049804688
y: 515.2457275390625
z: 0.3168056607246399
visibility: 0.8423670530319214
","x: 201.94239807128906
y: 548.6195068359375
z: 0.13624945282936096
visibility: 0.8171420097351074
","x: 255.41970825195312
y: 532.2535400390625
z: 0.2050258219242096
visibility: 0.9709935188293457
","x: 193.6072235107422
y: 558.6369018554688
z: -0.003103423397988081
visibility: 0.9291608333587646
",,,,,,,,,,,,,,,,,,,,,,,,,,,,,,,,,,,,,,,,,,
10,"x: 225.433349609375
y: 207.386474609375
z: -0.2732222080230713
visibility: 0.9999849200248718
","x: 226.6167755126953
y: 201.61070251464844
z: -0.2514675259590149
visibility: 0.9999627470970154
","x: 227.5323486328125
y: 202.0089874267578
z: -0.2514817714691162
visibility: 0.9999653100967407
","x: 228.44325256347656
y: 202.47140502929688
z: -0.2514984905719757
visibility: 0.9999656677246094
","x: 222.64810180664062
y: 200.40789794921875
z: -0.2625800669193268
visibility: 0.9999460577964783
","x: 220.84552001953125
y: 199.9412841796875
z: -0.26263076066970825
visibility: 0.9999294281005859
","x: 218.92361450195312
y: 199.4013214111328
z: -0.2625635266304016
visibility: 0.9999186396598816
","x: 227.509033203125
y: 207.3114013671875
z: -0.12272270768880844
visibility: 0.999944269657135
","x: 213.67965698242188
y: 203.07293701171875
z: -0.15591005980968475
visibility: 0.9998483657836914
","x: 226.21890258789062
y: 216.49343872070312
z: -0.22478541731834412
visibility: 0.9999873042106628
","x: 220.8134307861328
y: 214.92356872558594
z: -0.24246013164520264
visibility: 0.9999721646308899
","x: 236.64527893066406
y: 250.4244384765625
z: -0.043663591146469116
visibility: 0.9999865889549255
","x: 196.56088256835938
y: 252.30487060546875
z: -0.07167406380176544
visibility: 0.9999213218688965
","x: 247.1165313720703
y: 311.89642333984375
z: -0.14406763017177582
visibility: 0.9937153458595276
","x: 183.9793701171875
y: 311.37457275390625
z: -0.18967726826667786
visibility: 0.9066659808158875
","x: 259.0574645996094
y: 281.07611083984375
z: -0.4000004231929779
visibility: 0.9953963756561279
","x: 181.74649047851562
y: 255.44081115722656
z: -0.4276455342769623
visibility: 0.9589008092880249
","x: 261.82666015625
y: 268.9022216796875
z: -0.44779276847839355
visibility: 0.9878131151199341
","x: 182.23391723632812
y: 241.93307495117188
z: -0.4728665351867676
visibility: 0.9338988065719604
","x: 261.1632385253906
y: 262.25946044921875
z: -0.45128852128982544
visibility: 0.9878339767456055
","x: 183.66091918945312
y: 236.57228088378906
z: -0.46802061796188354
visibility: 0.9374204277992249
","x: 259.6646423339844
y: 265.7825012207031
z: -0.408925861120224
visibility: 0.9797829389572144
","x: 184.88922119140625
y: 241.046630859375
z: -0.43091148138046265
visibility: 0.9252353310585022
","x: 237.9451904296875
y: 366.4232177734375
z: 0.015973133966326714
visibility: 0.9996978640556335
","x: 213.99757385253906
y: 368.29156494140625
z: -0.016052912920713425
visibility: 0.9996620416641235
","x: 252.01861572265625
y: 451.1021423339844
z: 0.04075388237833977
visibility: 0.9863069653511047
","x: 207.68389892578125
y: 457.1847839355469
z: -0.02772129699587822
visibility: 0.9005278944969177
","x: 255.15521240234375
y: 523.6258544921875
z: 0.2306949645280838
visibility: 0.9772284030914307
","x: 199.90228271484375
y: 534.4334106445312
z: 0.126763254404068
visibility: 0.9241825938224792
","x: 252.60772705078125
y: 532.9708251953125
z: 0.2431819885969162
visibility: 0.84894859790802
","x: 200.98231506347656
y: 546.7522583007812
z: 0.13612100481987
visibility: 0.8172850608825684
","x: 261.8921203613281
y: 545.6019287109375
z: 0.12925831973552704
visibility: 0.9722617864608765
","x: 195.08038330078125
y: 559.074951171875
z: 0.007692398969084024
visibility: 0.9345606565475464
",,,,,,,,,,,,,,,,,,,,,,,,,,,,,,,,,,,,,,,,,,
11,"x: 239.95639038085938
y: 210.23306274414062
z: -0.2031000554561615
visibility: 0.9999862909317017
","x: 240.6788330078125
y: 205.57298278808594
z: -0.17497161030769348
visibility: 0.9999663233757019
","x: 241.701904296875
y: 205.97494506835938
z: -0.1749095767736435
visibility: 0.9999685287475586
","x: 242.74429321289062
y: 206.4897918701172
z: -0.17489615082740784
visibility: 0.9999688863754272
","x: 236.86795043945312
y: 204.88491821289062
z: -0.1863061487674713
visibility: 0.9999513030052185
","x: 235.379150390625
y: 204.89549255371094
z: -0.1863420456647873
visibility: 0.9999362826347351
","x: 233.996337890625
y: 204.8922882080078
z: -0.18633711338043213
visibility: 0.9999266266822815
","x: 242.29006958007812
y: 211.7930450439453
z: -0.028332039713859558
visibility: 0.9999489784240723
","x: 228.99325561523438
y: 211.3504180908203
z: -0.08202730864286423
visibility: 0.9998634457588196
","x: 241.76931762695312
y: 219.07647705078125
z: -0.14999909698963165
visibility: 0.9999881982803345
","x: 236.40365600585938
y: 219.23204040527344
z: -0.16618767380714417
visibility: 0.99997478723526
","x: 252.10052490234375
y: 258.4320983886719
z: 0.07620532810688019
visibility: 0.9999847412109375
","x: 216.79562377929688
y: 255.0618133544922
z: -0.048050668090581894
visibility: 0.9999260306358337
","x: 270.5925598144531
y: 309.9748840332031
z: 0.003877114038914442
visibility: 0.9932667016983032
","x: 193.54721069335938
y: 299.23150634765625
z: -0.18503615260124207
visibility: 0.9158787727355957
","x: 272.515625
y: 264.178955078125
z: -0.1690565049648285
visibility: 0.9953629374504089
","x: 212.64259338378906
y: 257.1867980957031
z: -0.338590145111084
visibility: 0.9623894691467285
","x: 271.1045227050781
y: 255.28211975097656
z: -0.20455899834632874
visibility: 0.9872490763664246
","x: 218.27850341796875
y: 251.69744873046875
z: -0.3771507441997528
visibility: 0.9374383687973022
","x: 269.5839538574219
y: 251.427978515625
z: -0.19730962812900543
visibility: 0.9871734380722046
","x: 219.7303466796875
y: 249.72509765625
z: -0.3614543080329895
visibility: 0.9401642680168152
","x: 269.2464599609375
y: 254.1237030029297
z: -0.17181794345378876
visibility: 0.9789493083953857
","x: 218.61366271972656
y: 252.73373413085938
z: -0.33590489625930786
visibility: 0.927815318107605
","x: 252.84239196777344
y: 371.6734619140625
z: 0.04373627156019211
visibility: 0.999707818031311
","x: 230.06015014648438
y: 372.5579833984375
z: -0.04382876679301262
visibility: 0.9996740221977234
","x: 260.2789001464844
y: 457.932861328125
z: 0.04604557901620865
visibility: 0.986609935760498
","x: 225.23533630371094
y: 461.52459716796875
z: -0.06681317090988159
visibility: 0.9099432229995728
","x: 256.893798828125
y: 529.2803955078125
z: 0.21351046860218048
visibility: 0.9785361886024475
","x: 200.0769805908203
y: 533.237060546875
z: 0.08808992803096771
visibility: 0.931088924407959
","x: 252.91934204101562
y: 539.8933715820312
z: 0.2236376255750656
visibility: 0.8570815920829773
","x: 201.46652221679688
y: 546.6773071289062
z: 0.0984015241265297
visibility: 0.8218873143196106
","x: 263.7990417480469
y: 551.6004028320312
z: 0.11379779875278473
visibility: 0.9736018776893616
","x: 197.80970764160156
y: 559.4323120117188
z: -0.019348708912730217
visibility: 0.9399839639663696
",,,,,,,,,,,,,,,,,,,,,,,,,,,,,,,,,,,,,,,,,,
12,"x: 248.2101593017578
y: 209.93019104003906
z: -0.11839860677719116
visibility: 0.9999872446060181
","x: 248.4683074951172
y: 204.97320556640625
z: -0.0916672796010971
visibility: 0.9999691247940063
","x: 249.43280029296875
y: 205.364501953125
z: -0.09162237495183945
visibility: 0.9999707937240601
","x: 250.36582946777344
y: 205.84242248535156
z: -0.09158960729837418
visibility: 0.9999712705612183
","x: 244.8451690673828
y: 204.4670867919922
z: -0.10614536702632904
visibility: 0.9999557137489319
","x: 243.2206573486328
y: 204.55491638183594
z: -0.106161929666996
visibility: 0.9999421834945679
","x: 241.43431091308594
y: 204.57456970214844
z: -0.10614880174398422
visibility: 0.9999335408210754
","x: 249.4168243408203
y: 211.21054077148438
z: 0.0454956516623497
visibility: 0.9999508857727051
","x: 236.66793823242188
y: 211.08917236328125
z: -0.023239580914378166
visibility: 0.9998769164085388
","x: 249.86029052734375
y: 218.36082458496094
z: -0.0683756023645401
visibility: 0.9999886751174927
","x: 245.3507080078125
y: 218.55416870117188
z: -0.08821596205234528
visibility: 0.9999770522117615
","x: 258.68939208984375
y: 258.0089416503906
z: 0.1371055543422699
visibility: 0.9999833106994629
","x: 226.97763061523438
y: 254.5107421875
z: -0.04346192628145218
visibility: 0.9999322891235352
","x: 275.4837951660156
y: 291.2501220703125
z: 0.009759342297911644
visibility: 0.9841651916503906
","x: 205.48988342285156
y: 286.76409912109375
z: -0.22037677466869354
visibility: 0.9242343902587891
","x: 277.527587890625
y: 273.6894836425781
z: -0.2381466180086136
visibility: 0.9938127398490906
","x: 234.19639587402344
y: 269.1663818359375
z: -0.37027204036712646
visibility: 0.9658856987953186
","x: 278.6878662109375
y: 269.1843566894531
z: -0.2844199240207672
visibility: 0.9850149750709534
","x: 240.7953338623047
y: 271.9801940917969
z: -0.41080158948898315
visibility: 0.9426887035369873
","x: 276.02069091796875
y: 265.14947509765625
z: -0.281788170337677
visibility: 0.9849162101745605
","x: 243.45468139648438
y: 269.5044250488281
z: -0.3915190100669861
visibility: 0.9449827671051025
","x: 274.8759460449219
y: 266.5848693847656
z: -0.24444778263568878
visibility: 0.9762083888053894
","x: 241.69058227539062
y: 268.6144714355469
z: -0.3629315197467804
visibility: 0.9332203269004822
","x: 258.1789855957031
y: 371.31585693359375
z: 0.07286141812801361
visibility: 0.999734103679657
","x: 238.36520385742188
y: 371.4432067871094
z: -0.07300914078950882
visibility: 0.9997000694274902
","x: 261.5585021972656
y: 457.5940246582031
z: 0.022012624889612198
visibility: 0.9850901365280151
","x: 245.77005004882812
y: 461.14459228515625
z: -0.1416650414466858
visibility: 0.9187262654304504
","x: 256.9991149902344
y: 531.4954223632812
z: 0.1814594715833664
visibility: 0.9796468019485474
","x: 208.52220153808594
y: 506.72491455078125
z: 0.06975159794092178
visibility: 0.9369346499443054
","x: 252.5367431640625
y: 541.5108032226562
z: 0.19188550114631653
visibility: 0.8658005595207214
","x: 202.47067260742188
y: 505.2006530761719
z: 0.08875744789838791
visibility: 0.8286721110343933
","x: 266.0057067871094
y: 554.5430908203125
z: 0.1057029515504837
visibility: 0.9747598767280579
","x: 206.95481872558594
y: 548.6783447265625
z: 0.01934639923274517
visibility: 0.9443091750144958
",,,,,,,,,,,,,,,,,,,,,,,,,,,,,,,,,,,,,,,,,,
13,"x: 253.93324279785156
y: 209.58255004882812
z: -0.1119232326745987
visibility: 0.9999880194664001
","x: 253.91810607910156
y: 204.234130859375
z: -0.08791984617710114
visibility: 0.9999709129333496
","x: 254.5378875732422
y: 204.62547302246094
z: -0.08792001754045486
visibility: 0.9999717473983765
","x: 255.22874450683594
y: 205.0743408203125
z: -0.0879102498292923
visibility: 0.9999727010726929
","x: 251.0811767578125
y: 203.52752685546875
z: -0.10813008248806
visibility: 0.9999594688415527
","x: 249.56491088867188
y: 203.41635131835938
z: -0.10815046727657318
visibility: 0.9999472498893738
","x: 247.92794799804688
y: 203.3133087158203
z: -0.10815770924091339
visibility: 0.9999395608901978
","x: 254.1415252685547
y: 209.56124877929688
z: 0.03760979324579239
visibility: 0.9999494552612305
","x: 243.00662231445312
y: 208.60877990722656
z: -0.0535363145172596
visibility: 0.9998888969421387
","x: 254.76210021972656
y: 217.5570526123047
z: -0.06489953398704529
visibility: 0.9999886155128479
","x: 250.92018127441406
y: 217.34442138671875
z: -0.09163807332515717
visibility: 0.99997878074646
","x: 261.3434143066406
y: 253.48777770996094
z: 0.15369348227977753
visibility: 0.9999832510948181
","x: 232.607421875
y: 249.8646240234375
z: -0.09044483304023743
visibility: 0.999938428401947
","x: 282.0674133300781
y: 286.8945007324219
z: 0.12609276175498962
visibility: 0.9740958213806152
","x: 224.26254272460938
y: 289.9388427734375
z: -0.21105055510997772
visibility: 0.9316719770431519
","x: 279.55828857421875
y: 289.9727783203125
z: -0.042485643178224564
visibility: 0.9899268746376038
","x: 253.22171020507812
y: 288.1698913574219
z: -0.31837818026542664
visibility: 0.9687860608100891
","x: 279.3629455566406
y: 300.5694885253906
z: -0.07311110198497772
visibility: 0.9786726832389832
","x: 258.61199951171875
y: 302.140869140625
z: -0.3554222285747528
visibility: 0.9472425580024719
","x: 275.6379699707031
y: 301.0413818359375
z: -0.08524303138256073
visibility: 0.9789666533470154
","x: 261.83624267578125
y: 299.23089599609375
z: -0.3467670679092407
visibility: 0.9491809010505676
","x: 274.95916748046875
y: 298.54571533203125
z: -0.05185888335108757
visibility: 0.9692559242248535
","x: 260.771240234375
y: 294.2310485839844
z: -0.3137585520744324
visibility: 0.9378015398979187
","x: 260.37664794921875
y: 366.997802734375
z: 0.10088332742452621
visibility: 0.999755859375
","x: 246.23716735839844
y: 367.3348693847656
z: -0.10099122673273087
visibility: 0.9997174143791199
","x: 264.6899108886719
y: 448.1619567871094
z: 0.05720312148332596
visibility: 0.970913290977478
","x: 266.2934265136719
y: 444.63519287109375
z: -0.15152063965797424
visibility: 0.9265998005867004
","x: 256.02593994140625
y: 530.71484375
z: 0.16546474397182465
visibility: 0.9791709780693054
","x: 225.98876953125
y: 456.2696533203125
z: 0.02250337041914463
visibility: 0.9421530961990356
","x: 250.00631713867188
y: 541.0953369140625
z: 0.191456601023674
visibility: 0.8746190071105957
","x: 217.50755310058594
y: 445.48681640625
z: 0.03904617577791214
visibility: 0.8414155840873718
","x: 268.5222473144531
y: 553.2959594726562
z: 0.09657216817140579
visibility: 0.9748783111572266
","x: 217.59112548828125
y: 502.53363037109375
z: 0.012485537678003311
visibility: 0.9484782814979553
",,,,,,,,,,,,,,,,,,,,,,,,,,,,,,,,,,,,,,,,,,
14,"x: 259.64813232421875
y: 213.8876495361328
z: -0.08835417777299881
visibility: 0.9999870657920837
","x: 259.38787841796875
y: 208.08250427246094
z: -0.06885160505771637
visibility: 0.9999699592590332
","x: 259.8158264160156
y: 208.21778869628906
z: -0.06886450946331024
visibility: 0.9999688863754272
","x: 260.1591796875
y: 208.35791015625
z: -0.0688527524471283
visibility: 0.999970555305481
","x: 256.66839599609375
y: 207.21131896972656
z: -0.09354712814092636
visibility: 0.9999616146087646
","x: 255.2144012451172
y: 206.72406005859375
z: -0.09357273578643799
visibility: 0.9999507069587708
","x: 253.49261474609375
y: 206.24610900878906
z: -0.09360743314027786
visibility: 0.9999440312385559
","x: 257.2609558105469
y: 211.57785034179688
z: 0.03553951531648636
visibility: 0.9999362826347351
","x: 247.85110473632812
y: 210.51942443847656
z: -0.07148893177509308
visibility: 0.9998995661735535
","x: 259.37799072265625
y: 222.0889434814453
z: -0.04786961153149605
visibility: 0.9999843835830688
","x: 256.3077087402344
y: 221.654296875
z: -0.07993894070386887
visibility: 0.999979555606842
","x: 263.34381103515625
y: 259.478515625
z: 0.14562460780143738
visibility: 0.999964714050293
","x: 235.091552734375
y: 255.56280517578125
z: -0.1245831623673439
visibility: 0.9999440908432007
","x: 278.708740234375
y: 301.21099853515625
z: 0.06541368365287781
visibility: 0.9232101440429688
","x: 232.53167724609375
y: 315.4432373046875
z: -0.1739163100719452
visibility: 0.9383171200752258
","x: 273.87933349609375
y: 293.72528076171875
z: -0.13691279292106628
visibility: 0.9493971467018127
","x: 264.3512268066406
y: 303.9483947753906
z: -0.13382795453071594
visibility: 0.9704243540763855
","x: 273.5146179199219
y: 297.55096435546875
z: -0.1674475222826004
visibility: 0.9349217414855957
","x: 271.7477722167969
y: 306.7855529785156
z: -0.14499793946743011
visibility: 0.9485421180725098
","x: 270.6614685058594
y: 295.2719421386719
z: -0.1642315536737442
visibility: 0.9350723028182983
","x: 273.0071105957031
y: 302.4140625
z: -0.1357824057340622
visibility: 0.9497206807136536
","x: 270.0812072753906
y: 294.1439208984375
z: -0.14269879460334778
visibility: 0.9236329793930054
","x: 270.6274108886719
y: 299.5693359375
z: -0.12385263293981552
visibility: 0.9375926852226257
","x: 262.9151916503906
y: 374.1308288574219
z: 0.10353557020425797
visibility: 0.999769926071167
","x: 247.77906799316406
y: 371.7701416015625
z: -0.1035749763250351
visibility: 0.9997233152389526
","x: 266.66741943359375
y: 451.49700927734375
z: 0.10141317546367645
visibility: 0.9550611972808838
","x: 285.643310546875
y: 431.1024169921875
z: -0.14471915364265442
visibility: 0.933711588382721
","x: 255.67465209960938
y: 531.8610229492188
z: 0.15945516526699066
visibility: 0.9776929020881653
","x: 241.27481079101562
y: 447.85150146484375
z: 0.05042601749300957
visibility: 0.9429314136505127
","x: 249.99200439453125
y: 543.3126220703125
z: 0.18724630773067474
visibility: 0.881765604019165
","x: 231.6177978515625
y: 439.79693603515625
z: 0.07131997495889664
visibility: 0.846593976020813
","x: 267.939453125
y: 553.5560302734375
z: 0.12420479953289032
visibility: 0.9743111729621887
","x: 241.86524963378906
y: 484.1714172363281
z: 0.08901386708021164
visibility: 0.9483646154403687
",,,,,,,,,,,,,,,,,,,,,,,,,,,,,,,,,,,,,,,,,,
15,"x: 266.0964660644531
y: 215.43211364746094
z: -0.12343835830688477
visibility: 0.9999831914901733
","x: 264.0770568847656
y: 209.27635192871094
z: -0.10775671154260635
visibility: 0.9999648332595825
","x: 263.8504638671875
y: 209.19223022460938
z: -0.10776019096374512
visibility: 0.9999618530273438
","x: 263.4997863769531
y: 209.11105346679688
z: -0.10772422701120377
visibility: 0.9999638199806213
","x: 262.94744873046875
y: 208.88998413085938
z: -0.1350880265235901
visibility: 0.9999599456787109
","x: 261.94482421875
y: 208.4932861328125
z: -0.13508877158164978
visibility: 0.9999496340751648
","x: 260.7636413574219
y: 208.05909729003906
z: -0.1351441890001297
visibility: 0.9999443292617798
","x: 258.6861877441406
y: 211.68927001953125
z: -0.010762500576674938
visibility: 0.9999135136604309
","x: 255.1578369140625
y: 211.27615356445312
z: -0.14549444615840912
visibility: 0.9999067187309265
","x: 264.88275146484375
y: 222.74969482421875
z: -0.08465447276830673
visibility: 0.9999784231185913
","x: 263.6429748535156
y: 222.41661071777344
z: -0.11991769075393677
visibility: 0.9999788999557495
","x: 263.7359313964844
y: 259.7714538574219
z: 0.09481321275234222
visibility: 0.9999414086341858
","x: 238.7462158203125
y: 255.571044921875
z: -0.17840921878814697
visibility: 0.9999475479125977
","x: 272.46282958984375
y: 311.54949951171875
z: 0.024890486150979996
visibility: 0.8858177065849304
","x: 236.34609985351562
y: 318.92803955078125
z: -0.2468433678150177
visibility: 0.943961501121521
","x: 277.4645690917969
y: 286.86297607421875
z: -0.19040247797966003
visibility: 0.9365720152854919
","x: 260.469482421875
y: 290.60357666015625
z: -0.23761406540870667
visibility: 0.9722467660903931
","x: 279.962646484375
y: 279.27166748046875
z: -0.221716046333313
visibility: 0.9218946099281311
","x: 265.3592529296875
y: 280.5654296875
z: -0.24670398235321045
visibility: 0.9508040547370911
","x: 277.94879150390625
y: 276.0203857421875
z: -0.22323088347911835
visibility: 0.9214420318603516
","x: 264.27130126953125
y: 274.8166809082031
z: -0.20961761474609375
visibility: 0.9515576958656311
","x: 276.0174255371094
y: 278.9059753417969
z: -0.19797919690608978
visibility: 0.9070242047309875
","x: 263.3678894042969
y: 277.38104248046875
z: -0.22263479232788086
visibility: 0.9389519691467285
","x: 263.5252685546875
y: 371.763427734375
z: 0.09237533807754517
visibility: 0.9997415542602539
","x: 250.46705627441406
y: 371.4154052734375
z: -0.092490553855896
visibility: 0.9996832013130188
","x: 265.2461853027344
y: 451.2953186035156
z: 0.14929097890853882
visibility: 0.9496259093284607
","x: 283.10455322265625
y: 426.719482421875
z: -0.12245982885360718
visibility: 0.9394739270210266
","x: 258.7677307128906
y: 530.2184448242188
z: 0.21723751723766327
visibility: 0.9761791229248047
","x: 286.1922607421875
y: 458.2351989746094
z: 0.06336158514022827
visibility: 0.927549421787262
","x: 251.9098663330078
y: 541.691162109375
z: 0.22328439354896545
visibility: 0.8892346024513245
","x: 280.31591796875
y: 461.729248046875
z: 0.0834413692355156
visibility: 0.8375576138496399
","x: 274.120361328125
y: 551.1994018554688
z: 0.1853255033493042
visibility: 0.9735032320022583
","x: 302.6705627441406
y: 477.9669494628906
z: 0.08115433156490326
visibility: 0.9361332058906555
","x: 279.33209228515625
y: 284.460205078125
z: 0.0
","x: 278.4387512207031
y: 279.5799865722656
z: -0.0002199560694862157
","x: 279.2429504394531
y: 273.8406982421875
z: -0.0006307965377345681
","x: 281.58880615234375
y: 270.9147644042969
z: -0.0018041086150333285
","x: 284.1087341308594
y: 269.8388977050781
z: -0.002473774366080761
","x: 279.79425048828125
y: 267.7588195800781
z: 0.0016776768025010824
","x: 280.94305419921875
y: 263.38531494140625
z: -0.0010048854164779186
","x: 280.5398864746094
y: 267.45159912109375
z: -0.001845227787271142
","x: 279.73822021484375
y: 271.5292053222656
z: -0.0017873126780614257
","x: 282.02642822265625
y: 268.8052978515625
z: 0.0003016850969288498
","x: 283.3760986328125
y: 265.58477783203125
z: -0.0027943237219005823
","x: 282.4207458496094
y: 270.59454345703125
z: -0.0030939453281462193
","x: 281.2137451171875
y: 274.0956726074219
z: -0.002317408798262477
","x: 283.89599609375
y: 270.54254150390625
z: -0.001660483074374497
","x: 285.4830627441406
y: 267.2294006347656
z: -0.004605069290846586
","x: 284.2897033691406
y: 271.4894104003906
z: -0.003561984980478883
","x: 282.9675598144531
y: 274.367431640625
z: -0.00196996727026999
","x: 285.5739440917969
y: 273.04559326171875
z: -0.0038902878295630217
","x: 286.80029296875
y: 270.5251159667969
z: -0.0054794792085886
","x: 285.8573913574219
y: 272.8951416015625
z: -0.004684348590672016
","x: 284.7746276855469
y: 274.72869873046875
z: -0.003396524116396904
",,,,,,,,,,,,,,,,,,,,,
16,"x: 266.0964660644531
y: 215.43211364746094
z: -0.12343835830688477
visibility: 0.9999831914901733
","x: 264.0770568847656
y: 209.27635192871094
z: -0.10775671154260635
visibility: 0.9999648332595825
","x: 263.8504638671875
y: 209.19223022460938
z: -0.10776019096374512
visibility: 0.9999618530273438
","x: 263.4997863769531
y: 209.11105346679688
z: -0.10772422701120377
visibility: 0.9999638199806213
","x: 262.94744873046875
y: 208.88998413085938
z: -0.1350880265235901
visibility: 0.9999599456787109
","x: 261.94482421875
y: 208.4932861328125
z: -0.13508877158164978
visibility: 0.9999496340751648
","x: 260.7636413574219
y: 208.05909729003906
z: -0.1351441890001297
visibility: 0.9999443292617798
","x: 258.6861877441406
y: 211.68927001953125
z: -0.010762500576674938
visibility: 0.9999135136604309
","x: 255.1578369140625
y: 211.27615356445312
z: -0.14549444615840912
visibility: 0.9999067187309265
","x: 264.88275146484375
y: 222.74969482421875
z: -0.08465447276830673
visibility: 0.9999784231185913
","x: 263.6429748535156
y: 222.41661071777344
z: -0.11991769075393677
visibility: 0.9999788999557495
","x: 263.7359313964844
y: 259.7714538574219
z: 0.09481321275234222
visibility: 0.9999414086341858
","x: 238.7462158203125
y: 255.571044921875
z: -0.17840921878814697
visibility: 0.9999475479125977
","x: 272.46282958984375
y: 311.54949951171875
z: 0.024890486150979996
visibility: 0.8858177065849304
","x: 236.34609985351562
y: 318.92803955078125
z: -0.2468433678150177
visibility: 0.943961501121521
","x: 277.4645690917969
y: 286.86297607421875
z: -0.19040247797966003
visibility: 0.9365720152854919
","x: 260.469482421875
y: 290.60357666015625
z: -0.23761406540870667
visibility: 0.9722467660903931
","x: 279.962646484375
y: 279.27166748046875
z: -0.221716046333313
visibility: 0.9218946099281311
","x: 265.3592529296875
y: 280.5654296875
z: -0.24670398235321045
visibility: 0.9508040547370911
","x: 277.94879150390625
y: 276.0203857421875
z: -0.22323088347911835
visibility: 0.9214420318603516
","x: 264.27130126953125
y: 274.8166809082031
z: -0.20961761474609375
visibility: 0.9515576958656311
","x: 276.0174255371094
y: 278.9059753417969
z: -0.19797919690608978
visibility: 0.9070242047309875
","x: 263.3678894042969
y: 277.38104248046875
z: -0.22263479232788086
visibility: 0.9389519691467285
","x: 263.5252685546875
y: 371.763427734375
z: 0.09237533807754517
visibility: 0.9997415542602539
","x: 250.46705627441406
y: 371.4154052734375
z: -0.092490553855896
visibility: 0.9996832013130188
","x: 265.2461853027344
y: 451.2953186035156
z: 0.14929097890853882
visibility: 0.9496259093284607
","x: 283.10455322265625
y: 426.719482421875
z: -0.12245982885360718
visibility: 0.9394739270210266
","x: 258.7677307128906
y: 530.2184448242188
z: 0.21723751723766327
visibility: 0.9761791229248047
","x: 286.1922607421875
y: 458.2351989746094
z: 0.06336158514022827
visibility: 0.927549421787262
","x: 251.9098663330078
y: 541.691162109375
z: 0.22328439354896545
visibility: 0.8892346024513245
","x: 280.31591796875
y: 461.729248046875
z: 0.0834413692355156
visibility: 0.8375576138496399
","x: 274.120361328125
y: 551.1994018554688
z: 0.1853255033493042
visibility: 0.9735032320022583
","x: 302.6705627441406
y: 477.9669494628906
z: 0.08115433156490326
visibility: 0.9361332058906555
","x: 279.33209228515625
y: 284.460205078125
z: 0.0
","x: 278.4387512207031
y: 279.5799865722656
z: -0.0002199560694862157
","x: 279.2429504394531
y: 273.8406982421875
z: -0.0006307965377345681
","x: 281.58880615234375
y: 270.9147644042969
z: -0.0018041086150333285
","x: 284.1087341308594
y: 269.8388977050781
z: -0.002473774366080761
","x: 279.79425048828125
y: 267.7588195800781
z: 0.0016776768025010824
","x: 280.94305419921875
y: 263.38531494140625
z: -0.0010048854164779186
","x: 280.5398864746094
y: 267.45159912109375
z: -0.001845227787271142
","x: 279.73822021484375
y: 271.5292053222656
z: -0.0017873126780614257
","x: 282.02642822265625
y: 268.8052978515625
z: 0.0003016850969288498
","x: 283.3760986328125
y: 265.58477783203125
z: -0.0027943237219005823
","x: 282.4207458496094
y: 270.59454345703125
z: -0.0030939453281462193
","x: 281.2137451171875
y: 274.0956726074219
z: -0.002317408798262477
","x: 283.89599609375
y: 270.54254150390625
z: -0.001660483074374497
","x: 285.4830627441406
y: 267.2294006347656
z: -0.004605069290846586
","x: 284.2897033691406
y: 271.4894104003906
z: -0.003561984980478883
","x: 282.9675598144531
y: 274.367431640625
z: -0.00196996727026999
","x: 285.5739440917969
y: 273.04559326171875
z: -0.0038902878295630217
","x: 286.80029296875
y: 270.5251159667969
z: -0.0054794792085886
","x: 285.8573913574219
y: 272.8951416015625
z: -0.004684348590672016
","x: 284.7746276855469
y: 274.72869873046875
z: -0.003396524116396904
",,,,,,,,,,,,,,,,,,,,,
17,"x: 263.2684020996094
y: 221.25892639160156
z: -0.1315222531557083
visibility: 0.9999809265136719
","x: 262.26409912109375
y: 214.30535888671875
z: -0.11467965692281723
visibility: 0.9999640583992004
","x: 262.45257568359375
y: 214.07029724121094
z: -0.11469955742359161
visibility: 0.9999595880508423
","x: 262.6101989746094
y: 213.8055419921875
z: -0.11467605829238892
visibility: 0.999962568283081
","x: 260.5742492675781
y: 214.25904846191406
z: -0.13718284666538239
visibility: 0.99996018409729
","x: 259.52252197265625
y: 214.01895141601562
z: -0.13720953464508057
visibility: 0.9999501705169678
","x: 258.4210510253906
y: 213.8148193359375
z: -0.13728001713752747
visibility: 0.9999463558197021
","x: 260.15924072265625
y: 215.0414276123047
z: -0.012387363240122795
visibility: 0.9999064207077026
","x: 254.27362060546875
y: 216.60055541992188
z: -0.12346594035625458
visibility: 0.9999102354049683
","x: 263.003662109375
y: 228.48614501953125
z: -0.09078390896320343
visibility: 0.9999759793281555
","x: 261.3549499511719
y: 228.28805541992188
z: -0.12039197981357574
visibility: 0.9999787211418152
","x: 267.5185241699219
y: 264.4423522949219
z: 0.09707101434469223
visibility: 0.9999207258224487
","x: 238.9833984375
y: 261.74334716796875
z: -0.12292935699224472
visibility: 0.9999496340751648
","x: 276.3470764160156
y: 316.63031005859375
z: 0.026372307911515236
visibility: 0.8776075839996338
","x: 234.18505859375
y: 322.3514404296875
z: -0.23606367409229279
visibility: 0.9479249119758606
","x: 279.9014587402344
y: 276.69354248046875
z: -0.17959150671958923
visibility: 0.9384823441505432
","x: 245.62368774414062
y: 280.6019287109375
z: -0.3727562427520752
visibility: 0.9743459820747375
","x: 281.8608093261719
y: 263.44622802734375
z: -0.2083957940340042
visibility: 0.9233056306838989
","x: 247.27098083496094
y: 269.399169921875
z: -0.4041341245174408
visibility: 0.954380452632904
","x: 280.9022216796875
y: 260.5447692871094
z: -0.20438241958618164
visibility: 0.922575831413269
","x: 247.03736877441406
y: 264.6960144042969
z: -0.3994061350822449
visibility: 0.954860270023346
","x: 278.88995361328125
y: 263.9253845214844
z: -0.1839551031589508
visibility: 0.907112717628479
","x: 247.56509399414062
y: 267.5699462890625
z: -0.37127959728240967
visibility: 0.9424155950546265
","x: 262.87945556640625
y: 373.7854309082031
z: 0.08918388187885284
visibility: 0.9995495676994324
","x: 249.57180786132812
y: 372.6234436035156
z: -0.08930539339780807
visibility: 0.9996580481529236
","x: 263.7615966796875
y: 452.1426086425781
z: 0.1506005823612213
visibility: 0.890422523021698
","x: 272.0155944824219
y: 440.4554443359375
z: -0.1658129096031189
visibility: 0.9388697743415833
","x: 254.43283081054688
y: 529.5281982421875
z: 0.26255664229393005
visibility: 0.9319813847541809
","x: 274.5682373046875
y: 536.9645385742188
z: -0.16200688481330872
visibility: 0.9291494488716125
","x: 247.7497100830078
y: 541.0755004882812
z: 0.26943737268447876
visibility: 0.8602737784385681
","x: 270.9136047363281
y: 552.6834716796875
z: -0.16662415862083435
visibility: 0.8446868658065796
","x: 264.8853454589844
y: 548.3516845703125
z: 0.21464374661445618
visibility: 0.9441436529159546
","x: 297.05462646484375
y: 548.5634765625
z: -0.2716367840766907
visibility: 0.9364080429077148
","x: 281.6646423339844
y: 273.6831359863281
z: 0.0
","x: 280.0698547363281
y: 264.6567077636719
z: 0.0018409210024401546
","x: 279.9260559082031
y: 257.6105041503906
z: 0.002157690469175577
","x: 280.8363952636719
y: 252.48085021972656
z: 0.001097640604712069
","x: 282.05218505859375
y: 249.7509765625
z: 0.0006076375721022487
","x: 282.89898681640625
y: 254.9583282470703
z: 0.004751650616526604
","x: 283.52899169921875
y: 248.7110595703125
z: 0.0028608341235667467
","x: 282.19708251953125
y: 250.84121704101562
z: 0.002080559963360429
","x: 281.5934143066406
y: 253.66867065429688
z: 0.001986596966162324
","x: 284.52044677734375
y: 255.93341064453125
z: 0.0021204210352152586
","x: 284.95343017578125
y: 250.1757049560547
z: 8.846248965710402e-05
","x: 283.40985107421875
y: 252.52000427246094
z: -0.0006675816257484257
","x: 282.6329650878906
y: 255.4182586669922
z: -0.0005528078763745725
","x: 286.150146484375
y: 257.7893371582031
z: -0.0010060948552563787
","x: 286.5340881347656
y: 252.31265258789062
z: -0.0024259532801806927
","x: 284.8172302246094
y: 254.19720458984375
z: -0.001743827830068767
","x: 283.7422180175781
y: 257.23138427734375
z: -0.0008681014296598732
","x: 287.7065734863281
y: 260.24041748046875
z: -0.004355014301836491
","x: 288.65576171875
y: 255.31021118164062
z: -0.0043033272959291935
","x: 287.22406005859375
y: 255.08694458007812
z: -0.0033076973631978035
","x: 285.9258728027344
y: 256.80029296875
z: -0.0023979023098945618
",,,,,,,,,,,,,,,,,,,,,
18,"x: 263.2684020996094
y: 221.25892639160156
z: -0.1315222531557083
visibility: 0.9999809265136719
","x: 262.26409912109375
y: 214.30535888671875
z: -0.11467965692281723
visibility: 0.9999640583992004
","x: 262.45257568359375
y: 214.07029724121094
z: -0.11469955742359161
visibility: 0.9999595880508423
","x: 262.6101989746094
y: 213.8055419921875
z: -0.11467605829238892
visibility: 0.999962568283081
","x: 260.5742492675781
y: 214.25904846191406
z: -0.13718284666538239
visibility: 0.99996018409729
","x: 259.52252197265625
y: 214.01895141601562
z: -0.13720953464508057
visibility: 0.9999501705169678
","x: 258.4210510253906
y: 213.8148193359375
z: -0.13728001713752747
visibility: 0.9999463558197021
","x: 260.15924072265625
y: 215.0414276123047
z: -0.012387363240122795
visibility: 0.9999064207077026
","x: 254.27362060546875
y: 216.60055541992188
z: -0.12346594035625458
visibility: 0.9999102354049683
","x: 263.003662109375
y: 228.48614501953125
z: -0.09078390896320343
visibility: 0.9999759793281555
","x: 261.3549499511719
y: 228.28805541992188
z: -0.12039197981357574
visibility: 0.9999787211418152
","x: 267.5185241699219
y: 264.4423522949219
z: 0.09707101434469223
visibility: 0.9999207258224487
","x: 238.9833984375
y: 261.74334716796875
z: -0.12292935699224472
visibility: 0.9999496340751648
","x: 276.3470764160156
y: 316.63031005859375
z: 0.026372307911515236
visibility: 0.8776075839996338
","x: 234.18505859375
y: 322.3514404296875
z: -0.23606367409229279
visibility: 0.9479249119758606
","x: 279.9014587402344
y: 276.69354248046875
z: -0.17959150671958923
visibility: 0.9384823441505432
","x: 245.62368774414062
y: 280.6019287109375
z: -0.3727562427520752
visibility: 0.9743459820747375
","x: 281.8608093261719
y: 263.44622802734375
z: -0.2083957940340042
visibility: 0.9233056306838989
","x: 247.27098083496094
y: 269.399169921875
z: -0.4041341245174408
visibility: 0.954380452632904
","x: 280.9022216796875
y: 260.5447692871094
z: -0.20438241958618164
visibility: 0.922575831413269
","x: 247.03736877441406
y: 264.6960144042969
z: -0.3994061350822449
visibility: 0.954860270023346
","x: 278.88995361328125
y: 263.9253845214844
z: -0.1839551031589508
visibility: 0.907112717628479
","x: 247.56509399414062
y: 267.5699462890625
z: -0.37127959728240967
visibility: 0.9424155950546265
","x: 262.87945556640625
y: 373.7854309082031
z: 0.08918388187885284
visibility: 0.9995495676994324
","x: 249.57180786132812
y: 372.6234436035156
z: -0.08930539339780807
visibility: 0.9996580481529236
","x: 263.7615966796875
y: 452.1426086425781
z: 0.1506005823612213
visibility: 0.890422523021698
","x: 272.0155944824219
y: 440.4554443359375
z: -0.1658129096031189
visibility: 0.9388697743415833
","x: 254.43283081054688
y: 529.5281982421875
z: 0.26255664229393005
visibility: 0.9319813847541809
","x: 274.5682373046875
y: 536.9645385742188
z: -0.16200688481330872
visibility: 0.9291494488716125
","x: 247.7497100830078
y: 541.0755004882812
z: 0.26943737268447876
visibility: 0.8602737784385681
","x: 270.9136047363281
y: 552.6834716796875
z: -0.16662415862083435
visibility: 0.8446868658065796
","x: 264.8853454589844
y: 548.3516845703125
z: 0.21464374661445618
visibility: 0.9441436529159546
","x: 297.05462646484375
y: 548.5634765625
z: -0.2716367840766907
visibility: 0.9364080429077148
","x: 281.6646423339844
y: 273.6831359863281
z: 0.0
","x: 280.0698547363281
y: 264.6567077636719
z: 0.0018409210024401546
","x: 279.9260559082031
y: 257.6105041503906
z: 0.002157690469175577
","x: 280.8363952636719
y: 252.48085021972656
z: 0.001097640604712069
","x: 282.05218505859375
y: 249.7509765625
z: 0.0006076375721022487
","x: 282.89898681640625
y: 254.9583282470703
z: 0.004751650616526604
","x: 283.52899169921875
y: 248.7110595703125
z: 0.0028608341235667467
","x: 282.19708251953125
y: 250.84121704101562
z: 0.002080559963360429
","x: 281.5934143066406
y: 253.66867065429688
z: 0.001986596966162324
","x: 284.52044677734375
y: 255.93341064453125
z: 0.0021204210352152586
","x: 284.95343017578125
y: 250.1757049560547
z: 8.846248965710402e-05
","x: 283.40985107421875
y: 252.52000427246094
z: -0.0006675816257484257
","x: 282.6329650878906
y: 255.4182586669922
z: -0.0005528078763745725
","x: 286.150146484375
y: 257.7893371582031
z: -0.0010060948552563787
","x: 286.5340881347656
y: 252.31265258789062
z: -0.0024259532801806927
","x: 284.8172302246094
y: 254.19720458984375
z: -0.001743827830068767
","x: 283.7422180175781
y: 257.23138427734375
z: -0.0008681014296598732
","x: 287.7065734863281
y: 260.24041748046875
z: -0.004355014301836491
","x: 288.65576171875
y: 255.31021118164062
z: -0.0043033272959291935
","x: 287.22406005859375
y: 255.08694458007812
z: -0.0033076973631978035
","x: 285.9258728027344
y: 256.80029296875
z: -0.0023979023098945618
",,,,,,,,,,,,,,,,,,,,,
19,"x: 258.6678771972656
y: 220.5557861328125
z: -0.1237259954214096
visibility: 0.9999444484710693
","x: 258.6372985839844
y: 213.9506378173828
z: -0.10245100408792496
visibility: 0.9999281764030457
","x: 259.50811767578125
y: 213.9004669189453
z: -0.10249803215265274
visibility: 0.9999087452888489
","x: 260.3735046386719
y: 213.86898803710938
z: -0.10249974578619003
visibility: 0.9999222159385681
","x: 255.36029052734375
y: 214.08688354492188
z: -0.11807969957590103
visibility: 0.9999263286590576
","x: 253.8023223876953
y: 214.1658172607422
z: -0.11809315532445908
visibility: 0.999908983707428
","x: 252.14358520507812
y: 214.37930297851562
z: -0.11815597116947174
visibility: 0.9999144673347473
","x: 259.7680358886719
y: 217.06692504882812
z: 0.013419350609183311
visibility: 0.9997835159301758
","x: 247.71023559570312
y: 219.3694305419922
z: -0.058118999004364014
visibility: 0.9998666644096375
","x: 260.33453369140625
y: 227.87271118164062
z: -0.07994338870048523
visibility: 0.999932050704956
","x: 256.4010925292969
y: 228.29153442382812
z: -0.10035227239131927
visibility: 0.9999557137489319
","x: 269.49761962890625
y: 265.236328125
z: 0.11312448978424072
visibility: 0.999868631362915
","x: 238.29103088378906
y: 264.03759765625
z: -0.06299347430467606
visibility: 0.9999357461929321
","x: 281.4511413574219
y: 314.3588562011719
z: 0.009098883718252182
visibility: 0.879997968673706
","x: 230.13331604003906
y: 320.03924560546875
z: -0.19251558184623718
visibility: 0.9517937302589417
","x: 281.2046203613281
y: 275.39752197265625
z: -0.2106935679912567
visibility: 0.9420264959335327
","x: 242.5194091796875
y: 273.1965026855469
z: -0.3519880175590515
visibility: 0.9762200713157654
","x: 281.4005432128906
y: 262.5741882324219
z: -0.2462174892425537
visibility: 0.9260742664337158
","x: 246.7631378173828
y: 262.581298828125
z: -0.3875710368156433
visibility: 0.9573059678077698
","x: 280.5089111328125
y: 259.29193115234375
z: -0.24004559218883514
visibility: 0.9250525236129761
","x: 247.55938720703125
y: 257.3416748046875
z: -0.380447655916214
visibility: 0.9574856758117676
","x: 279.1483154296875
y: 262.58966064453125
z: -0.2145831286907196
visibility: 0.9093047380447388
","x: 246.83612060546875
y: 260.42047119140625
z: -0.3502275347709656
visibility: 0.9450953602790833
","x: 261.907470703125
y: 373.7181396484375
z: 0.07970885932445526
visibility: 0.9989426732063293
","x: 245.87442016601562
y: 372.47698974609375
z: -0.07977291941642761
visibility: 0.9993599653244019
","x: 265.81201171875
y: 449.4041442871094
z: 0.10006779432296753
visibility: 0.8227238655090332
","x: 264.4015808105469
y: 442.49273681640625
z: -0.16075468063354492
visibility: 0.9249155521392822
","x: 252.71592712402344
y: 529.3902587890625
z: 0.2196802794933319
visibility: 0.8652815818786621
","x: 254.7910614013672
y: 539.361328125
z: -0.13043351471424103
visibility: 0.9142199158668518
","x: 246.90298461914062
y: 536.2067260742188
z: 0.22685043513774872
visibility: 0.8102263808250427
","x: 249.79676818847656
y: 553.528076171875
z: -0.1324813961982727
visibility: 0.8331487774848938
","x: 262.70458984375
y: 546.6458740234375
z: 0.16012844443321228
visibility: 0.8893074989318848
","x: 269.12335205078125
y: 557.9669189453125
z: -0.24531662464141846
visibility: 0.9205805063247681
",,,,,,,,,,,,,,,,,,,,,,"x: 241.6995086669922
y: 268.7099914550781
z: 0.0
","x: 245.97813415527344
y: 264.62994384765625
z: 0.0011197092244401574
","x: 248.6844940185547
y: 259.1237487792969
z: 8.873334445524961e-05
","x: 251.14173889160156
y: 256.1128234863281
z: -0.0019272536737844348
","x: 253.1890869140625
y: 254.56790161132812
z: -0.003669061930850148
","x: 247.09814453125
y: 249.8809814453125
z: -0.00034223703551106155
","x: 251.21160888671875
y: 245.85028076171875
z: -0.003397369058802724
","x: 254.0660400390625
y: 246.81199645996094
z: -0.005196926649659872
","x: 256.22161865234375
y: 248.37393188476562
z: -0.006189736537635326
","x: 246.02345275878906
y: 250.48753356933594
z: -0.0032586248125880957
","x: 250.5758056640625
y: 247.0980987548828
z: -0.0063560777343809605
","x: 253.6053924560547
y: 248.81605529785156
z: -0.0074168480932712555
","x: 255.6492462158203
y: 251.1070098876953
z: -0.007990624755620956
","x: 245.21792602539062
y: 252.72784423828125
z: -0.006363767199218273
","x: 249.62327575683594
y: 250.61012268066406
z: -0.0090238181874156
","x: 252.49960327148438
y: 251.90701293945312
z: -0.009064904414117336
","x: 254.40951538085938
y: 253.51560974121094
z: -0.00898992270231247
","x: 244.87188720703125
y: 256.6005859375
z: -0.009594465605914593
","x: 248.1247100830078
y: 255.3079376220703
z: -0.011393532156944275
","x: 250.0388946533203
y: 255.7102813720703
z: -0.011167902499437332
","x: 251.31121826171875
y: 256.3555603027344
z: -0.01090178731828928
"
20,"x: 258.6678771972656
y: 220.5557861328125
z: -0.1237259954214096
visibility: 0.9999444484710693
","x: 258.6372985839844
y: 213.9506378173828
z: -0.10245100408792496
visibility: 0.9999281764030457
","x: 259.50811767578125
y: 213.9004669189453
z: -0.10249803215265274
visibility: 0.9999087452888489
","x: 260.3735046386719
y: 213.86898803710938
z: -0.10249974578619003
visibility: 0.9999222159385681
","x: 255.36029052734375
y: 214.08688354492188
z: -0.11807969957590103
visibility: 0.9999263286590576
","x: 253.8023223876953
y: 214.1658172607422
z: -0.11809315532445908
visibility: 0.999908983707428
","x: 252.14358520507812
y: 214.37930297851562
z: -0.11815597116947174
visibility: 0.9999144673347473
","x: 259.7680358886719
y: 217.06692504882812
z: 0.013419350609183311
visibility: 0.9997835159301758
","x: 247.71023559570312
y: 219.3694305419922
z: -0.058118999004364014
visibility: 0.9998666644096375
","x: 260.33453369140625
y: 227.87271118164062
z: -0.07994338870048523
visibility: 0.999932050704956
","x: 256.4010925292969
y: 228.29153442382812
z: -0.10035227239131927
visibility: 0.9999557137489319
","x: 269.49761962890625
y: 265.236328125
z: 0.11312448978424072
visibility: 0.999868631362915
","x: 238.29103088378906
y: 264.03759765625
z: -0.06299347430467606
visibility: 0.9999357461929321
","x: 281.4511413574219
y: 314.3588562011719
z: 0.009098883718252182
visibility: 0.879997968673706
","x: 230.13331604003906
y: 320.03924560546875
z: -0.19251558184623718
visibility: 0.9517937302589417
","x: 281.2046203613281
y: 275.39752197265625
z: -0.2106935679912567
visibility: 0.9420264959335327
","x: 242.5194091796875
y: 273.1965026855469
z: -0.3519880175590515
visibility: 0.9762200713157654
","x: 281.4005432128906
y: 262.5741882324219
z: -0.2462174892425537
visibility: 0.9260742664337158
","x: 246.7631378173828
y: 262.581298828125
z: -0.3875710368156433
visibility: 0.9573059678077698
","x: 280.5089111328125
y: 259.29193115234375
z: -0.24004559218883514
visibility: 0.9250525236129761
","x: 247.55938720703125
y: 257.3416748046875
z: -0.380447655916214
visibility: 0.9574856758117676
","x: 279.1483154296875
y: 262.58966064453125
z: -0.2145831286907196
visibility: 0.9093047380447388
","x: 246.83612060546875
y: 260.42047119140625
z: -0.3502275347709656
visibility: 0.9450953602790833
","x: 261.907470703125
y: 373.7181396484375
z: 0.07970885932445526
visibility: 0.9989426732063293
","x: 245.87442016601562
y: 372.47698974609375
z: -0.07977291941642761
visibility: 0.9993599653244019
","x: 265.81201171875
y: 449.4041442871094
z: 0.10006779432296753
visibility: 0.8227238655090332
","x: 264.4015808105469
y: 442.49273681640625
z: -0.16075468063354492
visibility: 0.9249155521392822
","x: 252.71592712402344
y: 529.3902587890625
z: 0.2196802794933319
visibility: 0.8652815818786621
","x: 254.7910614013672
y: 539.361328125
z: -0.13043351471424103
visibility: 0.9142199158668518
","x: 246.90298461914062
y: 536.2067260742188
z: 0.22685043513774872
visibility: 0.8102263808250427
","x: 249.79676818847656
y: 553.528076171875
z: -0.1324813961982727
visibility: 0.8331487774848938
","x: 262.70458984375
y: 546.6458740234375
z: 0.16012844443321228
visibility: 0.8893074989318848
","x: 269.12335205078125
y: 557.9669189453125
z: -0.24531662464141846
visibility: 0.9205805063247681
",,,,,,,,,,,,,,,,,,,,,,"x: 241.6995086669922
y: 268.7099914550781
z: 0.0
","x: 245.97813415527344
y: 264.62994384765625
z: 0.0011197092244401574
","x: 248.6844940185547
y: 259.1237487792969
z: 8.873334445524961e-05
","x: 251.14173889160156
y: 256.1128234863281
z: -0.0019272536737844348
","x: 253.1890869140625
y: 254.56790161132812
z: -0.003669061930850148
","x: 247.09814453125
y: 249.8809814453125
z: -0.00034223703551106155
","x: 251.21160888671875
y: 245.85028076171875
z: -0.003397369058802724
","x: 254.0660400390625
y: 246.81199645996094
z: -0.005196926649659872
","x: 256.22161865234375
y: 248.37393188476562
z: -0.006189736537635326
","x: 246.02345275878906
y: 250.48753356933594
z: -0.0032586248125880957
","x: 250.5758056640625
y: 247.0980987548828
z: -0.0063560777343809605
","x: 253.6053924560547
y: 248.81605529785156
z: -0.0074168480932712555
","x: 255.6492462158203
y: 251.1070098876953
z: -0.007990624755620956
","x: 245.21792602539062
y: 252.72784423828125
z: -0.006363767199218273
","x: 249.62327575683594
y: 250.61012268066406
z: -0.0090238181874156
","x: 252.49960327148438
y: 251.90701293945312
z: -0.009064904414117336
","x: 254.40951538085938
y: 253.51560974121094
z: -0.00898992270231247
","x: 244.87188720703125
y: 256.6005859375
z: -0.009594465605914593
","x: 248.1247100830078
y: 255.3079376220703
z: -0.011393532156944275
","x: 250.0388946533203
y: 255.7102813720703
z: -0.011167902499437332
","x: 251.31121826171875
y: 256.3555603027344
z: -0.01090178731828928
"
21,"x: 256.31695556640625
y: 216.3009796142578
z: -0.12550480663776398
visibility: 0.9999421238899231
","x: 257.8736267089844
y: 209.9415740966797
z: -0.10269604623317719
visibility: 0.9999244809150696
","x: 259.0013732910156
y: 210.44837951660156
z: -0.10270325094461441
visibility: 0.9999030828475952
","x: 260.06268310546875
y: 211.0064697265625
z: -0.10268564522266388
visibility: 0.9999162554740906
","x: 254.2366180419922
y: 208.84295654296875
z: -0.1129092201590538
visibility: 0.9999231696128845
","x: 252.53805541992188
y: 208.3039093017578
z: -0.11290255934000015
visibility: 0.9999066591262817
","x: 250.82823181152344
y: 207.6447296142578
z: -0.11289761960506439
visibility: 0.9999135136604309
","x: 260.65228271484375
y: 215.82635498046875
z: 0.020016051828861237
visibility: 0.9997672438621521
","x: 246.40353393554688
y: 211.68405151367188
z: -0.02711563929915428
visibility: 0.9998687505722046
","x: 257.6181335449219
y: 225.3624725341797
z: -0.0800645500421524
visibility: 0.9999298453330994
","x: 252.93551635742188
y: 224.35678100585938
z: -0.09385692328214645
visibility: 0.999955415725708
","x: 268.5443420410156
y: 261.76123046875
z: 0.10496248304843903
visibility: 0.9998687505722046
","x: 234.15737915039062
y: 257.0386047363281
z: -0.004753139801323414
visibility: 0.9999311566352844
","x: 284.8446960449219
y: 307.18695068359375
z: 0.0041879997588694096
visibility: 0.8890183568000793
","x: 224.6735382080078
y: 316.95684814453125
z: -0.11876270920038223
visibility: 0.9559637308120728
","x: 277.0043029785156
y: 277.2933349609375
z: -0.21766860783100128
visibility: 0.9456024765968323
","x: 242.73297119140625
y: 276.50531005859375
z: -0.31846901774406433
visibility: 0.9778624773025513
","x: 275.6795959472656
y: 267.7788391113281
z: -0.25705257058143616
visibility: 0.927788496017456
","x: 248.3677520751953
y: 271.68719482421875
z: -0.3514467477798462
visibility: 0.9594374299049377
","x: 274.29132080078125
y: 263.71441650390625
z: -0.25159603357315063
visibility: 0.9265588521957397
","x: 249.89295959472656
y: 266.843505859375
z: -0.3442075848579407
visibility: 0.9592585563659668
","x: 273.3838806152344
y: 266.35906982421875
z: -0.22053126990795135
visibility: 0.9099563360214233
","x: 248.29791259765625
y: 268.27203369140625
z: -0.30496883392333984
visibility: 0.9464195966720581
","x: 261.1461486816406
y: 364.354736328125
z: 0.06477288901805878
visibility: 0.9989676475524902
","x: 242.31130981445312
y: 362.3983154296875
z: -0.06481023877859116
visibility: 0.9992866516113281
","x: 262.17431640625
y: 449.489013671875
z: 0.02570038102567196
visibility: 0.8262752890586853
","x: 257.5500183105469
y: 444.4910888671875
z: -0.09809793531894684
visibility: 0.9290029406547546
","x: 252.541015625
y: 530.448486328125
z: 0.1525549590587616
visibility: 0.8699173927307129
","x: 243.35523986816406
y: 530.5726928710938
z: 0.011941266246140003
visibility: 0.9187899231910706
","x: 247.3265380859375
y: 539.1123046875
z: 0.1583462655544281
visibility: 0.809326171875
","x: 240.02508544921875
y: 540.2735595703125
z: 0.012716436758637428
visibility: 0.8267315030097961
","x: 262.9952697753906
y: 550.990234375
z: 0.05300102382898331
visibility: 0.8922960162162781
","x: 252.3442840576172
y: 557.04541015625
z: -0.10160726308822632
visibility: 0.9235832095146179
",,,,,,,,,,,,,,,,,,,,,,,,,,,,,,,,,,,,,,,,,,
22,"x: 255.66912841796875
y: 214.1427459716797
z: -0.27310022711753845
visibility: 0.9999472498893738
","x: 256.4041442871094
y: 208.0790557861328
z: -0.24642904102802277
visibility: 0.9999310374259949
","x: 257.334716796875
y: 208.6280517578125
z: -0.24641315639019012
visibility: 0.9999112486839294
","x: 258.29888916015625
y: 209.26063537597656
z: -0.24640920758247375
visibility: 0.9999231100082397
","x: 253.35122680664062
y: 206.89202880859375
z: -0.25958478450775146
visibility: 0.9999301433563232
","x: 251.72018432617188
y: 206.44142150878906
z: -0.2596159875392914
visibility: 0.9999151825904846
","x: 250.082763671875
y: 205.96304321289062
z: -0.2596171498298645
visibility: 0.999921441078186
","x: 257.7637634277344
y: 213.9193878173828
z: -0.09974779933691025
visibility: 0.9997847676277161
","x: 245.0894775390625
y: 210.1282501220703
z: -0.16160807013511658
visibility: 0.9998812675476074
","x: 256.59454345703125
y: 222.7158966064453
z: -0.21875305473804474
visibility: 0.9999359846115112
","x: 252.34078979492188
y: 221.99807739257812
z: -0.23667040467262268
visibility: 0.9999594688415527
","x: 266.6202087402344
y: 260.0567932128906
z: 0.011392245069146156
visibility: 0.9998762011528015
","x: 231.98814392089844
y: 256.63037109375
z: -0.11651048809289932
visibility: 0.9999337792396545
","x: 288.86376953125
y: 300.36932373046875
z: -0.070521280169487
visibility: 0.8991999626159668
","x: 215.45216369628906
y: 309.6175537109375
z: -0.1793953776359558
visibility: 0.9600768685340881
","x: 275.1505126953125
y: 281.5191345214844
z: -0.31998732686042786
visibility: 0.9497343897819519
","x: 238.340576171875
y: 313.4817199707031
z: -0.3167992830276489
visibility: 0.9786571264266968
","x: 267.13287353515625
y: 284.4705505371094
z: -0.37125781178474426
visibility: 0.9310472011566162
","x: 244.00405883789062
y: 323.48260498046875
z: -0.3539971113204956
visibility: 0.9592846632003784
","x: 264.7378234863281
y: 279.5528869628906
z: -0.3663695752620697
visibility: 0.9299209713935852
","x: 246.12808227539062
y: 318.2312927246094
z: -0.35653895139694214
visibility: 0.9587727189064026
","x: 266.20611572265625
y: 278.4527282714844
z: -0.32381993532180786
visibility: 0.912911057472229
","x: 244.60195922851562
y: 315.2909240722656
z: -0.3159417510032654
visibility: 0.9442811012268066
","x: 259.1110534667969
y: 365.9042663574219
z: 0.06019338220357895
visibility: 0.99905925989151
","x: 239.25421142578125
y: 363.4559631347656
z: -0.06039334088563919
visibility: 0.9993369579315186
","x: 261.2489013671875
y: 455.52239990234375
z: 0.028641730546951294
visibility: 0.8406276702880859
","x: 232.42117309570312
y: 449.3648681640625
z: -0.05258213356137276
visibility: 0.9352449774742126
","x: 251.98085021972656
y: 531.446044921875
z: 0.15718765556812286
visibility: 0.881054162979126
","x: 216.68922424316406
y: 525.0394897460938
z: 0.13975301384925842
visibility: 0.9254885315895081
","x: 246.94512939453125
y: 542.2093505859375
z: 0.1616930365562439
visibility: 0.821867823600769
","x: 215.88058471679688
y: 535.639404296875
z: 0.1524859368801117
visibility: 0.8259661793708801
","x: 263.2296142578125
y: 551.3978271484375
z: 0.07162207365036011
visibility: 0.900754451751709
","x: 213.87799072265625
y: 549.6558227539062
z: 0.03463510051369667
visibility: 0.9290503859519958
",,,,,,,,,,,,,,,,,,,,,,,,,,,,,,,,,,,,,,,,,,
23,"x: 246.13772583007812
y: 216.060546875
z: -0.23717109858989716
visibility: 0.9999524354934692
","x: 249.03616333007812
y: 209.93873596191406
z: -0.21404778957366943
visibility: 0.9999377727508545
","x: 250.9059295654297
y: 210.43148803710938
z: -0.2140716314315796
visibility: 0.9999199509620667
","x: 252.99087524414062
y: 211.06036376953125
z: -0.21408705413341522
visibility: 0.9999306201934814
","x: 244.8299560546875
y: 209.0579376220703
z: -0.21857449412345886
visibility: 0.9999368786811829
","x: 243.19908142089844
y: 208.88406372070312
z: -0.2185547649860382
visibility: 0.9999233484268188
","x: 241.4640655517578
y: 208.76791381835938
z: -0.21854253113269806
visibility: 0.999928891658783
","x: 256.9814453125
y: 216.721435546875
z: -0.0869734138250351
visibility: 0.9998055100440979
","x: 239.50543212890625
y: 214.45989990234375
z: -0.1302923560142517
visibility: 0.9998928308486938
","x: 248.98370361328125
y: 224.90492248535156
z: -0.19125211238861084
visibility: 0.9999421834945679
","x: 243.64602661132812
y: 224.3007049560547
z: -0.1979261338710785
visibility: 0.9999633431434631
","x: 264.66253662109375
y: 264.5660705566406
z: -0.004704327788203955
visibility: 0.9998865127563477
","x: 227.46456909179688
y: 263.17694091796875
z: -0.057189635932445526
visibility: 0.9999366998672485
","x: 283.09136962890625
y: 308.94793701171875
z: -0.12579026818275452
visibility: 0.9087576270103455
","x: 212.52853393554688
y: 313.20001220703125
z: -0.03666350990533829
visibility: 0.9614408612251282
","x: 270.66485595703125
y: 263.06103515625
z: -0.3582709729671478
visibility: 0.9544227123260498
","x: 213.39907836914062
y: 363.4256286621094
z: -0.09473336488008499
visibility: 0.9691996574401855
","x: 265.4923095703125
y: 252.5365447998047
z: -0.4045572280883789
visibility: 0.9367496967315674
","x: 212.21641540527344
y: 380.3495788574219
z: -0.1120002493262291
visibility: 0.9386790990829468
","x: 264.0233154296875
y: 248.40228271484375
z: -0.3977746069431305
visibility: 0.9357345700263977
","x: 214.07559204101562
y: 380.9896240234375
z: -0.13669365644454956
visibility: 0.9383320212364197
","x: 264.347900390625
y: 253.54505920410156
z: -0.3617207705974579
visibility: 0.9197103977203369
","x: 215.59950256347656
y: 376.88330078125
z: -0.10484065860509872
visibility: 0.9229912757873535
","x: 254.1527099609375
y: 379.5959167480469
z: 0.03999727964401245
visibility: 0.9991475343704224
","x: 229.69944763183594
y: 375.0188903808594
z: -0.04019969329237938
visibility: 0.9993914365768433
","x: 260.2217712402344
y: 461.546142578125
z: 0.034232545644044876
visibility: 0.854717493057251
","x: 216.673095703125
y: 457.8240966796875
z: -0.02376866713166237
visibility: 0.9413747787475586
","x: 251.6018524169922
y: 531.778076171875
z: 0.20701348781585693
visibility: 0.8918908834457397
","x: 206.9910430908203
y: 524.5862426757812
z: 0.14434190094470978
visibility: 0.9323596954345703
","x: 246.5901336669922
y: 542.7708740234375
z: 0.21658837795257568
visibility: 0.8342286348342896
","x: 206.2493438720703
y: 534.324951171875
z: 0.15445397794246674
visibility: 0.8278923034667969
","x: 262.9019775390625
y: 551.8311157226562
z: 0.10479916632175446
visibility: 0.9091177582740784
","x: 205.21792602539062
y: 548.2356567382812
z: 0.035980962216854095
visibility: 0.9350115060806274
",,,,,,,,,,,,,,,,,,,,,,,,,,,,,,,,,,,,,,,,,,
24,"x: 239.58767700195312
y: 212.005615234375
z: -0.1713688224554062
visibility: 0.9999570846557617
","x: 242.12828063964844
y: 207.39566040039062
z: -0.15059372782707214
visibility: 0.9999436736106873
","x: 243.61590576171875
y: 207.99215698242188
z: -0.15065458416938782
visibility: 0.9999276399612427
","x: 245.24671936035156
y: 208.56649780273438
z: -0.15069758892059326
visibility: 0.9999371767044067
","x: 238.0335235595703
y: 205.76638793945312
z: -0.15132549405097961
visibility: 0.9999427199363708
","x: 236.35743713378906
y: 205.3860626220703
z: -0.15126197040081024
visibility: 0.9999303817749023
","x: 234.70896911621094
y: 205.00550842285156
z: -0.1511888951063156
visibility: 0.9999352693557739
","x: 247.17044067382812
y: 214.59730529785156
z: -0.03663206100463867
visibility: 0.999824047088623
","x: 231.6026611328125
y: 209.9223175048828
z: -0.049464188516139984
visibility: 0.9999029040336609
","x: 241.0654754638672
y: 221.2880096435547
z: -0.13076251745224
visibility: 0.9999476075172424
","x: 236.34791564941406
y: 219.5036163330078
z: -0.13275279104709625
visibility: 0.9999668002128601
","x: 252.90109252929688
y: 257.9510803222656
z: 0.021543586626648903
visibility: 0.9998971819877625
","x: 217.08935546875
y: 258.03326416015625
z: 0.0227424968034029
visibility: 0.9999417066574097
","x: 261.6191711425781
y: 307.37939453125
z: -0.08208636939525604
visibility: 0.9168850183486938
","x: 204.40879821777344
y: 312.4551696777344
z: 0.04534196853637695
visibility: 0.9628315567970276
","x: 270.4685363769531
y: 255.08700561523438
z: -0.31116485595703125
visibility: 0.9586477875709534
","x: 191.17568969726562
y: 354.48370361328125
z: -0.016815898939967155
visibility: 0.9698627591133118
","x: 271.4742736816406
y: 241.88449096679688
z: -0.3540831208229065
visibility: 0.9420760273933411
","x: 186.74002075195312
y: 369.5372009277344
z: -0.03284916281700134
visibility: 0.9393208622932434
","x: 271.3611755371094
y: 238.0841064453125
z: -0.3410744071006775
visibility: 0.9412233233451843
","x: 187.10107421875
y: 370.13128662109375
z: -0.06287628412246704
visibility: 0.9394878149032593
","x: 269.7647399902344
y: 242.1990203857422
z: -0.3082350790500641
visibility: 0.9264219403266907
","x: 188.8663787841797
y: 366.1861572265625
z: -0.030765194445848465
visibility: 0.9251562356948853
","x: 243.3809814453125
y: 372.1389465332031
z: 0.014770994894206524
visibility: 0.9992279410362244
","x: 219.8529510498047
y: 367.059814453125
z: -0.01480684895068407
visibility: 0.9994456171989441
","x: 252.22386169433594
y: 458.0733642578125
z: 0.02470782957971096
visibility: 0.8685380816459656
","x: 210.0061798095703
y: 457.0428161621094
z: -0.016076307743787766
visibility: 0.9469280242919922
","x: 252.11952209472656
y: 531.4342041015625
z: 0.15094813704490662
visibility: 0.9020915031433105
","x: 205.8365936279297
y: 524.548095703125
z: 0.12542885541915894
visibility: 0.9387192130088806
","x: 249.1947021484375
y: 542.2072143554688
z: 0.15723371505737305
visibility: 0.845144510269165
","x: 206.43112182617188
y: 535.3101196289062
z: 0.13254515826702118
visibility: 0.8335760235786438
","x: 262.5426330566406
y: 551.6832275390625
z: 0.04347754269838333
visibility: 0.9171697497367859
","x: 203.15243530273438
y: 547.5521240234375
z: 0.016005754470825195
visibility: 0.9406208395957947
",,,,,,,,,,,,,,,,,,,,,,,,,,,,,,,,,,,,,,,,,,
25,"x: 232.0952606201172
y: 206.77674865722656
z: -0.13546109199523926
visibility: 0.9999613165855408
","x: 234.8334197998047
y: 203.0274200439453
z: -0.11713746935129166
visibility: 0.9999491572380066
","x: 236.3068084716797
y: 203.80616760253906
z: -0.1171952337026596
visibility: 0.999934732913971
","x: 237.81939697265625
y: 204.58108520507812
z: -0.11723119020462036
visibility: 0.9999433159828186
","x: 230.64173889160156
y: 201.20191955566406
z: -0.11614583432674408
visibility: 0.9999482035636902
","x: 229.024658203125
y: 200.81739807128906
z: -0.11608059704303741
visibility: 0.9999369978904724
","x: 227.35675048828125
y: 200.5618133544922
z: -0.11599709093570709
visibility: 0.9999412894248962
","x: 240.0053253173828
y: 211.0052490234375
z: -0.015681125223636627
visibility: 0.9998413920402527
","x: 224.7168426513672
y: 205.41358947753906
z: -0.014453092589974403
visibility: 0.9999121427536011
","x: 233.8036651611328
y: 216.46090698242188
z: -0.09887507557868958
visibility: 0.9999527335166931
","x: 228.61207580566406
y: 214.41799926757812
z: -0.09829685837030411
visibility: 0.999970018863678
","x: 246.1017608642578
y: 253.2176055908203
z: 0.021525297313928604
visibility: 0.9999073147773743
","x: 210.9362030029297
y: 253.41612243652344
z: 0.06027408689260483
visibility: 0.999946653842926
","x: 251.58404541015625
y: 307.29400634765625
z: -0.0817265510559082
visibility: 0.9246537089347839
","x: 197.93492126464844
y: 305.83544921875
z: 0.08940351009368896
visibility: 0.9623773694038391
","x: 260.33123779296875
y: 254.51332092285156
z: -0.28384241461753845
visibility: 0.9626215696334839
","x: 180.43112182617188
y: 342.64630126953125
z: 0.024998541921377182
visibility: 0.9702695608139038
","x: 263.51416015625
y: 240.58868408203125
z: -0.32165345549583435
visibility: 0.9473938941955566
","x: 175.77166748046875
y: 358.4466247558594
z: 0.010231035761535168
visibility: 0.9400830864906311
","x: 264.1244812011719
y: 237.32542419433594
z: -0.33291104435920715
visibility: 0.9466407895088196
","x: 175.94107055664062
y: 358.383056640625
z: -0.02367004193365574
visibility: 0.9407414197921753
","x: 261.9053039550781
y: 241.57064819335938
z: -0.29072046279907227
visibility: 0.9330791234970093
","x: 177.6240234375
y: 352.9366760253906
z: 0.008598136715590954
visibility: 0.9278085231781006
","x: 236.0748748779297
y: 363.8962097167969
z: -0.0025926565285772085
visibility: 0.9993026256561279
","x: 213.4068145751953
y: 363.0540771484375
z: 0.0025553267914801836
visibility: 0.9994968175888062
","x: 246.92979431152344
y: 455.2674560546875
z: -0.010236169211566448
visibility: 0.8812095522880554
","x: 208.25198364257812
y: 455.5353088378906
z: -0.00991934072226286
visibility: 0.9517335295677185
","x: 255.24928283691406
y: 527.6976318359375
z: 0.11644120514392853
visibility: 0.9113178253173828
","x: 204.5732421875
y: 524.95458984375
z: 0.1303686946630478
visibility: 0.9442469477653503
","x: 254.1079559326172
y: 537.1322021484375
z: 0.12338858842849731
visibility: 0.8501850962638855
","x: 206.43634033203125
y: 535.422119140625
z: 0.13717755675315857
visibility: 0.8381697535514832
","x: 263.2470703125
y: 551.3604736328125
z: 0.0063516972586512566
visibility: 0.9244051575660706
","x: 201.51318359375
y: 547.6812133789062
z: 0.022881653159856796
visibility: 0.9453616142272949
",,,,,,,,,,,,,,,,,,,,,,,,,,,,,,,,,,,,,,,,,,
26,"x: 218.48175048828125
y: 208.59075927734375
z: -0.20194053649902344
visibility: 0.9999648928642273
","x: 221.94387817382812
y: 204.72540283203125
z: -0.18538585305213928
visibility: 0.9999535083770752
","x: 223.79013061523438
y: 205.628173828125
z: -0.18544551730155945
visibility: 0.9999405741691589
","x: 225.55838012695312
y: 206.508544921875
z: -0.18550561368465424
visibility: 0.9999482035636902
","x: 217.62213134765625
y: 203.02133178710938
z: -0.17635847628116608
visibility: 0.9999520778656006
","x: 216.32522583007812
y: 202.7631378173828
z: -0.1762879341840744
