uscmakers/ReverseChoreography/data/8_knife_talk_drake.csv
,NOSE,LEFT_EYE_INNER,LEFT_EYE,LEFT_EYE_OUTER,RIGHT_EYE_INNER,RIGHT_EYE,RIGHT_EYE_OUTER,LEFT_EAR,RIGHT_EAR,MOUTH_LEFT,MOUTH_RIGHT,LEFT_SHOULDER,RIGHT_SHOULDER,LEFT_ELBOW,RIGHT_ELBOW,LEFT_WRIST,RIGHT_WRIST,LEFT_PINKY,RIGHT_PINKY,LEFT_INDEX,RIGHT_INDEX,LEFT_THUMB,RIGHT_THUMB,LEFT_HIP,RIGHT_HIP,LEFT_KNEE,RIGHT_KNEE,LEFT_ANKLE,RIGHT_ANKLE,LEFT_HEEL,RIGHT_HEEL,LEFT_FOOT_INDEX,RIGHT_FOOT_INDEX,WRIST2,THUMB_CPC2,THUMB_MCP2,THUMB_IP2,THUMB_TIP2,INDEX_FINGER_MCP2,INDEX_FINGER_PIP2,INDEX_FINGER_DIP2,INDEX_FINGER_TIP2,MIDDLE_FINGER_MCP2,MIDDLE_FINGER_PIP2,MIDDLE_FINGER_DIP2,MIDDLE_FINGER_TIP2,RING_FINGER_PIP2,RING_FINGER_DIP2,RING_FINGER_TIP2,RING_FINGER_MCP2,PINKY_MCP2,PINKY_PIP2,PINKY_DIP2,PINKY_TIP2,WRIST,THUMB_CPC,THUMB_MCP,THUMB_IP,THUMB_TIP,INDEX_FINGER_MCP,INDEX_FINGER_PIP,INDEX_FINGER_DIP,INDEX_FINGER_TIP,MIDDLE_FINGER_MCP,MIDDLE_FINGER_PIP,MIDDLE_FINGER_DIP,MIDDLE_FINGER_TIP,RING_FINGER_PIP,RING_FINGER_DIP,RING_FINGER_TIP,RING_FINGER_MCP,PINKY_MCP,PINKY_PIP,PINKY_DIP,PINKY_TIP
0,"x: 214.54202270507812
y: 269.16387939453125
z: -0.5753177404403687
visibility: 0.9997714161872864
","x: 218.5512237548828
y: 260.8599548339844
z: -0.5591701865196228
visibility: 0.9994866847991943
","x: 219.9757843017578
y: 261.4368896484375
z: -0.5591729283332825
visibility: 0.9994754195213318
","x: 221.29833984375
y: 262.03338623046875
z: -0.559282660484314
visibility: 0.9994592070579529
","x: 212.44129943847656
y: 258.3003845214844
z: -0.5635201334953308
visibility: 0.9996010661125183
","x: 210.37225341796875
y: 257.49285888671875
z: -0.5636734962463379
visibility: 0.9996260404586792
","x: 208.50828552246094
y: 256.80657958984375
z: -0.5637422800064087
visibility: 0.999697208404541
","x: 223.09776306152344
y: 266.45068359375
z: -0.4275493025779724
visibility: 0.998907208442688
","x: 205.3678436279297
y: 259.4888916015625
z: -0.44554901123046875
visibility: 0.9996705055236816
","x: 216.26596069335938
y: 279.8056640625
z: -0.5216187834739685
visibility: 0.9996658563613892
","x: 209.48208618164062
y: 276.9140625
z: -0.5274149179458618
visibility: 0.9998512268066406
","x: 227.89715576171875
y: 308.3202819824219
z: -0.27564969658851624
visibility: 0.9994291663169861
","x: 187.56936645507812
y: 297.689208984375
z: -0.3390890061855316
visibility: 0.9999417066574097
","x: 221.4622802734375
y: 368.41412353515625
z: -0.2122407704591751
visibility: 0.8215057253837585
","x: 181.66188049316406
y: 360.281005859375
z: -0.3005845248699188
visibility: 0.9697820544242859
","x: 209.3756103515625
y: 405.03363037109375
z: -0.2742285430431366
visibility: 0.45909571647644043
","x: 196.12086486816406
y: 404.9576416015625
z: -0.3544803857803345
visibility: 0.8525804281234741
","x: 206.96287536621094
y: 417.18524169921875
z: -0.29448381066322327
visibility: 0.35687506198883057
","x: 196.3052215576172
y: 417.1887512207031
z: -0.3862698972225189
visibility: 0.7603520750999451
","x: 205.04931640625
y: 415.7536315917969
z: -0.320696085691452
visibility: 0.3496096730232239
","x: 199.85655212402344
y: 416.3048095703125
z: -0.40155714750289917
visibility: 0.7570955157279968
","x: 205.7075958251953
y: 411.46112060546875
z: -0.28547203540802
visibility: 0.31888312101364136
","x: 200.28932189941406
y: 412.5870361328125
z: -0.3606865108013153
visibility: 0.7034262418746948
","x: 209.78453063964844
y: 377.46636962890625
z: 0.026283230632543564
visibility: 0.9990077614784241
","x: 185.30697631835938
y: 374.5467834472656
z: -0.026341933757066727
visibility: 0.9995228052139282
","x: 215.19479370117188
y: 457.75439453125
z: -0.08325614780187607
visibility: 0.949364423751831
","x: 191.69017028808594
y: 457.0946044921875
z: -0.17954392731189728
visibility: 0.9743067622184753
","x: 221.2299041748047
y: 545.1500244140625
z: 0.01048959232866764
visibility: 0.9466482400894165
","x: 194.59249877929688
y: 553.998779296875
z: -0.09661028534173965
visibility: 0.9742065072059631
","x: 219.7510528564453
y: 556.8805541992188
z: 0.012350362725555897
visibility: 0.652294397354126
","x: 191.92674255371094
y: 564.7150268554688
z: -0.09583964943885803
visibility: 0.7805067300796509
","x: 226.5295867919922
y: 574.4224243164062
z: -0.13155658543109894
visibility: 0.9191769957542419
","x: 204.89927673339844
y: 581.1248168945312
z: -0.25811946392059326
visibility: 0.9638321399688721
",,,,,,,,,,,,,,,,,,,,,,,,,,,,,,,,,,,,,,,,,,
1,"x: 217.81796264648438
y: 269.76458740234375
z: -0.5771283507347107
visibility: 0.9997925162315369
","x: 220.9703826904297
y: 261.9102783203125
z: -0.5640940070152283
visibility: 0.9995335936546326
","x: 222.65286254882812
y: 262.4706115722656
z: -0.5640867948532104
visibility: 0.9995228052139282
","x: 224.18533325195312
y: 262.9287109375
z: -0.5641998052597046
visibility: 0.999508261680603
","x: 215.8776092529297
y: 259.7887268066406
z: -0.5681809186935425
visibility: 0.9996376037597656
","x: 213.9464569091797
y: 258.9449768066406
z: -0.5683389902114868
visibility: 0.9996600151062012
","x: 211.76040649414062
y: 257.99700927734375
z: -0.5684089660644531
visibility: 0.9997247457504272
","x: 225.8712158203125
y: 266.4686279296875
z: -0.43956342339515686
visibility: 0.9990076422691345
","x: 207.26193237304688
y: 259.6185302734375
z: -0.45639657974243164
visibility: 0.9997008442878723
","x: 219.20849609375
y: 279.8255615234375
z: -0.5248178839683533
visibility: 0.9996975064277649
","x: 213.6727752685547
y: 277.13214111328125
z: -0.5302938222885132
visibility: 0.9998651742935181
","x: 230.9515380859375
y: 305.3846435546875
z: -0.2834632992744446
visibility: 0.9994819164276123
","x: 190.2710418701172
y: 296.3651428222656
z: -0.3486345708370209
visibility: 0.9999469518661499
","x: 225.16139221191406
y: 366.24658203125
z: -0.22380807995796204
visibility: 0.8355978727340698
","x: 186.22991943359375
y: 359.92633056640625
z: -0.3025379776954651
visibility: 0.9717382192611694
","x: 213.63926696777344
y: 404.3536376953125
z: -0.2774999439716339
visibility: 0.4925919473171234
","x: 199.29074096679688
y: 405.9730529785156
z: -0.34708619117736816
visibility: 0.8611955642700195
","x: 210.9705352783203
y: 416.9903259277344
z: -0.29609546065330505
visibility: 0.3858424723148346
","x: 200.65924072265625
y: 417.86572265625
z: -0.3735942840576172
visibility: 0.7717781662940979
","x: 208.3520965576172
y: 415.15252685546875
z: -0.3198356032371521
visibility: 0.37862929701805115
","x: 203.39329528808594
y: 417.0544738769531
z: -0.39384955167770386
visibility: 0.7689345479011536
","x: 208.8442840576172
y: 410.4952697753906
z: -0.2863481044769287
visibility: 0.3447425365447998
","x: 203.65640258789062
y: 413.81329345703125
z: -0.35433489084243774
visibility: 0.7175242304801941
","x: 212.61016845703125
y: 377.58966064453125
z: 0.026256302371621132
visibility: 0.9990479946136475
","x: 188.28916931152344
y: 375.1769714355469
z: -0.026314670220017433
visibility: 0.9995416402816772
","x: 215.71697998046875
y: 458.1790771484375
z: -0.05762556940317154
visibility: 0.9500439763069153
","x: 193.27232360839844
y: 457.2105407714844
z: -0.15653903782367706
visibility: 0.9745045304298401
","x: 221.34152221679688
y: 545.3792114257812
z: 0.018443651497364044
visibility: 0.9475488662719727
","x: 194.61260986328125
y: 553.97607421875
z: -0.09660015255212784
visibility: 0.9747864603996277
","x: 219.7598419189453
y: 557.4970703125
z: 0.018732614815235138
visibility: 0.6568111181259155
","x: 192.61245727539062
y: 565.27490234375
z: -0.09671806544065475
visibility: 0.7843159437179565
","x: 226.3945770263672
y: 574.0369262695312
z: -0.11641566455364227
visibility: 0.921273946762085
","x: 204.81935119628906
y: 580.9171752929688
z: -0.25180119276046753
visibility: 0.964718222618103
",,,,,,,,,,,,,,,,,,,,,,,,,,,,,,,,,,,,,,,,,,
2,"x: 219.34194946289062
y: 274.507568359375
z: -0.5929535627365112
visibility: 0.9998116493225098
","x: 222.6304168701172
y: 265.991943359375
z: -0.5791301727294922
visibility: 0.9995771050453186
","x: 224.35955810546875
y: 266.2536926269531
z: -0.5791271924972534
visibility: 0.9995664954185486
","x: 225.99147033691406
y: 266.5243835449219
z: -0.5792641639709473
visibility: 0.999552845954895
","x: 217.49789428710938
y: 264.1362609863281
z: -0.5873085260391235
visibility: 0.9996718168258667
","x: 215.4937744140625
y: 263.0111999511719
z: -0.5874610543251038
visibility: 0.9996921420097351
","x: 213.3142547607422
y: 261.8978271484375
z: -0.5875488519668579
visibility: 0.9997506737709045
","x: 227.33152770996094
y: 268.5423889160156
z: -0.44532665610313416
visibility: 0.99909907579422
","x: 208.46136474609375
y: 262.20074462890625
z: -0.4811408519744873
visibility: 0.9997298121452332
","x: 220.5973663330078
y: 283.6097412109375
z: -0.5368040800094604
visibility: 0.9997260570526123
","x: 215.25344848632812
y: 281.0797424316406
z: -0.5478836297988892
visibility: 0.9998780488967896
","x: 230.90618896484375
y: 303.2388916015625
z: -0.2575950622558594
visibility: 0.999528169631958
","x: 191.63888549804688
y: 296.40130615234375
z: -0.365220308303833
visibility: 0.9999515414237976
","x: 226.53892517089844
y: 364.64190673828125
z: -0.13410797715187073
visibility: 0.8427733182907104
","x: 188.6324462890625
y: 361.6702880859375
z: -0.3049764037132263
visibility: 0.9732602834701538
","x: 221.66075134277344
y: 380.65087890625
z: -0.13466694951057434
visibility: 0.5206269025802612
","x: 200.79891967773438
y: 411.2752685546875
z: -0.3236316740512848
visibility: 0.8673744201660156
","x: 220.34376525878906
y: 387.7633972167969
z: -0.1371833086013794
visibility: 0.4107494354248047
","x: 200.92872619628906
y: 433.402099609375
z: -0.34367474913597107
visibility: 0.77978515625
","x: 219.6498565673828
y: 381.9683837890625
z: -0.1546274721622467
visibility: 0.4033178687095642
","x: 204.7571563720703
y: 426.6629333496094
z: -0.3636484146118164
visibility: 0.7767136096954346
","x: 219.4266815185547
y: 379.547607421875
z: -0.1396399289369583
visibility: 0.36590495705604553
","x: 204.63107299804688
y: 421.82073974609375
z: -0.3289977014064789
visibility: 0.7270197868347168
","x: 212.48744201660156
y: 376.4294128417969
z: 0.03332079201936722
visibility: 0.9991050958633423
","x: 188.5830841064453
y: 374.67034912109375
z: -0.03326423093676567
visibility: 0.9995622634887695
","x: 216.13365173339844
y: 458.49658203125
z: -0.049410250037908554
visibility: 0.9522777199745178
","x: 195.67340087890625
y: 457.1793212890625
z: -0.15542976558208466
visibility: 0.9758486747741699
","x: 221.3529052734375
y: 546.0862426757812
z: 0.02761843428015709
visibility: 0.9504759311676025
","x: 194.7040557861328
y: 554.0315551757812
z: -0.09422454982995987
visibility: 0.9765397906303406
","x: 219.50314331054688
y: 559.7874755859375
z: 0.027731304988265038
visibility: 0.6746898293495178
","x: 192.5974578857422
y: 565.8519287109375
z: -0.09557048976421356
visibility: 0.7987952828407288
","x: 226.74948120117188
y: 574.0369873046875
z: -0.10438189655542374
visibility: 0.925993025302887
","x: 206.39039611816406
y: 580.839111328125
z: -0.2474483996629715
visibility: 0.9670743346214294
",,,,,,,,,,,,,,,,,,,,,,,,,,,,,,,,,,,,,,,,,,
3,"x: 220.9747314453125
y: 275.00970458984375
z: -0.521489679813385
visibility: 0.9998239874839783
","x: 224.5001220703125
y: 266.7374572753906
z: -0.5088988542556763
visibility: 0.9996067881584167
","x: 226.30824279785156
y: 267.1721496582031
z: -0.5089423060417175
visibility: 0.9995937347412109
","x: 228.048095703125
y: 267.55718994140625
z: -0.5090630650520325
visibility: 0.9995835423469543
","x: 219.152099609375
y: 264.6273498535156
z: -0.5133732557296753
visibility: 0.9996945858001709
","x: 217.0808868408203
y: 263.4858093261719
z: -0.5134706497192383
visibility: 0.9997105002403259
","x: 214.89959716796875
y: 262.3511962890625
z: -0.5135509371757507
visibility: 0.99976646900177
","x: 229.2172393798828
y: 269.4970397949219
z: -0.39041370153427124
visibility: 0.9991610050201416
","x: 209.68234252929688
y: 262.5176696777344
z: -0.40777474641799927
visibility: 0.9997498393058777
","x: 222.3662872314453
y: 284.070556640625
z: -0.47248750925064087
visibility: 0.9997497797012329
","x: 216.65611267089844
y: 281.47479248046875
z: -0.47803249955177307
visibility: 0.99988853931427
","x: 231.96792602539062
y: 303.58514404296875
z: -0.25022608041763306
visibility: 0.999572217464447
","x: 192.48886108398438
y: 296.3497619628906
z: -0.3053111433982849
visibility: 0.9999551773071289
","x: 233.3452606201172
y: 367.9796142578125
z: -0.2927688956260681
visibility: 0.8556454181671143
","x: 188.51126098632812
y: 364.5831604003906
z: -0.28023165464401245
visibility: 0.9724335074424744
","x: 221.71566772460938
y: 368.12091064453125
z: -0.45456355810165405
visibility: 0.5580990314483643
","x: 201.4952392578125
y: 420.05853271484375
z: -0.3254367411136627
visibility: 0.8638098239898682
","x: 217.4754180908203
y: 367.5198669433594
z: -0.49025338888168335
visibility: 0.44982680678367615
","x: 202.37063598632812
y: 448.0807189941406
z: -0.3496820628643036
visibility: 0.7740482687950134
","x: 216.74984741210938
y: 361.2986755371094
z: -0.4843832850456238
visibility: 0.44114920496940613
","x: 206.197998046875
y: 436.0155944824219
z: -0.36613595485687256
visibility: 0.7705061435699463
","x: 217.83956909179688
y: 360.9979553222656
z: -0.45467671751976013
visibility: 0.39935511350631714
","x: 206.02816772460938
y: 430.3909912109375
z: -0.3308752775192261
visibility: 0.7229812145233154
","x: 213.03248596191406
y: 374.9173278808594
z: 0.027629774063825607
visibility: 0.9991326332092285
","x: 188.61634826660156
y: 372.60003662109375
z: -0.027629777789115906
visibility: 0.9995595216751099
","x: 217.18067932128906
y: 456.86566162109375
z: -0.05789149925112724
visibility: 0.9532591700553894
","x: 196.02886962890625
y: 456.5543212890625
z: -0.13750749826431274
visibility: 0.9755160808563232
","x: 221.59117126464844
y: 546.0477905273438
z: -0.01107207965105772
visibility: 0.9515828490257263
","x: 194.71682739257812
y: 553.7223510742188
z: -0.08610494434833527
visibility: 0.9767783284187317
","x: 219.50440979003906
y: 559.6367797851562
z: -0.013469135388731956
visibility: 0.672116219997406
","x: 192.5981903076172
y: 565.7464599609375
z: -0.08716180175542831
visibility: 0.8021429181098938
","x: 226.67457580566406
y: 574.0819702148438
z: -0.14201436936855316
visibility: 0.9278649687767029
","x: 206.07749938964844
y: 580.793212890625
z: -0.2189885675907135
visibility: 0.9677790999412537
",,,,,,,,,,,,,,,,,,,,,,,,,,,,,,,,,,,,,,,,,,
4,"x: 223.6157684326172
y: 275.3840026855469
z: -0.595397412776947
visibility: 0.9998395442962646
","x: 227.41650390625
y: 267.22833251953125
z: -0.583030641078949
visibility: 0.9996424913406372
","x: 229.32498168945312
y: 267.7322998046875
z: -0.5830527544021606
visibility: 0.9996297359466553
","x: 231.0109405517578
y: 268.093994140625
z: -0.5832123756408691
visibility: 0.9996203780174255
","x: 221.64169311523438
y: 265.00079345703125
z: -0.5877946615219116
visibility: 0.9997225999832153
","x: 219.57675170898438
y: 263.91748046875
z: -0.5879494547843933
visibility: 0.999737024307251
","x: 217.5865478515625
y: 262.8282775878906
z: -0.5880386829376221
visibility: 0.9997878670692444
","x: 232.1570587158203
y: 270.0290222167969
z: -0.457829087972641
visibility: 0.9992383122444153
","x: 212.52197265625
y: 263.040283203125
z: -0.4781528413295746
visibility: 0.9997736811637878
","x: 225.22003173828125
y: 284.99615478515625
z: -0.5433654189109802
visibility: 0.9997736215591431
","x: 218.7738037109375
y: 281.922119140625
z: -0.5498360395431519
visibility: 0.99989914894104
","x: 235.2656707763672
y: 303.875732421875
z: -0.28609710931777954
visibility: 0.9996114373207092
","x: 193.626220703125
y: 297.94305419921875
z: -0.3690458834171295
visibility: 0.999958872795105
","x: 238.52699279785156
y: 368.82391357421875
z: -0.2774237394332886
visibility: 0.8669942617416382
","x: 189.69435119628906
y: 372.5931091308594
z: -0.335325688123703
visibility: 0.9739001989364624
","x: 219.23550415039062
y: 379.06658935546875
z: -0.24167148768901825
visibility: 0.5816494226455688
","x: 202.3345489501953
y: 427.626220703125
z: -0.3712189793586731
visibility: 0.8665218353271484
","x: 214.75146484375
y: 383.6689453125
z: -0.24884124100208282
visibility: 0.4654330015182495
","x: 202.0766143798828
y: 451.53729248046875
z: -0.3964194357395172
visibility: 0.7749172449111938
","x: 214.2761993408203
y: 378.60614013671875
z: -0.250712513923645
visibility: 0.45524582266807556
","x: 206.617919921875
y: 440.8264465332031
z: -0.4127866327762604
visibility: 0.7712320685386658
","x: 217.4244384765625
y: 376.463623046875
z: -0.23895525932312012
visibility: 0.4101581573486328
","x: 206.33938598632812
y: 435.7046813964844
z: -0.37644293904304504
visibility: 0.7255069613456726
","x: 213.67404174804688
y: 372.55120849609375
z: 0.02975458838045597
visibility: 0.9991989135742188
","x: 188.40945434570312
y: 369.419921875
z: -0.02974109724164009
visibility: 0.9995907545089722
","x: 217.71873474121094
y: 456.91082763671875
z: -0.04926501587033272
visibility: 0.9508297443389893
","x: 196.01463317871094
y: 456.0760192871094
z: -0.14521923661231995
visibility: 0.9740387797355652
","x: 221.0765380859375
y: 546.6600341796875
z: -0.008160932920873165
visibility: 0.9503718614578247
","x: 194.83287048339844
y: 554.21337890625
z: -0.09862900525331497
visibility: 0.9775424599647522
","x: 218.43368530273438
y: 560.3394165039062
z: -0.005952050909399986
visibility: 0.6780981421470642
","x: 192.8028564453125
y: 566.467041015625
z: -0.10197093337774277
visibility: 0.8091692328453064
","x: 227.86419677734375
y: 574.0831909179688
z: -0.12712551653385162
visibility: 0.9286442399024963
","x: 206.1011962890625
y: 580.9631958007812
z: -0.23741379380226135
visibility: 0.9688701033592224
",,,,,,,,,,,,,,,,,,,,,,,,,,,,,,,,,,,,,,,,,,
5,"x: 226.52127075195312
y: 277.5515441894531
z: -0.5914627313613892
visibility: 0.9998520612716675
","x: 230.2740936279297
y: 269.466796875
z: -0.5779382586479187
visibility: 0.9996687173843384
","x: 232.11058044433594
y: 269.91595458984375
z: -0.5778742432594299
visibility: 0.9996558427810669
","x: 233.71875
y: 270.261474609375
z: -0.5779559016227722
visibility: 0.9996479749679565
","x: 224.44894409179688
y: 267.00384521484375
z: -0.5799030065536499
visibility: 0.9997418522834778
","x: 222.31631469726562
y: 265.8236999511719
z: -0.5800540447235107
visibility: 0.9997544884681702
","x: 220.38238525390625
y: 264.72698974609375
z: -0.5801365375518799
visibility: 0.9998012185096741
","x: 234.49267578125
y: 272.2437438964844
z: -0.4523898959159851
visibility: 0.9992967844009399
","x: 215.3557586669922
y: 265.372802734375
z: -0.4781501889228821
visibility: 0.999788761138916
","x: 228.01449584960938
y: 287.4909362792969
z: -0.5393832921981812
visibility: 0.9997941255569458
","x: 221.25636291503906
y: 284.20050048828125
z: -0.5427299737930298
visibility: 0.9999079704284668
","x: 237.65167236328125
y: 304.0614013671875
z: -0.2794663906097412
visibility: 0.9996477961540222
","x: 196.06991577148438
y: 301.3028869628906
z: -0.37158387899398804
visibility: 0.9999595880508423
","x: 244.8770751953125
y: 368.9979553222656
z: -0.25658831000328064
visibility: 0.8797397017478943
","x: 191.72052001953125
y: 375.10614013671875
z: -0.3329959809780121
visibility: 0.9752215147018433
","x: 225.09426879882812
y: 385.11883544921875
z: -0.24620774388313293
visibility: 0.6172788143157959
","x: 204.02781677246094
y: 425.1846923828125
z: -0.3693500757217407
visibility: 0.8723056316375732
","x: 220.2444305419922
y: 396.1056823730469
z: -0.2567371428012848
visibility: 0.5037248730659485
","x: 202.2488250732422
y: 444.8067626953125
z: -0.3963766396045685
visibility: 0.783739447593689
","x: 217.36985778808594
y: 391.38104248046875
z: -0.2761572599411011
visibility: 0.4934069514274597
","x: 206.29376220703125
y: 438.81707763671875
z: -0.41638702154159546
visibility: 0.779694139957428
","x: 218.482666015625
y: 387.43902587890625
z: -0.2512514889240265
visibility: 0.4481063783168793
","x: 206.43777465820312
y: 432.4803161621094
z: -0.3757621645927429
visibility: 0.7346349954605103
","x: 215.00198364257812
y: 377.67474365234375
z: 0.03408300504088402
visibility: 0.9992533326148987
","x: 189.51931762695312
y: 375.869384765625
z: -0.03402828425168991
visibility: 0.99959796667099
","x: 223.59645080566406
y: 456.9296569824219
z: -0.07870373874902725
visibility: 0.9537297487258911
","x: 196.71286010742188
y: 456.8671875
z: -0.21074187755584717
visibility: 0.975247323513031
","x: 221.99673461914062
y: 547.5880126953125
z: -0.0017425421392545104
visibility: 0.9529911875724792
","x: 195.21939086914062
y: 554.2042236328125
z: -0.14205767214298248
visibility: 0.9790496230125427
","x: 218.55711364746094
y: 560.3431396484375
z: -0.0003451543452683836
visibility: 0.7000619769096375
","x: 193.03761291503906
y: 566.67919921875
z: -0.1435488760471344
visibility: 0.8222995400428772
","x: 230.81455993652344
y: 574.1941528320312
z: -0.11961628496646881
visibility: 0.9329518675804138
","x: 206.06015014648438
y: 581.0328369140625
z: -0.28664499521255493
visibility: 0.9709793329238892
",,,,,,,,,,,,,,,,,,,,,,,,,,,,,,,,,,,,,,,,,,
6,"x: 231.601318359375
y: 278.2469482421875
z: -0.6255001425743103
visibility: 0.9998592138290405
","x: 234.93374633789062
y: 270.4434814453125
z: -0.6108648777008057
visibility: 0.9996853470802307
","x: 236.4507598876953
y: 270.9466857910156
z: -0.6109528541564941
visibility: 0.9996734857559204
","x: 237.71507263183594
y: 271.3213806152344
z: -0.6111540794372559
visibility: 0.9996641874313354
","x: 229.4820098876953
y: 268.0115661621094
z: -0.6179959177970886
visibility: 0.999754786491394
","x: 227.2813720703125
y: 266.7928161621094
z: -0.6181133389472961
visibility: 0.9997653961181641
","x: 225.5015106201172
y: 265.7483215332031
z: -0.6181743741035461
visibility: 0.9998069405555725
","x: 238.0862274169922
y: 272.76776123046875
z: -0.47111383080482483
visibility: 0.9993387460708618
","x: 221.07980346679688
y: 265.82073974609375
z: -0.5016962289810181
visibility: 0.9998013973236084
","x: 232.5391082763672
y: 287.5677795410156
z: -0.5677929520606995
visibility: 0.9998108744621277
","x: 226.25538635253906
y: 284.5455322265625
z: -0.5767461657524109
visibility: 0.9999151825904846
","x: 242.84251403808594
y: 302.32666015625
z: -0.3032481372356415
visibility: 0.9996811747550964
","x: 199.196044921875
y: 301.17498779296875
z: -0.3812074661254883
visibility: 0.9999619126319885
","x: 254.0193328857422
y: 366.6229553222656
z: -0.3581574559211731
visibility: 0.8911391496658325
","x: 195.00872802734375
y: 372.6977844238281
z: -0.3459233045578003
visibility: 0.9762898087501526
","x: 232.33340454101562
y: 366.9832763671875
z: -0.5375816226005554
visibility: 0.6474775075912476
","x: 206.35269165039062
y: 422.38427734375
z: -0.39178434014320374
visibility: 0.873365581035614
","x: 226.0320281982422
y: 371.5325927734375
z: -0.580597460269928
visibility: 0.5337292551994324
","x: 204.60842895507812
y: 441.0940856933594
z: -0.4214818477630615
visibility: 0.7845923900604248
","x: 224.28146362304688
y: 365.10797119140625
z: -0.5772445201873779
visibility: 0.522849440574646
","x: 208.417236328125
y: 437.0873718261719
z: -0.442993700504303
visibility: 0.7801770567893982
","x: 225.56948852539062
y: 363.37091064453125
z: -0.5390394926071167
visibility: 0.47314944863319397
","x: 209.76910400390625
y: 432.0160217285156
z: -0.3986950218677521
visibility: 0.7329558730125427
","x: 218.22665405273438
y: 377.33538818359375
z: 0.03369414806365967
visibility: 0.9992499351501465
","x: 191.3159637451172
y: 373.6046142578125
z: -0.033619802445173264
visibility: 0.9995445609092712
","x: 228.97247314453125
y: 456.6487121582031
z: -0.07186904549598694
visibility: 0.9555537104606628
","x: 198.83438110351562
y: 457.8705139160156
z: -0.16679659485816956
visibility: 0.9757554531097412
","x: 229.87472534179688
y: 547.5604858398438
z: 0.0004100229707546532
visibility: 0.9551984667778015
","x: 195.1790313720703
y: 554.0723876953125
z: -0.09423919022083282
visibility: 0.9800580739974976
","x: 224.97494506835938
y: 560.3143920898438
z: 0.0021917850244790316
visibility: 0.7222732901573181
","x: 192.91455078125
y: 567.1242065429688
z: -0.09643401205539703
visibility: 0.8345640301704407
","x: 240.02554321289062
y: 573.3729858398438
z: -0.11419065296649933
visibility: 0.937034010887146
","x: 206.0306854248047
y: 580.2801513671875
z: -0.23454289138317108
visibility: 0.9726004004478455
",,,,,,,,,,,,,,,,,,,,,,,,,,,,,,,,,,,,,,,,,,
7,"x: 240.02491760253906
y: 278.60284423828125
z: -0.6069999933242798
visibility: 0.9998725056648254
","x: 243.36407470703125
y: 271.1059265136719
z: -0.591330349445343
visibility: 0.9997149705886841
","x: 244.7798309326172
y: 271.6802673339844
z: -0.5913879871368408
visibility: 0.9997041821479797
","x: 245.92555236816406
y: 272.0985107421875
z: -0.5915508270263672
visibility: 0.9996954202651978
","x: 238.5355224609375
y: 268.4383850097656
z: -0.5975282192230225
visibility: 0.9997779130935669
","x: 236.17510986328125
y: 267.0499572753906
z: -0.5976437926292419
visibility: 0.9997872114181519
","x: 233.87619018554688
y: 265.7531433105469
z: -0.597692608833313
visibility: 0.9998243451118469
","x: 246.04605102539062
y: 273.6508483886719
z: -0.4576505720615387
visibility: 0.99940025806427
","x: 229.1564178466797
y: 265.7843933105469
z: -0.4864650368690491
visibility: 0.9998201727867126
","x: 239.63809204101562
y: 287.7875061035156
z: -0.5510829091072083
visibility: 0.9998291730880737
","x: 234.27403259277344
y: 284.84881591796875
z: -0.5590760111808777
visibility: 0.9999234080314636
","x: 249.2250213623047
y: 302.5577087402344
z: -0.2976074814796448
visibility: 0.9997125267982483
","x: 206.35610961914062
y: 300.904052734375
z: -0.37637779116630554
visibility: 0.9999653697013855
","x: 261.2398376464844
y: 364.6533508300781
z: -0.40662917494773865
visibility: 0.9018073081970215
","x: 199.80938720703125
y: 371.6419677734375
z: -0.3348044157028198
visibility: 0.9774188995361328
","x: 239.34237670898438
y: 347.2294921875
z: -0.6336074471473694
visibility: 0.6814128756523132
","x: 210.77810668945312
y: 421.2410888671875
z: -0.38656240701675415
visibility: 0.8796292543411255
","x: 231.7991180419922
y: 342.82000732421875
z: -0.6843635439872742
visibility: 0.5761786103248596
","x: 209.196044921875
y: 439.87353515625
z: -0.4165872633457184
visibility: 0.7934421896934509
","x: 230.7728271484375
y: 337.38409423828125
z: -0.6735184788703918
visibility: 0.5657997131347656
","x: 215.03118896484375
y: 436.08050537109375
z: -0.43416649103164673
visibility: 0.7887668609619141
","x: 232.16915893554688
y: 337.57330322265625
z: -0.6328428983688354
visibility: 0.5173493027687073
","x: 215.33627319335938
y: 429.87969970703125
z: -0.391958087682724
visibility: 0.7396382689476013
","x: 224.8969268798828
y: 378.7304382324219
z: 0.03702481836080551
visibility: 0.9992994666099548
","x: 199.0765380859375
y: 374.15570068359375
z: -0.036960020661354065
visibility: 0.9995691776275635
","x: 234.6492462158203
y: 460.5559997558594
z: -0.020357809960842133
visibility: 0.9540618062019348
","x: 205.79457092285156
y: 461.4166564941406
z: -0.16700878739356995
visibility: 0.9767494201660156
","x: 235.3193359375
y: 548.598388671875
z: 0.09045290946960449
visibility: 0.9555794596672058
","x: 195.32742309570312
y: 554.0654296875
z: -0.08719681948423386
visibility: 0.9812429547309875
","x: 230.51564025878906
y: 561.327392578125
z: 0.09462888538837433
visibility: 0.7405713796615601
","x: 191.8407440185547
y: 567.10791015625
z: -0.08777707815170288
visibility: 0.8433931469917297
","x: 246.36000061035156
y: 573.36083984375
z: -0.022273708134889603
visibility: 0.9385018348693848
","x: 206.29193115234375
y: 579.9976196289062
z: -0.23599939048290253
visibility: 0.9738546013832092
",,,,,,,,,,,,,,,,,,,,,,,,,,,,,,,,,,,,,,,,,,
8,"x: 244.34194946289062
y: 284.710205078125
z: -0.6057611703872681
visibility: 0.9998846054077148
","x: 247.83013916015625
y: 277.308349609375
z: -0.5905646085739136
visibility: 0.9997420310974121
","x: 249.35678100585938
y: 278.0249328613281
z: -0.5906211733818054
visibility: 0.9997323155403137
","x: 250.6587371826172
y: 278.6170654296875
z: -0.5907760858535767
visibility: 0.9997239708900452
","x: 243.00469970703125
y: 274.052490234375
z: -0.595093846321106
visibility: 0.9997990131378174
","x: 240.77757263183594
y: 272.34332275390625
z: -0.5951966047286987
visibility: 0.9998072385787964
","x: 238.71176147460938
y: 270.6564636230469
z: -0.5952313542366028
visibility: 0.9998404383659363
","x: 251.4805908203125
y: 280.4622497558594
z: -0.4528026580810547
visibility: 0.9994567632675171
","x: 234.33375549316406
y: 269.9559326171875
z: -0.48214006423950195
visibility: 0.9998374581336975
","x: 244.3245849609375
y: 293.80517578125
z: -0.5489572286605835
visibility: 0.9998458027839661
","x: 238.87127685546875
y: 289.8364562988281
z: -0.5551797151565552
visibility: 0.9999308586120605
","x: 253.9927978515625
y: 310.74786376953125
z: -0.29393476247787476
visibility: 0.999740719795227
","x: 213.4563751220703
y: 302.029052734375
z: -0.353557288646698
visibility: 0.9999685287475586
","x: 260.79608154296875
y: 372.7397155761719
z: -0.40229859948158264
visibility: 0.9112556576728821
","x: 205.3325653076172
y: 371.4920654296875
z: -0.3058263659477234
visibility: 0.9773868918418884
","x: 244.9573516845703
y: 356.24249267578125
z: -0.6339280605316162
visibility: 0.7112740278244019
","x: 215.78121948242188
y: 425.0416564941406
z: -0.3401983380317688
visibility: 0.8791971206665039
","x: 238.41229248046875
y: 351.0005187988281
z: -0.6838103532791138
visibility: 0.6124595999717712
","x: 213.40145874023438
y: 444.57196044921875
z: -0.36425891518592834
visibility: 0.7919482588768005
","x: 237.40713500976562
y: 343.4623718261719
z: -0.6720628142356873
visibility: 0.602405309677124
","x: 218.8399658203125
y: 440.09014892578125
z: -0.3826134502887726
visibility: 0.7869858145713806
","x: 238.6968231201172
y: 344.1965026855469
z: -0.6329498291015625
visibility: 0.5534884333610535
","x: 219.3384246826172
y: 434.9894714355469
z: -0.34488484263420105
visibility: 0.7349008321762085
","x: 230.07278442382812
y: 381.4581298828125
z: 0.03635229542851448
visibility: 0.9993456602096558
","x: 203.58636474609375
y: 376.4672546386719
z: -0.036293819546699524
visibility: 0.9995904564857483
","x: 239.29237365722656
y: 464.8231506347656
z: -0.02459232695400715
visibility: 0.9541022181510925
","x: 208.98257446289062
y: 466.3925476074219
z: -0.15778373181819916
visibility: 0.9776262044906616
","x: 237.4707794189453
y: 551.01513671875
z: 0.07866998016834259
visibility: 0.9570444226264954
","x: 195.79937744140625
y: 554.1768798828125
z: -0.06915690004825592
visibility: 0.9821736216545105
","x: 232.0648193359375
y: 563.0554809570312
z: 0.0821136087179184
visibility: 0.7571213841438293
","x: 191.8509063720703
y: 567.163330078125
z: -0.06847594678401947
visibility: 0.8490055799484253
","x: 247.0845184326172
y: 573.4248657226562
z: -0.040138062089681625
visibility: 0.9409765005111694
","x: 206.37496948242188
y: 580.075439453125
z: -0.21898801624774933
visibility: 0.9748700857162476
",,,,,,,,,,,,,,,,,,,,,,,,,,,,,,,,,,,,,,,,,,
9,"x: 247.43394470214844
y: 283.649658203125
z: -0.5557457804679871
visibility: 0.9998924136161804
","x: 251.64144897460938
y: 276.5181884765625
z: -0.5409912467002869
visibility: 0.9997615814208984
","x: 253.07781982421875
y: 277.3196716308594
z: -0.5410474538803101
visibility: 0.9997509121894836
","x: 254.21774291992188
y: 277.967041015625
z: -0.5411888957023621
visibility: 0.9997437596321106
","x: 246.2258758544922
y: 273.13134765625
z: -0.5466398596763611
visibility: 0.9998144507408142
","x: 243.9364013671875
y: 271.564697265625
z: -0.5467489361763
visibility: 0.9998205900192261
","x: 242.20570373535156
y: 270.1353759765625
z: -0.5468159914016724
visibility: 0.9998514652252197
","x: 254.80166625976562
y: 279.7091979980469
z: -0.4080440402030945
visibility: 0.999492883682251
","x: 238.27609252929688
y: 269.3006286621094
z: -0.43283119797706604
visibility: 0.9998500943183899
","x: 247.58639526367188
y: 292.7865905761719
z: -0.5008190274238586
visibility: 0.9998579621315002
","x: 241.551025390625
y: 288.9373474121094
z: -0.5082075595855713
visibility: 0.9999365210533142
","x: 255.6758270263672
y: 310.59405517578125
z: -0.26420074701309204
visibility: 0.9997634887695312
","x: 216.45046997070312
y: 300.4179992675781
z: -0.3149281442165375
visibility: 0.9999707341194153
","x: 254.58509826660156
y: 375.44244384765625
z: -0.3292606472969055
visibility: 0.9154495596885681
","x: 209.41925048828125
y: 370.8941955566406
z: -0.2559482455253601
visibility: 0.9736587405204773
","x: 239.1544189453125
y: 364.6862487792969
z: -0.5036698579788208
visibility: 0.7239715456962585
","x: 216.5577850341797
y: 424.3568115234375
z: -0.27495574951171875
visibility: 0.8706164956092834
","x: 234.25521850585938
y: 365.0013427734375
z: -0.5435415506362915
visibility: 0.6226873397827148
","x: 216.8767852783203
y: 442.3453369140625
z: -0.29414480924606323
visibility: 0.782489001750946
","x: 232.7479705810547
y: 358.1575927734375
z: -0.5404385328292847
visibility: 0.6117613911628723
","x: 220.56419372558594
y: 438.1057434082031
z: -0.3138689398765564
visibility: 0.7774127721786499
","x: 233.76620483398438
y: 357.3490905761719
z: -0.505071222782135
visibility: 0.5580615997314453
","x: 219.9506378173828
y: 432.9933166503906
z: -0.2800927758216858
visibility: 0.7239585518836975
","x: 230.88206481933594
y: 385.0396423339844
z: 0.03377149626612663
visibility: 0.9993602633476257
","x: 204.16561889648438
y: 377.347412109375
z: -0.03375837206840515
visibility: 0.9995929002761841
","x: 237.08775329589844
y: 465.6902770996094
z: -0.035232335329055786
visibility: 0.9557681083679199
","x: 207.77301025390625
y: 465.4881286621094
z: -0.15326985716819763
visibility: 0.9784408211708069
","x: 237.87606811523438
y: 552.4599609375
z: 0.05676482245326042
visibility: 0.9589541554450989
","x: 193.89170837402344
y: 550.9442749023438
z: -0.06947705894708633
visibility: 0.9826937913894653
","x: 231.7093048095703
y: 565.4671630859375
z: 0.0592021644115448
visibility: 0.7681594491004944
","x: 189.14105224609375
y: 562.8021240234375
z: -0.06804775446653366
visibility: 0.8489017486572266
","x: 247.30943298339844
y: 573.4378662109375
z: -0.06282787024974823
visibility: 0.9433613419532776
","x: 205.0794219970703
y: 579.1463623046875
z: -0.20958510041236877
visibility: 0.9754091501235962
",,,,,,,,,,,,,,,,,,,,,,,,,,,,,,,,,,,,,,,,,,
10,"x: 248.16990661621094
y: 282.82574462890625
z: -0.5887720584869385
visibility: 0.9998999834060669
","x: 252.29782104492188
y: 275.1940612792969
z: -0.5745764970779419
visibility: 0.9997771382331848
","x: 253.57373046875
y: 276.06781005859375
z: -0.5746191740036011
visibility: 0.9997643232345581
","x: 254.80198669433594
y: 276.87139892578125
z: -0.5747720003128052
visibility: 0.999759316444397
","x: 247.44912719726562
y: 271.95074462890625
z: -0.5885793566703796
visibility: 0.9998276829719543
","x: 245.5482635498047
y: 270.65582275390625
z: -0.5887320637702942
visibility: 0.9998323321342468
","x: 243.6989288330078
y: 269.82794189453125
z: -0.5888159275054932
visibility: 0.9998619556427002
","x: 254.6399688720703
y: 278.5556335449219
z: -0.4464655816555023
visibility: 0.9995172023773193
","x: 239.0133819580078
y: 265.4875793457031
z: -0.506867527961731
visibility: 0.9998611807823181
","x: 247.6846466064453
y: 292.4242858886719
z: -0.5349472165107727
visibility: 0.9998694062232971
","x: 242.40090942382812
y: 287.1005859375
z: -0.5538267493247986
visibility: 0.9999420642852783
","x: 253.40609741210938
y: 310.78558349609375
z: -0.28339648246765137
visibility: 0.9997842311859131
","x: 215.40570068359375
y: 290.52227783203125
z: -0.4163650572299957
visibility: 0.9999733567237854
","x: 252.62864685058594
y: 374.2293701171875
z: -0.25308382511138916
visibility: 0.9207467436790466
","x: 203.58311462402344
y: 358.74749755859375
z: -0.392640620470047
visibility: 0.9756657481193542
","x: 236.23355102539062
y: 401.4519958496094
z: -0.32283997535705566
visibility: 0.7333979606628418
","x: 213.79742431640625
y: 418.7216796875
z: -0.4340918958187103
visibility: 0.8804346323013306
","x: 231.75411987304688
y: 416.0016174316406
z: -0.3480128049850464
visibility: 0.6283280849456787
","x: 213.0179443359375
y: 430.712890625
z: -0.46887150406837463
visibility: 0.7974892854690552
","x: 229.51583862304688
y: 411.8606262207031
z: -0.3697303831577301
visibility: 0.6176710724830627
","x: 217.28494262695312
y: 431.1680908203125
z: -0.48869824409484863
visibility: 0.7928212881088257
","x: 230.19561767578125
y: 406.0558776855469
z: -0.3326883018016815
visibility: 0.5654516816139221
","x: 216.93011474609375
y: 427.6722717285156
z: -0.4408237934112549
visibility: 0.7420582175254822
","x: 226.86163330078125
y: 383.87701416015625
z: 0.04490072280168533
visibility: 0.9993842244148254
","x: 200.55381774902344
y: 377.121337890625
z: -0.04490164667367935
visibility: 0.9996144771575928
","x: 233.3016815185547
y: 461.13897705078125
z: -0.0023699041921645403
visibility: 0.9560610055923462
","x: 206.71524047851562
y: 464.59954833984375
z: -0.1960369348526001
visibility: 0.9788730144500732
","x: 237.03631591796875
y: 551.8330078125
z: 0.10711687803268433
visibility: 0.9600456357002258
","x: 187.2379913330078
y: 551.0081787109375
z: -0.12845876812934875
visibility: 0.9832521677017212
","x: 231.31161499023438
y: 564.820068359375
z: 0.1105300635099411
visibility: 0.7765822410583496
","x: 180.82691955566406
y: 562.5889892578125
z: -0.1294320523738861
visibility: 0.8497217297554016
","x: 247.189208984375
y: 573.44677734375
z: -0.010132347233593464
visibility: 0.9434438347816467
","x: 197.47384643554688
y: 579.1849975585938
z: -0.2900887131690979
visibility: 0.9754632711410522
",,,,,,,,,,,,,,,,,,,,,,,,,,,,,,,,,,,,,,,,,,
11,"x: 245.2622833251953
y: 282.3851318359375
z: -0.5873705744743347
visibility: 0.9999060034751892
","x: 249.09275817871094
y: 274.54058837890625
z: -0.5716914534568787
visibility: 0.9997902512550354
","x: 250.257080078125
y: 275.239990234375
z: -0.571742594242096
visibility: 0.9997747540473938
","x: 251.4204559326172
y: 275.94635009765625
z: -0.571903645992279
visibility: 0.9997716546058655
","x: 245.07957458496094
y: 271.2447814941406
z: -0.5860915184020996
visibility: 0.9998392462730408
","x: 243.22128295898438
y: 269.05242919921875
z: -0.5862351059913635
visibility: 0.9998422861099243
","x: 241.29515075683594
y: 267.1598205566406
z: -0.5863114595413208
visibility: 0.9998706579208374
","x: 250.85328674316406
y: 277.87396240234375
z: -0.43866562843322754
visibility: 0.9995349645614624
","x: 235.75912475585938
y: 262.2281188964844
z: -0.50590980052948
visibility: 0.9998697638511658
","x: 244.0916290283203
y: 291.6558837890625
z: -0.5320611000061035
visibility: 0.9998779892921448
","x: 239.13037109375
y: 284.8970642089844
z: -0.551264762878418
visibility: 0.9999465942382812
","x: 248.2930145263672
y: 307.4324951171875
z: -0.26868510246276855
visibility: 0.9997994303703308
","x: 211.39002990722656
y: 287.8722839355469
z: -0.4094211459159851
visibility: 0.9999750852584839
","x: 252.45037841796875
y: 360.5835266113281
z: -0.18611536920070648
visibility: 0.919363260269165
","x: 200.54061889648438
y: 354.6335144042969
z: -0.36401113867759705
visibility: 0.976408064365387
","x: 235.71798706054688
y: 400.76885986328125
z: -0.23915204405784607
visibility: 0.7253159880638123
","x: 202.916259765625
y: 414.2259216308594
z: -0.3916870951652527
visibility: 0.8860383629798889
","x: 234.7630615234375
y: 413.71990966796875
z: -0.25899380445480347
visibility: 0.6173771619796753
","x: 203.2647705078125
y: 427.89007568359375
z: -0.4212889075279236
visibility: 0.8069817423820496
","x: 232.84271240234375
y: 412.3281555175781
z: -0.28992563486099243
visibility: 0.6077858805656433
","x: 206.3819122314453
y: 426.3818664550781
z: -0.4404781460762024
visibility: 0.8028071522712708
","x: 231.99330139160156
y: 406.016357421875
z: -0.25266173481941223
visibility: 0.5585317611694336
","x: 207.3310089111328
y: 422.5216064453125
z: -0.39771768450737
visibility: 0.7535364627838135
","x: 217.69012451171875
y: 383.4183044433594
z: 0.04663916677236557
visibility: 0.9993821382522583
","x: 192.59906005859375
y: 377.0841064453125
z: -0.04661598801612854
visibility: 0.9996057748794556
","x: 232.0922088623047
y: 460.201416015625
z: -0.013507351279258728
visibility: 0.959113597869873
","x: 196.7097930908203
y: 465.3233337402344
z: -0.1880348175764084
visibility: 0.9797161817550659
","x: 237.06332397460938
y: 551.3945922851562
z: 0.0817863941192627
visibility: 0.9625998735427856
","x: 184.81101989746094
y: 551.7877807617188
z: -0.1247105821967125
visibility: 0.9840225577354431
","x: 231.85263061523438
y: 562.261474609375
z: 0.08556926250457764
visibility: 0.7897124290466309
","x: 179.87152099609375
y: 564.974609375
z: -0.12188640981912613
visibility: 0.8535490036010742
","x: 246.9646759033203
y: 574.0869750976562
z: -0.038370631635189056
visibility: 0.9460455179214478
","x: 193.58554077148438
y: 579.2113037109375
z: -0.2693273425102234
visibility: 0.9759399890899658
",,,,,,,,,,,,,,,,,,,,,,,,,,,,,,,,,,,,,,,,,,
12,"x: 242.57119750976562
y: 279.1097106933594
z: -0.5548943877220154
visibility: 0.9999125003814697
","x: 246.34996032714844
y: 272.4477844238281
z: -0.5311897397041321
visibility: 0.9998055100440979
","x: 248.35360717773438
y: 273.3245849609375
z: -0.5312477350234985
visibility: 0.999786913394928
","x: 250.6436309814453
y: 274.17120361328125
z: -0.5314078330993652
visibility: 0.9997819066047668
","x: 241.13375854492188
y: 268.24273681640625
z: -0.5531030297279358
visibility: 0.9998533725738525
","x: 239.1250762939453
y: 265.92138671875
z: -0.5532311797142029
visibility: 0.9998557567596436
","x: 237.16346740722656
y: 263.916259765625
z: -0.553320050239563
visibility: 0.9998819231987
","x: 248.25926208496094
y: 275.172607421875
z: -0.37894028425216675
visibility: 0.99954754114151
","x: 232.14108276367188
y: 259.8849182128906
z: -0.4890158176422119
visibility: 0.999881386756897
","x: 242.86988830566406
y: 288.007568359375
z: -0.4942978024482727
visibility: 0.9998770356178284
","x: 237.78521728515625
y: 281.44134521484375
z: -0.5236631035804749
visibility: 0.9999499917030334
","x: 232.51991271972656
y: 301.05023193359375
z: -0.1815776824951172
visibility: 0.999667227268219
","x: 209.319580078125
y: 287.5570068359375
z: -0.40436863899230957
visibility: 0.9999748468399048
","x: 235.7855987548828
y: 345.83056640625
z: -0.045260943472385406
visibility: 0.8520289063453674
","x: 191.02557373046875
y: 353.653076171875
z: -0.3712487518787384
visibility: 0.9763144254684448
","x: 238.4985809326172
y: 366.70782470703125
z: -0.04423810541629791
visibility: 0.6706578731536865
","x: 192.97677612304688
y: 412.7348327636719
z: -0.3773742914199829
visibility: 0.8876370787620544
","x: 240.2205810546875
y: 376.3087158203125
z: -0.04548102989792824
visibility: 0.5718636512756348
","x: 191.4540557861328
y: 426.9275207519531
z: -0.3990638554096222
visibility: 0.8116217851638794
","x: 241.17678833007812
y: 374.39044189453125
z: -0.07360878586769104
visibility: 0.56313157081604
","x: 195.8910369873047
y: 426.5248107910156
z: -0.41364049911499023
visibility: 0.8072584271430969
","x: 239.271240234375
y: 371.2571716308594
z: -0.05572299286723137
visibility: 0.5186144113540649
","x: 196.62353515625
y: 422.3089294433594
z: -0.3777414560317993
visibility: 0.7579520344734192
","x: 206.25674438476562
y: 383.03125
z: 0.06677214801311493
visibility: 0.9992780089378357
","x: 182.69525146484375
y: 378.8599853515625
z: -0.06662597507238388
visibility: 0.9995717406272888
","x: 226.95523071289062
y: 459.48931884765625
z: -0.022897012531757355
visibility: 0.9593871831893921
","x: 190.54576110839844
y: 468.3003234863281
z: -0.21817664802074432
visibility: 0.9806660413742065
","x: 227.10903930664062
y: 547.6633911132812
z: 0.07109169661998749
visibility: 0.9632099866867065
","x: 183.62452697753906
y: 554.1712036132812
z: -0.1404288411140442
visibility: 0.9849581718444824
","x: 222.4749298095703
y: 560.2047119140625
z: 0.07461511343717575
visibility: 0.8042117357254028
","x: 178.8402862548828
y: 568.581298828125
z: -0.1407053917646408
visibility: 0.8632098436355591
","x: 246.454345703125
y: 570.6109008789062
z: -0.034636929631233215
visibility: 0.9470281004905701
","x: 194.05238342285156
y: 579.2203979492188
z: -0.2897416353225708
visibility: 0.9768408536911011
",,,,,,,,,,,,,,,,,,,,,,,,,,,,,,,,,,,,,,,,,,
13,"x: 239.71792602539062
y: 272.4630432128906
z: -0.4630661904811859
visibility: 0.9999194741249084
","x: 242.92425537109375
y: 266.5713806152344
z: -0.44099122285842896
visibility: 0.9998190402984619
","x: 243.82504272460938
y: 267.2234802246094
z: -0.44104909896850586
visibility: 0.9998005628585815
","x: 244.94737243652344
y: 267.83502197265625
z: -0.44115352630615234
visibility: 0.9997943043708801
","x: 239.7261199951172
y: 262.6599426269531
z: -0.46409058570861816
visibility: 0.9998652338981628
","x: 238.13006591796875
y: 260.429931640625
z: -0.46417030692100525
visibility: 0.9998670220375061
","x: 236.68972778320312
y: 258.29193115234375
z: -0.46423181891441345
visibility: 0.9998908638954163
","x: 242.16636657714844
y: 269.5105285644531
z: -0.2972298264503479
visibility: 0.9995686411857605
","x: 231.62498474121094
y: 255.1270751953125
z: -0.40213245153427124
visibility: 0.9998914003372192
","x: 237.2478485107422
y: 281.3721008300781
z: -0.40562328696250916
visibility: 0.9998854398727417
","x: 233.87120056152344
y: 276.4660949707031
z: -0.4360674321651459
visibility: 0.9999542832374573
","x: 230.0248260498047
y: 295.2083740234375
z: -0.13152222335338593
visibility: 0.9996898770332336
","x: 202.8630828857422
y: 282.9302673339844
z: -0.34431231021881104
visibility: 0.999975323677063
","x: 238.62062072753906
y: 335.00018310546875
z: -0.1324423849582672
visibility: 0.861519455909729
","x: 187.02325439453125
y: 347.1661682128906
z: -0.3367086350917816
visibility: 0.9780304431915283
","x: 252.7141876220703
y: 343.77581787109375
z: -0.20269402861595154
visibility: 0.6985452175140381
","x: 191.3257293701172
y: 406.9497375488281
z: -0.33573657274246216
visibility: 0.8969737887382507
","x: 256.5238037109375
y: 349.88848876953125
z: -0.11170891672372818
visibility: 0.6060559749603271
","x: 190.84890747070312
y: 421.4062805175781
z: -0.3594540059566498
visibility: 0.8268740773200989
","x: 248.12890625
y: 340.41168212890625
z: -0.22252297401428223
visibility: 0.5979862809181213
","x: 195.12619018554688
y: 421.7536926269531
z: -0.3764800429344177
visibility: 0.8226818442344666
","x: 243.5763397216797
y: 335.92156982421875
z: -0.11839568614959717
visibility: 0.5553675889968872
","x: 195.72723388671875
y: 417.5539855957031
z: -0.3379802703857422
visibility: 0.7758979201316833
","x: 200.17784118652344
y: 381.8773193359375
z: 0.0687067061662674
visibility: 0.9992666244506836
","x: 176.71817016601562
y: 377.7239685058594
z: -0.06860566884279251
visibility: 0.9995320439338684
","x: 217.88792419433594
y: 458.4910583496094
z: -0.030102908611297607
visibility: 0.9571408629417419
","x: 186.9779052734375
y: 468.5160827636719
z: -0.20003938674926758
visibility: 0.9818711280822754
","x: 207.95840454101562
y: 544.098388671875
z: 0.06606987118721008
visibility: 0.9599099159240723
","x: 181.17941284179688
y: 557.3168334960938
z: -0.12806910276412964
visibility: 0.9858928322792053
","x: 203.2219696044922
y: 554.5048828125
z: 0.06912364810705185
visibility: 0.8104923367500305
","x: 176.8668212890625
y: 570.15771484375
z: -0.12991014122962952
visibility: 0.8734068870544434
","x: 220.38742065429688
y: 570.4547729492188
z: -0.035617224872112274
visibility: 0.9453161954879761
","x: 195.43411254882812
y: 579.3114013671875
z: -0.27559342980384827
visibility: 0.9779451489448547
",,,,,,,,,,,,,,,,,,,,,,,,,,,,,,,,,,,,,,,,,,
14,"x: 235.4687957763672
y: 269.7336120605469
z: -0.4736257493495941
visibility: 0.9999251961708069
","x: 238.5819854736328
y: 263.580322265625
z: -0.45178279280662537
visibility: 0.9998323321342468
","x: 239.285400390625
y: 264.1029968261719
z: -0.451862096786499
visibility: 0.999813973903656
","x: 240.1219024658203
y: 264.5650939941406
z: -0.4519888758659363
visibility: 0.9998085498809814
","x: 235.55880737304688
y: 260.0994873046875
z: -0.47112736105918884
visibility: 0.9998754858970642
","x: 233.958740234375
y: 258.1128234863281
z: -0.4711877703666687
visibility: 0.9998762011528015
","x: 232.45114135742188
y: 256.1544189453125
z: -0.4712299704551697
visibility: 0.9998984336853027
","x: 238.38760375976562
y: 266.157470703125
z: -0.3072732090950012
visibility: 0.9995949268341064
","x: 227.0996856689453
y: 253.95506286621094
z: -0.39369723200798035
visibility: 0.9998996257781982
","x: 232.97824096679688
y: 278.68621826171875
z: -0.41630586981773376
visibility: 0.9998946189880371
","x: 229.2176971435547
y: 274.6376953125
z: -0.44165125489234924
visibility: 0.9999582171440125
","x: 229.1907501220703
y: 295.6221923828125
z: -0.156119704246521
visibility: 0.9997153282165527
","x: 199.63783264160156
y: 283.47650146484375
z: -0.3329586386680603
visibility: 0.9999756217002869
","x: 240.02056884765625
y: 342.65313720703125
z: -0.24196866154670715
visibility: 0.8740026354789734
","x: 185.0500030517578
y: 347.81365966796875
z: -0.33616429567337036
visibility: 0.9793031811714172
","x: 241.9613494873047
y: 323.6717224121094
z: -0.4943366050720215
visibility: 0.725479245185852
","x: 191.6658935546875
y: 406.7535400390625
z: -0.3640775978565216
visibility: 0.9037094116210938
","x: 238.83335876464844
y: 319.73492431640625
z: -0.541558563709259
visibility: 0.6382179260253906
","x: 192.21762084960938
y: 420.9257507324219
z: -0.39873141050338745
visibility: 0.8380001783370972
","x: 236.23477172851562
y: 312.968505859375
z: -0.5368014574050903
visibility: 0.629635214805603
","x: 196.13548278808594
y: 420.635009765625
z: -0.40980297327041626
visibility: 0.8333967328071594
","x: 234.4480438232422
y: 314.3224792480469
z: -0.4951047897338867
visibility: 0.5882374048233032
","x: 196.2047576904297
y: 416.5161437988281
z: -0.3653690814971924
visibility: 0.7867519855499268
","x: 197.08251953125
y: 381.02099609375
z: 0.0681750476360321
visibility: 0.999300479888916
","x: 174.59706115722656
y: 377.56634521484375
z: -0.06817598640918732
visibility: 0.9995265603065491
","x: 212.87937927246094
y: 458.65313720703125
z: -0.03244536370038986
visibility: 0.954798698425293
","x: 185.1907958984375
y: 468.006103515625
z: -0.19415315985679626
visibility: 0.982865035533905
","x: 199.01329040527344
y: 543.6548461914062
z: 0.06792084872722626
visibility: 0.9541999101638794
","x: 180.18910217285156
y: 557.0243530273438
z: -0.12596090137958527
visibility: 0.9864132404327393
","x: 192.0599365234375
y: 553.9600219726562
z: 0.0719919353723526
visibility: 0.8157760500907898
","x: 174.92794799804688
y: 569.985107421875
z: -0.12727989256381989
visibility: 0.8813639879226685
","x: 211.03477478027344
y: 572.243896484375
z: -0.024271422997117043
visibility: 0.9429351091384888
","x: 190.32199096679688
y: 583.0819091796875
z: -0.2698691487312317
visibility: 0.9788500070571899
","x: 232.8665313720703
y: 327.7084655761719
z: 0.0
","x: 228.07379150390625
y: 323.94403076171875
z: 0.0001108915894292295
","x: 224.86575317382812
y: 318.3836364746094
z: -0.001351247075945139
","x: 223.1251983642578
y: 313.8406982421875
z: -0.003655090695247054
","x: 222.66419982910156
y: 310.59619140625
z: -0.005270852707326412
","x: 227.04998779296875
y: 307.1341552734375
z: 0.0005383291863836348
","x: 223.9724884033203
y: 306.9381408691406
z: -0.0027383212000131607
","x: 223.71031188964844
y: 312.03167724609375
z: -0.00395750580355525
","x: 224.27818298339844
y: 315.04437255859375
z: -0.004306515213102102
","x: 229.1989288330078
y: 306.765380859375
z: -0.0017737854504957795
","x: 226.22869873046875
y: 307.86566162109375
z: -0.0048670354299247265
","x: 226.05894470214844
y: 313.3382873535156
z: -0.004854575730860233
","x: 226.5916748046875
y: 315.9220886230469
z: -0.004376423079520464
","x: 231.44766235351562
y: 307.8861389160156
z: -0.004614328034222126
","x: 228.4310760498047
y: 309.3093566894531
z: -0.007391047663986683
","x: 228.23658752441406
y: 314.5386047363281
z: -0.006169711239635944
","x: 228.73733520507812
y: 316.8831787109375
z: -0.004865825176239014
","x: 233.5487060546875
y: 310.0594482421875
z: -0.007699207868427038
","x: 230.64381408691406
y: 311.1956481933594
z: -0.008928419090807438
","x: 230.06997680664062
y: 315.1047058105469
z: -0.007707549259066582
","x: 230.31399536132812
y: 317.1539611816406
z: -0.0064712162129580975
",,,,,,,,,,,,,,,,,,,,,
15,"x: 235.4687957763672
y: 269.7336120605469
z: -0.4736257493495941
visibility: 0.9999251961708069
","x: 238.5819854736328
y: 263.580322265625
z: -0.45178279280662537
visibility: 0.9998323321342468
","x: 239.285400390625
y: 264.1029968261719
z: -0.451862096786499
visibility: 0.999813973903656
","x: 240.1219024658203
y: 264.5650939941406
z: -0.4519888758659363
visibility: 0.9998085498809814
","x: 235.55880737304688
y: 260.0994873046875
z: -0.47112736105918884
visibility: 0.9998754858970642
","x: 233.958740234375
y: 258.1128234863281
z: -0.4711877703666687
visibility: 0.9998762011528015
","x: 232.45114135742188
y: 256.1544189453125
z: -0.4712299704551697
visibility: 0.9998984336853027
","x: 238.38760375976562
y: 266.157470703125
z: -0.3072732090950012
visibility: 0.9995949268341064
","x: 227.0996856689453
y: 253.95506286621094
z: -0.39369723200798035
visibility: 0.9998996257781982
","x: 232.97824096679688
y: 278.68621826171875
z: -0.41630586981773376
visibility: 0.9998946189880371
","x: 229.2176971435547
y: 274.6376953125
z: -0.44165125489234924
visibility: 0.9999582171440125
","x: 229.1907501220703
y: 295.6221923828125
z: -0.156119704246521
visibility: 0.9997153282165527
","x: 199.63783264160156
y: 283.47650146484375
z: -0.3329586386680603
visibility: 0.9999756217002869
","x: 240.02056884765625
y: 342.65313720703125
z: -0.24196866154670715
visibility: 0.8740026354789734
","x: 185.0500030517578
y: 347.81365966796875
z: -0.33616429567337036
visibility: 0.9793031811714172
","x: 241.9613494873047
y: 323.6717224121094
z: -0.4943366050720215
visibility: 0.725479245185852
","x: 191.6658935546875
y: 406.7535400390625
z: -0.3640775978565216
visibility: 0.9037094116210938
","x: 238.83335876464844
y: 319.73492431640625
z: -0.541558563709259
visibility: 0.6382179260253906
","x: 192.21762084960938
y: 420.9257507324219
z: -0.39873141050338745
visibility: 0.8380001783370972
","x: 236.23477172851562
y: 312.968505859375
z: -0.5368014574050903
visibility: 0.629635214805603
","x: 196.13548278808594
y: 420.635009765625
z: -0.40980297327041626
visibility: 0.8333967328071594
","x: 234.4480438232422
y: 314.3224792480469
z: -0.4951047897338867
visibility: 0.5882374048233032
","x: 196.2047576904297
y: 416.5161437988281
z: -0.3653690814971924
visibility: 0.7867519855499268
","x: 197.08251953125
y: 381.02099609375
z: 0.0681750476360321
visibility: 0.999300479888916
","x: 174.59706115722656
y: 377.56634521484375
z: -0.06817598640918732
visibility: 0.9995265603065491
","x: 212.87937927246094
y: 458.65313720703125
z: -0.03244536370038986
visibility: 0.954798698425293
","x: 185.1907958984375
y: 468.006103515625
z: -0.19415315985679626
visibility: 0.982865035533905
","x: 199.01329040527344
y: 543.6548461914062
z: 0.06792084872722626
visibility: 0.9541999101638794
","x: 180.18910217285156
y: 557.0243530273438
z: -0.12596090137958527
visibility: 0.9864132404327393
","x: 192.0599365234375
y: 553.9600219726562
z: 0.0719919353723526
visibility: 0.8157760500907898
","x: 174.92794799804688
y: 569.985107421875
z: -0.12727989256381989
visibility: 0.8813639879226685
","x: 211.03477478027344
y: 572.243896484375
z: -0.024271422997117043
visibility: 0.9429351091384888
","x: 190.32199096679688
y: 583.0819091796875
z: -0.2698691487312317
visibility: 0.9788500070571899
","x: 232.8665313720703
y: 327.7084655761719
z: 0.0
","x: 228.07379150390625
y: 323.94403076171875
z: 0.0001108915894292295
","x: 224.86575317382812
y: 318.3836364746094
z: -0.001351247075945139
","x: 223.1251983642578
y: 313.8406982421875
z: -0.003655090695247054
","x: 222.66419982910156
y: 310.59619140625
z: -0.005270852707326412
","x: 227.04998779296875
y: 307.1341552734375
z: 0.0005383291863836348
","x: 223.9724884033203
y: 306.9381408691406
z: -0.0027383212000131607
","x: 223.71031188964844
y: 312.03167724609375
z: -0.00395750580355525
","x: 224.27818298339844
y: 315.04437255859375
z: -0.004306515213102102
","x: 229.1989288330078
y: 306.765380859375
z: -0.0017737854504957795
","x: 226.22869873046875
y: 307.86566162109375
z: -0.0048670354299247265
","x: 226.05894470214844
y: 313.3382873535156
z: -0.004854575730860233
","x: 226.5916748046875
y: 315.9220886230469
z: -0.004376423079520464
","x: 231.44766235351562
y: 307.8861389160156
z: -0.004614328034222126
","x: 228.4310760498047
y: 309.3093566894531
z: -0.007391047663986683
","x: 228.23658752441406
y: 314.5386047363281
z: -0.006169711239635944
","x: 228.73733520507812
y: 316.8831787109375
z: -0.004865825176239014
","x: 233.5487060546875
y: 310.0594482421875
z: -0.007699207868427038
","x: 230.64381408691406
y: 311.1956481933594
z: -0.008928419090807438
","x: 230.06997680664062
y: 315.1047058105469
z: -0.007707549259066582
","x: 230.31399536132812
y: 317.1539611816406
z: -0.0064712162129580975
",,,,,,,,,,,,,,,,,,,,,
16,"x: 234.20718383789062
y: 267.120849609375
z: -0.5127197504043579
visibility: 0.9999154210090637
","x: 237.08126831054688
y: 261.2240295410156
z: -0.4955747723579407
visibility: 0.999806821346283
","x: 237.8433380126953
y: 261.88726806640625
z: -0.4956296980381012
visibility: 0.9997690320014954
","x: 238.73110961914062
y: 262.5611572265625
z: -0.4957701563835144
visibility: 0.9997692108154297
","x: 233.994873046875
y: 257.8874816894531
z: -0.5076369047164917
visibility: 0.9998669624328613
","x: 232.41156005859375
y: 256.23504638671875
z: -0.5076981782913208
visibility: 0.9998672604560852
","x: 230.81402587890625
y: 254.62094116210938
z: -0.5077199339866638
visibility: 0.9998943209648132
","x: 237.12437438964844
y: 264.643310546875
z: -0.3486579358577728
visibility: 0.999454915523529
","x: 224.8904571533203
y: 253.25613403320312
z: -0.4384559094905853
visibility: 0.9998814463615417
","x: 232.08468627929688
y: 276.68634033203125
z: -0.45825186371803284
visibility: 0.9998195767402649
","x: 227.87191772460938
y: 272.8302307128906
z: -0.4465465545654297
visibility: 0.9999387860298157
","x: 225.89190673828125
y: 296.33184814453125
z: -0.1612900197505951
visibility: 0.99935382604599
","x: 198.17623901367188
y: 285.1073303222656
z: -0.4098081588745117
visibility: 0.9999446272850037
","x: 215.14031982421875
y: 345.75640869140625
z: -0.017441462725400925
visibility: 0.8150787353515625
","x: 183.12188720703125
y: 348.01617431640625
z: -0.4206008315086365
visibility: 0.9795008897781372
","x: 217.4722137451172
y: 375.024658203125
z: -0.009396816603839397
visibility: 0.6693276762962341
","x: 193.87998962402344
y: 407.3907470703125
z: -0.44270795583724976
visibility: 0.9046885967254639
","x: 217.47222900390625
y: 389.0240173339844
z: -0.0072093019261956215
visibility: 0.5883605480194092
","x: 194.61672973632812
y: 422.72564697265625
z: -0.48019975423812866
visibility: 0.840178370475769
","x: 218.5030059814453
y: 389.3858337402344
z: -0.0400819294154644
visibility: 0.5806964039802551
","x: 198.61019897460938
y: 421.6246337890625
z: -0.4888145327568054
visibility: 0.8353934288024902
","x: 217.205810546875
y: 383.9212646484375
z: -0.022758718580007553
visibility: 0.5436553955078125
","x: 198.7576904296875
y: 416.8330078125
z: -0.444999635219574
visibility: 0.7860282063484192
","x: 196.46206665039062
y: 378.7795715332031
z: 0.07270284742116928
visibility: 0.9991827607154846
","x: 174.1719512939453
y: 377.4337463378906
z: -0.07271991670131683
visibility: 0.9994197487831116
","x: 215.36187744140625
y: 456.9515686035156
z: -0.0830109566450119
visibility: 0.9531093239784241
","x: 187.11036682128906
y: 468.3133544921875
z: -0.21592073142528534
visibility: 0.9828547239303589
","x: 204.05235290527344
y: 543.0592041015625
z: 0.06585998833179474
visibility: 0.9511985182762146
","x: 180.822509765625
y: 557.5825805664062
z: -0.08945154398679733
visibility: 0.9865476489067078
","x: 198.3233184814453
y: 554.6492919921875
z: 0.06931458413600922
visibility: 0.8201126456260681
","x: 176.67742919921875
y: 569.792724609375
z: -0.08217291533946991
visibility: 0.8859074115753174
","x: 218.20289611816406
y: 571.7720947265625
z: -0.03042880818247795
visibility: 0.9403775334358215
","x: 191.38357543945312
y: 582.9564819335938
z: -0.21118421852588654
visibility: 0.9788022041320801
",,,,,,,,,,,,,,,,,,,,,,,,,,,,,,,,,,,,,,,,,,
17,"x: 234.23233032226562
y: 259.3916015625
z: -0.564314067363739
visibility: 0.9999105930328369
","x: 237.05906677246094
y: 252.76426696777344
z: -0.5402408242225647
visibility: 0.9997873902320862
","x: 237.9534149169922
y: 253.15609741210938
z: -0.5402956604957581
visibility: 0.9997345209121704
","x: 238.94329833984375
y: 253.54852294921875
z: -0.5404677987098694
visibility: 0.99974524974823
","x: 233.46505737304688
y: 250.04022216796875
z: -0.5586844682693481
visibility: 0.9998610019683838
","x: 231.72512817382812
y: 248.6009521484375
z: -0.5588139891624451
visibility: 0.9998603463172913
","x: 229.9679718017578
y: 247.380859375
z: -0.5588824152946472
visibility: 0.9998906254768372
","x: 237.7789306640625
y: 255.96421813964844
z: -0.38297852873802185
visibility: 0.9993449449539185
","x: 224.34786987304688
y: 247.4598846435547
z: -0.47139638662338257
visibility: 0.999867856502533
","x: 232.29855346679688
y: 269.349853515625
z: -0.5031737089157104
visibility: 0.9998000860214233
","x: 227.970458984375
y: 266.1748046875
z: -0.5227923393249512
visibility: 0.9999334216117859
","x: 226.66973876953125
y: 289.3509521484375
z: -0.18929870426654816
visibility: 0.9993605613708496
","x: 198.5066680908203
y: 282.13897705078125
z: -0.4082200527191162
visibility: 0.9999298453330994
","x: 226.72897338867188
y: 344.1659851074219
z: -0.07347133755683899
visibility: 0.8067302107810974
","x: 183.1262664794922
y: 345.8493347167969
z: -0.4052352011203766
visibility: 0.9796611666679382
","x: 217.91355895996094
y: 385.1362609863281
z: -0.09181305021047592
visibility: 0.6613919138908386
","x: 188.3826904296875
y: 408.14923095703125
z: -0.43068957328796387
visibility: 0.905198335647583
","x: 227.1289825439453
y: 400.24554443359375
z: -0.09928365051746368
visibility: 0.5783467888832092
","x: 189.53173828125
y: 423.474609375
z: -0.46526437997817993
visibility: 0.8404982686042786
","x: 227.63845825195312
y: 400.80364990234375
z: -0.13264791667461395
visibility: 0.5723567008972168
","x: 194.3683319091797
y: 422.2151184082031
z: -0.4808594584465027
visibility: 0.8357111215591431
","x: 225.8538055419922
y: 396.79400634765625
z: -0.1056266576051712
visibility: 0.5374760031700134
","x: 194.38037109375
y: 417.3452453613281
z: -0.43551820516586304
visibility: 0.78551185131073
","x: 201.40086364746094
y: 376.88128662109375
z: 0.06791490316390991
visibility: 0.9991611242294312
","x: 178.13082885742188
y: 373.0908203125
z: -0.06790786236524582
visibility: 0.9993501305580139
","x: 215.8179931640625
y: 456.9958801269531
z: -0.08668871968984604
visibility: 0.9523128271102905
","x: 188.69754028320312
y: 467.6595764160156
z: -0.22165150940418243
visibility: 0.9834504127502441
","x: 208.14065551757812
y: 543.1549072265625
z: 0.0494171604514122
visibility: 0.9508113265037537
","x: 181.5570526123047
y: 557.5413818359375
z: -0.09502708166837692
visibility: 0.9869328737258911
","x: 203.04598999023438
y: 555.5064697265625
z: 0.055206965655088425
visibility: 0.8230555653572083
","x: 176.88429260253906
y: 569.3514404296875
z: -0.0904257595539093
visibility: 0.8881739377975464
","x: 221.48153686523438
y: 571.8282470703125
z: -0.04732409492135048
visibility: 0.9399785399436951
","x: 191.9105682373047
y: 582.4111328125
z: -0.22669675946235657
visibility: 0.9791603088378906
",,,,,,,,,,,,,,,,,,,,,,,,,,,,,,,,,,,,,,,,,,
18,"x: 233.2054443359375
y: 255.09707641601562
z: -0.506782591342926
visibility: 0.9999185800552368
","x: 235.801513671875
y: 248.55062866210938
z: -0.4826858937740326
visibility: 0.999803900718689
","x: 237.07186889648438
y: 248.9674530029297
z: -0.4827360510826111
visibility: 0.9997545480728149
","x: 238.24868774414062
y: 249.12530517578125
z: -0.48285192251205444
visibility: 0.9997637867927551
","x: 231.50714111328125
y: 246.0260009765625
z: -0.49639683961868286
visibility: 0.999872624874115
","x: 229.76573181152344
y: 244.9703826904297
z: -0.49648624658584595
visibility: 0.9998719096183777
","x: 228.02513122558594
y: 244.1936492919922
z: -0.49652642011642456
visibility: 0.9998995065689087
","x: 237.9566192626953
y: 251.89181518554688
z: -0.33464565873146057
visibility: 0.9993924498558044
","x: 223.44520568847656
y: 245.6822967529297
z: -0.3942696154117584
visibility: 0.9998786449432373
","x: 232.4879150390625
y: 265.0213623046875
z: -0.4497292935848236
visibility: 0.9998171925544739
","x: 227.56930541992188
y: 262.1780090332031
z: -0.46638646721839905
visibility: 0.9999391436576843
","x: 232.7947540283203
y: 289.169677734375
z: -0.16786223649978638
visibility: 0.999417245388031
","x: 199.54161071777344
y: 282.005615234375
z: -0.35083118081092834
visibility: 0.9999339580535889
","x: 248.23941040039062
y: 339.9499206542969
z: -0.12328624725341797
visibility: 0.8198946118354797
","x: 181.0305938720703
y: 339.0262451171875
z: -0.3830186128616333
visibility: 0.9810820817947388
","x: 261.9071350097656
y: 380.6124267578125
z: -0.17847441136837006
visibility: 0.687689483165741
","x: 166.52830505371094
y: 399.76007080078125
z: -0.44650799036026
visibility: 0.9122195839881897
","x: 266.39471435546875
y: 391.8741149902344
z: -0.23466452956199646
visibility: 0.6069891452789307
","x: 159.15406799316406
y: 416.4828186035156
z: -0.4817129075527191
visibility: 0.8507956862449646
","x: 265.0541076660156
y: 390.75848388671875
z: -0.2998591363430023
visibility: 0.6030758023262024
","x: 162.31739807128906
y: 418.54058837890625
z: -0.507818341255188
visibility: 0.8465098142623901
","x: 262.75762939453125
y: 387.41375732421875
z: -0.23949019610881805
visibility: 0.5706361532211304
","x: 165.05300903320312
y: 414.173095703125
z: -0.45756155252456665
visibility: 0.7995742559432983
","x: 204.79769897460938
y: 382.1685791015625
z: 0.07020767033100128
visibility: 0.9991816282272339
","x: 184.34085083007812
y: 378.194580078125
z: -0.07027432322502136
visibility: 0.9993501901626587
","x: 225.81358337402344
y: 457.0700378417969
z: -0.09370540827512741
visibility: 0.9545249938964844
","x: 192.53091430664062
y: 469.4721984863281
z: -0.2284458577632904
visibility: 0.9847838878631592
","x: 210.4723358154297
y: 537.5205078125
z: 0.07269514352083206
visibility: 0.9525975584983826
","x: 182.4239501953125
y: 557.1221923828125
z: -0.0771336555480957
visibility: 0.9879128932952881
","x: 206.06930541992188
y: 548.636962890625
z: 0.0833616554737091
visibility: 0.8348273038864136
","x: 176.55361938476562
y: 568.7998657226562
z: -0.06793729960918427
visibility: 0.8957151770591736
","x: 223.67779541015625
y: 571.8155517578125
z: -0.009442077949643135
visibility: 0.9425793886184692
","x: 192.71743774414062
y: 582.3837890625
z: -0.1936286836862564
visibility: 0.9805409908294678
",,,,,,,,,,,,,,,,,,,,,,,,,,,,,,,,,,,,,,,,,,
19,"x: 235.4908905029297
y: 247.58462524414062
z: -0.4946473240852356
visibility: 0.9999266862869263
","x: 237.49713134765625
y: 239.70452880859375
z: -0.46957412362098694
visibility: 0.9998235106468201
","x: 238.9025421142578
y: 240.0294647216797
z: -0.46963056921958923
visibility: 0.9997790455818176
","x: 240.21694946289062
y: 240.14373779296875
z: -0.46967801451683044
visibility: 0.9997873902320862
","x: 232.24868774414062
y: 238.54368591308594
z: -0.4770365357398987
visibility: 0.9998853206634521
","x: 230.27305603027344
y: 238.17669677734375
z: -0.4771087169647217
visibility: 0.9998846650123596
","x: 228.5142059326172
y: 237.9072723388672
z: -0.47709599137306213
visibility: 0.999909520149231
","x: 240.9107208251953
y: 243.2760009765625
z: -0.3175804615020752
visibility: 0.9994531273841858
","x: 224.3140106201172
y: 240.8966064453125
z: -0.34723347425460815
visibility: 0.9998907446861267
","x: 236.70494079589844
y: 257.08074951171875
z: -0.4384766221046448
visibility: 0.9998354315757751
","x: 231.28924560546875
y: 255.42237854003906
z: -0.44715890288352966
visibility: 0.9999452233314514
","x: 245.05105590820312
y: 285.6824951171875
z: -0.17616774141788483
visibility: 0.999475359916687
","x: 204.14454650878906
y: 280.8846740722656
z: -0.2754376530647278
visibility: 0.9999404549598694
","x: 264.1712341308594
y: 319.0992431640625
z: -0.3153281509876251
visibility: 0.8369554877281189
","x: 176.83901977539062
y: 322.6114196777344
z: -0.2814194858074188
visibility: 0.9828134179115295
","x: 267.3902893066406
y: 313.99884033203125
z: -0.5803505778312683
visibility: 0.7167565226554871
","x: 145.69573974609375
y: 350.7669372558594
z: -0.3270573914051056
visibility: 0.9204310774803162
","x: 269.1637268066406
y: 313.6867980957031
z: -0.6316594481468201
visibility: 0.640415370464325
","x: 135.6141815185547
y: 354.4601745605469
z: -0.3483239412307739
visibility: 0.863983690738678
","x: 267.359375
y: 309.64471435546875
z: -0.637538731098175
visibility: 0.6367219090461731
","x: 135.59384155273438
y: 355.8865051269531
z: -0.38174089789390564
visibility: 0.8601664304733276
","x: 265.704833984375
y: 310.1869812011719
z: -0.5912619829177856
visibility: 0.6065449714660645
","x: 139.0222625732422
y: 355.89544677734375
z: -0.3414396643638611
visibility: 0.8175088763237
","x: 217.8809814453125
y: 383.66339111328125
z: 0.0677187368273735
visibility: 0.9992610216140747
","x: 195.5250244140625
y: 381.6177062988281
z: -0.06779701262712479
visibility: 0.9994121193885803
","x: 247.83786010742188
y: 453.8976745605469
z: -0.09632345288991928
visibility: 0.9579100012779236
","x: 200.65467834472656
y: 472.50726318359375
z: -0.22786608338356018
visibility: 0.9861204028129578
","x: 236.27870178222656
y: 533.2059326171875
z: 0.06976756453514099
visibility: 0.9561798572540283
","x: 182.85693359375
y: 556.3104858398438
z: -0.07857374846935272
visibility: 0.9889342784881592
","x: 228.9935760498047
y: 543.8590698242188
z: 0.07958241552114487
visibility: 0.8496446013450623
","x: 176.65884399414062
y: 568.2803955078125
z: -0.07918862998485565
visibility: 0.9031221866607666
","x: 251.14170837402344
y: 562.7730712890625
z: -0.019017646089196205
visibility: 0.947209358215332
","x: 194.0045623779297
y: 582.1240844726562
z: -0.19609835743904114
visibility: 0.982075035572052
",,,,,,,,,,,,,,,,,,,,,,,,,,,,,,,,,,,,,,,,,,
20,"x: 250.23245239257812
y: 233.2216796875
z: -0.5047442317008972
visibility: 0.9999339580535889
","x: 252.28952026367188
y: 226.46424865722656
z: -0.48351889848709106
visibility: 0.9998408555984497
","x: 253.75039672851562
y: 226.8370361328125
z: -0.4835529327392578
visibility: 0.9998008012771606
","x: 255.02609252929688
y: 227.1105194091797
z: -0.48360729217529297
visibility: 0.9998082518577576
","x: 247.32447814941406
y: 224.970947265625
z: -0.4897938668727875
visibility: 0.9998965263366699
","x: 245.13555908203125
y: 224.138427734375
z: -0.48987269401550293
visibility: 0.9998958110809326
","x: 243.13201904296875
y: 223.55429077148438
z: -0.4898748993873596
visibility: 0.9999182224273682
","x: 254.6573028564453
y: 230.2062225341797
z: -0.3400949537754059
visibility: 0.9995071291923523
","x: 238.43875122070312
y: 226.06382751464844
z: -0.36393094062805176
visibility: 0.9999014139175415
","x: 251.5449676513672
y: 242.2684326171875
z: -0.4501875042915344
visibility: 0.9998517632484436
","x: 245.24720764160156
y: 241.1297607421875
z: -0.4569341242313385
visibility: 0.999950647354126
","x: 261.4203186035156
y: 276.52667236328125
z: -0.2189791202545166
visibility: 0.9995274543762207
","x: 220.11134338378906
y: 271.2991638183594
z: -0.2753525376319885
visibility: 0.9999459385871887
","x: 289.70513916015625
y: 299.98968505859375
z: -0.38470515608787537
visibility: 0.8525379300117493
","x: 185.99903869628906
y: 303.7314453125
z: -0.27783066034317017
visibility: 0.9842891097068787
","x: 266.6637268066406
y: 292.8721923828125
z: -0.6177515983581543
visibility: 0.7402172684669495
","x: 154.46615600585938
y: 313.0369873046875
z: -0.3339400589466095
visibility: 0.9276256561279297
","x: 261.64874267578125
y: 295.41998291015625
z: -0.66765958070755
visibility: 0.6606688499450684
","x: 145.33847045898438
y: 312.48333740234375
z: -0.35777929425239563
visibility: 0.87557053565979
","x: 259.4862060546875
y: 291.39080810546875
z: -0.6582732796669006
visibility: 0.6562390923500061
","x: 145.45004272460938
y: 312.0670166015625
z: -0.3901295065879822
visibility: 0.8722752928733826
","x: 260.226318359375
y: 290.4427490234375
z: -0.6202955842018127
visibility: 0.6267725229263306
","x: 148.03135681152344
y: 312.87457275390625
z: -0.3485761284828186
visibility: 0.8334587216377258
","x: 239.24122619628906
y: 383.38726806640625
z: 0.04933525249361992
visibility: 0.9993224143981934
","x: 216.4400177001953
y: 381.0459899902344
z: -0.04964121803641319
visibility: 0.9994567036628723
","x: 257.5787658691406
y: 459.2284851074219
z: -0.04466300830245018
visibility: 0.9608227014541626
","x: 214.18341064453125
y: 472.4130554199219
z: -0.1081668883562088
visibility: 0.986178457736969
","x: 266.57159423828125
y: 539.951904296875
z: 0.12433711439371109
visibility: 0.9594014286994934
","x: 185.39735412597656
y: 551.5868530273438
z: 0.044118113815784454
visibility: 0.9890880584716797
","x: 264.3432312011719
y: 551.970458984375
z: 0.13523197174072266
visibility: 0.8600800037384033
","x: 177.16510009765625
y: 560.2825927734375
z: 0.052202142775058746
visibility: 0.8981108069419861
","x: 273.04803466796875
y: 569.7637329101562
z: 0.0177171491086483
visibility: 0.9508545994758606
","x: 194.33265686035156
y: 582.0646362304688
z: -0.09847520291805267
visibility: 0.9815434813499451
",,,,,,,,,,,,,,,,,,,,,,,,,,,,,,,,,,,,,,,,,,
21,"x: 258.78973388671875
y: 235.05743408203125
z: -0.4646863341331482
visibility: 0.9999402761459351
","x: 261.3022766113281
y: 227.4651336669922
z: -0.44497719407081604
visibility: 0.9998556971549988
","x: 262.82293701171875
y: 227.74803161621094
z: -0.4450109601020813
visibility: 0.9998195767402649
","x: 264.1180114746094
y: 227.87762451171875
z: -0.44504982233047485
visibility: 0.999826192855835
","x: 255.89675903320312
y: 225.96681213378906
z: -0.4484834671020508
visibility: 0.9999057650566101
","x: 253.9744110107422
y: 225.52508544921875
z: -0.44856444001197815
visibility: 0.9999049305915833
","x: 252.03781127929688
y: 225.22982788085938
z: -0.4485454559326172
visibility: 0.9999250769615173
","x: 264.67730712890625
y: 230.20118713378906
z: -0.3096236288547516
visibility: 0.9995545148849487
","x: 248.33367919921875
y: 228.4832000732422
z: -0.320218026638031
visibility: 0.9999099969863892
","x: 260.4997863769531
y: 245.0159454345703
z: -0.4127139151096344
visibility: 0.9998661875724792
","x: 254.0430450439453
y: 244.2157745361328
z: -0.41557231545448303
visibility: 0.9999551773071289
","x: 273.695068359375
y: 273.57965087890625
z: -0.2185322344303131
visibility: 0.9995743036270142
","x: 230.69705200195312
y: 272.7520751953125
z: -0.21735982596874237
visibility: 0.9999476075172424
","x: 300.4866027832031
y: 298.02667236328125
z: -0.33659809827804565
visibility: 0.8666107654571533
","x: 198.80604553222656
y: 303.49713134765625
z: -0.2083333283662796
visibility: 0.9856413006782532
","x: 273.03289794921875
y: 313.9077453613281
z: -0.558506965637207
visibility: 0.763579249382019
","x: 164.55137634277344
y: 313.85577392578125
z: -0.2748841345310211
visibility: 0.9341042637825012
","x: 267.3988037109375
y: 318.3736877441406
z: -0.6066721677780151
visibility: 0.6866256594657898
","x: 155.75650024414062
y: 312.49407958984375
z: -0.29764264822006226
visibility: 0.8859161734580994
","x: 264.8676452636719
y: 314.9963684082031
z: -0.606853187084198
visibility: 0.6825409531593323
","x: 155.7638702392578
y: 311.9437255859375
z: -0.33185410499572754
visibility: 0.8832047581672668
","x: 266.0336608886719
y: 313.324462890625
z: -0.5633658170700073
visibility: 0.6538634896278381
","x: 159.06468200683594
y: 313.76739501953125
z: -0.2906095087528229
visibility: 0.8479243516921997
","x: 254.9333953857422
y: 384.42315673828125
z: 0.031958285719156265
visibility: 0.9993712306022644
","x: 230.220947265625
y: 382.167724609375
z: -0.032228726893663406
visibility: 0.9994762539863586
","x: 265.9581298828125
y: 464.3072814941406
z: -0.03061421774327755
visibility: 0.9642310738563538
","x: 227.56863403320312
y: 474.3157653808594
z: -0.09548778831958771
visibility: 0.9870388507843018
","x: 269.1177062988281
y: 545.5089721679688
z: 0.16665813326835632
visibility: 0.9628993272781372
","x: 194.75567626953125
y: 539.9403686523438
z: 0.05736583471298218
visibility: 0.989696204662323
","x: 265.8851318359375
y: 555.123046875
z: 0.17997178435325623
visibility: 0.8663281202316284
","x: 186.99148559570312
y: 545.5841674804688
z: 0.06692392379045486
visibility: 0.8919911980628967
","x: 271.83868408203125
y: 572.1163330078125
z: 0.06100654602050781
visibility: 0.9544212818145752
","x: 194.4898681640625
y: 576.546630859375
z: -0.07076822966337204
visibility: 0.9821569323539734
",,,,,,,,,,,,,,,,,,,,,,,,,,,,,,,,,,,,,,,,,,
22,"x: 267.1256103515625
y: 238.10865783691406
z: -0.4717726707458496
visibility: 0.9999454617500305
","x: 269.74920654296875
y: 230.1757049560547
z: -0.4538487493991852
visibility: 0.9998676776885986
","x: 271.4991149902344
y: 230.45457458496094
z: -0.4538981020450592
visibility: 0.9998348951339722
","x: 272.7941589355469
y: 230.47723388671875
z: -0.4539605677127838
visibility: 0.9998407959938049
","x: 264.2309875488281
y: 228.92999267578125
z: -0.4575404226779938
visibility: 0.9999125599861145
","x: 262.21002197265625
y: 228.56036376953125
z: -0.45762133598327637
visibility: 0.9999114871025085
","x: 260.4579772949219
y: 228.28492736816406
z: -0.4576026499271393
visibility: 0.9999291300773621
","x: 274.351318359375
y: 232.47003173828125
z: -0.3157726228237152
visibility: 0.9995933771133423
","x: 258.1051940917969
y: 231.02235412597656
z: -0.3286581337451935
visibility: 0.9999150633811951
","x: 269.550537109375
y: 247.51678466796875
z: -0.41769939661026
visibility: 0.999878466129303
","x: 263.4576416015625
y: 246.07171630859375
z: -0.4212718605995178
visibility: 0.9999583959579468
","x: 285.48931884765625
y: 272.8493347167969
z: -0.19941547513008118
visibility: 0.9996166229248047
","x: 240.71728515625
y: 273.578125
z: -0.21846893429756165
visibility: 0.9999470710754395
","x: 308.29840087890625
y: 306.39324951171875
z: -0.2549002766609192
visibility: 0.8796071410179138
","x: 211.66165161132812
y: 306.9129638671875
z: -0.19523940980434418
visibility: 0.9869486689567566
","x: 292.8959045410156
y: 321.25201416015625
z: -0.4611312747001648
visibility: 0.7864441871643066
","x: 174.2725067138672
y: 323.4144592285156
z: -0.27274051308631897
visibility: 0.9402647018432617
","x: 289.5682373046875
y: 336.1384582519531
z: -0.49347466230392456
visibility: 0.7154960036277771
","x: 155.9371795654297
y: 323.88720703125
z: -0.29718053340911865
visibility: 0.8959580659866333
","x: 286.2953186035156
y: 332.311767578125
z: -0.5012809038162231
visibility: 0.7120416164398193
","x: 163.66702270507812
y: 323.5974426269531
z: -0.3367403745651245
visibility: 0.8937031030654907
","x: 286.2812194824219
y: 327.7120361328125
z: -0.4657100737094879
visibility: 0.6854826807975769
","x: 163.68687438964844
y: 324.5531921386719
z: -0.29030871391296387
visibility: 0.8617402911186218
","x: 266.6849060058594
y: 384.2005615234375
z: 0.030551210045814514
visibility: 0.9994230270385742
","x: 242.31625366210938
y: 381.7855224609375
z: -0.0307401604950428
visibility: 0.9994866847991943
","x: 275.7584228515625
y: 471.3478088378906
z: -0.027569666504859924
visibility: 0.966877818107605
","x: 243.80934143066406
y: 472.89227294921875
z: -0.0787181556224823
visibility: 0.9872316718101501
","x: 269.5961608886719
y: 548.4898681640625
z: 0.15444424748420715
visibility: 0.965490996837616
","x: 216.82534790039062
y: 525.8656005859375
z: 0.13747820258140564
visibility: 0.9881856441497803
","x: 265.8069763183594
y: 558.3897705078125
z: 0.1662989854812622
visibility: 0.8694069385528564
","x: 213.37078857421875
y: 532.537109375
z: 0.15485206246376038
visibility: 0.8694117665290833
","x: 274.7767333984375
y: 573.7817993164062
z: 0.050753623247146606
visibility: 0.9566287994384766
","x: 216.015625
y: 565.7512817382812
z: 0.04725632816553116
visibility: 0.9796164035797119
",,,,,,,,,,,,,,,,,,,,,,,,,,,,,,,,,,,,,,,,,,
23,"x: 275.0816650390625
y: 238.08824157714844
z: -0.4813804626464844
visibility: 0.9999502301216125
","x: 278.265625
y: 230.64321899414062
z: -0.4651835858821869
visibility: 0.9998794198036194
","x: 279.9545593261719
y: 231.06668090820312
z: -0.4652178883552551
visibility: 0.9998497366905212
","x: 281.3614501953125
y: 231.2667236328125
z: -0.4652867913246155
visibility: 0.9998552203178406
","x: 272.45477294921875
y: 229.15077209472656
z: -0.4686407148838043
visibility: 0.9999194145202637
","x: 270.3919677734375
y: 228.63436889648438
z: -0.4687085747718811
visibility: 0.9999181032180786
","x: 268.6388244628906
y: 228.18800354003906
z: -0.4686919152736664
visibility: 0.9999340772628784
","x: 282.5771179199219
y: 233.51571655273438
z: -0.31774815917015076
visibility: 0.9996309876441956
","x: 265.55950927734375
y: 230.29150390625
z: -0.3508996069431305
visibility: 0.9999210834503174
","x: 277.1965026855469
y: 247.344482421875
z: -0.43127235770225525
visibility: 0.9998900294303894
","x: 270.7230529785156
y: 245.63275146484375
z: -0.43533778190612793
visibility: 0.9999619722366333
","x: 290.7223205566406
y: 272.4876708984375
z: -0.24643468856811523
visibility: 0.9996538758277893
","x: 246.12318420410156
y: 272.3962097167969
z: -0.23924055695533752
visibility: 0.999946653842926
","x: 312.0610046386719
y: 305.1806335449219
z: -0.3700498938560486
visibility: 0.8910136222839355
","x: 215.83062744140625
y: 303.0649108886719
z: -0.23031067848205566
visibility: 0.9880937337875366
","x: 304.6958923339844
y: 319.34832763671875
z: -0.6127606630325317
visibility: 0.8054659962654114
","x: 182.51058959960938
y: 315.69342041015625
z: -0.30453795194625854
visibility: 0.9455201029777527
","x: 301.374755859375
y: 328.52197265625
z: -0.6572955846786499
visibility: 0.7379896640777588
","x: 171.0638885498047
y: 317.0600280761719
z: -0.32730308175086975
visibility: 0.9040654301643372
","x: 297.4906921386719
y: 323.5755920410156
z: -0.6632199287414551
visibility: 0.7349852919578552
","x: 172.07284545898438
y: 315.2589111328125
z: -0.35956433415412903
visibility: 0.9022862911224365
","x: 297.62677001953125
y: 320.1419677734375
z: -0.6194947361946106
visibility: 0.7098190188407898
","x: 173.2526092529297
y: 315.7259521484375
z: -0.31895196437835693
visibility: 0.873256504535675
","x: 275.20452880859375
y: 383.817138671875
z: 0.016245074570178986
visibility: 0.9994567632675171
","x: 250.67478942871094
y: 381.5155334472656
z: -0.01645810715854168
visibility: 0.9994574785232544
","x: 279.50860595703125
y: 472.45660400390625
z: -0.018606752157211304
visibility: 0.9682628512382507
","x: 256.04730224609375
y: 471.646728515625
z: -0.04073258489370346
visibility: 0.9861379861831665
","x: 273.83038330078125
y: 548.844482421875
z: 0.17064328491687775
visibility: 0.9667217135429382
","x: 248.65719604492188
y: 533.3001708984375
z: 0.1634410172700882
visibility: 0.9852126240730286
","x: 270.2387390136719
y: 558.2385864257812
z: 0.18353119492530823
visibility: 0.8632994890213013
","x: 248.90762329101562
y: 542.3780517578125
z: 0.17894765734672546
visibility: 0.8445611596107483
","x: 274.0719299316406
y: 574.4996337890625
z: 0.060577332973480225
visibility: 0.9574536681175232
","x: 251.80284118652344
y: 568.89892578125
z: 0.06322197616100311
visibility: 0.9761016368865967
","x: 301.8963317871094
y: 320.7268981933594
z: 0.0
","x: 296.48748779296875
y: 321.62762451171875
z: 0.0007750155054964125
","x: 291.9839172363281
y: 324.020751953125
z: -0.0007986639975570142
","x: 289.2771911621094
y: 325.83380126953125
z: -0.003130249911919236
","x: 287.7207946777344
y: 327.3424072265625
z: -0.004884660709649324
","x: 292.52020263671875
y: 337.60614013671875
z: -0.001511934562586248
","x: 289.83331298828125
y: 331.5754699707031
z: -0.0037647702265530825
","x: 290.6760559082031
y: 327.3118591308594
z: -0.004602953791618347
","x: 291.537109375
y: 326.20159912109375
z: -0.005088240373879671
","x: 295.426025390625
y: 337.92730712890625
z: -0.004143048543483019
","x: 293.2281494140625
y: 328.9660339355469
z: -0.006085623055696487
","x: 293.4161071777344
y: 324.9515075683594
z: -0.005087712313979864
","x: 293.92730712890625
y: 323.416748046875
z: -0.0046952771954238415
","x: 298.4074401855469
y: 336.0616760253906
z: -0.006753884255886078
","x: 296.249755859375
y: 327.121337890625
z: -0.008111526258289814
","x: 296.0392761230469
y: 323.4884033203125
z: -0.005978829693049192
","x: 296.1864929199219
y: 322.05072021484375
z: -0.004813218954950571
","x: 301.1595153808594
y: 333.09442138671875
z: -0.009596418589353561
","x: 299.3318786621094
y: 326.57452392578125
z: -0.010240956209599972
","x: 298.6783142089844
y: 323.57696533203125
z: -0.00865465309470892
","x: 298.4302978515625
y: 322.3411865234375
z: -0.007525746710598469
",,,,,,,,,,,,,,,,,,,,,
24,"x: 275.0816650390625
y: 238.08824157714844
z: -0.4813804626464844
visibility: 0.9999502301216125
","x: 278.265625
y: 230.64321899414062
z: -0.4651835858821869
visibility: 0.9998794198036194
","x: 279.9545593261719
y: 231.06668090820312
z: -0.4652178883552551
visibility: 0.9998497366905212
","x: 281.3614501953125
y: 231.2667236328125
z: -0.4652867913246155
visibility: 0.9998552203178406
","x: 272.45477294921875
y: 229.15077209472656
z: -0.4686407148838043
visibility: 0.9999194145202637
","x: 270.3919677734375
y: 228.63436889648438
z: -0.4687085747718811
visibility: 0.9999181032180786
","x: 268.6388244628906
y: 228.18800354003906
z: -0.4686919152736664
visibility: 0.9999340772628784
","x: 282.5771179199219
y: 233.51571655273438
z: -0.31774815917015076
visibility: 0.9996309876441956
","x: 265.55950927734375
y: 230.29150390625
z: -0.3508996069431305
visibility: 0.9999210834503174
","x: 277.1965026855469
y: 247.344482421875
z: -0.43127235770225525
visibility: 0.9998900294303894
","x: 270.7230529785156
y: 245.63275146484375
z: -0.43533778190612793
visibility: 0.9999619722366333
","x: 290.7223205566406
y: 272.4876708984375
z: -0.24643468856811523
visibility: 0.9996538758277893
","x: 246.12318420410156
y: 272.3962097167969
z: -0.23924055695533752
visibility: 0.999946653842926
","x: 312.0610046386719
y: 305.1806335449219
z: -0.3700498938560486
visibility: 0.8910136222839355
","x: 215.83062744140625
y: 303.0649108886719
z: -0.23031067848205566
visibility: 0.9880937337875366
","x: 304.6958923339844
y: 319.34832763671875
z: -0.6127606630325317
visibility: 0.8054659962654114
","x: 182.51058959960938
y: 315.69342041015625
z: -0.30453795194625854
visibility: 0.9455201029777527
","x: 301.374755859375
y: 328.52197265625
z: -0.6572955846786499
visibility: 0.7379896640777588
","x: 171.0638885498047
y: 317.0600280761719
z: -0.32730308175086975
visibility: 0.9040654301643372
","x: 297.4906921386719
y: 323.5755920410156
z: -0.6632199287414551
visibility: 0.7349852919578552
","x: 172.07284545898438
y: 315.2589111328125
z: -0.35956433415412903
visibility: 0.9022862911224365
","x: 297.62677001953125
y: 320.1419677734375
z: -0.6194947361946106
visibility: 0.7098190188407898
","x: 173.2526092529297
y: 315.7259521484375
z: -0.31895196437835693
visibility: 0.873256504535675
","x: 275.20452880859375
y: 383.817138671875
z: 0.016245074570178986
visibility: 0.9994567632675171
","x: 250.67478942871094
y: 381.5155334472656
z: -0.01645810715854168
visibility: 0.9994574785232544
","x: 279.50860595703125
y: 472.45660400390625
z: -0.018606752157211304
visibility: 0.9682628512382507
","x: 256.04730224609375
y: 471.646728515625
z: -0.04073258489370346
visibility: 0.9861379861831665
","x: 273.83038330078125
y: 548.844482421875
z: 0.17064328491687775
visibility: 0.9667217135429382
","x: 248.65719604492188
y: 533.3001708984375
z: 0.1634410172700882
visibility: 0.9852126240730286
","x: 270.2387390136719
y: 558.2385864257812
z: 0.18353119492530823
visibility: 0.8632994890213013
","x: 248.90762329101562
y: 542.3780517578125
z: 0.17894765734672546
visibility: 0.8445611596107483
","x: 274.0719299316406
y: 574.4996337890625
z: 0.060577332973480225
visibility: 0.9574536681175232
","x: 251.80284118652344
y: 568.89892578125
z: 0.06322197616100311
visibility: 0.9761016368865967
","x: 301.8963317871094
y: 320.7268981933594
z: 0.0
","x: 296.48748779296875
y: 321.62762451171875
z: 0.0007750155054964125
","x: 291.9839172363281
y: 324.020751953125
z: -0.0007986639975570142
","x: 289.2771911621094
y: 325.83380126953125
z: -0.003130249911919236
","x: 287.7207946777344
y: 327.3424072265625
z: -0.004884660709649324
","x: 292.52020263671875
y: 337.60614013671875
z: -0.001511934562586248
","x: 289.83331298828125
y: 331.5754699707031
z: -0.0037647702265530825
","x: 290.6760559082031
y: 327.3118591308594
z: -0.004602953791618347
","x: 291.537109375
y: 326.20159912109375
z: -0.005088240373879671
","x: 295.426025390625
y: 337.92730712890625
z: -0.004143048543483019
","x: 293.2281494140625
y: 328.9660339355469
z: -0.006085623055696487
","x: 293.4161071777344
y: 324.9515075683594
z: -0.005087712313979864
","x: 293.92730712890625
y: 323.416748046875
z: -0.0046952771954238415
","x: 298.4074401855469
y: 336.0616760253906
z: -0.006753884255886078
","x: 296.249755859375
y: 327.121337890625
z: -0.008111526258289814
","x: 296.0392761230469
y: 323.4884033203125
z: -0.005978829693049192
","x: 296.1864929199219
y: 322.05072021484375
z: -0.004813218954950571
","x: 301.1595153808594
y: 333.09442138671875
z: -0.009596418589353561
","x: 299.3318786621094
y: 326.57452392578125
z: -0.010240956209599972
","x: 298.6783142089844
y: 323.57696533203125
z: -0.00865465309470892
","x: 298.4302978515625
y: 322.3411865234375
z: -0.007525746710598469
",,,,,,,,,,,,,,,,,,,,,
25,"x: 278.9827880859375
y: 241.3186798095703
z: -0.4163517951965332
visibility: 0.99995356798172
","x: 282.73309326171875
y: 233.9511260986328
z: -0.40029463171958923
visibility: 0.9998885989189148
","x: 284.32855224609375
y: 234.38323974609375
z: -0.40031322836875916
visibility: 0.9998615980148315
","x: 285.9983825683594
y: 234.56265258789062
z: -0.4004000127315521
visibility: 0.9998668432235718
","x: 277.28997802734375
y: 232.24972534179688
z: -0.4027026295661926
visibility: 0.9999232888221741
","x: 275.47503662109375
y: 231.54122924804688
z: -0.4027501046657562
visibility: 0.9999209642410278
","x: 274.0419006347656
y: 230.8963623046875
z: -0.40272456407546997
visibility: 0.9999349117279053
","x: 287.0538024902344
y: 236.47708129882812
z: -0.28217804431915283
visibility: 0.9996642470359802
","x: 270.734130859375
y: 232.74049377441406
z: -0.2937806248664856
visibility: 0.9999233484268188
","x: 280.22784423828125
y: 250.68124389648438
z: -0.3711053729057312
visibility: 0.9998999238014221
","x: 274.44537353515625
y: 248.66964721679688
z: -0.3741787075996399
visibility: 0.9999640583992004
","x: 291.9326477050781
y: 273.7029113769531
z: -0.23055222630500793
visibility: 0.9996861219406128
","x: 249.8573455810547
y: 273.23016357421875
z: -0.17912429571151733
visibility: 0.9999294281005859
","x: 317.0490417480469
y: 309.2996520996094
z: -0.3705236315727234
visibility: 0.901756763458252
","x: 219.34263610839844
y: 296.14794921875
z: -0.1465507298707962
visibility: 0.9889588356018066
","x: 292.6950988769531
y: 293.42919921875
z: -0.5836516618728638
visibility: 0.8243191838264465
","x: 185.29266357421875
y: 298.0348815917969
z: -0.20617517828941345
visibility: 0.9499200582504272
","x: 285.8951721191406
y: 291.9299011230469
z: -0.6272432804107666
visibility: 0.7617514729499817
","x: 176.2130126953125
y: 297.0418701171875
z: -0.22112445533275604
visibility: 0.910827100276947
","x: 283.756591796875
y: 287.58245849609375
z: -0.6160295605659485
visibility: 0.7587974667549133
","x: 175.5279998779297
y: 294.4723815917969
z: -0.2527430057525635
visibility: 0.9095667004585266
","x: 285.0362243652344
y: 288.09552001953125
z: -0.5832948684692383
visibility: 0.7351251244544983
","x: 177.5589141845703
y: 295.3179626464844
z: -0.22152748703956604
visibility: 0.8831532597541809
","x: 275.7162170410156
y: 390.3686218261719
z: 0.0015283492393791676
visibility: 0.9994943141937256
","x: 250.59840393066406
y: 387.44500732421875
z: -0.0017523199785500765
visibility: 0.9994516372680664
","x: 277.2377624511719
y: 477.9263916015625
z: -0.034772228449583054
visibility: 0.9705536961555481
","x: 254.8821563720703
y: 476.53802490234375
z: -0.0009101972100324929
visibility: 0.9858860373497009
","x: 274.2643127441406
y: 550.27978515625
z: 0.14277134835720062
visibility: 0.9677269458770752
","x: 253.02239990234375
y: 536.681640625
z: 0.25152358412742615
visibility: 0.9779285788536072
","x: 271.81976318359375
y: 559.7664184570312
z: 0.15555351972579956
visibility: 0.8574172258377075
","x: 254.15682983398438
y: 543.269287109375
z: 0.2729853093624115
visibility: 0.8112860321998596
","x: 274.0534973144531
y: 576.0892944335938
z: 0.04319063946604729
visibility: 0.9578406810760498
","x: 251.82106018066406
y: 568.1775512695312
z: 0.18603408336639404
visibility: 0.967089831829071
","x: 290.4740905761719
y: 291.0028381347656
z: 0.0
","x: 285.9432067871094
y: 293.2101135253906
z: 0.0007833353010937572
","x: 281.8354187011719
y: 292.582275390625
z: -0.000289565185084939
","x: 279.3855895996094
y: 290.28155517578125
z: -0.00234679551795125
","x: 278.03192138671875
y: 287.5357666015625
z: -0.004164515528827906
","x: 279.4220886230469
y: 285.058349609375
z: 0.000916372227948159
","x: 275.321533203125
y: 284.37664794921875
z: -0.0016026055673137307
","x: 272.56005859375
y: 283.7819519042969
z: -0.0035033284220844507
","x: 270.34478759765625
y: 283.19879150390625
z: -0.004761775955557823
","x: 280.6538391113281
y: 282.06005859375
z: -0.001668717828579247
","x: 278.260009765625
y: 284.1968688964844
z: -0.0047464570961892605
","x: 280.188720703125
y: 287.06097412109375
z: -0.004876842722296715
","x: 282.39239501953125
y: 288.8116149902344
z: -0.00415367865934968
","x: 282.4389343261719
y: 279.87774658203125
z: -0.004607714246958494
","x: 280.4471130371094
y: 282.68548583984375
z: -0.007132102269679308
","x: 282.1966552734375
y: 285.7065734863281
z: -0.00571652315557003
","x: 283.9620056152344
y: 287.39892578125
z: -0.0041877226904034615
","x: 284.6411437988281
y: 278.55767822265625
z: -0.007882718928158283
","x: 282.70355224609375
y: 280.8609924316406
z: -0.009023484773933887
","x: 283.67083740234375
y: 283.79229736328125
z: -0.0077082449570298195
","x: 285.0364990234375
y: 285.55169677734375
z: -0.006381985731422901
","x: 185.44863891601562
y: 298.6706848144531
z: 0.0
","x: 181.66558837890625
y: 301.2295837402344
z: 0.0010324644390493631
","x: 178.08984375
y: 300.9405822753906
z: 0.0011871822644025087
","x: 175.74911499023438
y: 299.18853759765625
z: 0.0005566059262491763
","x: 174.5194549560547
y: 296.85247802734375
z: 0.0004926552064716816
","x: 175.6029510498047
y: 292.33013916015625
z: 0.003197708399966359
","x: 171.38043212890625
y: 291.0550231933594
z: 0.002148021012544632
","x: 171.2091522216797
y: 294.3511657714844
z: 0.0020777301397174597
","x: 172.43899536132812
y: 296.72576904296875
z: 0.002472512423992157
","x: 176.02816772460938
y: 290.5890808105469
z: 0.0015895594842731953
","x: 171.79627990722656
y: 289.780029296875
z: 0.0006764759309589863
","x: 171.6306915283203
y: 292.84375
z: 0.000809479330200702
","x: 172.80386352539062
y: 294.8431091308594
z: 0.0013528948184102774
","x: 176.76565551757812
y: 289.35107421875
z: -0.00040844627073965967
","x: 173.0098114013672
y: 289.12420654296875
z: -0.0009201476932503283
","x: 172.54701232910156
y: 291.9256591796875
z: -0.0001970029843505472
","x: 173.17239379882812
y: 293.9275817871094
z: 0.0005661410395987332
","x: 177.81170654296875
y: 288.5615234375
z: -0.0026588281616568565
","x: 174.78944396972656
y: 288.53082275390625
z: -0.0027533138636499643
","x: 173.66107177734375
y: 290.4295654296875
z: -0.0021796831861138344
","x: 173.5781707763672
y: 292.0965881347656
z: -0.001480778562836349
"
26,"x: 278.9827880859375
y: 241.3186798095703
z: -0.4163517951965332
visibility: 0.99995356798172
","x: 282.73309326171875
y: 233.9511260986328
z: -0.40029463171958923
visibility: 0.9998885989189148
","x: 284.32855224609375
y: 234.38323974609375
z: -0.40031322836875916
visibility: 0.9998615980148315
","x: 285.9983825683594
y: 234.56265258789062
z: -0.4004000127315521
visibility: 0.9998668432235718
","x: 277.28997802734375
y: 232.24972534179688
z: -0.4027026295661926
visibility: 0.9999232888221741
","x: 275.47503662109375
y: 231.54122924804688
z: -0.4027501046657562
visibility: 0.9999209642410278
","x: 274.0419006347656
y: 230.8963623046875
z: -0.40272456407546997
visibility: 0.9999349117279053
","x: 287.0538024902344
y: 236.47708129882812
z: -0.28217804431915283
visibility: 0.9996642470359802
","x: 270.734130859375
y: 232.74049377441406
z: -0.2937806248664856
visibility: 0.9999233484268188
","x: 280.22784423828125
y: 250.68124389648438
z: -0.3711053729057312
visibility: 0.9998999238014221
","x: 274.44537353515625
y: 248.66964721679688
z: -0.3741787075996399
visibility: 0.9999640583992004
","x: 291.9326477050781
y: 273.7029113769531
z: -0.23055222630500793
visibility: 0.9996861219406128
","x: 249.8573455810547
y: 273.23016357421875
z: -0.17912429571151733
visibility: 0.9999294281005859
","x: 317.0490417480469
y: 309.2996520996094
z: -0.3705236315727234
visibility: 0.901756763458252
","x: 219.34263610839844
y: 296.14794921875
z: -0.1465507298707962
visibility: 0.9889588356018066
","x: 292.6950988769531
y: 293.42919921875
z: -0.5836516618728638
visibility: 0.8243191838264465
","x: 185.29266357421875
y: 298.0348815917969
z: -0.20617517828941345
visibility: 0.9499200582504272
","x: 285.8951721191406
y: 291.9299011230469
z: -0.6272432804107666
visibility: 0.7617514729499817
","x: 176.2130126953125
y: 297.0418701171875
z: -0.22112445533275604
visibility: 0.910827100276947
","x: 283.756591796875
y: 287.58245849609375
z: -0.6160295605659485
visibility: 0.7587974667549133
","x: 175.5279998779297
y: 294.4723815917969
z: -0.2527430057525635
visibility: 0.9095667004585266
","x: 285.0362243652344
y: 288.09552001953125
z: -0.5832948684692383
visibility: 0.7351251244544983
","x: 177.5589141845703
y: 295.3179626464844
z: -0.22152748703956604
visibility: 0.8831532597541809
","x: 275.7162170410156
y: 390.3686218261719
z: 0.0015283492393791676
visibility: 0.9994943141937256
","x: 250.59840393066406
y: 387.44500732421875
z: -0.0017523199785500765
visibility: 0.9994516372680664
","x: 277.2377624511719
y: 477.9263916015625
z: -0.034772228449583054
visibility: 0.9705536961555481
","x: 254.8821563720703
y: 476.53802490234375
z: -0.0009101972100324929
visibility: 0.9858860373497009
","x: 274.2643127441406
y: 550.27978515625
z: 0.14277134835720062
visibility: 0.9677269458770752
","x: 253.02239990234375
y: 536.681640625
z: 0.25152358412742615
visibility: 0.9779285788536072
","x: 271.81976318359375
y: 559.7664184570312
z: 0.15555351972579956
visibility: 0.8574172258377075
","x: 254.15682983398438
y: 543.269287109375
z: 0.2729853093624115
visibility: 0.8112860321998596
","x: 274.0534973144531
y: 576.0892944335938
z: 0.04319063946604729
visibility: 0.9578406810760498
","x: 251.82106018066406
y: 568.1775512695312
z: 0.18603408336639404
visibility: 0.967089831829071
","x: 290.4740905761719
y: 291.0028381347656
z: 0.0
","x: 285.9432067871094
y: 293.2101135253906
z: 0.0007833353010937572
","x: 281.8354187011719
y: 292.582275390625
z: -0.000289565185084939
","x: 279.3855895996094
y: 290.28155517578125
z: -0.00234679551795125
","x: 278.03192138671875
y: 287.5357666015625
z: -0.004164515528827906
","x: 279.4220886230469
y: 285.058349609375
z: 0.000916372227948159
