uscmakers/ReverseChoreography/data/8_levitating_dua_lipa.csv
,NOSE,LEFT_EYE_INNER,LEFT_EYE,LEFT_EYE_OUTER,RIGHT_EYE_INNER,RIGHT_EYE,RIGHT_EYE_OUTER,LEFT_EAR,RIGHT_EAR,MOUTH_LEFT,MOUTH_RIGHT,LEFT_SHOULDER,RIGHT_SHOULDER,LEFT_ELBOW,RIGHT_ELBOW,LEFT_WRIST,RIGHT_WRIST,LEFT_PINKY,RIGHT_PINKY,LEFT_INDEX,RIGHT_INDEX,LEFT_THUMB,RIGHT_THUMB,LEFT_HIP,RIGHT_HIP,LEFT_KNEE,RIGHT_KNEE,LEFT_ANKLE,RIGHT_ANKLE,LEFT_HEEL,RIGHT_HEEL,LEFT_FOOT_INDEX,RIGHT_FOOT_INDEX,WRIST,THUMB_CPC,THUMB_MCP,THUMB_IP,THUMB_TIP,INDEX_FINGER_MCP,INDEX_FINGER_PIP,INDEX_FINGER_DIP,INDEX_FINGER_TIP,MIDDLE_FINGER_MCP,MIDDLE_FINGER_PIP,MIDDLE_FINGER_DIP,MIDDLE_FINGER_TIP,RING_FINGER_PIP,RING_FINGER_DIP,RING_FINGER_TIP,RING_FINGER_MCP,PINKY_MCP,PINKY_PIP,PINKY_DIP,PINKY_TIP,WRIST2,THUMB_CPC2,THUMB_MCP2,THUMB_IP2,THUMB_TIP2,INDEX_FINGER_MCP2,INDEX_FINGER_PIP2,INDEX_FINGER_DIP2,INDEX_FINGER_TIP2,MIDDLE_FINGER_MCP2,MIDDLE_FINGER_PIP2,MIDDLE_FINGER_DIP2,MIDDLE_FINGER_TIP2,RING_FINGER_PIP2,RING_FINGER_DIP2,RING_FINGER_TIP2,RING_FINGER_MCP2,PINKY_MCP2,PINKY_PIP2,PINKY_DIP2,PINKY_TIP2
0,"x: 251.26702880859375
y: 220.6483154296875
z: -0.2256655991077423
visibility: 0.9998502731323242
","x: 252.49972534179688
y: 213.72711181640625
z: -0.2013320028781891
visibility: 0.9996480941772461
","x: 253.5970458984375
y: 214.0006866455078
z: -0.20138421654701233
visibility: 0.9994969367980957
","x: 254.47036743164062
y: 214.3116912841797
z: -0.20136697590351105
visibility: 0.9994027614593506
","x: 249.14144897460938
y: 213.0057373046875
z: -0.213047593832016
visibility: 0.9997636675834656
","x: 247.46592712402344
y: 212.7397003173828
z: -0.2130255401134491
visibility: 0.9997305274009705
","x: 245.747314453125
y: 212.576416015625
z: -0.21303315460681915
visibility: 0.9997695088386536
","x: 254.0939483642578
y: 218.20553588867188
z: -0.06561311334371567
visibility: 0.9972796440124512
","x: 241.2652587890625
y: 216.49794006347656
z: -0.11753688752651215
visibility: 0.9995898604393005
","x: 252.22019958496094
y: 228.94142150878906
z: -0.1741476207971573
visibility: 0.9989504814147949
","x: 247.7446746826172
y: 228.33749389648438
z: -0.18883825838565826
visibility: 0.999576985836029
","x: 258.91070556640625
y: 259.199462890625
z: 0.05290137976408005
visibility: 0.99812251329422
","x: 230.79428100585938
y: 256.7491760253906
z: -0.09132570773363113
visibility: 0.9997639060020447
","x: 260.37200927734375
y: 303.5476379394531
z: 0.05461295321583748
visibility: 0.4126927852630615
","x: 226.31826782226562
y: 309.7032470703125
z: -0.08229568600654602
visibility: 0.9855751991271973
","x: 264.1988220214844
y: 321.8110656738281
z: -0.1362338811159134
visibility: 0.662779688835144
","x: 237.710693359375
y: 358.1254577636719
z: -0.14687946438789368
visibility: 0.9548359513282776
","x: 265.22503662109375
y: 328.18487548828125
z: -0.17597222328186035
visibility: 0.6406498551368713
","x: 239.1528778076172
y: 372.36669921875
z: -0.17374978959560394
visibility: 0.9139096140861511
","x: 263.834228515625
y: 328.123291015625
z: -0.19799506664276123
visibility: 0.6653827428817749
","x: 242.32521057128906
y: 370.94049072265625
z: -0.1935659497976303
visibility: 0.914561927318573
","x: 262.76617431640625
y: 326.2607116699219
z: -0.1517467498779297
visibility: 0.6019176840782166
","x: 242.19412231445312
y: 365.8967590332031
z: -0.1533421277999878
visibility: 0.8885868191719055
","x: 249.7423858642578
y: 362.7905578613281
z: 0.053246669471263885
visibility: 0.9954979419708252
","x: 233.03553771972656
y: 359.5166015625
z: -0.05329536274075508
visibility: 0.9973260164260864
","x: 244.7978515625
y: 436.2622375488281
z: 0.061352718621492386
visibility: 0.5914345383644104
","x: 239.8695068359375
y: 439.25469970703125
z: -0.04968954995274544
visibility: 0.9011161923408508
","x: 236.0419464111328
y: 509.13763427734375
z: 0.14718930423259735
visibility: 0.7750769257545471
","x: 234.33554077148438
y: 516.5037231445312
z: 0.04863855987787247
visibility: 0.9091072678565979
","x: 232.54437255859375
y: 518.62255859375
z: 0.14973527193069458
visibility: 0.7436600923538208
","x: 232.12454223632812
y: 526.61083984375
z: 0.05258207768201828
visibility: 0.7351934909820557
","x: 245.1094207763672
y: 525.6261596679688
z: 0.06499580293893814
visibility: 0.8300982713699341
","x: 242.94786071777344
y: 532.4613037109375
z: -0.053439151495695114
visibility: 0.9007675051689148
",,,,,,,,,,,,,,,,,,,,,,,,,,,,,,,,,,,,,,,,,,
1,"x: 231.76165771484375
y: 218.31179809570312
z: -0.25318798422813416
visibility: 0.9998645186424255
","x: 233.8827667236328
y: 212.14491271972656
z: -0.2355915606021881
visibility: 0.9996813535690308
","x: 235.20057678222656
y: 212.41326904296875
z: -0.235642671585083
visibility: 0.9995453357696533
","x: 236.20013427734375
y: 212.66705322265625
z: -0.2356596738100052
visibility: 0.9994605183601379
","x: 229.38723754882812
y: 211.47244262695312
z: -0.2365647256374359
visibility: 0.9997850060462952
","x: 227.70217895507812
y: 211.3582763671875
z: -0.23652124404907227
visibility: 0.9997544288635254
","x: 226.04568481445312
y: 211.32089233398438
z: -0.23649337887763977
visibility: 0.9997889995574951
","x: 237.26976013183594
y: 216.31005859375
z: -0.12833906710147858
visibility: 0.9975482821464539
","x: 223.66282653808594
y: 214.83445739746094
z: -0.13175919651985168
visibility: 0.9996237754821777
","x: 233.91873168945312
y: 226.45498657226562
z: -0.21301940083503723
visibility: 0.999054491519928
","x: 228.56381225585938
y: 225.42169189453125
z: -0.21406611800193787
visibility: 0.9996179342269897
","x: 246.2697296142578
y: 256.4722900390625
z: -0.07096429914236069
visibility: 0.9983092546463013
","x: 211.55128479003906
y: 256.7505187988281
z: -0.04731227084994316
visibility: 0.9997813105583191
","x: 255.7105712890625
y: 303.5372314453125
z: -0.10874056816101074
visibility: 0.4708850085735321
","x: 202.8796844482422
y: 309.6885070800781
z: 0.012134772725403309
visibility: 0.9840258955955505
","x: 244.11996459960938
y: 321.4820861816406
z: -0.2926596701145172
visibility: 0.6959724426269531
","x: 194.10250854492188
y: 358.0906677246094
z: -0.07016274333000183
visibility: 0.9559923410415649
","x: 238.3920135498047
y: 328.2548828125
z: -0.33485254645347595
visibility: 0.6751787662506104
","x: 190.58071899414062
y: 372.748779296875
z: -0.09310058504343033
visibility: 0.9164337515830994
","x: 236.61903381347656
y: 325.7269592285156
z: -0.3481158912181854
visibility: 0.6974717378616333
","x: 191.80174255371094
y: 372.6009521484375
z: -0.1257130205631256
visibility: 0.9174540638923645
","x: 237.5660400390625
y: 323.34564208984375
z: -0.300725519657135
visibility: 0.6394044756889343
","x: 193.2685089111328
y: 368.1515808105469
z: -0.08463630080223083
visibility: 0.8929768204689026
","x: 239.22787475585938
y: 358.93182373046875
z: 0.001926317811012268
visibility: 0.9958838224411011
","x: 217.84129333496094
y: 358.6156921386719
z: -0.002008762676268816
visibility: 0.9975350499153137
","x: 242.88404846191406
y: 437.5165100097656
z: 0.0053374576382339
visibility: 0.6316614151000977
","x: 221.31289672851562
y: 439.49346923828125
z: -0.0022964843083173037
visibility: 0.9101110696792603
","x: 241.8678436279297
y: 509.29571533203125
z: 0.10284636169672012
visibility: 0.7968371510505676
","x: 222.12405395507812
y: 515.200439453125
z: 0.10588939487934113
visibility: 0.9169782400131226
","x: 239.38450622558594
y: 518.6228637695312
z: 0.10535548627376556
visibility: 0.7574594020843506
","x: 224.655029296875
y: 526.0505981445312
z: 0.10879132896661758
visibility: 0.7429223656654358
","x: 246.53257751464844
y: 530.9908447265625
z: -0.01581672579050064
visibility: 0.8457785844802856
","x: 222.6332244873047
y: 533.2334594726562
z: -0.007108790334314108
visibility: 0.9086645245552063
",,,,,,,,,,,,,,,,,,,,,,,,,,,,,,,,,,,,,,,,,,
2,"x: 226.57855224609375
y: 217.5911865234375
z: -0.29448050260543823
visibility: 0.9998777508735657
","x: 228.8990020751953
y: 211.35292053222656
z: -0.2774028480052948
visibility: 0.9997122883796692
","x: 230.162109375
y: 211.61317443847656
z: -0.2774368226528168
visibility: 0.9995898008346558
","x: 231.59405517578125
y: 211.85426330566406
z: -0.2774505615234375
visibility: 0.9995133876800537
","x: 224.7103729248047
y: 210.7107391357422
z: -0.277395099401474
visibility: 0.9998055100440979
","x: 223.05775451660156
y: 210.56654357910156
z: -0.2773873507976532
visibility: 0.9997778534889221
","x: 221.09742736816406
y: 210.42724609375
z: -0.27735838294029236
visibility: 0.9998087882995605
","x: 233.17098999023438
y: 215.7105712890625
z: -0.1678466945886612
visibility: 0.9977915287017822
","x: 218.16064453125
y: 213.75439453125
z: -0.16849078238010406
visibility: 0.9996586441993713
","x: 228.25787353515625
y: 225.61160278320312
z: -0.2529197931289673
visibility: 0.9991485476493835
","x: 223.44024658203125
y: 224.47726440429688
z: -0.25318244099617004
visibility: 0.9996554851531982
","x: 242.2623291015625
y: 254.90476989746094
z: -0.10669735819101334
visibility: 0.9984776377677917
","x: 206.95957946777344
y: 257.7481384277344
z: -0.06001969426870346
visibility: 0.9997981786727905
","x: 253.51370239257812
y: 303.5372619628906
z: -0.11436215788125992
visibility: 0.5233688354492188
","x: 198.04974365234375
y: 311.5549011230469
z: 0.0021247912663966417
visibility: 0.9817478060722351
","x: 236.65707397460938
y: 325.547119140625
z: -0.26315271854400635
visibility: 0.7254906892776489
","x: 190.5780029296875
y: 358.2199401855469
z: -0.0885440781712532
visibility: 0.956285834312439
","x: 231.9029998779297
y: 333.4710998535156
z: -0.30217212438583374
visibility: 0.7052703499794006
","x: 186.78382873535156
y: 373.7213439941406
z: -0.11250583827495575
visibility: 0.9175012111663818
","x: 229.83737182617188
y: 329.28082275390625
z: -0.3165740668773651
visibility: 0.7253898978233337
","x: 188.37367248535156
y: 374.3101501464844
z: -0.14568468928337097
visibility: 0.9189459085464478
","x: 230.57473754882812
y: 326.6287536621094
z: -0.2706024944782257
visibility: 0.6717132925987244
","x: 189.92686462402344
y: 369.9350280761719
z: -0.10301059484481812
visibility: 0.8957206606864929
","x: 237.0476531982422
y: 358.864990234375
z: -0.01239668857306242
visibility: 0.9962608814239502
","x: 215.8397216796875
y: 358.4486083984375
z: 0.01229076273739338
visibility: 0.9977256059646606
","x: 239.32273864746094
y: 440.5802917480469
z: -0.02044338546693325
visibility: 0.6677199602127075
","x: 218.95211791992188
y: 440.01654052734375
z: 0.022562474012374878
visibility: 0.9165195226669312
","x: 240.7290496826172
y: 521.1409912109375
z: 0.06227021664381027
visibility: 0.8165590763092041
","x: 220.0052032470703
y: 515.21630859375
z: 0.14492645859718323
visibility: 0.9234002828598022
","x: 238.82980346679688
y: 531.4722900390625
z: 0.06210058182477951
visibility: 0.7689866423606873
","x: 222.7588653564453
y: 526.03662109375
z: 0.14907443523406982
visibility: 0.750864565372467
","x: 242.6973114013672
y: 539.6884765625
z: -0.0660175234079361
visibility: 0.8600609302520752
","x: 218.58718872070312
y: 533.5435180664062
z: 0.036937229335308075
visibility: 0.9155062437057495
",,,,,,,,,,,,,,,,,,,,,,,,,,,,,,,,,,,,,,,,,,
3,"x: 225.6092071533203
y: 217.45835876464844
z: -0.2957209050655365
visibility: 0.9998894929885864
","x: 228.05618286132812
y: 211.34405517578125
z: -0.2792048156261444
visibility: 0.9997397661209106
","x: 229.5574188232422
y: 211.6064453125
z: -0.27923768758773804
visibility: 0.999629557132721
","x: 230.91830444335938
y: 211.8429412841797
z: -0.27924472093582153
visibility: 0.9995607137680054
","x: 223.4876708984375
y: 210.6734619140625
z: -0.2794400453567505
visibility: 0.9998235106468201
","x: 221.80096435546875
y: 210.50733947753906
z: -0.27943283319473267
visibility: 0.9997984170913696
","x: 220.49574279785156
y: 210.36557006835938
z: -0.27942025661468506
visibility: 0.9998260736465454
","x: 232.4362335205078
y: 215.49349975585938
z: -0.16878843307495117
visibility: 0.9980098009109497
","x: 217.6670379638672
y: 213.74464416503906
z: -0.17050176858901978
visibility: 0.9996892213821411
","x: 227.76846313476562
y: 225.42051696777344
z: -0.2533811926841736
visibility: 0.9992331266403198
","x: 222.38304138183594
y: 224.27162170410156
z: -0.253966361284256
visibility: 0.9996891617774963
","x: 241.48243713378906
y: 254.34335327148438
z: -0.10234306007623672
visibility: 0.9986292719841003
","x: 206.18870544433594
y: 258.26544189453125
z: -0.060228683054447174
visibility: 0.9998133778572083
","x: 253.05894470214844
y: 303.504638671875
z: -0.11140765994787216
visibility: 0.5704848766326904
","x: 199.8680419921875
y: 313.29827880859375
z: 0.010475730523467064
visibility: 0.979264497756958
","x: 237.6467742919922
y: 328.2337951660156
z: -0.27332887053489685
visibility: 0.7520190477371216
","x: 194.96351623535156
y: 361.88946533203125
z: -0.08184671401977539
visibility: 0.9558612108230591
","x: 233.87646484375
y: 336.8109130859375
z: -0.3141283392906189
visibility: 0.7324848771095276
","x: 192.85775756835938
y: 377.5900573730469
z: -0.10622332245111465
visibility: 0.9175065755844116
","x: 231.2598876953125
y: 332.77716064453125
z: -0.3306097686290741
visibility: 0.7506652474403381
","x: 194.40231323242188
y: 378.68426513671875
z: -0.14047685265541077
visibility: 0.9193704128265381
","x: 232.20167541503906
y: 329.6473388671875
z: -0.2818305790424347
visibility: 0.7009681463241577
","x: 195.60061645507812
y: 374.4630432128906
z: -0.09657629579305649
visibility: 0.8968732953071594
","x: 237.02906799316406
y: 358.83160400390625
z: -0.010470663197338581
visibility: 0.9966024160385132
","x: 215.9685821533203
y: 358.12396240234375
z: 0.010374661535024643
visibility: 0.9978998303413391
","x: 238.10426330566406
y: 442.5537414550781
z: -0.017169568687677383
visibility: 0.6997563242912292
","x: 219.53994750976562
y: 440.7674865722656
z: 0.013954530470073223
visibility: 0.9219598174095154
","x: 240.09947204589844
y: 524.283935546875
z: 0.0717773586511612
visibility: 0.8340445160865784
","x: 219.9777374267578
y: 515.3861083984375
z: 0.13727831840515137
visibility: 0.9284712076187134
","x: 238.22476196289062
y: 534.2337646484375
z: 0.0722353607416153
visibility: 0.7752910256385803
","x: 222.01187133789062
y: 525.9931640625
z: 0.14159230887889862
visibility: 0.7514750361442566
","x: 241.24237060546875
y: 543.833984375
z: -0.0587298683822155
visibility: 0.872492790222168
","x: 220.12747192382812
y: 534.0564575195312
z: 0.026034723967313766
visibility: 0.9210694432258606
",,,,,,,,,,,,,,,,,,,,,,,,,,,,,,,,,,,,,,,,,,
4,"x: 226.64173889160156
y: 217.33763122558594
z: -0.2754988372325897
visibility: 0.9999000430107117
","x: 228.7943115234375
y: 210.95945739746094
z: -0.2572689652442932
visibility: 0.999764621257782
","x: 230.0457000732422
y: 211.1313018798828
z: -0.25730574131011963
visibility: 0.999665379524231
","x: 231.05735778808594
y: 211.3258514404297
z: -0.25731533765792847
visibility: 0.9996034502983093
","x: 224.40101623535156
y: 210.5689239501953
z: -0.26035767793655396
visibility: 0.9998397827148438
","x: 222.6013641357422
y: 210.4918670654297
z: -0.26033836603164673
visibility: 0.9998168349266052
","x: 221.1414337158203
y: 210.39605712890625
z: -0.26033225655555725
visibility: 0.9998415112495422
","x: 232.49024963378906
y: 214.9156951904297
z: -0.14104633033275604
visibility: 0.9982060194015503
","x: 218.27774047851562
y: 213.79998779296875
z: -0.15499229729175568
visibility: 0.9997172951698303
","x: 228.89889526367188
y: 225.29501342773438
z: -0.23100760579109192
visibility: 0.9993093609809875
","x: 223.507080078125
y: 224.3876495361328
z: -0.23506689071655273
visibility: 0.9997196793556213
","x: 242.37513732910156
y: 253.83822631835938
z: -0.06744865328073502
visibility: 0.9987660050392151
","x: 206.663818359375
y: 258.4864501953125
z: -0.05525187402963638
visibility: 0.9998291730880737
","x: 253.98728942871094
y: 302.3500671386719
z: -0.09685038775205612
visibility: 0.6128476858139038
","x: 202.06988525390625
y: 315.000732421875
z: 0.010686982423067093
visibility: 0.9796215295791626
","x: 242.8809051513672
y: 326.05950927734375
z: -0.30209997296333313
visibility: 0.7763063907623291
","x: 198.28802490234375
y: 366.9909362792969
z: -0.0743982270359993
visibility: 0.9575894474983215
","x: 239.8121337890625
y: 335.8221130371094
z: -0.3496493399143219
visibility: 0.7580055594444275
","x: 196.6357879638672
y: 382.24560546875
z: -0.09871499240398407
visibility: 0.9205524325370789
","x: 237.5644989013672
y: 330.3625793457031
z: -0.36534687876701355
visibility: 0.7744314670562744
","x: 198.83277893066406
y: 383.6502380371094
z: -0.13255594670772552
visibility: 0.922549307346344
","x: 238.12001037597656
y: 326.7362060546875
z: -0.31160447001457214
visibility: 0.7288394570350647
","x: 200.06431579589844
y: 378.8888854980469
z: -0.0881342738866806
visibility: 0.9009043574333191
","x: 238.89697265625
y: 358.736083984375
z: 0.004005918279290199
visibility: 0.9969221949577332
","x: 217.3963623046875
y: 358.2037048339844
z: -0.0040818010456860065
visibility: 0.9980774521827698
","x: 238.3835906982422
y: 443.5142517089844
z: -0.029153332114219666
visibility: 0.7284490466117859
","x: 220.298583984375
y: 442.8384094238281
z: -0.0004909118870273232
visibility: 0.9277087450027466
","x: 240.78477478027344
y: 522.7771606445312
z: 0.08516539633274078
visibility: 0.8490170240402222
","x: 219.75787353515625
y: 515.5941162109375
z: 0.1401093453168869
visibility: 0.9307038187980652
","x: 238.50588989257812
y: 532.9884033203125
z: 0.08889197558164597
visibility: 0.7823452949523926
","x: 220.69692993164062
y: 526.2548217773438
z: 0.14934289455413818
visibility: 0.7381706237792969
","x: 245.7642822265625
y: 543.4549560546875
z: -0.034640680998563766
visibility: 0.8825013041496277
","x: 221.27784729003906
y: 534.23486328125
z: 0.03688279539346695
visibility: 0.9227641224861145
",,,,,,,,,,,,,,,,,,,,,,,,,,,,,,,,,,,,,,,,,,
5,"x: 230.71270751953125
y: 216.76866149902344
z: -0.2374171018600464
visibility: 0.9999098181724548
","x: 232.58216857910156
y: 210.61099243164062
z: -0.2178453952074051
visibility: 0.9997876882553101
","x: 233.9278564453125
y: 210.90548706054688
z: -0.21788446605205536
visibility: 0.999698281288147
","x: 235.1151580810547
y: 211.18675231933594
z: -0.2178773134946823
visibility: 0.999642550945282
","x: 228.47451782226562
y: 209.7225341796875
z: -0.22253350913524628
visibility: 0.9998552799224854
","x: 226.8507843017578
y: 209.5257568359375
z: -0.22250135242938995
visibility: 0.9998344779014587
","x: 225.18069458007812
y: 209.3095703125
z: -0.2224794179201126
visibility: 0.9998565912246704
","x: 236.19906616210938
y: 214.87921142578125
z: -0.09877338260412216
visibility: 0.998383641242981
","x: 221.5607452392578
y: 213.07794189453125
z: -0.11946262419223785
visibility: 0.9997445940971375
","x: 232.3705291748047
y: 224.7694091796875
z: -0.1929154098033905
visibility: 0.9993782043457031
","x: 227.3275909423828
y: 223.74139404296875
z: -0.19883696734905243
visibility: 0.9997475147247314
","x: 244.9363555908203
y: 253.37698364257812
z: -0.03632468730211258
visibility: 0.9988890290260315
","x: 209.60342407226562
y: 258.48870849609375
z: -0.038375090807676315
visibility: 0.9998449087142944
","x: 255.73779296875
y: 299.1785888671875
z: -0.07333816587924957
visibility: 0.6506089568138123
","x: 204.56121826171875
y: 314.7518310546875
z: 0.006177541799843311
visibility: 0.980868935585022
","x: 251.1988983154297
y: 314.39288330078125
z: -0.31473836302757263
visibility: 0.7979766130447388
","x: 201.9969482421875
y: 365.83929443359375
z: -0.07701412588357925
visibility: 0.9603421688079834
","x: 248.38436889648438
y: 321.7769775390625
z: -0.367116779088974
visibility: 0.7806255221366882
","x: 200.4401397705078
y: 381.3815612792969
z: -0.10190769284963608
visibility: 0.9251245856285095
","x: 244.7372589111328
y: 316.7947692871094
z: -0.38188913464546204
visibility: 0.7955549955368042
","x: 202.23211669921875
y: 382.4519348144531
z: -0.13513381779193878
visibility: 0.9271204471588135
","x: 245.11524963378906
y: 314.7185974121094
z: -0.32559365034103394
visibility: 0.7535447478294373
","x: 203.28355407714844
y: 377.90081787109375
z: -0.08999767154455185
visibility: 0.9065799713134766
","x: 239.2925567626953
y: 358.6573486328125
z: 0.009861831553280354
visibility: 0.9972164034843445
","x: 219.32272338867188
y: 358.22003173828125
z: -0.009906219318509102
visibility: 0.9982452988624573
","x: 247.5924072265625
y: 443.5096435546875
z: -0.016661666333675385
visibility: 0.7542924880981445
","x: 221.83338928222656
y: 443.06597900390625
z: -0.011516488157212734
visibility: 0.9335970282554626
","x: 252.19387817382812
y: 523.89794921875
z: 0.08147551119327545
visibility: 0.8630577921867371
","x: 219.55795288085938
y: 515.62890625
z: 0.13195154070854187
visibility: 0.934697151184082
","x: 249.33346557617188
y: 536.01123046875
z: 0.08377349376678467
visibility: 0.7938581109046936
","x: 218.94088745117188
y: 526.2935180664062
z: 0.14036928117275238
visibility: 0.7321425080299377
","x: 261.279541015625
y: 543.9903564453125
z: -0.04310192912817001
visibility: 0.8923486471176147
","x: 222.0283966064453
y: 534.7333984375
z: 0.024203937500715256
visibility: 0.9263807535171509
",,,,,,,,,,,,,,,,,,,,,,,,,,,,,,,,,,,,,,,,,,
6,"x: 231.17271423339844
y: 216.77630615234375
z: -0.22978684306144714
visibility: 0.9999184608459473
","x: 233.5692138671875
y: 210.6777801513672
z: -0.20979805290699005
visibility: 0.999808132648468
","x: 235.0896453857422
y: 210.96435546875
z: -0.20985093712806702
visibility: 0.9997274875640869
","x: 236.66921997070312
y: 211.23626708984375
z: -0.20984680950641632
visibility: 0.9996773600578308
","x: 229.27859497070312
y: 209.669189453125
z: -0.21476717293262482
visibility: 0.9998689293861389
","x: 227.40951538085938
y: 209.3608856201172
z: -0.21473756432533264
visibility: 0.9998500347137451
","x: 225.56109619140625
y: 209.04893493652344
z: -0.21472401916980743
visibility: 0.9998699426651001
","x: 238.24656677246094
y: 214.90049743652344
z: -0.09096374362707138
visibility: 0.998542308807373
","x: 222.44491577148438
y: 212.86012268066406
z: -0.11264492571353912
visibility: 0.9997689723968506
","x: 233.73545837402344
y: 224.73574829101562
z: -0.18569369614124298
visibility: 0.9994400143623352
","x: 227.60751342773438
y: 223.58633422851562
z: -0.19183877110481262
visibility: 0.9997724890708923
","x: 247.8618927001953
y: 254.1652069091797
z: -0.02810521051287651
visibility: 0.9989991784095764
","x: 212.03753662109375
y: 259.7366027832031
z: -0.03690420836210251
visibility: 0.9998584389686584
","x: 258.91375732421875
y: 299.5184631347656
z: -0.07132542133331299
visibility: 0.6828897595405579
","x: 206.2898712158203
y: 315.5240478515625
z: -0.000924745574593544
visibility: 0.9818703532218933
","x: 255.47323608398438
y: 314.6976623535156
z: -0.3060080409049988
visibility: 0.8155710101127625
","x: 203.59637451171875
y: 366.1974792480469
z: -0.08507073670625687
visibility: 0.9620762467384338
","x: 253.47714233398438
y: 321.1199645996094
z: -0.3565142750740051
visibility: 0.7975941896438599
","x: 202.03395080566406
y: 381.2029724121094
z: -0.11016173660755157
visibility: 0.9274419546127319
","x: 250.6070098876953
y: 316.4732666015625
z: -0.36936110258102417
visibility: 0.811442494392395
","x: 203.91314697265625
y: 382.2326354980469
z: -0.14213459193706512
visibility: 0.9295594692230225
","x: 250.7563934326172
y: 314.4805603027344
z: -0.3164474666118622
visibility: 0.7711832523345947
","x: 204.91604614257812
y: 377.8582458496094
z: -0.09776698052883148
visibility: 0.9098842740058899
","x: 243.1299285888672
y: 360.999267578125
z: 0.014028859324753284
visibility: 0.9974784851074219
","x: 219.65386962890625
y: 359.5569152832031
z: -0.01408691518008709
visibility: 0.998387336730957
","x: 253.73760986328125
y: 444.93365478515625
z: -0.021278617903590202
visibility: 0.7775081992149353
","x: 222.41294860839844
y: 444.1925048828125
z: -0.014999955892562866
visibility: 0.9384734034538269
","x: 259.9497375488281
y: 527.63134765625
z: 0.08107025921344757
visibility: 0.8756186366081238
","x: 219.31488037109375
y: 515.6389770507812
z: 0.14936883747577667
visibility: 0.9370574951171875
","x: 257.5393981933594
y: 538.0726318359375
z: 0.08369603753089905
visibility: 0.8012829422950745
","x: 218.87452697753906
y: 526.2061157226562
z: 0.15923933684825897
visibility: 0.7216773629188538
","x: 268.3332214355469
y: 545.5220947265625
z: -0.04644713178277016
visibility: 0.9007562398910522
","x: 220.84112548828125
y: 534.9833374023438
z: 0.0414084866642952
visibility: 0.9278659224510193
",,,,,,,,,,,,,,,,,,,,,,,,,,,,,,,,,,,,,,,,,,
7,"x: 244.49667358398438
y: 216.8416748046875
z: -0.18076734244823456
visibility: 0.9999258518218994
","x: 246.55288696289062
y: 210.8155517578125
z: -0.1612057387828827
visibility: 0.9998254179954529
","x: 247.8074493408203
y: 211.1051788330078
z: -0.16126929223537445
visibility: 0.9997523427009583
","x: 249.19955444335938
y: 211.36854553222656
z: -0.16125501692295074
visibility: 0.9997073411941528
","x: 242.4776153564453
y: 209.78607177734375
z: -0.16424790024757385
visibility: 0.9998802542686462
","x: 240.65817260742188
y: 209.44876098632812
z: -0.1642315536737442
visibility: 0.9998629093170166
","x: 238.88909912109375
y: 209.091796875
z: -0.1642289012670517
visibility: 0.9998810291290283
","x: 250.88345336914062
y: 215.29058837890625
z: -0.05291042849421501
visibility: 0.9986786842346191
","x: 235.89971923828125
y: 212.90896606445312
z: -0.06732509285211563
visibility: 0.9997880458831787
","x: 246.5921630859375
y: 224.9669647216797
z: -0.14151042699813843
visibility: 0.9994947910308838
","x: 241.35935974121094
y: 223.8408660888672
z: -0.1454937905073166
visibility: 0.9997943639755249
","x: 259.61627197265625
y: 257.0625
z: -0.009405483491718769
visibility: 0.9990971088409424
","x: 223.10211181640625
y: 260.3426513671875
z: 0.002020708518102765
visibility: 0.9998685121536255
","x: 269.10040283203125
y: 299.6740417480469
z: -0.05905013531446457
visibility: 0.7116387486457825
","x: 214.5287322998047
y: 316.7029113769531
z: 0.03501342609524727
visibility: 0.9822978973388672
","x: 265.96417236328125
y: 319.1162414550781
z: -0.30404603481292725
visibility: 0.831512987613678
","x: 204.0447540283203
y: 367.8124694824219
z: -0.05461892485618591
visibility: 0.9635010957717896
","x: 265.18658447265625
y: 329.5948486328125
z: -0.3299681544303894
visibility: 0.8133565187454224
","x: 204.45767211914062
y: 382.9652099609375
z: -0.08136801421642303
visibility: 0.9298760294914246
","x: 262.69903564453125
y: 327.42529296875
z: -0.3403894305229187
visibility: 0.8261739015579224
","x: 206.98268127441406
y: 384.51409912109375
z: -0.11495610326528549
visibility: 0.9322028160095215
","x: 262.45904541015625
y: 324.227783203125
z: -0.30965957045555115
visibility: 0.787928581237793
","x: 207.4738006591797
y: 379.791748046875
z: -0.06893151253461838
visibility: 0.9136303663253784
","x: 253.31484985351562
y: 365.75189208984375
z: 0.010340014472603798
visibility: 0.9977169036865234
","x: 231.22601318359375
y: 363.229248046875
z: -0.0103886928409338
visibility: 0.9985255002975464
","x: 258.8740234375
y: 447.4283447265625
z: -0.02598627842962742
visibility: 0.79829341173172
","x: 225.98399353027344
y: 445.3590087890625
z: -0.016840919852256775
visibility: 0.9431643486022949
","x: 261.6566162109375
y: 529.5064697265625
z: 0.07854227721691132
visibility: 0.886898398399353
","x: 219.77471923828125
y: 515.3138427734375
z: 0.13466839492321014
visibility: 0.9411888718605042
","x: 258.65496826171875
y: 540.1703491210938
z: 0.08148373663425446
visibility: 0.8098198175430298
","x: 219.35797119140625
y: 524.8793334960938
z: 0.142799973487854
visibility: 0.7271587252616882
","x: 270.4999084472656
y: 547.270263671875
z: -0.038907527923583984
visibility: 0.908254086971283
","x: 219.1115264892578
y: 534.9204711914062
z: 0.031444255262613297
visibility: 0.9317213892936707
",,,,,,,,,,,,,,,,,,,,,,,,,,,,,,,,,,,,,,,,,,
8,"x: 256.6101989746094
y: 214.89279174804688
z: -0.19620978832244873
visibility: 0.999932587146759
","x: 258.8787536621094
y: 208.85488891601562
z: -0.1750800758600235
visibility: 0.999841570854187
","x: 260.3697204589844
y: 209.17381286621094
z: -0.17512506246566772
visibility: 0.9997752904891968
","x: 262.0209045410156
y: 209.50701904296875
z: -0.17511460185050964
visibility: 0.9997349977493286
","x: 254.5786895751953
y: 208.20570373535156
z: -0.18046100437641144
visibility: 0.9998910427093506
","x: 252.9302215576172
y: 207.96546936035156
z: -0.18045580387115479
visibility: 0.9998751878738403
","x: 251.20069885253906
y: 207.76181030273438
z: -0.18044844269752502
visibility: 0.9998916983604431
","x: 263.51300048828125
y: 214.306884765625
z: -0.057863425463438034
visibility: 0.9988032579421997
","x: 248.2350311279297
y: 212.01473999023438
z: -0.08341683447360992
visibility: 0.9998073577880859
","x: 259.0420227050781
y: 223.4403076171875
z: -0.15340577065944672
visibility: 0.9995443224906921
","x: 253.810791015625
y: 222.40960693359375
z: -0.16060307621955872
visibility: 0.9998143911361694
","x: 270.8504333496094
y: 257.76409912109375
z: 0.010528789833188057
visibility: 0.9991838335990906
","x: 236.1781005859375
y: 259.1614685058594
z: -0.016585636883974075
visibility: 0.9998764991760254
","x: 280.593994140625
y: 299.7452392578125
z: -0.0026481086388230324
visibility: 0.7383519411087036
","x: 223.81436157226562
y: 311.4772644042969
z: 0.012928551062941551
visibility: 0.9830123782157898
","x: 275.3988952636719
y: 319.043701171875
z: -0.17978893220424652
visibility: 0.8461200594902039
","x: 229.88125610351562
y: 353.125244140625
z: -0.07383017987012863
visibility: 0.9620305895805359
","x: 272.850830078125
y: 329.5715637207031
z: -0.22300276160240173
visibility: 0.827325701713562
","x: 231.5863037109375
y: 367.40802001953125
z: -0.09982068836688995
visibility: 0.9254500865936279
","x: 270.69805908203125
y: 326.71575927734375
z: -0.23848159611225128
visibility: 0.8392063975334167
","x: 236.28704833984375
y: 363.8903503417969
z: -0.12944719195365906
visibility: 0.9278376698493958
","x: 271.1590576171875
y: 323.08856201171875
z: -0.18971823155879974
visibility: 0.8025016188621521
","x: 236.6979217529297
y: 358.90374755859375
z: -0.08540467917919159
visibility: 0.9085032939910889
","x: 263.1133117675781
y: 366.5957336425781
z: 0.013228075578808784
visibility: 0.9979221224784851
","x: 241.2803955078125
y: 363.42529296875
z: -0.013235951773822308
visibility: 0.9986401796340942
","x: 264.12408447265625
y: 449.2590637207031
z: -0.016836535185575485
visibility: 0.8170783519744873
","x: 235.57777404785156
y: 446.4749755859375
z: -0.02534506283700466
visibility: 0.9479766488075256
","x: 261.9887390136719
y: 529.0045166015625
z: 0.11223318427801132
visibility: 0.8974232077598572
","x: 222.245361328125
y: 514.4423217773438
z: 0.12620976567268372
visibility: 0.9459952712059021
","x: 258.8335266113281
y: 539.8331909179688
z: 0.11660677194595337
visibility: 0.8211477994918823
","x: 223.54583740234375
y: 523.4427490234375
z: 0.13356105983257294
visibility: 0.7375841736793518
","x: 271.1411437988281
y: 547.9527587890625
z: -0.00782707892358303
visibility: 0.9159215688705444
","x: 221.19561767578125
y: 534.8009033203125
z: 0.026513054966926575
visibility: 0.936931312084198
",,,,,,,,,,,,,,,,,,,,,,,,,,,,,,,,,,,,,,,,,,
9,"x: 260.2967224121094
y: 212.09820556640625
z: -0.17602910101413727
visibility: 0.9999380111694336
","x: 262.0471496582031
y: 206.5127410888672
z: -0.15275169909000397
visibility: 0.9998556971549988
","x: 263.5813293457031
y: 206.96229553222656
z: -0.15280145406723022
visibility: 0.9997953772544861
","x: 264.7931823730469
y: 207.42567443847656
z: -0.15280945599079132
visibility: 0.9997591972351074
","x: 257.4138488769531
y: 205.75845336914062
z: -0.15768344700336456
visibility: 0.9999004006385803
","x: 255.81063842773438
y: 205.6682586669922
z: -0.15767399966716766
visibility: 0.9998857975006104
","x: 254.1439208984375
y: 205.72862243652344
z: -0.15765030682086945
visibility: 0.9999008774757385
","x: 266.09136962890625
y: 212.9705810546875
z: -0.03343591094017029
visibility: 0.9989141821861267
","x: 252.13623046875
y: 211.12770080566406
z: -0.057040393352508545
visibility: 0.9998244643211365
","x: 262.6030578613281
y: 221.52310180664062
z: -0.13334053754806519
visibility: 0.999588131904602
","x: 256.7646179199219
y: 220.93331909179688
z: -0.13997063040733337
visibility: 0.9998320937156677
","x: 275.00006103515625
y: 257.74188232421875
z: 0.03692997246980667
visibility: 0.9992573261260986
","x: 239.02903747558594
y: 258.523193359375
z: -0.010296931490302086
visibility: 0.9998824000358582
","x: 285.9773864746094
y: 303.58404541015625
z: -0.013089558109641075
visibility: 0.762097179889679
","x: 226.645751953125
y: 310.14190673828125
z: -0.029523462057113647
visibility: 0.9829161763191223
","x: 278.12152099609375
y: 317.20849609375
z: -0.20242846012115479
visibility: 0.8589817881584167
","x: 239.8775177001953
y: 334.4743347167969
z: -0.1639268696308136
visibility: 0.9613451361656189
","x: 275.460693359375
y: 323.2015686035156
z: -0.23746924102306366
visibility: 0.8396126627922058
","x: 244.8929443359375
y: 344.9162292480469
z: -0.20235323905944824
visibility: 0.9239935874938965
","x: 273.3843994140625
y: 318.7464599609375
z: -0.26144105195999146
visibility: 0.85064297914505
","x: 247.84329223632812
y: 340.53912353515625
z: -0.21658191084861755
visibility: 0.9260268807411194
","x: 273.5469970703125
y: 316.97833251953125
z: -0.21557164192199707
visibility: 0.8153210878372192
","x: 246.93963623046875
y: 336.79632568359375
z: -0.17048387229442596
visibility: 0.9051603078842163
","x: 264.7518310546875
y: 366.09637451171875
z: 0.024947630241513252
visibility: 0.9980921149253845
","x: 242.9403839111328
y: 363.24334716796875
z: -0.024937443435192108
visibility: 0.9987355470657349
","x: 264.79815673828125
y: 450.16473388671875
z: 0.015070438385009766
visibility: 0.8313999176025391
","x: 238.78089904785156
y: 446.4822998046875
z: -0.03643501549959183
visibility: 0.951956033706665
","x: 262.0558166503906
y: 529.87451171875
z: 0.12291669845581055
visibility: 0.9055378437042236
","x: 228.4337615966797
y: 516.6397705078125
z: 0.0815623551607132
visibility: 0.9500434994697571
","x: 258.66375732421875
y: 541.24951171875
z: 0.1258188933134079
visibility: 0.8300583958625793
","x: 230.6482696533203
y: 529.8507080078125
z: 0.08553459495306015
visibility: 0.7467530369758606
","x: 272.1242980957031
y: 548.0348510742188
z: 0.010519021190702915
visibility: 0.9209029078483582
","x: 225.03700256347656
y: 534.4495239257812
z: -0.0368800051510334
visibility: 0.9405950903892517
",,,,,,,,,,,,,,,,,,,,,,,,,,,,,,,,,,,,,,,,,,
10,"x: 264.4349060058594
y: 212.32008361816406
z: -0.16139823198318481
visibility: 0.999943196773529
","x: 266.71246337890625
y: 206.66090393066406
z: -0.1388576179742813
visibility: 0.9998687505722046
","x: 268.3930358886719
y: 207.22079467773438
z: -0.1388978809118271
visibility: 0.9998142123222351
","x: 269.7073059082031
y: 207.76336669921875
z: -0.13889898359775543
visibility: 0.9997815489768982
","x: 261.8843688964844
y: 205.3466796875
z: -0.14411158859729767
visibility: 0.9999086260795593
","x: 260.4164123535156
y: 205.02908325195312
z: -0.1441095620393753
visibility: 0.9998952746391296
","x: 258.7732849121094
y: 204.78109741210938
z: -0.14407634735107422
visibility: 0.9999088644981384
","x: 270.9429016113281
y: 213.17320251464844
z: -0.017417803406715393
visibility: 0.999019980430603
","x: 255.90139770507812
y: 209.90084838867188
z: -0.04147711768746376
visibility: 0.9998395442962646
","x: 266.5348815917969
y: 221.8661651611328
z: -0.11694996058940887
visibility: 0.9996286630630493
","x: 260.700439453125
y: 220.90640258789062
z: -0.12384973466396332
visibility: 0.9998482465744019
","x: 278.5279235839844
y: 258.13934326171875
z: 0.05352135747671127
visibility: 0.9993276000022888
","x: 241.2025146484375
y: 257.73541259765625
z: 0.007011121604591608
visibility: 0.9998839497566223
","x: 288.7940979003906
y: 310.94464111328125
z: -0.029452014714479446
visibility: 0.7844407558441162
","x: 234.7901153564453
y: 313.99456787109375
z: -0.07756085693836212
visibility: 0.9825723171234131
","x: 281.3863830566406
y: 299.7870178222656
z: -0.25455382466316223
visibility: 0.8719595670700073
","x: 247.31748962402344
y: 295.22760009765625
z: -0.2752741277217865
visibility: 0.9637945294380188
","x: 277.97833251953125
y: 294.2216796875
z: -0.2991556227207184
visibility: 0.852592945098877
","x: 251.17669677734375
y: 286.1845703125
z: -0.31749606132507324
visibility: 0.9284133315086365
","x: 276.9803466796875
y: 288.4189147949219
z: -0.2903730571269989
visibility: 0.862450122833252
","x: 250.88232421875
y: 279.8917541503906
z: -0.31771692633628845
visibility: 0.9299365282058716
","x: 276.9759216308594
y: 289.04193115234375
z: -0.2569649815559387
visibility: 0.8290326595306396
","x: 250.7374267578125
y: 281.8594970703125
z: -0.27852171659469604
visibility: 0.9092226624488831
","x: 268.6640625
y: 365.7879943847656
z: 0.02825743891298771
visibility: 0.9982215762138367
","x: 247.09478759765625
y: 362.8197937011719
z: -0.028310168534517288
visibility: 0.9987629652023315
","x: 266.1082458496094
y: 451.5871887207031
z: 0.011669041588902473
visibility: 0.8441818952560425
","x: 251.31768798828125
y: 449.8484802246094
z: -0.04479735717177391
visibility: 0.9541276097297668
","x: 263.0193786621094
y: 530.4757080078125
z: 0.16729527711868286
visibility: 0.911770224571228
","x: 248.30625915527344
y: 527.68408203125
z: 0.09541166573762894
visibility: 0.9520555138587952
","x: 260.3035888671875
y: 542.0906982421875
z: 0.17702345550060272
visibility: 0.8332605361938477
","x: 247.7963409423828
y: 538.7116088867188
z: 0.10550900548696518
visibility: 0.7505190968513489
","x: 271.4612731933594
y: 550.3367309570312
z: 0.05743272230029106
visibility: 0.9250436425209045
","x: 251.55581665039062
y: 548.3489990234375
z: -0.018959544599056244
visibility: 0.9425634741783142
",,,,,,,,,,,,,,,,,,,,,,,,,,,,,,,,,,,,,,,,,,
11,"x: 266.5013427734375
y: 212.7610626220703
z: -0.16863758862018585
visibility: 0.999947726726532
","x: 268.3577575683594
y: 207.0059814453125
z: -0.14731185138225555
visibility: 0.9998805522918701
","x: 269.7226257324219
y: 207.52978515625
z: -0.1473630964756012
visibility: 0.9998313188552856
","x: 271.0359802246094
y: 208.0357666015625
z: -0.14737947285175323
visibility: 0.9998018741607666
","x: 264.1943664550781
y: 205.73788452148438
z: -0.15297427773475647
visibility: 0.999915599822998
","x: 262.35382080078125
y: 205.38372802734375
z: -0.15296804904937744
visibility: 0.9999029636383057
","x: 260.7047119140625
y: 205.0538330078125
z: -0.15294314920902252
visibility: 0.999914824962616
","x: 271.9039001464844
y: 213.30477905273438
z: -0.02458416298031807
visibility: 0.9991156458854675
","x: 256.6988525390625
y: 209.87789916992188
z: -0.0515395812690258
visibility: 0.9998518228530884
","x: 268.1906433105469
y: 221.97247314453125
z: -0.12299413979053497
visibility: 0.9996649622917175
","x: 262.80462646484375
y: 221.16152954101562
z: -0.13076476752758026
visibility: 0.9998624920845032
","x: 279.6811218261719
y: 260.0380859375
z: 0.050337206572294235
visibility: 0.9993921518325806
","x: 242.56765747070312
y: 257.3620300292969
z: 0.0012959669111296535
visibility: 0.9998761415481567
","x: 285.5045166015625
y: 319.537841796875
z: -0.04192064702510834
visibility: 0.8044462203979492
","x: 233.02761840820312
y: 315.5621643066406
z: -0.10655537992715836
visibility: 0.9816292524337769
","x: 284.9544677734375
y: 287.9727478027344
z: -0.2639685571193695
visibility: 0.8844144940376282
","x: 241.91671752929688
y: 276.4065856933594
z: -0.3194194734096527
visibility: 0.9660130739212036
","x: 285.25469970703125
y: 277.8927917480469
z: -0.30806517601013184
visibility: 0.8663731813430786
","x: 243.0069122314453
y: 266.154052734375
z: -0.3605581521987915
visibility: 0.9325160980224609
","x: 284.8106384277344
y: 272.4521789550781
z: -0.3012966513633728
visibility: 0.8752194046974182
","x: 243.83494567871094
y: 260.6558837890625
z: -0.36101990938186646
visibility: 0.9336100816726685
","x: 283.4705505371094
y: 274.89398193359375
z: -0.2671782970428467
visibility: 0.8445035219192505
","x: 244.34512329101562
y: 263.425537109375
z: -0.3237350583076477
visibility: 0.9134200811386108
","x: 270.58270263671875
y: 365.87957763671875
z: 0.032955512404441833
visibility: 0.9983240365982056
","x: 249.1761932373047
y: 363.23406982421875
z: -0.03300018608570099
visibility: 0.9987421631813049
","x: 271.7996520996094
y: 454.80426025390625
z: 0.010025043040513992
visibility: 0.8556795716285706
","x: 253.68753051757812
y: 452.7623291015625
z: -0.04833594709634781
visibility: 0.9554696679115295
","x: 264.1731262207031
y: 530.888916015625
z: 0.17195706069469452
visibility: 0.9159936904907227
","x: 250.22866821289062
y: 531.4262084960938
z: 0.09935249388217926
visibility: 0.9529045820236206
","x: 260.03466796875
y: 542.2504272460938
z: 0.18174558877944946
visibility: 0.8358534574508667
","x: 248.6224365234375
y: 542.8657836914062
z: 0.10813133418560028
visibility: 0.7531663179397583
","x: 271.8948669433594
y: 550.8538208007812
z: 0.06994827836751938
visibility: 0.9275113344192505
","x: 255.77410888671875
y: 551.22998046875
z: -0.01665792614221573
visibility: 0.9433337450027466
","x: 245.11322021484375
y: 275.26348876953125
z: 0.0
","x: 243.96566772460938
y: 274.50201416015625
z: -0.005694520194083452
","x: 242.57000732421875
y: 271.4141845703125
z: -0.009761294350028038
","x: 242.96298217773438
y: 266.3170166015625
z: -0.013260778039693832
","x: 243.55564880371094
y: 262.0990905761719
z: -0.015813177451491356
","x: 239.41717529296875
y: 256.31854248046875
z: -0.008994770236313343
","x: 244.54042053222656
y: 256.2789611816406
z: -0.013498350977897644
","x: 245.62669372558594
y: 262.4818115234375
z: -0.014804135076701641
","x: 244.69113159179688
y: 265.88336181640625
z: -0.015460237860679626
","x: 241.5269012451172
y: 253.48580932617188
z: -0.008757960982620716
","x: 246.66229248046875
y: 253.96343994140625
z: -0.013965128920972347
","x: 247.41635131835938
y: 260.80767822265625
z: -0.013763302937150002
","x: 246.33041381835938
y: 264.072021484375
z: -0.013175937347114086
","x: 243.83694458007812
y: 252.87461853027344
z: -0.008888371288776398
","x: 248.25059509277344
y: 253.44725036621094
z: -0.013454493135213852
","x: 248.73887634277344
y: 259.73748779296875
z: -0.01210098061710596
","x: 247.53018188476562
y: 262.53399658203125
z: -0.010773963294923306
","x: 246.30010986328125
y: 253.64610290527344
z: -0.009616830386221409
","x: 249.42523193359375
y: 253.8099365234375
z: -0.012372286058962345
","x: 249.6715087890625
y: 258.6095886230469
z: -0.011657814495265484
","x: 248.62181091308594
y: 261.2100830078125
z: -0.010684342123568058
","x: 283.4134521484375
y: 286.7888488769531
z: 0.0
","x: 281.3541564941406
y: 279.2100524902344
z: 0.00032821291824802756
","x: 280.6171569824219
y: 270.5277099609375
z: -0.000822594971396029
","x: 280.3885192871094
y: 263.8065185546875
z: -0.002904255175963044
","x: 280.1947937011719
y: 258.63262939453125
z: -0.004358179867267609
","x: 284.66864013671875
y: 267.02276611328125
z: 0.00018098477448802441
","x: 284.3809814453125
y: 261.7152404785156
z: -0.003295461181551218
","x: 282.97265625
y: 264.4574279785156
z: -0.004296237137168646
","x: 282.2923278808594
y: 267.1065368652344
z: -0.0044360775500535965
","x: 286.6174621582031
y: 269.2142028808594
z: -0.002145585836842656
","x: 286.1888427734375
y: 265.2025146484375
z: -0.006109710317105055
","x: 284.4207763671875
y: 269.23272705078125
z: -0.00600831164047122
","x: 283.8121337890625
y: 272.54132080078125
z: -0.005015924107283354
","x: 288.2752380371094
y: 272.34967041015625
z: -0.004944200627505779
","x: 287.41497802734375
y: 269.446533203125
z: -0.008371833711862564
","x: 285.57501220703125
y: 273.1872253417969
z: -0.006778441835194826
","x: 284.92999267578125
y: 275.94793701171875
z: -0.004868035204708576
","x: 289.5777893066406
y: 276.2888488769531
z: -0.007978689856827259
","x: 288.39093017578125
y: 274.13592529296875
z: -0.009736789390444756
","x: 286.75286865234375
y: 276.42352294921875
z: -0.008500494062900543
","x: 286.0966796875
y: 278.4998779296875
z: -0.00697332713752985
"
12,"x: 266.5013427734375
y: 212.7610626220703
z: -0.16863758862018585
visibility: 0.999947726726532
","x: 268.3577575683594
y: 207.0059814453125
z: -0.14731185138225555
visibility: 0.9998805522918701
","x: 269.7226257324219
y: 207.52978515625
z: -0.1473630964756012
visibility: 0.9998313188552856
","x: 271.0359802246094
y: 208.0357666015625
z: -0.14737947285175323
visibility: 0.9998018741607666
","x: 264.1943664550781
y: 205.73788452148438
z: -0.15297427773475647
visibility: 0.999915599822998
","x: 262.35382080078125
y: 205.38372802734375
z: -0.15296804904937744
visibility: 0.9999029636383057
","x: 260.7047119140625
y: 205.0538330078125
z: -0.15294314920902252
visibility: 0.999914824962616
","x: 271.9039001464844
y: 213.30477905273438
z: -0.02458416298031807
visibility: 0.9991156458854675
","x: 256.6988525390625
y: 209.87789916992188
z: -0.0515395812690258
visibility: 0.9998518228530884
","x: 268.1906433105469
y: 221.97247314453125
z: -0.12299413979053497
visibility: 0.9996649622917175
","x: 262.80462646484375
y: 221.16152954101562
z: -0.13076476752758026
visibility: 0.9998624920845032
","x: 279.6811218261719
y: 260.0380859375
z: 0.050337206572294235
visibility: 0.9993921518325806
","x: 242.56765747070312
y: 257.3620300292969
z: 0.0012959669111296535
visibility: 0.9998761415481567
","x: 285.5045166015625
y: 319.537841796875
z: -0.04192064702510834
visibility: 0.8044462203979492
","x: 233.02761840820312
y: 315.5621643066406
z: -0.10655537992715836
visibility: 0.9816292524337769
","x: 284.9544677734375
y: 287.9727478027344
z: -0.2639685571193695
visibility: 0.8844144940376282
","x: 241.91671752929688
y: 276.4065856933594
z: -0.3194194734096527
visibility: 0.9660130739212036
","x: 285.25469970703125
y: 277.8927917480469
z: -0.30806517601013184
visibility: 0.8663731813430786
","x: 243.0069122314453
y: 266.154052734375
z: -0.3605581521987915
visibility: 0.9325160980224609
","x: 284.8106384277344
y: 272.4521789550781
z: -0.3012966513633728
visibility: 0.8752194046974182
","x: 243.83494567871094
y: 260.6558837890625
z: -0.36101990938186646
visibility: 0.9336100816726685
","x: 283.4705505371094
y: 274.89398193359375
z: -0.2671782970428467
visibility: 0.8445035219192505
","x: 244.34512329101562
y: 263.425537109375
z: -0.3237350583076477
visibility: 0.9134200811386108
","x: 270.58270263671875
y: 365.87957763671875
z: 0.032955512404441833
visibility: 0.9983240365982056
","x: 249.1761932373047
y: 363.23406982421875
z: -0.03300018608570099
visibility: 0.9987421631813049
","x: 271.7996520996094
y: 454.80426025390625
z: 0.010025043040513992
visibility: 0.8556795716285706
","x: 253.68753051757812
y: 452.7623291015625
z: -0.04833594709634781
visibility: 0.9554696679115295
","x: 264.1731262207031
y: 530.888916015625
z: 0.17195706069469452
visibility: 0.9159936904907227
","x: 250.22866821289062
y: 531.4262084960938
z: 0.09935249388217926
visibility: 0.9529045820236206
","x: 260.03466796875
y: 542.2504272460938
z: 0.18174558877944946
visibility: 0.8358534574508667
","x: 248.6224365234375
y: 542.8657836914062
z: 0.10813133418560028
visibility: 0.7531663179397583
","x: 271.8948669433594
y: 550.8538208007812
z: 0.06994827836751938
visibility: 0.9275113344192505
","x: 255.77410888671875
y: 551.22998046875
z: -0.01665792614221573
visibility: 0.9433337450027466
","x: 245.11322021484375
y: 275.26348876953125
z: 0.0
","x: 243.96566772460938
y: 274.50201416015625
z: -0.005694520194083452
","x: 242.57000732421875
y: 271.4141845703125
z: -0.009761294350028038
","x: 242.96298217773438
y: 266.3170166015625
z: -0.013260778039693832
","x: 243.55564880371094
y: 262.0990905761719
z: -0.015813177451491356
","x: 239.41717529296875
y: 256.31854248046875
z: -0.008994770236313343
","x: 244.54042053222656
y: 256.2789611816406
z: -0.013498350977897644
","x: 245.62669372558594
y: 262.4818115234375
z: -0.014804135076701641
","x: 244.69113159179688
y: 265.88336181640625
z: -0.015460237860679626
","x: 241.5269012451172
y: 253.48580932617188
z: -0.008757960982620716
","x: 246.66229248046875
y: 253.96343994140625
z: -0.013965128920972347
","x: 247.41635131835938
y: 260.80767822265625
z: -0.013763302937150002
","x: 246.33041381835938
y: 264.072021484375
z: -0.013175937347114086
","x: 243.83694458007812
y: 252.87461853027344
z: -0.008888371288776398
","x: 248.25059509277344
y: 253.44725036621094
z: -0.013454493135213852
","x: 248.73887634277344
y: 259.73748779296875
z: -0.01210098061710596
","x: 247.53018188476562
y: 262.53399658203125
z: -0.010773963294923306
","x: 246.30010986328125
y: 253.64610290527344
z: -0.009616830386221409
","x: 249.42523193359375
y: 253.8099365234375
z: -0.012372286058962345
","x: 249.6715087890625
y: 258.6095886230469
z: -0.011657814495265484
","x: 248.62181091308594
y: 261.2100830078125
z: -0.010684342123568058
","x: 283.4134521484375
y: 286.7888488769531
z: 0.0
","x: 281.3541564941406
y: 279.2100524902344
z: 0.00032821291824802756
","x: 280.6171569824219
y: 270.5277099609375
z: -0.000822594971396029
","x: 280.3885192871094
y: 263.8065185546875
z: -0.002904255175963044
","x: 280.1947937011719
y: 258.63262939453125
z: -0.004358179867267609
","x: 284.66864013671875
y: 267.02276611328125
z: 0.00018098477448802441
","x: 284.3809814453125
y: 261.7152404785156
z: -0.003295461181551218
","x: 282.97265625
y: 264.4574279785156
z: -0.004296237137168646
","x: 282.2923278808594
y: 267.1065368652344
z: -0.0044360775500535965
","x: 286.6174621582031
y: 269.2142028808594
z: -0.002145585836842656
","x: 286.1888427734375
y: 265.2025146484375
z: -0.006109710317105055
","x: 284.4207763671875
y: 269.23272705078125
z: -0.00600831164047122
","x: 283.8121337890625
y: 272.54132080078125
z: -0.005015924107283354
","x: 288.2752380371094
y: 272.34967041015625
z: -0.004944200627505779
","x: 287.41497802734375
y: 269.446533203125
z: -0.008371833711862564
","x: 285.57501220703125
y: 273.1872253417969
z: -0.006778441835194826
","x: 284.92999267578125
y: 275.94793701171875
z: -0.004868035204708576
","x: 289.5777893066406
y: 276.2888488769531
z: -0.007978689856827259
","x: 288.39093017578125
y: 274.13592529296875
z: -0.009736789390444756
","x: 286.75286865234375
y: 276.42352294921875
z: -0.008500494062900543
","x: 286.0966796875
y: 278.4998779296875
z: -0.00697332713752985
"
13,"x: 266.5013427734375
y: 212.7610626220703
z: -0.16863758862018585
visibility: 0.999947726726532
","x: 268.3577575683594
y: 207.0059814453125
z: -0.14731185138225555
visibility: 0.9998805522918701
","x: 269.7226257324219
y: 207.52978515625
z: -0.1473630964756012
visibility: 0.9998313188552856
","x: 271.0359802246094
y: 208.0357666015625
z: -0.14737947285175323
visibility: 0.9998018741607666
","x: 264.1943664550781
y: 205.73788452148438
z: -0.15297427773475647
visibility: 0.999915599822998
","x: 262.35382080078125
y: 205.38372802734375
z: -0.15296804904937744
visibility: 0.9999029636383057
","x: 260.7047119140625
y: 205.0538330078125
z: -0.15294314920902252
visibility: 0.999914824962616
","x: 271.9039001464844
y: 213.30477905273438
z: -0.02458416298031807
visibility: 0.9991156458854675
","x: 256.6988525390625
y: 209.87789916992188
z: -0.0515395812690258
visibility: 0.9998518228530884
","x: 268.1906433105469
y: 221.97247314453125
z: -0.12299413979053497
visibility: 0.9996649622917175
","x: 262.80462646484375
y: 221.16152954101562
z: -0.13076476752758026
visibility: 0.9998624920845032
","x: 279.6811218261719
y: 260.0380859375
z: 0.050337206572294235
visibility: 0.9993921518325806
","x: 242.56765747070312
y: 257.3620300292969
z: 0.0012959669111296535
visibility: 0.9998761415481567
","x: 285.5045166015625
y: 319.537841796875
z: -0.04192064702510834
visibility: 0.8044462203979492
","x: 233.02761840820312
y: 315.5621643066406
z: -0.10655537992715836
visibility: 0.9816292524337769
","x: 284.9544677734375
y: 287.9727478027344
z: -0.2639685571193695
visibility: 0.8844144940376282
","x: 241.91671752929688
y: 276.4065856933594
z: -0.3194194734096527
visibility: 0.9660130739212036
","x: 285.25469970703125
y: 277.8927917480469
z: -0.30806517601013184
visibility: 0.8663731813430786
","x: 243.0069122314453
y: 266.154052734375
z: -0.3605581521987915
visibility: 0.9325160980224609
","x: 284.8106384277344
y: 272.4521789550781
z: -0.3012966513633728
visibility: 0.8752194046974182
","x: 243.83494567871094
y: 260.6558837890625
z: -0.36101990938186646
visibility: 0.9336100816726685
","x: 283.4705505371094
y: 274.89398193359375
z: -0.2671782970428467
visibility: 0.8445035219192505
","x: 244.34512329101562
y: 263.425537109375
z: -0.3237350583076477
visibility: 0.9134200811386108
","x: 270.58270263671875
y: 365.87957763671875
z: 0.032955512404441833
visibility: 0.9983240365982056
","x: 249.1761932373047
y: 363.23406982421875
z: -0.03300018608570099
visibility: 0.9987421631813049
","x: 271.7996520996094
y: 454.80426025390625
z: 0.010025043040513992
visibility: 0.8556795716285706
","x: 253.68753051757812
y: 452.7623291015625
z: -0.04833594709634781
visibility: 0.9554696679115295
","x: 264.1731262207031
y: 530.888916015625
z: 0.17195706069469452
visibility: 0.9159936904907227
","x: 250.22866821289062
y: 531.4262084960938
z: 0.09935249388217926
visibility: 0.9529045820236206
","x: 260.03466796875
y: 542.2504272460938
z: 0.18174558877944946
visibility: 0.8358534574508667
","x: 248.6224365234375
y: 542.8657836914062
z: 0.10813133418560028
visibility: 0.7531663179397583
","x: 271.8948669433594
y: 550.8538208007812
z: 0.06994827836751938
visibility: 0.9275113344192505
","x: 255.77410888671875
y: 551.22998046875
z: -0.01665792614221573
visibility: 0.9433337450027466
","x: 245.11322021484375
y: 275.26348876953125
z: 0.0
","x: 243.96566772460938
y: 274.50201416015625
z: -0.005694520194083452
","x: 242.57000732421875
y: 271.4141845703125
z: -0.009761294350028038
","x: 242.96298217773438
y: 266.3170166015625
z: -0.013260778039693832
","x: 243.55564880371094
y: 262.0990905761719
z: -0.015813177451491356
","x: 239.41717529296875
y: 256.31854248046875
z: -0.008994770236313343
","x: 244.54042053222656
y: 256.2789611816406
z: -0.013498350977897644
","x: 245.62669372558594
y: 262.4818115234375
z: -0.014804135076701641
","x: 244.69113159179688
y: 265.88336181640625
z: -0.015460237860679626
","x: 241.5269012451172
y: 253.48580932617188
z: -0.008757960982620716
","x: 246.66229248046875
y: 253.96343994140625
z: -0.013965128920972347
","x: 247.41635131835938
y: 260.80767822265625
z: -0.013763302937150002
","x: 246.33041381835938
y: 264.072021484375
z: -0.013175937347114086
","x: 243.83694458007812
y: 252.87461853027344
z: -0.008888371288776398
","x: 248.25059509277344
y: 253.44725036621094
z: -0.013454493135213852
","x: 248.73887634277344
y: 259.73748779296875
z: -0.01210098061710596
","x: 247.53018188476562
y: 262.53399658203125
z: -0.010773963294923306
","x: 246.30010986328125
y: 253.64610290527344
z: -0.009616830386221409
","x: 249.42523193359375
y: 253.8099365234375
z: -0.012372286058962345
","x: 249.6715087890625
y: 258.6095886230469
z: -0.011657814495265484
","x: 248.62181091308594
y: 261.2100830078125
z: -0.010684342123568058
","x: 283.4134521484375
y: 286.7888488769531
z: 0.0
","x: 281.3541564941406
y: 279.2100524902344
z: 0.00032821291824802756
","x: 280.6171569824219
y: 270.5277099609375
z: -0.000822594971396029
","x: 280.3885192871094
y: 263.8065185546875
z: -0.002904255175963044
","x: 280.1947937011719
y: 258.63262939453125
z: -0.004358179867267609
","x: 284.66864013671875
y: 267.02276611328125
z: 0.00018098477448802441
","x: 284.3809814453125
y: 261.7152404785156
z: -0.003295461181551218
","x: 282.97265625
y: 264.4574279785156
z: -0.004296237137168646
","x: 282.2923278808594
y: 267.1065368652344
z: -0.0044360775500535965
","x: 286.6174621582031
y: 269.2142028808594
z: -0.002145585836842656
","x: 286.1888427734375
y: 265.2025146484375
z: -0.006109710317105055
","x: 284.4207763671875
y: 269.23272705078125
z: -0.00600831164047122
","x: 283.8121337890625
y: 272.54132080078125
z: -0.005015924107283354
","x: 288.2752380371094
y: 272.34967041015625
z: -0.004944200627505779
","x: 287.41497802734375
y: 269.446533203125
z: -0.008371833711862564
","x: 285.57501220703125
y: 273.1872253417969
z: -0.006778441835194826
","x: 284.92999267578125
y: 275.94793701171875
z: -0.004868035204708576
","x: 289.5777893066406
y: 276.2888488769531
z: -0.007978689856827259
","x: 288.39093017578125
y: 274.13592529296875
z: -0.009736789390444756
","x: 286.75286865234375
y: 276.42352294921875
z: -0.008500494062900543
","x: 286.0966796875
y: 278.4998779296875
z: -0.00697332713752985
"
14,"x: 268.7923583984375
y: 213.19236755371094
z: -0.18499666452407837
visibility: 0.9999523162841797
","x: 270.2668151855469
y: 207.3473358154297
z: -0.16387276351451874
visibility: 0.9998918771743774
","x: 271.37786865234375
y: 207.9942169189453
z: -0.16392073035240173
visibility: 0.9998473525047302
","x: 272.44012451171875
y: 208.6204833984375
z: -0.16392949223518372
visibility: 0.99982088804245
","x: 266.42926025390625
y: 205.85113525390625
z: -0.16233369708061218
visibility: 0.9999232292175293
","x: 264.55780029296875
y: 205.6244659423828
z: -0.162293940782547
visibility: 0.9999115467071533
","x: 262.77398681640625
y: 205.34112548828125
z: -0.16224968433380127
visibility: 0.9999222159385681
","x: 271.8992614746094
y: 213.59893798828125
z: -0.03715338557958603
visibility: 0.9992027878761292
","x: 257.534912109375
y: 209.89620971679688
z: -0.08937946707010269
visibility: 0.9998655319213867
","x: 269.9013671875
y: 222.31488037109375
z: -0.1392693668603897
visibility: 0.9996979236602783
","x: 264.8923645019531
y: 221.290283203125
z: -0.14160868525505066
visibility: 0.9998758435249329
","x: 277.9169616699219
y: 260.66510009765625
z: 0.054419051855802536
visibility: 0.9994503259658813
","x: 241.34628295898438
y: 255.19818115234375
z: -0.04813678190112114
visibility: 0.9998770356178284
","x: 286.57952880859375
y: 317.0841369628906
z: -0.026696190237998962
visibility: 0.8220453262329102
","x: 228.75125122070312
y: 311.7664794921875
z: -0.18101149797439575
visibility: 0.9825965166091919
","x: 289.8288879394531
y: 274.8448791503906
z: -0.2579251825809479
visibility: 0.8957093954086304
","x: 235.358642578125
y: 264.0413513183594
z: -0.3904012441635132
visibility: 0.9690816402435303
","x: 290.9924011230469
y: 262.6208801269531
z: -0.2934322953224182
visibility: 0.8790249824523926
","x: 236.4117889404297
y: 251.5367889404297
z: -0.43208813667297363
visibility: 0.938414990901947
","x: 290.5625
y: 259.5501403808594
z: -0.2842128574848175
visibility: 0.8869504332542419
","x: 237.62612915039062
y: 246.79383850097656
z: -0.4302283227443695
visibility: 0.9393090009689331
","x: 289.1661376953125
y: 262.3049011230469
z: -0.2559840679168701
visibility: 0.8588503003120422
","x: 238.10214233398438
y: 251.15206909179688
z: -0.39327603578567505
visibility: 0.920515239238739
","x: 271.1010437011719
y: 365.8663330078125
z: 0.04705702140927315
visibility: 0.9984395503997803
","x: 249.23910522460938
y: 364.75732421875
z: -0.04712165147066116
visibility: 0.9987583160400391
","x: 283.91912841796875
y: 453.60986328125
z: 0.0025168778374791145
visibility: 0.8682428002357483
","x: 253.64642333984375
y: 454.6181945800781
z: -0.0632462278008461
visibility: 0.9563033580780029
","x: 267.6761169433594
y: 530.120849609375
z: 0.1788494884967804
visibility: 0.9194397926330566
","x: 249.49301147460938
y: 532.8740844726562
z: 0.0834035724401474
visibility: 0.9538090229034424
","x: 262.7758483886719
y: 539.3445434570312
z: 0.19127973914146423
visibility: 0.8389334678649902
","x: 248.3902587890625
y: 543.2105712890625
z: 0.09218809753656387
visibility: 0.7555142641067505
","x: 275.99627685546875
y: 549.6373291015625
z: 0.09360195696353912
visibility: 0.9289966225624084
","x: 255.9339599609375
y: 552.3602905273438
z: -0.03311573714017868
visibility: 0.9440487623214722
","x: 233.26739501953125
y: 260.1526184082031
z: 0.0
","x: 236.8601531982422
y: 254.89694213867188
z: 0.0013256348902359605
","x: 238.21145629882812
y: 248.28701782226562
z: 0.0012760978424921632
","x: 238.102783203125
y: 242.99099731445312
z: 0.00015956627612467855
","x: 237.4158172607422
y: 239.37828063964844
z: -0.0003861639415845275
","x: 236.41473388671875
y: 241.323974609375
z: 0.002450607717037201
","x: 238.23529052734375
y: 235.17367553710938
z: 0.0006175061571411788
","x: 238.9969482421875
y: 238.9344024658203
z: 0.00042128609493374825
","x: 238.67437744140625
y: 242.645751953125
z: 0.0007229815819300711
","x: 234.8147735595703
y: 241.23060607910156
z: 0.00037008774233981967
","x: 237.0167236328125
y: 235.6873779296875
z: -0.0010822730837389827
","x: 237.66896057128906
y: 240.20822143554688
z: -0.0005781764630228281
","x: 237.25404357910156
y: 244.1678009033203
z: 0.0002656240831129253
","x: 233.07957458496094
y: 241.85157775878906
z: -0.0020968997851014137
","x: 235.50205993652344
y: 238.71697998046875
z: -0.003698889631778002
","x: 236.02940368652344
y: 243.33682250976562
z: -0.0027144327759742737
","x: 235.67523193359375
y: 246.7476806640625
z: -0.001524224760942161
","x: 231.42791748046875
y: 243.22451782226562
z: -0.004709182307124138
","x: 233.87486267089844
y: 241.72061157226562
z: -0.0056275296956300735
","x: 234.5664825439453
y: 245.3925323486328
z: -0.004774342756718397
","x: 234.34481811523438
y: 248.35427856445312
z: -0.0036485607270151377
",,,,,,,,,,,,,,,,,,,,,
15,"x: 268.7923583984375
y: 213.19236755371094
z: -0.18499666452407837
visibility: 0.9999523162841797
","x: 270.2668151855469
y: 207.3473358154297
z: -0.16387276351451874
visibility: 0.9998918771743774
","x: 271.37786865234375
y: 207.9942169189453
z: -0.16392073035240173
visibility: 0.9998473525047302
","x: 272.44012451171875
y: 208.6204833984375
z: -0.16392949223518372
visibility: 0.99982088804245
","x: 266.42926025390625
y: 205.85113525390625
z: -0.16233369708061218
visibility: 0.9999232292175293
","x: 264.55780029296875
y: 205.6244659423828
z: -0.162293940782547
visibility: 0.9999115467071533
","x: 262.77398681640625
y: 205.34112548828125
z: -0.16224968433380127
visibility: 0.9999222159385681
","x: 271.8992614746094
y: 213.59893798828125
z: -0.03715338557958603
visibility: 0.9992027878761292
","x: 257.534912109375
y: 209.89620971679688
z: -0.08937946707010269
visibility: 0.9998655319213867
","x: 269.9013671875
y: 222.31488037109375
z: -0.1392693668603897
visibility: 0.9996979236602783
","x: 264.8923645019531
y: 221.290283203125
z: -0.14160868525505066
visibility: 0.9998758435249329
","x: 277.9169616699219
y: 260.66510009765625
z: 0.054419051855802536
visibility: 0.9994503259658813
","x: 241.34628295898438
y: 255.19818115234375
z: -0.04813678190112114
visibility: 0.9998770356178284
","x: 286.57952880859375
y: 317.0841369628906
z: -0.026696190237998962
visibility: 0.8220453262329102
","x: 228.75125122070312
y: 311.7664794921875
z: -0.18101149797439575
visibility: 0.9825965166091919
","x: 289.8288879394531
y: 274.8448791503906
z: -0.2579251825809479
visibility: 0.8957093954086304
","x: 235.358642578125
y: 264.0413513183594
z: -0.3904012441635132
visibility: 0.9690816402435303
","x: 290.9924011230469
y: 262.6208801269531
z: -0.2934322953224182
visibility: 0.8790249824523926
","x: 236.4117889404297
y: 251.5367889404297
z: -0.43208813667297363
visibility: 0.938414990901947
","x: 290.5625
y: 259.5501403808594
z: -0.2842128574848175
visibility: 0.8869504332542419
","x: 237.62612915039062
y: 246.79383850097656
z: -0.4302283227443695
visibility: 0.9393090009689331
","x: 289.1661376953125
y: 262.3049011230469
z: -0.2559840679168701
visibility: 0.8588503003120422
","x: 238.10214233398438
y: 251.15206909179688
z: -0.39327603578567505
visibility: 0.920515239238739
","x: 271.1010437011719
y: 365.8663330078125
z: 0.04705702140927315
visibility: 0.9984395503997803
","x: 249.23910522460938
y: 364.75732421875
z: -0.04712165147066116
visibility: 0.9987583160400391
","x: 283.91912841796875
y: 453.60986328125
z: 0.0025168778374791145
visibility: 0.8682428002357483
","x: 253.64642333984375
y: 454.6181945800781
z: -0.0632462278008461
visibility: 0.9563033580780029
","x: 267.6761169433594
y: 530.120849609375
z: 0.1788494884967804
visibility: 0.9194397926330566
","x: 249.49301147460938
y: 532.8740844726562
z: 0.0834035724401474
visibility: 0.9538090229034424
","x: 262.7758483886719
y: 539.3445434570312
z: 0.19127973914146423
visibility: 0.8389334678649902
","x: 248.3902587890625
y: 543.2105712890625
z: 0.09218809753656387
visibility: 0.7555142641067505
","x: 275.99627685546875
y: 549.6373291015625
z: 0.09360195696353912
visibility: 0.9289966225624084
","x: 255.9339599609375
y: 552.3602905273438
z: -0.03311573714017868
visibility: 0.9440487623214722
","x: 233.26739501953125
y: 260.1526184082031
z: 0.0
","x: 236.8601531982422
y: 254.89694213867188
z: 0.0013256348902359605
","x: 238.21145629882812
y: 248.28701782226562
z: 0.0012760978424921632
","x: 238.102783203125
y: 242.99099731445312
z: 0.00015956627612467855
","x: 237.4158172607422
y: 239.37828063964844
z: -0.0003861639415845275
","x: 236.41473388671875
y: 241.323974609375
z: 0.002450607717037201
","x: 238.23529052734375
y: 235.17367553710938
z: 0.0006175061571411788
","x: 238.9969482421875
y: 238.9344024658203
z: 0.00042128609493374825
","x: 238.67437744140625
y: 242.645751953125
z: 0.0007229815819300711
","x: 234.8147735595703
y: 241.23060607910156
z: 0.00037008774233981967
","x: 237.0167236328125
y: 235.6873779296875
z: -0.0010822730837389827
","x: 237.66896057128906
y: 240.20822143554688
z: -0.0005781764630228281
","x: 237.25404357910156
y: 244.1678009033203
z: 0.0002656240831129253
","x: 233.07957458496094
y: 241.85157775878906
z: -0.0020968997851014137
","x: 235.50205993652344
y: 238.71697998046875
z: -0.003698889631778002
","x: 236.02940368652344
y: 243.33682250976562
z: -0.0027144327759742737
","x: 235.67523193359375
y: 246.7476806640625
z: -0.001524224760942161
","x: 231.42791748046875
y: 243.22451782226562
z: -0.004709182307124138
","x: 233.87486267089844
y: 241.72061157226562
z: -0.0056275296956300735
","x: 234.5664825439453
y: 245.3925323486328
z: -0.004774342756718397
","x: 234.34481811523438
y: 248.35427856445312
z: -0.0036485607270151377
",,,,,,,,,,,,,,,,,,,,,
16,"x: 271.3077087402344
y: 213.95620727539062
z: -0.22491057217121124
visibility: 0.9999566078186035
","x: 272.5826416015625
y: 207.60826110839844
z: -0.19993405044078827
visibility: 0.9999021887779236
","x: 273.5339050292969
y: 208.24801635742188
z: -0.19994580745697021
visibility: 0.9998617768287659
","x: 274.46722412109375
y: 208.86549377441406
z: -0.19999375939369202
visibility: 0.9998379945755005
","x: 269.0957336425781
y: 206.00930786132812
z: -0.2157680094242096
visibility: 0.9999305009841919
","x: 267.4366760253906
y: 205.64950561523438
z: -0.21578970551490784
visibility: 0.9999198317527771
","x: 265.8213806152344
y: 205.4898223876953
z: -0.21580705046653748
visibility: 0.9999294877052307
","x: 273.3840637207031
y: 213.68646240234375
z: -0.06042846292257309
visibility: 0.999280571937561
","x: 260.8406677246094
y: 209.49688720703125
z: -0.14262107014656067
visibility: 0.9998785853385925
","x: 271.75286865234375
y: 222.8726348876953
z: -0.17292305827140808
visibility: 0.9997275471687317
","x: 267.3636779785156
y: 221.5252685546875
z: -0.19522105157375336
visibility: 0.999888002872467
","x: 278.4375915527344
y: 260.56072998046875
z: 0.04324638098478317
visibility: 0.9994977116584778
","x: 244.67108154296875
y: 253.37586975097656
z: -0.11069238185882568
visibility: 0.9998835921287537
","x: 293.10076904296875
y: 311.4161376953125
z: -0.02721613645553589
visibility: 0.837605357170105
","x: 227.00108337402344
y: 297.89520263671875
z: -0.25107595324516296
visibility: 0.9842261672019958
","x: 293.88470458984375
y: 264.2880554199219
z: -0.23835882544517517
visibility: 0.9056392312049866
","x: 232.79978942871094
y: 246.91934204101562
z: -0.4311012327671051
visibility: 0.9720667600631714
","x: 294.8224182128906
y: 250.1429901123047
z: -0.2728674113750458
visibility: 0.8895269632339478
","x: 233.77890014648438
y: 233.49220275878906
z: -0.472167432308197
visibility: 0.944151759147644
","x: 293.8352966308594
y: 245.6678009033203
z: -0.26364845037460327
visibility: 0.8965249061584473
","x: 235.30654907226562
y: 232.16094970703125
z: -0.4628005921840668
visibility: 0.9448716640472412
","x: 292.4976501464844
y: 250.29226684570312
z: -0.23841042816638947
visibility: 0.8703127503395081
","x: 235.93356323242188
y: 236.55836486816406
z: -0.4300480782985687
visibility: 0.9275175929069519
","x: 274.46282958984375
y: 366.616943359375
z: 0.05995405465364456
visibility: 0.9985566735267639
","x: 253.3084716796875
y: 367.0311279296875
z: -0.0600619800388813
visibility: 0.9988235831260681
","x: 291.2265930175781
y: 452.72998046875
z: -0.003992472309619188
visibility: 0.8795874714851379
","x: 254.65118408203125
y: 456.5729064941406
z: -0.09273742139339447
visibility: 0.9593889117240906
","x: 275.8389892578125
y: 529.6339111328125
z: 0.1768648773431778
visibility: 0.9243783950805664
","x: 248.79930114746094
y: 532.1480712890625
z: 0.05581803247332573
visibility: 0.9569305181503296
","x: 269.9914855957031
y: 538.9625244140625
z: 0.19004037976264954
visibility: 0.8488889932632446
","x: 248.42596435546875
y: 542.51318359375
z: 0.06507815420627594
visibility: 0.7660127878189087
","x: 289.94842529296875
y: 548.9613037109375
z: 0.09987922012805939
visibility: 0.9328381419181824
","x: 253.7556610107422
y: 553.0950317382812
z: -0.058936744928359985
visibility: 0.9472007155418396
","x: 231.45059204101562
y: 242.6104736328125
z: 0.0
","x: 234.5203094482422
y: 237.31736755371094
z: 0.000825046852696687
","x: 236.2109832763672
y: 230.7632598876953
z: 0.0001888916885945946
","x: 236.8753204345703
y: 225.14828491210938
z: -0.0014071810292080045
","x: 237.6504364013672
y: 220.28627014160156
z: -0.0023961535189300776
","x: 234.33755493164062
y: 224.5835723876953
z: 0.0016412395052611828
","x: 235.76820373535156
y: 220.1516876220703
z: -0.000556121754925698
","x: 236.24130249023438
y: 224.32936096191406
z: -0.0011447662254795432
","x: 235.8360595703125
y: 227.441162109375
z: -0.0012182077625766397
","x: 232.71388244628906
y: 225.131103515625
z: -0.0005445880233310163
","x: 234.7427215576172
y: 222.0583953857422
z: -0.0026974861975759268
","x: 235.1502685546875
y: 227.06192016601562
z: -0.0025706372689455748
","x: 234.603515625
y: 230.26412963867188
z: -0.0019811391830444336
","x: 230.96340942382812
y: 226.3190460205078
z: -0.003120413748547435
","x: 233.26304626464844
y: 224.76547241210938
z: -0.005183215253055096
","x: 233.5604705810547
y: 229.47305297851562
z: -0.0039677247405052185
","x: 233.014404296875
y: 232.39569091796875
z: -0.0026838567573577166
","x: 229.1562042236328
y: 228.16726684570312
z: -0.005880906246602535
","x: 231.4480438232422
y: 226.52215576171875
z: -0.007055135443806648
","x: 232.19070434570312
y: 229.85675048828125
z: -0.005989182274788618
","x: 231.9755859375
y: 232.28477478027344
z: -0.0047478568740189075
","x: 295.12310791015625
y: 257.01226806640625
z: 0.0
","x: 292.64569091796875
y: 249.76986694335938
z: 0.0004867209936492145
","x: 291.37835693359375
y: 243.00802612304688
z: -8.004286064533517e-05
","x: 291.4056396484375
y: 237.68348693847656
z: -0.00170079933013767
","x: 292.2601013183594
y: 234.52267456054688
z: -0.0026470248121768236
","x: 293.23577880859375
y: 237.57821655273438
z: 0.0017758205067366362
","x: 293.3963928222656
y: 231.00958251953125
z: -0.0009468882926739752
","x: 292.9642333984375
y: 234.5392608642578
z: -0.0016699789557605982
","x: 292.860107421875
y: 237.9824676513672
z: -0.0016385340131819248
","x: 295.0506896972656
y: 238.54864501953125
z: -0.00030696229077875614
","x: 295.0878601074219
y: 233.66815185546875
z: -0.0032169222831726074
","x: 294.4251403808594
y: 238.314453125
z: -0.0032698626164346933
","x: 294.2051696777344
y: 241.5310821533203
z: -0.002523773116990924
","x: 296.8719787597656
y: 240.32611083984375
z: -0.002893054625019431
","x: 296.81939697265625
y: 236.580322265625
z: -0.005444018170237541
","x: 295.8175048828125
y: 240.84954833984375
z: -0.004238440189510584
","x: 295.31011962890625
y: 243.9271697998047
z: -0.0027476518880575895
","x: 298.7220458984375
y: 242.6814422607422
z: -0.005736530292779207
","x: 298.7484130859375
y: 239.08941650390625
z: -0.006670704111456871
","x: 297.5895080566406
y: 241.53994750976562
z: -0.00549423648044467
","x: 296.71258544921875
y: 244.10928344726562
z: -0.004166518338024616
"
17,"x: 271.3077087402344
y: 213.95620727539062
z: -0.22491057217121124
visibility: 0.9999566078186035
","x: 272.5826416015625
y: 207.60826110839844
z: -0.19993405044078827
visibility: 0.9999021887779236
","x: 273.5339050292969
y: 208.24801635742188
z: -0.19994580745697021
visibility: 0.9998617768287659
","x: 274.46722412109375
y: 208.86549377441406
z: -0.19999375939369202
visibility: 0.9998379945755005
","x: 269.0957336425781
y: 206.00930786132812
z: -0.2157680094242096
visibility: 0.9999305009841919
","x: 267.4366760253906
y: 205.64950561523438
z: -0.21578970551490784
visibility: 0.9999198317527771
","x: 265.8213806152344
y: 205.4898223876953
z: -0.21580705046653748
visibility: 0.9999294877052307
","x: 273.3840637207031
y: 213.68646240234375
z: -0.06042846292257309
visibility: 0.999280571937561
","x: 260.8406677246094
y: 209.49688720703125
z: -0.14262107014656067
visibility: 0.9998785853385925
","x: 271.75286865234375
y: 222.8726348876953
z: -0.17292305827140808
visibility: 0.9997275471687317
","x: 267.3636779785156
y: 221.5252685546875
z: -0.19522105157375336
visibility: 0.999888002872467
","x: 278.4375915527344
y: 260.56072998046875
z: 0.04324638098478317
visibility: 0.9994977116584778
","x: 244.67108154296875
y: 253.37586975097656
z: -0.11069238185882568
visibility: 0.9998835921287537
","x: 293.10076904296875
y: 311.4161376953125
z: -0.02721613645553589
visibility: 0.837605357170105
","x: 227.00108337402344
y: 297.89520263671875
z: -0.25107595324516296
visibility: 0.9842261672019958
","x: 293.88470458984375
y: 264.2880554199219
z: -0.23835882544517517
visibility: 0.9056392312049866
","x: 232.79978942871094
y: 246.91934204101562
z: -0.4311012327671051
visibility: 0.9720667600631714
","x: 294.8224182128906
y: 250.1429901123047
z: -0.2728674113750458
visibility: 0.8895269632339478
","x: 233.77890014648438
y: 233.49220275878906
z: -0.472167432308197
visibility: 0.944151759147644
","x: 293.8352966308594
y: 245.6678009033203
z: -0.26364845037460327
visibility: 0.8965249061584473
","x: 235.30654907226562
y: 232.16094970703125
z: -0.4628005921840668
visibility: 0.9448716640472412
","x: 292.4976501464844
y: 250.29226684570312
z: -0.23841042816638947
visibility: 0.8703127503395081
","x: 235.93356323242188
y: 236.55836486816406
z: -0.4300480782985687
visibility: 0.9275175929069519
","x: 274.46282958984375
y: 366.616943359375
z: 0.05995405465364456
visibility: 0.9985566735267639
","x: 253.3084716796875
y: 367.0311279296875
z: -0.0600619800388813
visibility: 0.9988235831260681
","x: 291.2265930175781
y: 452.72998046875
z: -0.003992472309619188
visibility: 0.8795874714851379
","x: 254.65118408203125
y: 456.5729064941406
z: -0.09273742139339447
visibility: 0.9593889117240906
","x: 275.8389892578125
y: 529.6339111328125
z: 0.1768648773431778
visibility: 0.9243783950805664
","x: 248.79930114746094
y: 532.1480712890625
z: 0.05581803247332573
visibility: 0.9569305181503296
","x: 269.9914855957031
y: 538.9625244140625
z: 0.19004037976264954
visibility: 0.8488889932632446
","x: 248.42596435546875
y: 542.51318359375
z: 0.06507815420627594
visibility: 0.7660127878189087
","x: 289.94842529296875
y: 548.9613037109375
z: 0.09987922012805939
visibility: 0.9328381419181824
","x: 253.7556610107422
y: 553.0950317382812
z: -0.058936744928359985
visibility: 0.9472007155418396
","x: 231.45059204101562
y: 242.6104736328125
z: 0.0
","x: 234.5203094482422
y: 237.31736755371094
z: 0.000825046852696687
","x: 236.2109832763672
y: 230.7632598876953
z: 0.0001888916885945946
","x: 236.8753204345703
y: 225.14828491210938
z: -0.0014071810292080045
","x: 237.6504364013672
y: 220.28627014160156
z: -0.0023961535189300776
","x: 234.33755493164062
y: 224.5835723876953
z: 0.0016412395052611828
","x: 235.76820373535156
y: 220.1516876220703
z: -0.000556121754925698
","x: 236.24130249023438
y: 224.32936096191406
z: -0.0011447662254795432
","x: 235.8360595703125
y: 227.441162109375
z: -0.0012182077625766397
","x: 232.71388244628906
y: 225.131103515625
z: -0.0005445880233310163
","x: 234.7427215576172
y: 222.0583953857422
z: -0.0026974861975759268
","x: 235.1502685546875
y: 227.06192016601562
z: -0.0025706372689455748
","x: 234.603515625
y: 230.26412963867188
z: -0.0019811391830444336
","x: 230.96340942382812
y: 226.3190460205078
z: -0.003120413748547435
","x: 233.26304626464844
y: 224.76547241210938
z: -0.005183215253055096
","x: 233.5604705810547
y: 229.47305297851562
z: -0.0039677247405052185
","x: 233.014404296875
y: 232.39569091796875
z: -0.0026838567573577166
","x: 229.1562042236328
y: 228.16726684570312
z: -0.005880906246602535
","x: 231.4480438232422
y: 226.52215576171875
z: -0.007055135443806648
","x: 232.19070434570312
y: 229.85675048828125
z: -0.005989182274788618
","x: 231.9755859375
y: 232.28477478027344
z: -0.0047478568740189075
","x: 295.12310791015625
y: 257.01226806640625
z: 0.0
","x: 292.64569091796875
y: 249.76986694335938
z: 0.0004867209936492145
","x: 291.37835693359375
y: 243.00802612304688
z: -8.004286064533517e-05
","x: 291.4056396484375
y: 237.68348693847656
z: -0.00170079933013767
","x: 292.2601013183594
y: 234.52267456054688
z: -0.0026470248121768236
","x: 293.23577880859375
y: 237.57821655273438
z: 0.0017758205067366362
","x: 293.3963928222656
y: 231.00958251953125
z: -0.0009468882926739752
","x: 292.9642333984375
y: 234.5392608642578
z: -0.0016699789557605982
","x: 292.860107421875
y: 237.9824676513672
z: -0.0016385340131819248
","x: 295.0506896972656
y: 238.54864501953125
z: -0.00030696229077875614
","x: 295.0878601074219
y: 233.66815185546875
z: -0.0032169222831726074
","x: 294.4251403808594
y: 238.314453125
z: -0.0032698626164346933
","x: 294.2051696777344
y: 241.5310821533203
z: -0.002523773116990924
","x: 296.8719787597656
y: 240.32611083984375
z: -0.002893054625019431
","x: 296.81939697265625
y: 236.580322265625
z: -0.005444018170237541
","x: 295.8175048828125
y: 240.84954833984375
z: -0.004238440189510584
","x: 295.31011962890625
y: 243.9271697998047
z: -0.0027476518880575895
","x: 298.7220458984375
y: 242.6814422607422
z: -0.005736530292779207
","x: 298.7484130859375
y: 239.08941650390625
z: -0.006670704111456871
","x: 297.5895080566406
y: 241.53994750976562
z: -0.00549423648044467
","x: 296.71258544921875
y: 244.10928344726562
z: -0.004166518338024616
"
18,"x: 271.3077087402344
y: 213.95620727539062
z: -0.22491057217121124
visibility: 0.9999566078186035
","x: 272.5826416015625
y: 207.60826110839844
z: -0.19993405044078827
visibility: 0.9999021887779236
","x: 273.5339050292969
y: 208.24801635742188
z: -0.19994580745697021
visibility: 0.9998617768287659
","x: 274.46722412109375
y: 208.86549377441406
z: -0.19999375939369202
visibility: 0.9998379945755005
","x: 269.0957336425781
y: 206.00930786132812
z: -0.2157680094242096
visibility: 0.9999305009841919
","x: 267.4366760253906
y: 205.64950561523438
z: -0.21578970551490784
visibility: 0.9999198317527771
","x: 265.8213806152344
y: 205.4898223876953
z: -0.21580705046653748
visibility: 0.9999294877052307
","x: 273.3840637207031
y: 213.68646240234375
z: -0.06042846292257309
visibility: 0.999280571937561
","x: 260.8406677246094
y: 209.49688720703125
z: -0.14262107014656067
visibility: 0.9998785853385925
","x: 271.75286865234375
y: 222.8726348876953
z: -0.17292305827140808
visibility: 0.9997275471687317
","x: 267.3636779785156
y: 221.5252685546875
z: -0.19522105157375336
visibility: 0.999888002872467
","x: 278.4375915527344
y: 260.56072998046875
z: 0.04324638098478317
visibility: 0.9994977116584778
","x: 244.67108154296875
y: 253.37586975097656
z: -0.11069238185882568
visibility: 0.9998835921287537
","x: 293.10076904296875
y: 311.4161376953125
z: -0.02721613645553589
visibility: 0.837605357170105
","x: 227.00108337402344
y: 297.89520263671875
z: -0.25107595324516296
visibility: 0.9842261672019958
","x: 293.88470458984375
y: 264.2880554199219
z: -0.23835882544517517
visibility: 0.9056392312049866
","x: 232.79978942871094
y: 246.91934204101562
z: -0.4311012327671051
visibility: 0.9720667600631714
","x: 294.8224182128906
y: 250.1429901123047
z: -0.2728674113750458
visibility: 0.8895269632339478
","x: 233.77890014648438
y: 233.49220275878906
z: -0.472167432308197
visibility: 0.944151759147644
","x: 293.8352966308594
y: 245.6678009033203
z: -0.26364845037460327
visibility: 0.8965249061584473
","x: 235.30654907226562
y: 232.16094970703125
z: -0.4628005921840668
visibility: 0.9448716640472412
","x: 292.4976501464844
y: 250.29226684570312
z: -0.23841042816638947
visibility: 0.8703127503395081
","x: 235.93356323242188
y: 236.55836486816406
z: -0.4300480782985687
visibility: 0.9275175929069519
","x: 274.46282958984375
y: 366.616943359375
z: 0.05995405465364456
visibility: 0.9985566735267639
","x: 253.3084716796875
y: 367.0311279296875
z: -0.0600619800388813
visibility: 0.9988235831260681
","x: 291.2265930175781
y: 452.72998046875
z: -0.003992472309619188
visibility: 0.8795874714851379
","x: 254.65118408203125
y: 456.5729064941406
z: -0.09273742139339447
visibility: 0.9593889117240906
","x: 275.8389892578125
y: 529.6339111328125
z: 0.1768648773431778
visibility: 0.9243783950805664
","x: 248.79930114746094
y: 532.1480712890625
z: 0.05581803247332573
visibility: 0.9569305181503296
","x: 269.9914855957031
y: 538.9625244140625
z: 0.19004037976264954
visibility: 0.8488889932632446
","x: 248.42596435546875
y: 542.51318359375
z: 0.06507815420627594
visibility: 0.7660127878189087
","x: 289.94842529296875
y: 548.9613037109375
z: 0.09987922012805939
visibility: 0.9328381419181824
","x: 253.7556610107422
y: 553.0950317382812
z: -0.058936744928359985
visibility: 0.9472007155418396
","x: 231.45059204101562
y: 242.6104736328125
z: 0.0
","x: 234.5203094482422
y: 237.31736755371094
z: 0.000825046852696687
","x: 236.2109832763672
y: 230.7632598876953
z: 0.0001888916885945946
","x: 236.8753204345703
y: 225.14828491210938
z: -0.0014071810292080045
","x: 237.6504364013672
y: 220.28627014160156
z: -0.0023961535189300776
","x: 234.33755493164062
y: 224.5835723876953
z: 0.0016412395052611828
","x: 235.76820373535156
y: 220.1516876220703
z: -0.000556121754925698
","x: 236.24130249023438
y: 224.32936096191406
z: -0.0011447662254795432
","x: 235.8360595703125
y: 227.441162109375
z: -0.0012182077625766397
","x: 232.71388244628906
y: 225.131103515625
z: -0.0005445880233310163
","x: 234.7427215576172
y: 222.0583953857422
z: -0.0026974861975759268
","x: 235.1502685546875
y: 227.06192016601562
z: -0.0025706372689455748
","x: 234.603515625
y: 230.26412963867188
z: -0.0019811391830444336
","x: 230.96340942382812
y: 226.3190460205078
z: -0.003120413748547435
","x: 233.26304626464844
y: 224.76547241210938
z: -0.005183215253055096
","x: 233.5604705810547
y: 229.47305297851562
z: -0.0039677247405052185
","x: 233.014404296875
y: 232.39569091796875
z: -0.0026838567573577166
","x: 229.1562042236328
y: 228.16726684570312
z: -0.005880906246602535
","x: 231.4480438232422
y: 226.52215576171875
z: -0.007055135443806648
","x: 232.19070434570312
y: 229.85675048828125
z: -0.005989182274788618
","x: 231.9755859375
y: 232.28477478027344
z: -0.0047478568740189075
","x: 295.12310791015625
y: 257.01226806640625
z: 0.0
","x: 292.64569091796875
y: 249.76986694335938
z: 0.0004867209936492145
","x: 291.37835693359375
y: 243.00802612304688
z: -8.004286064533517e-05
","x: 291.4056396484375
y: 237.68348693847656
z: -0.00170079933013767
","x: 292.2601013183594
y: 234.52267456054688
z: -0.0026470248121768236
","x: 293.23577880859375
y: 237.57821655273438
z: 0.0017758205067366362
","x: 293.3963928222656
y: 231.00958251953125
z: -0.0009468882926739752
","x: 292.9642333984375
y: 234.5392608642578
z: -0.0016699789557605982
","x: 292.860107421875
y: 237.9824676513672
z: -0.0016385340131819248
","x: 295.0506896972656
y: 238.54864501953125
z: -0.00030696229077875614
","x: 295.0878601074219
y: 233.66815185546875
z: -0.0032169222831726074
","x: 294.4251403808594
y: 238.314453125
z: -0.0032698626164346933
","x: 294.2051696777344
y: 241.5310821533203
z: -0.002523773116990924
","x: 296.8719787597656
y: 240.32611083984375
z: -0.002893054625019431
","x: 296.81939697265625
y: 236.580322265625
z: -0.005444018170237541
","x: 295.8175048828125
y: 240.84954833984375
z: -0.004238440189510584
","x: 295.31011962890625
y: 243.9271697998047
z: -0.0027476518880575895
","x: 298.7220458984375
y: 242.6814422607422
z: -0.005736530292779207
","x: 298.7484130859375
y: 239.08941650390625
z: -0.006670704111456871
","x: 297.5895080566406
y: 241.53994750976562
z: -0.00549423648044467
","x: 296.71258544921875
y: 244.10928344726562
z: -0.004166518338024616
"
19,"x: 274.56341552734375
y: 215.50294494628906
z: -0.23331841826438904
visibility: 0.9999603033065796
","x: 275.55224609375
y: 209.25743103027344
z: -0.20695945620536804
visibility: 0.9999113082885742
","x: 276.38470458984375
y: 209.72215270996094
z: -0.20694127678871155
visibility: 0.9998744130134583
","x: 277.2473449707031
y: 210.19593811035156
z: -0.2069806307554245
visibility: 0.9998530745506287
","x: 272.2427978515625
y: 207.87339782714844
z: -0.22266164422035217
visibility: 0.9999369382858276
","x: 270.6305236816406
y: 207.40203857421875
z: -0.222690150141716
visibility: 0.9999272227287292
","x: 268.9985046386719
y: 207.06494140625
z: -0.22271080315113068
visibility: 0.999936044216156
","x: 275.98785400390625
y: 214.4688262939453
z: -0.06542214751243591
visibility: 0.9993493556976318
","x: 264.21929931640625
y: 210.61073303222656
z: -0.14072737097740173
visibility: 0.9998903274536133
","x: 274.79296875
y: 223.58071899414062
z: -0.18086501955986023
visibility: 0.9997538924217224
","x: 270.6206970214844
y: 222.35574340820312
z: -0.2025337964296341
visibility: 0.9998988509178162
","x: 281.813232421875
y: 261.40283203125
z: 0.04146335646510124
visibility: 0.9995404481887817
","x: 247.31466674804688
y: 254.26852416992188
z: -0.10457716882228851
visibility: 0.9998881220817566
","x: 300.368896484375
y: 310.15521240234375
z: -0.021241549402475357
visibility: 0.8520060181617737
","x: 225.9857635498047
y: 296.8975830078125
z: -0.23880954086780548
visibility: 0.9857112765312195
","x: 298.820068359375
y: 260.19097900390625
z: -0.19767430424690247
visibility: 0.9144300818443298
","x: 234.963134765625
y: 250.67138671875
z: -0.39729803800582886
visibility: 0.9746835827827454
","x: 298.5440673828125
y: 249.84652709960938
z: -0.22883358597755432
visibility: 0.8982589840888977
","x: 237.2587127685547
y: 237.4398193359375
z: -0.4333948493003845
visibility: 0.9489043951034546
","x: 297.1845397949219
y: 244.9836883544922
z: -0.21614575386047363
visibility: 0.9043183326721191
","x: 239.4096221923828
y: 236.9038543701172
z: -0.4197136461734772
visibility: 0.9493794441223145
","x: 296.402587890625
y: 249.00543212890625
z: -0.19721536338329315
visibility: 0.8794317245483398
","x: 239.933349609375
y: 241.50076293945312
z: -0.3938080668449402
visibility: 0.9330130219459534
","x: 280.26556396484375
y: 368.998046875
z: 0.056937407702207565
visibility: 0.9986675381660461
","x: 259.0862731933594
y: 370.73077392578125
z: -0.05708840489387512
visibility: 0.9988849759101868
","x: 291.2801513671875
y: 454.15411376953125
z: -0.0030702734366059303
visibility: 0.8890262842178345
","x: 258.7069396972656
y: 459.9964599609375
z: -0.08015819638967514
visibility: 0.9607685804367065
","x: 280.3523864746094
y: 529.1312866210938
z: 0.1884309947490692
visibility: 0.9270403385162354
","x: 249.29185485839844
y: 531.6905517578125
z: 0.06761425733566284
visibility: 0.9571279287338257
","x: 274.1605224609375
y: 539.4422607421875
z: 0.20293059945106506
visibility: 0.8504387140274048
","x: 247.68405151367188
y: 542.3975219726562
z: 0.07789263874292374
visibility: 0.759447455406189
","x: 291.5066223144531
y: 548.75732421875
z: 0.11376519501209259
visibility: 0.9343135356903076
","x: 253.34146118164062
y: 553.2833251953125
z: -0.02192850038409233
visibility: 0.9470764994621277
","x: 234.76048278808594
y: 250.21669006347656
z: 0.0
","x: 240.2831268310547
y: 246.72314453125
z: 0.001174643635749817
","x: 244.05673217773438
y: 242.86746215820312
z: -0.00013051867426838726
","x: 247.05528259277344
y: 240.93109130859375
z: -0.0024513290263712406
","x: 249.21109008789062
y: 240.0701904296875
z: -0.00417311629280448
","x: 241.34616088867188
y: 228.94863891601562
z: -0.00045786972623318434
","x: 246.10865783691406
y: 231.75067138671875
z: -0.0032451620791107416
","x: 247.46624755859375
y: 236.60549926757812
z: -0.004552462603896856
","x: 247.64491271972656
y: 239.78314208984375
z: -0.005163867026567459
","x: 239.64324951171875
y: 229.21536254882812
z: -0.0032513996120542288
","x: 244.55870056152344
y: 233.86203002929688
z: -0.005783687811344862
","x: 245.13113403320312
y: 239.01380920410156
z: -0.005305729806423187
","x: 244.4217987060547
y: 242.0880126953125
z: -0.004934379365295172
","x: 238.0682830810547
y: 231.62008666992188
z: -0.006162813398987055
","x: 242.56265258789062
y: 236.30799865722656
z: -0.008348459377884865
","x: 242.92514038085938
y: 240.71109008789062
z: -0.006571490783244371
","x: 242.26390075683594
y: 243.33563232421875
z: -0.005229421425610781
","x: 236.83456420898438
y: 235.46725463867188
z: -0.009281571954488754
","x: 240.08763122558594
y: 238.346435546875
z: -0.010602539405226707
","x: 240.68727111816406
y: 241.67819213867188
z: -0.009053031913936138
","x: 240.39060974121094
y: 244.08570861816406
z: -0.0076535968109965324
",,,,,,,,,,,,,,,,,,,,,
20,"x: 274.56341552734375
y: 215.50294494628906
z: -0.23331841826438904
visibility: 0.9999603033065796
","x: 275.55224609375
y: 209.25743103027344
z: -0.20695945620536804
visibility: 0.9999113082885742
","x: 276.38470458984375
y: 209.72215270996094
z: -0.20694127678871155
visibility: 0.9998744130134583
","x: 277.2473449707031
y: 210.19593811035156
z: -0.2069806307554245
visibility: 0.9998530745506287
","x: 272.2427978515625
y: 207.87339782714844
z: -0.22266164422035217
visibility: 0.9999369382858276
","x: 270.6305236816406
y: 207.40203857421875
z: -0.222690150141716
visibility: 0.9999272227287292
","x: 268.9985046386719
y: 207.06494140625
z: -0.22271080315113068
visibility: 0.999936044216156
","x: 275.98785400390625
y: 214.4688262939453
z: -0.06542214751243591
visibility: 0.9993493556976318
","x: 264.21929931640625
y: 210.61073303222656
z: -0.14072737097740173
visibility: 0.9998903274536133
","x: 274.79296875
y: 223.58071899414062
z: -0.18086501955986023
visibility: 0.9997538924217224
","x: 270.6206970214844
y: 222.35574340820312
z: -0.2025337964296341
visibility: 0.9998988509178162
","x: 281.813232421875
y: 261.40283203125
z: 0.04146335646510124
visibility: 0.9995404481887817
","x: 247.31466674804688
y: 254.26852416992188
z: -0.10457716882228851
visibility: 0.9998881220817566
","x: 300.368896484375
y: 310.15521240234375
z: -0.021241549402475357
visibility: 0.8520060181617737
","x: 225.9857635498047
y: 296.8975830078125
z: -0.23880954086780548
visibility: 0.9857112765312195
","x: 298.820068359375
y: 260.19097900390625
z: -0.19767430424690247
visibility: 0.9144300818443298
","x: 234.963134765625
y: 250.67138671875
z: -0.39729803800582886
visibility: 0.9746835827827454
","x: 298.5440673828125
y: 249.84652709960938
z: -0.22883358597755432
visibility: 0.8982589840888977
","x: 237.2587127685547
y: 237.4398193359375
z: -0.4333948493003845
visibility: 0.9489043951034546
","x: 297.1845397949219
y: 244.9836883544922
z: -0.21614575386047363
visibility: 0.9043183326721191
","x: 239.4096221923828
y: 236.9038543701172
z: -0.4197136461734772
visibility: 0.9493794441223145
","x: 296.402587890625
y: 249.00543212890625
z: -0.19721536338329315
visibility: 0.8794317245483398
","x: 239.933349609375
y: 241.50076293945312
z: -0.3938080668449402
visibility: 0.9330130219459534
","x: 280.26556396484375
y: 368.998046875
z: 0.056937407702207565
visibility: 0.9986675381660461
","x: 259.0862731933594
y: 370.73077392578125
z: -0.05708840489387512
visibility: 0.9988849759101868
","x: 291.2801513671875
y: 454.15411376953125
z: -0.0030702734366059303
visibility: 0.8890262842178345
","x: 258.7069396972656
y: 459.9964599609375
z: -0.08015819638967514
visibility: 0.9607685804367065
","x: 280.3523864746094
y: 529.1312866210938
z: 0.1884309947490692
visibility: 0.9270403385162354
","x: 249.29185485839844
y: 531.6905517578125
z: 0.06761425733566284
visibility: 0.9571279287338257
","x: 274.1605224609375
y: 539.4422607421875
z: 0.20293059945106506
visibility: 0.8504387140274048
","x: 247.68405151367188
y: 542.3975219726562
z: 0.07789263874292374
visibility: 0.759447455406189
","x: 291.5066223144531
y: 548.75732421875
z: 0.11376519501209259
visibility: 0.9343135356903076
","x: 253.34146118164062
y: 553.2833251953125
z: -0.02192850038409233
visibility: 0.9470764994621277
","x: 234.76048278808594
y: 250.21669006347656
z: 0.0
","x: 240.2831268310547
y: 246.72314453125
z: 0.001174643635749817
","x: 244.05673217773438
y: 242.86746215820312
z: -0.00013051867426838726
","x: 247.05528259277344
y: 240.93109130859375
z: -0.0024513290263712406
","x: 249.21109008789062
y: 240.0701904296875
z: -0.00417311629280448
","x: 241.34616088867188
y: 228.94863891601562
z: -0.00045786972623318434
","x: 246.10865783691406
y: 231.75067138671875
z: -0.0032451620791107416
","x: 247.46624755859375
y: 236.60549926757812
z: -0.004552462603896856
","x: 247.64491271972656
y: 239.78314208984375
z: -0.005163867026567459
","x: 239.64324951171875
y: 229.21536254882812
z: -0.0032513996120542288
","x: 244.55870056152344
y: 233.86203002929688
z: -0.005783687811344862
","x: 245.13113403320312
y: 239.01380920410156
z: -0.005305729806423187
","x: 244.4217987060547
y: 242.0880126953125
z: -0.004934379365295172
","x: 238.0682830810547
y: 231.62008666992188
z: -0.006162813398987055
","x: 242.56265258789062
y: 236.30799865722656
z: -0.008348459377884865
","x: 242.92514038085938
y: 240.71109008789062
z: -0.006571490783244371
","x: 242.26390075683594
y: 243.33563232421875
z: -0.005229421425610781
","x: 236.83456420898438
y: 235.46725463867188
z: -0.009281571954488754
","x: 240.08763122558594
y: 238.346435546875
z: -0.010602539405226707
","x: 240.68727111816406
y: 241.67819213867188
z: -0.009053031913936138
","x: 240.39060974121094
y: 244.08570861816406
z: -0.0076535968109965324
",,,,,,,,,,,,,,,,,,,,,
21,"x: 274.9136047363281
y: 219.58868408203125
z: -0.22541923820972443
visibility: 0.9999628663063049
","x: 276.5912780761719
y: 213.841796875
z: -0.19631758332252502
visibility: 0.999918520450592
","x: 277.75946044921875
y: 214.26556396484375
z: -0.19629265367984772
visibility: 0.9998844265937805
","x: 278.9002380371094
y: 214.62646484375
z: -0.19633318483829498
visibility: 0.9998654723167419
","x: 272.4412841796875
y: 212.69314575195312
z: -0.2093319445848465
visibility: 0.9999418258666992
","x: 270.63714599609375
y: 212.32699584960938
z: -0.20937314629554749
visibility: 0.9999328851699829
","x: 269.2400817871094
y: 212.01544189453125
z: -0.20942644774913788
visibility: 0.9999411106109619
","x: 279.50689697265625
y: 218.744873046875
z: -0.053963370621204376
visibility: 0.9994071125984192
","x: 266.0140686035156
y: 216.04855346679688
z: -0.11190018802881241
visibility: 0.9999002814292908
","x: 276.36114501953125
y: 227.86988830566406
z: -0.17083659768104553
visibility: 0.9997773170471191
","x: 271.17535400390625
y: 227.18960571289062
z: -0.19003120064735413
visibility: 0.9999085664749146
","x: 287.44427490234375
y: 266.93255615234375
z: 0.045485544949769974
visibility: 0.9995725154876709
","x: 251.63851928710938
y: 263.6959533691406
z: -0.08054588735103607
visibility: 0.9998941421508789
","x: 302.0713195800781
y: 317.03143310546875
z: -0.04700716957449913
visibility: 0.8618079423904419
","x: 226.42120361328125
y: 299.3307800292969
z: -0.20187394320964813
visibility: 0.986946702003479
","x: 298.48712158203125
y: 270.18408203125
z: -0.27214017510414124
visibility: 0.9207877516746521
","x: 249.50575256347656
y: 276.4307556152344
z: -0.3796512484550476
visibility: 0.9764633178710938
","x: 298.54571533203125
y: 267.205322265625
z: -0.31320688128471375
visibility: 0.9033606052398682
","x: 255.03175354003906
y: 270.3614196777344
z: -0.41877907514572144
visibility: 0.9512445330619812
","x: 297.0392761230469
y: 263.25579833984375
z: -0.3046490550041199
visibility: 0.9085962176322937
","x: 257.78973388671875
y: 269.5208740234375
z: -0.40468207001686096
visibility: 0.951270580291748
","x: 296.112060546875
y: 264.9563903808594
z: -0.27480465173721313
visibility: 0.8835765719413757
","x: 256.6501770019531
y: 271.3502197265625
z: -0.3757146894931793
visibility: 0.9347967505455017
","x: 283.8626403808594
y: 376.21905517578125
z: 0.05486970394849777
visibility: 0.9987817406654358
","x: 262.35723876953125
y: 377.59326171875
z: -0.05501638725399971
visibility: 0.9989701509475708
","x: 292.5339660644531
y: 459.4905090332031
z: -0.00453124288469553
visibility: 0.8977895975112915
","x: 262.30230712890625
y: 463.3717346191406
z: -0.09444452822208405
visibility: 0.963699460029602
","x: 278.85699462890625
y: 529.0443725585938
z: 0.22684940695762634
visibility: 0.9302393198013306
","x: 249.651123046875
y: 530.59033203125
z: 0.09858020395040512
visibility: 0.9598402976989746
","x: 274.6932678222656
y: 539.3355712890625
z: 0.24571330845355988
visibility: 0.8523330688476562
","x: 247.53439331054688
y: 541.2137451171875
z: 0.11638748645782471
visibility: 0.7670301198959351
","x: 289.6944274902344
y: 548.6845703125
z: 0.1582789123058319
visibility: 0.9364226460456848
","x: 255.4061737060547
y: 554.0853271484375
z: 0.010008892975747585
visibility: 0.9502508044242859
",,,,,,,,,,,,,,,,,,,,,,,,,,,,,,,,,,,,,,,,,,
22,"x: 277.01824951171875
y: 226.46995544433594
z: -0.18121573328971863
visibility: 0.9999642968177795
","x: 278.91741943359375
y: 221.0752716064453
z: -0.15493658185005188
visibility: 0.9999238848686218
","x: 280.21978759765625
y: 221.4183349609375
z: -0.1549282968044281
visibility: 0.9998911619186401
","x: 281.23828125
y: 221.78402709960938
z: -0.15492388606071472
visibility: 0.9998742938041687
","x: 274.87994384765625
y: 219.7526397705078
z: -0.16455399990081787
visibility: 0.9999455213546753
","x: 273.1170654296875
y: 218.9836883544922
z: -0.16456446051597595
visibility: 0.999937117099762
","x: 271.8974914550781
y: 218.15469360351562
z: -0.16455429792404175
visibility: 0.9999451041221619
","x: 281.5896911621094
y: 225.26348876953125
z: -0.020159266889095306
visibility: 0.9994549751281738
","x: 268.4063720703125
y: 221.1514434814453
z: -0.06570889055728912
visibility: 0.999908447265625
","x: 277.9769592285156
y: 234.94403076171875
z: -0.13160651922225952
visibility: 0.9997978806495667
","x: 273.2903747558594
y: 233.63182067871094
z: -0.1451154351234436
visibility: 0.9999170899391174
","x: 289.05792236328125
y: 269.996337890625
z: 0.0614863857626915
visibility: 0.9996023178100586
","x: 252.65794372558594
y: 267.640625
z: -0.039876002818346024
visibility: 0.9999003410339355
","x: 302.8616638183594
y: 321.4530029296875
z: -0.025396492332220078
visibility: 0.8717077374458313
","x: 234.24365234375
y: 304.39581298828125
z: -0.16697420179843903
visibility: 0.9880468249320984
","x: 293.0671081542969
y: 301.8035583496094
z: -0.26013848185539246
visibility: 0.9258468151092529
","x: 261.398681640625
y: 293.51513671875
z: -0.3256448209285736
visibility: 0.9783812165260315
","x: 291.7670593261719
y: 299.32952880859375
z: -0.3050045669078827
visibility: 0.9069233536720276
","x: 269.18609619140625
y: 291.4419250488281
z: -0.36337655782699585
visibility: 0.9546958804130554
","x: 290.21600341796875
y: 295.5550842285156
z: -0.28901946544647217
visibility: 0.9112787246704102
","x: 270.7108154296875
y: 286.9759826660156
z: -0.36099106073379517
visibility: 0.9545377492904663
","x: 289.53753662109375
y: 296.2698059082031
z: -0.2580600380897522
