uscmakers/ReverseChoreography/data/8_lite_spots_kaytranada.csv
,NOSE,LEFT_EYE_INNER,LEFT_EYE,LEFT_EYE_OUTER,RIGHT_EYE_INNER,RIGHT_EYE,RIGHT_EYE_OUTER,LEFT_EAR,RIGHT_EAR,MOUTH_LEFT,MOUTH_RIGHT,LEFT_SHOULDER,RIGHT_SHOULDER,LEFT_ELBOW,RIGHT_ELBOW,LEFT_WRIST,RIGHT_WRIST,LEFT_PINKY,RIGHT_PINKY,LEFT_INDEX,RIGHT_INDEX,LEFT_THUMB,RIGHT_THUMB,LEFT_HIP,RIGHT_HIP,LEFT_KNEE,RIGHT_KNEE,LEFT_ANKLE,RIGHT_ANKLE,LEFT_HEEL,RIGHT_HEEL,LEFT_FOOT_INDEX,RIGHT_FOOT_INDEX,WRIST,THUMB_CPC,THUMB_MCP,THUMB_IP,THUMB_TIP,INDEX_FINGER_MCP,INDEX_FINGER_PIP,INDEX_FINGER_DIP,INDEX_FINGER_TIP,MIDDLE_FINGER_MCP,MIDDLE_FINGER_PIP,MIDDLE_FINGER_DIP,MIDDLE_FINGER_TIP,RING_FINGER_PIP,RING_FINGER_DIP,RING_FINGER_TIP,RING_FINGER_MCP,PINKY_MCP,PINKY_PIP,PINKY_DIP,PINKY_TIP,WRIST2,THUMB_CPC2,THUMB_MCP2,THUMB_IP2,THUMB_TIP2,INDEX_FINGER_MCP2,INDEX_FINGER_PIP2,INDEX_FINGER_DIP2,INDEX_FINGER_TIP2,MIDDLE_FINGER_MCP2,MIDDLE_FINGER_PIP2,MIDDLE_FINGER_DIP2,MIDDLE_FINGER_TIP2,RING_FINGER_PIP2,RING_FINGER_DIP2,RING_FINGER_TIP2,RING_FINGER_MCP2,PINKY_MCP2,PINKY_PIP2,PINKY_DIP2,PINKY_TIP2
0,"x: 265.1137390136719
y: 205.8987579345703
z: -0.1674487590789795
visibility: 0.999992847442627
","x: 267.83795166015625
y: 198.02748107910156
z: -0.1497999131679535
visibility: 0.9999887943267822
","x: 269.9778747558594
y: 198.13845825195312
z: -0.14986370503902435
visibility: 0.9999878406524658
","x: 271.539794921875
y: 198.3534393310547
z: -0.1498904526233673
visibility: 0.9999880790710449
","x: 262.2786560058594
y: 198.14688110351562
z: -0.14674867689609528
visibility: 0.9999830722808838
","x: 260.5857238769531
y: 198.38970947265625
z: -0.14673572778701782
visibility: 0.999976634979248
","x: 258.9767150878906
y: 198.5894012451172
z: -0.14670278131961823
visibility: 0.999975323677063
","x: 274.74176025390625
y: 203.8483428955078
z: -0.039222754538059235
visibility: 0.9999743700027466
","x: 257.3697814941406
y: 204.6312713623047
z: -0.027658920735120773
visibility: 0.9999446868896484
","x: 268.64556884765625
y: 215.87197875976562
z: -0.12658867239952087
visibility: 0.9999847412109375
","x: 261.537109375
y: 216.04898071289062
z: -0.12317299842834473
visibility: 0.9999774694442749
","x: 286.5647888183594
y: 256.54925537109375
z: 0.024781763553619385
visibility: 0.9999406337738037
","x: 247.27438354492188
y: 252.6664581298828
z: 0.04487825185060501
visibility: 0.9997952580451965
","x: 291.8299255371094
y: 317.8981628417969
z: -0.09953488409519196
visibility: 0.9847500324249268
","x: 233.35597229003906
y: 314.81597900390625
z: -0.049824059009552
visibility: 0.9247774481773376
","x: 299.186279296875
y: 279.49908447265625
z: -0.3348759412765503
visibility: 0.9950608611106873
","x: 229.21426391601562
y: 274.48529052734375
z: -0.29193004965782166
visibility: 0.9750076532363892
","x: 301.2046203613281
y: 271.782470703125
z: -0.37895745038986206
visibility: 0.986713171005249
","x: 228.6148681640625
y: 263.43780517578125
z: -0.3356289863586426
visibility: 0.9517472386360168
","x: 301.27386474609375
y: 267.4482421875
z: -0.37999430298805237
visibility: 0.9867863059043884
","x: 228.7075653076172
y: 259.142333984375
z: -0.33938148617744446
visibility: 0.9507684111595154
","x: 299.8662109375
y: 268.9065246582031
z: -0.34082862734794617
visibility: 0.9787344932556152
","x: 229.71234130859375
y: 261.9808044433594
z: -0.3001663386821747
visibility: 0.9333904981613159
","x: 270.9320983886719
y: 367.521240234375
z: 0.0031938112806528807
visibility: 0.9996315240859985
","x: 247.54371643066406
y: 360.6703186035156
z: -0.0032191374339163303
visibility: 0.9996057152748108
","x: 264.6809387207031
y: 459.8802185058594
z: 0.006895263679325581
visibility: 0.989043116569519
","x: 237.96420288085938
y: 455.940185546875
z: -0.022968513891100883
visibility: 0.9936611652374268
","x: 261.3967590332031
y: 541.7760009765625
z: 0.1431819647550583
visibility: 0.990548312664032
","x: 228.18515014648438
y: 537.103515625
z: 0.10853077471256256
visibility: 0.9934276938438416
","x: 257.8585205078125
y: 550.4669189453125
z: 0.14958108961582184
visibility: 0.9330642819404602
","x: 229.5868377685547
y: 547.8331909179688
z: 0.11393992602825165
visibility: 0.8777952194213867
","x: 267.4698181152344
y: 563.3605346679688
z: 0.023458844050765038
visibility: 0.9863755106925964
","x: 222.94175720214844
y: 562.1385498046875
z: -0.018954455852508545
visibility: 0.9879667162895203
","x: 230.97857666015625
y: 272.9864807128906
z: 0.0
","x: 233.2017364501953
y: 267.2900390625
z: -0.0002845157578121871
","x: 234.8557891845703
y: 262.7381896972656
z: -0.00206997012719512
","x: 235.49302673339844
y: 260.18109130859375
z: -0.004857468884438276
","x: 235.3611602783203
y: 259.3039245605469
z: -0.007091004867106676
","x: 231.3915557861328
y: 253.3990478515625
z: -0.0007203895365819335
","x: 232.10501098632812
y: 250.65711975097656
z: -0.004062569234520197
","x: 233.1482696533203
y: 255.34490966796875
z: -0.005377149675041437
","x: 233.3231964111328
y: 259.00732421875
z: -0.005842477083206177
","x: 229.25485229492188
y: 254.36968994140625
z: -0.0030014431104063988
","x: 229.911376953125
y: 252.23733520507812
z: -0.006413737777620554
","x: 231.15542602539062
y: 257.48040771484375
z: -0.006436304654926062
","x: 231.3734130859375
y: 261.20965576171875
z: -0.005833492148667574
","x: 227.20143127441406
y: 256.57818603515625
z: -0.005708057899028063
","x: 227.76632690429688
y: 254.9470672607422
z: -0.008391243405640125
","x: 229.28536987304688
y: 259.587158203125
z: -0.007036600261926651
","x: 229.8309326171875
y: 262.7380065917969
z: -0.005644236225634813
","x: 225.28701782226562
y: 259.69256591796875
z: -0.008768453262746334
","x: 225.75282287597656
y: 258.52069091796875
z: -0.00979536958038807
","x: 227.26065063476562
y: 261.2827453613281
z: -0.008603163994848728
","x: 228.08200073242188
y: 263.3706359863281
z: -0.007383787073194981
","x: 297.0832824707031
y: 284.5980224609375
z: 0.0
","x: 295.6131286621094
y: 276.8627624511719
z: 0.00036030440242029727
","x: 295.5544738769531
y: 270.2584228515625
z: -0.00048052449710667133
","x: 296.7936706542969
y: 266.6944580078125
z: -0.002291403478011489
","x: 298.26275634765625
y: 265.9252624511719
z: -0.003683772636577487
","x: 298.92132568359375
y: 266.4205627441406
z: 0.0007381269242614508
","x: 299.7525329589844
y: 261.914794921875
z: -0.0025100905913859606
","x: 298.3944396972656
y: 263.72314453125
z: -0.004024810157716274
","x: 297.205810546875
y: 266.8750915527344
z: -0.004502969328314066
","x: 300.70745849609375
y: 268.4887390136719
z: -0.0014255793066695333
","x: 301.0810546875
y: 265.0076904296875
z: -0.005147557705640793
","x: 299.457275390625
y: 268.50537109375
z: -0.005857235286384821
","x: 298.3002624511719
y: 272.5309753417969
z: -0.0054983473382890224
","x: 302.30816650390625
y: 271.3595886230469
z: -0.004034451674669981
","x: 302.23712158203125
y: 268.615478515625
z: -0.006901546381413937
","x: 300.6154479980469
y: 271.62078857421875
z: -0.005996055901050568
","x: 299.4341735839844
y: 274.7581787109375
z: -0.004722199868410826
","x: 303.6372375488281
y: 274.9141845703125
z: -0.006944311782717705
","x: 303.3948669433594
y: 272.2492980957031
z: -0.008368537761271
","x: 301.8729248046875
y: 274.011474609375
z: -0.007497027050703764
","x: 300.6384582519531
y: 276.3831787109375
z: -0.006376937497407198
"
1,"x: 265.1137390136719
y: 205.8987579345703
z: -0.1674487590789795
visibility: 0.999992847442627
","x: 267.83795166015625
y: 198.02748107910156
z: -0.1497999131679535
visibility: 0.9999887943267822
","x: 269.9778747558594
y: 198.13845825195312
z: -0.14986370503902435
visibility: 0.9999878406524658
","x: 271.539794921875
y: 198.3534393310547
z: -0.1498904526233673
visibility: 0.9999880790710449
","x: 262.2786560058594
y: 198.14688110351562
z: -0.14674867689609528
visibility: 0.9999830722808838
","x: 260.5857238769531
y: 198.38970947265625
z: -0.14673572778701782
visibility: 0.999976634979248
","x: 258.9767150878906
y: 198.5894012451172
z: -0.14670278131961823
visibility: 0.999975323677063
","x: 274.74176025390625
y: 203.8483428955078
z: -0.039222754538059235
visibility: 0.9999743700027466
","x: 257.3697814941406
y: 204.6312713623047
z: -0.027658920735120773
visibility: 0.9999446868896484
","x: 268.64556884765625
y: 215.87197875976562
z: -0.12658867239952087
visibility: 0.9999847412109375
","x: 261.537109375
y: 216.04898071289062
z: -0.12317299842834473
visibility: 0.9999774694442749
","x: 286.5647888183594
y: 256.54925537109375
z: 0.024781763553619385
visibility: 0.9999406337738037
","x: 247.27438354492188
y: 252.6664581298828
z: 0.04487825185060501
visibility: 0.9997952580451965
","x: 291.8299255371094
y: 317.8981628417969
z: -0.09953488409519196
visibility: 0.9847500324249268
","x: 233.35597229003906
y: 314.81597900390625
z: -0.049824059009552
visibility: 0.9247774481773376
","x: 299.186279296875
y: 279.49908447265625
z: -0.3348759412765503
visibility: 0.9950608611106873
","x: 229.21426391601562
y: 274.48529052734375
z: -0.29193004965782166
visibility: 0.9750076532363892
","x: 301.2046203613281
y: 271.782470703125
z: -0.37895745038986206
visibility: 0.986713171005249
","x: 228.6148681640625
y: 263.43780517578125
z: -0.3356289863586426
visibility: 0.9517472386360168
","x: 301.27386474609375
y: 267.4482421875
z: -0.37999430298805237
visibility: 0.9867863059043884
","x: 228.7075653076172
y: 259.142333984375
z: -0.33938148617744446
visibility: 0.9507684111595154
","x: 299.8662109375
y: 268.9065246582031
z: -0.34082862734794617
visibility: 0.9787344932556152
","x: 229.71234130859375
y: 261.9808044433594
z: -0.3001663386821747
visibility: 0.9333904981613159
","x: 270.9320983886719
y: 367.521240234375
z: 0.0031938112806528807
visibility: 0.9996315240859985
","x: 247.54371643066406
y: 360.6703186035156
z: -0.0032191374339163303
visibility: 0.9996057152748108
","x: 264.6809387207031
y: 459.8802185058594
z: 0.006895263679325581
visibility: 0.989043116569519
","x: 237.96420288085938
y: 455.940185546875
z: -0.022968513891100883
visibility: 0.9936611652374268
","x: 261.3967590332031
y: 541.7760009765625
z: 0.1431819647550583
visibility: 0.990548312664032
","x: 228.18515014648438
y: 537.103515625
z: 0.10853077471256256
visibility: 0.9934276938438416
","x: 257.8585205078125
y: 550.4669189453125
z: 0.14958108961582184
visibility: 0.9330642819404602
","x: 229.5868377685547
y: 547.8331909179688
z: 0.11393992602825165
visibility: 0.8777952194213867
","x: 267.4698181152344
y: 563.3605346679688
z: 0.023458844050765038
visibility: 0.9863755106925964
","x: 222.94175720214844
y: 562.1385498046875
z: -0.018954455852508545
visibility: 0.9879667162895203
","x: 230.97857666015625
y: 272.9864807128906
z: 0.0
","x: 233.2017364501953
y: 267.2900390625
z: -0.0002845157578121871
","x: 234.8557891845703
y: 262.7381896972656
z: -0.00206997012719512
","x: 235.49302673339844
y: 260.18109130859375
z: -0.004857468884438276
","x: 235.3611602783203
y: 259.3039245605469
z: -0.007091004867106676
","x: 231.3915557861328
y: 253.3990478515625
z: -0.0007203895365819335
","x: 232.10501098632812
y: 250.65711975097656
z: -0.004062569234520197
","x: 233.1482696533203
y: 255.34490966796875
z: -0.005377149675041437
","x: 233.3231964111328
y: 259.00732421875
z: -0.005842477083206177
","x: 229.25485229492188
y: 254.36968994140625
z: -0.0030014431104063988
","x: 229.911376953125
y: 252.23733520507812
z: -0.006413737777620554
","x: 231.15542602539062
y: 257.48040771484375
z: -0.006436304654926062
","x: 231.3734130859375
y: 261.20965576171875
z: -0.005833492148667574
","x: 227.20143127441406
y: 256.57818603515625
z: -0.005708057899028063
","x: 227.76632690429688
y: 254.9470672607422
z: -0.008391243405640125
","x: 229.28536987304688
y: 259.587158203125
z: -0.007036600261926651
","x: 229.8309326171875
y: 262.7380065917969
z: -0.005644236225634813
","x: 225.28701782226562
y: 259.69256591796875
z: -0.008768453262746334
","x: 225.75282287597656
y: 258.52069091796875
z: -0.00979536958038807
","x: 227.26065063476562
y: 261.2827453613281
z: -0.008603163994848728
","x: 228.08200073242188
y: 263.3706359863281
z: -0.007383787073194981
","x: 297.0832824707031
y: 284.5980224609375
z: 0.0
","x: 295.6131286621094
y: 276.8627624511719
z: 0.00036030440242029727
","x: 295.5544738769531
y: 270.2584228515625
z: -0.00048052449710667133
","x: 296.7936706542969
y: 266.6944580078125
z: -0.002291403478011489
","x: 298.26275634765625
y: 265.9252624511719
z: -0.003683772636577487
","x: 298.92132568359375
y: 266.4205627441406
z: 0.0007381269242614508
","x: 299.7525329589844
y: 261.914794921875
z: -0.0025100905913859606
","x: 298.3944396972656
y: 263.72314453125
z: -0.004024810157716274
","x: 297.205810546875
y: 266.8750915527344
z: -0.004502969328314066
","x: 300.70745849609375
y: 268.4887390136719
z: -0.0014255793066695333
","x: 301.0810546875
y: 265.0076904296875
z: -0.005147557705640793
","x: 299.457275390625
y: 268.50537109375
z: -0.005857235286384821
","x: 298.3002624511719
y: 272.5309753417969
z: -0.0054983473382890224
","x: 302.30816650390625
y: 271.3595886230469
z: -0.004034451674669981
","x: 302.23712158203125
y: 268.615478515625
z: -0.006901546381413937
","x: 300.6154479980469
y: 271.62078857421875
z: -0.005996055901050568
","x: 299.4341735839844
y: 274.7581787109375
z: -0.004722199868410826
","x: 303.6372375488281
y: 274.9141845703125
z: -0.006944311782717705
","x: 303.3948669433594
y: 272.2492980957031
z: -0.008368537761271
","x: 301.8729248046875
y: 274.011474609375
z: -0.007497027050703764
","x: 300.6384582519531
y: 276.3831787109375
z: -0.006376937497407198
"
2,"x: 265.1137390136719
y: 205.8987579345703
z: -0.1674487590789795
visibility: 0.999992847442627
","x: 267.83795166015625
y: 198.02748107910156
z: -0.1497999131679535
visibility: 0.9999887943267822
","x: 269.9778747558594
y: 198.13845825195312
z: -0.14986370503902435
visibility: 0.9999878406524658
","x: 271.539794921875
y: 198.3534393310547
z: -0.1498904526233673
visibility: 0.9999880790710449
","x: 262.2786560058594
y: 198.14688110351562
z: -0.14674867689609528
visibility: 0.9999830722808838
","x: 260.5857238769531
y: 198.38970947265625
z: -0.14673572778701782
visibility: 0.999976634979248
","x: 258.9767150878906
y: 198.5894012451172
z: -0.14670278131961823
visibility: 0.999975323677063
","x: 274.74176025390625
y: 203.8483428955078
z: -0.039222754538059235
visibility: 0.9999743700027466
","x: 257.3697814941406
y: 204.6312713623047
z: -0.027658920735120773
visibility: 0.9999446868896484
","x: 268.64556884765625
y: 215.87197875976562
z: -0.12658867239952087
visibility: 0.9999847412109375
","x: 261.537109375
y: 216.04898071289062
z: -0.12317299842834473
visibility: 0.9999774694442749
","x: 286.5647888183594
y: 256.54925537109375
z: 0.024781763553619385
visibility: 0.9999406337738037
","x: 247.27438354492188
y: 252.6664581298828
z: 0.04487825185060501
visibility: 0.9997952580451965
","x: 291.8299255371094
y: 317.8981628417969
z: -0.09953488409519196
visibility: 0.9847500324249268
","x: 233.35597229003906
y: 314.81597900390625
z: -0.049824059009552
visibility: 0.9247774481773376
","x: 299.186279296875
y: 279.49908447265625
z: -0.3348759412765503
visibility: 0.9950608611106873
","x: 229.21426391601562
y: 274.48529052734375
z: -0.29193004965782166
visibility: 0.9750076532363892
","x: 301.2046203613281
y: 271.782470703125
z: -0.37895745038986206
visibility: 0.986713171005249
","x: 228.6148681640625
y: 263.43780517578125
z: -0.3356289863586426
visibility: 0.9517472386360168
","x: 301.27386474609375
y: 267.4482421875
z: -0.37999430298805237
visibility: 0.9867863059043884
","x: 228.7075653076172
y: 259.142333984375
z: -0.33938148617744446
visibility: 0.9507684111595154
","x: 299.8662109375
y: 268.9065246582031
z: -0.34082862734794617
visibility: 0.9787344932556152
","x: 229.71234130859375
y: 261.9808044433594
z: -0.3001663386821747
visibility: 0.9333904981613159
","x: 270.9320983886719
y: 367.521240234375
z: 0.0031938112806528807
visibility: 0.9996315240859985
","x: 247.54371643066406
y: 360.6703186035156
z: -0.0032191374339163303
visibility: 0.9996057152748108
","x: 264.6809387207031
y: 459.8802185058594
z: 0.006895263679325581
visibility: 0.989043116569519
","x: 237.96420288085938
y: 455.940185546875
z: -0.022968513891100883
visibility: 0.9936611652374268
","x: 261.3967590332031
y: 541.7760009765625
z: 0.1431819647550583
visibility: 0.990548312664032
","x: 228.18515014648438
y: 537.103515625
z: 0.10853077471256256
visibility: 0.9934276938438416
","x: 257.8585205078125
y: 550.4669189453125
z: 0.14958108961582184
visibility: 0.9330642819404602
","x: 229.5868377685547
y: 547.8331909179688
z: 0.11393992602825165
visibility: 0.8777952194213867
","x: 267.4698181152344
y: 563.3605346679688
z: 0.023458844050765038
visibility: 0.9863755106925964
","x: 222.94175720214844
y: 562.1385498046875
z: -0.018954455852508545
visibility: 0.9879667162895203
","x: 230.97857666015625
y: 272.9864807128906
z: 0.0
","x: 233.2017364501953
y: 267.2900390625
z: -0.0002845157578121871
","x: 234.8557891845703
y: 262.7381896972656
z: -0.00206997012719512
","x: 235.49302673339844
y: 260.18109130859375
z: -0.004857468884438276
","x: 235.3611602783203
y: 259.3039245605469
z: -0.007091004867106676
","x: 231.3915557861328
y: 253.3990478515625
z: -0.0007203895365819335
","x: 232.10501098632812
y: 250.65711975097656
z: -0.004062569234520197
","x: 233.1482696533203
y: 255.34490966796875
z: -0.005377149675041437
","x: 233.3231964111328
y: 259.00732421875
z: -0.005842477083206177
","x: 229.25485229492188
y: 254.36968994140625
z: -0.0030014431104063988
","x: 229.911376953125
y: 252.23733520507812
z: -0.006413737777620554
","x: 231.15542602539062
y: 257.48040771484375
z: -0.006436304654926062
","x: 231.3734130859375
y: 261.20965576171875
z: -0.005833492148667574
","x: 227.20143127441406
y: 256.57818603515625
z: -0.005708057899028063
","x: 227.76632690429688
y: 254.9470672607422
z: -0.008391243405640125
","x: 229.28536987304688
y: 259.587158203125
z: -0.007036600261926651
","x: 229.8309326171875
y: 262.7380065917969
z: -0.005644236225634813
","x: 225.28701782226562
y: 259.69256591796875
z: -0.008768453262746334
","x: 225.75282287597656
y: 258.52069091796875
z: -0.00979536958038807
","x: 227.26065063476562
y: 261.2827453613281
z: -0.008603163994848728
","x: 228.08200073242188
y: 263.3706359863281
z: -0.007383787073194981
","x: 297.0832824707031
y: 284.5980224609375
z: 0.0
","x: 295.6131286621094
y: 276.8627624511719
z: 0.00036030440242029727
","x: 295.5544738769531
y: 270.2584228515625
z: -0.00048052449710667133
","x: 296.7936706542969
y: 266.6944580078125
z: -0.002291403478011489
","x: 298.26275634765625
y: 265.9252624511719
z: -0.003683772636577487
","x: 298.92132568359375
y: 266.4205627441406
z: 0.0007381269242614508
","x: 299.7525329589844
y: 261.914794921875
z: -0.0025100905913859606
","x: 298.3944396972656
y: 263.72314453125
z: -0.004024810157716274
","x: 297.205810546875
y: 266.8750915527344
z: -0.004502969328314066
","x: 300.70745849609375
y: 268.4887390136719
z: -0.0014255793066695333
","x: 301.0810546875
y: 265.0076904296875
z: -0.005147557705640793
","x: 299.457275390625
y: 268.50537109375
z: -0.005857235286384821
","x: 298.3002624511719
y: 272.5309753417969
z: -0.0054983473382890224
","x: 302.30816650390625
y: 271.3595886230469
z: -0.004034451674669981
","x: 302.23712158203125
y: 268.615478515625
z: -0.006901546381413937
","x: 300.6154479980469
y: 271.62078857421875
z: -0.005996055901050568
","x: 299.4341735839844
y: 274.7581787109375
z: -0.004722199868410826
","x: 303.6372375488281
y: 274.9141845703125
z: -0.006944311782717705
","x: 303.3948669433594
y: 272.2492980957031
z: -0.008368537761271
","x: 301.8729248046875
y: 274.011474609375
z: -0.007497027050703764
","x: 300.6384582519531
y: 276.3831787109375
z: -0.006376937497407198
"
3,"x: 246.94273376464844
y: 205.7684326171875
z: -0.16748222708702087
visibility: 0.9999932646751404
","x: 250.1693572998047
y: 198.32525634765625
z: -0.14933158457279205
visibility: 0.9999895095825195
","x: 251.8444061279297
y: 198.86949157714844
z: -0.1493849903345108
visibility: 0.9999885559082031
","x: 253.46658325195312
y: 199.5548095703125
z: -0.14941024780273438
visibility: 0.9999887943267822
","x: 245.51039123535156
y: 197.79908752441406
z: -0.14920663833618164
visibility: 0.9999842047691345
","x: 243.9602508544922
y: 197.6072998046875
z: -0.14917632937431335
visibility: 0.9999781847000122
","x: 242.0207977294922
y: 197.30429077148438
z: -0.14912763237953186
visibility: 0.9999770522117615
","x: 255.08868408203125
y: 205.32579040527344
z: -0.0343783013522625
visibility: 0.9999760985374451
","x: 238.1788787841797
y: 202.4382781982422
z: -0.0457657054066658
visibility: 0.9999491572380066
","x: 248.7813720703125
y: 215.62059020996094
z: -0.12579432129859924
visibility: 0.9999858736991882
","x: 242.85035705566406
y: 214.7324981689453
z: -0.12679293751716614
visibility: 0.9999793767929077
","x: 261.32244873046875
y: 256.30401611328125
z: 0.029104888439178467
visibility: 0.9999452829360962
","x: 222.33604431152344
y: 250.86453247070312
z: 0.019030630588531494
visibility: 0.9998095631599426
","x: 268.58477783203125
y: 316.7606201171875
z: -0.06803562492132187
visibility: 0.9848488569259644
","x: 209.31846618652344
y: 310.2975769042969
z: -0.09155384451150894
visibility: 0.930533766746521
","x: 270.04937744140625
y: 277.8187255859375
z: -0.2860538363456726
visibility: 0.9951421618461609
","x: 223.20643615722656
y: 274.47491455078125
z: -0.3118211328983307
visibility: 0.97659832239151
","x: 273.6148376464844
y: 268.7237243652344
z: -0.32965099811553955
visibility: 0.9869748950004578
","x: 227.95211791992188
y: 263.5511169433594
z: -0.3546639084815979
visibility: 0.9542823433876038
","x: 274.1725158691406
y: 263.41754150390625
z: -0.32972607016563416
visibility: 0.9870142340660095
","x: 228.15797424316406
y: 258.6766662597656
z: -0.35015618801116943
visibility: 0.9532150030136108
","x: 271.72113037109375
y: 265.8442077636719
z: -0.29111286997795105
visibility: 0.979012668132782
","x: 227.93765258789062
y: 261.52392578125
z: -0.3142964541912079
visibility: 0.9363858103752136
","x: 252.81869506835938
y: 365.71099853515625
z: 0.004056188743561506
visibility: 0.9996474385261536
","x: 228.7097625732422
y: 361.7073974609375
z: -0.004101773723959923
visibility: 0.9996134638786316
","x: 260.4288024902344
y: 457.3160095214844
z: -0.001705431961454451
visibility: 0.9896742701530457
","x: 222.32693481445312
y: 453.889892578125
z: -0.015034815296530724
visibility: 0.9932041764259338
","x: 261.6856689453125
y: 537.44921875
z: 0.12998710572719574
visibility: 0.9907091856002808
","x: 217.31983947753906
y: 529.3890991210938
z: 0.14792044460773468
visibility: 0.9924111366271973
","x: 259.0516662597656
y: 547.4037475585938
z: 0.13581597805023193
visibility: 0.924074113368988
","x: 218.32308959960938
y: 540.866943359375
z: 0.15773560106754303
visibility: 0.8691766262054443
","x: 265.5305480957031
y: 561.66943359375
z: 0.0037445034831762314
visibility: 0.9863667488098145
","x: 212.8737030029297
y: 555.424072265625
z: 0.034666769206523895
visibility: 0.9866413474082947
","x: 222.53182983398438
y: 270.48028564453125
z: 0.0
","x: 226.93795776367188
y: 266.9698181152344
z: 0.0006818803958594799
","x: 230.09176635742188
y: 262.2411193847656
z: -0.0005386143457144499
","x: 232.42584228515625
y: 259.3919677734375
z: -0.002586586168035865
","x: 234.3017578125
y: 257.9057312011719
z: -0.00457737548276782
","x: 228.72555541992188
y: 253.0510711669922
z: -0.001495501957833767
","x: 230.66903686523438
y: 244.9881134033203
z: -0.0046615926548838615
","x: 232.2852783203125
y: 241.39315795898438
z: -0.006449094507843256
","x: 233.84034729003906
y: 239.1960906982422
z: -0.0075267888605594635
","x: 226.9202880859375
y: 252.71287536621094
z: -0.004314201418310404
","x: 228.42440795898438
y: 244.0087890625
z: -0.007174705620855093
","x: 230.09681701660156
y: 240.06658935546875
z: -0.008246648125350475
","x: 231.66940307617188
y: 237.61253356933594
z: -0.009075857698917389
","x: 225.106201171875
y: 254.07655334472656
z: -0.007346789818257093
","x: 225.79159545898438
y: 246.0924072265625
z: -0.01020266953855753
","x: 227.155029296875
y: 242.0042266845703
z: -0.011237767525017262
","x: 228.45571899414062
y: 239.4099578857422
z: -0.01196279190480709
","x: 223.43032836914062
y: 257.1783447265625
z: -0.01045937743037939
","x: 222.71287536621094
y: 251.50558471679688
z: -0.012678556144237518
","x: 222.7993621826172
y: 248.17401123046875
z: -0.013432390056550503
","x: 223.11753845214844
y: 245.9898223876953
z: -0.013982243835926056
","x: 268.3614196777344
y: 277.3125305175781
z: 0.0
","x: 266.3124084472656
y: 272.14263916015625
z: -0.002130057429894805
","x: 265.35162353515625
y: 266.44073486328125
z: -0.003922002390027046
","x: 265.7250671386719
y: 262.690673828125
z: -0.006181573960930109
","x: 266.85174560546875
y: 260.3583679199219
z: -0.008470623753964901
","x: 270.1735534667969
y: 257.6913146972656
z: -0.0006047929637134075
","x: 272.376220703125
y: 250.8943328857422
z: -0.0031844372861087322
","x: 273.57861328125
y: 247.020263671875
z: -0.00518833938986063
","x: 274.655029296875
y: 243.76731872558594
z: -0.006468862760812044
","x: 272.1363220214844
y: 258.9521789550781
z: -0.0020508216693997383
","x: 274.6132507324219
y: 251.64321899414062
z: -0.004259796347469091
","x: 275.95404052734375
y: 247.2844696044922
z: -0.006161403376609087
","x: 276.99249267578125
y: 243.48056030273438
z: -0.0075075444765388966
","x: 273.82763671875
y: 261.48992919921875
z: -0.004094146657735109
","x: 276.2610168457031
y: 254.73977661132812
z: -0.00652241799980402
","x: 277.496826171875
y: 250.43402099609375
z: -0.008182770572602749
","x: 278.3912658691406
y: 246.79296875
z: -0.009284546598792076
","x: 275.2381286621094
y: 265.2917785644531
z: -0.006566969677805901
","x: 277.5494384765625
y: 260.88568115234375
z: -0.008467622101306915
","x: 279.0276184082031
y: 258.18426513671875
z: -0.009429583325982094
","x: 280.22955322265625
y: 255.87759399414062
z: -0.010102237574756145
"
4,"x: 246.94273376464844
y: 205.7684326171875
z: -0.16748222708702087
visibility: 0.9999932646751404
","x: 250.1693572998047
y: 198.32525634765625
z: -0.14933158457279205
visibility: 0.9999895095825195
","x: 251.8444061279297
y: 198.86949157714844
z: -0.1493849903345108
visibility: 0.9999885559082031
","x: 253.46658325195312
y: 199.5548095703125
z: -0.14941024780273438
visibility: 0.9999887943267822
","x: 245.51039123535156
y: 197.79908752441406
z: -0.14920663833618164
visibility: 0.9999842047691345
","x: 243.9602508544922
y: 197.6072998046875
z: -0.14917632937431335
visibility: 0.9999781847000122
","x: 242.0207977294922
y: 197.30429077148438
z: -0.14912763237953186
visibility: 0.9999770522117615
","x: 255.08868408203125
y: 205.32579040527344
z: -0.0343783013522625
visibility: 0.9999760985374451
","x: 238.1788787841797
y: 202.4382781982422
z: -0.0457657054066658
visibility: 0.9999491572380066
","x: 248.7813720703125
y: 215.62059020996094
z: -0.12579432129859924
visibility: 0.9999858736991882
","x: 242.85035705566406
y: 214.7324981689453
z: -0.12679293751716614
visibility: 0.9999793767929077
","x: 261.32244873046875
y: 256.30401611328125
z: 0.029104888439178467
visibility: 0.9999452829360962
","x: 222.33604431152344
y: 250.86453247070312
z: 0.019030630588531494
visibility: 0.9998095631599426
","x: 268.58477783203125
y: 316.7606201171875
z: -0.06803562492132187
visibility: 0.9848488569259644
","x: 209.31846618652344
y: 310.2975769042969
z: -0.09155384451150894
visibility: 0.930533766746521
","x: 270.04937744140625
y: 277.8187255859375
z: -0.2860538363456726
visibility: 0.9951421618461609
","x: 223.20643615722656
y: 274.47491455078125
z: -0.3118211328983307
visibility: 0.97659832239151
","x: 273.6148376464844
y: 268.7237243652344
z: -0.32965099811553955
visibility: 0.9869748950004578
","x: 227.95211791992188
y: 263.5511169433594
z: -0.3546639084815979
visibility: 0.9542823433876038
","x: 274.1725158691406
y: 263.41754150390625
z: -0.32972607016563416
visibility: 0.9870142340660095
","x: 228.15797424316406
y: 258.6766662597656
z: -0.35015618801116943
visibility: 0.9532150030136108
","x: 271.72113037109375
y: 265.8442077636719
z: -0.29111286997795105
visibility: 0.979012668132782
","x: 227.93765258789062
y: 261.52392578125
z: -0.3142964541912079
visibility: 0.9363858103752136
","x: 252.81869506835938
y: 365.71099853515625
z: 0.004056188743561506
visibility: 0.9996474385261536
","x: 228.7097625732422
y: 361.7073974609375
z: -0.004101773723959923
visibility: 0.9996134638786316
","x: 260.4288024902344
y: 457.3160095214844
z: -0.001705431961454451
visibility: 0.9896742701530457
","x: 222.32693481445312
y: 453.889892578125
z: -0.015034815296530724
visibility: 0.9932041764259338
","x: 261.6856689453125
y: 537.44921875
z: 0.12998710572719574
visibility: 0.9907091856002808
","x: 217.31983947753906
y: 529.3890991210938
z: 0.14792044460773468
visibility: 0.9924111366271973
","x: 259.0516662597656
y: 547.4037475585938
z: 0.13581597805023193
visibility: 0.924074113368988
","x: 218.32308959960938
y: 540.866943359375
z: 0.15773560106754303
visibility: 0.8691766262054443
","x: 265.5305480957031
y: 561.66943359375
z: 0.0037445034831762314
visibility: 0.9863667488098145
","x: 212.8737030029297
y: 555.424072265625
z: 0.034666769206523895
visibility: 0.9866413474082947
","x: 222.53182983398438
y: 270.48028564453125
z: 0.0
","x: 226.93795776367188
y: 266.9698181152344
z: 0.0006818803958594799
","x: 230.09176635742188
y: 262.2411193847656
z: -0.0005386143457144499
","x: 232.42584228515625
y: 259.3919677734375
z: -0.002586586168035865
","x: 234.3017578125
y: 257.9057312011719
z: -0.00457737548276782
","x: 228.72555541992188
y: 253.0510711669922
z: -0.001495501957833767
","x: 230.66903686523438
y: 244.9881134033203
z: -0.0046615926548838615
","x: 232.2852783203125
y: 241.39315795898438
z: -0.006449094507843256
","x: 233.84034729003906
y: 239.1960906982422
z: -0.0075267888605594635
","x: 226.9202880859375
y: 252.71287536621094
z: -0.004314201418310404
","x: 228.42440795898438
y: 244.0087890625
z: -0.007174705620855093
","x: 230.09681701660156
y: 240.06658935546875
z: -0.008246648125350475
","x: 231.66940307617188
y: 237.61253356933594
z: -0.009075857698917389
","x: 225.106201171875
y: 254.07655334472656
z: -0.007346789818257093
","x: 225.79159545898438
y: 246.0924072265625
z: -0.01020266953855753
","x: 227.155029296875
y: 242.0042266845703
z: -0.011237767525017262
","x: 228.45571899414062
y: 239.4099578857422
z: -0.01196279190480709
","x: 223.43032836914062
y: 257.1783447265625
z: -0.01045937743037939
","x: 222.71287536621094
y: 251.50558471679688
z: -0.012678556144237518
","x: 222.7993621826172
y: 248.17401123046875
z: -0.013432390056550503
","x: 223.11753845214844
y: 245.9898223876953
z: -0.013982243835926056
","x: 268.3614196777344
y: 277.3125305175781
z: 0.0
","x: 266.3124084472656
y: 272.14263916015625
z: -0.002130057429894805
","x: 265.35162353515625
y: 266.44073486328125
z: -0.003922002390027046
","x: 265.7250671386719
y: 262.690673828125
z: -0.006181573960930109
","x: 266.85174560546875
y: 260.3583679199219
z: -0.008470623753964901
","x: 270.1735534667969
y: 257.6913146972656
z: -0.0006047929637134075
","x: 272.376220703125
y: 250.8943328857422
z: -0.0031844372861087322
","x: 273.57861328125
y: 247.020263671875
z: -0.00518833938986063
","x: 274.655029296875
y: 243.76731872558594
z: -0.006468862760812044
","x: 272.1363220214844
y: 258.9521789550781
z: -0.0020508216693997383
","x: 274.6132507324219
y: 251.64321899414062
z: -0.004259796347469091
","x: 275.95404052734375
y: 247.2844696044922
z: -0.006161403376609087
","x: 276.99249267578125
y: 243.48056030273438
z: -0.0075075444765388966
","x: 273.82763671875
y: 261.48992919921875
z: -0.004094146657735109
","x: 276.2610168457031
y: 254.73977661132812
z: -0.00652241799980402
","x: 277.496826171875
y: 250.43402099609375
z: -0.008182770572602749
","x: 278.3912658691406
y: 246.79296875
z: -0.009284546598792076
","x: 275.2381286621094
y: 265.2917785644531
z: -0.006566969677805901
","x: 277.5494384765625
y: 260.88568115234375
z: -0.008467622101306915
","x: 279.0276184082031
y: 258.18426513671875
z: -0.009429583325982094
","x: 280.22955322265625
y: 255.87759399414062
z: -0.010102237574756145
"
5,"x: 246.94273376464844
y: 205.7684326171875
z: -0.16748222708702087
visibility: 0.9999932646751404
","x: 250.1693572998047
y: 198.32525634765625
z: -0.14933158457279205
visibility: 0.9999895095825195
","x: 251.8444061279297
y: 198.86949157714844
z: -0.1493849903345108
visibility: 0.9999885559082031
","x: 253.46658325195312
y: 199.5548095703125
z: -0.14941024780273438
visibility: 0.9999887943267822
","x: 245.51039123535156
y: 197.79908752441406
z: -0.14920663833618164
visibility: 0.9999842047691345
","x: 243.9602508544922
y: 197.6072998046875
z: -0.14917632937431335
visibility: 0.9999781847000122
","x: 242.0207977294922
y: 197.30429077148438
z: -0.14912763237953186
visibility: 0.9999770522117615
","x: 255.08868408203125
y: 205.32579040527344
z: -0.0343783013522625
visibility: 0.9999760985374451
","x: 238.1788787841797
y: 202.4382781982422
z: -0.0457657054066658
visibility: 0.9999491572380066
","x: 248.7813720703125
y: 215.62059020996094
z: -0.12579432129859924
visibility: 0.9999858736991882
","x: 242.85035705566406
y: 214.7324981689453
z: -0.12679293751716614
visibility: 0.9999793767929077
","x: 261.32244873046875
y: 256.30401611328125
z: 0.029104888439178467
visibility: 0.9999452829360962
","x: 222.33604431152344
y: 250.86453247070312
z: 0.019030630588531494
visibility: 0.9998095631599426
","x: 268.58477783203125
y: 316.7606201171875
z: -0.06803562492132187
visibility: 0.9848488569259644
","x: 209.31846618652344
y: 310.2975769042969
z: -0.09155384451150894
visibility: 0.930533766746521
","x: 270.04937744140625
y: 277.8187255859375
z: -0.2860538363456726
visibility: 0.9951421618461609
","x: 223.20643615722656
y: 274.47491455078125
z: -0.3118211328983307
visibility: 0.97659832239151
","x: 273.6148376464844
y: 268.7237243652344
z: -0.32965099811553955
visibility: 0.9869748950004578
","x: 227.95211791992188
y: 263.5511169433594
z: -0.3546639084815979
visibility: 0.9542823433876038
","x: 274.1725158691406
y: 263.41754150390625
z: -0.32972607016563416
visibility: 0.9870142340660095
","x: 228.15797424316406
y: 258.6766662597656
z: -0.35015618801116943
visibility: 0.9532150030136108
","x: 271.72113037109375
y: 265.8442077636719
z: -0.29111286997795105
visibility: 0.979012668132782
","x: 227.93765258789062
y: 261.52392578125
z: -0.3142964541912079
visibility: 0.9363858103752136
","x: 252.81869506835938
y: 365.71099853515625
z: 0.004056188743561506
visibility: 0.9996474385261536
","x: 228.7097625732422
y: 361.7073974609375
z: -0.004101773723959923
visibility: 0.9996134638786316
","x: 260.4288024902344
y: 457.3160095214844
z: -0.001705431961454451
visibility: 0.9896742701530457
","x: 222.32693481445312
y: 453.889892578125
z: -0.015034815296530724
visibility: 0.9932041764259338
","x: 261.6856689453125
y: 537.44921875
z: 0.12998710572719574
visibility: 0.9907091856002808
","x: 217.31983947753906
y: 529.3890991210938
z: 0.14792044460773468
visibility: 0.9924111366271973
","x: 259.0516662597656
y: 547.4037475585938
z: 0.13581597805023193
visibility: 0.924074113368988
","x: 218.32308959960938
y: 540.866943359375
z: 0.15773560106754303
visibility: 0.8691766262054443
","x: 265.5305480957031
y: 561.66943359375
z: 0.0037445034831762314
visibility: 0.9863667488098145
","x: 212.8737030029297
y: 555.424072265625
z: 0.034666769206523895
visibility: 0.9866413474082947
","x: 222.53182983398438
y: 270.48028564453125
z: 0.0
","x: 226.93795776367188
y: 266.9698181152344
z: 0.0006818803958594799
","x: 230.09176635742188
y: 262.2411193847656
z: -0.0005386143457144499
","x: 232.42584228515625
y: 259.3919677734375
z: -0.002586586168035865
","x: 234.3017578125
y: 257.9057312011719
z: -0.00457737548276782
","x: 228.72555541992188
y: 253.0510711669922
z: -0.001495501957833767
","x: 230.66903686523438
y: 244.9881134033203
z: -0.0046615926548838615
","x: 232.2852783203125
y: 241.39315795898438
z: -0.006449094507843256
","x: 233.84034729003906
y: 239.1960906982422
z: -0.0075267888605594635
","x: 226.9202880859375
y: 252.71287536621094
z: -0.004314201418310404
","x: 228.42440795898438
y: 244.0087890625
z: -0.007174705620855093
","x: 230.09681701660156
y: 240.06658935546875
z: -0.008246648125350475
","x: 231.66940307617188
y: 237.61253356933594
z: -0.009075857698917389
","x: 225.106201171875
y: 254.07655334472656
z: -0.007346789818257093
","x: 225.79159545898438
y: 246.0924072265625
z: -0.01020266953855753
","x: 227.155029296875
y: 242.0042266845703
z: -0.011237767525017262
","x: 228.45571899414062
y: 239.4099578857422
z: -0.01196279190480709
","x: 223.43032836914062
y: 257.1783447265625
z: -0.01045937743037939
","x: 222.71287536621094
y: 251.50558471679688
z: -0.012678556144237518
","x: 222.7993621826172
y: 248.17401123046875
z: -0.013432390056550503
","x: 223.11753845214844
y: 245.9898223876953
z: -0.013982243835926056
","x: 268.3614196777344
y: 277.3125305175781
z: 0.0
","x: 266.3124084472656
y: 272.14263916015625
z: -0.002130057429894805
","x: 265.35162353515625
y: 266.44073486328125
z: -0.003922002390027046
","x: 265.7250671386719
y: 262.690673828125
z: -0.006181573960930109
","x: 266.85174560546875
y: 260.3583679199219
z: -0.008470623753964901
","x: 270.1735534667969
y: 257.6913146972656
z: -0.0006047929637134075
","x: 272.376220703125
y: 250.8943328857422
z: -0.0031844372861087322
","x: 273.57861328125
y: 247.020263671875
z: -0.00518833938986063
","x: 274.655029296875
y: 243.76731872558594
z: -0.006468862760812044
","x: 272.1363220214844
y: 258.9521789550781
z: -0.0020508216693997383
","x: 274.6132507324219
y: 251.64321899414062
z: -0.004259796347469091
","x: 275.95404052734375
y: 247.2844696044922
z: -0.006161403376609087
","x: 276.99249267578125
y: 243.48056030273438
z: -0.0075075444765388966
","x: 273.82763671875
y: 261.48992919921875
z: -0.004094146657735109
","x: 276.2610168457031
y: 254.73977661132812
z: -0.00652241799980402
","x: 277.496826171875
y: 250.43402099609375
z: -0.008182770572602749
","x: 278.3912658691406
y: 246.79296875
z: -0.009284546598792076
","x: 275.2381286621094
y: 265.2917785644531
z: -0.006566969677805901
","x: 277.5494384765625
y: 260.88568115234375
z: -0.008467622101306915
","x: 279.0276184082031
y: 258.18426513671875
z: -0.009429583325982094
","x: 280.22955322265625
y: 255.87759399414062
z: -0.010102237574756145
"
6,"x: 246.1538848876953
y: 205.28756713867188
z: -0.14754116535186768
visibility: 0.9999936819076538
","x: 248.94229125976562
y: 198.23220825195312
z: -0.12582917511463165
visibility: 0.9999902844429016
","x: 250.63705444335938
y: 198.75189208984375
z: -0.12584973871707916
visibility: 0.99998939037323
","x: 252.3061981201172
y: 199.42138671875
z: -0.12588223814964294
visibility: 0.9999896287918091
","x: 244.13694763183594
y: 197.63124084472656
z: -0.13014230132102966
visibility: 0.9999853372573853
","x: 242.6150665283203
y: 197.36380004882812
z: -0.1301250159740448
visibility: 0.9999797940254211
","x: 240.62164306640625
y: 197.00765991210938
z: -0.1300741732120514
visibility: 0.99997878074646
","x: 253.99789428710938
y: 205.142822265625
z: -0.00804833509027958
visibility: 0.9999780058860779
","x: 237.03480529785156
y: 202.08761596679688
z: -0.03204944729804993
visibility: 0.99995356798172
","x: 248.7021484375
y: 214.99642944335938
z: -0.10431095212697983
visibility: 0.999987006187439
","x: 242.55703735351562
y: 213.90634155273438
z: -0.11039018630981445
visibility: 0.9999811053276062
","x: 263.3533935546875
y: 254.76309204101562
z: 0.05457686260342598
visibility: 0.9999496936798096
","x: 222.57347106933594
y: 250.8677520751953
z: 0.02244286611676216
visibility: 0.9998189210891724
","x: 274.4327087402344
y: 311.0290222167969
z: -0.04567243903875351
visibility: 0.9856455326080322
","x: 214.53277587890625
y: 310.2850036621094
z: -0.09236359596252441
visibility: 0.935642421245575
","x: 276.8779602050781
y: 262.7419128417969
z: -0.22282695770263672
visibility: 0.995354175567627
","x: 226.39256286621094
y: 271.9888610839844
z: -0.27735260128974915
visibility: 0.9775434136390686
","x: 278.92364501953125
y: 251.03082275390625
z: -0.2612261474132538
visibility: 0.9873924851417542
","x: 232.06361389160156
y: 261.16314697265625
z: -0.3159119486808777
visibility: 0.9546957015991211
","x: 279.49066162109375
y: 244.05235290527344
z: -0.25389811396598816
visibility: 0.9873660206794739
","x: 231.68040466308594
y: 255.12550354003906
z: -0.30640682578086853
visibility: 0.9532331228256226
","x: 277.590576171875
y: 248.72647094726562
z: -0.22461840510368347
visibility: 0.979573130607605
","x: 231.1341094970703
y: 257.6465148925781
z: -0.27729928493499756
visibility: 0.9364513754844666
","x: 256.2212829589844
y: 365.7579345703125
z: 0.006873642560094595
visibility: 0.9996721744537354
","x: 231.57974243164062
y: 363.4878234863281
z: -0.006892376579344273
visibility: 0.9996299147605896
","x: 260.4421081542969
y: 457.19989013671875
z: -0.00041700113797560334
visibility: 0.9902161955833435
","x: 224.62142944335938
y: 453.79986572265625
z: -0.010642467066645622
visibility: 0.9924845099449158
","x: 264.212890625
y: 536.3499145507812
z: 0.14335539937019348
visibility: 0.9903994798660278
","x: 216.5543975830078
y: 527.8535766601562
z: 0.18841010332107544
visibility: 0.9894241094589233
","x: 263.61346435546875
y: 546.7310791015625
z: 0.15130332112312317
visibility: 0.9052919149398804
","x: 217.25489807128906
y: 538.0927124023438
z: 0.2027469426393509
visibility: 0.8446858525276184
","x: 264.8088684082031
y: 561.7267456054688
z: 0.01922011934220791
visibility: 0.9852505922317505
","x: 212.0281982421875
y: 553.8494873046875
z: 0.08881889283657074
visibility: 0.9830690026283264
","x: 232.95559692382812
y: 263.7288818359375
z: 0.0
","x: 237.64208984375
y: 259.90985107421875
z: 0.000696121365763247
","x: 241.19149780273438
y: 254.4149169921875
z: -0.0007639332907274365
","x: 243.68362426757812
y: 250.89004516601562
z: -0.0032339871395379305
","x: 245.61338806152344
y: 249.1106414794922
z: -0.005863160360604525
","x: 239.73207092285156
y: 244.82131958007812
z: -0.002656043041497469
","x: 241.664306640625
y: 236.3199005126953
z: -0.006300858687609434
","x: 242.9916534423828
y: 232.00296020507812
z: -0.008327972143888474
","x: 244.15545654296875
y: 228.70162963867188
z: -0.009626172482967377
","x: 237.6666717529297
y: 244.9791259765625
z: -0.005964608862996101
","x: 238.95294189453125
y: 236.63320922851562
z: -0.009497899562120438
","x: 240.03350830078125
y: 232.89755249023438
z: -0.010592884384095669
","x: 240.84104919433594
y: 230.16690063476562
z: -0.011398140341043472
","x: 235.42599487304688
y: 247.0499267578125
z: -0.009440786205232143
","x: 235.957275390625
y: 239.8875274658203
z: -0.013059155084192753
","x: 236.8274383544922
y: 236.09762573242188
z: -0.01397994626313448
","x: 237.6221466064453
y: 233.3376922607422
z: -0.014593404717743397
","x: 233.16928100585938
y: 250.77316284179688
z: -0.012983554974198341
","x: 232.21829223632812
y: 245.4350128173828
z: -0.015890002250671387
","x: 231.79222106933594
y: 242.317626953125
z: -0.016633562743663788
","x: 231.6089630126953
y: 240.06008911132812
z: -0.017136845737695694
","x: 276.0394592285156
y: 261.24822998046875
z: 0.0
","x: 273.6546630859375
y: 253.8631591796875
z: -0.0008154331590048969
","x: 272.669921875
y: 246.27732849121094
z: -0.0016984265530481935
","x: 273.5291748046875
y: 240.82919311523438
z: -0.0032219241838902235
","x: 275.023193359375
y: 238.55917358398438
z: -0.004572792910039425
","x: 276.7217102050781
y: 239.97938537597656
z: 0.000817138294223696
","x: 278.360595703125
y: 232.99307250976562
z: -0.0014221833553165197
","x: 279.6492004394531
y: 230.33058166503906
z: -0.0028138260822743177
","x: 280.8659973144531
y: 228.32510375976562
z: -0.0036657913587987423
","x: 279.0039367675781
y: 241.1890411376953
z: -0.0011482550762593746
","x: 280.9143371582031
y: 234.39401245117188
z: -0.0031582999508827925
","x: 282.2997741699219
y: 231.37586975097656
z: -0.004362954292446375
","x: 283.5582275390625
y: 228.8546142578125
z: -0.00528551684692502
","x: 280.87384033203125
y: 243.43450927734375
z: -0.003672840539366007
","x: 282.9208068847656
y: 237.21054077148438
z: -0.0060362438671290874
","x: 284.1003112792969
y: 233.66552734375
z: -0.007161392830312252
","x: 285.1230773925781
y: 230.85006713867188
z: -0.007873771712183952
","x: 282.4681701660156
y: 246.806396484375
z: -0.006536953151226044
","x: 284.6944274902344
y: 242.78103637695312
z: -0.00836502481251955
","x: 286.06964111328125
y: 240.29141235351562
z: -0.00909526739269495
","x: 287.2214660644531
y: 238.22442626953125
z: -0.009551934897899628
"
7,"x: 246.1538848876953
y: 205.28756713867188
z: -0.14754116535186768
visibility: 0.9999936819076538
","x: 248.94229125976562
y: 198.23220825195312
z: -0.12582917511463165
visibility: 0.9999902844429016
","x: 250.63705444335938
y: 198.75189208984375
z: -0.12584973871707916
visibility: 0.99998939037323
","x: 252.3061981201172
y: 199.42138671875
z: -0.12588223814964294
visibility: 0.9999896287918091
","x: 244.13694763183594
y: 197.63124084472656
z: -0.13014230132102966
visibility: 0.9999853372573853
","x: 242.6150665283203
y: 197.36380004882812
z: -0.1301250159740448
visibility: 0.9999797940254211
","x: 240.62164306640625
y: 197.00765991210938
z: -0.1300741732120514
visibility: 0.99997878074646
","x: 253.99789428710938
y: 205.142822265625
z: -0.00804833509027958
visibility: 0.9999780058860779
","x: 237.03480529785156
y: 202.08761596679688
z: -0.03204944729804993
visibility: 0.99995356798172
","x: 248.7021484375
y: 214.99642944335938
z: -0.10431095212697983
visibility: 0.999987006187439
","x: 242.55703735351562
y: 213.90634155273438
z: -0.11039018630981445
visibility: 0.9999811053276062
","x: 263.3533935546875
y: 254.76309204101562
z: 0.05457686260342598
visibility: 0.9999496936798096
","x: 222.57347106933594
y: 250.8677520751953
z: 0.02244286611676216
visibility: 0.9998189210891724
","x: 274.4327087402344
y: 311.0290222167969
z: -0.04567243903875351
visibility: 0.9856455326080322
","x: 214.53277587890625
y: 310.2850036621094
z: -0.09236359596252441
visibility: 0.935642421245575
","x: 276.8779602050781
y: 262.7419128417969
z: -0.22282695770263672
visibility: 0.995354175567627
","x: 226.39256286621094
y: 271.9888610839844
z: -0.27735260128974915
visibility: 0.9775434136390686
","x: 278.92364501953125
y: 251.03082275390625
z: -0.2612261474132538
visibility: 0.9873924851417542
","x: 232.06361389160156
y: 261.16314697265625
z: -0.3159119486808777
visibility: 0.9546957015991211
","x: 279.49066162109375
y: 244.05235290527344
z: -0.25389811396598816
visibility: 0.9873660206794739
","x: 231.68040466308594
y: 255.12550354003906
z: -0.30640682578086853
visibility: 0.9532331228256226
","x: 277.590576171875
y: 248.72647094726562
z: -0.22461840510368347
visibility: 0.979573130607605
","x: 231.1341094970703
y: 257.6465148925781
z: -0.27729928493499756
visibility: 0.9364513754844666
","x: 256.2212829589844
y: 365.7579345703125
z: 0.006873642560094595
visibility: 0.9996721744537354
","x: 231.57974243164062
y: 363.4878234863281
z: -0.006892376579344273
visibility: 0.9996299147605896
","x: 260.4421081542969
y: 457.19989013671875
z: -0.00041700113797560334
visibility: 0.9902161955833435
","x: 224.62142944335938
y: 453.79986572265625
z: -0.010642467066645622
visibility: 0.9924845099449158
","x: 264.212890625
y: 536.3499145507812
z: 0.14335539937019348
visibility: 0.9903994798660278
","x: 216.5543975830078
y: 527.8535766601562
z: 0.18841010332107544
visibility: 0.9894241094589233
","x: 263.61346435546875
y: 546.7310791015625
z: 0.15130332112312317
visibility: 0.9052919149398804
","x: 217.25489807128906
y: 538.0927124023438
z: 0.2027469426393509
visibility: 0.8446858525276184
","x: 264.8088684082031
y: 561.7267456054688
z: 0.01922011934220791
visibility: 0.9852505922317505
","x: 212.0281982421875
y: 553.8494873046875
z: 0.08881889283657074
visibility: 0.9830690026283264
","x: 232.95559692382812
y: 263.7288818359375
z: 0.0
","x: 237.64208984375
y: 259.90985107421875
z: 0.000696121365763247
","x: 241.19149780273438
y: 254.4149169921875
z: -0.0007639332907274365
","x: 243.68362426757812
y: 250.89004516601562
z: -0.0032339871395379305
","x: 245.61338806152344
y: 249.1106414794922
z: -0.005863160360604525
","x: 239.73207092285156
y: 244.82131958007812
z: -0.002656043041497469
","x: 241.664306640625
y: 236.3199005126953
z: -0.006300858687609434
","x: 242.9916534423828
y: 232.00296020507812
z: -0.008327972143888474
","x: 244.15545654296875
y: 228.70162963867188
z: -0.009626172482967377
","x: 237.6666717529297
y: 244.9791259765625
z: -0.005964608862996101
","x: 238.95294189453125
y: 236.63320922851562
z: -0.009497899562120438
","x: 240.03350830078125
y: 232.89755249023438
z: -0.010592884384095669
","x: 240.84104919433594
y: 230.16690063476562
z: -0.011398140341043472
","x: 235.42599487304688
y: 247.0499267578125
z: -0.009440786205232143
","x: 235.957275390625
y: 239.8875274658203
z: -0.013059155084192753
","x: 236.8274383544922
y: 236.09762573242188
z: -0.01397994626313448
","x: 237.6221466064453
y: 233.3376922607422
z: -0.014593404717743397
","x: 233.16928100585938
y: 250.77316284179688
z: -0.012983554974198341
","x: 232.21829223632812
y: 245.4350128173828
z: -0.015890002250671387
","x: 231.79222106933594
y: 242.317626953125
z: -0.016633562743663788
","x: 231.6089630126953
y: 240.06008911132812
z: -0.017136845737695694
","x: 276.0394592285156
y: 261.24822998046875
z: 0.0
","x: 273.6546630859375
y: 253.8631591796875
z: -0.0008154331590048969
","x: 272.669921875
y: 246.27732849121094
z: -0.0016984265530481935
","x: 273.5291748046875
y: 240.82919311523438
z: -0.0032219241838902235
","x: 275.023193359375
y: 238.55917358398438
z: -0.004572792910039425
","x: 276.7217102050781
y: 239.97938537597656
z: 0.000817138294223696
","x: 278.360595703125
y: 232.99307250976562
z: -0.0014221833553165197
","x: 279.6492004394531
y: 230.33058166503906
z: -0.0028138260822743177
","x: 280.8659973144531
y: 228.32510375976562
z: -0.0036657913587987423
","x: 279.0039367675781
y: 241.1890411376953
z: -0.0011482550762593746
","x: 280.9143371582031
y: 234.39401245117188
z: -0.0031582999508827925
","x: 282.2997741699219
y: 231.37586975097656
z: -0.004362954292446375
","x: 283.5582275390625
y: 228.8546142578125
z: -0.00528551684692502
","x: 280.87384033203125
y: 243.43450927734375
z: -0.003672840539366007
","x: 282.9208068847656
y: 237.21054077148438
z: -0.0060362438671290874
","x: 284.1003112792969
y: 233.66552734375
z: -0.007161392830312252
","x: 285.1230773925781
y: 230.85006713867188
z: -0.007873771712183952
","x: 282.4681701660156
y: 246.806396484375
z: -0.006536953151226044
","x: 284.6944274902344
y: 242.78103637695312
z: -0.00836502481251955
","x: 286.06964111328125
y: 240.29141235351562
z: -0.00909526739269495
","x: 287.2214660644531
y: 238.22442626953125
z: -0.009551934897899628
"
8,"x: 246.1538848876953
y: 205.28756713867188
z: -0.14754116535186768
visibility: 0.9999936819076538
","x: 248.94229125976562
y: 198.23220825195312
z: -0.12582917511463165
visibility: 0.9999902844429016
","x: 250.63705444335938
y: 198.75189208984375
z: -0.12584973871707916
visibility: 0.99998939037323
","x: 252.3061981201172
y: 199.42138671875
z: -0.12588223814964294
visibility: 0.9999896287918091
","x: 244.13694763183594
y: 197.63124084472656
z: -0.13014230132102966
visibility: 0.9999853372573853
","x: 242.6150665283203
y: 197.36380004882812
z: -0.1301250159740448
visibility: 0.9999797940254211
","x: 240.62164306640625
y: 197.00765991210938
z: -0.1300741732120514
visibility: 0.99997878074646
","x: 253.99789428710938
y: 205.142822265625
z: -0.00804833509027958
visibility: 0.9999780058860779
","x: 237.03480529785156
y: 202.08761596679688
z: -0.03204944729804993
visibility: 0.99995356798172
","x: 248.7021484375
y: 214.99642944335938
z: -0.10431095212697983
visibility: 0.999987006187439
","x: 242.55703735351562
y: 213.90634155273438
z: -0.11039018630981445
visibility: 0.9999811053276062
","x: 263.3533935546875
y: 254.76309204101562
z: 0.05457686260342598
visibility: 0.9999496936798096
","x: 222.57347106933594
y: 250.8677520751953
z: 0.02244286611676216
visibility: 0.9998189210891724
","x: 274.4327087402344
y: 311.0290222167969
z: -0.04567243903875351
visibility: 0.9856455326080322
","x: 214.53277587890625
y: 310.2850036621094
z: -0.09236359596252441
visibility: 0.935642421245575
","x: 276.8779602050781
y: 262.7419128417969
z: -0.22282695770263672
visibility: 0.995354175567627
","x: 226.39256286621094
y: 271.9888610839844
z: -0.27735260128974915
visibility: 0.9775434136390686
","x: 278.92364501953125
y: 251.03082275390625
z: -0.2612261474132538
visibility: 0.9873924851417542
","x: 232.06361389160156
y: 261.16314697265625
z: -0.3159119486808777
visibility: 0.9546957015991211
","x: 279.49066162109375
y: 244.05235290527344
z: -0.25389811396598816
visibility: 0.9873660206794739
","x: 231.68040466308594
y: 255.12550354003906
z: -0.30640682578086853
visibility: 0.9532331228256226
","x: 277.590576171875
y: 248.72647094726562
z: -0.22461840510368347
visibility: 0.979573130607605
","x: 231.1341094970703
y: 257.6465148925781
z: -0.27729928493499756
visibility: 0.9364513754844666
","x: 256.2212829589844
y: 365.7579345703125
z: 0.006873642560094595
visibility: 0.9996721744537354
","x: 231.57974243164062
y: 363.4878234863281
z: -0.006892376579344273
visibility: 0.9996299147605896
","x: 260.4421081542969
y: 457.19989013671875
z: -0.00041700113797560334
visibility: 0.9902161955833435
","x: 224.62142944335938
y: 453.79986572265625
z: -0.010642467066645622
visibility: 0.9924845099449158
","x: 264.212890625
y: 536.3499145507812
z: 0.14335539937019348
visibility: 0.9903994798660278
","x: 216.5543975830078
y: 527.8535766601562
z: 0.18841010332107544
visibility: 0.9894241094589233
","x: 263.61346435546875
y: 546.7310791015625
z: 0.15130332112312317
visibility: 0.9052919149398804
","x: 217.25489807128906
y: 538.0927124023438
z: 0.2027469426393509
visibility: 0.8446858525276184
","x: 264.8088684082031
y: 561.7267456054688
z: 0.01922011934220791
visibility: 0.9852505922317505
","x: 212.0281982421875
y: 553.8494873046875
z: 0.08881889283657074
visibility: 0.9830690026283264
","x: 232.95559692382812
y: 263.7288818359375
z: 0.0
","x: 237.64208984375
y: 259.90985107421875
z: 0.000696121365763247
","x: 241.19149780273438
y: 254.4149169921875
z: -0.0007639332907274365
","x: 243.68362426757812
y: 250.89004516601562
z: -0.0032339871395379305
","x: 245.61338806152344
y: 249.1106414794922
z: -0.005863160360604525
","x: 239.73207092285156
y: 244.82131958007812
z: -0.002656043041497469
","x: 241.664306640625
y: 236.3199005126953
z: -0.006300858687609434
","x: 242.9916534423828
y: 232.00296020507812
z: -0.008327972143888474
","x: 244.15545654296875
y: 228.70162963867188
z: -0.009626172482967377
","x: 237.6666717529297
y: 244.9791259765625
z: -0.005964608862996101
","x: 238.95294189453125
y: 236.63320922851562
z: -0.009497899562120438
","x: 240.03350830078125
y: 232.89755249023438
z: -0.010592884384095669
","x: 240.84104919433594
y: 230.16690063476562
z: -0.011398140341043472
","x: 235.42599487304688
y: 247.0499267578125
z: -0.009440786205232143
","x: 235.957275390625
y: 239.8875274658203
z: -0.013059155084192753
","x: 236.8274383544922
y: 236.09762573242188
z: -0.01397994626313448
","x: 237.6221466064453
y: 233.3376922607422
z: -0.014593404717743397
","x: 233.16928100585938
y: 250.77316284179688
z: -0.012983554974198341
","x: 232.21829223632812
y: 245.4350128173828
z: -0.015890002250671387
","x: 231.79222106933594
y: 242.317626953125
z: -0.016633562743663788
","x: 231.6089630126953
y: 240.06008911132812
z: -0.017136845737695694
","x: 276.0394592285156
y: 261.24822998046875
z: 0.0
","x: 273.6546630859375
y: 253.8631591796875
z: -0.0008154331590048969
","x: 272.669921875
y: 246.27732849121094
z: -0.0016984265530481935
","x: 273.5291748046875
y: 240.82919311523438
z: -0.0032219241838902235
","x: 275.023193359375
y: 238.55917358398438
z: -0.004572792910039425
","x: 276.7217102050781
y: 239.97938537597656
z: 0.000817138294223696
","x: 278.360595703125
y: 232.99307250976562
z: -0.0014221833553165197
","x: 279.6492004394531
y: 230.33058166503906
z: -0.0028138260822743177
","x: 280.8659973144531
y: 228.32510375976562
z: -0.0036657913587987423
","x: 279.0039367675781
y: 241.1890411376953
z: -0.0011482550762593746
","x: 280.9143371582031
y: 234.39401245117188
z: -0.0031582999508827925
","x: 282.2997741699219
y: 231.37586975097656
z: -0.004362954292446375
","x: 283.5582275390625
y: 228.8546142578125
z: -0.00528551684692502
","x: 280.87384033203125
y: 243.43450927734375
z: -0.003672840539366007
","x: 282.9208068847656
y: 237.21054077148438
z: -0.0060362438671290874
","x: 284.1003112792969
y: 233.66552734375
z: -0.007161392830312252
","x: 285.1230773925781
y: 230.85006713867188
z: -0.007873771712183952
","x: 282.4681701660156
y: 246.806396484375
z: -0.006536953151226044
","x: 284.6944274902344
y: 242.78103637695312
z: -0.00836502481251955
","x: 286.06964111328125
y: 240.29141235351562
z: -0.00909526739269495
","x: 287.2214660644531
y: 238.22442626953125
z: -0.009551934897899628
"
9,"x: 246.72251892089844
y: 208.623291015625
z: -0.14707480370998383
visibility: 0.9999939799308777
","x: 249.3051300048828
y: 201.2340545654297
z: -0.12724243104457855
visibility: 0.9999908804893494
","x: 251.03268432617188
y: 201.51756286621094
z: -0.12726959586143494
visibility: 0.9999900460243225
","x: 252.39051818847656
y: 201.76560974121094
z: -0.12729239463806152
visibility: 0.9999902844429016
","x: 244.04486083984375
y: 201.536376953125
z: -0.12915155291557312
visibility: 0.9999861717224121
","x: 242.31549072265625
y: 201.63027954101562
z: -0.12913765013217926
visibility: 0.9999810457229614
","x: 240.45449829101562
y: 201.84591674804688
z: -0.12908215820789337
visibility: 0.9999801516532898
","x: 255.16233825683594
y: 206.9632568359375
z: -0.012355441227555275
visibility: 0.999979555606842
","x: 237.9857635498047
y: 207.1356201171875
z: -0.023506294935941696
visibility: 0.9999571442604065
","x: 250.11778259277344
y: 217.40017700195312
z: -0.10421661287546158
visibility: 0.9999879598617554
","x: 243.4402313232422
y: 217.1815643310547
z: -0.1070326566696167
visibility: 0.9999825358390808
","x: 268.4878845214844
y: 255.3116455078125
z: 0.05434007570147514
visibility: 0.99995356798172
","x: 226.8592987060547
y: 255.63302612304688
z: 0.031190207228064537
visibility: 0.9998269081115723
","x: 277.01422119140625
y: 312.5876770019531
z: -0.04071797803044319
visibility: 0.9861040711402893
","x: 219.40635681152344
y: 316.53082275390625
z: -0.06600241363048553
visibility: 0.9391989707946777
","x: 277.7674865722656
y: 264.7646484375
z: -0.23221877217292786
visibility: 0.9954870343208313
","x: 231.9228973388672
y: 282.2836608886719
z: -0.2543940842151642
visibility: 0.9782652258872986
","x: 278.97265625
y: 252.34701538085938
z: -0.2720203995704651
visibility: 0.9877184629440308
","x: 237.34271240234375
y: 271.09130859375
z: -0.2933802604675293
visibility: 0.9554102420806885
","x: 279.1530456542969
y: 246.95111083984375
z: -0.26851898431777954
visibility: 0.9876584410667419
","x: 237.24755859375
y: 264.2538757324219
z: -0.2908845543861389
visibility: 0.9537524580955505
","x: 277.6756591796875
y: 250.53948974609375
z: -0.23524293303489685
visibility: 0.9800127744674683
","x: 236.6126708984375
y: 267.1697998046875
z: -0.2572002112865448
visibility: 0.9370015859603882
","x: 259.4091796875
y: 368.4681396484375
z: 0.006684443913400173
visibility: 0.9996967315673828
","x: 234.69918823242188
y: 366.23553466796875
z: -0.0067053260281682014
visibility: 0.9996455311775208
","x: 260.69207763671875
y: 458.745849609375
z: -0.01644291542470455
visibility: 0.9905679821968079
","x: 226.6630096435547
y: 454.5697021484375
z: -0.012478395365178585
visibility: 0.9920710921287537
","x: 265.0426025390625
y: 536.7979125976562
z: 0.13790753483772278
visibility: 0.9899764060974121
","x: 216.30886840820312
y: 527.140380859375
z: 0.18390612304210663
visibility: 0.9872688055038452
","x: 264.5865173339844
y: 547.4627075195312
z: 0.14663130044937134
visibility: 0.8906476497650146
","x: 217.3167724609375
y: 536.4493408203125
z: 0.19779226183891296
visibility: 0.827595591545105
","x: 264.5353698730469
y: 561.6890258789062
z: 0.014008574187755585
visibility: 0.98395836353302
","x: 212.02297973632812
y: 554.2261962890625
z: 0.08163176476955414
visibility: 0.9804335832595825
","x: 236.78895568847656
y: 282.1819763183594
z: 0.0
","x: 240.40701293945312
y: 277.5042419433594
z: -0.00020180731371510774
","x: 242.5587615966797
y: 271.23541259765625
z: -0.0009515919955447316
","x: 243.58399963378906
y: 266.6927490234375
z: -0.002441105432808399
","x: 244.1433563232422
y: 263.18212890625
z: -0.003641520394012332
","x: 240.19703674316406
y: 259.8098449707031
z: 0.001561264507472515
","x: 241.3120880126953
y: 251.7598114013672
z: -0.0007061978103592992
","x: 242.7207489013672
y: 247.81517028808594
z: -0.0021373878698796034
","x: 243.92686462402344
y: 245.31210327148438
z: -0.002796163083985448
","x: 238.40577697753906
y: 259.7222900390625
z: -0.00030587735818699
","x: 239.4288787841797
y: 251.37277221679688
z: -0.002063030144199729
","x: 240.89727783203125
y: 247.25714111328125
z: -0.002737843431532383
","x: 242.1082305908203
y: 244.32797241210938
z: -0.0030789857264608145
","x: 236.74757385253906
y: 260.96063232421875
z: -0.002740785013884306
","x: 237.3277130126953
y: 253.41293334960938
z: -0.004940078593790531
","x: 238.6752471923828
y: 249.5752716064453
z: -0.00531231053173542
","x: 239.85585021972656
y: 247.0545654296875
z: -0.005285239312797785
","x: 235.25796508789062
y: 263.68572998046875
z: -0.005475124344229698
","x: 235.40135192871094
y: 257.95477294921875
z: -0.00706751411780715
","x: 236.29660034179688
y: 255.28610229492188
z: -0.007077842019498348
","x: 237.37161254882812
y: 253.85154724121094
z: -0.006868516094982624
",,,,,,,,,,,,,,,,,,,,,
10,"x: 246.72251892089844
y: 208.623291015625
z: -0.14707480370998383
visibility: 0.9999939799308777
","x: 249.3051300048828
y: 201.2340545654297
z: -0.12724243104457855
visibility: 0.9999908804893494
","x: 251.03268432617188
y: 201.51756286621094
z: -0.12726959586143494
visibility: 0.9999900460243225
","x: 252.39051818847656
y: 201.76560974121094
z: -0.12729239463806152
visibility: 0.9999902844429016
","x: 244.04486083984375
y: 201.536376953125
z: -0.12915155291557312
visibility: 0.9999861717224121
","x: 242.31549072265625
y: 201.63027954101562
z: -0.12913765013217926
visibility: 0.9999810457229614
","x: 240.45449829101562
y: 201.84591674804688
z: -0.12908215820789337
visibility: 0.9999801516532898
","x: 255.16233825683594
y: 206.9632568359375
z: -0.012355441227555275
visibility: 0.999979555606842
","x: 237.9857635498047
y: 207.1356201171875
z: -0.023506294935941696
visibility: 0.9999571442604065
","x: 250.11778259277344
y: 217.40017700195312
z: -0.10421661287546158
visibility: 0.9999879598617554
","x: 243.4402313232422
y: 217.1815643310547
z: -0.1070326566696167
visibility: 0.9999825358390808
","x: 268.4878845214844
y: 255.3116455078125
z: 0.05434007570147514
visibility: 0.99995356798172
","x: 226.8592987060547
y: 255.63302612304688
z: 0.031190207228064537
visibility: 0.9998269081115723
","x: 277.01422119140625
y: 312.5876770019531
z: -0.04071797803044319
visibility: 0.9861040711402893
","x: 219.40635681152344
y: 316.53082275390625
z: -0.06600241363048553
visibility: 0.9391989707946777
","x: 277.7674865722656
y: 264.7646484375
z: -0.23221877217292786
visibility: 0.9954870343208313
","x: 231.9228973388672
y: 282.2836608886719
z: -0.2543940842151642
visibility: 0.9782652258872986
","x: 278.97265625
y: 252.34701538085938
z: -0.2720203995704651
visibility: 0.9877184629440308
","x: 237.34271240234375
y: 271.09130859375
z: -0.2933802604675293
visibility: 0.9554102420806885
","x: 279.1530456542969
y: 246.95111083984375
z: -0.26851898431777954
visibility: 0.9876584410667419
","x: 237.24755859375
y: 264.2538757324219
z: -0.2908845543861389
visibility: 0.9537524580955505
","x: 277.6756591796875
y: 250.53948974609375
z: -0.23524293303489685
visibility: 0.9800127744674683
","x: 236.6126708984375
y: 267.1697998046875
z: -0.2572002112865448
visibility: 0.9370015859603882
","x: 259.4091796875
y: 368.4681396484375
z: 0.006684443913400173
visibility: 0.9996967315673828
","x: 234.69918823242188
y: 366.23553466796875
z: -0.0067053260281682014
visibility: 0.9996455311775208
","x: 260.69207763671875
y: 458.745849609375
z: -0.01644291542470455
visibility: 0.9905679821968079
","x: 226.6630096435547
y: 454.5697021484375
z: -0.012478395365178585
visibility: 0.9920710921287537
","x: 265.0426025390625
y: 536.7979125976562
z: 0.13790753483772278
visibility: 0.9899764060974121
","x: 216.30886840820312
y: 527.140380859375
z: 0.18390612304210663
visibility: 0.9872688055038452
","x: 264.5865173339844
y: 547.4627075195312
z: 0.14663130044937134
visibility: 0.8906476497650146
","x: 217.3167724609375
y: 536.4493408203125
z: 0.19779226183891296
visibility: 0.827595591545105
","x: 264.5353698730469
y: 561.6890258789062
z: 0.014008574187755585
visibility: 0.98395836353302
","x: 212.02297973632812
y: 554.2261962890625
z: 0.08163176476955414
visibility: 0.9804335832595825
","x: 236.78895568847656
y: 282.1819763183594
z: 0.0
","x: 240.40701293945312
y: 277.5042419433594
z: -0.00020180731371510774
","x: 242.5587615966797
y: 271.23541259765625
z: -0.0009515919955447316
","x: 243.58399963378906
y: 266.6927490234375
z: -0.002441105432808399
","x: 244.1433563232422
y: 263.18212890625
z: -0.003641520394012332
","x: 240.19703674316406
y: 259.8098449707031
z: 0.001561264507472515
","x: 241.3120880126953
y: 251.7598114013672
z: -0.0007061978103592992
","x: 242.7207489013672
y: 247.81517028808594
z: -0.0021373878698796034
","x: 243.92686462402344
y: 245.31210327148438
z: -0.002796163083985448
","x: 238.40577697753906
y: 259.7222900390625
z: -0.00030587735818699
","x: 239.4288787841797
y: 251.37277221679688
z: -0.002063030144199729
","x: 240.89727783203125
y: 247.25714111328125
z: -0.002737843431532383
","x: 242.1082305908203
y: 244.32797241210938
z: -0.0030789857264608145
","x: 236.74757385253906
y: 260.96063232421875
z: -0.002740785013884306
","x: 237.3277130126953
y: 253.41293334960938
z: -0.004940078593790531
","x: 238.6752471923828
y: 249.5752716064453
z: -0.00531231053173542
","x: 239.85585021972656
y: 247.0545654296875
z: -0.005285239312797785
","x: 235.25796508789062
y: 263.68572998046875
z: -0.005475124344229698
","x: 235.40135192871094
y: 257.95477294921875
z: -0.00706751411780715
","x: 236.29660034179688
y: 255.28610229492188
z: -0.007077842019498348
","x: 237.37161254882812
y: 253.85154724121094
z: -0.006868516094982624
",,,,,,,,,,,,,,,,,,,,,
11,"x: 247.27810668945312
y: 210.60736083984375
z: -0.1871950775384903
visibility: 0.9999936819076538
","x: 249.742919921875
y: 202.8166961669922
z: -0.17172792553901672
visibility: 0.9999906420707703
","x: 251.57009887695312
y: 202.65573120117188
z: -0.17176033556461334
visibility: 0.9999898076057434
","x: 253.01113891601562
y: 202.5325927734375
z: -0.1717728227376938
visibility: 0.9999899864196777
","x: 244.3343048095703
y: 204.0982666015625
z: -0.16767160594463348
visibility: 0.9999857544898987
","x: 242.72653198242188
y: 204.42758178710938
z: -0.16768357157707214
visibility: 0.9999807476997375
","x: 241.027587890625
y: 204.92674255371094
z: -0.16767610609531403
visibility: 0.9999797940254211
","x: 256.481689453125
y: 207.13632202148438
z: -0.06574840843677521
visibility: 0.9999798536300659
","x: 239.27670288085938
y: 209.86666870117188
z: -0.046606291085481644
visibility: 0.9999573826789856
","x: 251.22315979003906
y: 218.58917236328125
z: -0.14684273302555084
visibility: 0.9999882578849792
","x: 244.72128295898438
y: 219.16197204589844
z: -0.14146743714809418
visibility: 0.9999825954437256
","x: 270.978515625
y: 255.74850463867188
z: -0.0047803339548408985
visibility: 0.9999533891677856
","x: 229.89283752441406
y: 256.0681457519531
z: 0.01959928311407566
visibility: 0.9998226165771484
","x: 277.81439208984375
y: 315.8402099609375
z: -0.12907293438911438
visibility: 0.9860467314720154
","x: 221.36817932128906
y: 317.6946716308594
z: -0.09265635907649994
visibility: 0.9395534992218018
","x: 273.161376953125
y: 269.3953857421875
z: -0.32936891913414
visibility: 0.994970977306366
","x: 231.69082641601562
y: 281.70361328125
z: -0.318630576133728
visibility: 0.9773446917533875
","x: 273.1469421386719
y: 253.15530395507812
z: -0.3660658299922943
visibility: 0.9865257143974304
","x: 234.2728271484375
y: 270.4110412597656
z: -0.35948723554611206
visibility: 0.9528793692588806
","x: 272.9509582519531
y: 248.7875213623047
z: -0.35711273550987244
visibility: 0.9863070845603943
","x: 234.474609375
y: 264.10687255859375
z: -0.3550855219364166
visibility: 0.9506802558898926
","x: 271.65350341796875
y: 255.21981811523438
z: -0.32942983508110046
visibility: 0.9777541160583496
","x: 235.09519958496094
y: 267.08209228515625
z: -0.3224013149738312
visibility: 0.9330419301986694
","x: 259.7196044921875
y: 369.6497802734375
z: -0.004440917633473873
visibility: 0.9997121691703796
","x: 234.80221557617188
y: 366.5859680175781
z: 0.004350790288299322
visibility: 0.9996495246887207
","x: 261.0219421386719
y: 458.901611328125
z: -0.04030689224600792
visibility: 0.9910357594490051
","x: 224.81320190429688
y: 454.6120910644531
z: -0.0011207752395421267
visibility: 0.9920814037322998
","x: 265.1435241699219
y: 536.7328491210938
z: 0.11423484236001968
visibility: 0.9900059103965759
","x: 216.298095703125
y: 523.2225952148438
z: 0.22107593715190887
visibility: 0.9857532382011414
","x: 264.7281494140625
y: 547.579833984375
z: 0.12269125878810883
visibility: 0.8800515532493591
","x: 217.63043212890625
y: 532.38525390625
z: 0.23803870379924774
visibility: 0.8192702531814575
","x: 264.1702880859375
y: 561.6504516601562
z: -0.01163331139832735
visibility: 0.9834422469139099
","x: 211.34249877929688
y: 550.36865234375
z: 0.1304619014263153
visibility: 0.9786298871040344
","x: 230.39578247070312
y: 277.97344970703125
z: 0.0
","x: 233.085693359375
y: 270.404296875
z: -0.0003579993499442935
","x: 233.6690216064453
y: 262.2046203613281
z: -0.001280422555282712
","x: 232.51519775390625
y: 256.16033935546875
z: -0.003112970618531108
","x: 230.2049102783203
y: 253.47021484375
z: -0.004344858694821596
","x: 230.2545928955078
y: 255.49026489257812
z: 0.0015913575189188123
","x: 228.889404296875
y: 247.24996948242188
z: -0.001677793450653553
","x: 230.36221313476562
y: 247.0316162109375
z: -0.0032678265124559402
","x: 231.63424682617188
y: 248.59881591796875
z: -0.00380492745898664
","x: 228.1988067626953
y: 257.0484619140625
z: -0.0004995962372049689
","x: 226.92889404296875
y: 248.97988891601562
z: -0.003501744009554386
","x: 228.91567993164062
y: 251.65777587890625
z: -0.004308622796088457
","x: 230.1501007080078
y: 255.3663330078125
z: -0.004192320629954338
","x: 226.1992950439453
y: 259.6856384277344
z: -0.0032595915254205465
","x: 225.34336853027344
y: 253.33876037597656
z: -0.005978934932500124
","x: 227.5897216796875
y: 256.92095947265625
z: -0.005248475819826126
","x: 228.86631774902344
y: 260.9658203125
z: -0.0040830825455486774
","x: 224.36651611328125
y: 263.3212890625
z: -0.006433496717363596
","x: 223.81813049316406
y: 257.9795837402344
z: -0.008125301450490952
","x: 225.63258361816406
y: 259.7852783203125
z: -0.0074028088711202145
","x: 226.85818481445312
y: 263.0191345214844
z: -0.006270705722272396
",,,,,,,,,,,,,,,,,,,,,
12,"x: 247.27810668945312
y: 210.60736083984375
z: -0.1871950775384903
visibility: 0.9999936819076538
","x: 249.742919921875
y: 202.8166961669922
z: -0.17172792553901672
visibility: 0.9999906420707703
","x: 251.57009887695312
y: 202.65573120117188
z: -0.17176033556461334
visibility: 0.9999898076057434
","x: 253.01113891601562
y: 202.5325927734375
z: -0.1717728227376938
visibility: 0.9999899864196777
","x: 244.3343048095703
y: 204.0982666015625
z: -0.16767160594463348
visibility: 0.9999857544898987
","x: 242.72653198242188
y: 204.42758178710938
z: -0.16768357157707214
visibility: 0.9999807476997375
","x: 241.027587890625
y: 204.92674255371094
z: -0.16767610609531403
visibility: 0.9999797940254211
","x: 256.481689453125
y: 207.13632202148438
z: -0.06574840843677521
visibility: 0.9999798536300659
","x: 239.27670288085938
y: 209.86666870117188
z: -0.046606291085481644
visibility: 0.9999573826789856
","x: 251.22315979003906
y: 218.58917236328125
z: -0.14684273302555084
visibility: 0.9999882578849792
","x: 244.72128295898438
y: 219.16197204589844
z: -0.14146743714809418
visibility: 0.9999825954437256
","x: 270.978515625
y: 255.74850463867188
z: -0.0047803339548408985
visibility: 0.9999533891677856
","x: 229.89283752441406
y: 256.0681457519531
z: 0.01959928311407566
visibility: 0.9998226165771484
","x: 277.81439208984375
y: 315.8402099609375
z: -0.12907293438911438
visibility: 0.9860467314720154
","x: 221.36817932128906
y: 317.6946716308594
z: -0.09265635907649994
visibility: 0.9395534992218018
","x: 273.161376953125
y: 269.3953857421875
z: -0.32936891913414
visibility: 0.994970977306366
","x: 231.69082641601562
y: 281.70361328125
z: -0.318630576133728
visibility: 0.9773446917533875
","x: 273.1469421386719
y: 253.15530395507812
z: -0.3660658299922943
visibility: 0.9865257143974304
","x: 234.2728271484375
y: 270.4110412597656
z: -0.35948723554611206
visibility: 0.9528793692588806
","x: 272.9509582519531
y: 248.7875213623047
z: -0.35711273550987244
visibility: 0.9863070845603943
","x: 234.474609375
y: 264.10687255859375
z: -0.3550855219364166
visibility: 0.9506802558898926
","x: 271.65350341796875
y: 255.21981811523438
z: -0.32942983508110046
visibility: 0.9777541160583496
","x: 235.09519958496094
y: 267.08209228515625
z: -0.3224013149738312
visibility: 0.9330419301986694
","x: 259.7196044921875
y: 369.6497802734375
z: -0.004440917633473873
visibility: 0.9997121691703796
","x: 234.80221557617188
y: 366.5859680175781
z: 0.004350790288299322
visibility: 0.9996495246887207
","x: 261.0219421386719
y: 458.901611328125
z: -0.04030689224600792
visibility: 0.9910357594490051
","x: 224.81320190429688
y: 454.6120910644531
z: -0.0011207752395421267
visibility: 0.9920814037322998
","x: 265.1435241699219
y: 536.7328491210938
z: 0.11423484236001968
visibility: 0.9900059103965759
","x: 216.298095703125
y: 523.2225952148438
z: 0.22107593715190887
visibility: 0.9857532382011414
","x: 264.7281494140625
y: 547.579833984375
z: 0.12269125878810883
visibility: 0.8800515532493591
","x: 217.63043212890625
y: 532.38525390625
z: 0.23803870379924774
visibility: 0.8192702531814575
","x: 264.1702880859375
y: 561.6504516601562
z: -0.01163331139832735
visibility: 0.9834422469139099
","x: 211.34249877929688
y: 550.36865234375
z: 0.1304619014263153
visibility: 0.9786298871040344
","x: 230.39578247070312
y: 277.97344970703125
z: 0.0
","x: 233.085693359375
y: 270.404296875
z: -0.0003579993499442935
","x: 233.6690216064453
y: 262.2046203613281
z: -0.001280422555282712
","x: 232.51519775390625
y: 256.16033935546875
z: -0.003112970618531108
","x: 230.2049102783203
y: 253.47021484375
z: -0.004344858694821596
","x: 230.2545928955078
y: 255.49026489257812
z: 0.0015913575189188123
","x: 228.889404296875
y: 247.24996948242188
z: -0.001677793450653553
","x: 230.36221313476562
y: 247.0316162109375
z: -0.0032678265124559402
","x: 231.63424682617188
y: 248.59881591796875
z: -0.00380492745898664
","x: 228.1988067626953
y: 257.0484619140625
z: -0.0004995962372049689
","x: 226.92889404296875
y: 248.97988891601562
z: -0.003501744009554386
","x: 228.91567993164062
y: 251.65777587890625
z: -0.004308622796088457
","x: 230.1501007080078
y: 255.3663330078125
z: -0.004192320629954338
","x: 226.1992950439453
y: 259.6856384277344
z: -0.0032595915254205465
","x: 225.34336853027344
y: 253.33876037597656
z: -0.005978934932500124
","x: 227.5897216796875
y: 256.92095947265625
z: -0.005248475819826126
","x: 228.86631774902344
y: 260.9658203125
z: -0.0040830825455486774
","x: 224.36651611328125
y: 263.3212890625
z: -0.006433496717363596
","x: 223.81813049316406
y: 257.9795837402344
z: -0.008125301450490952
","x: 225.63258361816406
y: 259.7852783203125
z: -0.0074028088711202145
","x: 226.85818481445312
y: 263.0191345214844
z: -0.006270705722272396
",,,,,,,,,,,,,,,,,,,,,
13,"x: 246.10826110839844
y: 210.71066284179688
z: -0.1756628006696701
visibility: 0.9999921321868896
","x: 248.19952392578125
y: 202.86856079101562
z: -0.1665252149105072
visibility: 0.9999881982803345
","x: 250.04373168945312
y: 202.57098388671875
z: -0.16658252477645874
visibility: 0.9999872446060181
","x: 251.8141632080078
y: 202.419189453125
z: -0.16662317514419556
visibility: 0.9999873042106628
","x: 243.07904052734375
y: 204.57672119140625
z: -0.15512225031852722
visibility: 0.9999821186065674
","x: 241.4385528564453
y: 205.19537353515625
z: -0.15516316890716553
visibility: 0.9999764561653137
","x: 240.30274963378906
y: 205.85443115234375
z: -0.15520957112312317
visibility: 0.9999757409095764
","x: 255.1797332763672
y: 206.91954040527344
z: -0.06001175567507744
visibility: 0.9999770522117615
","x: 239.03118896484375
y: 210.89230346679688
z: -0.030409013852477074
visibility: 0.9999495148658752
","x: 250.3561553955078
y: 218.5803985595703
z: -0.14047935605049133
visibility: 0.9999871253967285
","x: 243.72511291503906
y: 219.46145629882812
z: -0.1276863068342209
visibility: 0.9999797940254211
","x: 269.9677734375
y: 255.41714477539062
z: -0.010728704743087292
visibility: 0.9999491572380066
","x: 230.03543090820312
y: 256.0152893066406
z: 0.034015901386737823
visibility: 0.9998191595077515
","x: 276.6911926269531
y: 314.95404052734375
z: -0.1487647145986557
visibility: 0.9863014817237854
","x: 219.53182983398438
y: 313.26025390625
z: -0.08000438660383224
visibility: 0.9403831362724304
","x: 266.30126953125
y: 267.44775390625
z: -0.3377858102321625
visibility: 0.9943347573280334
","x: 223.09646606445312
y: 269.74029541015625
z: -0.2999076247215271
visibility: 0.9772692322731018
","x: 264.4596252441406
y: 252.7429962158203
z: -0.37180930376052856
visibility: 0.9849056005477905
","x: 223.03860473632812
y: 255.99072265625
z: -0.336731493473053
visibility: 0.952115535736084
","x: 265.1585998535156
y: 247.48516845703125
z: -0.3586040735244751
visibility: 0.9843844771385193
","x: 223.556640625
y: 250.74749755859375
z: -0.32882851362228394
visibility: 0.9495558738708496
","x: 264.49041748046875
y: 253.15980529785156
z: -0.33552974462509155
visibility: 0.9747130274772644
","x: 224.54249572753906
y: 254.319580078125
z: -0.30242249369621277
visibility: 0.9317824244499207
","x: 255.76708984375
y: 369.2898254394531
z: -0.014332124963402748
visibility: 0.9997225403785706
","x: 230.42477416992188
y: 365.72430419921875
z: 0.014194493182003498
visibility: 0.9996481537818909
","x: 258.1248474121094
y: 458.8046569824219
z: -0.031152740120887756
visibility: 0.9913802146911621
","x: 221.2439727783203
y: 454.2220764160156
z: 0.020849276334047318
visibility: 0.9920263886451721
","x: 264.9114990234375
y: 536.0068969726562
z: 0.09730768948793411
visibility: 0.990135133266449
","x: 214.62213134765625
y: 522.7796630859375
z: 0.21470388770103455
visibility: 0.984710156917572
","x: 264.5538024902344
y: 546.7222900390625
z: 0.10353413969278336
visibility: 0.8687068223953247
","x: 216.41197204589844
y: 532.3778076171875
z: 0.22921021282672882
visibility: 0.811987578868866
","x: 263.3565368652344
y: 561.5698852539062
z: -0.028345569968223572
visibility: 0.9832422137260437
","x: 211.1616668701172
y: 548.581787109375
z: 0.12308254092931747
visibility: 0.9771996140480042
","x: 222.0489959716797
y: 262.6096496582031
z: 0.0
","x: 225.21934509277344
y: 254.9867401123047
z: 0.0002476654190104455
","x: 227.23089599609375
y: 247.7055206298828
z: -0.0003254576586186886
","x: 228.78858947753906
y: 242.38656616210938
z: -0.0020583102013915777
","x: 230.53961181640625
y: 239.8211669921875
z: -0.00310938130132854
","x: 222.85711669921875
y: 241.41685485839844
z: 0.0030358354561030865
","x: 221.87628173828125
y: 234.51690673828125
z: 0.0003673384489957243
","x: 222.94761657714844
y: 238.47047424316406
z: -0.000669727276545018
","x: 223.60546875
y: 242.6575469970703
z: -0.0008555600652471185
","x: 220.8550567626953
y: 242.35121154785156
z: 0.0007611296605318785
","x: 220.03656005859375
y: 235.79843139648438
z: -0.0020690709352493286
","x: 221.1341552734375
y: 240.53228759765625
z: -0.0026842751540243626
","x: 221.62286376953125
y: 245.09991455078125
z: -0.002224966883659363
","x: 218.71173095703125
y: 244.23135375976562
z: -0.002181394724175334
","x: 217.7757110595703
y: 238.3184051513672
z: -0.004552918951958418
","x: 219.11105346679688
y: 242.47952270507812
z: -0.0037569201085716486
","x: 219.87628173828125
y: 246.55804443359375
z: -0.0025006518699228764
","x: 216.40455627441406
y: 246.83001708984375
z: -0.005488816183060408
","x: 215.47671508789062
y: 241.4331817626953
z: -0.006385867949575186
","x: 216.68846130371094
y: 243.31346130371094
z: -0.005477840546518564
","x: 217.68093872070312
y: 246.13388061523438
z: -0.004308786708861589
",,,,,,,,,,,,,,,,,,,,,
14,"x: 246.10826110839844
y: 210.71066284179688
z: -0.1756628006696701
visibility: 0.9999921321868896
","x: 248.19952392578125
y: 202.86856079101562
z: -0.1665252149105072
visibility: 0.9999881982803345
","x: 250.04373168945312
y: 202.57098388671875
z: -0.16658252477645874
visibility: 0.9999872446060181
","x: 251.8141632080078
y: 202.419189453125
z: -0.16662317514419556
visibility: 0.9999873042106628
","x: 243.07904052734375
y: 204.57672119140625
z: -0.15512225031852722
visibility: 0.9999821186065674
","x: 241.4385528564453
y: 205.19537353515625
z: -0.15516316890716553
visibility: 0.9999764561653137
","x: 240.30274963378906
y: 205.85443115234375
z: -0.15520957112312317
visibility: 0.9999757409095764
","x: 255.1797332763672
y: 206.91954040527344
z: -0.06001175567507744
visibility: 0.9999770522117615
","x: 239.03118896484375
y: 210.89230346679688
z: -0.030409013852477074
visibility: 0.9999495148658752
","x: 250.3561553955078
y: 218.5803985595703
z: -0.14047935605049133
visibility: 0.9999871253967285
","x: 243.72511291503906
y: 219.46145629882812
z: -0.1276863068342209
visibility: 0.9999797940254211
","x: 269.9677734375
y: 255.41714477539062
z: -0.010728704743087292
visibility: 0.9999491572380066
","x: 230.03543090820312
y: 256.0152893066406
z: 0.034015901386737823
visibility: 0.9998191595077515
","x: 276.6911926269531
y: 314.95404052734375
z: -0.1487647145986557
visibility: 0.9863014817237854
","x: 219.53182983398438
y: 313.26025390625
z: -0.08000438660383224
visibility: 0.9403831362724304
","x: 266.30126953125
y: 267.44775390625
z: -0.3377858102321625
visibility: 0.9943347573280334
","x: 223.09646606445312
y: 269.74029541015625
z: -0.2999076247215271
visibility: 0.9772692322731018
","x: 264.4596252441406
y: 252.7429962158203
z: -0.37180930376052856
visibility: 0.9849056005477905
","x: 223.03860473632812
y: 255.99072265625
z: -0.336731493473053
visibility: 0.952115535736084
","x: 265.1585998535156
y: 247.48516845703125
z: -0.3586040735244751
visibility: 0.9843844771385193
","x: 223.556640625
y: 250.74749755859375
z: -0.32882851362228394
visibility: 0.9495558738708496
","x: 264.49041748046875
y: 253.15980529785156
z: -0.33552974462509155
visibility: 0.9747130274772644
","x: 224.54249572753906
y: 254.319580078125
z: -0.30242249369621277
visibility: 0.9317824244499207
","x: 255.76708984375
y: 369.2898254394531
z: -0.014332124963402748
visibility: 0.9997225403785706
","x: 230.42477416992188
y: 365.72430419921875
z: 0.014194493182003498
visibility: 0.9996481537818909
","x: 258.1248474121094
y: 458.8046569824219
z: -0.031152740120887756
visibility: 0.9913802146911621
","x: 221.2439727783203
y: 454.2220764160156
z: 0.020849276334047318
visibility: 0.9920263886451721
","x: 264.9114990234375
y: 536.0068969726562
z: 0.09730768948793411
visibility: 0.990135133266449
","x: 214.62213134765625
y: 522.7796630859375
z: 0.21470388770103455
visibility: 0.984710156917572
","x: 264.5538024902344
y: 546.7222900390625
z: 0.10353413969278336
visibility: 0.8687068223953247
","x: 216.41197204589844
y: 532.3778076171875
z: 0.22921021282672882
visibility: 0.811987578868866
","x: 263.3565368652344
y: 561.5698852539062
z: -0.028345569968223572
visibility: 0.9832422137260437
","x: 211.1616668701172
y: 548.581787109375
z: 0.12308254092931747
visibility: 0.9771996140480042
","x: 222.0489959716797
y: 262.6096496582031
z: 0.0
","x: 225.21934509277344
y: 254.9867401123047
z: 0.0002476654190104455
","x: 227.23089599609375
y: 247.7055206298828
z: -0.0003254576586186886
","x: 228.78858947753906
y: 242.38656616210938
z: -0.0020583102013915777
","x: 230.53961181640625
y: 239.8211669921875
z: -0.00310938130132854
","x: 222.85711669921875
y: 241.41685485839844
z: 0.0030358354561030865
","x: 221.87628173828125
y: 234.51690673828125
z: 0.0003673384489957243
","x: 222.94761657714844
y: 238.47047424316406
z: -0.000669727276545018
","x: 223.60546875
y: 242.6575469970703
z: -0.0008555600652471185
","x: 220.8550567626953
y: 242.35121154785156
z: 0.0007611296605318785
","x: 220.03656005859375
y: 235.79843139648438
z: -0.0020690709352493286
","x: 221.1341552734375
y: 240.53228759765625
z: -0.0026842751540243626
","x: 221.62286376953125
y: 245.09991455078125
z: -0.002224966883659363
","x: 218.71173095703125
y: 244.23135375976562
z: -0.002181394724175334
","x: 217.7757110595703
y: 238.3184051513672
z: -0.004552918951958418
","x: 219.11105346679688
y: 242.47952270507812
z: -0.0037569201085716486
","x: 219.87628173828125
y: 246.55804443359375
z: -0.0025006518699228764
","x: 216.40455627441406
y: 246.83001708984375
z: -0.005488816183060408
","x: 215.47671508789062
y: 241.4331817626953
z: -0.006385867949575186
","x: 216.68846130371094
y: 243.31346130371094
z: -0.005477840546518564
","x: 217.68093872070312
y: 246.13388061523438
z: -0.004308786708861589
",,,,,,,,,,,,,,,,,,,,,
15,"x: 241.39039611816406
y: 213.64581298828125
z: -0.17925240099430084
visibility: 0.9999924302101135
","x: 243.74928283691406
y: 206.15985107421875
z: -0.16687782108783722
visibility: 0.9999884963035583
","x: 245.6737823486328
y: 206.1080780029297
z: -0.16692319512367249
visibility: 0.9999876022338867
","x: 247.68368530273438
y: 206.177001953125
z: -0.1669355183839798
visibility: 0.9999875426292419
","x: 239.21981811523438
y: 206.89093017578125
z: -0.15894652903079987
visibility: 0.9999826550483704
","x: 237.52015686035156
y: 207.35861206054688
z: -0.15896272659301758
visibility: 0.9999772906303406
","x: 236.22622680664062
y: 207.87599182128906
z: -0.15895286202430725
visibility: 0.999976634979248
","x: 251.5542449951172
y: 210.18540954589844
z: -0.06986188143491745
visibility: 0.9999778270721436
","x: 234.7509765625
y: 212.19082641601562
z: -0.037236396223306656
visibility: 0.9999512434005737
","x: 244.62867736816406
y: 221.47732543945312
z: -0.1434822976589203
visibility: 0.9999878406524658
","x: 238.98666381835938
y: 221.83697509765625
z: -0.13354209065437317
visibility: 0.9999809265136719
","x: 262.9495849609375
y: 258.48883056640625
z: -0.020500371232628822
visibility: 0.9999497532844543
","x: 223.3868865966797
y: 256.3757629394531
z: 0.036140650510787964
visibility: 0.99982750415802
","x: 268.0396728515625
y: 318.16143798828125
z: -0.13565988838672638
visibility: 0.9868908524513245
","x: 212.1773223876953
y: 313.2897033691406
z: -0.06131342053413391
visibility: 0.9431029558181763
","x: 258.49029541015625
y: 275.1452331542969
z: -0.32517534494400024
visibility: 0.9941737651824951
","x: 215.72616577148438
y: 270.31317138671875
z: -0.2936367094516754
visibility: 0.9781886339187622
","x: 257.5638732910156
y: 262.7710266113281
z: -0.3628675043582916
visibility: 0.9844452142715454
","x: 214.64404296875
y: 257.322265625
z: -0.3322030305862427
visibility: 0.9536986351013184
","x: 257.3219909667969
y: 256.150146484375
z: -0.3557507395744324
visibility: 0.9838209748268127
","x: 215.21481323242188
y: 252.09674072265625
z: -0.32619014382362366
visibility: 0.9510856866836548
","x: 256.5008850097656
y: 260.21221923828125
z: -0.3259100317955017
visibility: 0.9737129211425781
","x: 216.22640991210938
y: 255.42764282226562
z: -0.2968079149723053
visibility: 0.9337466955184937
","x: 247.92234802246094
y: 370.2569885253906
z: -0.01798776537179947
visibility: 0.9997332096099854
","x: 223.83773803710938
y: 366.3026123046875
z: 0.017825651913881302
visibility: 0.9996516108512878
","x: 251.8078155517578
y: 458.73516845703125
z: -0.02490289881825447
visibility: 0.9919210076332092
","x: 217.96119689941406
y: 454.1856689453125
z: 0.029773274436593056
visibility: 0.9923137426376343
","x: 264.86395263671875
y: 535.8147583007812
z: 0.10696743428707123
visibility: 0.9906752109527588
","x: 213.724853515625
y: 524.134033203125
z: 0.22516243159770966
visibility: 0.9848822951316833
","x: 265.216552734375
y: 546.4660034179688
z: 0.11346528679132462
visibility: 0.8674620985984802
","x: 214.62432861328125
y: 533.9472045898438
z: 0.23982851207256317
visibility: 0.8128715753555298
","x: 262.4812927246094
y: 561.2023315429688
z: -0.018157152459025383
visibility: 0.983948290348053
","x: 211.28411865234375
y: 549.8565063476562
z: 0.12989898025989532
visibility: 0.9773486256599426
","x: 215.34451293945312
y: 270.5827941894531
z: 0.0
","x: 218.2490234375
y: 261.88641357421875
z: 0.0005901719559915364
","x: 219.84512329101562
y: 254.00811767578125
z: 0.00025933171855285764
","x: 220.50479125976562
y: 248.01333618164062
z: -0.001248238841071725
","x: 221.1350555419922
y: 245.0491180419922
z: -0.0018882335862144828
","x: 215.74317932128906
y: 248.70745849609375
z: 0.0033121078740805387
","x: 214.59628295898438
y: 240.84774780273438
z: 0.0005060179391875863
","x: 215.97035217285156
y: 245.02000427246094
z: -0.00013801603927277029
","x: 216.9400177001953
y: 249.16175842285156
z: 7.421489135595039e-05
","x: 213.8013153076172
y: 250.27432250976562
z: 0.0010384003398939967
","x: 213.3485565185547
y: 244.5200958251953
z: -0.0016195907955989242
","x: 214.89097595214844
y: 250.25491333007812
z: -0.0014612915692850947
","x: 215.44921875
y: 254.36233520507812
z: -0.00046322972048074007
","x: 211.72763061523438
y: 252.73983764648438
z: -0.001955789979547262
","x: 211.5085906982422
y: 248.23463439941406
z: -0.004577372223138809
","x: 213.1122283935547
y: 253.2253875732422
z: -0.003247812855988741
","x: 213.7228240966797
y: 256.9165344238281
z: -0.001518263597972691
","x: 209.4950714111328
y: 255.73663330078125
z: -0.005255401600152254
","x: 209.16744995117188
y: 250.95523071289062
z: -0.006371085066348314
","x: 210.49221801757812
y: 253.7435302734375
z: -0.00509680574759841
","x: 211.17233276367188
y: 256.709716796875
z: -0.00351285794749856
",,,,,,,,,,,,,,,,,,,,,
16,"x: 241.39039611816406
y: 213.64581298828125
z: -0.17925240099430084
visibility: 0.9999924302101135
","x: 243.74928283691406
y: 206.15985107421875
z: -0.16687782108783722
visibility: 0.9999884963035583
","x: 245.6737823486328
y: 206.1080780029297
z: -0.16692319512367249
visibility: 0.9999876022338867
","x: 247.68368530273438
y: 206.177001953125
z: -0.1669355183839798
visibility: 0.9999875426292419
","x: 239.21981811523438
y: 206.89093017578125
z: -0.15894652903079987
visibility: 0.9999826550483704
","x: 237.52015686035156
y: 207.35861206054688
z: -0.15896272659301758
visibility: 0.9999772906303406
","x: 236.22622680664062
y: 207.87599182128906
z: -0.15895286202430725
visibility: 0.999976634979248
","x: 251.5542449951172
y: 210.18540954589844
z: -0.06986188143491745
visibility: 0.9999778270721436
","x: 234.7509765625
y: 212.19082641601562
z: -0.037236396223306656
visibility: 0.9999512434005737
","x: 244.62867736816406
y: 221.47732543945312
z: -0.1434822976589203
visibility: 0.9999878406524658
","x: 238.98666381835938
y: 221.83697509765625
z: -0.13354209065437317
visibility: 0.9999809265136719
","x: 262.9495849609375
y: 258.48883056640625
z: -0.020500371232628822
visibility: 0.9999497532844543
","x: 223.3868865966797
y: 256.3757629394531
z: 0.036140650510787964
visibility: 0.99982750415802
","x: 268.0396728515625
y: 318.16143798828125
z: -0.13565988838672638
visibility: 0.9868908524513245
","x: 212.1773223876953
y: 313.2897033691406
z: -0.06131342053413391
visibility: 0.9431029558181763
","x: 258.49029541015625
y: 275.1452331542969
z: -0.32517534494400024
visibility: 0.9941737651824951
","x: 215.72616577148438
y: 270.31317138671875
z: -0.2936367094516754
visibility: 0.9781886339187622
","x: 257.5638732910156
y: 262.7710266113281
z: -0.3628675043582916
visibility: 0.9844452142715454
","x: 214.64404296875
y: 257.322265625
z: -0.3322030305862427
visibility: 0.9536986351013184
","x: 257.3219909667969
y: 256.150146484375
z: -0.3557507395744324
visibility: 0.9838209748268127
","x: 215.21481323242188
y: 252.09674072265625
z: -0.32619014382362366
visibility: 0.9510856866836548
","x: 256.5008850097656
y: 260.21221923828125
z: -0.3259100317955017
visibility: 0.9737129211425781
","x: 216.22640991210938
y: 255.42764282226562
z: -0.2968079149723053
visibility: 0.9337466955184937
","x: 247.92234802246094
y: 370.2569885253906
z: -0.01798776537179947
visibility: 0.9997332096099854
","x: 223.83773803710938
y: 366.3026123046875
z: 0.017825651913881302
visibility: 0.9996516108512878
","x: 251.8078155517578
y: 458.73516845703125
z: -0.02490289881825447
visibility: 0.9919210076332092
","x: 217.96119689941406
y: 454.1856689453125
z: 0.029773274436593056
visibility: 0.9923137426376343
","x: 264.86395263671875
y: 535.8147583007812
z: 0.10696743428707123
visibility: 0.9906752109527588
","x: 213.724853515625
y: 524.134033203125
z: 0.22516243159770966
visibility: 0.9848822951316833
","x: 265.216552734375
y: 546.4660034179688
z: 0.11346528679132462
visibility: 0.8674620985984802
","x: 214.62432861328125
y: 533.9472045898438
z: 0.23982851207256317
visibility: 0.8128715753555298
","x: 262.4812927246094
y: 561.2023315429688
z: -0.018157152459025383
visibility: 0.983948290348053
","x: 211.28411865234375
y: 549.8565063476562
z: 0.12989898025989532
visibility: 0.9773486256599426
","x: 215.34451293945312
y: 270.5827941894531
z: 0.0
","x: 218.2490234375
y: 261.88641357421875
z: 0.0005901719559915364
","x: 219.84512329101562
y: 254.00811767578125
z: 0.00025933171855285764
","x: 220.50479125976562
y: 248.01333618164062
z: -0.001248238841071725
","x: 221.1350555419922
y: 245.0491180419922
z: -0.0018882335862144828
","x: 215.74317932128906
y: 248.70745849609375
z: 0.0033121078740805387
","x: 214.59628295898438
y: 240.84774780273438
z: 0.0005060179391875863
","x: 215.97035217285156
y: 245.02000427246094
z: -0.00013801603927277029
","x: 216.9400177001953
y: 249.16175842285156
z: 7.421489135595039e-05
","x: 213.8013153076172
y: 250.27432250976562
z: 0.0010384003398939967
","x: 213.3485565185547
y: 244.5200958251953
z: -0.0016195907955989242
","x: 214.89097595214844
y: 250.25491333007812
z: -0.0014612915692850947
","x: 215.44921875
y: 254.36233520507812
z: -0.00046322972048074007
","x: 211.72763061523438
y: 252.73983764648438
z: -0.001955789979547262
","x: 211.5085906982422
y: 248.23463439941406
z: -0.004577372223138809
","x: 213.1122283935547
y: 253.2253875732422
z: -0.003247812855988741
","x: 213.7228240966797
y: 256.9165344238281
z: -0.001518263597972691
","x: 209.4950714111328
y: 255.73663330078125
z: -0.005255401600152254
","x: 209.16744995117188
y: 250.95523071289062
z: -0.006371085066348314
","x: 210.49221801757812
y: 253.7435302734375
z: -0.00509680574759841
","x: 211.17233276367188
y: 256.709716796875
z: -0.00351285794749856
",,,,,,,,,,,,,,,,,,,,,
17,"x: 239.16275024414062
y: 214.08010864257812
z: -0.19371500611305237
visibility: 0.9999921917915344
","x: 241.70150756835938
y: 206.9859619140625
z: -0.17672011256217957
visibility: 0.9999881982803345
","x: 243.52255249023438
y: 207.26318359375
z: -0.17676827311515808
visibility: 0.9999871850013733
","x: 245.30084228515625
y: 207.54869079589844
z: -0.1768004596233368
visibility: 0.9999870657920837
","x: 237.1454315185547
y: 206.82992553710938
z: -0.17550715804100037
visibility: 0.9999823570251465
","x: 235.37136840820312
y: 207.01531982421875
z: -0.17549826204776764
visibility: 0.9999769330024719
","x: 233.8772735595703
y: 207.27630615234375
z: -0.1754654496908188
visibility: 0.9999762773513794
","x: 248.00360107421875
y: 211.69793701171875
z: -0.06459318101406097
visibility: 0.9999769330024719
","x: 230.99586486816406
y: 211.63247680664062
z: -0.058988362550735474
visibility: 0.9999517202377319
","x: 241.6094970703125
y: 222.3052978515625
z: -0.15104958415031433
visibility: 0.9999879598617554
","x: 235.94540405273438
y: 221.92138671875
z: -0.1498194932937622
visibility: 0.9999815225601196
","x: 257.0102233886719
y: 258.6700744628906
z: -0.005161686800420284
visibility: 0.9999486207962036
","x: 217.5757598876953
y: 256.2896728515625
z: 0.012034881860017776
visibility: 0.9998282790184021
","x: 262.6605529785156
y: 318.0986633300781
z: -0.12198738753795624
visibility: 0.9850978255271912
","x: 209.7077178955078
y: 313.7701110839844
z: -0.09596055001020432
visibility: 0.9425182342529297
","x: 258.5785217285156
y: 277.02947998046875
z: -0.3308747708797455
visibility: 0.9925071001052856
","x: 214.9171600341797
y: 276.46282958984375
z: -0.3285093605518341
visibility: 0.9762300848960876
","x: 258.44207763671875
y: 266.02288818359375
z: -0.3728361427783966
visibility: 0.9807979464530945
","x: 216.36538696289062
y: 266.28582763671875
z: -0.3727615773677826
visibility: 0.9502347111701965
","x: 257.98382568359375
y: 260.4236145019531
z: -0.3675759434700012
visibility: 0.9800760746002197
","x: 217.20989990234375
y: 260.44970703125
z: -0.3703358769416809
visibility: 0.947385847568512
","x: 256.8175048828125
y: 264.14910888671875
z: -0.33339381217956543
visibility: 0.96812504529953
","x: 217.40585327148438
y: 263.4036560058594
z: -0.33304330706596375
visibility: 0.9286197423934937
","x: 247.2681427001953
y: 369.9351806640625
z: -0.001932782121002674
visibility: 0.9997433423995972
","x: 222.42184448242188
y: 366.1004638671875
z: 0.0017511049518361688
visibility: 0.9996572732925415
","x: 252.61854553222656
y: 458.5784912109375
z: -0.02226928062736988
visibility: 0.9922333359718323
","x: 217.4947052001953
y: 454.1474609375
z: -0.005167229566723108
visibility: 0.9923170208930969
","x: 262.4042663574219
y: 535.6336669921875
z: 0.14801856875419617
visibility: 0.9909477233886719
","x: 213.5023956298828
y: 523.366943359375
z: 0.20477207005023956
visibility: 0.9849193692207336
","x: 260.60394287109375
y: 546.010986328125
z: 0.15833809971809387
visibility: 0.8695340752601624
","x: 214.26780700683594
y: 532.3688354492188
z: 0.21971586346626282
visibility: 0.8105449080467224
","x: 263.4684753417969
y: 560.2652587890625
z: 0.02305041253566742
visibility: 0.9843407869338989
","x: 211.9038848876953
y: 550.4264526367188
z: 0.10027303546667099
visibility: 0.9773240089416504
",,,,,,,,,,,,,,,,,,,,,,,,,,,,,,,,,,,,,,,,,,
18,"x: 239.03163146972656
y: 214.1044464111328
z: -0.18705721199512482
visibility: 0.9999909400939941
","x: 242.12506103515625
y: 207.20599365234375
z: -0.1692841351032257
visibility: 0.9999862313270569
","x: 243.864990234375
y: 207.49147033691406
z: -0.16932794451713562
visibility: 0.999984860420227
","x: 245.54904174804688
y: 207.8013916015625
z: -0.16935738921165466
visibility: 0.9999850988388062
","x: 237.04562377929688
y: 206.44854736328125
z: -0.17070186138153076
visibility: 0.9999791979789734
","x: 235.15682983398438
y: 206.43760681152344
z: -0.1706947684288025
visibility: 0.9999728202819824
","x: 233.72935485839844
y: 206.77499389648438
z: -0.17066721618175507
visibility: 0.9999719858169556
","x: 247.31588745117188
y: 212.165771484375
z: -0.05746633931994438
visibility: 0.9999739527702332
","x: 229.83155822753906
y: 211.19143676757812
z: -0.06328906118869781
visibility: 0.9999461770057678
","x: 241.2124481201172
y: 222.63282775878906
z: -0.1442650407552719
visibility: 0.9999868273735046
","x: 235.04779052734375
y: 221.7507781982422
z: -0.1455734670162201
visibility: 0.9999797940254211
","x: 256.1093444824219
y: 255.6138916015625
z: 0.013825222849845886
visibility: 0.999949038028717
