uscmakers/ReverseChoreography/data/8_peaches_justin_bieber.csv
,NOSE,LEFT_EYE_INNER,LEFT_EYE,LEFT_EYE_OUTER,RIGHT_EYE_INNER,RIGHT_EYE,RIGHT_EYE_OUTER,LEFT_EAR,RIGHT_EAR,MOUTH_LEFT,MOUTH_RIGHT,LEFT_SHOULDER,RIGHT_SHOULDER,LEFT_ELBOW,RIGHT_ELBOW,LEFT_WRIST,RIGHT_WRIST,LEFT_PINKY,RIGHT_PINKY,LEFT_INDEX,RIGHT_INDEX,LEFT_THUMB,RIGHT_THUMB,LEFT_HIP,RIGHT_HIP,LEFT_KNEE,RIGHT_KNEE,LEFT_ANKLE,RIGHT_ANKLE,LEFT_HEEL,RIGHT_HEEL,LEFT_FOOT_INDEX,RIGHT_FOOT_INDEX,WRIST2,THUMB_CPC2,THUMB_MCP2,THUMB_IP2,THUMB_TIP2,INDEX_FINGER_MCP2,INDEX_FINGER_PIP2,INDEX_FINGER_DIP2,INDEX_FINGER_TIP2,MIDDLE_FINGER_MCP2,MIDDLE_FINGER_PIP2,MIDDLE_FINGER_DIP2,MIDDLE_FINGER_TIP2,RING_FINGER_PIP2,RING_FINGER_DIP2,RING_FINGER_TIP2,RING_FINGER_MCP2,PINKY_MCP2,PINKY_PIP2,PINKY_DIP2,PINKY_TIP2,WRIST,THUMB_CPC,THUMB_MCP,THUMB_IP,THUMB_TIP,INDEX_FINGER_MCP,INDEX_FINGER_PIP,INDEX_FINGER_DIP,INDEX_FINGER_TIP,MIDDLE_FINGER_MCP,MIDDLE_FINGER_PIP,MIDDLE_FINGER_DIP,MIDDLE_FINGER_TIP,RING_FINGER_PIP,RING_FINGER_DIP,RING_FINGER_TIP,RING_FINGER_MCP,PINKY_MCP,PINKY_PIP,PINKY_DIP,PINKY_TIP
0,"x: 214.66880798339844
y: 208.6154327392578
z: -0.3001807630062103
visibility: 0.9995576739311218
","x: 213.56048583984375
y: 200.3471221923828
z: -0.2744585871696472
visibility: 0.9992815852165222
","x: 213.84017944335938
y: 200.43641662597656
z: -0.2745152413845062
visibility: 0.9992225170135498
","x: 214.0872802734375
y: 200.52127075195312
z: -0.27456173300743103
visibility: 0.999030351638794
","x: 210.94943237304688
y: 199.8105010986328
z: -0.3068906366825104
visibility: 0.9993839263916016
","x: 209.36465454101562
y: 199.53147888183594
z: -0.30696600675582886
visibility: 0.9994139671325684
","x: 207.6422119140625
y: 199.25347900390625
z: -0.30700919032096863
visibility: 0.9994056224822998
","x: 209.10098266601562
y: 203.7063751220703
z: -0.1322501301765442
visibility: 0.9976186156272888
","x: 200.46539306640625
y: 202.6561737060547
z: -0.2767614722251892
visibility: 0.9995126724243164
","x: 213.67135620117188
y: 218.3949432373047
z: -0.2439856082201004
visibility: 0.9981399774551392
","x: 210.32835388183594
y: 217.79966735839844
z: -0.28589609265327454
visibility: 0.9990416169166565
","x: 205.78814697265625
y: 249.98370361328125
z: 0.030593205243349075
visibility: 0.9952021837234497
","x: 186.279052734375
y: 254.9774169921875
z: -0.287849098443985
visibility: 0.9994519352912903
","x: 198.46371459960938
y: 307.23590087890625
z: 0.08976557105779648
visibility: 0.033018115907907486
","x: 183.32415771484375
y: 314.40350341796875
z: -0.25333914160728455
visibility: 0.9688858389854431
","x: 195.9144744873047
y: 357.3422546386719
z: -0.019993852823972702
visibility: 0.0387311652302742
","x: 185.46438598632812
y: 364.79656982421875
z: -0.18111714720726013
visibility: 0.7952257990837097
","x: 199.0272674560547
y: 376.5938720703125
z: -0.03927681967616081
visibility: 0.044762253761291504
","x: 184.08734130859375
y: 378.3572692871094
z: -0.19927892088890076
visibility: 0.7267990112304688
","x: 199.3205108642578
y: 375.5972595214844
z: -0.06555360555648804
visibility: 0.04800868406891823
","x: 186.14833068847656
y: 374.39581298828125
z: -0.2108282744884491
visibility: 0.7195559144020081
","x: 197.94888305664062
y: 369.5511169433594
z: -0.037569012492895126
visibility: 0.04973195493221283
","x: 186.55181884765625
y: 371.81451416015625
z: -0.18275055289268494
visibility: 0.6596062779426575
","x: 197.81170654296875
y: 372.3536682128906
z: 0.09159355610609055
visibility: 0.9978762865066528
","x: 176.5329132080078
y: 372.8858947753906
z: -0.09150794893503189
visibility: 0.998471200466156
","x: 214.21890258789062
y: 453.65484619140625
z: 0.0289846770465374
visibility: 0.950817883014679
","x: 182.2444610595703
y: 464.6437072753906
z: -0.10745550692081451
visibility: 0.9904808402061462
","x: 200.8065948486328
y: 535.0287475585938
z: 0.19072772562503815
visibility: 0.9692065715789795
","x: 175.24850463867188
y: 550.120849609375
z: 0.04473774507641792
visibility: 0.9926235675811768
","x: 193.14450073242188
y: 549.8577880859375
z: 0.20052571594715118
visibility: 0.9225491881370544
","x: 172.666259765625
y: 564.8638305664062
z: 0.05183849483728409
visibility: 0.9089305400848389
","x: 215.88638305664062
y: 564.7246704101562
z: 0.107307568192482
visibility: 0.9774823784828186
","x: 188.21994018554688
y: 577.959228515625
z: -0.08329879492521286
visibility: 0.9889065027236938
",,,,,,,,,,,,,,,,,,,,,,,,,,,,,,,,,,,,,,,,,,
1,"x: 213.11741638183594
y: 209.742919921875
z: -0.3253577947616577
visibility: 0.9996017813682556
","x: 213.5048370361328
y: 200.78091430664062
z: -0.3131459355354309
visibility: 0.9993529319763184
","x: 214.1723175048828
y: 200.45379638671875
z: -0.31315767765045166
visibility: 0.9992997646331787
","x: 215.47421264648438
y: 200.36007690429688
z: -0.3132237493991852
visibility: 0.9991267323493958
","x: 209.58218383789062
y: 203.94949340820312
z: -0.3069027066230774
visibility: 0.9994451403617859
","x: 207.97767639160156
y: 205.4892578125
z: -0.306972473859787
visibility: 0.9994720816612244
","x: 206.29083251953125
y: 207.01637268066406
z: -0.3070107698440552
visibility: 0.9994643926620483
","x: 218.65420532226562
y: 203.43402099609375
z: -0.22000475227832794
visibility: 0.9978556632995605
","x: 203.7018280029297
y: 210.77328491210938
z: -0.1748487800359726
visibility: 0.9995610117912292
","x: 215.77102661132812
y: 218.40457153320312
z: -0.2896752953529358
visibility: 0.998325765132904
","x: 210.344970703125
y: 219.78781127929688
z: -0.28181973099708557
visibility: 0.9991370439529419
","x: 244.17189025878906
y: 247.757568359375
z: -0.127802312374115
visibility: 0.9956815242767334
","x: 202.6197509765625
y: 260.6003112792969
z: -0.10275330394506454
visibility: 0.999502956867218
","x: 277.4818115234375
y: 245.82574462890625
z: -0.15140381455421448
visibility: 0.1293795108795166
","x: 195.0674285888672
y: 313.04864501953125
z: 0.04076842963695526
visibility: 0.9637696743011475
","x: 309.3669738769531
y: 225.5302276611328
z: -0.24916264414787292
visibility: 0.13410159945487976
","x: 186.08616638183594
y: 355.5765380859375
z: 0.0984954833984375
visibility: 0.8036931753158569
","x: 316.9960632324219
y: 218.25636291503906
z: -0.27270594239234924
visibility: 0.1379430741071701
","x: 183.57723999023438
y: 365.1228332519531
z: 0.10797407478094101
visibility: 0.7312092185020447
","x: 317.1318664550781
y: 218.34112548828125
z: -0.2987866997718811
visibility: 0.14121216535568237
","x: 183.39474487304688
y: 365.36492919921875
z: 0.07430755347013474
visibility: 0.7259527444839478
","x: 314.77850341796875
y: 221.45059204101562
z: -0.26458364725112915
visibility: 0.14228229224681854
","x: 185.15582275390625
y: 362.8936767578125
z: 0.0870896726846695
visibility: 0.6730787754058838
","x: 238.8042449951172
y: 373.9947509765625
z: -0.004717438947409391
visibility: 0.9980878829956055
","x: 213.6974334716797
y: 372.8924255371094
z: 0.0048159207217395306
visibility: 0.9986197352409363
","x: 236.31564331054688
y: 462.6061706542969
z: -0.06816578656435013
visibility: 0.9553829431533813
","x: 212.01022338867188
y: 464.6258544921875
z: 0.01896391436457634
visibility: 0.9901487231254578
","x: 231.5568084716797
y: 543.8526611328125
z: 0.11412308365106583
visibility: 0.9710999727249146
","x: 214.8727569580078
y: 494.25286865234375
z: 0.4725656509399414
visibility: 0.953829824924469
","x: 229.781494140625
y: 555.38916015625
z: 0.12829020619392395
visibility: 0.9181979894638062
","x: 217.2991943359375
y: 491.53033447265625
z: 0.5178238749504089
visibility: 0.8608058094978333
","x: 233.04110717773438
y: 566.79248046875
z: 0.01016704086214304
visibility: 0.9775369763374329
","x: 209.1215057373047
y: 523.9566650390625
z: 0.48993486166000366
visibility: 0.96030193567276
",,,,,,,,,,,,,,,,,,,,,,,,,,,,,,,,,,,,,,,,,,
2,"x: 213.18394470214844
y: 205.4525146484375
z: -0.30358120799064636
visibility: 0.9996405839920044
","x: 214.50848388671875
y: 197.4659881591797
z: -0.29990190267562866
visibility: 0.999413013458252
","x: 216.15895080566406
y: 196.76451110839844
z: -0.30002400279045105
visibility: 0.9993667006492615
","x: 217.96815490722656
y: 196.14651489257812
z: -0.3002214729785919
visibility: 0.9992103576660156
","x: 209.74644470214844
y: 200.85389709472656
z: -0.27130308747291565
visibility: 0.9994924664497375
","x: 208.1909637451172
y: 202.59840393066406
z: -0.2712659537792206
visibility: 0.9995163083076477
","x: 206.81201171875
y: 204.3941650390625
z: -0.27118057012557983
visibility: 0.9995043277740479
","x: 223.21957397460938
y: 198.8842010498047
z: -0.1859852820634842
visibility: 0.9980674386024475
","x: 207.5575714111328
y: 209.8646697998047
z: -0.116602823138237
visibility: 0.999584972858429
","x: 217.49349975585938
y: 213.2265625
z: -0.28089484572410583
visibility: 0.9984900951385498
","x: 211.42286682128906
y: 215.25869750976562
z: -0.24187509715557098
visibility: 0.9992078542709351
","x: 245.50265502929688
y: 240.52833557128906
z: -0.12459047883749008
visibility: 0.9961123466491699
","x: 207.07691955566406
y: 259.232666015625
z: 0.004504866898059845
visibility: 0.9990857839584351
","x: 273.3393859863281
y: 251.39320373535156
z: -0.15914706885814667
visibility: 0.2161708027124405
","x: 202.7557373046875
y: 308.3603515625
z: 0.06089290976524353
visibility: 0.886879026889801
","x: 306.7471923828125
y: 251.07235717773438
z: -0.2755313515663147
visibility: 0.22002780437469482
","x: 190.9627685546875
y: 311.84161376953125
z: -0.02239305153489113
visibility: 0.7703088521957397
","x: 315.46319580078125
y: 247.96897888183594
z: -0.3045071065425873
visibility: 0.22253811359405518
","x: 187.55043029785156
y: 312.4213562011719
z: -0.03299279883503914
visibility: 0.7036845684051514
","x: 316.21649169921875
y: 246.27352905273438
z: -0.3371826410293579
visibility: 0.2258351445198059
","x: 184.49899291992188
y: 311.9427795410156
z: -0.06123179942369461
visibility: 0.7006160616874695
","x: 313.27691650390625
y: 248.22662353515625
z: -0.29265254735946655
visibility: 0.22659935057163239
","x: 186.3153076171875
y: 311.55316162109375
z: -0.03699500486254692
visibility: 0.6563779711723328
","x: 241.83804321289062
y: 369.5578308105469
z: -0.05095437914133072
visibility: 0.9982612729072571
","x: 218.62899780273438
y: 366.3707275390625
z: 0.05091589689254761
visibility: 0.9986827969551086
","x: 235.57969665527344
y: 461.83782958984375
z: -0.07963693886995316
visibility: 0.9594501256942749
","x: 206.7456817626953
y: 455.8200378417969
z: 0.02339852973818779
visibility: 0.9903955459594727
","x: 237.72047424316406
y: 542.5620727539062
z: 0.14647358655929565
visibility: 0.973645806312561
","x: 207.6665496826172
y: 516.2890625
z: 0.2768152058124542
visibility: 0.9578861594200134
","x: 239.88308715820312
y: 553.6424560546875
z: 0.15430766344070435
visibility: 0.9136287569999695
","x: 212.07989501953125
y: 522.9697875976562
z: 0.2951924204826355
visibility: 0.8708866238594055
","x: 230.00259399414062
y: 570.2333374023438
z: 0.02461586520075798
visibility: 0.9790022969245911
","x: 202.1351318359375
y: 545.5931396484375
z: 0.187070831656456
visibility: 0.9635983109474182
",,,,,,,,,,,,,,,,,,,,,,,,,,,,,,,,,,,,,,,,,,
3,"x: 213.87448120117188
y: 204.77780151367188
z: -0.25387558341026306
visibility: 0.9996743202209473
","x: 216.5771942138672
y: 196.92669677734375
z: -0.24950602650642395
visibility: 0.9994683265686035
","x: 218.54232788085938
y: 196.29234313964844
z: -0.24965688586235046
visibility: 0.9994280338287354
","x: 220.54776000976562
y: 195.8268585205078
z: -0.24977204203605652
visibility: 0.9992867708206177
","x: 211.8054656982422
y: 199.9486541748047
z: -0.2262057065963745
visibility: 0.9995362162590027
","x: 210.4962158203125
y: 201.5007781982422
z: -0.22615377604961395
visibility: 0.9995567202568054
","x: 209.29644775390625
y: 203.20504760742188
z: -0.22608521580696106
visibility: 0.9995424151420593
","x: 225.77182006835938
y: 199.05209350585938
z: -0.1729816198348999
visibility: 0.9982588291168213
","x: 211.3219451904297
y: 209.10662841796875
z: -0.07567085325717926
visibility: 0.9996095895767212
","x: 218.89686584472656
y: 212.85906982421875
z: -0.2279919683933258
visibility: 0.9986368417739868
","x: 212.76573181152344
y: 214.54681396484375
z: -0.1959274560213089
visibility: 0.9992618560791016
","x: 243.77000427246094
y: 241.82064819335938
z: -0.16756269335746765
visibility: 0.9965003132820129
","x: 212.75645446777344
y: 251.8974609375
z: 0.09158162027597427
visibility: 0.9984255433082581
","x: 263.79473876953125
y: 267.2633056640625
z: -0.2857510447502136
visibility: 0.29429587721824646
","x: 214.48736572265625
y: 290.75299072265625
z: 0.3296111226081848
visibility: 0.8010953664779663
","x: 287.47711181640625
y: 288.822509765625
z: -0.482740581035614
visibility: 0.2972429692745209
","x: 204.45932006835938
y: 295.11273193359375
z: 0.4894544184207916
visibility: 0.7143368124961853
","x: 297.5102233886719
y: 295.012939453125
z: -0.5221079587936401
visibility: 0.2982048988342285
","x: 200.85479736328125
y: 300.28521728515625
z: 0.5183623433113098
visibility: 0.6573572158813477
","x: 296.7607421875
y: 294.602294921875
z: -0.5551886558532715
visibility: 0.30166399478912354
","x: 200.21041870117188
y: 297.3979797363281
z: 0.49474024772644043
visibility: 0.656494140625
","x: 292.2357482910156
y: 293.22113037109375
z: -0.5008965730667114
visibility: 0.30182597041130066
","x: 201.0963592529297
y: 295.9176940917969
z: 0.4830009937286377
visibility: 0.6176057457923889
","x: 236.96453857421875
y: 369.2016296386719
z: -0.09039604663848877
visibility: 0.9983928203582764
","x: 215.5887908935547
y: 366.4256286621094
z: 0.0903993621468544
visibility: 0.9987307786941528
","x: 232.5788116455078
y: 462.8392028808594
z: -0.07496517151594162
visibility: 0.9625247716903687
","x: 207.41702270507812
y: 456.3917236328125
z: 0.09593512117862701
visibility: 0.989069402217865
","x: 242.63211059570312
y: 544.596435546875
z: 0.05955415219068527
visibility: 0.9760023951530457
","x: 205.91204833984375
y: 519.2633666992188
z: 0.2469594031572342
visibility: 0.9615335464477539
","x: 248.64149475097656
y: 555.2838745117188
z: 0.06617482006549835
visibility: 0.9188756942749023
","x: 210.3502655029297
y: 533.7482299804688
z: 0.25380173325538635
visibility: 0.8815098404884338
","x: 229.15127563476562
y: 573.6876831054688
z: -0.05044059082865715
visibility: 0.9806767702102661
","x: 195.91452026367188
y: 552.5047607421875
z: 0.16387894749641418
visibility: 0.9666855931282043
",,,,,,,,,,,,,,,,,,,,,,,,,,,,,,,,,,,,,,,,,,
4,"x: 213.98583984375
y: 203.60568237304688
z: -0.27204015851020813
visibility: 0.9997017979621887
","x: 217.06629943847656
y: 195.96514892578125
z: -0.2669453024864197
visibility: 0.9995120167732239
","x: 218.91612243652344
y: 195.41046142578125
z: -0.2670634090900421
visibility: 0.9994770884513855
","x: 220.8771209716797
y: 195.0167999267578
z: -0.2672107219696045
visibility: 0.9993509650230408
","x: 213.3730010986328
y: 198.25311279296875
z: -0.25052908062934875
visibility: 0.9995718598365784
","x: 212.37640380859375
y: 199.44700622558594
z: -0.2504778206348419
visibility: 0.9995855689048767
","x: 211.4040985107422
y: 200.77638244628906
z: -0.25044941902160645
visibility: 0.9995702505111694
","x: 227.0196075439453
y: 199.08480834960938
z: -0.23686468601226807
visibility: 0.9984273314476013
","x: 214.52853393554688
y: 206.9409942626953
z: -0.11594321578741074
visibility: 0.9996029138565063
","x: 218.52708435058594
y: 212.25198364257812
z: -0.25027722120285034
visibility: 0.998760461807251
","x: 213.4052276611328
y: 213.1282196044922
z: -0.22108328342437744
visibility: 0.9993087649345398
","x: 238.1818084716797
y: 242.54534912109375
z: -0.257565438747406
visibility: 0.9968476295471191
","x: 220.0499725341797
y: 250.69183349609375
z: 0.04814659059047699
visibility: 0.9984526634216309
","x: 248.87734985351562
y: 301.4913330078125
z: -0.28198638558387756
visibility: 0.3641892969608307
","x: 227.9945068359375
y: 307.4100036621094
z: 0.1245700865983963
visibility: 0.7222062945365906
","x: 262.75811767578125
y: 361.6401672363281
z: -0.3047623038291931
visibility: 0.3638843894004822
","x: 228.62335205078125
y: 343.275634765625
z: 0.1048981174826622
visibility: 0.6470491290092468
","x: 268.7151184082031
y: 376.23223876953125
z: -0.33485743403434753
visibility: 0.3612917363643646
","x: 228.87448120117188
y: 356.2672424316406
z: 0.10876103490591049
visibility: 0.597187340259552
","x: 268.1329040527344
y: 378.4076232910156
z: -0.3466772735118866
visibility: 0.36462703347206116
","x: 228.09368896484375
y: 356.6476745605469
z: 0.1576422154903412
visibility: 0.5967113375663757
","x: 265.4017028808594
y: 374.5401611328125
z: -0.3096340298652649
visibility: 0.3613942265510559
","x: 228.8879852294922
y: 355.036865234375
z: 0.12628798186779022
visibility: 0.5616637468338013
","x: 233.49949645996094
y: 369.1818542480469
z: -0.09976473450660706
visibility: 0.9985262751579285
","x: 216.5738525390625
y: 367.0051574707031
z: 0.09971901774406433
visibility: 0.9988171458244324
","x: 229.7418212890625
y: 462.28900146484375
z: -0.07824819535017014
visibility: 0.9657875299453735
","x: 202.1641845703125
y: 450.3834228515625
z: 0.06014729663729668
visibility: 0.9879868030548096
","x: 246.243896484375
y: 544.2239990234375
z: 0.034265272319316864
visibility: 0.9782508015632629
","x: 206.92332458496094
y: 523.500244140625
z: 0.20389747619628906
visibility: 0.9643990993499756
","x: 255.1681671142578
y: 556.1495361328125
z: 0.03860197216272354
visibility: 0.9241734147071838
","x: 212.27993774414062
y: 535.6348876953125
z: 0.2149292677640915
visibility: 0.8901851177215576
","x: 231.27845764160156
y: 574.303466796875
z: -0.07676570862531662
visibility: 0.9823393821716309
","x: 192.2222442626953
y: 555.22119140625
z: 0.1251143366098404
visibility: 0.9690554141998291
",,,,,,,,,,,,,,,,,,,,,,,,,,,,,,,,,,,,,,,,,,
5,"x: 214.93446350097656
y: 201.69583129882812
z: -0.25072404742240906
visibility: 0.9997293949127197
","x: 218.40907287597656
y: 194.92567443847656
z: -0.2505180239677429
visibility: 0.9995572566986084
","x: 220.2546844482422
y: 194.68780517578125
z: -0.25061190128326416
visibility: 0.9995260834693909
","x: 222.24526977539062
y: 194.537109375
z: -0.2507159113883972
visibility: 0.9994133114814758
","x: 214.45040893554688
y: 196.06298828125
z: -0.22659938037395477
visibility: 0.9996107816696167
","x: 213.379638671875
y: 196.75047302246094
z: -0.2265334576368332
visibility: 0.9996211528778076
","x: 212.30308532714844
y: 197.49896240234375
z: -0.22649593651294708
visibility: 0.9996066093444824
","x: 227.68455505371094
y: 199.28091430664062
z: -0.20649555325508118
visibility: 0.9985824823379517
","x: 213.80735778808594
y: 204.14488220214844
z: -0.09647197276353836
visibility: 0.9996224641799927
","x: 218.90020751953125
y: 210.96261596679688
z: -0.2331583946943283
visibility: 0.9988795518875122
","x: 213.94309997558594
y: 210.87136840820312
z: -0.20046114921569824
visibility: 0.9993661642074585
","x: 233.44789123535156
y: 242.71730041503906
z: -0.24878649413585663
visibility: 0.9971597194671631
","x: 217.09426879882812
y: 249.210205078125
z: 0.06395937502384186
visibility: 0.998513400554657
","x: 238.74880981445312
y: 313.1464538574219
z: -0.2603159546852112
visibility: 0.4267764687538147
","x: 219.4353485107422
y: 308.32861328125
z: 0.11854150146245956
visibility: 0.653156042098999
","x: 226.00270080566406
y: 375.4270935058594
z: -0.23419828712940216
visibility: 0.4205108880996704
","x: 217.44873046875
y: 357.38531494140625
z: 0.04741806536912918
visibility: 0.5879907011985779
","x: 225.59156799316406
y: 392.0701599121094
z: -0.26274383068084717
visibility: 0.4125902056694031
","x: 215.31512451171875
y: 374.52935791015625
z: 0.04279997572302818
visibility: 0.5442929267883301
","x: 222.5791473388672
y: 392.12530517578125
z: -0.3115459680557251
visibility: 0.4159494936466217
","x: 215.05935668945312
y: 375.6182556152344
z: 0.04173111170530319
visibility: 0.5442599058151245
","x: 222.4207763671875
y: 386.60833740234375
z: -0.2683284878730774
visibility: 0.4085829555988312
","x: 215.92703247070312
y: 370.885009765625
z: 0.044168245047330856
visibility: 0.5129682421684265
","x: 228.8473663330078
y: 369.54608154296875
z: -0.10223956406116486
visibility: 0.9986533522605896
","x: 212.44546508789062
y: 367.0513916015625
z: 0.10219445079565048
visibility: 0.9988988637924194
","x: 228.34866333007812
y: 463.5728454589844
z: -0.10288320481777191
visibility: 0.968339204788208
","x: 195.26226806640625
y: 449.11883544921875
z: 0.10381199419498444
visibility: 0.9850224256515503
","x: 246.5141143798828
y: 543.6357421875
z: -0.01777426153421402
visibility: 0.9801403880119324
","x: 202.5164794921875
y: 525.2176513671875
z: 0.22098806500434875
visibility: 0.9664987921714783
","x: 255.88668823242188
y: 555.74658203125
z: -0.015469381585717201
visibility: 0.928033173084259
","x: 207.94970703125
y: 539.86669921875
z: 0.2261909693479538
visibility: 0.8968827128410339
","x: 232.30764770507812
y: 573.748291015625
z: -0.12035123258829117
visibility: 0.983697772026062
","x: 184.90185546875
y: 556.51220703125
z: 0.15980330109596252
visibility: 0.9704845547676086
",,,,,,,,,,,,,,,,,,,,,,,,,,,,,,,,,,,,,,,,,,
6,"x: 215.11965942382812
y: 197.59986877441406
z: -0.26314684748649597
visibility: 0.9997548460960388
","x: 218.83868408203125
y: 191.47412109375
z: -0.2520570158958435
visibility: 0.9995999932289124
","x: 220.63873291015625
y: 192.12411499023438
z: -0.2520120441913605
visibility: 0.9995721578598022
","x: 222.57284545898438
y: 192.8166046142578
z: -0.25208064913749695
visibility: 0.9994706511497498
","x: 215.0337677001953
y: 190.5392608642578
z: -0.2485039234161377
visibility: 0.9996464848518372
","x: 213.96420288085938
y: 190.46945190429688
z: -0.2484857141971588
visibility: 0.9996548891067505
","x: 212.86619567871094
y: 190.4869842529297
z: -0.2484472244977951
visibility: 0.999641478061676
","x: 227.0825653076172
y: 199.3777618408203
z: -0.1963430643081665
visibility: 0.9987231492996216
","x: 212.82977294921875
y: 196.70050048828125
z: -0.12729907035827637
visibility: 0.9996532797813416
","x: 218.81912231445312
y: 208.92276000976562
z: -0.23937873542308807
visibility: 0.998988926410675
","x: 213.74224853515625
y: 206.49916076660156
z: -0.22288091480731964
visibility: 0.999424159526825
","x: 228.10806274414062
y: 244.2819061279297
z: -0.2275698482990265
visibility: 0.9974406957626343
","x: 212.08119201660156
y: 237.7738800048828
z: 0.05448285862803459
visibility: 0.9984678626060486
","x: 218.0287628173828
y: 313.08642578125
z: -0.2372622936964035
visibility: 0.4837295711040497
","x: 199.07171630859375
y: 211.32894897460938
z: 0.23271162807941437
visibility: 0.6211021542549133
","x: 207.4643096923828
y: 371.0094909667969
z: -0.2172614336013794
visibility: 0.47587844729423523
","x: 205.76748657226562
y: 207.89743041992188
z: 0.3686581254005432
visibility: 0.5555492043495178
","x: 205.82830810546875
y: 388.3622741699219
z: -0.25553247332572937
visibility: 0.46428823471069336
","x: 211.83132934570312
y: 201.6158447265625
z: 0.3904334604740143
visibility: 0.5117888450622559
","x: 202.99655151367188
y: 388.38385009765625
z: -0.298852801322937
visibility: 0.46790817379951477
","x: 209.04222106933594
y: 202.0866241455078
z: 0.3817806541919708
visibility: 0.5121628046035767
","x: 203.42051696777344
y: 382.72088623046875
z: -0.2553374469280243
visibility: 0.4581452012062073
","x: 208.94625854492188
y: 206.91407775878906
z: 0.36575719714164734
visibility: 0.4854050576686859
","x: 218.41708374023438
y: 366.96514892578125
z: -0.09880028665065765
visibility: 0.9987429976463318
","x: 208.75363159179688
y: 363.30511474609375
z: 0.098686084151268
visibility: 0.9989635348320007
","x: 222.26199340820312
y: 459.7822265625
z: -0.07651858776807785
visibility: 0.9706926941871643
","x: 190.8009033203125
y: 449.9197692871094
z: 0.12910164892673492
visibility: 0.9814233183860779
","x: 243.45147705078125
y: 541.9429321289062
z: 0.026548121124505997
visibility: 0.9818382859230042
","x: 191.1302947998047
y: 527.4703369140625
z: 0.2534617781639099
visibility: 0.9684988260269165
","x: 253.54342651367188
y: 555.1141967773438
z: 0.03165717422962189
visibility: 0.9329357147216797
","x: 200.45062255859375
y: 540.5771484375
z: 0.25798898935317993
visibility: 0.9025183320045471
","x: 232.9862823486328
y: 573.5849609375
z: -0.07687607407569885
visibility: 0.9850374460220337
","x: 175.7473602294922
y: 557.357666015625
z: 0.16831189393997192
visibility: 0.9721247553825378
",,,,,,,,,,,,,,,,,,,,,,,,,,,,,,,,,,,,,,,,,,
7,"x: 211.56497192382812
y: 200.823486328125
z: -0.23679164052009583
visibility: 0.9997761845588684
","x: 216.9015655517578
y: 197.20867919921875
z: -0.22519180178642273
visibility: 0.9996358752250671
","x: 218.88076782226562
y: 198.90313720703125
z: -0.22527284920215607
visibility: 0.9996105432510376
","x: 221.22970581054688
y: 200.83975219726562
z: -0.2253328561782837
visibility: 0.9995197057723999
","x: 212.84197998046875
y: 192.885498046875
z: -0.211348295211792
visibility: 0.9996719360351562
","x: 211.68948364257812
y: 191.43487548828125
z: -0.21133175492286682
visibility: 0.9996752142906189
","x: 210.49183654785156
y: 191.12454223632812
z: -0.21126969158649445
visibility: 0.9996656179428101
","x: 226.5467071533203
y: 207.9149169921875
z: -0.1497405469417572
visibility: 0.9988479018211365
","x: 210.50540161132812
y: 197.40736389160156
z: -0.08270102739334106
visibility: 0.9996689558029175
","x: 213.36167907714844
y: 212.90419006347656
z: -0.2087126076221466
visibility: 0.999086320400238
","x: 207.7053680419922
y: 207.20054626464844
z: -0.19020487368106842
visibility: 0.9994747638702393
","x: 223.76052856445312
y: 256.53326416015625
z: -0.17910577356815338
visibility: 0.9976944327354431
","x: 195.66162109375
y: 237.48562622070312
z: 0.07203265279531479
visibility: 0.9985748529434204
","x: 213.52230834960938
y: 322.82977294921875
z: -0.20414738357067108
visibility: 0.5351329445838928
","x: 176.9291229248047
y: 211.5087127685547
z: 0.17687073349952698
visibility: 0.6529198884963989
","x: 204.4377899169922
y: 380.7247619628906
z: -0.21654585003852844
visibility: 0.5272859334945679
","x: 165.7994842529297
y: 164.4839630126953
z: 0.23415985703468323
visibility: 0.5961611866950989
","x: 204.26124572753906
y: 398.88427734375
z: -0.24338360130786896
visibility: 0.5150091648101807
","x: 164.0343017578125
y: 154.92666625976562
z: 0.2361925095319748
visibility: 0.552278995513916
","x: 201.3816375732422
y: 399.1824035644531
z: -0.2709677815437317
visibility: 0.5184345841407776
","x: 164.7654266357422
y: 154.67481994628906
z: 0.22590605914592743
visibility: 0.5527337789535522
","x: 200.79180908203125
y: 393.265869140625
z: -0.23370137810707092
visibility: 0.5084054470062256
","x: 165.35630798339844
y: 157.9761199951172
z: 0.2254691869020462
visibility: 0.5299378037452698
","x: 207.85025024414062
y: 369.9154357910156
z: -0.07942193001508713
visibility: 0.9988398551940918
","x: 189.2889404296875
y: 367.59649658203125
z: 0.07925916463136673
visibility: 0.9990505576133728
","x: 213.9547119140625
y: 461.8720703125
z: -0.06510458886623383
visibility: 0.9733493328094482
","x: 182.44436645507812
y: 455.5442810058594
z: 0.1076977476477623
visibility: 0.9820860028266907
","x: 239.16091918945312
y: 537.7119750976562
z: 0.04664505273103714
visibility: 0.9834072589874268
","x: 187.32595825195312
y: 532.8023681640625
z: 0.26616138219833374
visibility: 0.9712733030319214
","x: 246.85487365722656
y: 549.1919555664062
z: 0.06585771590471268
visibility: 0.9364835023880005
","x: 195.38719177246094
y: 544.7762451171875
z: 0.27414336800575256
visibility: 0.9107432961463928
","x: 232.31227111816406
y: 573.39990234375
z: -0.035990551114082336
visibility: 0.9862136244773865
","x: 174.0354461669922
y: 559.376953125
z: 0.18017145991325378
visibility: 0.9744688272476196
",,,,,,,,,,,,,,,,,,,,,,,,,,,,,,,,,,,,,,,,,,
8,"x: 210.4739227294922
y: 208.21051025390625
z: -0.3393263518810272
visibility: 0.9997957944869995
","x: 215.46646118164062
y: 204.80552673339844
z: -0.32251670956611633
visibility: 0.999664843082428
","x: 217.4351806640625
y: 206.16574096679688
z: -0.32253435254096985
visibility: 0.9996410012245178
","x: 219.6315460205078
y: 207.5706329345703
z: -0.3225769102573395
visibility: 0.9995604753494263
","x: 210.9224395751953
y: 200.48342895507812
z: -0.3217657208442688
visibility: 0.9996888637542725
","x: 209.52720642089844
y: 198.7484130859375
z: -0.3218076229095459
visibility: 0.9996852874755859
","x: 207.73880004882812
y: 197.26583862304688
z: -0.32179948687553406
visibility: 0.9996766448020935
","x: 222.76588439941406
y: 213.73928833007812
z: -0.2110489308834076
visibility: 0.9989548921585083
","x: 205.0722198486328
y: 201.62954711914062
z: -0.2098354995250702
visibility: 0.9996369481086731
","x: 211.05397033691406
y: 220.0849609375
z: -0.29595014452934265
visibility: 0.9991713166236877
","x: 205.4774932861328
y: 214.0353240966797
z: -0.2961964011192322
visibility: 0.9995151162147522
","x: 221.2833709716797
y: 268.35601806640625
z: -0.1746719926595688
visibility: 0.9979135990142822
","x: 182.9568328857422
y: 240.01800537109375
z: -0.09672559052705765
visibility: 0.9986650943756104
","x: 217.63209533691406
y: 333.3614501953125
z: -0.17246371507644653
visibility: 0.5809206366539001
","x: 153.43846130371094
y: 211.21151733398438
z: -0.10721088945865631
visibility: 0.6863895058631897
","x: 217.7713623046875
y: 396.0635986328125
z: -0.22975245118141174
visibility: 0.5720487236976624
","x: 133.2953338623047
y: 165.79684448242188
z: -0.19827911257743835
visibility: 0.634251594543457
","x: 220.1166229248047
y: 412.02886962890625
z: -0.25649547576904297
visibility: 0.5572653412818909
","x: 128.17013549804688
y: 154.59130859375
z: -0.2277338057756424
visibility: 0.5912607908248901
","x: 218.6057586669922
y: 413.8419189453125
z: -0.2872832417488098
visibility: 0.5611804127693176
","x: 128.55809020996094
y: 152.25619506835938
z: -0.25691837072372437
visibility: 0.5924238562583923
","x: 217.29922485351562
y: 408.857177734375
z: -0.24550935626029968
visibility: 0.5520275235176086
","x: 130.1957550048828
y: 155.7950439453125
z: -0.21714095771312714
visibility: 0.5727993249893188
","x: 203.61868286132812
y: 369.9747314453125
z: -0.06530250608921051
visibility: 0.9989047050476074
","x: 181.10169982910156
y: 368.28985595703125
z: 0.06435597687959671
visibility: 0.999125599861145
","x: 202.6356964111328
y: 461.99200439453125
z: -0.004960688762366772
visibility: 0.9754266142845154
","x: 178.82876586914062
y: 458.7204284667969
z: 0.06936377286911011
visibility: 0.9821790456771851
","x: 217.20591735839844
y: 524.2188110351562
z: 0.25915080308914185
visibility: 0.9836152791976929
","x: 185.06541442871094
y: 534.4500732421875
z: 0.23983022570610046
visibility: 0.973227858543396
","x: 220.6628875732422
y: 531.587646484375
z: 0.28127729892730713
visibility: 0.9289963841438293
","x: 190.10157775878906
y: 544.8369140625
z: 0.24995486438274384
visibility: 0.9156086444854736
","x: 216.60516357421875
y: 554.382568359375
z: 0.1814042180776596
visibility: 0.9857547283172607
","x: 175.99456787109375
y: 561.0084228515625
z: 0.1579783707857132
visibility: 0.9758336544036865
",,,,,,,,,,,,,,,,,,,,,,,,,,,,,,,,,,,,,,,,,,
9,"x: 210.130615234375
y: 210.9356689453125
z: -0.2695448398590088
visibility: 0.9998143911361694
","x: 214.32254028320312
y: 207.53945922851562
z: -0.2423325777053833
visibility: 0.9996944665908813
","x: 216.18202209472656
y: 208.71591186523438
z: -0.24235069751739502
visibility: 0.9996718168258667
","x: 218.15411376953125
y: 209.9358367919922
z: -0.24241606891155243
visibility: 0.9995993971824646
","x: 209.55885314941406
y: 203.8766326904297
z: -0.24870863556861877
visibility: 0.9997135996818542
","x: 208.1611328125
y: 202.5572967529297
z: -0.24871695041656494
visibility: 0.9997079372406006
","x: 206.4500732421875
y: 201.292724609375
z: -0.24868325889110565
visibility: 0.9996978044509888
","x: 220.22955322265625
y: 215.4547119140625
z: -0.10540439188480377
visibility: 0.9990555047988892
","x: 202.64369201660156
y: 204.88131713867188
z: -0.13641342520713806
visibility: 0.9996474981307983
","x: 211.10028076171875
y: 221.41461181640625
z: -0.21748538315296173
visibility: 0.9992504715919495
","x: 205.40786743164062
y: 216.5491943359375
z: -0.22796392440795898
visibility: 0.9995556473731995
","x: 221.3745880126953
y: 269.6282043457031
z: -0.03671436011791229
visibility: 0.9981123805046082
","x: 182.29351806640625
y: 242.13157653808594
z: -0.07611627876758575
visibility: 0.9987554550170898
","x: 220.31948852539062
y: 330.51824951171875
z: -0.008541691116988659
visibility: 0.6182831525802612
","x: 157.58059692382812
y: 235.3392333984375
z: -0.215844988822937
visibility: 0.7155752182006836
","x: 226.4820556640625
y: 382.337158203125
z: -0.10054204612970352
visibility: 0.6112769246101379
","x: 131.73504638671875
y: 201.15081787109375
z: -0.4937266409397125
visibility: 0.6679757833480835
","x: 230.5981903076172
y: 397.072021484375
z: -0.1152263656258583
visibility: 0.594429612159729
","x: 125.52500915527344
y: 192.73094177246094
z: -0.5469743609428406
visibility: 0.6267225742340088
","x: 230.8208770751953
y: 398.5998229980469
z: -0.15006902813911438
visibility: 0.5989621877670288
","x: 125.33072662353516
y: 189.77444458007812
z: -0.5588985681533813
visibility: 0.6284787654876709
","x: 228.8914031982422
y: 394.92877197265625
z: -0.11664799600839615
visibility: 0.5900058746337891
","x: 127.2916488647461
y: 192.32354736328125
z: -0.5099292993545532
visibility: 0.6107631325721741
","x: 204.86209106445312
y: 371.08404541015625
z: 0.002096747513860464
visibility: 0.9989833235740662
","x: 181.09225463867188
y: 368.51702880859375
z: -0.0023626345209777355
visibility: 0.9991986751556396
","x: 205.51258850097656
y: 462.30242919921875
z: -0.0037034067790955305
visibility: 0.976157009601593
","x: 179.0490264892578
y: 460.52996826171875
z: -0.019689863547682762
visibility: 0.9800350069999695
","x: 203.27786254882812
y: 507.18463134765625
z: 0.3251537084579468
visibility: 0.9713614583015442
","x: 185.4228057861328
y: 535.4813232421875
z: 0.17645536363124847
visibility: 0.9726928472518921
","x: 200.40158081054688
y: 509.18341064453125
z: 0.3549848794937134
visibility: 0.8912857174873352
","x: 188.702392578125
y: 545.2532348632812
z: 0.1898735910654068
visibility: 0.9006909728050232
","x: 205.8971405029297
y: 537.3900756835938
z: 0.26729196310043335
visibility: 0.9761820435523987
","x: 178.26724243164062
y: 561.1456909179688
z: 0.0622982457280159
visibility: 0.9741144776344299
",,,,,,,,,,,,,,,,,,,,,,,,,,,,,,,,,,,,,,,,,,
10,"x: 211.33035278320312
y: 210.51724243164062
z: -0.25633129477500916
visibility: 0.9998316764831543
","x: 214.34844970703125
y: 206.26605224609375
z: -0.22627826035022736
visibility: 0.9997227787971497
","x: 216.13735961914062
y: 207.20193481445312
z: -0.22629234194755554
visibility: 0.9997014403343201
","x: 217.83233642578125
y: 208.20574951171875
z: -0.22636839747428894
visibility: 0.9996365904808044
","x: 209.6331787109375
y: 203.36709594726562
z: -0.2409917116165161
visibility: 0.9997400045394897
","x: 208.2701416015625
y: 202.2834014892578
z: -0.2410132884979248
visibility: 0.9997343420982361
","x: 206.60975646972656
y: 201.1847686767578
z: -0.24097438156604767
visibility: 0.9997246861457825
","x: 217.85049438476562
y: 214.08877563476562
z: -0.0709908977150917
visibility: 0.9991470575332642
","x: 202.80494689941406
y: 204.90377807617188
z: -0.14002059400081635
visibility: 0.9996762871742249
","x: 211.87779235839844
y: 220.94171142578125
z: -0.19843116402626038
visibility: 0.9993229508399963
","x: 205.99891662597656
y: 216.5109405517578
z: -0.21933145821094513
visibility: 0.999596893787384
","x: 219.8122100830078
y: 265.50250244140625
z: 0.03753132373094559
visibility: 0.9982866048812866
","x: 183.0725555419922
y: 244.3247833251953
z: -0.11695567518472672
visibility: 0.9988300800323486
","x: 221.65118408203125
y: 323.8223571777344
z: 0.11496627330780029
visibility: 0.6460431814193726
","x: 160.44400024414062
y: 245.54380798339844
z: -0.31090348958969116
visibility: 0.7415350675582886
","x: 230.86753845214844
y: 363.7918701171875
z: 0.04430390149354935
visibility: 0.6404293775558472
","x: 153.84632873535156
y: 232.37652587890625
z: -0.6059204339981079
visibility: 0.694692075252533
","x: 235.01388549804688
y: 372.25482177734375
z: 0.03434000909328461
visibility: 0.6185464262962341
","x: 151.15689086914062
y: 229.65081787109375
z: -0.6658605337142944
visibility: 0.6537946462631226
","x: 235.60440063476562
y: 373.8970642089844
z: -0.003972080070525408
visibility: 0.6245505213737488
","x: 151.81997680664062
y: 227.37692260742188
z: -0.6640035510063171
visibility: 0.6558874249458313
","x: 233.85520935058594
y: 371.812744140625
z: 0.02734318934381008
visibility: 0.6153942346572876
","x: 153.09457397460938
y: 228.6688232421875
z: -0.6140917539596558
visibility: 0.6378453373908997
","x: 205.7705841064453
y: 371.19378662109375
z: 0.05274586006999016
visibility: 0.9990251660346985
","x: 182.82632446289062
y: 368.5877685546875
z: -0.05282816290855408
visibility: 0.9992325901985168
","x: 209.24649047851562
y: 461.04241943359375
z: 0.02268294245004654
visibility: 0.9758067727088928
","x: 180.0718994140625
y: 460.59283447265625
z: -0.0499509759247303
visibility: 0.9793684482574463
","x: 198.15115356445312
y: 506.1275939941406
z: 0.34115704894065857
visibility: 0.959327757358551
","x: 186.24948120117188
y: 534.7474975585938
z: 0.14596796035766602
visibility: 0.9738808870315552
","x: 191.89793395996094
y: 508.1158447265625
z: 0.3687078356742859
visibility: 0.8692284226417542
","x: 187.60986328125
y: 543.9671020507812
z: 0.15947869420051575
visibility: 0.8970779776573181
","x: 203.62513732910156
y: 535.5731811523438
z: 0.28483936190605164
visibility: 0.9654055833816528
","x: 182.017822265625
y: 560.2828369140625
z: 0.02692868746817112
visibility: 0.9745067954063416
",,,,,,,,,,,,,,,,,,,,,,,,,,,,,,,,,,,,,,,,,,
11,"x: 215.64979553222656
y: 210.3852996826172
z: -0.18175801634788513
visibility: 0.9998335838317871
","x: 216.20196533203125
y: 205.13864135742188
z: -0.15642289817333221
visibility: 0.999725341796875
","x: 217.19691467285156
y: 205.91281127929688
z: -0.15648280084133148
visibility: 0.999699592590332
","x: 218.2183837890625
y: 206.6401824951172
z: -0.15654496848583221
visibility: 0.9996462464332581
","x: 213.03726196289062
y: 202.4679412841797
z: -0.17538951337337494
visibility: 0.9997417330741882
","x: 211.6368865966797
y: 201.42391967773438
z: -0.1754074990749359
visibility: 0.9997342228889465
","x: 209.8624725341797
y: 200.3436279296875
z: -0.17544470727443695
visibility: 0.9997217655181885
","x: 216.92568969726562
y: 209.86001586914062
z: -0.022300995886325836
visibility: 0.9991952180862427
","x: 203.78732299804688
y: 203.2532501220703
z: -0.10799849033355713
visibility: 0.9996488094329834
","x: 215.27896118164062
y: 219.73695373535156
z: -0.13064877688884735
visibility: 0.9993627667427063
","x: 211.3104248046875
y: 216.06951904296875
z: -0.15588535368442535
visibility: 0.999602198600769
","x: 219.41525268554688
y: 256.21142578125
z: 0.0824199765920639
visibility: 0.9984197020530701
","x: 186.48770141601562
y: 244.169677734375
z: -0.12065310776233673
visibility: 0.9988633990287781
","x: 219.00485229492188
y: 303.48699951171875
z: 0.1473362296819687
visibility: 0.6475832462310791
","x: 175.92068481445312
y: 271.8722839355469
z: -0.31652694940567017
visibility: 0.7625441551208496
","x: 228.22628784179688
y: 330.4069519042969
z: 0.10026335716247559
visibility: 0.6654291152954102
","x: 178.52378845214844
y: 264.99725341796875
z: -0.5752506852149963
visibility: 0.7223693132400513
","x: 232.47169494628906
y: 339.02813720703125
z: 0.09152744710445404
visibility: 0.6424828767776489
","x: 177.7447967529297
y: 263.63897705078125
z: -0.6318994760513306
visibility: 0.6850953102111816
","x: 233.54104614257812
y: 338.517333984375
z: 0.06148432567715645
visibility: 0.6489015817642212
","x: 180.51541137695312
y: 258.4932556152344
z: -0.6358321309089661
visibility: 0.6870411038398743
","x: 231.07205200195312
y: 335.54638671875
z: 0.08671185374259949
visibility: 0.6386231184005737
","x: 181.4069061279297
y: 259.8207702636719
z: -0.5838249921798706
visibility: 0.6692419648170471
","x: 207.28863525390625
y: 366.66644287109375
z: 0.06967152655124664
visibility: 0.9989474415779114
","x: 185.28504943847656
y: 364.2852478027344
z: -0.06967543810606003
visibility: 0.99916672706604
","x: 210.8566131591797
y: 455.8546142578125
z: 0.03254353255033493
visibility: 0.9713721871376038
","x: 190.8497314453125
y: 456.0911560058594
z: -0.10885907709598541
visibility: 0.9791319370269775
","x: 197.7213592529297
y: 512.8775634765625
z: 0.24354293942451477
visibility: 0.9501087665557861
","x: 186.75086975097656
y: 534.8594970703125
z: -0.0145238833501935
visibility: 0.9749548435211182
","x: 190.74375915527344
y: 519.4844360351562
z: 0.26500898599624634
visibility: 0.8612439036369324
","x: 186.35780334472656
y: 545.7850341796875
z: -0.011447052471339703
visibility: 0.8976085186004639
","x: 208.2812957763672
y: 540.3407592773438
z: 0.16821351647377014
visibility: 0.9586104154586792
","x: 200.7691650390625
y: 559.154541015625
z: -0.13616681098937988
visibility: 0.9748842716217041
",,,,,,,,,,,,,,,,,,,,,,,,,,,,,,,,,,,,,,,,,,
12,"x: 223.6780548095703
y: 211.78709411621094
z: -0.22477880120277405
visibility: 0.9998206496238708
","x: 222.4547119140625
y: 205.0271759033203
z: -0.2063646763563156
visibility: 0.9996987581253052
","x: 222.53834533691406
y: 205.52178955078125
z: -0.20642034709453583
visibility: 0.9996588230133057
","x: 222.61029052734375
y: 206.04229736328125
z: -0.20649822056293488
visibility: 0.999594509601593
","x: 220.82557678222656
y: 203.30979919433594
z: -0.2284657061100006
visibility: 0.9997342824935913
","x: 219.64688110351562
y: 202.56797790527344
z: -0.22859545052051544
visibility: 0.9997276663780212
","x: 218.290283203125
y: 201.77188110351562
z: -0.22875472903251648
visibility: 0.9997193813323975
","x: 217.4153594970703
y: 209.75048828125
z: -0.08403865993022919
visibility: 0.998996376991272
","x: 211.77557373046875
y: 204.4276123046875
z: -0.2206283062696457
visibility: 0.9996563792228699
","x: 222.02920532226562
y: 220.25759887695312
z: -0.181432843208313
visibility: 0.9992846846580505
","x: 219.87217712402344
y: 218.2273712158203
z: -0.21553465723991394
visibility: 0.9995816349983215
","x: 215.38819885253906
y: 252.62057495117188
z: 0.06372849643230438
visibility: 0.9982683062553406
","x: 199.41270446777344
y: 250.0872802734375
z: -0.258918434381485
visibility: 0.998964786529541
","x: 209.8552703857422
y: 301.359375
z: 0.10644151270389557
visibility: 0.585334062576294
","x: 200.60073852539062
y: 312.660888671875
z: -0.24212069809436798
visibility: 0.782148003578186
","x: 211.37542724609375
y: 335.36944580078125
z: -0.0014596761902794242
visibility: 0.6031597256660461
","x: 209.49832153320312
y: 356.3000793457031
z: -0.1814848631620407
visibility: 0.7262825965881348
","x: 212.7249755859375
y: 347.3515625
z: -0.020299101248383522
visibility: 0.5837634205818176
","x: 209.93045043945312
y: 371.63189697265625
z: -0.19808100163936615
visibility: 0.6854697465896606
","x: 213.40579223632812
y: 345.55865478515625
z: -0.04128094017505646
visibility: 0.5899202227592468
","x: 211.56578063964844
y: 366.77178955078125
z: -0.20562608540058136
visibility: 0.6864309310913086
","x: 212.3756103515625
y: 341.26702880859375
z: -0.016184857115149498
visibility: 0.5807024240493774
","x: 211.52621459960938
y: 362.86083984375
z: -0.17872831225395203
visibility: 0.6651751399040222
","x: 208.01499938964844
y: 366.8637390136719
z: 0.1000986322760582
visibility: 0.9985866546630859
","x: 192.97265625
y: 364.9283447265625
z: -0.10009080171585083
visibility: 0.9991198182106018
","x: 211.3901824951172
y: 450.2781677246094
z: 0.19649216532707214
visibility: 0.945983350276947
","x: 199.33621215820312
y: 454.3211364746094
z: -0.0636061578989029
visibility: 0.9779298305511475
","x: 198.52011108398438
y: 507.8880310058594
z: 0.3605194091796875
visibility: 0.9369382858276367
","x: 187.0188751220703
y: 534.8065795898438
z: 0.041452039033174515
visibility: 0.9749763607978821
","x: 190.4990692138672
y: 518.6389770507812
z: 0.37249451875686646
visibility: 0.8554170727729797
","x: 184.4915313720703
y: 545.8638916015625
z: 0.04583984613418579
visibility: 0.8978566527366638
","x: 211.03182983398438
y: 534.5768432617188
z: 0.31672272086143494
visibility: 0.9528816938400269
","x: 204.70372009277344
y: 559.2506103515625
z: -0.05917114019393921
visibility: 0.974555492401123
",,,,,,,,,,,,,,,,,,,,,,,,,,,,,,,,,,,,,,,,,,
13,"x: 230.06922912597656
y: 211.86444091796875
z: -0.2323274314403534
visibility: 0.9997183084487915
","x: 228.42787170410156
y: 204.89271545410156
z: -0.2175484001636505
visibility: 0.9993922114372253
","x: 228.34634399414062
y: 205.24197387695312
z: -0.21758222579956055
visibility: 0.9992949962615967
","x: 228.21800231933594
y: 205.6551971435547
z: -0.21762605011463165
visibility: 0.9992896318435669
","x: 226.91983032226562
y: 203.67755126953125
z: -0.2426333874464035
visibility: 0.9995527863502502
","x: 225.67059326171875
y: 203.12217712402344
z: -0.2427523136138916
visibility: 0.999561071395874
","x: 224.24844360351562
y: 202.49136352539062
z: -0.24294063448905945
visibility: 0.9995806813240051
","x: 222.3424072265625
y: 209.51275634765625
z: -0.11949994415044785
visibility: 0.9982139468193054
","x: 218.02940368652344
y: 205.30067443847656
z: -0.27131739258766174
visibility: 0.9994684457778931
","x: 228.6521759033203
y: 220.326416015625
z: -0.19248603284358978
visibility: 0.9991768002510071
","x: 226.67587280273438
y: 218.95657348632812
z: -0.23100940883159637
visibility: 0.9995551705360413
","x: 216.8693389892578
y: 254.1423797607422
z: 0.010605388320982456
visibility: 0.9980320930480957
","x: 203.8878173828125
y: 251.4372100830078
z: -0.31778278946876526
visibility: 0.9990617036819458
","x: 214.2975311279297
y: 312.1697692871094
z: 0.06348362565040588
visibility: 0.5329508185386658
","x: 205.2194366455078
y: 318.35675048828125
z: -0.343867689371109
visibility: 0.8027445673942566
","x: 217.38723754882812
y: 366.9912414550781
z: -0.00802533607929945
visibility: 0.548786997795105
","x: 210.3569793701172
y: 385.6946105957031
z: -0.3491056263446808
visibility: 0.7492195963859558
","x: 218.78094482421875
y: 384.1097412109375
z: -0.018535392358899117
visibility: 0.5321915149688721
","x: 210.20504760742188
y: 401.34515380859375
z: -0.38199180364608765
visibility: 0.7094930410385132
","x: 219.17453002929688
y: 385.3262939453125
z: -0.04449637979269028
visibility: 0.5378407835960388
","x: 212.8076171875
y: 402.2062683105469
z: -0.386580228805542
visibility: 0.7098080515861511
","x: 218.20663452148438
y: 379.3306884765625
z: -0.023248720914125443
visibility: 0.5297930240631104
","x: 213.16897583007812
y: 396.4158630371094
z: -0.34945541620254517
visibility: 0.6862130761146545
","x: 212.2852020263672
y: 367.0444030761719
z: 0.09707404673099518
visibility: 0.9981459379196167
","x: 199.3023223876953
y: 365.2051086425781
z: -0.09707358479499817
visibility: 0.9989745020866394
","x: 223.36260986328125
y: 448.5968322753906
z: 0.10706796497106552
visibility: 0.9161660671234131
","x: 206.49624633789062
y: 455.38287353515625
z: -0.12582412362098694
visibility: 0.9712464809417725
","x: 199.5026092529297
y: 511.5240478515625
z: 0.27235788106918335
visibility: 0.9000759124755859
","x: 187.3583984375
y: 535.32666015625
z: -0.0430719330906868
visibility: 0.9702208042144775
","x: 192.32839965820312
y: 520.4625244140625
z: 0.28665539622306824
visibility: 0.8291945457458496
","x: 182.260986328125
y: 550.7156982421875
z: -0.04095041751861572
visibility: 0.8867039680480957
","x: 212.12554931640625
y: 540.0929565429688
z: 0.21792535483837128
visibility: 0.9270636439323425
","x: 205.74920654296875
y: 561.54638671875
z: -0.15391473472118378
visibility: 0.9694783091545105
",,,,,,,,,,,,,,,,,,,,,,,,,,,,,,,,,,,,,,,,,,
14,"x: 235.2222442626953
y: 213.80032348632812
z: -0.1919233649969101
visibility: 0.9996103048324585
","x: 233.5868682861328
y: 206.70306396484375
z: -0.17726923525333405
visibility: 0.9991328120231628
","x: 233.49159240722656
y: 206.8129119873047
z: -0.17731377482414246
visibility: 0.9989666938781738
","x: 233.3216094970703
y: 206.90838623046875
z: -0.17732563614845276
visibility: 0.9989739656448364
","x: 232.1620330810547
y: 205.80816650390625
z: -0.2103120982646942
visibility: 0.9994036555290222
","x: 230.93568420410156
y: 205.24066162109375
z: -0.21036431193351746
visibility: 0.9994150996208191
","x: 229.51904296875
y: 204.61062622070312
z: -0.21046936511993408
visibility: 0.999456524848938
","x: 227.71641540527344
y: 209.8503875732422
z: -0.0862019956111908
visibility: 0.9976339936256409
","x: 223.2041015625
y: 207.23687744140625
z: -0.23070716857910156
visibility: 0.9993320107460022
","x: 233.91612243652344
y: 221.5355224609375
z: -0.15371091663837433
visibility: 0.9990260004997253
","x: 231.99998474121094
y: 220.91600036621094
z: -0.19734922051429749
visibility: 0.9995146989822388
","x: 224.92306518554688
y: 255.47567749023438
z: 0.03573206812143326
visibility: 0.9978579878807068
","x: 209.3832550048828
y: 255.8775177001953
z: -0.2715577781200409
visibility: 0.9991470575332642
","x: 216.16159057617188
y: 318.58209228515625
z: 0.09275103360414505
visibility: 0.4822876453399658
","x: 204.4163360595703
y: 324.3804626464844
z: -0.3036406338214874
visibility: 0.8213015198707581
","x: 217.33323669433594
y: 371.4515686035156
z: 0.02499786950647831
visibility: 0.49792802333831787
","x: 200.4526824951172
y: 386.55096435546875
z: -0.3195641040802002
visibility: 0.7704122066497803
","x: 217.60365295410156
y: 385.4117431640625
z: 0.015475916676223278
visibility: 0.4839676022529602
","x: 197.94598388671875
y: 401.6578674316406
z: -0.352183997631073
visibility: 0.7315022945404053
","x: 218.77496337890625
y: 386.0079345703125
z: -0.011533241719007492
visibility: 0.4891777038574219
","x: 200.1276397705078
y: 403.2174987792969
z: -0.35865139961242676
visibility: 0.7315037846565247
","x: 217.19772338867188
y: 380.7832336425781
z: 0.009626887738704681
visibility: 0.48217254877090454
","x: 202.1501922607422
y: 398.1934814453125
z: -0.3218180537223816
visibility: 0.7068606615066528
","x: 220.9932403564453
y: 373.2388916015625
z: 0.09042714536190033
visibility: 0.9978940486907959
","x: 208.19149780273438
y: 372.9044189453125
z: -0.09039848297834396
visibility: 0.9989112615585327
","x: 235.302734375
y: 449.6865234375
z: 0.10136604309082031
visibility: 0.9149454832077026
","x: 211.2859344482422
y: 458.188720703125
z: -0.0987536832690239
visibility: 0.9702519774436951
","x: 209.50735473632812
y: 509.08392333984375
z: 0.31654083728790283
visibility: 0.8898109793663025
","x: 189.1700439453125
y: 535.3588256835938
z: 0.03129882737994194
visibility: 0.9705043435096741
","x: 196.34715270996094
y: 515.63623046875
z: 0.3341211676597595
visibility: 0.8209192156791687
","x: 182.8753204345703
y: 550.873046875
z: 0.03862066939473152
visibility: 0.8823609352111816
","x: 221.0247039794922
y: 541.3604125976562
z: 0.2832241356372833
visibility: 0.9203381538391113
","x: 207.05715942382812
y: 561.4174194335938
z: -0.07180960476398468
visibility: 0.9691575765609741
",,,,,,,,,,,,,,,,,,,,,,,,,,,,,,,,,,,,,,,,,,
15,"x: 246.16270446777344
y: 205.3682098388672
z: -0.14466245472431183
visibility: 0.9996491074562073
","x: 244.3134765625
y: 198.56088256835938
z: -0.12373784929513931
visibility: 0.9992189407348633
","x: 244.41470336914062
y: 198.55908203125
z: -0.12374337762594223
visibility: 0.9990691542625427
","x: 244.42117309570312
y: 198.5421600341797
z: -0.12371528148651123
visibility: 0.9990754723548889
","x: 242.41856384277344
y: 198.51422119140625
z: -0.14984771609306335
visibility: 0.9994630813598633
","x: 241.18472290039062
y: 198.55462646484375
z: -0.14987865090370178
visibility: 0.9994733929634094
","x: 239.85194396972656
y: 198.65335083007812
z: -0.14995738863945007
visibility: 0.9995107054710388
","x: 239.6792449951172
y: 202.42694091796875
z: -0.015267223119735718
visibility: 0.9978672862052917
","x: 234.31503295898438
y: 203.70843505859375
z: -0.13630294799804688
visibility: 0.9993987083435059
","x: 245.50987243652344
y: 213.2354736328125
z: -0.10318323224782944
visibility: 0.9991211891174316
","x: 242.97271728515625
y: 214.2386474609375
z: -0.1377663016319275
visibility: 0.999562680721283
","x: 243.9044647216797
y: 247.0870819091797
z: 0.08187904208898544
visibility: 0.9980517625808716
","x: 217.7176971435547
y: 255.51104736328125
z: -0.14871446788311005
visibility: 0.999228835105896
","x: 254.0152587890625
y: 254.56838989257812
z: 0.19705280661582947
visibility: 0.48950281739234924
","x: 201.88320922851562
y: 310.4449768066406
z: -0.1437148153781891
visibility: 0.8387011289596558
","x: 262.54608154296875
y: 235.20811462402344
z: 0.22179174423217773
visibility: 0.5327349901199341
","x: 181.8295440673828
y: 348.5647277832031
z: -0.14313919842243195
visibility: 0.7926418781280518
","x: 264.1846008300781
y: 229.76492309570312
z: 0.22552421689033508
visibility: 0.5100958943367004
","x: 172.5564727783203
y: 359.1072082519531
z: -0.15438327193260193
visibility: 0.7565696239471436
","x: 263.7561950683594
y: 226.89642333984375
z: 0.20398907363414764
visibility: 0.5158979892730713
","x: 172.0662384033203
y: 358.64404296875
z: -0.18844732642173767
visibility: 0.7566835880279541
","x: 262.484130859375
y: 229.7838592529297
z: 0.21070794761180878
visibility: 0.509739875793457
","x: 175.22442626953125
y: 355.6026916503906
z: -0.1561543047428131
visibility: 0.7340379953384399
","x: 239.37965393066406
y: 371.0685729980469
z: 0.07459540665149689
visibility: 0.9980780482292175
","x: 221.32998657226562
y: 371.26226806640625
z: -0.07472804933786392
visibility: 0.9989909529685974
","x: 250.83229064941406
y: 449.92022705078125
z: 0.08296266943216324
visibility: 0.9207209348678589
","x: 215.4455108642578
y: 454.32391357421875
z: -0.07581235468387604
visibility: 0.9726938605308533
","x: 251.84634399414062
y: 532.7649536132812
z: 0.16884362697601318
visibility: 0.8995979428291321
","x: 191.1600799560547
y: 534.8015747070312
z: 0.030954470857977867
visibility: 0.9729165434837341
","x: 247.30169677734375
y: 544.9647827148438
z: 0.17003272473812103
visibility: 0.8350769281387329
","x: 183.98374938964844
y: 548.906982421875
z: 0.036220867186784744
visibility: 0.8849349021911621
","x: 269.0099182128906
y: 556.0328369140625
z: 0.08653806149959564
visibility: 0.9269186854362488
","x: 205.6615753173828
y: 561.06982421875
z: -0.07048977166414261
visibility: 0.9710712432861328
",,,,,,,,,,,,,,,,,,,,,,,,,,,,,,,,,,,,,,,,,,
16,"x: 253.56988525390625
y: 204.3851318359375
z: -0.2445298433303833
visibility: 0.9996840357780457
","x: 253.26422119140625
y: 197.78619384765625
z: -0.22346512973308563
visibility: 0.999296247959137
","x: 254.3740692138672
y: 197.54273986816406
z: -0.22345347702503204
visibility: 0.9991614818572998
","x: 255.4862823486328
y: 197.38827514648438
z: -0.22334742546081543
visibility: 0.9991666674613953
","x: 249.7515106201172
y: 198.70932006835938
z: -0.22175106406211853
visibility: 0.9995163083076477
","x: 248.42259216308594
y: 198.75210571289062
z: -0.2218286544084549
visibility: 0.9995257258415222
","x: 246.76039123535156
y: 199.28697204589844
z: -0.22182545065879822
visibility: 0.9995591640472412
","x: 255.9573516845703
y: 201.84495544433594
z: -0.09936448931694031
visibility: 0.9980772137641907
","x: 243.54566955566406
y: 206.62066650390625
z: -0.1335912048816681
visibility: 0.9994586110115051
","x: 256.7729797363281
y: 212.694580078125
z: -0.20054729282855988
visibility: 0.9992074966430664
","x: 251.25486755371094
y: 214.29025268554688
z: -0.19618317484855652
visibility: 0.9996057748794556
","x: 271.4012145996094
y: 247.27865600585938
z: -0.009044980630278587
visibility: 0.9982317090034485
","x: 233.07943725585938
y: 255.32156372070312
z: -0.09115666896104813
visibility: 0.9993010759353638
","x: 293.5707702636719
y: 232.34994506835938
z: -0.11984201520681381
visibility: 0.5385937690734863
","x: 210.0885467529297
y: 303.9342041015625
z: -0.09415283799171448
visibility: 0.8543564677238464
","x: 310.4071960449219
y: 191.5868377685547
z: -0.3142247498035431
visibility: 0.5758438110351562
","x: 182.44631958007812
y: 334.1955871582031
z: -0.15290382504463196
visibility: 0.8116223216056824
","x: 313.5603332519531
y: 184.85769653320312
z: -0.3486395478248596
visibility: 0.5493365526199341
","x: 173.69158935546875
y: 343.0054016113281
z: -0.16641971468925476
visibility: 0.7750551700592041
","x: 313.09912109375
y: 183.3785400390625
z: -0.359323650598526
visibility: 0.5556405782699585
","x: 173.1991424560547
y: 341.3375549316406
z: -0.20126250386238098
visibility: 0.7758640646934509
","x: 311.9306640625
y: 185.56243896484375
z: -0.3267369270324707
visibility: 0.5505444407463074
","x: 176.08448791503906
y: 339.01708984375
z: -0.1681344360113144
visibility: 0.7554661631584167
","x: 260.51336669921875
y: 371.4964294433594
z: 0.04684404283761978
visibility: 0.9982510209083557
","x: 238.66282653808594
y: 371.09619140625
z: -0.047134123742580414
visibility: 0.999059796333313
","x: 269.98602294921875
y: 457.5301513671875
z: 0.07297205924987793
visibility: 0.9275122284889221
","x: 226.25424194335938
y: 454.45819091796875
z: -0.07214365899562836
visibility: 0.975277304649353
","x: 273.4261474609375
y: 544.1046142578125
z: 0.1621776819229126
visibility: 0.909286379814148
","x: 197.79177856445312
y: 529.6967163085938
z: 0.05831136181950569
visibility: 0.9754010438919067
","x: 270.17803955078125
y: 556.2706909179688
z: 0.1640031337738037
visibility: 0.846542477607727
","x: 190.60086059570312
y: 539.6259765625
z: 0.06458770483732224
visibility: 0.8890439867973328
","x: 279.2257080078125
y: 566.8024291992188
z: 0.03838811069726944
visibility: 0.9333848357200623
","x: 203.0043182373047
y: 555.976318359375
z: -0.05281432718038559
visibility: 0.9734154343605042
",,,,,,,,,,,,,,,,,,,,,,,,,,,,,,,,,,,,,,,,,,
17,"x: 259.935791015625
y: 204.56686401367188
z: -0.2612800598144531
visibility: 0.9997155666351318
","x: 261.4933166503906
y: 198.2144012451172
z: -0.23523840308189392
visibility: 0.9993663430213928
","x: 263.1838684082031
y: 198.05911254882812
z: -0.23526552319526672
visibility: 0.9992451071739197
","x: 264.74755859375
y: 197.99090576171875
z: -0.23524034023284912
visibility: 0.9992496967315674
","x: 256.5739440917969
y: 198.91146850585938
z: -0.23583929240703583
visibility: 0.9995644092559814
","x: 254.80825805664062
y: 198.82626342773438
z: -0.23586824536323547
visibility: 0.9995729327201843
","x: 253.22445678710938
y: 199.47451782226562
z: -0.2358570545911789
visibility: 0.9996029138565063
","x: 266.6969299316406
y: 201.91488647460938
z: -0.10083744674921036
visibility: 0.9982684254646301
","x: 251.73245239257812
y: 207.28309631347656
z: -0.12324957549571991
visibility: 0.9995124936103821
","x: 263.8390808105469
y: 213.23455810546875
z: -0.21503892540931702
visibility: 0.9992865920066833
","x: 257.2298889160156
y: 214.43408203125
z: -0.21460101008415222
visibility: 0.9996450543403625
","x: 283.5032653808594
y: 254.39324951171875
z: -0.008774219080805779
visibility: 0.9984079599380493
","x: 241.45814514160156
y: 258.3495178222656
z: -0.08319061994552612
visibility: 0.99936842918396
","x: 309.5040283203125
y: 241.79808044433594
z: -0.05943776294589043
visibility: 0.5842079520225525
","x: 227.54443359375
y: 316.8764343261719
z: -0.07959918677806854
visibility: 0.8680720925331116
","x: 336.6175842285156
y: 257.58184814453125
z: -0.23418545722961426
visibility: 0.6178192496299744
","x: 208.06915283203125
y: 362.1982421875
z: -0.15767234563827515
visibility: 0.8287734389305115
","x: 344.4268798828125
y: 254.99844360351562
z: -0.2658383250236511
visibility: 0.5929306149482727
","x: 199.86941528320312
y: 376.9088134765625
z: -0.17652955651283264
visibility: 0.7928622961044312
","x: 345.33148193359375
y: 248.92181396484375
z: -0.29001951217651367
visibility: 0.5988695025444031
","x: 199.46929931640625
y: 376.8193054199219
z: -0.2154122143983841
visibility: 0.7940593361854553
","x: 341.9939270019531
y: 250.09390258789062
z: -0.25034192204475403
visibility: 0.5941706299781799
","x: 202.12351989746094
y: 373.7910461425781
z: -0.1748594343662262
visibility: 0.7755430340766907
","x: 272.072998046875
y: 377.4410705566406
z: 0.041556619107723236
visibility: 0.9984241127967834
","x: 247.9122772216797
y: 376.14154052734375
z: -0.041824400424957275
visibility: 0.9991480708122253
","x: 278.6744079589844
y: 467.9808044433594
z: 0.020952777937054634
visibility: 0.9341306090354919
","x: 239.20138549804688
y: 464.5397644042969
z: -0.06488756835460663
visibility: 0.9775617122650146
","x: 274.6579284667969
y: 546.2686767578125
z: 0.21470120549201965
visibility: 0.9177757501602173
","x: 215.8642120361328
y: 520.6248779296875
z: 0.26111844182014465
visibility: 0.9762951135635376
","x: 270.9053955078125
y: 556.901123046875
z: 0.2298188954591751
visibility: 0.8546494245529175
","x: 213.15704345703125
y: 525.9217529296875
z: 0.2901909053325653
visibility: 0.8788133859634399
","x: 279.4945068359375
y: 570.0181884765625
z: 0.09565076977014542
visibility: 0.9388455748558044
","x: 211.19998168945312
y: 547.271484375
z: 0.20611214637756348
visibility: 0.9740996956825256
",,,,,,,,,,,,,,,,,,,,,,,,,,,,,,,,,,,,,,,,,,
18,"x: 262.92254638671875
y: 204.55996704101562
z: -0.25778019428253174
visibility: 0.999741792678833
","x: 266.00079345703125
y: 198.40228271484375
z: -0.24152608215808868
visibility: 0.9994233846664429
","x: 267.7450256347656
y: 198.33555603027344
z: -0.2415744513273239
visibility: 0.9993143081665039
","x: 269.7113952636719
y: 198.3350830078125
z: -0.24160750210285187
visibility: 0.9993187785148621
","x: 262.11993408203125
y: 198.9344024658203
z: -0.23530347645282745
visibility: 0.9996008276939392
","x: 260.8683166503906
y: 198.93653869628906
z: -0.23532533645629883
visibility: 0.9996071457862854
","x: 259.72161865234375
y: 199.49176025390625
z: -0.23532231152057648
visibility: 0.9996327757835388
","x: 274.71929931640625
y: 203.33111572265625
z: -0.14915116131305695
visibility: 0.9984301328659058
","x: 260.39691162109375
y: 207.4523162841797
z: -0.11341766268014908
visibility: 0.9995459914207458
","x: 265.7105407714844
y: 213.580810546875
z: -0.22298121452331543
visibility: 0.9993569254875183
","x: 260.97418212890625
y: 214.3081817626953
z: -0.2144169807434082
visibility: 0.9996782541275024
","x: 291.253173828125
y: 258.56561279296875
z: -0.08874432742595673
visibility: 0.9985641241073608
","x: 247.68519592285156
y: 259.2962951660156
z: -0.037801824510097504
visibility: 0.9994245171546936
","x: 303.6361083984375
y: 300.1958923339844
z: -0.07562361657619476
visibility: 0.6235198378562927
","x: 243.5159454345703
y: 314.3202819824219
z: 0.04228468984365463
visibility: 0.8697992563247681
","x: 317.1971435546875
y: 346.2196044921875
z: -0.19485759735107422
visibility: 0.6486964821815491
","x: 237.92532348632812
y: 361.7454528808594
z: -0.03330376371741295
visibility: 0.8334405422210693
","x: 322.6321716308594
y: 360.2737121582031
z: -0.22112274169921875
visibility: 0.6223657131195068
","x: 233.8837890625
y: 377.7489929199219
z: -0.05340232327580452
visibility: 0.7950764298439026
","x: 320.7382507324219
y: 359.2951965332031
z: -0.2531139850616455
visibility: 0.6286301016807556
","x: 234.11941528320312
y: 378.2008361816406
z: -0.09042291343212128
visibility: 0.7971478700637817
","x: 318.20135498046875
y: 354.79925537109375
z: -0.20975346863269806
visibility: 0.6224369406700134
","x: 236.37176513671875
y: 374.580810546875
z: -0.05045858770608902
visibility: 0.7794265151023865
","x: 278.69573974609375
y: 378.20452880859375
z: -0.006134164519608021
visibility: 0.9985760450363159
","x: 254.1042938232422
y: 375.9061279296875
z: 0.006011037155985832
visibility: 0.9992203116416931
","x: 277.1839599609375
y: 474.0414733886719
z: -0.06394046545028687
visibility: 0.940040111541748
","x: 248.77919006347656
y: 470.81854248046875
z: -0.0035578454844653606
visibility: 0.9789276719093323
","x: 275.7148132324219
y: 545.4234619140625
z: 0.1587226688861847
visibility: 0.9245122671127319
","x: 250.09034729003906
y: 517.876708984375
z: 0.3691096901893616
visibility: 0.9682247042655945
","x: 273.9096984863281
y: 555.6255493164062
z: 0.17418299615383148
visibility: 0.8449445366859436
","x: 253.71253967285156
y: 523.1156005859375
z: 0.401555597782135
visibility: 0.854161262512207
","x: 277.3301696777344
y: 569.71240234375
z: 0.04735196381807327
visibility: 0.9417394399642944
","x: 244.0738067626953
y: 542.6259155273438
z: 0.3235604763031006
visibility: 0.9686287641525269
",,,,,,,,,,,,,,,,,,,,,,,,,,,,,,,,,,,,,,,,,,
19,"x: 267.48687744140625
y: 200.9481658935547
z: -0.1413678377866745
visibility: 0.9997633099555969
","x: 271.15362548828125
y: 195.91326904296875
z: -0.13545836508274078
visibility: 0.9994722008705139
","x: 272.6360778808594
y: 196.10047912597656
z: -0.13554862141609192
visibility: 0.999374270439148
","x: 274.41058349609375
y: 196.31289672851562
z: -0.13563723862171173
visibility: 0.9993807077407837
","x: 268.0036926269531
y: 195.95419311523438
z: -0.1168300062417984
visibility: 0.9996286034584045
","x: 267.12567138671875
y: 196.0563507080078
z: -0.11679691076278687
visibility: 0.9996306896209717
","x: 266.38140869140625
y: 196.39132690429688
z: -0.11676182597875595
visibility: 0.9996546506881714
","x: 279.8837585449219
y: 202.91090393066406
z: -0.0862373486161232
visibility: 0.9985823631286621
","x: 269.3055114746094
y: 204.35037231445312
z: -6.636812031501904e-05
visibility: 0.9995586276054382
","x: 270.23394775390625
y: 211.0892333984375
z: -0.12203751504421234
visibility: 0.999419093132019
","x: 265.9202575683594
y: 211.14895629882812
z: -0.09782274067401886
visibility: 0.9997021555900574
","x: 290.9773254394531
y: 253.27963256835938
z: -0.11788984388113022
visibility: 0.9987070560455322
","x: 261.2646789550781
y: 257.8297119140625
z: 0.12949086725711823
visibility: 0.9994245767593384
","x: 288.68267822265625
y: 300.52972412109375
z: -0.17072661221027374
visibility: 0.6609299778938293
","x: 256.8725280761719
y: 310.44287109375
z: 0.15686509013175964
visibility: 0.7985435128211975
","x: 261.26971435546875
y: 323.4424133300781
z: -0.216837078332901
visibility: 0.6831398606300354
","x: 245.31251525878906
y: 321.7370300292969
z: 0.02303187921643257
visibility: 0.7911062836647034
","x: 252.6625213623047
y: 338.00103759765625
z: -0.24899141490459442
visibility: 0.6584158539772034
","x: 242.22898864746094
y: 332.1271057128906
z: -0.0040831370279192924
visibility: 0.7599411606788635
","x: 250.7381591796875
y: 329.4892883300781
z: -0.24839766323566437
visibility: 0.6639427542686462
","x: 242.91375732421875
y: 326.3582763671875
z: -0.022611357271671295
visibility: 0.7625002861022949
","x: 253.26010131835938
y: 324.1921691894531
z: -0.21469374001026154
visibility: 0.6569758653640747
","x: 244.8667449951172
y: 323.73101806640625
z: 0.009075417183339596
visibility: 0.745422899723053
","x: 281.4372253417969
y: 375.5514831542969
z: -0.06712769716978073
visibility: 0.9987111687660217
","x: 260.41424560546875
y: 373.0099792480469
z: 0.0669805258512497
visibility: 0.9992759823799133
","x: 276.2017517089844
y: 470.70501708984375
z: -0.0937315821647644
visibility: 0.945615828037262
","x: 249.9351348876953
y: 466.1114501953125
z: 0.02026764675974846
visibility: 0.9797220826148987
","x: 280.28143310546875
y: 541.156982421875
z: 0.11643346399068832
visibility: 0.9314488768577576
","x: 270.6764831542969
y: 517.604248046875
z: 0.28419530391693115
visibility: 0.9680460691452026
","x: 285.0477294921875
y: 551.143310546875
z: 0.1319233924150467
visibility: 0.8396815061569214
","x: 275.79931640625
y: 522.6880493164062
z: 0.3062857985496521
visibility: 0.8586010336875916
","x: 272.1440734863281
y: 566.6864624023438
z: 0.017108174040913582
visibility: 0.9464032053947449
","x: 259.87615966796875
y: 543.6954345703125
z: 0.24637934565544128
visibility: 0.9681149125099182
",,,,,,,,,,,,,,,,,,,,,,,,,,,,,,,,,,,,,,,,,,
20,"x: 269.0481262207031
y: 198.13113403320312
z: -0.09147858619689941
visibility: 0.999785304069519
","x: 272.4918212890625
y: 192.520751953125
z: -0.09586088359355927
visibility: 0.999522864818573
","x: 273.7539978027344
y: 192.7389678955078
z: -0.09592100232839584
visibility: 0.9994350075721741
","x: 275.1733703613281
y: 193.06826782226562
z: -0.09595875442028046
visibility: 0.9994409680366516
","x: 270.9142761230469
y: 192.61351013183594
z: -0.07074315845966339
visibility: 0.9996630549430847
","x: 270.93682861328125
y: 192.82534790039062
z: -0.07071813941001892
visibility: 0.9996643662452698
","x: 271.0908508300781
y: 193.17117309570312
z: -0.07069769501686096
visibility: 0.999685525894165
","x: 281.61004638671875
y: 200.20474243164062
z: -0.08191587030887604
visibility: 0.9987227320671082
","x: 277.4608154296875
y: 200.40396118164062
z: 0.031196093186736107
visibility: 0.9995974898338318
","x: 271.6217956542969
y: 208.3408966064453
z: -0.08483045548200607
visibility: 0.9994751811027527
","x: 269.2490539550781
y: 208.67657470703125
z: -0.052336543798446655
visibility: 0.9997271299362183
","x: 288.1307067871094
y: 247.63861083984375
z: -0.15353454649448395
visibility: 0.9988345503807068
","x: 271.19207763671875
y: 255.37619018554688
z: 0.1489914357662201
visibility: 0.9994214773178101
","x: 276.5513610839844
y: 271.6776123046875
z: -0.2609383463859558
visibility: 0.6945863366127014
","x: 265.8743896484375
y: 308.0169982910156
z: 0.18540550768375397
visibility: 0.723673939704895
","x: 245.43067932128906
y: 253.46337890625
z: -0.2895752787590027
visibility: 0.713483452796936
","x: 263.5654296875
y: 325.8750915527344
z: 0.1171354204416275
visibility: 0.7209645509719849
","x: 237.65753173828125
y: 255.16073608398438
z: -0.3224984109401703
visibility: 0.6898826956748962
","x: 262.63568115234375
y: 338.3528137207031
z: 0.10620637238025665
visibility: 0.6951804161071777
","x: 237.36634826660156
y: 251.5305938720703
z: -0.3131674528121948
visibility: 0.6947301626205444
","x: 264.36810302734375
y: 330.9781494140625
z: 0.09067146480083466
visibility: 0.6975893974304199
","x: 240.453125
y: 251.85848999023438
z: -0.2847289443016052
visibility: 0.6863023042678833
","x: 264.99041748046875
y: 324.53204345703125
z: 0.10674264281988144
visibility: 0.6816408038139343
","x: 279.1494140625
y: 370.3546447753906
z: -0.09621201455593109
visibility: 0.9988353252410889
","x: 262.29150390625
y: 369.19390869140625
z: 0.09601540863513947
visibility: 0.9993354082107544
","x: 274.53759765625
y: 465.79901123046875
z: -0.1174422949552536
visibility: 0.9506152868270874
","x: 254.12698364257812
y: 459.10107421875
z: 0.0977964773774147
visibility: 0.9787551760673523
","x: 288.39361572265625
y: 542.0167236328125
z: 0.0010573618346825242
visibility: 0.9380892515182495
","x: 272.13165283203125
y: 524.208251953125
z: 0.24518588185310364
visibility: 0.9699382781982422
","x: 296.5225830078125
y: 556.1696166992188
z: 0.007815537042915821
visibility: 0.8523747324943542
","x: 277.8028869628906
y: 534.8482666015625
z: 0.25574609637260437
visibility: 0.8688989281654358
","x: 271.3693542480469
y: 568.0034790039062
z: -0.10565707832574844
visibility: 0.9514734745025635
","x: 255.92543029785156
y: 544.1703491210938
z: 0.18839751183986664
visibility: 0.970219075679779
",,,,,,,,,,,,,,,,,,,,,,,,,,,,,,,,,,,,,,,,,,
21,"x: 272.90802001953125
y: 202.9012908935547
z: -0.14387913048267365
visibility: 0.9998047351837158
","x: 276.1409606933594
y: 197.2146453857422
z: -0.15166296064853668
visibility: 0.9995694160461426
","x: 277.1808166503906
y: 197.70443725585938
z: -0.15169602632522583
visibility: 0.9994903802871704
","x: 278.3696594238281
y: 198.28260803222656
z: -0.1517227292060852
visibility: 0.9994954466819763
","x: 275.1925964355469
y: 196.8011474609375
z: -0.1263645738363266
visibility: 0.9996951818466187
","x: 275.4556884765625
y: 196.99920654296875
z: -0.1263476312160492
visibility: 0.9996958374977112
","x: 275.85113525390625
y: 197.3002471923828
z: -0.12627887725830078
visibility: 0.9997147917747498
","x: 284.3502502441406
y: 205.4722900390625
z: -0.17600223422050476
visibility: 0.9988490343093872
","x: 282.65472412109375
y: 204.0043487548828
z: -0.026242053136229515
visibility: 0.9996356964111328
","x: 274.9352111816406
y: 212.75018310546875
z: -0.1352405846118927
visibility: 0.9995201230049133
","x: 273.4888916015625
y: 212.4837646484375
z: -0.10374878346920013
visibility: 0.9997459650039673
","x: 282.133544921875
y: 248.51800537109375
z: -0.2550423741340637
visibility: 0.9989424347877502
","x: 285.0635681152344
y: 255.20794677734375
z: 0.11223771423101425
visibility: 0.999435544013977
","x: 263.0809631347656
y: 260.3732604980469
z: -0.3305268883705139
visibility: 0.7230345606803894
","x: 273.7894287109375
y: 305.6624755859375
z: 0.31204932928085327
visibility: 0.6532261967658997
","x: 249.81845092773438
y: 227.6790008544922
z: -0.26941391825675964
visibility: 0.7363384366035461
","x: 260.21844482421875
y: 309.7442932128906
z: 0.4528278410434723
visibility: 0.6616020202636719
","x: 244.70217895507812
y: 222.9916229248047
z: -0.2905789315700531
visibility: 0.7132095098495483
","x: 256.3321533203125
y: 307.0898132324219
z: 0.4859100878238678
visibility: 0.6467332243919373
","x: 246.78317260742188
y: 221.83743286132812
z: -0.2876513600349426
visibility: 0.7180507183074951
","x: 256.3021240234375
y: 306.3486328125
z: 0.4601675570011139
visibility: 0.6502509117126465
","x: 248.55943298339844
y: 223.99391174316406
z: -0.26685839891433716
visibility: 0.7079463601112366
","x: 258.3929443359375
y: 305.69140625
z: 0.4457540512084961
visibility: 0.6362009048461914
","x: 270.81768798828125
y: 377.52178955078125
z: -0.12058143317699432
visibility: 0.9989470839500427
","x: 264.8526916503906
y: 375.4615783691406
z: 0.12043227255344391
visibility: 0.9993916153907776
","x: 268.4145202636719
y: 466.29339599609375
z: -0.10816814005374908
visibility: 0.9519084095954895
","x: 258.9663391113281
y: 458.8380126953125
z: 0.22557178139686584
visibility: 0.9407068490982056
","x: 290.4521484375
y: 545.5401000976562
z: -0.05876060202717781
visibility: 0.9433969259262085
","x: 271.4974060058594
y: 529.198974609375
z: 0.34632858633995056
visibility: 0.9567631483078003
","x: 299.9764099121094
y: 559.3961791992188
z: -0.05348746106028557
visibility: 0.8653758764266968
","x: 276.0934753417969
y: 541.3460693359375
z: 0.35682716965675354
visibility: 0.8662328720092773
","x: 272.0840148925781
y: 568.9136962890625
z: -0.10702110826969147
visibility: 0.9552624225616455
","x: 252.73001098632812
y: 546.12939453125
z: 0.3403913378715515
visibility: 0.9623069167137146
",,,,,,,,,,,,,,,,,,,,,,,,,,,,,,,,,,,,,,,,,,
22,"x: 275.5300598144531
y: 214.8579559326172
z: -0.10841423273086548
visibility: 0.9998114705085754
","x: 278.7737731933594
y: 207.08438110351562
z: -0.13159522414207458
visibility: 0.9996095895767212
","x: 279.5162658691406
y: 207.2554931640625
z: -0.13158085942268372
visibility: 0.999538242816925
","x: 280.35162353515625
y: 207.4840087890625
z: -0.1316337287425995
visibility: 0.9995433688163757
","x: 278.65313720703125
y: 206.7909393310547
z: -0.10111501067876816
visibility: 0.9997192621231079
","x: 279.28668212890625
y: 206.74310302734375
z: -0.1011553555727005
visibility: 0.9997171759605408
","x: 280.0634765625
y: 206.7353973388672
z: -0.10110263526439667
visibility: 0.9997363090515137
","x: 286.4358825683594
y: 213.60414123535156
z: -0.18056942522525787
visibility: 0.9989612698554993
","x: 286.7664489746094
y: 212.572021484375
z: -0.04333571717143059
visibility: 0.9996629357337952
","x: 276.95623779296875
y: 223.1516876220703
z: -0.12144921720027924
visibility: 0.9995521306991577
","x: 276.5976257324219
y: 223.1629180908203
z: -0.08252871781587601
visibility: 0.9997493624687195
","x: 278.63153076171875
y: 259.6529541015625
z: -0.2359813153743744
visibility: 0.9990158677101135
","x: 291.3740234375
y: 263.5823669433594
z: 0.0727209523320198
visibility: 0.9989549517631531
","x: 249.5271453857422
y: 270.0338439941406
z: -0.19447290897369385
visibility: 0.7421228885650635
","x: 276.298828125
y: 284.28753662109375
z: 0.22156910598278046
visibility: 0.589596688747406
","x: 254.4576416015625
y: 239.62249755859375
z: 0.016965005546808243
visibility: 0.7337588667869568
","x: 268.3463134765625
y: 252.15948486328125
z: 0.32587939500808716
visibility: 0.5986243486404419
","x: 248.9737091064453
y: 227.8341522216797
z: 0.023422962054610252
visibility: 0.7117528319358826
","x: 266.0106506347656
y: 244.1966552734375
z: 0.3419606387615204
visibility: 0.5887731909751892
","x: 257.93658447265625
y: 228.67184448242188
z: 0.01547558419406414
visibility: 0.7173599600791931
","x: 267.7121887207031
y: 240.74832153320312
z: 0.33043667674064636
visibility: 0.5925616025924683
","x: 257.18182373046875
y: 235.08688354492188
z: 0.02060266025364399
visibility: 0.7069573998451233
","x: 267.8927001953125
y: 243.4813232421875
z: 0.3216637969017029
visibility: 0.5803426504135132
","x: 264.89520263671875
y: 385.078369140625
z: -0.11037465184926987
visibility: 0.9990296959877014
","x: 267.3248596191406
y: 379.9687194824219
z: 0.1103338822722435
visibility: 0.9992842078208923
","x: 265.6253356933594
y: 469.05010986328125
z: -0.06596888601779938
visibility: 0.9553253054618835
","x: 257.54180908203125
y: 452.1640625
z: 0.23373910784721375
visibility: 0.9034600853919983
","x: 286.4447937011719
y: 545.4683837890625
z: -0.01725313998758793
visibility: 0.9487000107765198
","x: 295.6991271972656
y: 464.7169189453125
z: 0.36078280210494995
visibility: 0.9315898418426514
","x: 299.3732604980469
y: 557.3707275390625
z: -0.013021564111113548
visibility: 0.8780591487884521
","x: 302.40972900390625
y: 466.1888427734375
z: 0.37364432215690613
visibility: 0.8593238592147827
","x: 271.2171936035156
y: 567.8057250976562
z: -0.06474926322698593
visibility: 0.9591947197914124
","x: 292.41156005859375
y: 483.17828369140625
z: 0.37952756881713867
visibility: 0.9504604935646057
",,,,,,,,,,,,,,,,,,,,,,,,,,,,,,,,,,,,,,,,,,
23,"x: 277.4562072753906
y: 217.5767364501953
z: -0.029034610837697983
visibility: 0.9996958374977112
","x: 281.3970947265625
y: 210.6824951171875
z: -0.056440263986587524
visibility: 0.9995586276054382
","x: 281.8927917480469
y: 210.96286010742188
z: -0.05645433068275452
visibility: 0.9994667172431946
","x: 282.4118347167969
y: 211.29737854003906
z: -0.05647232010960579
visibility: 0.9994999170303345
","x: 281.6575927734375
y: 210.40682983398438
z: -0.02637629769742489
visibility: 0.9996450543403625
","x: 282.3802185058594
y: 210.48788452148438
z: -0.026417201384902
visibility: 0.999600887298584
","x: 283.2105407714844
y: 210.60711669921875
z: -0.026399042457342148
visibility: 0.999672532081604
","x: 287.3836669921875
y: 218.52264404296875
z: -0.15315739810466766
visibility: 0.9989432096481323
","x: 289.25567626953125
y: 217.91006469726562
z: 0.007064029574394226
visibility: 0.9995422959327698
","x: 278.04925537109375
y: 226.1024169921875
z: -0.05034131556749344
visibility: 0.9993492364883423
","x: 277.9765930175781
y: 226.11199951171875
z: -0.011100214906036854
visibility: 0.9994943141937256
","x: 275.8422546386719
y: 265.2927551269531
z: -0.1911027878522873
visibility: 0.9990003108978271
","x: 297.4284362792969
y: 270.6202392578125
z: 0.09518411010503769
visibility: 0.9987714886665344
","x: 249.5865478515625
y: 285.3866882324219
z: -0.12431319057941437
visibility: 0.7506372332572937
","x: 290.64031982421875
y: 305.3204345703125
z: 0.2402351200580597
visibility: 0.5328203439712524
","x: 254.8106231689453
y: 267.60687255859375
z: 0.10661748796701431
visibility: 0.6866829991340637
","x: 277.2757873535156
y: 284.5809326171875
z: 0.3621653914451599
visibility: 0.541175365447998
","x: 253.60760498046875
y: 254.36135864257812
z: 0.11416506767272949
visibility: 0.6682644486427307
","x: 274.44036865234375
y: 281.7763977050781
z: 0.38577941060066223
visibility: 0.534684956073761
","x: 258.7655334472656
y: 245.13116455078125
z: 0.11125610768795013
visibility: 0.6755420565605164
","x: 274.0963439941406
y: 278.177734375
z: 0.3678871989250183
visibility: 0.5385344624519348
","x: 257.6138000488281
y: 254.04534912109375
z: 0.11183679103851318
visibility: 0.6678479313850403
","x: 274.31219482421875
y: 279.48095703125
z: 0.35740917921066284
visibility: 0.5282198786735535
","x: 263.6040954589844
y: 385.5528259277344
z: -0.10667406022548676
visibility: 0.9990497827529907
","x: 270.72991943359375
y: 380.9930419921875
z: 0.10668623447418213
visibility: 0.9992438554763794
","x: 245.116943359375
y: 464.1279296875
z: -0.07419551908969879
visibility: 0.9557600021362305
","x: 255.396484375
y: 451.22479248046875
z: 0.21400368213653564
visibility: 0.8470495343208313
","x: 276.819091796875
y: 538.166748046875
z: -0.07758043706417084
visibility: 0.9520641565322876
","x: 266.108154296875
y: 489.6536865234375
z: 0.29802870750427246
visibility: 0.9002794027328491
","x: 285.1383361816406
y: 547.2852172851562
z: -0.07460048049688339
visibility: 0.8885113000869751
","x: 268.75640869140625
y: 494.28326416015625
z: 0.3069967031478882
visibility: 0.8428707122802734
","x: 265.81903076171875
y: 556.5228881835938
z: -0.09606385231018066
visibility: 0.961511492729187
","x: 263.6546630859375
y: 514.1858520507812
z: 0.2989879250526428
visibility: 0.931367814540863
",,,,,,,,,,,,,,,,,,,,,,,,,,,,,,,,,,,,,,,,,,
24,"x: 277.8494567871094
y: 218.0064697265625
z: -0.06233561038970947
visibility: 0.9996480345726013
","x: 281.9473876953125
y: 211.76913452148438
z: -0.08261721581220627
visibility: 0.9995409250259399
","x: 282.2117004394531
y: 212.15985107421875
z: -0.08262045681476593
visibility: 0.9994458556175232
","x: 282.4306335449219
y: 212.59799194335938
z: -0.08262623101472855
visibility: 0.9994823932647705
","x: 282.51580810546875
y: 211.54931640625
z: -0.05477403849363327
visibility: 0.999609649181366
","x: 283.2239990234375
y: 211.81556701660156
z: -0.05480947345495224
visibility: 0.9995551109313965
","x: 283.9608154296875
y: 212.1277618408203
z: -0.05480775237083435
visibility: 0.9996460676193237
","x: 285.714599609375
y: 219.9515380859375
z: -0.14431266486644745
visibility: 0.9989734888076782
","x: 289.0129089355469
y: 220.19012451171875
z: -0.004895079880952835
visibility: 0.9995101094245911
","x: 277.6075744628906
y: 226.89212036132812
z: -0.07522675395011902
visibility: 0.9992228150367737
","x: 278.0509338378906
y: 226.82310485839844
z: -0.03917649760842323
visibility: 0.9993777871131897
","x: 274.4843444824219
y: 264.431640625
z: -0.19448110461235046
visibility: 0.998988687992096
","x: 298.32464599609375
y: 268.7890930175781
z: 0.0906454473733902
visibility: 0.9988043308258057
","x: 248.2064666748047
y: 303.12371826171875
z: -0.12778086960315704
visibility: 0.7542422413825989
","x: 283.76055908203125
y: 316.941650390625
z: 0.1838434338569641
visibility: 0.4821752905845642
","x: 249.53904724121094
y: 314.93414306640625
z: 0.07780218869447708
visibility: 0.6363505721092224
","x: 265.3515319824219
y: 315.9388122558594
z: 0.24390843510627747
visibility: 0.4902724325656891
","x: 249.7556610107422
y: 319.1793518066406
z: 0.08466515690088272
visibility: 0.6212870478630066
","x: 261.1822814941406
y: 313.31390380859375
z: 0.2620159983634949
visibility: 0.4871656894683838
","x: 251.9166259765625
y: 317.6004943847656
z: 0.08505863696336746
visibility: 0.6284100413322449
","x: 260.65411376953125
y: 310.99554443359375
z: 0.24176807701587677
visibility: 0.4912341237068176
","x: 252.37718200683594
y: 316.99346923828125
z: 0.08373396098613739
visibility: 0.6237980723381042
","x: 261.6863708496094
y: 312.2360534667969
z: 0.23673203587532043
visibility: 0.4825272262096405
","x: 263.1954650878906
y: 383.96649169921875
z: -0.10315730422735214
visibility: 0.999029278755188
","x: 272.1258850097656
y: 381.7377014160156
z: 0.10299984365701675
visibility: 0.9992016553878784
","x: 235.1004638671875
y: 453.86907958984375
z: -0.048807524144649506
visibility: 0.9550256729125977
","x: 257.1072082519531
y: 452.0985412597656
z: 0.20664457976818085
visibility: 0.8121992945671082
","x: 263.71160888671875
y: 527.0098876953125
z: -0.026315802708268166
visibility: 0.9545665383338928
","x: 265.0529479980469
y: 511.7139892578125
z: 0.23799674212932587
visibility: 0.8892651796340942
","x: 274.46575927734375
y: 537.609619140625
z: -0.02266506664454937
visibility: 0.8975111842155457
","x: 274.243896484375
y: 528.8578491210938
z: 0.237240269780159
visibility: 0.8456726670265198
","x: 252.17576599121094
y: 551.0003051757812
z: -0.0378492996096611
visibility: 0.9625192284584045
","x: 255.13037109375
y: 533.1360473632812
z: 0.24927008152008057
visibility: 0.9220220446586609
",,,,,,,,,,,,,,,,,,,,,,,,,,,,,,,,,,,,,,,,,,
25,"x: 280.0431213378906
y: 216.37481689453125
z: -0.012712916359305382
visibility: 0.999617338180542
","x: 282.7441101074219
y: 210.16998291015625
z: -0.038514144718647
visibility: 0.999535322189331
","x: 282.7039489746094
y: 210.5288543701172
z: -0.03850686550140381
visibility: 0.9994398951530457
","x: 282.6171569824219
y: 210.93927001953125
z: -0.03849055618047714
visibility: 0.9994798898696899
","x: 284.02783203125
y: 210.01258850097656
z: -0.010978582315146923
visibility: 0.9995730519294739
","x: 284.90753173828125
y: 210.2855682373047
z: -0.01103562768548727
visibility: 0.9995056986808777
","x: 285.7803649902344
y: 210.5872802734375
z: -0.011049829423427582
visibility: 0.9996144771575928
","x: 285.30169677734375
y: 217.98703002929688
z: -0.11734537780284882
visibility: 0.9990181922912598
","x: 290.5457458496094
y: 218.25775146484375
z: 0.009546366520226002
visibility: 0.999496340751648
","x: 279.7710266113281
y: 225.31602478027344
z: -0.03547997027635574
visibility: 0.9992209672927856
","x: 280.97747802734375
y: 225.2248992919922
z: -0.0003859075077343732
visibility: 0.9993690848350525
","x: 273.5747375488281
y: 263.5961608886719
z: -0.19069644808769226
visibility: 0.9990554451942444
","x: 299.6908874511719
y: 267.2884521484375
z: 0.10292106866836548
visibility: 0.9988695383071899
","x: 250.3219757080078
y: 306.3291015625
z: -0.1658921092748642
visibility: 0.7656105160713196
","x: 281.2704772949219
y: 298.65509033203125
z: 0.2451983243227005
visibility: 0.43654242157936096
","x: 246.12911987304688
y: 325.42498779296875
z: -0.008650926873087883
visibility: 0.6228556632995605
","x: 262.9266357421875
y: 277.73333740234375
z: 0.37939774990081787
visibility: 0.4468154013156891
","x: 244.52508544921875
y: 333.5589294433594
z: -0.008562779054045677
visibility: 0.6092826128005981
","x: 259.6877746582031
y: 270.12481689453125
z: 0.41191163659095764
visibility: 0.4484565258026123
","x: 245.5881805419922
y: 330.5090637207031
z: -0.0075250291265547276
visibility: 0.6164296269416809
","x: 259.8777770996094
y: 272.9601745605469
z: 0.3945235311985016
visibility: 0.45301300287246704
","x: 246.8263397216797
y: 328.65252685546875
z: -0.004377798177301884
visibility: 0.6101695895195007
","x: 260.91082763671875
y: 273.8372497558594
z: 0.3748495876789093
visibility: 0.4462742805480957
","x: 261.9308166503906
y: 378.47918701171875
z: -0.10379268229007721
visibility: 0.9990571141242981
","x: 273.012939453125
y: 381.5111999511719
z: 0.10360987484455109
visibility: 0.9992000460624695
","x: 235.8592529296875
y: 450.1239318847656
z: -0.009008355438709259
visibility: 0.9493098258972168
","x: 258.6650085449219
y: 452.1051025390625
z: 0.19830666482448578
visibility: 0.7727375030517578
","x: 259.4388122558594
y: 526.664794921875
z: -0.0019095304887741804
visibility: 0.9567500352859497
","x: 263.31268310546875
y: 521.505126953125
z: 0.2142384946346283
visibility: 0.8769686818122864
","x: 268.5592956542969
y: 537.66064453125
z: 0.0016398793086409569
visibility: 0.906051516532898
","x: 271.3261413574219
y: 537.8931884765625
z: 0.21408312022686005
visibility: 0.847678005695343
","x: 247.094970703125
y: 551.7339477539062
z: -0.03135599568486214
visibility: 0.9639933109283447
","x: 252.25259399414062
y: 541.172119140625
z: 0.2132624387741089
visibility: 0.9128022789955139
","x: 244.51388549804688
y: 329.95574951171875
z: 0.0
","x: 246.26919555664062
y: 333.07818603515625
z: -0.000607638678047806
","x: 247.32301330566406
y: 337.31060791015625
z: -0.0010961124207824469
","x: 247.1943359375
y: 340.0711669921875
z: -0.0019174052868038416
","x: 246.5302276611328
y: 341.1200256347656
z: -0.002562889363616705
","x: 245.0650177001953
y: 341.7721862792969
z: 0.00046630241558887064
","x: 245.0833282470703
y: 345.94342041015625
z: -0.0012502237223088741
","x: 245.32742309570312
y: 345.6953125
z: -0.0019961250945925713
","x: 245.3463592529297
y: 344.2631530761719
z: -0.002178108086809516
","x: 243.3413848876953
y: 341.7973327636719
z: -0.00047467596596106887
","x: 243.0751953125
y: 346.57470703125
z: -0.0020929882302880287
","x: 242.93576049804688
y: 347.9696960449219
z: -0.0028613859321922064
","x: 242.6941680908203
y: 348.3218688964844
z: -0.003158498788252473
","x: 241.73048400878906
y: 340.9831237792969
z: -0.0018241251818835735
","x: 240.9126434326172
y: 345.66595458984375
z: -0.0033555501140654087
","x: 240.57122802734375
y: 347.95751953125
z: -0.0038552682381123304
","x: 240.3389129638672
y: 349.45977783203125
z: -0.004017774481326342
","x: 240.23712158203125
y: 339.388671875
z: -0.0033650617115199566
","x: 239.06199645996094
y: 343.14996337890625
z: -0.004538341891020536
","x: 238.473388671875
y: 345.6863708496094
z: -0.004993216600269079
","x: 238.1289520263672
y: 347.81524658203125
z: -0.005153905134648085
",,,,,,,,,,,,,,,,,,,,,
26,"x: 280.0431213378906
y: 216.37481689453125
z: -0.012712916359305382
visibility: 0.999617338180542
","x: 282.7441101074219
y: 210.16998291015625
z: -0.038514144718647
visibility: 0.999535322189331
","x: 282.7039489746094
y: 210.5288543701172
z: -0.03850686550140381
visibility: 0.9994398951530457
","x: 282.6171569824219
y: 210.93927001953125
z: -0.03849055618047714
visibility: 0.9994798898696899
","x: 284.02783203125
y: 210.01258850097656
z: -0.010978582315146923
visibility: 0.9995730519294739
","x: 284.90753173828125
y: 210.2855682373047
z: -0.01103562768548727
visibility: 0.9995056986808777
","x: 285.7803649902344
y: 210.5872802734375
z: -0.011049829423427582
visibility: 0.9996144771575928
","x: 285.30169677734375
y: 217.98703002929688
z: -0.11734537780284882
visibility: 0.9990181922912598
","x: 290.5457458496094
y: 218.25775146484375
z: 0.009546366520226002
visibility: 0.999496340751648
","x: 279.7710266113281
y: 225.31602478027344
z: -0.03547997027635574
visibility: 0.9992209672927856
","x: 280.97747802734375
y: 225.2248992919922
z: -0.0003859075077343732
visibility: 0.9993690848350525
","x: 273.5747375488281
y: 263.5961608886719
z: -0.19069644808769226
visibility: 0.9990554451942444
","x: 299.6908874511719
y: 267.2884521484375
z: 0.10292106866836548
visibility: 0.9988695383071899
","x: 250.3219757080078
y: 306.3291015625
z: -0.1658921092748642
visibility: 0.7656105160713196
","x: 281.2704772949219
y: 298.65509033203125
z: 0.2451983243227005
visibility: 0.43654242157936096
","x: 246.12911987304688
y: 325.42498779296875
z: -0.008650926873087883
visibility: 0.6228556632995605
","x: 262.9266357421875
y: 277.73333740234375
z: 0.37939774990081787
visibility: 0.4468154013156891
","x: 244.52508544921875
y: 333.5589294433594
z: -0.008562779054045677
visibility: 0.6092826128005981
","x: 259.6877746582031
y: 270.12481689453125
z: 0.41191163659095764
visibility: 0.4484565258026123
","x: 245.5881805419922
y: 330.5090637207031
z: -0.0075250291265547276
visibility: 0.6164296269416809
","x: 259.8777770996094
y: 272.9601745605469
z: 0.3945235311985016
visibility: 0.45301300287246704
","x: 246.8263397216797
y: 328.65252685546875
z: -0.004377798177301884
visibility: 0.6101695895195007
","x: 260.91082763671875
y: 273.8372497558594
z: 0.3748495876789093
visibility: 0.4462742805480957
","x: 261.9308166503906
y: 378.47918701171875
z: -0.10379268229007721
visibility: 0.9990571141242981
","x: 273.012939453125
y: 381.5111999511719
z: 0.10360987484455109
visibility: 0.9992000460624695
","x: 235.8592529296875
y: 450.1239318847656
z: -0.009008355438709259
visibility: 0.9493098258972168
","x: 258.6650085449219
y: 452.1051025390625
z: 0.19830666482448578
visibility: 0.7727375030517578
","x: 259.4388122558594
y: 526.664794921875
z: -0.0019095304887741804
visibility: 0.9567500352859497
","x: 263.31268310546875
y: 521.505126953125
z: 0.2142384946346283
visibility: 0.8769686818122864
","x: 268.5592956542969
y: 537.66064453125
z: 0.0016398793086409569
visibility: 0.906051516532898
","x: 271.3261413574219
y: 537.8931884765625
z: 0.21408312022686005
visibility: 0.847678005695343
","x: 247.094970703125
y: 551.7339477539062
z: -0.03135599568486214
visibility: 0.9639933109283447
","x: 252.25259399414062
y: 541.172119140625
z: 0.2132624387741089
visibility: 0.9128022789955139
","x: 244.51388549804688
y: 329.95574951171875
z: 0.0
","x: 246.26919555664062
y: 333.07818603515625
z: -0.000607638678047806
","x: 247.32301330566406
y: 337.31060791015625
z: -0.0010961124207824469
","x: 247.1943359375
y: 340.0711669921875
z: -0.0019174052868038416
","x: 246.5302276611328
y: 341.1200256347656
z: -0.002562889363616705
","x: 245.0650177001953
y: 341.7721862792969
z: 0.00046630241558887064
","x: 245.0833282470703
y: 345.94342041015625
z: -0.0012502237223088741
","x: 245.32742309570312
y: 345.6953125
z: -0.0019961250945925713
","x: 245.3463592529297
y: 344.2631530761719
z: -0.002178108086809516
","x: 243.3413848876953
y: 341.7973327636719
z: -0.00047467596596106887
","x: 243.0751953125
y: 346.57470703125
z: -0.0020929882302880287
","x: 242.93576049804688
y: 347.9696960449219
z: -0.0028613859321922064
","x: 242.6941680908203
y: 348.3218688964844
z: -0.003158498788252473
","x: 241.73048400878906
y: 340.9831237792969
z: -0.0018241251818835735
","x: 240.9126434326172
y: 345.66595458984375
z: -0.0033555501140654087
","x: 240.57122802734375
y: 347.95751953125
z: -0.0038552682381123304
","x: 240.3389129638672
y: 349.45977783203125
z: -0.004017774481326342
","x: 240.23712158203125
y: 339.388671875
z: -0.0033650617115199566
","x: 239.06199645996094
y: 343.14996337890625
z: -0.004538341891020536
","x: 238.473388671875
y: 345.6863708496094
z: -0.004993216600269079
","x: 238.1289520263672
y: 347.81524658203125
z: -0.005153905134648085
",,,,,,,,,,,,,,,,,,,,,
27,"x: 284.1062316894531
y: 220.37454223632812
z: -0.011985844932496548
visibility: 0.9994986653327942
","x: 286.398193359375
y: 214.18917846679688
z: -0.03867730870842934
visibility: 0.999448835849762
","x: 286.2597961425781
y: 214.5050048828125
z: -0.03867132216691971
visibility: 0.999350368976593
","x: 286.068603515625
y: 214.83946228027344
z: -0.038679905235767365
visibility: 0.9993834495544434
","x: 287.7764892578125
y: 213.96766662597656
z: -0.010431407950818539
visibility: 0.9994450807571411
","x: 288.6639709472656
y: 214.1944122314453
z: -0.010475522838532925
visibility: 0.999381422996521
","x: 289.5736999511719
y: 214.44496154785156
z: -0.010555518791079521
visibility: 0.9995088577270508
","x: 288.5087585449219
y: 221.2178192138672
z: -0.11653988063335419
visibility: 0.998950719833374
","x: 294.0986022949219
y: 221.51573181152344
z: 0.00956365279853344
visibility: 0.9994425177574158
","x: 283.53839111328125
y: 228.53433227539062
z: -0.0357196070253849
visibility: 0.9991484880447388
","x: 284.84088134765625
y: 228.4886932373047
z: 0.00023655763652641326
visibility: 0.999297022819519
","x: 276.1066589355469
y: 263.2577819824219
z: -0.20567865669727325
visibility: 0.9991239309310913
","x: 303.1846923828125
y: 268.3254699707031
z: 0.09708935767412186
visibility: 0.9989333152770996
","x: 253.17796325683594
y: 306.90802001953125
z: -0.2055593729019165
visibility: 0.7846648693084717
","x: 293.12451171875
y: 316.0684509277344
z: 0.22365626692771912
visibility: 0.39574459195137024
","x: 245.095947265625
y: 334.5657958984375
z: -0.08251065760850906
visibility: 0.6382691264152527
","x: 279.0180969238281
y: 313.09979248046875
z: 0.3340207040309906
visibility: 0.406128853559494
","x: 242.41925048828125
y: 342.3858947753906
z: -0.09051268547773361
visibility: 0.6228193640708923
","x: 275.0921630859375
y: 319.6202697753906
z: 0.36203375458717346
visibility: 0.410632461309433
","x: 242.83132934570312
y: 341.2743835449219
z: -0.08054447919130325
visibility: 0.6293080449104309
","x: 274.08074951171875
y: 317.3518981933594
z: 0.3410610556602478
visibility: 0.4151899516582489
","x: 244.3718719482422
y: 339.37884521484375
z: -0.07529271394014359
visibility: 0.6195856928825378
","x: 274.4938049316406
y: 317.67529296875
z: 0.32793328166007996
visibility: 0.4098530113697052
","x: 261.3183898925781
y: 378.08154296875
z: -0.10808775573968887
visibility: 0.9990738034248352
","x: 273.9931945800781
y: 380.74163818359375
z: 0.10793896019458771
visibility: 0.9991871118545532
","x: 238.1085968017578
y: 451.6170959472656
z: -0.0157711673527956
visibility: 0.9529584646224976
","x: 260.2353210449219
y: 451.15289306640625
z: 0.2084861695766449
visibility: 0.7520853281021118
","x: 260.9078369140625
y: 527.5560913085938
z: 0.016565822064876556
visibility: 0.9593340158462524
","x: 265.1181335449219
y: 521.59521484375
z: 0.2693760097026825
visibility: 0.8715558648109436
","x: 269.5361633300781
y: 538.8294067382812
z: 0.022677235305309296
visibility: 0.9145312905311584
","x: 269.809814453125
y: 536.5640869140625
z: 0.2738136351108551
visibility: 0.8543729782104492
","x: 249.71133422851562
y: 549.967529296875
z: 4.200129842502065e-05
visibility: 0.9644736647605896
","x: 253.16015625
y: 539.9931640625
z: 0.26469314098358154
visibility: 0.9048401713371277
",,,,,,,,,,,,,,,,,,,,,,,,,,,,,,,,,,,,,,,,,,
28,"x: 287.62408447265625
y: 227.23280334472656
z: 0.05155392736196518
visibility: 0.9994677901268005
","x: 289.7741394042969
y: 220.5478057861328
z: 0.020898522809147835
visibility: 0.9994302988052368
","x: 289.5916442871094
y: 220.7978057861328
z: 0.020861420780420303
visibility: 0.9993329644203186
","x: 289.33331298828125
y: 221.0228271484375
z: 0.02085486426949501
visibility: 0.9993566870689392
","x: 291.2664794921875
y: 220.44068908691406
z: 0.04948519915342331
visibility: 0.9994024038314819
","x: 292.22857666015625
y: 220.71592712402344
z: 0.04941858351230621
visibility: 0.9993393421173096
","x: 293.18377685546875
y: 220.97750854492188
z: 0.04937520995736122
visibility: 0.9994582533836365
","x: 291.9135437011719
y: 227.72589111328125
z: -0.08118470013141632
visibility: 0.9989466071128845
","x: 298.1565246582031
y: 228.53797912597656
z: 0.04804716259241104
visibility: 0.999382495880127
","x: 287.0182800292969
y: 235.79434204101562
z: 0.018796170130372047
visibility: 0.9990708827972412
","x: 288.5926818847656
y: 236.30369567871094
z: 0.05560482665896416
visibility: 0.9991998672485352
","x: 279.48175048828125
y: 268.64434814453125
z: -0.18686780333518982
visibility: 0.9991883039474487
","x: 307.508544921875
y: 277.8313293457031
z: 0.12047095596790314
visibility: 0.9989762306213379
","x: 255.23146057128906
y: 314.89599609375
z: -0.1780681610107422
visibility: 0.8041645884513855
","x: 296.7252197265625
y: 323.7056884765625
z: 0.25435110926628113
visibility: 0.3586961030960083
","x: 244.39161682128906
y: 332.3733825683594
z: -0.03021511435508728
visibility: 0.6620192527770996
","x: 278.88812255859375
y: 317.7008972167969
z: 0.3923508822917938
visibility: 0.36853986978530884
","x: 241.23007202148438
y: 337.89349365234375
z: -0.03222377225756645
visibility: 0.6439764499664307
","x: 275.0350036621094
y: 317.7368469238281
z: 0.4267440438270569
visibility: 0.37480998039245605
","x: 241.22274780273438
y: 335.78497314453125
z: -0.023667100816965103
visibility: 0.6507364511489868
","x: 273.96868896484375
y: 315.2294616699219
z: 0.405538946390152
visibility: 0.37915709614753723
","x: 243.46435546875
y: 334.5660095214844
z: -0.021961702033877373
visibility: 0.6373960971832275
","x: 274.6835021972656
y: 315.7781677246094
z: 0.38641101121902466
visibility: 0.3754898011684418
","x: 260.6486511230469
y: 381.2483215332031
z: -0.10970111191272736
visibility: 0.9991400241851807
","x: 274.18621826171875
y: 384.94146728515625
z: 0.10944489389657974
visibility: 0.9992430210113525
","x: 241.0050506591797
y: 457.62957763671875
z: -0.03455965965986252
