uscmakers/ReverseChoreography/data/8_power_little_mix.csv
,NOSE,LEFT_EYE_INNER,LEFT_EYE,LEFT_EYE_OUTER,RIGHT_EYE_INNER,RIGHT_EYE,RIGHT_EYE_OUTER,LEFT_EAR,RIGHT_EAR,MOUTH_LEFT,MOUTH_RIGHT,LEFT_SHOULDER,RIGHT_SHOULDER,LEFT_ELBOW,RIGHT_ELBOW,LEFT_WRIST,RIGHT_WRIST,LEFT_PINKY,RIGHT_PINKY,LEFT_INDEX,RIGHT_INDEX,LEFT_THUMB,RIGHT_THUMB,LEFT_HIP,RIGHT_HIP,LEFT_KNEE,RIGHT_KNEE,LEFT_ANKLE,RIGHT_ANKLE,LEFT_HEEL,RIGHT_HEEL,LEFT_FOOT_INDEX,RIGHT_FOOT_INDEX,WRIST,THUMB_CPC,THUMB_MCP,THUMB_IP,THUMB_TIP,INDEX_FINGER_MCP,INDEX_FINGER_PIP,INDEX_FINGER_DIP,INDEX_FINGER_TIP,MIDDLE_FINGER_MCP,MIDDLE_FINGER_PIP,MIDDLE_FINGER_DIP,MIDDLE_FINGER_TIP,RING_FINGER_PIP,RING_FINGER_DIP,RING_FINGER_TIP,RING_FINGER_MCP,PINKY_MCP,PINKY_PIP,PINKY_DIP,PINKY_TIP,WRIST2,THUMB_CPC2,THUMB_MCP2,THUMB_IP2,THUMB_TIP2,INDEX_FINGER_MCP2,INDEX_FINGER_PIP2,INDEX_FINGER_DIP2,INDEX_FINGER_TIP2,MIDDLE_FINGER_MCP2,MIDDLE_FINGER_PIP2,MIDDLE_FINGER_DIP2,MIDDLE_FINGER_TIP2,RING_FINGER_PIP2,RING_FINGER_DIP2,RING_FINGER_TIP2,RING_FINGER_MCP2,PINKY_MCP2,PINKY_PIP2,PINKY_DIP2,PINKY_TIP2
0,"x: 253.93301391601562
y: 232.83114624023438
z: -0.21933810412883759
visibility: 0.9999490976333618
","x: 255.465576171875
y: 224.5738525390625
z: -0.2021353542804718
visibility: 0.9999349117279053
","x: 256.8018798828125
y: 224.2609405517578
z: -0.2021743804216385
visibility: 0.9999315738677979
","x: 257.8629455566406
y: 223.88433837890625
z: -0.20219485461711884
visibility: 0.9999332427978516
","x: 250.47203063964844
y: 225.5793914794922
z: -0.20422017574310303
visibility: 0.9998935461044312
","x: 248.61013793945312
y: 226.1125946044922
z: -0.20423372089862823
visibility: 0.9998816251754761
","x: 247.19140625
y: 226.6834259033203
z: -0.20420213043689728
visibility: 0.9998812675476074
","x: 259.8580322265625
y: 226.02734375
z: -0.08432136476039886
visibility: 0.9999005794525146
","x: 244.89028930664062
y: 230.1532745361328
z: -0.09238694608211517
visibility: 0.999762237071991
","x: 256.8841552734375
y: 240.11558532714844
z: -0.173897847533226
visibility: 0.9999576807022095
","x: 251.1356201171875
y: 241.0813751220703
z: -0.1761905997991562
visibility: 0.9999243021011353
","x: 273.66162109375
y: 265.4897766113281
z: -0.0016504337545484304
visibility: 0.9999722242355347
","x: 236.3758544921875
y: 271.0198974609375
z: -0.018043383955955505
visibility: 0.9995678067207336
","x: 283.4642333984375
y: 317.6262512207031
z: -0.08720523118972778
visibility: 0.9881728291511536
","x: 231.3518829345703
y: 330.4232177734375
z: -0.09570278227329254
visibility: 0.9566137194633484
","x: 274.6798095703125
y: 313.07757568359375
z: -0.31838804483413696
visibility: 0.9863146543502808
","x: 239.884521484375
y: 300.0947265625
z: -0.31029441952705383
visibility: 0.9638583660125732
","x: 270.49200439453125
y: 314.2257385253906
z: -0.36580371856689453
visibility: 0.9642422795295715
","x: 243.22789001464844
y: 296.9897155761719
z: -0.35531750321388245
visibility: 0.9270906448364258
","x: 268.8893737792969
y: 308.8174133300781
z: -0.3681331276893616
visibility: 0.9644138813018799
","x: 243.83631896972656
y: 291.6865234375
z: -0.3585103154182434
visibility: 0.9230576753616333
","x: 269.6874084472656
y: 307.9979248046875
z: -0.32359957695007324
visibility: 0.9433854818344116
","x: 243.33912658691406
y: 291.9031066894531
z: -0.31523770093917847
visibility: 0.8838408589363098
","x: 264.1414489746094
y: 371.6263427734375
z: 0.009744959883391857
visibility: 0.9996583461761475
","x: 241.035400390625
y: 368.560546875
z: -0.00979099702090025
visibility: 0.9991970658302307
","x: 263.58221435546875
y: 458.918701171875
z: -0.0312122143805027
visibility: 0.9872009754180908
","x: 237.57371520996094
y: 455.3023681640625
z: -0.047769442200660706
visibility: 0.9892284870147705
","x: 259.77490234375
y: 528.8443603515625
z: 0.1499374508857727
visibility: 0.985065758228302
","x: 226.07611083984375
y: 524.818359375
z: 0.12876974046230316
visibility: 0.9831264615058899
","x: 257.39019775390625
y: 537.7819213867188
z: 0.1606370359659195
visibility: 0.8420838117599487
","x: 225.78726196289062
y: 534.7313842773438
z: 0.13978330790996552
visibility: 0.7756586074829102
","x: 263.56085205078125
y: 550.3377685546875
z: 0.03152859956026077
visibility: 0.9714925289154053
","x: 221.99032592773438
y: 545.52294921875
z: 0.010424736887216568
visibility: 0.9725306630134583
",,,,,,,,,,,,,,,,,,,,,,,,,,,,,,,,,,,,,,,,,,
1,"x: 256.3720397949219
y: 225.58851623535156
z: -0.18495817482471466
visibility: 0.9999525547027588
","x: 258.7105407714844
y: 218.74708557128906
z: -0.1686454713344574
visibility: 0.9999382495880127
","x: 259.9994201660156
y: 218.7277069091797
z: -0.16867637634277344
visibility: 0.9999348521232605
","x: 261.6123352050781
y: 218.68096923828125
z: -0.16867828369140625
visibility: 0.9999358057975769
","x: 253.81053161621094
y: 218.90672302246094
z: -0.16447505354881287
visibility: 0.9999009370803833
","x: 251.76852416992188
y: 219.18646240234375
z: -0.16447782516479492
visibility: 0.9998896718025208
","x: 250.2866973876953
y: 219.67843627929688
z: -0.16444949805736542
visibility: 0.999889612197876
","x: 264.1122131347656
y: 222.74705505371094
z: -0.0641690194606781
visibility: 0.9999064207077026
","x: 248.56021118164062
y: 224.23582458496094
z: -0.04432230442762375
visibility: 0.9997802376747131
","x: 259.03155517578125
y: 233.5975799560547
z: -0.14550551772117615
visibility: 0.9999594688415527
","x: 253.2303466796875
y: 233.7313232421875
z: -0.1399853378534317
visibility: 0.9999292492866516
","x: 275.888916015625
y: 265.50909423828125
z: -0.013425149023532867
visibility: 0.9999607801437378
","x: 239.96070861816406
y: 269.64215087890625
z: 0.03301875293254852
visibility: 0.9995840787887573
","x: 281.5390625
y: 317.786376953125
z: -0.12297119945287704
visibility: 0.9879993200302124
","x: 231.34249877929688
y: 320.73583984375
z: -0.074847511947155
visibility: 0.9572210311889648
","x: 262.0126953125
y: 302.380126953125
z: -0.31599029898643494
visibility: 0.9859005212783813
","x: 242.8286590576172
y: 295.38861083984375
z: -0.30238765478134155
visibility: 0.9638723731040955
","x: 256.6676940917969
y: 295.331787109375
z: -0.3583318591117859
visibility: 0.963274359703064
","x: 247.2508544921875
y: 288.9654846191406
z: -0.347794771194458
visibility: 0.9259316325187683
","x: 256.367431640625
y: 289.06475830078125
z: -0.3529907464981079
visibility: 0.9630827903747559
","x: 248.21469116210938
y: 283.8379821777344
z: -0.34143030643463135
visibility: 0.9212449789047241
","x: 257.8282775878906
y: 290.6377258300781
z: -0.3175019919872284
visibility: 0.9409638047218323
","x: 247.67636108398438
y: 285.16314697265625
z: -0.305056095123291
visibility: 0.8821885585784912
","x: 264.2520751953125
y: 373.27276611328125
z: -0.01465685199946165
visibility: 0.9996404051780701
","x: 241.16217041015625
y: 368.9532470703125
z: 0.01463051326572895
visibility: 0.9992334246635437
","x: 262.9068603515625
y: 458.9171142578125
z: -0.027352195233106613
visibility: 0.988083004951477
","x: 234.48489379882812
y: 453.27838134765625
z: -0.01271464116871357
visibility: 0.9900520443916321
","x: 260.05206298828125
y: 528.848876953125
z: 0.15015611052513123
visibility: 0.9860125184059143
","x: 232.70480346679688
y: 522.8238525390625
z: 0.15943536162376404
visibility: 0.984402060508728
","x: 257.39190673828125
y: 537.8117065429688
z: 0.1606369912624359
visibility: 0.8473876714706421
","x: 236.07984924316406
y: 533.29541015625
z: 0.16946043074131012
visibility: 0.7922793626785278
","x: 263.5531005859375
y: 550.2669677734375
z: 0.029867926612496376
visibility: 0.9732652902603149
","x: 226.22088623046875
y: 545.100830078125
z: 0.04669564962387085
visibility: 0.9744303226470947
",,,,,,,,,,,,,,,,,,,,,,,,,,,,,,,,,,,,,,,,,,
2,"x: 255.3738250732422
y: 218.54437255859375
z: -0.12408150732517242
visibility: 0.9999507665634155
","x: 258.50457763671875
y: 212.29933166503906
z: -0.11091914027929306
visibility: 0.9999321699142456
","x: 259.6536865234375
y: 212.49932861328125
z: -0.11096112430095673
visibility: 0.9999285936355591
","x: 261.05133056640625
y: 212.68679809570312
z: -0.11099077761173248
visibility: 0.9999284744262695
","x: 253.7495574951172
y: 212.04928588867188
z: -0.10525908321142197
visibility: 0.9998959898948669
","x: 251.3537139892578
y: 212.19720458984375
z: -0.10525129735469818
visibility: 0.9998827576637268
","x: 249.92869567871094
y: 212.3367919921875
z: -0.10522232204675674
visibility: 0.9998819231987
","x: 263.37884521484375
y: 218.18206787109375
z: -0.024155229330062866
visibility: 0.9999021291732788
","x: 248.0949249267578
y: 217.2061004638672
z: 0.0027430502232164145
visibility: 0.9997735023498535
","x: 258.2857971191406
y: 227.92178344726562
z: -0.09064846485853195
visibility: 0.9999511241912842
","x: 252.11219787597656
y: 227.19638061523438
z: -0.08319710940122604
visibility: 0.9999192953109741
","x: 274.32379150390625
y: 261.7522277832031
z: 9.620331411497318e-07
visibility: 0.9999435544013977
","x: 239.69000244140625
y: 260.88714599609375
z: 0.06372962892055511
visibility: 0.9995875954627991
","x: 272.9609375
y: 314.81732177734375
z: -0.11257366836071014
visibility: 0.9875216484069824
","x: 228.58401489257812
y: 311.3396911621094
z: -0.03582252562046051
visibility: 0.9549293518066406
","x: 255.08177185058594
y: 276.0158996582031
z: -0.21439719200134277
visibility: 0.9857891798019409
","x: 242.58139038085938
y: 271.80804443359375
z: -0.2060501128435135
visibility: 0.9632166624069214
","x: 251.9612274169922
y: 263.5425109863281
z: -0.24286210536956787
visibility: 0.9631828665733337
","x: 246.14691162109375
y: 260.80633544921875
z: -0.24118463695049286
visibility: 0.9237253665924072
","x: 252.80096435546875
y: 258.74737548828125
z: -0.233002707362175
visibility: 0.9625375866889954
","x: 246.6826934814453
y: 255.55825805664062
z: -0.23233255743980408
visibility: 0.9180665612220764
","x: 253.68405151367188
y: 262.88360595703125
z: -0.2120351493358612
visibility: 0.9403958320617676
","x: 246.9883575439453
y: 259.5537109375
z: -0.20750515162944794
visibility: 0.8797330856323242
","x: 261.761962890625
y: 373.2161865234375
z: -0.018435968086123466
visibility: 0.9996460676193237
","x: 238.44580078125
y: 368.67022705078125
z: 0.018486803397536278
visibility: 0.9992796182632446
","x: 260.75555419921875
y: 458.4020690917969
z: -0.008451511152088642
visibility: 0.9887871146202087
","x: 226.59751892089844
y: 451.18157958984375
z: 0.0255217757076025
visibility: 0.990692138671875
","x: 259.9637145996094
y: 528.8577880859375
z: 0.12948566675186157
visibility: 0.9865430593490601
","x: 228.06907653808594
y: 519.9757080078125
z: 0.171216681599617
visibility: 0.9853705167770386
","x: 257.23919677734375
y: 537.9895629882812
z: 0.1358969807624817
visibility: 0.8470849394798279
","x: 234.05825805664062
y: 529.4353637695312
z: 0.17968952655792236
visibility: 0.8050146102905273
","x: 263.5618591308594
y: 550.1763305664062
z: 0.018750881776213646
visibility: 0.9741947054862976
","x: 217.5693817138672
y: 541.39794921875
z: 0.07593028992414474
visibility: 0.9757606387138367
",,,,,,,,,,,,,,,,,,,,,,,,,,,,,,,,,,,,,,,,,,
3,"x: 247.7012939453125
y: 217.38365173339844
z: -0.10019920021295547
visibility: 0.9999278783798218
","x: 250.51345825195312
y: 211.11538696289062
z: -0.08755289018154144
visibility: 0.9998800754547119
","x: 251.9748077392578
y: 211.20094299316406
z: -0.08758456259965897
visibility: 0.9998739361763
","x: 253.44566345214844
y: 211.3037872314453
z: -0.08760632574558258
visibility: 0.9998738169670105
","x: 246.5901336669922
y: 211.11239624023438
z: -0.08062509447336197
visibility: 0.9998364448547363
","x: 244.78997802734375
y: 211.00802612304688
z: -0.08061817288398743
visibility: 0.9998101592063904
","x: 243.2888946533203
y: 210.95579528808594
z: -0.08061248809099197
visibility: 0.9998154640197754
","x: 257.3241271972656
y: 217.0328369140625
z: -0.010315624065697193
visibility: 0.9998258352279663
","x: 241.94403076171875
y: 215.44381713867188
z: 0.02338644489645958
visibility: 0.9996324181556702
","x: 250.41990661621094
y: 226.2008514404297
z: -0.07097475975751877
visibility: 0.9998838901519775
","x: 245.41619873046875
y: 226.332763671875
z: -0.061594195663928986
visibility: 0.9998356699943542
","x: 266.241943359375
y: 259.10345458984375
z: 0.0046936688013374805
visibility: 0.9998936057090759
","x: 231.4252471923828
y: 257.3167724609375
z: 0.06677078455686569
visibility: 0.9995601177215576
","x: 266.85308837890625
y: 305.2027282714844
z: -0.1057749018073082
visibility: 0.9865861535072327
","x: 221.03213500976562
y: 301.0077209472656
z: -0.03363124281167984
visibility: 0.9557660222053528
","x: 247.44610595703125
y: 262.7328796386719
z: -0.19953596591949463
visibility: 0.9848861694335938
","x: 236.2085418701172
y: 257.7959289550781
z: -0.17067842185497284
visibility: 0.9640974998474121
","x: 244.0028533935547
y: 247.6437530517578
z: -0.2258816510438919
visibility: 0.9610571265220642
","x: 237.9485626220703
y: 244.46737670898438
z: -0.20307016372680664
visibility: 0.9238147735595703
","x: 244.7891845703125
y: 244.73431396484375
z: -0.21405117213726044
visibility: 0.9596525430679321
","x: 238.50787353515625
y: 241.44329833984375
z: -0.18949122726917267
visibility: 0.9173392653465271
","x: 245.5359344482422
y: 249.70777893066406
z: -0.19647593796253204
visibility: 0.9369016885757446
","x: 238.9661407470703
y: 246.1802978515625
z: -0.17001143097877502
visibility: 0.8801677823066711
","x: 253.62225341796875
y: 372.81390380859375
z: -0.018587149679660797
visibility: 0.9996500015258789
","x: 230.70938110351562
y: 368.19195556640625
z: 0.01860184036195278
visibility: 0.9993174076080322
","x: 255.3907012939453
y: 455.6927490234375
z: -0.007625490427017212
visibility: 0.9892356395721436
","x: 221.7143096923828
y: 450.41693115234375
z: 0.03801456838846207
visibility: 0.9909862279891968
","x: 259.4687194824219
y: 528.9322509765625
z: 0.09984994679689407
visibility: 0.9870153069496155
","x: 220.01998901367188
y: 519.9215087890625
z: 0.16856548190116882
visibility: 0.9859500527381897
","x: 257.24029541015625
y: 538.4308471679688
z: 0.10432064533233643
visibility: 0.8447357416152954
","x: 223.63693237304688
y: 529.3193969726562
z: 0.17628000676631927
visibility: 0.8103232383728027
","x: 261.81817626953125
y: 549.6422119140625
z: -0.010937645100057125
visibility: 0.9751295447349548
","x: 213.98880004882812
y: 541.1206665039062
z: 0.07321037352085114
visibility: 0.9764289855957031
",,,,,,,,,,,,,,,,,,,,,,,,,,,,,,,,,,,,,,,,,,
4,"x: 241.9134521484375
y: 219.20062255859375
z: -0.13833850622177124
visibility: 0.9999274611473083
","x: 244.26756286621094
y: 212.84104919433594
z: -0.12470681965351105
visibility: 0.9998765587806702
","x: 245.32424926757812
y: 212.9815673828125
z: -0.12474924325942993
visibility: 0.9998697638511658
","x: 246.70712280273438
y: 213.0884552001953
z: -0.12477265298366547
visibility: 0.9998690485954285
","x: 240.05938720703125
y: 212.41590881347656
z: -0.12005821615457535
visibility: 0.9998334050178528
","x: 238.01820373535156
y: 212.22657775878906
z: -0.12004612386226654
visibility: 0.999803900718689
","x: 236.22604370117188
y: 212.18202209472656
z: -0.12000936269760132
visibility: 0.9998082518577576
","x: 249.55661010742188
y: 217.96578979492188
z: -0.035488311201334
visibility: 0.9998213052749634
","x: 234.44686889648438
y: 216.504150390625
z: -0.01426087785512209
visibility: 0.9996197819709778
","x: 243.9965057373047
y: 227.8335723876953
z: -0.10503728687763214
visibility: 0.9998825192451477
","x: 238.73036193847656
y: 227.28414916992188
z: -0.0988084003329277
visibility: 0.9998336434364319
","x: 258.86370849609375
y: 259.9744567871094
z: -0.006240625865757465
visibility: 0.9998779296875
","x: 223.51895141601562
y: 259.46392822265625
z: 0.04080435261130333
visibility: 0.9995682239532471
","x: 259.5866394042969
y: 309.7813720703125
z: -0.10707224905490875
visibility: 0.9864292740821838
","x: 214.2711181640625
y: 307.6448974609375
z: -0.05216860771179199
visibility: 0.9556001424789429
","x: 241.41763305664062
y: 274.54791259765625
z: -0.22169248759746552
visibility: 0.9845789670944214
","x: 227.6392059326172
y: 267.2509460449219
z: -0.22011259198188782
visibility: 0.9649999737739563
","x: 237.92999267578125
y: 261.62823486328125
z: -0.24980738759040833
visibility: 0.9601439237594604
","x: 229.0518035888672
y: 256.1833801269531
z: -0.25638607144355774
visibility: 0.9251300692558289
","x: 238.53770446777344
y: 257.63250732421875
z: -0.2392147034406662
visibility: 0.9582266807556152
","x: 229.28970336914062
y: 251.4698028564453
z: -0.2479657679796219
visibility: 0.9183409214019775
","x: 239.40579223632812
y: 261.421142578125
z: -0.2192222774028778
visibility: 0.9353752732276917
","x: 229.63368225097656
y: 255.173583984375
z: -0.22163626551628113
visibility: 0.88249272108078
","x: 245.8743438720703
y: 373.094970703125
z: -0.013579798862338066
visibility: 0.999656617641449
","x: 223.02276611328125
y: 368.5702209472656
z: 0.013559308834373951
visibility: 0.9993466734886169
","x: 250.81546020507812
y: 455.9288330078125
z: 0.007372974418103695
visibility: 0.9898988604545593
","x: 217.1858367919922
y: 450.7099914550781
z: 0.04153317213058472
visibility: 0.9914582371711731
","x: 258.6678771972656
y: 528.9775390625
z: 0.10266093909740448
visibility: 0.9876009821891785
","x: 217.9161834716797
y: 519.548095703125
z: 0.2018517702817917
visibility: 0.9864144325256348
","x: 257.2523193359375
y: 538.4406127929688
z: 0.11725164949893951
visibility: 0.8465002775192261
","x: 220.24026489257812
y: 528.1846923828125
z: 0.21267345547676086
visibility: 0.815477728843689
","x: 261.86126708984375
y: 549.644287109375
z: 0.0076349652372300625
visibility: 0.9762603044509888
","x: 214.1268768310547
y: 541.2456665039062
z: 0.10964281857013702
visibility: 0.9770552515983582
","x: 226.4249267578125
y: 268.6279296875
z: 0.0
","x: 229.75254821777344
y: 264.9086608886719
z: -0.0010997372446581721
","x: 232.2006378173828
y: 260.82171630859375
z: -0.0027549623046070337
","x: 234.0850830078125
y: 258.473876953125
z: -0.005247318185865879
","x: 235.4409942626953
y: 257.09735107421875
z: -0.007470159791409969
","x: 229.15206909179688
y: 249.99594116210938
z: 0.0002773278101813048
","x: 229.77536010742188
y: 242.45037841796875
z: -0.0023811524733901024
","x: 231.29168701171875
y: 241.06704711914062
z: -0.004254444967955351
","x: 232.3699188232422
y: 241.75112915039062
z: -0.005178480409085751
","x: 227.02694702148438
y: 249.51858520507812
z: -0.001427327748388052
","x: 226.85581970214844
y: 240.8131103515625
z: -0.004042481537908316
","x: 228.2692108154297
y: 239.23074340820312
z: -0.005551557056605816
","x: 229.30120849609375
y: 240.5172119140625
z: -0.006133121903985739
","x: 224.979736328125
y: 250.18820190429688
z: -0.003656541695818305
","x: 224.39926147460938
y: 242.12904357910156
z: -0.005473869852721691
","x: 225.6840362548828
y: 240.89109802246094
z: -0.005672884173691273
","x: 226.69015502929688
y: 242.2218475341797
z: -0.00559091055765748
","x: 223.0000762939453
y: 252.098388671875
z: -0.006356752477586269
","x: 222.046630859375
y: 245.98043823242188
z: -0.007261372171342373
","x: 222.6671600341797
y: 244.62350463867188
z: -0.007091275881975889
","x: 223.42738342285156
y: 245.267333984375
z: -0.0068428092636168
",,,,,,,,,,,,,,,,,,,,,
5,"x: 241.9134521484375
y: 219.20062255859375
z: -0.13833850622177124
visibility: 0.9999274611473083
","x: 244.26756286621094
y: 212.84104919433594
z: -0.12470681965351105
visibility: 0.9998765587806702
","x: 245.32424926757812
y: 212.9815673828125
z: -0.12474924325942993
visibility: 0.9998697638511658
","x: 246.70712280273438
y: 213.0884552001953
z: -0.12477265298366547
visibility: 0.9998690485954285
","x: 240.05938720703125
y: 212.41590881347656
z: -0.12005821615457535
visibility: 0.9998334050178528
","x: 238.01820373535156
y: 212.22657775878906
z: -0.12004612386226654
visibility: 0.999803900718689
","x: 236.22604370117188
y: 212.18202209472656
z: -0.12000936269760132
visibility: 0.9998082518577576
","x: 249.55661010742188
y: 217.96578979492188
z: -0.035488311201334
visibility: 0.9998213052749634
","x: 234.44686889648438
y: 216.504150390625
z: -0.01426087785512209
visibility: 0.9996197819709778
","x: 243.9965057373047
y: 227.8335723876953
z: -0.10503728687763214
visibility: 0.9998825192451477
","x: 238.73036193847656
y: 227.28414916992188
z: -0.0988084003329277
visibility: 0.9998336434364319
","x: 258.86370849609375
y: 259.9744567871094
z: -0.006240625865757465
visibility: 0.9998779296875
","x: 223.51895141601562
y: 259.46392822265625
z: 0.04080435261130333
visibility: 0.9995682239532471
","x: 259.5866394042969
y: 309.7813720703125
z: -0.10707224905490875
visibility: 0.9864292740821838
","x: 214.2711181640625
y: 307.6448974609375
z: -0.05216860771179199
visibility: 0.9556001424789429
","x: 241.41763305664062
y: 274.54791259765625
z: -0.22169248759746552
visibility: 0.9845789670944214
","x: 227.6392059326172
y: 267.2509460449219
z: -0.22011259198188782
visibility: 0.9649999737739563
","x: 237.92999267578125
y: 261.62823486328125
z: -0.24980738759040833
visibility: 0.9601439237594604
","x: 229.0518035888672
y: 256.1833801269531
z: -0.25638607144355774
visibility: 0.9251300692558289
","x: 238.53770446777344
y: 257.63250732421875
z: -0.2392147034406662
visibility: 0.9582266807556152
","x: 229.28970336914062
y: 251.4698028564453
z: -0.2479657679796219
visibility: 0.9183409214019775
","x: 239.40579223632812
y: 261.421142578125
z: -0.2192222774028778
visibility: 0.9353752732276917
","x: 229.63368225097656
y: 255.173583984375
z: -0.22163626551628113
visibility: 0.88249272108078
","x: 245.8743438720703
y: 373.094970703125
z: -0.013579798862338066
visibility: 0.999656617641449
","x: 223.02276611328125
y: 368.5702209472656
z: 0.013559308834373951
visibility: 0.9993466734886169
","x: 250.81546020507812
y: 455.9288330078125
z: 0.007372974418103695
visibility: 0.9898988604545593
","x: 217.1858367919922
y: 450.7099914550781
z: 0.04153317213058472
visibility: 0.9914582371711731
","x: 258.6678771972656
y: 528.9775390625
z: 0.10266093909740448
visibility: 0.9876009821891785
","x: 217.9161834716797
y: 519.548095703125
z: 0.2018517702817917
visibility: 0.9864144325256348
","x: 257.2523193359375
y: 538.4406127929688
z: 0.11725164949893951
visibility: 0.8465002775192261
","x: 220.24026489257812
y: 528.1846923828125
z: 0.21267345547676086
visibility: 0.815477728843689
","x: 261.86126708984375
y: 549.644287109375
z: 0.0076349652372300625
visibility: 0.9762603044509888
","x: 214.1268768310547
y: 541.2456665039062
z: 0.10964281857013702
visibility: 0.9770552515983582
","x: 226.4249267578125
y: 268.6279296875
z: 0.0
","x: 229.75254821777344
y: 264.9086608886719
z: -0.0010997372446581721
","x: 232.2006378173828
y: 260.82171630859375
z: -0.0027549623046070337
","x: 234.0850830078125
y: 258.473876953125
z: -0.005247318185865879
","x: 235.4409942626953
y: 257.09735107421875
z: -0.007470159791409969
","x: 229.15206909179688
y: 249.99594116210938
z: 0.0002773278101813048
","x: 229.77536010742188
y: 242.45037841796875
z: -0.0023811524733901024
","x: 231.29168701171875
y: 241.06704711914062
z: -0.004254444967955351
","x: 232.3699188232422
y: 241.75112915039062
z: -0.005178480409085751
","x: 227.02694702148438
y: 249.51858520507812
z: -0.001427327748388052
","x: 226.85581970214844
y: 240.8131103515625
z: -0.004042481537908316
","x: 228.2692108154297
y: 239.23074340820312
z: -0.005551557056605816
","x: 229.30120849609375
y: 240.5172119140625
z: -0.006133121903985739
","x: 224.979736328125
y: 250.18820190429688
z: -0.003656541695818305
","x: 224.39926147460938
y: 242.12904357910156
z: -0.005473869852721691
","x: 225.6840362548828
y: 240.89109802246094
z: -0.005672884173691273
","x: 226.69015502929688
y: 242.2218475341797
z: -0.00559091055765748
","x: 223.0000762939453
y: 252.098388671875
z: -0.006356752477586269
","x: 222.046630859375
y: 245.98043823242188
z: -0.007261372171342373
","x: 222.6671600341797
y: 244.62350463867188
z: -0.007091275881975889
","x: 223.42738342285156
y: 245.267333984375
z: -0.0068428092636168
",,,,,,,,,,,,,,,,,,,,,
6,"x: 238.6194610595703
y: 220.36375427246094
z: -0.13617923855781555
visibility: 0.9999300241470337
","x: 240.92027282714844
y: 213.91696166992188
z: -0.12129034101963043
visibility: 0.9998793005943298
","x: 242.3634033203125
y: 213.94970703125
z: -0.12132430076599121
visibility: 0.9998719692230225
","x: 243.55982971191406
y: 213.9313507080078
z: -0.12134949862957001
visibility: 0.9998705983161926
","x: 236.78749084472656
y: 213.61895751953125
z: -0.11749731004238129
visibility: 0.9998375773429871
","x: 234.90208435058594
y: 213.42987060546875
z: -0.11748458445072174
visibility: 0.9998084306716919
","x: 233.18975830078125
y: 213.28988647460938
z: -0.11741016805171967
visibility: 0.999812662601471
","x: 246.13595581054688
y: 218.18861389160156
z: -0.03182000666856766
visibility: 0.9998262524604797
","x: 230.7893829345703
y: 217.47271728515625
z: -0.013209788128733635
visibility: 0.9996272921562195
","x: 240.91412353515625
y: 228.76446533203125
z: -0.10258322954177856
visibility: 0.99988853931427
","x: 235.4665069580078
y: 227.97837829589844
z: -0.0975361093878746
visibility: 0.9998424053192139
","x: 254.5192108154297
y: 262.1246032714844
z: -0.005897958762943745
visibility: 0.9998797178268433
","x: 218.49395751953125
y: 260.28277587890625
z: 0.046920157968997955
visibility: 0.9995880722999573
","x: 256.03924560546875
y: 315.78204345703125
z: -0.10232947021722794
visibility: 0.9860872030258179
","x: 209.7883758544922
y: 310.93280029296875
z: -0.04216330125927925
visibility: 0.9547298550605774
","x: 236.43020629882812
y: 281.09375
z: -0.21118251979351044
visibility: 0.983637809753418
","x: 221.423583984375
y: 273.2034912109375
z: -0.21215128898620605
visibility: 0.9656168222427368
","x: 231.46893310546875
y: 271.18084716796875
z: -0.24036459624767303
visibility: 0.9579571485519409
","x: 221.779052734375
y: 263.5609130859375
z: -0.2492019385099411
visibility: 0.9264428615570068
","x: 231.37789916992188
y: 266.6820983886719
z: -0.2284826934337616
visibility: 0.9554407596588135
","x: 221.6260528564453
y: 258.767822265625
z: -0.24153654277324677
visibility: 0.91953045129776
","x: 233.29042053222656
y: 269.9059753417969
z: -0.20803821086883545
visibility: 0.9319858551025391
","x: 222.43858337402344
y: 261.7684631347656
z: -0.2141125649213791
visibility: 0.8849005699157715
","x: 243.13287353515625
y: 373.068603515625
z: -0.013403886929154396
visibility: 0.9996767044067383
","x: 220.31991577148438
y: 368.5815734863281
z: 0.013345899060368538
visibility: 0.999386191368103
","x: 247.2508087158203
y: 457.69708251953125
z: -0.0023258114233613014
visibility: 0.990544319152832
","x: 216.47434997558594
y: 451.82904052734375
z: 0.033639319241046906
visibility: 0.9918029308319092
","x: 258.15289306640625
y: 528.6521606445312
z: 0.15861180424690247
visibility: 0.988150954246521
","x: 216.58587646484375
y: 519.5604248046875
z: 0.22398225963115692
visibility: 0.986936628818512
","x: 256.5672912597656
y: 537.1666259765625
z: 0.17195038497447968
visibility: 0.8454068303108215
","x: 218.9244384765625
y: 528.206787109375
z: 0.2382632941007614
visibility: 0.8212462067604065
","x: 261.6893615722656
y: 549.5121459960938
z: 0.056399501860141754
visibility: 0.9773074984550476
","x: 214.10536193847656
y: 542.0159301757812
z: 0.13420547544956207
visibility: 0.9778066277503967
","x: 222.34991455078125
y: 276.41973876953125
z: 0.0
","x: 224.60350036621094
y: 274.6243896484375
z: -0.0028505325317382812
","x: 226.1703643798828
y: 272.1455078125
z: -0.005700129084289074
","x: 227.54510498046875
y: 272.391845703125
z: -0.008915749378502369
","x: 229.39260864257812
y: 273.9120178222656
z: -0.012359214946627617
","x: 223.8391571044922
y: 259.6604309082031
z: -0.00438972283154726
","x: 223.4932403564453
y: 251.02041625976562
z: -0.008038142696022987
","x: 223.02841186523438
y: 248.25634765625
z: -0.01055089570581913
","x: 222.67491149902344
y: 247.35597229003906
z: -0.012177769094705582
","x: 221.36851501464844
y: 260.08990478515625
z: -0.005791329313069582
","x: 220.0244140625
y: 250.7863006591797
z: -0.009120720438659191
","x: 218.88287353515625
y: 248.15438842773438
z: -0.01125427708029747
","x: 218.016845703125
y: 248.08335876464844
z: -0.01260511763393879
","x: 219.45420837402344
y: 262.5130615234375
z: -0.007647658698260784
","x: 217.2333984375
y: 255.4764404296875
z: -0.011025046929717064
","x: 215.6572723388672
y: 252.73944091796875
z: -0.013076665811240673
","x: 214.5023956298828
y: 251.49990844726562
z: -0.014249869622290134
","x: 217.9458770751953
y: 266.60345458984375
z: -0.009919276461005211
","x: 215.41903686523438
y: 263.21588134765625
z: -0.012981927022337914
","x: 213.66310119628906
y: 261.7223815917969
z: -0.01454197522252798
","x: 212.28663635253906
y: 261.0697937011719
z: -0.01543818786740303
","x: 222.94952392578125
y: 280.35247802734375
z: 0.0
","x: 225.50778198242188
y: 275.947265625
z: -0.001315411413088441
","x: 227.30064392089844
y: 272.113037109375
z: -0.002771364524960518
","x: 228.35060119628906
y: 270.9326477050781
z: -0.004847517237067223
","x: 229.71493530273438
y: 270.9266052246094
z: -0.0070424312725663185
","x: 224.225830078125
y: 260.6853332519531
z: -0.00041243835585191846
","x: 223.6022186279297
y: 253.0579833984375
z: -0.0024912727531045675
","x: 223.19424438476562
y: 249.5902862548828
z: -0.004220971837639809
","x: 222.77650451660156
y: 247.1580810546875
z: -0.005411241203546524
","x: 221.78651428222656
y: 261.03173828125
z: -0.0020509911701083183
","x: 220.27052307128906
y: 252.9378662109375
z: -0.003454485209658742
","x: 219.12973022460938
y: 249.30227661132812
z: -0.0048117623664438725
","x: 217.9713897705078
y: 246.90017700195312
z: -0.006025960203260183
","x: 219.853515625
y: 263.2406005859375
z: -0.004187560640275478
","x: 217.6207733154297
y: 256.5979919433594
z: -0.00623749615624547
","x: 216.0592041015625
y: 253.55740356445312
z: -0.007853363640606403
","x: 214.75027465820312
y: 251.48410034179688
z: -0.008963633328676224
","x: 218.2902069091797
y: 266.9836120605469
z: -0.006648745853453875
","x: 215.72308349609375
y: 263.6560363769531
z: -0.008536044508218765
","x: 213.88641357421875
y: 262.3277587890625
z: -0.009539869613945484
","x: 212.4046173095703
y: 261.4596862792969
z: -0.010241814889013767
"
7,"x: 238.6194610595703
y: 220.36375427246094
z: -0.13617923855781555
visibility: 0.9999300241470337
","x: 240.92027282714844
y: 213.91696166992188
z: -0.12129034101963043
visibility: 0.9998793005943298
","x: 242.3634033203125
y: 213.94970703125
z: -0.12132430076599121
visibility: 0.9998719692230225
","x: 243.55982971191406
y: 213.9313507080078
z: -0.12134949862957001
visibility: 0.9998705983161926
","x: 236.78749084472656
y: 213.61895751953125
z: -0.11749731004238129
visibility: 0.9998375773429871
","x: 234.90208435058594
y: 213.42987060546875
z: -0.11748458445072174
visibility: 0.9998084306716919
","x: 233.18975830078125
y: 213.28988647460938
z: -0.11741016805171967
visibility: 0.999812662601471
","x: 246.13595581054688
y: 218.18861389160156
z: -0.03182000666856766
visibility: 0.9998262524604797
","x: 230.7893829345703
y: 217.47271728515625
z: -0.013209788128733635
visibility: 0.9996272921562195
","x: 240.91412353515625
y: 228.76446533203125
z: -0.10258322954177856
visibility: 0.99988853931427
","x: 235.4665069580078
y: 227.97837829589844
z: -0.0975361093878746
visibility: 0.9998424053192139
","x: 254.5192108154297
y: 262.1246032714844
z: -0.005897958762943745
visibility: 0.9998797178268433
","x: 218.49395751953125
y: 260.28277587890625
z: 0.046920157968997955
visibility: 0.9995880722999573
","x: 256.03924560546875
y: 315.78204345703125
z: -0.10232947021722794
visibility: 0.9860872030258179
","x: 209.7883758544922
y: 310.93280029296875
z: -0.04216330125927925
visibility: 0.9547298550605774
","x: 236.43020629882812
y: 281.09375
z: -0.21118251979351044
visibility: 0.983637809753418
","x: 221.423583984375
y: 273.2034912109375
z: -0.21215128898620605
visibility: 0.9656168222427368
","x: 231.46893310546875
y: 271.18084716796875
z: -0.24036459624767303
visibility: 0.9579571485519409
","x: 221.779052734375
y: 263.5609130859375
z: -0.2492019385099411
visibility: 0.9264428615570068
","x: 231.37789916992188
y: 266.6820983886719
z: -0.2284826934337616
visibility: 0.9554407596588135
","x: 221.6260528564453
y: 258.767822265625
z: -0.24153654277324677
visibility: 0.91953045129776
","x: 233.29042053222656
y: 269.9059753417969
z: -0.20803821086883545
visibility: 0.9319858551025391
","x: 222.43858337402344
y: 261.7684631347656
z: -0.2141125649213791
visibility: 0.8849005699157715
","x: 243.13287353515625
y: 373.068603515625
z: -0.013403886929154396
visibility: 0.9996767044067383
","x: 220.31991577148438
y: 368.5815734863281
z: 0.013345899060368538
visibility: 0.999386191368103
","x: 247.2508087158203
y: 457.69708251953125
z: -0.0023258114233613014
visibility: 0.990544319152832
","x: 216.47434997558594
y: 451.82904052734375
z: 0.033639319241046906
visibility: 0.9918029308319092
","x: 258.15289306640625
y: 528.6521606445312
z: 0.15861180424690247
visibility: 0.988150954246521
","x: 216.58587646484375
y: 519.5604248046875
z: 0.22398225963115692
visibility: 0.986936628818512
","x: 256.5672912597656
y: 537.1666259765625
z: 0.17195038497447968
visibility: 0.8454068303108215
","x: 218.9244384765625
y: 528.206787109375
z: 0.2382632941007614
visibility: 0.8212462067604065
","x: 261.6893615722656
y: 549.5121459960938
z: 0.056399501860141754
visibility: 0.9773074984550476
","x: 214.10536193847656
y: 542.0159301757812
z: 0.13420547544956207
visibility: 0.9778066277503967
","x: 222.34991455078125
y: 276.41973876953125
z: 0.0
","x: 224.60350036621094
y: 274.6243896484375
z: -0.0028505325317382812
","x: 226.1703643798828
y: 272.1455078125
z: -0.005700129084289074
","x: 227.54510498046875
y: 272.391845703125
z: -0.008915749378502369
","x: 229.39260864257812
y: 273.9120178222656
z: -0.012359214946627617
","x: 223.8391571044922
y: 259.6604309082031
z: -0.00438972283154726
","x: 223.4932403564453
y: 251.02041625976562
z: -0.008038142696022987
","x: 223.02841186523438
y: 248.25634765625
z: -0.01055089570581913
","x: 222.67491149902344
y: 247.35597229003906
z: -0.012177769094705582
","x: 221.36851501464844
y: 260.08990478515625
z: -0.005791329313069582
","x: 220.0244140625
y: 250.7863006591797
z: -0.009120720438659191
","x: 218.88287353515625
y: 248.15438842773438
z: -0.01125427708029747
","x: 218.016845703125
y: 248.08335876464844
z: -0.01260511763393879
","x: 219.45420837402344
y: 262.5130615234375
z: -0.007647658698260784
","x: 217.2333984375
y: 255.4764404296875
z: -0.011025046929717064
","x: 215.6572723388672
y: 252.73944091796875
z: -0.013076665811240673
","x: 214.5023956298828
y: 251.49990844726562
z: -0.014249869622290134
","x: 217.9458770751953
y: 266.60345458984375
z: -0.009919276461005211
","x: 215.41903686523438
y: 263.21588134765625
z: -0.012981927022337914
","x: 213.66310119628906
y: 261.7223815917969
z: -0.01454197522252798
","x: 212.28663635253906
y: 261.0697937011719
z: -0.01543818786740303
","x: 222.94952392578125
y: 280.35247802734375
z: 0.0
","x: 225.50778198242188
y: 275.947265625
z: -0.001315411413088441
","x: 227.30064392089844
y: 272.113037109375
z: -0.002771364524960518
","x: 228.35060119628906
y: 270.9326477050781
z: -0.004847517237067223
","x: 229.71493530273438
y: 270.9266052246094
z: -0.0070424312725663185
","x: 224.225830078125
y: 260.6853332519531
z: -0.00041243835585191846
","x: 223.6022186279297
y: 253.0579833984375
z: -0.0024912727531045675
","x: 223.19424438476562
y: 249.5902862548828
z: -0.004220971837639809
","x: 222.77650451660156
y: 247.1580810546875
z: -0.005411241203546524
","x: 221.78651428222656
y: 261.03173828125
z: -0.0020509911701083183
","x: 220.27052307128906
y: 252.9378662109375
z: -0.003454485209658742
","x: 219.12973022460938
y: 249.30227661132812
z: -0.0048117623664438725
","x: 217.9713897705078
y: 246.90017700195312
z: -0.006025960203260183
","x: 219.853515625
y: 263.2406005859375
z: -0.004187560640275478
","x: 217.6207733154297
y: 256.5979919433594
z: -0.00623749615624547
","x: 216.0592041015625
y: 253.55740356445312
z: -0.007853363640606403
","x: 214.75027465820312
y: 251.48410034179688
z: -0.008963633328676224
","x: 218.2902069091797
y: 266.9836120605469
z: -0.006648745853453875
","x: 215.72308349609375
y: 263.6560363769531
z: -0.008536044508218765
","x: 213.88641357421875
y: 262.3277587890625
z: -0.009539869613945484
","x: 212.4046173095703
y: 261.4596862792969
z: -0.010241814889013767
"
8,"x: 238.6194610595703
y: 220.36375427246094
z: -0.13617923855781555
visibility: 0.9999300241470337
","x: 240.92027282714844
y: 213.91696166992188
z: -0.12129034101963043
visibility: 0.9998793005943298
","x: 242.3634033203125
y: 213.94970703125
z: -0.12132430076599121
visibility: 0.9998719692230225
","x: 243.55982971191406
y: 213.9313507080078
z: -0.12134949862957001
visibility: 0.9998705983161926
","x: 236.78749084472656
y: 213.61895751953125
z: -0.11749731004238129
visibility: 0.9998375773429871
","x: 234.90208435058594
y: 213.42987060546875
z: -0.11748458445072174
visibility: 0.9998084306716919
","x: 233.18975830078125
y: 213.28988647460938
z: -0.11741016805171967
visibility: 0.999812662601471
","x: 246.13595581054688
y: 218.18861389160156
z: -0.03182000666856766
visibility: 0.9998262524604797
","x: 230.7893829345703
y: 217.47271728515625
z: -0.013209788128733635
visibility: 0.9996272921562195
","x: 240.91412353515625
y: 228.76446533203125
z: -0.10258322954177856
visibility: 0.99988853931427
","x: 235.4665069580078
y: 227.97837829589844
z: -0.0975361093878746
visibility: 0.9998424053192139
","x: 254.5192108154297
y: 262.1246032714844
z: -0.005897958762943745
visibility: 0.9998797178268433
","x: 218.49395751953125
y: 260.28277587890625
z: 0.046920157968997955
visibility: 0.9995880722999573
","x: 256.03924560546875
y: 315.78204345703125
z: -0.10232947021722794
visibility: 0.9860872030258179
","x: 209.7883758544922
y: 310.93280029296875
z: -0.04216330125927925
visibility: 0.9547298550605774
","x: 236.43020629882812
y: 281.09375
z: -0.21118251979351044
visibility: 0.983637809753418
","x: 221.423583984375
y: 273.2034912109375
z: -0.21215128898620605
visibility: 0.9656168222427368
","x: 231.46893310546875
y: 271.18084716796875
z: -0.24036459624767303
visibility: 0.9579571485519409
","x: 221.779052734375
y: 263.5609130859375
z: -0.2492019385099411
visibility: 0.9264428615570068
","x: 231.37789916992188
y: 266.6820983886719
z: -0.2284826934337616
visibility: 0.9554407596588135
","x: 221.6260528564453
y: 258.767822265625
z: -0.24153654277324677
visibility: 0.91953045129776
","x: 233.29042053222656
y: 269.9059753417969
z: -0.20803821086883545
visibility: 0.9319858551025391
","x: 222.43858337402344
y: 261.7684631347656
z: -0.2141125649213791
visibility: 0.8849005699157715
","x: 243.13287353515625
y: 373.068603515625
z: -0.013403886929154396
visibility: 0.9996767044067383
","x: 220.31991577148438
y: 368.5815734863281
z: 0.013345899060368538
visibility: 0.999386191368103
","x: 247.2508087158203
y: 457.69708251953125
z: -0.0023258114233613014
visibility: 0.990544319152832
","x: 216.47434997558594
y: 451.82904052734375
z: 0.033639319241046906
visibility: 0.9918029308319092
","x: 258.15289306640625
y: 528.6521606445312
z: 0.15861180424690247
visibility: 0.988150954246521
","x: 216.58587646484375
y: 519.5604248046875
z: 0.22398225963115692
visibility: 0.986936628818512
","x: 256.5672912597656
y: 537.1666259765625
z: 0.17195038497447968
visibility: 0.8454068303108215
","x: 218.9244384765625
y: 528.206787109375
z: 0.2382632941007614
visibility: 0.8212462067604065
","x: 261.6893615722656
y: 549.5121459960938
z: 0.056399501860141754
visibility: 0.9773074984550476
","x: 214.10536193847656
y: 542.0159301757812
z: 0.13420547544956207
visibility: 0.9778066277503967
","x: 222.34991455078125
y: 276.41973876953125
z: 0.0
","x: 224.60350036621094
y: 274.6243896484375
z: -0.0028505325317382812
","x: 226.1703643798828
y: 272.1455078125
z: -0.005700129084289074
","x: 227.54510498046875
y: 272.391845703125
z: -0.008915749378502369
","x: 229.39260864257812
y: 273.9120178222656
z: -0.012359214946627617
","x: 223.8391571044922
y: 259.6604309082031
z: -0.00438972283154726
","x: 223.4932403564453
y: 251.02041625976562
z: -0.008038142696022987
","x: 223.02841186523438
y: 248.25634765625
z: -0.01055089570581913
","x: 222.67491149902344
y: 247.35597229003906
z: -0.012177769094705582
","x: 221.36851501464844
y: 260.08990478515625
z: -0.005791329313069582
","x: 220.0244140625
y: 250.7863006591797
z: -0.009120720438659191
","x: 218.88287353515625
y: 248.15438842773438
z: -0.01125427708029747
","x: 218.016845703125
y: 248.08335876464844
z: -0.01260511763393879
","x: 219.45420837402344
y: 262.5130615234375
z: -0.007647658698260784
","x: 217.2333984375
y: 255.4764404296875
z: -0.011025046929717064
","x: 215.6572723388672
y: 252.73944091796875
z: -0.013076665811240673
","x: 214.5023956298828
y: 251.49990844726562
z: -0.014249869622290134
","x: 217.9458770751953
y: 266.60345458984375
z: -0.009919276461005211
","x: 215.41903686523438
y: 263.21588134765625
z: -0.012981927022337914
","x: 213.66310119628906
y: 261.7223815917969
z: -0.01454197522252798
","x: 212.28663635253906
y: 261.0697937011719
z: -0.01543818786740303
","x: 222.94952392578125
y: 280.35247802734375
z: 0.0
","x: 225.50778198242188
y: 275.947265625
z: -0.001315411413088441
","x: 227.30064392089844
y: 272.113037109375
z: -0.002771364524960518
","x: 228.35060119628906
y: 270.9326477050781
z: -0.004847517237067223
","x: 229.71493530273438
y: 270.9266052246094
z: -0.0070424312725663185
","x: 224.225830078125
y: 260.6853332519531
z: -0.00041243835585191846
","x: 223.6022186279297
y: 253.0579833984375
z: -0.0024912727531045675
","x: 223.19424438476562
y: 249.5902862548828
z: -0.004220971837639809
","x: 222.77650451660156
y: 247.1580810546875
z: -0.005411241203546524
","x: 221.78651428222656
y: 261.03173828125
z: -0.0020509911701083183
","x: 220.27052307128906
y: 252.9378662109375
z: -0.003454485209658742
","x: 219.12973022460938
y: 249.30227661132812
z: -0.0048117623664438725
","x: 217.9713897705078
y: 246.90017700195312
z: -0.006025960203260183
","x: 219.853515625
y: 263.2406005859375
z: -0.004187560640275478
","x: 217.6207733154297
y: 256.5979919433594
z: -0.00623749615624547
","x: 216.0592041015625
y: 253.55740356445312
z: -0.007853363640606403
","x: 214.75027465820312
y: 251.48410034179688
z: -0.008963633328676224
","x: 218.2902069091797
y: 266.9836120605469
z: -0.006648745853453875
","x: 215.72308349609375
y: 263.6560363769531
z: -0.008536044508218765
","x: 213.88641357421875
y: 262.3277587890625
z: -0.009539869613945484
","x: 212.4046173095703
y: 261.4596862792969
z: -0.010241814889013767
"
9,"x: 235.4939727783203
y: 220.01588439941406
z: -0.11789800971746445
visibility: 0.999926745891571
","x: 237.55325317382812
y: 213.5720672607422
z: -0.10360503196716309
visibility: 0.9998704791069031
","x: 238.85833740234375
y: 213.70924377441406
z: -0.10364963114261627
visibility: 0.9998617172241211
","x: 240.3048095703125
y: 213.74789428710938
z: -0.10369211435317993
visibility: 0.9998596906661987
","x: 233.4261474609375
y: 213.0880584716797
z: -0.09920242428779602
visibility: 0.9998260736465454
","x: 231.752197265625
y: 212.90464782714844
z: -0.0991976410150528
visibility: 0.9997928142547607
","x: 229.83604431152344
y: 212.6371612548828
z: -0.09912706166505814
visibility: 0.9997959136962891
","x: 243.0059051513672
y: 218.13067626953125
z: -0.016353486105799675
visibility: 0.9998157024383545
","x: 226.79244995117188
y: 216.78587341308594
z: 0.004889261908829212
visibility: 0.9995952844619751
","x: 237.355224609375
y: 228.60565185546875
z: -0.08490579575300217
visibility: 0.9998843669891357
","x: 232.41180419921875
y: 227.76275634765625
z: -0.07907752692699432
visibility: 0.999835729598999
","x: 252.80508422851562
y: 261.8683166503906
z: 0.013618014752864838
visibility: 0.9998743534088135
","x: 217.17718505859375
y: 261.1291198730469
z: 0.06317427009344101
visibility: 0.9995920062065125
","x: 255.8109893798828
y: 315.38250732421875
z: -0.07808493077754974
visibility: 0.9859651923179626
","x: 209.16302490234375
y: 312.4012451171875
z: -0.0204156581312418
visibility: 0.9528013467788696
","x: 239.4959259033203
y: 278.5560302734375
z: -0.18281976878643036
visibility: 0.983584463596344
","x: 218.58502197265625
y: 267.73443603515625
z: -0.187035471200943
visibility: 0.9668511152267456
","x: 236.92108154296875
y: 267.4353942871094
z: -0.211573988199234
visibility: 0.9574552774429321
","x: 217.501708984375
y: 255.26651000976562
z: -0.22337201237678528
visibility: 0.9291496872901917
","x: 237.31942749023438
y: 263.16473388671875
z: -0.19919131696224213
visibility: 0.9546051025390625
","x: 217.4517059326172
y: 250.59286499023438
z: -0.21776922047138214
visibility: 0.9223296642303467
","x: 237.21774291992188
y: 266.05694580078125
z: -0.17960265278816223
visibility: 0.9313697218894958
","x: 218.85235595703125
y: 255.1832275390625
z: -0.18988969922065735
visibility: 0.889290452003479
","x: 244.41250610351562
y: 373.0596923828125
z: -0.011611677706241608
visibility: 0.9996824860572815
","x: 221.10479736328125
y: 368.96771240234375
z: 0.011577514931559563
visibility: 0.9994070529937744
","x: 249.92288208007812
y: 457.6885986328125
z: -0.0022321136202663183
visibility: 0.9908038377761841
","x: 218.30030822753906
y: 453.060546875
z: 0.029379740357398987
visibility: 0.9917409420013428
","x: 258.0673828125
y: 528.66455078125
z: 0.15483181178569794
visibility: 0.9880220293998718
","x: 216.5516357421875
y: 520.7665405273438
z: 0.1980551779270172
visibility: 0.9868636131286621
","x: 256.46282958984375
y: 537.1416015625
z: 0.1670777052640915
visibility: 0.8434520363807678
","x: 218.4587860107422
y: 529.1923217773438
z: 0.2096172571182251
visibility: 0.821578860282898
","x: 261.7176208496094
y: 549.5042724609375
z: 0.043558478355407715
visibility: 0.9770984053611755
","x: 214.7254638671875
y: 542.7037963867188
z: 0.1019020825624466
visibility: 0.9772945642471313
","x: 219.43731689453125
y: 264.2491149902344
z: 0.0
","x: 221.48143005371094
y: 257.8838806152344
z: -0.0016524916281923652
","x: 222.0519561767578
y: 251.21900939941406
z: -0.0025591207668185234
","x: 221.47463989257812
y: 246.84669494628906
z: -0.0038540337700396776
","x: 220.58203125
y: 244.564697265625
z: -0.005176259204745293
","x: 217.44586181640625
y: 243.5740509033203
z: 0.0004411738191265613
","x: 216.27288818359375
y: 236.55618286132812
z: -0.0013890562113374472
","x: 215.56886291503906
y: 232.31076049804688
z: -0.003017398063093424
","x: 214.87252807617188
y: 228.6577606201172
z: -0.0042667691595852375
","x: 215.19683837890625
y: 245.25491333007812
z: -0.0010293176164850593
","x: 212.98239135742188
y: 238.31198120117188
z: -0.0023194116074591875
","x: 211.63087463378906
y: 234.14048767089844
z: -0.0038347949739545584
","x: 210.34799194335938
y: 230.6270751953125
z: -0.005209994036704302
","x: 213.6605682373047
y: 248.41368103027344
z: -0.003115789731964469
","x: 210.88446044921875
y: 242.76123046875
z: -0.00538208382204175
","x: 209.25137329101562
y: 239.1685333251953
z: -0.007351888809353113
","x: 207.9184112548828
y: 236.053466796875
z: -0.008711656555533409
","x: 212.70489501953125
y: 252.89370727539062
z: -0.005542665719985962
","x: 209.8207550048828
y: 250.1339569091797
z: -0.007880870252847672
","x: 207.89614868164062
y: 248.40513610839844
z: -0.009229125455021858
","x: 206.30404663085938
y: 246.70712280273438
z: -0.010142388753592968
",,,,,,,,,,,,,,,,,,,,,
10,"x: 235.4939727783203
y: 220.01588439941406
z: -0.11789800971746445
visibility: 0.999926745891571
","x: 237.55325317382812
y: 213.5720672607422
z: -0.10360503196716309
visibility: 0.9998704791069031
","x: 238.85833740234375
y: 213.70924377441406
z: -0.10364963114261627
visibility: 0.9998617172241211
","x: 240.3048095703125
y: 213.74789428710938
z: -0.10369211435317993
visibility: 0.9998596906661987
","x: 233.4261474609375
y: 213.0880584716797
z: -0.09920242428779602
visibility: 0.9998260736465454
","x: 231.752197265625
y: 212.90464782714844
z: -0.0991976410150528
visibility: 0.9997928142547607
","x: 229.83604431152344
y: 212.6371612548828
z: -0.09912706166505814
visibility: 0.9997959136962891
","x: 243.0059051513672
y: 218.13067626953125
z: -0.016353486105799675
visibility: 0.9998157024383545
","x: 226.79244995117188
y: 216.78587341308594
z: 0.004889261908829212
visibility: 0.9995952844619751
","x: 237.355224609375
y: 228.60565185546875
z: -0.08490579575300217
visibility: 0.9998843669891357
","x: 232.41180419921875
y: 227.76275634765625
z: -0.07907752692699432
visibility: 0.999835729598999
","x: 252.80508422851562
y: 261.8683166503906
z: 0.013618014752864838
visibility: 0.9998743534088135
","x: 217.17718505859375
y: 261.1291198730469
z: 0.06317427009344101
visibility: 0.9995920062065125
","x: 255.8109893798828
y: 315.38250732421875
z: -0.07808493077754974
visibility: 0.9859651923179626
","x: 209.16302490234375
y: 312.4012451171875
z: -0.0204156581312418
visibility: 0.9528013467788696
","x: 239.4959259033203
y: 278.5560302734375
z: -0.18281976878643036
visibility: 0.983584463596344
","x: 218.58502197265625
y: 267.73443603515625
z: -0.187035471200943
visibility: 0.9668511152267456
","x: 236.92108154296875
y: 267.4353942871094
z: -0.211573988199234
visibility: 0.9574552774429321
","x: 217.501708984375
y: 255.26651000976562
z: -0.22337201237678528
visibility: 0.9291496872901917
","x: 237.31942749023438
y: 263.16473388671875
z: -0.19919131696224213
visibility: 0.9546051025390625
","x: 217.4517059326172
y: 250.59286499023438
z: -0.21776922047138214
visibility: 0.9223296642303467
","x: 237.21774291992188
y: 266.05694580078125
z: -0.17960265278816223
visibility: 0.9313697218894958
","x: 218.85235595703125
y: 255.1832275390625
z: -0.18988969922065735
visibility: 0.889290452003479
","x: 244.41250610351562
y: 373.0596923828125
z: -0.011611677706241608
visibility: 0.9996824860572815
","x: 221.10479736328125
y: 368.96771240234375
z: 0.011577514931559563
visibility: 0.9994070529937744
","x: 249.92288208007812
y: 457.6885986328125
z: -0.0022321136202663183
visibility: 0.9908038377761841
","x: 218.30030822753906
y: 453.060546875
z: 0.029379740357398987
visibility: 0.9917409420013428
","x: 258.0673828125
y: 528.66455078125
z: 0.15483181178569794
visibility: 0.9880220293998718
","x: 216.5516357421875
y: 520.7665405273438
z: 0.1980551779270172
visibility: 0.9868636131286621
","x: 256.46282958984375
y: 537.1416015625
z: 0.1670777052640915
visibility: 0.8434520363807678
","x: 218.4587860107422
y: 529.1923217773438
z: 0.2096172571182251
visibility: 0.821578860282898
","x: 261.7176208496094
y: 549.5042724609375
z: 0.043558478355407715
visibility: 0.9770984053611755
","x: 214.7254638671875
y: 542.7037963867188
z: 0.1019020825624466
visibility: 0.9772945642471313
","x: 219.43731689453125
y: 264.2491149902344
z: 0.0
","x: 221.48143005371094
y: 257.8838806152344
z: -0.0016524916281923652
","x: 222.0519561767578
y: 251.21900939941406
z: -0.0025591207668185234
","x: 221.47463989257812
y: 246.84669494628906
z: -0.0038540337700396776
","x: 220.58203125
y: 244.564697265625
z: -0.005176259204745293
","x: 217.44586181640625
y: 243.5740509033203
z: 0.0004411738191265613
","x: 216.27288818359375
y: 236.55618286132812
z: -0.0013890562113374472
","x: 215.56886291503906
y: 232.31076049804688
z: -0.003017398063093424
","x: 214.87252807617188
y: 228.6577606201172
z: -0.0042667691595852375
","x: 215.19683837890625
y: 245.25491333007812
z: -0.0010293176164850593
","x: 212.98239135742188
y: 238.31198120117188
z: -0.0023194116074591875
","x: 211.63087463378906
y: 234.14048767089844
z: -0.0038347949739545584
","x: 210.34799194335938
y: 230.6270751953125
z: -0.005209994036704302
","x: 213.6605682373047
y: 248.41368103027344
z: -0.003115789731964469
","x: 210.88446044921875
y: 242.76123046875
z: -0.00538208382204175
","x: 209.25137329101562
y: 239.1685333251953
z: -0.007351888809353113
","x: 207.9184112548828
y: 236.053466796875
z: -0.008711656555533409
","x: 212.70489501953125
y: 252.89370727539062
z: -0.005542665719985962
","x: 209.8207550048828
y: 250.1339569091797
z: -0.007880870252847672
","x: 207.89614868164062
y: 248.40513610839844
z: -0.009229125455021858
","x: 206.30404663085938
y: 246.70712280273438
z: -0.010142388753592968
",,,,,,,,,,,,,,,,,,,,,
11,"x: 235.6892852783203
y: 216.83164978027344
z: -0.11676963418722153
visibility: 0.999919593334198
","x: 237.49966430664062
y: 209.9979248046875
z: -0.10300268977880478
visibility: 0.9998576641082764
","x: 239.07284545898438
y: 209.94525146484375
z: -0.10304132848978043
visibility: 0.9998505711555481
","x: 240.56883239746094
y: 209.94781494140625
z: -0.10307091474533081
visibility: 0.999848484992981
","x: 233.1173858642578
y: 210.4293212890625
z: -0.09909719228744507
visibility: 0.9998032450675964
","x: 231.68174743652344
y: 210.80648803710938
z: -0.09910501539707184
visibility: 0.999764621257782
","x: 229.74884033203125
y: 211.3251495361328
z: -0.09908469021320343
visibility: 0.999762237071991
","x: 243.00204467773438
y: 214.54454040527344
z: -0.014337791129946709
visibility: 0.9998078942298889
","x: 226.97488403320312
y: 217.27572631835938
z: 0.0057515595108270645
visibility: 0.999540388584137
","x: 238.97509765625
y: 226.14065551757812
z: -0.08269776403903961
visibility: 0.9998765587806702
","x: 232.97927856445312
y: 225.96636962890625
z: -0.07727426290512085
visibility: 0.9998143911361694
","x: 255.559326171875
y: 256.3613586425781
z: 0.019824428483843803
visibility: 0.999874472618103
","x: 219.9681854248047
y: 259.516357421875
z: 0.05691757798194885
visibility: 0.9995570182800293
","x: 260.4635314941406
y: 306.4456481933594
z: -0.07887359708547592
visibility: 0.9865723848342896
","x: 211.3545684814453
y: 310.1860656738281
z: -0.038441240787506104
visibility: 0.9512526988983154
","x: 244.53558349609375
y: 265.8262939453125
z: -0.21349172294139862
visibility: 0.9845914244651794
","x: 218.57823181152344
y: 256.5124816894531
z: -0.21310794353485107
visibility: 0.9675642251968384
","x: 241.8641815185547
y: 250.59625244140625
z: -0.2444452941417694
visibility: 0.9596521258354187
","x: 217.42510986328125
y: 242.8751220703125
z: -0.24995367228984833
visibility: 0.930327296257019
","x: 241.8088836669922
y: 246.742431640625
z: -0.23170676827430725
visibility: 0.9568396210670471
","x: 217.44677734375
y: 239.97708129882812
z: -0.2452499121427536
visibility: 0.9234824180603027
","x: 241.83001708984375
y: 251.7213134765625
z: -0.21060998737812042
visibility: 0.9346364736557007
","x: 218.94175720214844
y: 245.12327575683594
z: -0.21637699007987976
visibility: 0.8918124437332153
","x: 247.57186889648438
y: 371.71240234375
z: -0.011488889344036579
visibility: 0.999679684638977
","x: 224.40133666992188
y: 368.7913818359375
z: 0.011397027410566807
visibility: 0.9994217753410339
","x: 251.55953979492188
y: 455.89886474609375
z: -0.0006001691799610853
visibility: 0.9911487102508545
","x: 220.77392578125
y: 451.8629455566406
z: 0.02061576582491398
visibility: 0.9916123747825623
","x: 258.2708435058594
y: 528.1038818359375
z: 0.1279938519001007
visibility: 0.9881805777549744
","x: 216.69190979003906
y: 520.7796630859375
z: 0.16982141137123108
visibility: 0.9868429899215698
","x: 256.7727355957031
y: 536.9530639648438
z: 0.1341913789510727
visibility: 0.8408008813858032
","x: 218.49217224121094
y: 529.340087890625
z: 0.1772305816411972
visibility: 0.8200587630271912
","x: 261.8033142089844
y: 549.3864135742188
z: 0.011177925392985344
visibility: 0.9773087501525879
","x: 214.88739013671875
y: 542.8778076171875
z: 0.06646609306335449
visibility: 0.9770771265029907
","x: 220.50845336914062
y: 250.80612182617188
z: 0.0
","x: 222.61380004882812
y: 244.7455596923828
z: -0.0017446985002607107
","x: 223.37725830078125
y: 237.58767700195312
z: -0.0024747797288000584
","x: 223.05093383789062
y: 232.64503479003906
z: -0.0034241180401295424
","x: 222.4009552001953
y: 230.09280395507812
z: -0.004356798715889454
","x: 218.255859375
y: 232.08624267578125
z: 5.083813812234439e-05
","x: 217.21115112304688
y: 225.0070037841797
z: -0.0016695259837433696
","x: 216.6474609375
y: 220.77499389648438
z: -0.0031356154941022396
","x: 216.00653076171875
y: 217.19656372070312
z: -0.0042637791484594345
","x: 216.18775939941406
y: 233.68637084960938
z: -0.0010975366458296776
","x: 214.13278198242188
y: 226.9029083251953
z: -0.0024798645172268152
","x: 212.89385986328125
y: 222.59567260742188
z: -0.00400025537237525
","x: 211.66433715820312
y: 219.0283203125
z: -0.005354088265448809
","x: 214.75328063964844
y: 236.5260009765625
z: -0.0027908491902053356
","x: 212.03268432617188
y: 231.159423828125
z: -0.005073645617812872
","x: 210.2873992919922
y: 227.912841796875
z: -0.006984378211200237
","x: 208.79098510742188
y: 225.20321655273438
z: -0.008272863924503326
","x: 213.8459930419922
y: 240.49337768554688
z: -0.004796965979039669
","x: 210.993896484375
y: 238.04017639160156
z: -0.007133502047508955
","x: 209.1061248779297
y: 236.7397918701172
z: -0.008471203967928886
","x: 207.46542358398438
y: 235.5032958984375
z: -0.009345365688204765
",,,,,,,,,,,,,,,,,,,,,
12,"x: 235.6892852783203
y: 216.83164978027344
z: -0.11676963418722153
visibility: 0.999919593334198
","x: 237.49966430664062
y: 209.9979248046875
z: -0.10300268977880478
visibility: 0.9998576641082764
","x: 239.07284545898438
y: 209.94525146484375
z: -0.10304132848978043
visibility: 0.9998505711555481
","x: 240.56883239746094
y: 209.94781494140625
z: -0.10307091474533081
visibility: 0.999848484992981
","x: 233.1173858642578
y: 210.4293212890625
z: -0.09909719228744507
visibility: 0.9998032450675964
","x: 231.68174743652344
y: 210.80648803710938
z: -0.09910501539707184
visibility: 0.999764621257782
","x: 229.74884033203125
y: 211.3251495361328
z: -0.09908469021320343
visibility: 0.999762237071991
","x: 243.00204467773438
y: 214.54454040527344
z: -0.014337791129946709
visibility: 0.9998078942298889
","x: 226.97488403320312
y: 217.27572631835938
z: 0.0057515595108270645
visibility: 0.999540388584137
","x: 238.97509765625
y: 226.14065551757812
z: -0.08269776403903961
visibility: 0.9998765587806702
","x: 232.97927856445312
y: 225.96636962890625
z: -0.07727426290512085
visibility: 0.9998143911361694
","x: 255.559326171875
y: 256.3613586425781
z: 0.019824428483843803
visibility: 0.999874472618103
","x: 219.9681854248047
y: 259.516357421875
z: 0.05691757798194885
visibility: 0.9995570182800293
","x: 260.4635314941406
y: 306.4456481933594
z: -0.07887359708547592
visibility: 0.9865723848342896
","x: 211.3545684814453
y: 310.1860656738281
z: -0.038441240787506104
visibility: 0.9512526988983154
","x: 244.53558349609375
y: 265.8262939453125
z: -0.21349172294139862
visibility: 0.9845914244651794
","x: 218.57823181152344
y: 256.5124816894531
z: -0.21310794353485107
visibility: 0.9675642251968384
","x: 241.8641815185547
y: 250.59625244140625
z: -0.2444452941417694
visibility: 0.9596521258354187
","x: 217.42510986328125
y: 242.8751220703125
z: -0.24995367228984833
visibility: 0.930327296257019
","x: 241.8088836669922
y: 246.742431640625
z: -0.23170676827430725
visibility: 0.9568396210670471
","x: 217.44677734375
y: 239.97708129882812
z: -0.2452499121427536
visibility: 0.9234824180603027
","x: 241.83001708984375
y: 251.7213134765625
z: -0.21060998737812042
visibility: 0.9346364736557007
","x: 218.94175720214844
y: 245.12327575683594
z: -0.21637699007987976
visibility: 0.8918124437332153
","x: 247.57186889648438
y: 371.71240234375
z: -0.011488889344036579
visibility: 0.999679684638977
","x: 224.40133666992188
y: 368.7913818359375
z: 0.011397027410566807
visibility: 0.9994217753410339
","x: 251.55953979492188
y: 455.89886474609375
z: -0.0006001691799610853
visibility: 0.9911487102508545
","x: 220.77392578125
y: 451.8629455566406
z: 0.02061576582491398
visibility: 0.9916123747825623
","x: 258.2708435058594
y: 528.1038818359375
z: 0.1279938519001007
visibility: 0.9881805777549744
","x: 216.69190979003906
y: 520.7796630859375
z: 0.16982141137123108
visibility: 0.9868429899215698
","x: 256.7727355957031
y: 536.9530639648438
z: 0.1341913789510727
visibility: 0.8408008813858032
","x: 218.49217224121094
y: 529.340087890625
z: 0.1772305816411972
visibility: 0.8200587630271912
","x: 261.8033142089844
y: 549.3864135742188
z: 0.011177925392985344
visibility: 0.9773087501525879
","x: 214.88739013671875
y: 542.8778076171875
z: 0.06646609306335449
visibility: 0.9770771265029907
","x: 220.50845336914062
y: 250.80612182617188
z: 0.0
","x: 222.61380004882812
y: 244.7455596923828
z: -0.0017446985002607107
","x: 223.37725830078125
y: 237.58767700195312
z: -0.0024747797288000584
","x: 223.05093383789062
y: 232.64503479003906
z: -0.0034241180401295424
","x: 222.4009552001953
y: 230.09280395507812
z: -0.004356798715889454
","x: 218.255859375
y: 232.08624267578125
z: 5.083813812234439e-05
","x: 217.21115112304688
y: 225.0070037841797
z: -0.0016695259837433696
","x: 216.6474609375
y: 220.77499389648438
z: -0.0031356154941022396
","x: 216.00653076171875
y: 217.19656372070312
z: -0.0042637791484594345
","x: 216.18775939941406
y: 233.68637084960938
z: -0.0010975366458296776
","x: 214.13278198242188
y: 226.9029083251953
z: -0.0024798645172268152
","x: 212.89385986328125
y: 222.59567260742188
z: -0.00400025537237525
","x: 211.66433715820312
y: 219.0283203125
z: -0.005354088265448809
","x: 214.75328063964844
y: 236.5260009765625
z: -0.0027908491902053356
","x: 212.03268432617188
y: 231.159423828125
z: -0.005073645617812872
","x: 210.2873992919922
y: 227.912841796875
z: -0.006984378211200237
","x: 208.79098510742188
y: 225.20321655273438
z: -0.008272863924503326
","x: 213.8459930419922
y: 240.49337768554688
z: -0.004796965979039669
","x: 210.993896484375
y: 238.04017639160156
z: -0.007133502047508955
","x: 209.1061248779297
y: 236.7397918701172
z: -0.008471203967928886
","x: 207.46542358398438
y: 235.5032958984375
z: -0.009345365688204765
",,,,,,,,,,,,,,,,,,,,,
13,"x: 237.93878173828125
y: 217.80783081054688
z: -0.0957614928483963
visibility: 0.9999141097068787
","x: 239.31065368652344
y: 211.10501098632812
z: -0.08011210709810257
visibility: 0.9998539090156555
","x: 240.8407440185547
y: 211.0561981201172
z: -0.080135278403759
visibility: 0.9998472929000854
","x: 242.28875732421875
y: 210.9525146484375
z: -0.0801602303981781
visibility: 0.9998471736907959
","x: 234.66015625
y: 210.8073272705078
z: -0.0771835595369339
visibility: 0.9997951984405518
","x: 233.03504943847656
y: 211.4610137939453
z: -0.07720278948545456
visibility: 0.9997565150260925
","x: 231.41024780273438
y: 212.8307342529297
z: -0.0771825760602951
visibility: 0.9997519850730896
","x: 244.51034545898438
y: 214.8245086669922
z: 0.010207051411271095
visibility: 0.999805748462677
","x: 229.5537109375
y: 219.4853515625
z: 0.026138190180063248
visibility: 0.9995238780975342
","x: 241.27745056152344
y: 226.96800231933594
z: -0.06210925430059433
visibility: 0.999870240688324
","x: 235.61228942871094
y: 226.54232788085938
z: -0.05773090198636055
visibility: 0.9997905492782593
","x: 257.9385986328125
y: 256.7854919433594
z: 0.04447292536497116
visibility: 0.9998630285263062
","x: 221.0919952392578
y: 259.9252014160156
z: 0.055193979293107986
visibility: 0.9994937181472778
","x: 267.75506591796875
y: 304.25439453125
z: -0.08218665421009064
visibility: 0.9863223433494568
","x: 216.56704711914062
y: 311.3097839355469
z: -0.055420588701963425
visibility: 0.9475891590118408
","x: 248.19932556152344
y: 266.5855712890625
z: -0.22225289046764374
visibility: 0.9846885800361633
","x: 222.77842712402344
y: 262.123046875
z: -0.22160553932189941
visibility: 0.966238260269165
","x: 245.6661376953125
y: 254.37364196777344
z: -0.2543157637119293
visibility: 0.9592511653900146
","x: 222.4050750732422
y: 249.41363525390625
z: -0.25730812549591064
visibility: 0.9276354908943176
","x: 245.7340850830078
y: 251.04071044921875
z: -0.2377685010433197
visibility: 0.956257700920105
","x: 222.56845092773438
y: 246.02178955078125
z: -0.25346800684928894
visibility: 0.920464277267456
","x: 245.1276397705078
y: 255.60617065429688
z: -0.21865728497505188
visibility: 0.9339637160301208
","x: 223.61346435546875
y: 250.63027954101562
z: -0.22515399754047394
visibility: 0.8894516825675964
","x: 254.56175231933594
y: 371.4172668457031
z: -0.002833624603226781
visibility: 0.9996759295463562
","x: 231.81739807128906
y: 368.75048828125
z: 0.0028214524500072002
visibility: 0.9994383454322815
","x: 257.4570007324219
y: 455.8985595703125
z: -0.0007225360022857785
visibility: 0.9910873174667358
","x: 226.1065673828125
y: 451.3468933105469
z: -0.0006736424984410405
visibility: 0.991360604763031
","x: 258.8412780761719
y: 528.1126708984375
z: 0.12742410600185394
visibility: 0.9879376292228699
","x: 217.5257568359375
y: 520.8422241210938
z: 0.12346170842647552
visibility: 0.9868106245994568
","x: 256.58758544921875
y: 537.1227416992188
z: 0.13392433524131775
visibility: 0.8411723971366882
","x: 219.31883239746094
y: 529.476806640625
z: 0.12984159588813782
visibility: 0.8160625100135803
","x: 262.4060363769531
y: 549.5363159179688
z: 0.015002330765128136
visibility: 0.9767230153083801
","x: 214.62542724609375
y: 542.90185546875
z: 0.0183416735380888
visibility: 0.9767521619796753
","x: 226.39401245117188
y: 257.2341003417969
z: 0.0
","x: 228.77426147460938
y: 251.21914672851562
z: 5.778724244009936e-06
","x: 229.8356170654297
y: 245.20620727539062
z: -0.001321360468864441
","x: 229.72540283203125
y: 240.73101806640625
z: -0.003374039428308606
","x: 228.97235107421875
y: 237.4894561767578
z: -0.005108650308102369
","x: 225.6156463623047
y: 239.19630432128906
z: -0.0004207379533909261
","x: 224.17359924316406
y: 232.9214324951172
z: -0.0031158747151494026
","x: 223.36338806152344
y: 228.99374389648438
z: -0.004831493366509676
","x: 222.48690795898438
y: 225.87939453125
z: -0.005910450592637062
","x: 223.61465454101562
y: 241.56295776367188
z: -0.002569865668192506
","x: 223.4989013671875
y: 237.7040252685547
z: -0.0057456037029623985
","x: 225.48843383789062
y: 240.8218231201172
z: -0.0058643026277422905
","x: 226.58888244628906
y: 243.88467407226562
z: -0.0052175745368003845
","x: 222.0603790283203
y: 244.88925170898438
z: -0.0050291563384234905
","x: 222.76992797851562
y: 242.7744903564453
z: -0.0080364178866148
","x: 224.84564208984375
y: 246.05697631835938
z: -0.0068092565052211285
","x: 225.8422088623047
y: 248.98248291015625
z: -0.005272366106510162
","x: 220.93313598632812
y: 248.86041259765625
z: -0.007785825990140438
","x: 221.72787475585938
y: 247.27195739746094
z: -0.009819472208619118
","x: 223.46627807617188
y: 249.20751953125
z: -0.00894036702811718
","x: 224.32492065429688
y: 251.19351196289062
z: -0.0076767574064433575
",,,,,,,,,,,,,,,,,,,,,
14,"x: 237.93878173828125
y: 217.80783081054688
z: -0.0957614928483963
visibility: 0.9999141097068787
","x: 239.31065368652344
y: 211.10501098632812
z: -0.08011210709810257
visibility: 0.9998539090156555
","x: 240.8407440185547
y: 211.0561981201172
z: -0.080135278403759
visibility: 0.9998472929000854
","x: 242.28875732421875
y: 210.9525146484375
z: -0.0801602303981781
visibility: 0.9998471736907959
","x: 234.66015625
y: 210.8073272705078
z: -0.0771835595369339
visibility: 0.9997951984405518
","x: 233.03504943847656
y: 211.4610137939453
z: -0.07720278948545456
visibility: 0.9997565150260925
","x: 231.41024780273438
y: 212.8307342529297
z: -0.0771825760602951
visibility: 0.9997519850730896
","x: 244.51034545898438
y: 214.8245086669922
z: 0.010207051411271095
visibility: 0.999805748462677
","x: 229.5537109375
y: 219.4853515625
z: 0.026138190180063248
visibility: 0.9995238780975342
","x: 241.27745056152344
y: 226.96800231933594
z: -0.06210925430059433
visibility: 0.999870240688324
","x: 235.61228942871094
y: 226.54232788085938
z: -0.05773090198636055
visibility: 0.9997905492782593
","x: 257.9385986328125
y: 256.7854919433594
z: 0.04447292536497116
visibility: 0.9998630285263062
","x: 221.0919952392578
y: 259.9252014160156
z: 0.055193979293107986
visibility: 0.9994937181472778
","x: 267.75506591796875
y: 304.25439453125
z: -0.08218665421009064
visibility: 0.9863223433494568
","x: 216.56704711914062
y: 311.3097839355469
z: -0.055420588701963425
visibility: 0.9475891590118408
","x: 248.19932556152344
y: 266.5855712890625
z: -0.22225289046764374
visibility: 0.9846885800361633
","x: 222.77842712402344
y: 262.123046875
z: -0.22160553932189941
visibility: 0.966238260269165
","x: 245.6661376953125
y: 254.37364196777344
z: -0.2543157637119293
visibility: 0.9592511653900146
","x: 222.4050750732422
y: 249.41363525390625
z: -0.25730812549591064
visibility: 0.9276354908943176
","x: 245.7340850830078
y: 251.04071044921875
z: -0.2377685010433197
visibility: 0.956257700920105
","x: 222.56845092773438
y: 246.02178955078125
z: -0.25346800684928894
visibility: 0.920464277267456
","x: 245.1276397705078
y: 255.60617065429688
z: -0.21865728497505188
visibility: 0.9339637160301208
","x: 223.61346435546875
y: 250.63027954101562
z: -0.22515399754047394
visibility: 0.8894516825675964
","x: 254.56175231933594
y: 371.4172668457031
z: -0.002833624603226781
visibility: 0.9996759295463562
","x: 231.81739807128906
y: 368.75048828125
z: 0.0028214524500072002
visibility: 0.9994383454322815
","x: 257.4570007324219
y: 455.8985595703125
z: -0.0007225360022857785
visibility: 0.9910873174667358
","x: 226.1065673828125
y: 451.3468933105469
z: -0.0006736424984410405
visibility: 0.991360604763031
","x: 258.8412780761719
y: 528.1126708984375
z: 0.12742410600185394
visibility: 0.9879376292228699
","x: 217.5257568359375
y: 520.8422241210938
z: 0.12346170842647552
visibility: 0.9868106245994568
","x: 256.58758544921875
y: 537.1227416992188
z: 0.13392433524131775
visibility: 0.8411723971366882
","x: 219.31883239746094
y: 529.476806640625
z: 0.12984159588813782
visibility: 0.8160625100135803
","x: 262.4060363769531
y: 549.5363159179688
z: 0.015002330765128136
visibility: 0.9767230153083801
","x: 214.62542724609375
y: 542.90185546875
z: 0.0183416735380888
visibility: 0.9767521619796753
","x: 226.39401245117188
y: 257.2341003417969
z: 0.0
","x: 228.77426147460938
y: 251.21914672851562
z: 5.778724244009936e-06
","x: 229.8356170654297
y: 245.20620727539062
z: -0.001321360468864441
","x: 229.72540283203125
y: 240.73101806640625
z: -0.003374039428308606
","x: 228.97235107421875
y: 237.4894561767578
z: -0.005108650308102369
","x: 225.6156463623047
y: 239.19630432128906
z: -0.0004207379533909261
","x: 224.17359924316406
y: 232.9214324951172
z: -0.0031158747151494026
","x: 223.36338806152344
y: 228.99374389648438
z: -0.004831493366509676
","x: 222.48690795898438
y: 225.87939453125
z: -0.005910450592637062
","x: 223.61465454101562
y: 241.56295776367188
z: -0.002569865668192506
","x: 223.4989013671875
y: 237.7040252685547
z: -0.0057456037029623985
","x: 225.48843383789062
y: 240.8218231201172
z: -0.0058643026277422905
","x: 226.58888244628906
y: 243.88467407226562
z: -0.0052175745368003845
","x: 222.0603790283203
y: 244.88925170898438
z: -0.0050291563384234905
","x: 222.76992797851562
y: 242.7744903564453
z: -0.0080364178866148
","x: 224.84564208984375
y: 246.05697631835938
z: -0.0068092565052211285
","x: 225.8422088623047
y: 248.98248291015625
z: -0.005272366106510162
","x: 220.93313598632812
y: 248.86041259765625
z: -0.007785825990140438
","x: 221.72787475585938
y: 247.27195739746094
z: -0.009819472208619118
","x: 223.46627807617188
y: 249.20751953125
z: -0.00894036702811718
","x: 224.32492065429688
y: 251.19351196289062
z: -0.0076767574064433575
",,,,,,,,,,,,,,,,,,,,,
15,"x: 238.7938232421875
y: 219.19473266601562
z: -0.11292163282632828
visibility: 0.9999178051948547
","x: 241.02728271484375
y: 211.559326171875
z: -0.09717147052288055
visibility: 0.9998617768287659
","x: 242.54843139648438
y: 211.48683166503906
z: -0.09720882773399353
visibility: 0.9998558163642883
","x: 243.96282958984375
y: 211.60586547851562
z: -0.09722903370857239
visibility: 0.9998560547828674
","x: 236.41085815429688
y: 214.8080596923828
z: -0.09337890148162842
visibility: 0.9998036026954651
","x: 234.75022888183594
y: 216.203125
z: -0.09339234977960587
visibility: 0.9997666478157043
","x: 233.02902221679688
y: 217.65577697753906
z: -0.09335245192050934
visibility: 0.9997603893280029
","x: 246.02865600585938
y: 214.9423828125
z: -0.0005211099633015692
visibility: 0.9998176097869873
","x: 229.9288330078125
y: 223.38470458984375
z: 0.02001490443944931
visibility: 0.999538004398346
","x: 242.43673706054688
y: 227.47021484375
z: -0.0765642374753952
visibility: 0.999877393245697
","x: 238.3599090576172
y: 227.90060424804688
z: -0.07093341648578644
visibility: 0.9997946619987488
","x: 264.68865966796875
y: 256.79986572265625
z: 0.044810738414525986
visibility: 0.9998711943626404
","x: 229.1126251220703
y: 261.48577880859375
z: 0.0656639039516449
visibility: 0.9994736909866333
","x: 273.83258056640625
y: 305.8630676269531
z: -0.06998886913061142
visibility: 0.9867944717407227
","x: 226.73953247070312
y: 314.4225158691406
z: -0.03573906049132347
visibility: 0.94181889295578
","x: 253.50706481933594
y: 268.49969482421875
z: -0.20930039882659912
visibility: 0.9853346943855286
","x: 230.9476776123047
y: 264.7164306640625
z: -0.2153472900390625
visibility: 0.9645499587059021
","x: 249.2544403076172
y: 254.94757080078125
z: -0.2433110773563385
visibility: 0.9603046178817749
","x: 231.15916442871094
y: 252.37069702148438
z: -0.25330501794815063
visibility: 0.9243918657302856
","x: 249.01405334472656
y: 255.24819946289062
z: -0.22882959246635437
visibility: 0.9573783874511719
","x: 230.64425659179688
y: 249.10809326171875
z: -0.2508804202079773
visibility: 0.9167895913124084
","x: 249.27017211914062
y: 259.8293151855469
z: -0.2060629427433014
visibility: 0.9354528188705444
","x: 231.64456176757812
y: 253.6890411376953
z: -0.21973058581352234
visibility: 0.8852998614311218
","x: 261.1188049316406
y: 371.1822204589844
z: -0.001974055077880621
visibility: 0.9996871948242188
","x: 238.64540100097656
y: 368.4742431640625
z: 0.002003849484026432
visibility: 0.9994530081748962
","x: 261.0412292480469
y: 455.9682922363281
z: -0.002590467222034931
visibility: 0.9911267757415771
","x: 230.353515625
y: 451.25238037109375
z: -0.005552863702178001
visibility: 0.9914357662200928
","x: 259.4801330566406
y: 528.4758911132812
z: 0.14152511954307556
visibility: 0.9880611896514893
","x: 217.9432373046875
y: 520.51806640625
z: 0.13999295234680176
visibility: 0.9870970249176025
","x: 256.7407531738281
y: 537.85205078125
z: 0.15001487731933594
visibility: 0.8446940779685974
","x: 219.7144012451172
y: 528.816650390625
z: 0.14852598309516907
visibility: 0.817509114742279
","x: 263.7234802246094
y: 549.8659057617188
z: 0.026474151760339737
visibility: 0.9769179224967957
","x: 214.82345581054688
y: 542.9134521484375
z: 0.03319834545254707
visibility: 0.9771774411201477
",,,,,,,,,,,,,,,,,,,,,,,,,,,,,,,,,,,,,,,,,,
16,"x: 245.72731018066406
y: 219.61233520507812
z: -0.11429329961538315
visibility: 0.9999142289161682
","x: 247.20782470703125
y: 212.0814208984375
z: -0.10154704004526138
visibility: 0.9998573660850525
","x: 248.60635375976562
y: 211.7223358154297
z: -0.10158829391002655
visibility: 0.9998519420623779
","x: 250.33346557617188
y: 211.13931274414062
z: -0.10160352289676666
visibility: 0.9998505711555481
","x: 243.28782653808594
y: 215.1631317138672
z: -0.09391999244689941
visibility: 0.9998019337654114
","x: 242.10061645507812
y: 216.93626403808594
z: -0.09392127394676208
visibility: 0.9997661709785461
","x: 240.57257080078125
y: 218.51473999023438
z: -0.0939139574766159
visibility: 0.9997613430023193
","x: 253.99468994140625
y: 214.02304077148438
z: -0.010619474574923515
visibility: 0.9998169541358948
","x: 240.35525512695312
y: 223.4684600830078
z: 0.026408087462186813
visibility: 0.9995409250259399
","x: 249.99925231933594
y: 227.36497497558594
z: -0.07971465587615967
visibility: 0.9998712539672852
","x: 245.8307647705078
y: 228.26048278808594
z: -0.06874612718820572
visibility: 0.9997859597206116
","x: 273.4555969238281
y: 256.453125
z: 0.03314081206917763
visibility: 0.9998507499694824
","x: 240.64492797851562
y: 263.578857421875
z: 0.08235011249780655
visibility: 0.9994632601737976
","x: 277.8211975097656
y: 305.94927978515625
z: -0.07661865651607513
visibility: 0.9866793751716614
","x: 232.7310791015625
y: 315.9115905761719
z: -0.02214735560119152
visibility: 0.9381557106971741
","x: 255.1090087890625
y: 274.19158935546875
z: -0.2153429090976715
visibility: 0.9846683740615845
","x: 243.232177734375
y: 274.07073974609375
z: -0.21533925831317902
visibility: 0.9629024863243103
","x: 249.765869140625
y: 263.06195068359375
z: -0.24872517585754395
visibility: 0.9581820368766785
","x: 246.75332641601562
y: 265.8811340332031
z: -0.2551755905151367
visibility: 0.9202956557273865
","x: 250.15234375
y: 260.12158203125
z: -0.23731450736522675
visibility: 0.9550830125808716
","x: 247.8091278076172
y: 261.0912170410156
z: -0.24837665259838104
visibility: 0.9117633104324341
","x: 251.41290283203125
y: 262.7059020996094
z: -0.21292534470558167
visibility: 0.9318530559539795
","x: 247.30836486816406
y: 263.41009521484375
z: -0.2177940160036087
visibility: 0.8785867691040039
","x: 264.04852294921875
y: 369.4032287597656
z: -0.010683855041861534
visibility: 0.999634861946106
","x: 242.79910278320312
y: 364.996337890625
z: 0.010806625708937645
visibility: 0.9994305372238159
","x: 261.9291076660156
y: 455.47589111328125
z: -0.0071047646924853325
visibility: 0.9908295273780823
","x: 232.67974853515625
y: 447.98101806640625
z: -0.006524258758872747
visibility: 0.991649866104126
","x: 259.8379211425781
y: 528.5592041015625
z: 0.11993610858917236
visibility: 0.987835705280304
","x: 227.1422576904297
y: 523.1553955078125
z: 0.1141221672296524
visibility: 0.9874640703201294
","x: 256.90533447265625
y: 538.7320556640625
z: 0.1257021576166153
visibility: 0.8438740968704224
","x: 230.38528442382812
y: 536.815185546875
z: 0.11916754394769669
visibility: 0.8228667974472046
","x: 262.4823303222656
y: 549.6412353515625
z: -0.0019803992472589016
visibility: 0.9764382243156433
","x: 220.89413452148438
y: 542.9454956054688
z: -0.0034922740887850523
visibility: 0.9774969816207886
",,,,,,,,,,,,,,,,,,,,,,,,,,,,,,,,,,,,,,,,,,
17,"x: 251.29812622070312
y: 219.88430786132812
z: -0.1203242689371109
visibility: 0.9999063611030579
","x: 252.70555114746094
y: 212.3828125
z: -0.10738474130630493
visibility: 0.9998364448547363
","x: 253.98313903808594
y: 211.93482971191406
z: -0.10742566734552383
visibility: 0.9998316168785095
","x: 255.54739379882812
y: 211.2418975830078
z: -0.10744146257638931
visibility: 0.9998252391815186
","x: 249.10574340820312
y: 215.10902404785156
z: -0.0998234748840332
visibility: 0.9997870326042175
","x: 248.0360107421875
y: 216.61196899414062
z: -0.09983006119728088
visibility: 0.9997480511665344
","x: 246.8020782470703
y: 217.92860412597656
z: -0.0998363196849823
visibility: 0.9997456669807434
","x: 259.8363952636719
y: 213.7653350830078
z: -0.014155097305774689
visibility: 0.9997862577438354
","x: 247.1407470703125
y: 221.97366333007812
z: 0.021394046023488045
visibility: 0.9995027780532837
","x: 254.95115661621094
y: 227.18397521972656
z: -0.08565744757652283
visibility: 0.9998334646224976
","x: 250.93362426757812
y: 228.35633850097656
z: -0.07465876638889313
visibility: 0.9997526407241821
","x: 277.819580078125
y: 256.1133117675781
z: 0.015784595161676407
visibility: 0.9997676610946655
","x: 245.17808532714844
y: 261.8538818359375
z: 0.0800354927778244
visibility: 0.9994625449180603
","x: 276.5656433105469
y: 306.46484375
z: -0.10859731584787369
visibility: 0.9862019419670105
","x: 233.38233947753906
y: 312.41802978515625
z: -0.02714982070028782
visibility: 0.9363125562667847
","x: 255.0401611328125
y: 273.7445373535156
z: -0.23971235752105713
visibility: 0.9841558337211609
","x: 246.68438720703125
y: 271.3208923339844
z: -0.21632134914398193
visibility: 0.9596530795097351
","x: 249.61798095703125
y: 261.18768310546875
z: -0.2724452316761017
visibility: 0.9569330215454102
","x: 249.04351806640625
y: 261.6222839355469
z: -0.25643855333328247
visibility: 0.9119135141372681
","x: 250.17413330078125
y: 257.709716796875
z: -0.26265281438827515
visibility: 0.9536312222480774
","x: 249.7696533203125
y: 258.290771484375
z: -0.246555358171463
visibility: 0.9019612669944763
","x: 251.53701782226562
y: 260.94281005859375
z: -0.23776760697364807
visibility: 0.9288898706436157
","x: 249.3714599609375
y: 261.0184020996094
z: -0.217577263712883
visibility: 0.8663512468338013
","x: 265.4178771972656
y: 369.4572448730469
z: -0.016528215259313583
visibility: 0.9995419383049011
","x: 244.20040893554688
y: 363.2418212890625
z: 0.016674619168043137
visibility: 0.9994509220123291
","x: 261.9776306152344
y: 454.3694763183594
z: 0.004096078686416149
visibility: 0.9902448654174805
","x: 233.88711547851562
y: 443.2921142578125
z: -0.06733177602291107
visibility: 0.9921004772186279
","x: 259.8597717285156
y: 528.5899658203125
z: 0.13541331887245178
visibility: 0.9871538281440735
","x: 228.92982482910156
y: 528.4702758789062
z: 0.020020948722958565
visibility: 0.9881584048271179
","x: 256.7902526855469
y: 538.973876953125
z: 0.14044024050235748
visibility: 0.8384952545166016
","x: 232.1559600830078
y: 543.861328125
z: 0.02127186208963394
visibility: 0.832548975944519
","x: 262.1481018066406
y: 549.57861328125
z: 0.005969286896288395
visibility: 0.9758492112159729
","x: 220.76881408691406
y: 542.408447265625
z: -0.11138293892145157
visibility: 0.9786377549171448
",,,,,,,,,,,,,,,,,,,,,,,,,,,,,,,,,,,,,,,,,,
18,"x: 254.9575958251953
y: 216.85299682617188
z: -0.09859645366668701
visibility: 0.9998868107795715
","x: 256.56402587890625
y: 209.4754180908203
z: -0.0866585373878479
visibility: 0.9998061060905457
","x: 257.9814147949219
y: 209.07138061523438
z: -0.08671839535236359
visibility: 0.9998031258583069
","x: 259.5029602050781
y: 208.5771026611328
z: -0.08675207197666168
visibility: 0.9997957348823547
","x: 252.6913299560547
y: 211.46063232421875
z: -0.07737971842288971
visibility: 0.9997509121894836
","x: 251.55526733398438
y: 212.35391235351562
z: -0.07737575471401215
visibility: 0.9997010827064514
","x: 250.3891143798828
y: 213.15406799316406
z: -0.0773811787366867
visibility: 0.9997001886367798
","x: 263.3944091796875
y: 211.5828094482422
z: -0.0009830911876633763
visibility: 0.9997562170028687
","x: 250.24412536621094
y: 217.4764404296875
z: 0.04250521585345268
visibility: 0.9994059205055237
","x: 258.4382629394531
y: 224.23886108398438
z: -0.06539536267518997
visibility: 0.9997727870941162
","x: 253.93484497070312
y: 225.9151611328125
z: -0.05292363837361336
visibility: 0.9996720552444458
","x: 278.9303283691406
y: 253.95175170898438
z: 0.025163304060697556
visibility: 0.9996980428695679
","x: 245.48423767089844
y: 257.2973937988281
z: 0.09542983025312424
visibility: 0.9993607401847839
","x: 275.58636474609375
y: 305.94384765625
z: -0.08912663161754608
visibility: 0.9848995208740234
","x: 232.98123168945312
y: 302.99139404296875
z: -0.013422230258584023
visibility: 0.9297662973403931
","x: 255.11692810058594
y: 268.18048095703125
z: -0.1891614943742752
visibility: 0.9833671450614929
","x: 247.2508087158203
y: 263.2684020996094
z: -0.19435198605060577
visibility: 0.9540329575538635
","x: 250.64810180664062
y: 255.21078491210938
z: -0.2205766886472702
visibility: 0.9552869200706482
","x: 249.47093200683594
y: 251.76048278808594
z: -0.23409852385520935
visibility: 0.901038646697998
","x: 251.9130096435547
y: 251.48974609375
z: -0.21230468153953552
visibility: 0.9518465995788574
","x: 250.17648315429688
y: 248.9683837890625
z: -0.22498372197151184
visibility: 0.8897093534469604
","x: 252.97537231445312
y: 255.59823608398438
z: -0.187747985124588
visibility: 0.926262378692627
","x: 249.76901245117188
y: 252.8773651123047
z: -0.1963326632976532
visibility: 0.8529171347618103
","x: 265.0884704589844
y: 366.721435546875
z: -0.015555145218968391
visibility: 0.9994882941246033
","x: 244.20999145507812
y: 359.1195983886719
z: 0.015709368512034416
visibility: 0.9994296431541443
","x: 261.4540710449219
y: 452.546875
z: 0.0020067687146365643
visibility: 0.9897936582565308
","x: 234.6364288330078
y: 442.72149658203125
z: -0.024815529584884644
visibility: 0.9921327829360962
","x: 259.7235412597656
y: 528.624267578125
z: 0.11765919625759125
visibility: 0.9865503311157227
","x: 227.6903076171875
y: 527.6556396484375
z: 0.08869919180870056
visibility: 0.9883245825767517
","x: 256.7143859863281
y: 539.3958740234375
z: 0.12225295603275299
visibility: 0.8352965712547302
","x: 230.2184295654297
y: 542.614501953125
z: 0.09399347007274628
visibility: 0.8351367712020874
","x: 261.8060302734375
y: 548.45849609375
z: -0.0034485545475035906
visibility: 0.9750121831893921
","x: 220.1234130859375
y: 541.86572265625
z: -0.028075629845261574
visibility: 0.9784982800483704
",,,,,,,,,,,,,,,,,,,,,,,,,,,,,,,,,,,,,,,,,,
19,"x: 256.67901611328125
y: 217.40203857421875
z: -0.08991990983486176
visibility: 0.9998902678489685
","x: 259.44720458984375
y: 209.8142852783203
z: -0.07606584578752518
visibility: 0.9998111128807068
","x: 261.3888244628906
y: 209.22512817382812
z: -0.07609156519174576
visibility: 0.9998064637184143
","x: 263.185546875
y: 209.318115234375
z: -0.07610209286212921
visibility: 0.9997990727424622
","x: 254.8106231689453
y: 211.8352508544922
z: -0.06745757162570953
visibility: 0.9997618198394775
","x: 253.35928344726562
y: 212.47251892089844
z: -0.06746014207601547
visibility: 0.999713659286499
","x: 252.35108947753906
y: 213.00006103515625
z: -0.06742263585329056
visibility: 0.9997146129608154
","x: 266.1642150878906
y: 213.3867645263672
z: 0.01011878065764904
visibility: 0.9997613430023193
","x: 251.88259887695312
y: 217.2196044921875
z: 0.04962310940027237
visibility: 0.9994314312934875
","x: 260.09539794921875
y: 224.5663604736328
z: -0.05752210691571236
visibility: 0.9997798800468445
","x: 254.2550811767578
y: 226.17526245117188
z: -0.04626535624265671
visibility: 0.9996892809867859
","x: 278.5901794433594
y: 258.14007568359375
z: 0.028854956850409508
visibility: 0.999695360660553
","x: 243.44287109375
y: 261.65093994140625
z: 0.10744573175907135
visibility: 0.9993830919265747
","x: 275.6499938964844
y: 310.4907531738281
z: -0.08602343499660492
visibility: 0.9851797223091125
","x: 231.11041259765625
y: 303.3659973144531
z: -0.0020418125204741955
visibility: 0.9300634860992432
","x: 254.2542724609375
y: 270.1000061035156
z: -0.19889111816883087
visibility: 0.9836744666099548
","x: 243.3693084716797
y: 271.7456359863281
z: -0.19053006172180176
visibility: 0.9524649381637573
","x: 248.89166259765625
y: 256.4111633300781
z: -0.23219025135040283
visibility: 0.9557561278343201
","x: 245.18411254882812
y: 264.61309814453125
z: -0.23078474402427673
visibility: 0.8965791463851929
","x: 249.8907012939453
y: 253.64646911621094
z: -0.2211984395980835
visibility: 0.9522314667701721
","x: 246.0028533935547
y: 260.69708251953125
z: -0.22058553993701935
visibility: 0.884533166885376
","x: 251.71688842773438
y: 256.11773681640625
z: -0.19634926319122314
visibility: 0.9264339208602905
","x: 245.82632446289062
y: 263.2693786621094
z: -0.19220082461833954
visibility: 0.8473817110061646
","x: 264.0157775878906
y: 368.33203125
z: -0.014379058964550495
visibility: 0.9994986057281494
","x: 242.16897583007812
y: 359.62451171875
z: 0.014496857300400734
visibility: 0.9994534850120544
","x: 261.17822265625
y: 454.9967956542969
z: -0.0026433866005390882
visibility: 0.9902368783950806
","x: 234.29583740234375
y: 444.75665283203125
z: -0.004521953873336315
visibility: 0.9924198985099792
","x: 259.698974609375
y: 529.2659912109375
z: 0.13264672458171844
visibility: 0.9869610667228699
","x: 227.31521606445312
y: 527.5478515625
z: 0.13261321187019348
visibility: 0.9887898564338684
","x: 256.7691955566406
y: 539.616943359375
z: 0.14077326655387878
visibility: 0.8385137915611267
","x: 229.55841064453125
y: 541.4973754882812
z: 0.13921800255775452
visibility: 0.8384546041488647
","x: 262.0035400390625
y: 548.913818359375
z: 0.01462637446820736
visibility: 0.9757075905799866
","x: 219.80905151367188
y: 543.9208984375
z: 0.015377153642475605
visibility: 0.9789442420005798
",,,,,,,,,,,,,,,,,,,,,,,,,,,,,,,,,,,,,,,,,,
20,"x: 258.0724182128906
y: 215.98114013671875
z: -0.20506243407726288
visibility: 0.9999000430107117
","x: 261.46832275390625
y: 209.54185485839844
z: -0.18696561455726624
visibility: 0.999828040599823
","x: 263.210693359375
y: 209.45863342285156
z: -0.1870008111000061
visibility: 0.9998236298561096
","x: 264.93505859375
y: 209.63021850585938
z: -0.1870110183954239
visibility: 0.99981689453125
","x: 256.30377197265625
y: 209.7697296142578
z: -0.1870080679655075
visibility: 0.9997833371162415
","x: 254.6162567138672
y: 209.81576538085938
z: -0.18701359629631042
visibility: 0.9997394680976868
","x: 253.48394775390625
y: 209.83096313476562
z: -0.1869526505470276
visibility: 0.9997401833534241
","x: 266.6940612792969
y: 213.65228271484375
z: -0.07428044825792313
visibility: 0.9997827410697937
","x: 251.52786254882812
y: 214.38987731933594
z: -0.07480847835540771
visibility: 0.9994823336601257
","x: 260.7720031738281
y: 224.38931274414062
z: -0.16292473673820496
visibility: 0.9998008012771606
","x: 254.4874267578125
y: 224.16525268554688
z: -0.16313020884990692
visibility: 0.9997189044952393
","x: 276.4699401855469
y: 258.7425842285156
z: -0.01882929727435112
visibility: 0.999723494052887
","x: 241.92117309570312
y: 259.03009033203125
z: 0.014030000194907188
visibility: 0.9994277358055115
","x: 278.88134765625
y: 312.97113037109375
z: -0.0933234766125679
visibility: 0.9862925410270691
","x: 227.58045959472656
y: 305.0381774902344
z: -0.06209075450897217
visibility: 0.9331472516059875
","x: 259.26202392578125
y: 305.5664367675781
z: -0.2901305854320526
visibility: 0.9849481582641602
","x: 235.0960693359375
y: 291.6104736328125
z: -0.2982913553714752
visibility: 0.955040454864502
","x: 253.5281982421875
y: 305.7684020996094
z: -0.3372338116168976
visibility: 0.9590322375297546
","x: 239.30274963378906
y: 291.9018859863281
z: -0.34610623121261597
visibility: 0.902631402015686
","x: 252.63800048828125
y: 299.23388671875
z: -0.3418799042701721
visibility: 0.9558305144309998
","x: 240.09796142578125
y: 284.3045654296875
z: -0.35188037157058716
visibility: 0.8915222883224487
","x: 254.25375366210938
y: 298.1216125488281
z: -0.2945861220359802
visibility: 0.9316951036453247
","x: 239.58010864257812
y: 284.0649719238281
z: -0.30537208914756775
visibility: 0.8559315800666809
","x: 263.8144226074219
y: 368.223388671875
z: -0.00818535964936018
visibility: 0.9995036125183105
","x: 241.10745239257812
y: 360.5543518066406
z: 0.008183262310922146
visibility: 0.9994633197784424
","x: 260.7576599121094
y: 455.37091064453125
z: 0.0020531336776912212
visibility: 0.9906288385391235
","x: 233.70750427246094
y: 446.8177490234375
z: 0.0015743307303637266
visibility: 0.9924789667129517
","x: 259.5755310058594
y: 529.5914306640625
z: 0.1454518735408783
visibility: 0.9874277710914612
","x: 226.7977294921875
y: 527.18310546875
z: 0.1449967622756958
visibility: 0.9891300201416016
","x: 256.7146301269531
y: 539.7701416015625
z: 0.15191122889518738
visibility: 0.8448081612586975
","x: 229.09442138671875
y: 541.1563720703125
z: 0.15105371177196503
visibility: 0.8435107469558716
","x: 263.35040283203125
y: 550.0449829101562
z: 0.01908177137374878
visibility: 0.9765628576278687
","x: 219.58377075195312
y: 544.2559204101562
z: 0.020254943519830704
visibility: 0.9795246720314026
",,,,,,,,,,,,,,,,,,,,,,,,,,,,,,,,,,,,,,,,,,
21,"x: 256.043701171875
y: 213.5178985595703
z: -0.20447394251823425
visibility: 0.9999094605445862
","x: 258.9334411621094
y: 208.4454345703125
z: -0.1858135610818863
visibility: 0.9998444318771362
","x: 260.5618896484375
y: 208.7624969482422
z: -0.18587151169776917
visibility: 0.9998401999473572
","x: 262.27734375
y: 209.23187255859375
z: -0.18589812517166138
visibility: 0.9998340606689453
","x: 254.3208465576172
y: 207.4730682373047
z: -0.1854402869939804
visibility: 0.9998040199279785
","x: 252.71884155273438
y: 207.0865478515625
z: -0.18544279038906097
visibility: 0.9997642636299133
","x: 251.33279418945312
y: 206.64747619628906
z: -0.18537697196006775
visibility: 0.9997649192810059
","x: 264.2341613769531
y: 213.8495635986328
z: -0.07447876036167145
visibility: 0.9998033046722412
","x: 249.18362426757812
y: 211.03671264648438
z: -0.07346885651350021
visibility: 0.9995318651199341
","x: 258.6573486328125
y: 222.93057250976562
z: -0.16361722350120544
visibility: 0.9998202323913574
","x: 252.8255615234375
y: 221.231201171875
z: -0.16343626379966736
visibility: 0.9997463226318359
","x: 273.5766906738281
y: 259.78070068359375
z: -0.018625129014253616
visibility: 0.9997442960739136
","x: 234.19581604003906
y: 258.2476501464844
z: 0.015427088364958763
visibility: 0.9994716644287109
","x: 279.1383361816406
y: 315.2410888671875
z: -0.11186263710260391
visibility: 0.9866045117378235
","x: 221.59103393554688
y: 310.50604248046875
z: -0.061491914093494415
visibility: 0.9341328144073486
","x: 269.6021423339844
y: 299.5377197265625
z: -0.32789069414138794
visibility: 0.9853814840316772
","x: 218.34288024902344
y: 286.62255859375
z: -0.31563258171081543
visibility: 0.9584079384803772
","x: 267.3430480957031
y: 292.89581298828125
z: -0.3722507357597351
visibility: 0.960488498210907
","x: 214.6759796142578
y: 282.6585693359375
z: -0.3621704876422882
visibility: 0.9105105400085449
","x: 266.77691650390625
y: 287.42926025390625
z: -0.3728826940059662
visibility: 0.9574991464614868
","x: 214.66709899902344
y: 277.3016662597656
z: -0.37396740913391113
visibility: 0.900513768196106
","x: 266.6839904785156
y: 288.93231201171875
z: -0.3322015404701233
visibility: 0.934353768825531
","x: 216.56544494628906
y: 277.2822265625
z: -0.3267589211463928
visibility: 0.867705225944519
","x: 259.9490966796875
y: 368.808349609375
z: -0.008219217881560326
visibility: 0.9995076656341553
","x: 236.3199462890625
y: 361.4040832519531
z: 0.008200283162295818
visibility: 0.9994683861732483
","x: 259.2869567871094
y: 456.95721435546875
z: -0.0029814434237778187
visibility: 0.9910898804664612
","x: 228.8505859375
y: 449.91986083984375
z: 0.00012745095591526479
visibility: 0.9926803112030029
","x: 259.3868103027344
y: 529.9180297851562
z: 0.1484183371067047
visibility: 0.9878107309341431
","x: 226.57301330566406
y: 526.583251953125
z: 0.15164004266262054
visibility: 0.9894911050796509
","x: 256.6143493652344
y: 540.0430908203125
z: 0.15602272748947144
visibility: 0.8493085503578186
","x: 228.75424194335938
y: 539.8911743164062
z: 0.1593530774116516
visibility: 0.849997341632843
","x: 263.5281677246094
y: 550.4805908203125
z: 0.03100794181227684
visibility: 0.9773426055908203
","x: 219.06723022460938
y: 543.187744140625
z: 0.03608615696430206
visibility: 0.9801745414733887
","x: 216.64108276367188
y: 283.6285705566406
z: 0.0
","x: 219.53477478027344
y: 277.92791748046875
z: -0.003326927311718464
","x: 220.6584930419922
y: 270.3769836425781
z: -0.005342267453670502
","x: 221.4268035888672
y: 264.1579895019531
z: -0.007149208337068558
","x: 222.9443359375
y: 259.1747741699219
z: -0.008883115835487843
","x: 214.8662567138672
y: 265.0729064941406
z: -0.0022439875174313784
","x: 212.1370086669922
y: 259.3526306152344
z: -0.004313999786973
","x: 210.0166473388672
y: 256.0303039550781
z: -0.006103393621742725
","x: 208.2177734375
y: 253.8290252685547
z: -0.00721637811511755
","x: 212.5309295654297
y: 266.3819580078125
z: -0.0020866866689175367
","x: 209.86233520507812
y: 260.7738952636719
z: -0.003495065961033106
","x: 207.81124877929688
y: 257.0220642089844
z: -0.005004082806408405
","x: 205.95252990722656
y: 254.2424774169922
z: -0.006310091819614172
","x: 210.89060974121094
y: 268.6629333496094
z: -0.002441208343952894
","x: 208.16429138183594
y: 263.5644226074219
z: -0.004328269045799971
","x: 206.24392700195312
y: 260.15283203125
z: -0.006057091522961855
","x: 204.54037475585938
y: 257.55242919921875
z: -0.007268150337040424
","x: 209.68057250976562
y: 271.55523681640625
z: -0.003158318344503641
","x: 207.20016479492188
y: 267.7725830078125
z: -0.004865757189691067
","x: 205.57945251464844
y: 265.4293212890625
z: -0.005972802639007568
","x: 204.21652221679688
y: 263.51190185546875
z: -0.006775809917598963
",,,,,,,,,,,,,,,,,,,,,
22,"x: 256.043701171875
y: 213.5178985595703
z: -0.20447394251823425
visibility: 0.9999094605445862
","x: 258.9334411621094
y: 208.4454345703125
z: -0.1858135610818863
visibility: 0.9998444318771362
","x: 260.5618896484375
y: 208.7624969482422
z: -0.18587151169776917
visibility: 0.9998401999473572
","x: 262.27734375
y: 209.23187255859375
z: -0.18589812517166138
visibility: 0.9998340606689453
","x: 254.3208465576172
y: 207.4730682373047
z: -0.1854402869939804
visibility: 0.9998040199279785
","x: 252.71884155273438
y: 207.0865478515625
z: -0.18544279038906097
visibility: 0.9997642636299133
","x: 251.33279418945312
y: 206.64747619628906
z: -0.18537697196006775
visibility: 0.9997649192810059
","x: 264.2341613769531
y: 213.8495635986328
z: -0.07447876036167145
visibility: 0.9998033046722412
","x: 249.18362426757812
y: 211.03671264648438
z: -0.07346885651350021
visibility: 0.9995318651199341
","x: 258.6573486328125
y: 222.93057250976562
z: -0.16361722350120544
visibility: 0.9998202323913574
","x: 252.8255615234375
y: 221.231201171875
z: -0.16343626379966736
visibility: 0.9997463226318359
","x: 273.5766906738281
y: 259.78070068359375
z: -0.018625129014253616
visibility: 0.9997442960739136
","x: 234.19581604003906
y: 258.2476501464844
z: 0.015427088364958763
visibility: 0.9994716644287109
","x: 279.1383361816406
y: 315.2410888671875
z: -0.11186263710260391
visibility: 0.9866045117378235
","x: 221.59103393554688
y: 310.50604248046875
z: -0.061491914093494415
visibility: 0.9341328144073486
","x: 269.6021423339844
y: 299.5377197265625
z: -0.32789069414138794
visibility: 0.9853814840316772
","x: 218.34288024902344
y: 286.62255859375
z: -0.31563258171081543
visibility: 0.9584079384803772
","x: 267.3430480957031
y: 292.89581298828125
z: -0.3722507357597351
visibility: 0.960488498210907
","x: 214.6759796142578
y: 282.6585693359375
z: -0.3621704876422882
visibility: 0.9105105400085449
","x: 266.77691650390625
y: 287.42926025390625
z: -0.3728826940059662
visibility: 0.9574991464614868
","x: 214.66709899902344
y: 277.3016662597656
z: -0.37396740913391113
visibility: 0.900513768196106
","x: 266.6839904785156
y: 288.93231201171875
z: -0.3322015404701233
visibility: 0.934353768825531
","x: 216.56544494628906
y: 277.2822265625
z: -0.3267589211463928
visibility: 0.867705225944519
","x: 259.9490966796875
y: 368.808349609375
z: -0.008219217881560326
visibility: 0.9995076656341553
","x: 236.3199462890625
y: 361.4040832519531
z: 0.008200283162295818
visibility: 0.9994683861732483
","x: 259.2869567871094
y: 456.95721435546875
z: -0.0029814434237778187
visibility: 0.9910898804664612
","x: 228.8505859375
y: 449.91986083984375
z: 0.00012745095591526479
visibility: 0.9926803112030029
","x: 259.3868103027344
y: 529.9180297851562
z: 0.1484183371067047
visibility: 0.9878107309341431
","x: 226.57301330566406
y: 526.583251953125
z: 0.15164004266262054
visibility: 0.9894911050796509
","x: 256.6143493652344
y: 540.0430908203125
z: 0.15602272748947144
visibility: 0.8493085503578186
","x: 228.75424194335938
y: 539.8911743164062
z: 0.1593530774116516
visibility: 0.849997341632843
","x: 263.5281677246094
y: 550.4805908203125
z: 0.03100794181227684
visibility: 0.9773426055908203
","x: 219.06723022460938
y: 543.187744140625
z: 0.03608615696430206
visibility: 0.9801745414733887
","x: 216.64108276367188
y: 283.6285705566406
z: 0.0
","x: 219.53477478027344
y: 277.92791748046875
z: -0.003326927311718464
","x: 220.6584930419922
y: 270.3769836425781
z: -0.005342267453670502
","x: 221.4268035888672
y: 264.1579895019531
z: -0.007149208337068558
","x: 222.9443359375
y: 259.1747741699219
z: -0.008883115835487843
","x: 214.8662567138672
y: 265.0729064941406
z: -0.0022439875174313784
","x: 212.1370086669922
