uscmakers/ReverseChoreography/data/8_sad_girlz_luv_money_amaarae.csv
,NOSE,LEFT_EYE_INNER,LEFT_EYE,LEFT_EYE_OUTER,RIGHT_EYE_INNER,RIGHT_EYE,RIGHT_EYE_OUTER,LEFT_EAR,RIGHT_EAR,MOUTH_LEFT,MOUTH_RIGHT,LEFT_SHOULDER,RIGHT_SHOULDER,LEFT_ELBOW,RIGHT_ELBOW,LEFT_WRIST,RIGHT_WRIST,LEFT_PINKY,RIGHT_PINKY,LEFT_INDEX,RIGHT_INDEX,LEFT_THUMB,RIGHT_THUMB,LEFT_HIP,RIGHT_HIP,LEFT_KNEE,RIGHT_KNEE,LEFT_ANKLE,RIGHT_ANKLE,LEFT_HEEL,RIGHT_HEEL,LEFT_FOOT_INDEX,RIGHT_FOOT_INDEX,WRIST2,THUMB_CPC2,THUMB_MCP2,THUMB_IP2,THUMB_TIP2,INDEX_FINGER_MCP2,INDEX_FINGER_PIP2,INDEX_FINGER_DIP2,INDEX_FINGER_TIP2,MIDDLE_FINGER_MCP2,MIDDLE_FINGER_PIP2,MIDDLE_FINGER_DIP2,MIDDLE_FINGER_TIP2,RING_FINGER_PIP2,RING_FINGER_DIP2,RING_FINGER_TIP2,RING_FINGER_MCP2,PINKY_MCP2,PINKY_PIP2,PINKY_DIP2,PINKY_TIP2,WRIST,THUMB_CPC,THUMB_MCP,THUMB_IP,THUMB_TIP,INDEX_FINGER_MCP,INDEX_FINGER_PIP,INDEX_FINGER_DIP,INDEX_FINGER_TIP,MIDDLE_FINGER_MCP,MIDDLE_FINGER_PIP,MIDDLE_FINGER_DIP,MIDDLE_FINGER_TIP,RING_FINGER_PIP,RING_FINGER_DIP,RING_FINGER_TIP,RING_FINGER_MCP,PINKY_MCP,PINKY_PIP,PINKY_DIP,PINKY_TIP
0,"x: 219.1267547607422
y: 196.70492553710938
z: -0.19165220856666565
visibility: 0.9999394416809082
","x: 220.26881408691406
y: 190.47264099121094
z: -0.16730383038520813
visibility: 0.9999129772186279
","x: 221.51856994628906
y: 190.71267700195312
z: -0.16739654541015625
visibility: 0.9998968839645386
","x: 222.68809509277344
y: 191.1586151123047
z: -0.16743294894695282
visibility: 0.9999051094055176
","x: 216.22242736816406
y: 190.3517303466797
z: -0.18415826559066772
visibility: 0.9999077320098877
","x: 214.3648223876953
y: 190.44711303710938
z: -0.18415217101573944
visibility: 0.9999037981033325
","x: 212.479248046875
y: 190.4576416015625
z: -0.18415676057338715
visibility: 0.9999003410339355
","x: 222.38214111328125
y: 198.69439697265625
z: -0.037215687334537506
visibility: 0.9995515942573547
","x: 207.94525146484375
y: 196.55111694335938
z: -0.11578220129013062
visibility: 0.9998795986175537
","x: 220.10585021972656
y: 207.90438842773438
z: -0.14337296783924103
visibility: 0.9998832941055298
","x: 215.8253173828125
y: 207.16641235351562
z: -0.16574911773204803
visibility: 0.9999111890792847
","x: 229.75596618652344
y: 246.95677185058594
z: 0.07160582393407822
visibility: 0.9998080134391785
","x: 199.84927368164062
y: 253.7390899658203
z: -0.10327963531017303
visibility: 0.9998881816864014
","x: 241.39869689941406
y: 291.7748718261719
z: 0.09330073744058609
visibility: 0.643336832523346
","x: 196.5458984375
y: 326.1856384277344
z: -0.0943039283156395
visibility: 0.982901930809021
","x: 244.5614471435547
y: 332.2200927734375
z: -0.05841568857431412
visibility: 0.824422299861908
","x: 201.29608154296875
y: 390.9512634277344
z: -0.15996038913726807
visibility: 0.9518215656280518
","x: 245.68951416015625
y: 344.87078857421875
z: -0.09466689825057983
visibility: 0.7700618505477905
","x: 201.2786865234375
y: 408.1636962890625
z: -0.19568975269794464
visibility: 0.9157048463821411
","x: 242.5097198486328
y: 344.0602111816406
z: -0.12591645121574402
visibility: 0.7866709232330322
","x: 204.93853759765625
y: 408.0345153808594
z: -0.21884658932685852
visibility: 0.914847195148468
","x: 241.23422241210938
y: 340.5474853515625
z: -0.07602125406265259
visibility: 0.7485769987106323
","x: 205.9497528076172
y: 403.01336669921875
z: -0.1695452183485031
visibility: 0.8911028504371643
","x: 230.2513427734375
y: 369.5279235839844
z: 0.07045788317918777
visibility: 0.9995731711387634
","x: 210.78440856933594
y: 370.7662658691406
z: -0.07045583426952362
visibility: 0.9994634985923767
","x: 243.7095489501953
y: 458.1320495605469
z: 0.0709577351808548
visibility: 0.8708291053771973
","x: 204.2112579345703
y: 464.7012634277344
z: -0.07232415676116943
visibility: 0.9817010760307312
","x: 248.42393493652344
y: 539.44873046875
z: 0.17290104925632477
visibility: 0.9389916658401489
","x: 196.32044982910156
y: 548.6739501953125
z: 0.044935014098882675
visibility: 0.9760419130325317
","x: 245.13604736328125
y: 554.9085693359375
z: 0.17616572976112366
visibility: 0.8855412006378174
","x: 191.9225616455078
y: 563.0101928710938
z: 0.04963765665888786
visibility: 0.7149773836135864
","x: 263.5133056640625
y: 558.7996826171875
z: 0.0791163221001625
visibility: 0.932438850402832
","x: 215.27105712890625
y: 569.1943969726562
z: -0.0779302641749382
visibility: 0.9565032124519348
",,,,,,,,,,,,,,,,,,,,,,,,,,,,,,,,,,,,,,,,,,
1,"x: 254.69729614257812
y: 200.58743286132812
z: -0.31526920199394226
visibility: 0.9999441504478455
","x: 257.4414978027344
y: 195.60577392578125
z: -0.29632264375686646
visibility: 0.9999175071716309
","x: 258.92950439453125
y: 196.9556884765625
z: -0.2963235378265381
visibility: 0.999902069568634
","x: 260.41357421875
y: 198.24195861816406
z: -0.29629549384117126
visibility: 0.9999092817306519
","x: 253.60696411132812
y: 192.8592071533203
z: -0.30279776453971863
visibility: 0.9999131560325623
","x: 251.9613037109375
y: 192.25973510742188
z: -0.30282658338546753
visibility: 0.9999093413352966
","x: 250.45375061035156
y: 191.6358642578125
z: -0.30285391211509705
visibility: 0.999906599521637
","x: 261.1474304199219
y: 204.00015258789062
z: -0.17140160501003265
visibility: 0.9995808005332947
","x: 246.1943359375
y: 196.99859619140625
z: -0.2048158347606659
visibility: 0.9998847246170044
","x: 255.33456420898438
y: 211.2842559814453
z: -0.2676827311515808
visibility: 0.9998923540115356
","x: 249.62637329101562
y: 208.90902709960938
z: -0.2772589325904846
visibility: 0.9999184012413025
","x: 266.1103210449219
y: 248.42279052734375
z: -0.07771161198616028
visibility: 0.9998219609260559
","x: 225.74200439453125
y: 251.6018829345703
z: -0.11424817889928818
visibility: 0.9998955726623535
","x: 271.5269470214844
y: 304.0726013183594
z: -0.003493265714496374
visibility: 0.6772432327270508
","x: 216.61338806152344
y: 312.2948913574219
z: -0.06712570786476135
visibility: 0.9835459589958191
","x: 273.521728515625
y: 356.98486328125
z: -0.10583082586526871
visibility: 0.8401627540588379
","x: 211.04910278320312
y: 370.0954895019531
z: -0.1542395055294037
visibility: 0.9544064402580261
","x: 274.35858154296875
y: 374.01812744140625
z: -0.1344703733921051
visibility: 0.7891925573348999
","x: 209.5964813232422
y: 388.9300231933594
z: -0.18266037106513977
visibility: 0.9196722507476807
","x: 271.6809997558594
y: 374.1485900878906
z: -0.17089511454105377
visibility: 0.8043739199638367
","x: 211.39991760253906
y: 389.4283447265625
z: -0.21848389506340027
visibility: 0.919265627861023
","x: 270.385498046875
y: 369.9926452636719
z: -0.12178009748458862
visibility: 0.7688835859298706
","x: 212.84194946289062
y: 384.95013427734375
z: -0.16891583800315857
visibility: 0.89708012342453
","x: 255.6254425048828
y: 369.1720275878906
z: 0.027043292298913002
visibility: 0.9995632171630859
","x: 231.0330047607422
y: 367.1722717285156
z: -0.027120357379317284
visibility: 0.9994798898696899
","x: 251.801025390625
y: 458.27734375
z: 0.019027724862098694
visibility: 0.8825845122337341
","x: 232.5404815673828
y: 462.50299072265625
z: -0.03777571767568588
visibility: 0.9826507568359375
","x: 249.88082885742188
y: 540.0505981445312
z: 0.17290076613426208
visibility: 0.9437508583068848
","x: 229.65061950683594
y: 544.9009399414062
z: 0.11873112618923187
visibility: 0.9773452281951904
","x: 247.31402587890625
y: 553.9320678710938
z: 0.1780567765235901
visibility: 0.8871070146560669
","x: 231.58953857421875
y: 555.3331909179688
z: 0.12559369206428528
visibility: 0.7261411547660828
","x: 263.0324401855469
y: 562.309814453125
z: 0.05956164747476578
visibility: 0.9373225569725037
","x: 223.29034423828125
y: 569.4658203125
z: -0.014481122605502605
visibility: 0.9590871334075928
","x: 276.4580993652344
y: 364.03521728515625
z: 0.0
","x: 272.8650207519531
y: 367.2137756347656
z: -0.002670229645445943
","x: 270.7298278808594
y: 374.3790283203125
z: -0.002881811000406742
","x: 269.8538513183594
y: 381.35638427734375
z: -0.002314565470442176
","x: 269.2200927734375
y: 386.47125244140625
z: -0.0012740552192553878
","x: 274.08123779296875
y: 381.0391540527344
z: -0.002503675641492009
","x: 272.9322204589844
y: 390.5492858886719
z: -0.0022970663849264383
","x: 270.7803955078125
y: 393.379150390625
z: -0.001241403049789369
","x: 269.2366943359375
y: 393.5078125
z: -0.0001346873614238575
","x: 276.0421447753906
y: 382.1180725097656
z: -0.0009825407760217786
","x: 274.6264953613281
y: 391.2132568359375
z: -0.00034343410516157746
","x: 272.2414855957031
y: 393.9090576171875
z: 0.0008800049545243382
","x: 270.4273681640625
y: 394.25543212890625
z: 0.0017760080518200994
","x: 277.05023193359375
y: 382.1305847167969
z: 0.00040511053521186113
","x: 275.5908508300781
y: 390.36199951171875
z: 0.0005312378634698689
","x: 273.442626953125
y: 392.923583984375
z: 0.0009225656394846737
","x: 271.7122802734375
y: 393.36737060546875
z: 0.001289445674046874
","x: 277.4586486816406
y: 381.43597412109375
z: 0.0015591599512845278
","x: 276.1593933105469
y: 388.47088623046875
z: 0.0010644537396728992
","x: 274.3670959472656
y: 391.1943359375
z: 0.0010282467119395733
","x: 272.7134704589844
y: 391.88330078125
z: 0.0013498928165063262
",,,,,,,,,,,,,,,,,,,,,
2,"x: 254.69729614257812
y: 200.58743286132812
z: -0.31526920199394226
visibility: 0.9999441504478455
","x: 257.4414978027344
y: 195.60577392578125
z: -0.29632264375686646
visibility: 0.9999175071716309
","x: 258.92950439453125
y: 196.9556884765625
z: -0.2963235378265381
visibility: 0.999902069568634
","x: 260.41357421875
y: 198.24195861816406
z: -0.29629549384117126
visibility: 0.9999092817306519
","x: 253.60696411132812
y: 192.8592071533203
z: -0.30279776453971863
visibility: 0.9999131560325623
","x: 251.9613037109375
y: 192.25973510742188
z: -0.30282658338546753
visibility: 0.9999093413352966
","x: 250.45375061035156
y: 191.6358642578125
z: -0.30285391211509705
visibility: 0.999906599521637
","x: 261.1474304199219
y: 204.00015258789062
z: -0.17140160501003265
visibility: 0.9995808005332947
","x: 246.1943359375
y: 196.99859619140625
z: -0.2048158347606659
visibility: 0.9998847246170044
","x: 255.33456420898438
y: 211.2842559814453
z: -0.2676827311515808
visibility: 0.9998923540115356
","x: 249.62637329101562
y: 208.90902709960938
z: -0.2772589325904846
visibility: 0.9999184012413025
","x: 266.1103210449219
y: 248.42279052734375
z: -0.07771161198616028
visibility: 0.9998219609260559
","x: 225.74200439453125
y: 251.6018829345703
z: -0.11424817889928818
visibility: 0.9998955726623535
","x: 271.5269470214844
y: 304.0726013183594
z: -0.003493265714496374
visibility: 0.6772432327270508
","x: 216.61338806152344
y: 312.2948913574219
z: -0.06712570786476135
visibility: 0.9835459589958191
","x: 273.521728515625
y: 356.98486328125
z: -0.10583082586526871
visibility: 0.8401627540588379
","x: 211.04910278320312
y: 370.0954895019531
z: -0.1542395055294037
visibility: 0.9544064402580261
","x: 274.35858154296875
y: 374.01812744140625
z: -0.1344703733921051
visibility: 0.7891925573348999
","x: 209.5964813232422
y: 388.9300231933594
z: -0.18266037106513977
visibility: 0.9196722507476807
","x: 271.6809997558594
y: 374.1485900878906
z: -0.17089511454105377
visibility: 0.8043739199638367
","x: 211.39991760253906
y: 389.4283447265625
z: -0.21848389506340027
visibility: 0.919265627861023
","x: 270.385498046875
y: 369.9926452636719
z: -0.12178009748458862
visibility: 0.7688835859298706
","x: 212.84194946289062
y: 384.95013427734375
z: -0.16891583800315857
visibility: 0.89708012342453
","x: 255.6254425048828
y: 369.1720275878906
z: 0.027043292298913002
visibility: 0.9995632171630859
","x: 231.0330047607422
y: 367.1722717285156
z: -0.027120357379317284
visibility: 0.9994798898696899
","x: 251.801025390625
y: 458.27734375
z: 0.019027724862098694
visibility: 0.8825845122337341
","x: 232.5404815673828
y: 462.50299072265625
z: -0.03777571767568588
visibility: 0.9826507568359375
","x: 249.88082885742188
y: 540.0505981445312
z: 0.17290076613426208
visibility: 0.9437508583068848
","x: 229.65061950683594
y: 544.9009399414062
z: 0.11873112618923187
visibility: 0.9773452281951904
","x: 247.31402587890625
y: 553.9320678710938
z: 0.1780567765235901
visibility: 0.8871070146560669
","x: 231.58953857421875
y: 555.3331909179688
z: 0.12559369206428528
visibility: 0.7261411547660828
","x: 263.0324401855469
y: 562.309814453125
z: 0.05956164747476578
visibility: 0.9373225569725037
","x: 223.29034423828125
y: 569.4658203125
z: -0.014481122605502605
visibility: 0.9590871334075928
","x: 276.4580993652344
y: 364.03521728515625
z: 0.0
","x: 272.8650207519531
y: 367.2137756347656
z: -0.002670229645445943
","x: 270.7298278808594
y: 374.3790283203125
z: -0.002881811000406742
","x: 269.8538513183594
y: 381.35638427734375
z: -0.002314565470442176
","x: 269.2200927734375
y: 386.47125244140625
z: -0.0012740552192553878
","x: 274.08123779296875
y: 381.0391540527344
z: -0.002503675641492009
","x: 272.9322204589844
y: 390.5492858886719
z: -0.0022970663849264383
","x: 270.7803955078125
y: 393.379150390625
z: -0.001241403049789369
","x: 269.2366943359375
y: 393.5078125
z: -0.0001346873614238575
","x: 276.0421447753906
y: 382.1180725097656
z: -0.0009825407760217786
","x: 274.6264953613281
y: 391.2132568359375
z: -0.00034343410516157746
","x: 272.2414855957031
y: 393.9090576171875
z: 0.0008800049545243382
","x: 270.4273681640625
y: 394.25543212890625
z: 0.0017760080518200994
","x: 277.05023193359375
y: 382.1305847167969
z: 0.00040511053521186113
","x: 275.5908508300781
y: 390.36199951171875
z: 0.0005312378634698689
","x: 273.442626953125
y: 392.923583984375
z: 0.0009225656394846737
","x: 271.7122802734375
y: 393.36737060546875
z: 0.001289445674046874
","x: 277.4586486816406
y: 381.43597412109375
z: 0.0015591599512845278
","x: 276.1593933105469
y: 388.47088623046875
z: 0.0010644537396728992
","x: 274.3670959472656
y: 391.1943359375
z: 0.0010282467119395733
","x: 272.7134704589844
y: 391.88330078125
z: 0.0013498928165063262
",,,,,,,,,,,,,,,,,,,,,
3,"x: 257.7856750488281
y: 205.126953125
z: -0.3378702998161316
visibility: 0.9999494552612305
","x: 260.3243713378906
y: 201.01187133789062
z: -0.3172154724597931
visibility: 0.9999249577522278
","x: 261.6107177734375
y: 202.54885864257812
z: -0.31722763180732727
visibility: 0.9999109506607056
","x: 263.0037536621094
y: 204.22959899902344
z: -0.3172008693218231
visibility: 0.9999172687530518
","x: 256.6108703613281
y: 196.72708129882812
z: -0.32427728176116943
visibility: 0.9999210238456726
","x: 254.9757080078125
y: 195.4076385498047
z: -0.32429948449134827
visibility: 0.9999175667762756
","x: 253.14004516601562
y: 194.3960723876953
z: -0.32428503036499023
visibility: 0.9999151229858398
","x: 263.4171447753906
y: 209.93858337402344
z: -0.1871158927679062
visibility: 0.9996194243431091
","x: 248.79998779296875
y: 198.69642639160156
z: -0.2238774299621582
visibility: 0.9998948574066162
","x: 258.3327941894531
y: 215.64697265625
z: -0.2888525128364563
visibility: 0.9999025464057922
","x: 252.22657775878906
y: 211.86837768554688
z: -0.29943278431892395
visibility: 0.9999262690544128
","x: 267.3569641113281
y: 255.32630920410156
z: -0.09244021028280258
visibility: 0.9998382329940796
","x: 226.06878662109375
y: 251.15087890625
z: -0.12993493676185608
visibility: 0.999904215335846
","x: 270.94720458984375
y: 312.1946105957031
z: -0.027640506625175476
visibility: 0.7083598971366882
","x: 214.92347717285156
y: 311.87396240234375
z: -0.07440406829118729
visibility: 0.9845684170722961
","x: 273.0381164550781
y: 368.7555236816406
z: -0.14132128655910492
visibility: 0.8548230528831482
","x: 208.680908203125
y: 364.4717102050781
z: -0.1694565713405609
visibility: 0.9577654004096985
","x: 274.6161804199219
y: 386.2664794921875
z: -0.1718556135892868
visibility: 0.8069227337837219
","x: 208.32508850097656
y: 382.0040283203125
z: -0.19808290898799896
visibility: 0.9249278903007507
","x: 272.20831298828125
y: 385.50909423828125
z: -0.20794840157032013
visibility: 0.8208616375923157
","x: 208.53213500976562
y: 382.63604736328125
z: -0.23629339039325714
visibility: 0.9248220324516296
","x: 270.74346923828125
y: 381.2313232421875
z: -0.15803101658821106
visibility: 0.7880828380584717
","x: 210.6304168701172
y: 378.781982421875
z: -0.1859067678451538
visibility: 0.9043022990226746
","x: 255.2388153076172
y: 370.16900634765625
z: 0.02308591827750206
visibility: 0.9995907545089722
","x: 229.56370544433594
y: 367.04302978515625
z: -0.0232157614082098
visibility: 0.9995142221450806
","x: 253.3329620361328
y: 459.8448486328125
z: 0.026581287384033203
visibility: 0.8935042023658752
","x: 225.8704071044922
y: 460.93768310546875
z: -0.020335230976343155
visibility: 0.983755350112915
","x: 250.5789794921875
y: 540.8344116210938
z: 0.19722214341163635
visibility: 0.9485685229301453
","x: 223.5795135498047
y: 539.9512329101562
z: 0.15738940238952637
visibility: 0.9788851737976074
","x: 247.31741333007812
y: 553.713623046875
z: 0.2067476063966751
visibility: 0.8917840719223022
","x: 225.1186981201172
y: 549.3652954101562
z: 0.1669538915157318
visibility: 0.7388346791267395
","x: 262.36322021484375
y: 564.2073364257812
z: 0.07565176486968994
visibility: 0.94248366355896
","x: 221.71780395507812
y: 567.5858764648438
z: 0.028950627893209457
visibility: 0.9620303511619568
","x: 273.7962341308594
y: 372.63018798828125
z: 0.0
","x: 270.4682312011719
y: 376.2624816894531
z: -0.0026375933084636927
","x: 268.6138610839844
y: 382.87469482421875
z: -0.0033102023880928755
","x: 267.8983459472656
y: 389.48236083984375
z: -0.0032953526824712753
","x: 267.5179443359375
y: 394.4068603515625
z: -0.002877710619941354
","x: 271.9854431152344
y: 388.83319091796875
z: -0.003414477687329054
","x: 271.1978454589844
y: 398.3203125
z: -0.003521304577589035
","x: 269.6329345703125
y: 401.73394775390625
z: -0.002648137742653489
","x: 268.3826599121094
y: 403.00177001953125
z: -0.0017242864705622196
","x: 274.1013488769531
y: 389.5376281738281
z: -0.002096267882734537
","x: 273.1075134277344
y: 398.5668640136719
z: -0.0016561609227210283
","x: 271.156982421875
y: 401.4080810546875
z: -0.0004970909212715924
","x: 269.6600646972656
y: 402.58111572265625
z: 0.00031626338022761047
","x: 275.27813720703125
y: 389.3458557128906
z: -0.0008560658898204565
","x: 274.27740478515625
y: 397.5204772949219
z: -0.0008043666603043675
","x: 272.426513671875
y: 400.0627136230469
z: -0.00043631624430418015
","x: 270.84051513671875
y: 400.88323974609375
z: -0.0001451273274142295
","x: 275.76861572265625
y: 388.7356262207031
z: 0.00017126392049249262
","x: 275.0001525878906
y: 395.935791015625
z: -0.0003778496466111392
","x: 273.41607666015625
y: 399.0304870605469
z: -0.0004428144602570683
","x: 271.84344482421875
y: 400.27630615234375
z: -0.00017683937039691955
",,,,,,,,,,,,,,,,,,,,,
4,"x: 257.7856750488281
y: 205.126953125
z: -0.3378702998161316
visibility: 0.9999494552612305
","x: 260.3243713378906
y: 201.01187133789062
z: -0.3172154724597931
visibility: 0.9999249577522278
","x: 261.6107177734375
y: 202.54885864257812
z: -0.31722763180732727
visibility: 0.9999109506607056
","x: 263.0037536621094
y: 204.22959899902344
z: -0.3172008693218231
visibility: 0.9999172687530518
","x: 256.6108703613281
y: 196.72708129882812
z: -0.32427728176116943
visibility: 0.9999210238456726
","x: 254.9757080078125
y: 195.4076385498047
z: -0.32429948449134827
visibility: 0.9999175667762756
","x: 253.14004516601562
y: 194.3960723876953
z: -0.32428503036499023
visibility: 0.9999151229858398
","x: 263.4171447753906
y: 209.93858337402344
z: -0.1871158927679062
visibility: 0.9996194243431091
","x: 248.79998779296875
y: 198.69642639160156
z: -0.2238774299621582
visibility: 0.9998948574066162
","x: 258.3327941894531
y: 215.64697265625
z: -0.2888525128364563
visibility: 0.9999025464057922
","x: 252.22657775878906
y: 211.86837768554688
z: -0.29943278431892395
visibility: 0.9999262690544128
","x: 267.3569641113281
y: 255.32630920410156
z: -0.09244021028280258
visibility: 0.9998382329940796
","x: 226.06878662109375
y: 251.15087890625
z: -0.12993493676185608
visibility: 0.999904215335846
","x: 270.94720458984375
y: 312.1946105957031
z: -0.027640506625175476
visibility: 0.7083598971366882
","x: 214.92347717285156
y: 311.87396240234375
z: -0.07440406829118729
visibility: 0.9845684170722961
","x: 273.0381164550781
y: 368.7555236816406
z: -0.14132128655910492
visibility: 0.8548230528831482
","x: 208.680908203125
y: 364.4717102050781
z: -0.1694565713405609
visibility: 0.9577654004096985
","x: 274.6161804199219
y: 386.2664794921875
z: -0.1718556135892868
visibility: 0.8069227337837219
","x: 208.32508850097656
y: 382.0040283203125
z: -0.19808290898799896
visibility: 0.9249278903007507
","x: 272.20831298828125
y: 385.50909423828125
z: -0.20794840157032013
visibility: 0.8208616375923157
","x: 208.53213500976562
y: 382.63604736328125
z: -0.23629339039325714
visibility: 0.9248220324516296
","x: 270.74346923828125
y: 381.2313232421875
z: -0.15803101658821106
visibility: 0.7880828380584717
","x: 210.6304168701172
y: 378.781982421875
z: -0.1859067678451538
visibility: 0.9043022990226746
","x: 255.2388153076172
y: 370.16900634765625
z: 0.02308591827750206
visibility: 0.9995907545089722
","x: 229.56370544433594
y: 367.04302978515625
z: -0.0232157614082098
visibility: 0.9995142221450806
","x: 253.3329620361328
y: 459.8448486328125
z: 0.026581287384033203
visibility: 0.8935042023658752
","x: 225.8704071044922
y: 460.93768310546875
z: -0.020335230976343155
visibility: 0.983755350112915
","x: 250.5789794921875
y: 540.8344116210938
z: 0.19722214341163635
visibility: 0.9485685229301453
","x: 223.5795135498047
y: 539.9512329101562
z: 0.15738940238952637
visibility: 0.9788851737976074
","x: 247.31741333007812
y: 553.713623046875
z: 0.2067476063966751
visibility: 0.8917840719223022
","x: 225.1186981201172
y: 549.3652954101562
z: 0.1669538915157318
visibility: 0.7388346791267395
","x: 262.36322021484375
y: 564.2073364257812
z: 0.07565176486968994
visibility: 0.94248366355896
","x: 221.71780395507812
y: 567.5858764648438
z: 0.028950627893209457
visibility: 0.9620303511619568
","x: 273.7962341308594
y: 372.63018798828125
z: 0.0
","x: 270.4682312011719
y: 376.2624816894531
z: -0.0026375933084636927
","x: 268.6138610839844
y: 382.87469482421875
z: -0.0033102023880928755
","x: 267.8983459472656
y: 389.48236083984375
z: -0.0032953526824712753
","x: 267.5179443359375
y: 394.4068603515625
z: -0.002877710619941354
","x: 271.9854431152344
y: 388.83319091796875
z: -0.003414477687329054
","x: 271.1978454589844
y: 398.3203125
z: -0.003521304577589035
","x: 269.6329345703125
y: 401.73394775390625
z: -0.002648137742653489
","x: 268.3826599121094
y: 403.00177001953125
z: -0.0017242864705622196
","x: 274.1013488769531
y: 389.5376281738281
z: -0.002096267882734537
","x: 273.1075134277344
y: 398.5668640136719
z: -0.0016561609227210283
","x: 271.156982421875
y: 401.4080810546875
z: -0.0004970909212715924
","x: 269.6600646972656
y: 402.58111572265625
z: 0.00031626338022761047
","x: 275.27813720703125
y: 389.3458557128906
z: -0.0008560658898204565
","x: 274.27740478515625
y: 397.5204772949219
z: -0.0008043666603043675
","x: 272.426513671875
y: 400.0627136230469
z: -0.00043631624430418015
","x: 270.84051513671875
y: 400.88323974609375
z: -0.0001451273274142295
","x: 275.76861572265625
y: 388.7356262207031
z: 0.00017126392049249262
","x: 275.0001525878906
y: 395.935791015625
z: -0.0003778496466111392
","x: 273.41607666015625
y: 399.0304870605469
z: -0.0004428144602570683
","x: 271.84344482421875
y: 400.27630615234375
z: -0.00017683937039691955
",,,,,,,,,,,,,,,,,,,,,
5,"x: 251.66090393066406
y: 204.2007598876953
z: -0.3740042746067047
visibility: 0.9999544024467468
","x: 254.73397827148438
y: 199.8072967529297
z: -0.3547822833061218
visibility: 0.9999321699142456
","x: 256.1825866699219
y: 201.20774841308594
z: -0.35478290915489197
visibility: 0.9999195337295532
","x: 257.7552795410156
y: 202.72183227539062
z: -0.35477155447006226
visibility: 0.9999251961708069
","x: 250.73141479492188
y: 196.23512268066406
z: -0.35930129885673523
visibility: 0.9999285936355591
","x: 249.32801818847656
y: 195.09600830078125
z: -0.3593396544456482
visibility: 0.999925434589386
","x: 247.67385864257812
y: 194.14523315429688
z: -0.35931259393692017
visibility: 0.9999231696128845
","x: 258.8651428222656
y: 209.2577362060547
z: -0.2272140234708786
visibility: 0.9996564984321594
","x: 243.29200744628906
y: 198.6818084716797
z: -0.2513549029827118
visibility: 0.9999045729637146
","x: 252.2061309814453
y: 214.7289276123047
z: -0.32586008310317993
visibility: 0.9999120831489563
","x: 246.5989227294922
y: 211.81654357910156
z: -0.332838237285614
visibility: 0.9999334216117859
","x: 264.9005432128906
y: 256.12738037109375
z: -0.1310448795557022
visibility: 0.9998534321784973
","x: 222.53530883789062
y: 250.01119995117188
z: -0.1496054232120514
visibility: 0.999911904335022
","x: 268.3876953125
y: 315.42510986328125
z: -0.06938757002353668
visibility: 0.7367587089538574
","x: 211.2615509033203
y: 309.28155517578125
z: -0.07623034715652466
visibility: 0.9851728677749634
","x: 267.21820068359375
y: 367.5830078125
z: -0.1796528846025467
visibility: 0.8680476546287537
","x: 202.7137451171875
y: 360.0783996582031
z: -0.1729927361011505
visibility: 0.9598779082298279
","x: 268.1365661621094
y: 386.0145263671875
z: -0.21109187602996826
visibility: 0.822756290435791
","x: 198.06854248046875
y: 376.7734069824219
z: -0.2024933099746704
visibility: 0.9277694225311279
","x: 265.0828857421875
y: 385.0880432128906
z: -0.24781480431556702
visibility: 0.8355914354324341
","x: 199.28436279296875
y: 377.57403564453125
z: -0.2410961389541626
visibility: 0.9281181693077087
","x: 263.8352966308594
y: 380.5682678222656
z: -0.19610393047332764
visibility: 0.8051055669784546
","x: 201.82591247558594
y: 374.0816650390625
z: -0.18987706303596497
visibility: 0.908890962600708
","x: 250.48487854003906
y: 369.7890625
z: 0.014939738437533379
visibility: 0.999620795249939
","x: 225.31105041503906
y: 363.9230041503906
z: -0.01511506550014019
visibility: 0.9995521306991577
","x: 251.5078125
y: 459.73529052734375
z: 0.018638476729393005
visibility: 0.9035811424255371
","x: 221.6095428466797
y: 458.1042175292969
z: -0.020098881796002388
visibility: 0.9848568439483643
","x: 250.90982055664062
y: 541.5289916992188
z: 0.17217078804969788
visibility: 0.9532598853111267
","x: 217.71551513671875
y: 537.518310546875
z: 0.14693978428840637
visibility: 0.9803644418716431
","x: 247.6439971923828
y: 553.7027587890625
z: 0.17952069640159607
visibility: 0.8959943056106567
","x: 218.07412719726562
y: 546.5072021484375
z: 0.1547989547252655
visibility: 0.7475764751434326
","x: 262.1098327636719
y: 564.99072265625
z: 0.03385671228170395
visibility: 0.9474231600761414
","x: 204.46705627441406
y: 564.8862915039062
z: 0.012687169015407562
visibility: 0.9646925926208496
",,,,,,,,,,,,,,,,,,,,,,,,,,,,,,,,,,,,,,,,,,
6,"x: 250.85671997070312
y: 203.57118225097656
z: -0.33908867835998535
visibility: 0.999958872795105
","x: 251.4737091064453
y: 198.92469787597656
z: -0.32033392786979675
visibility: 0.9999386668205261
","x: 251.22740173339844
y: 200.16854858398438
z: -0.3203663229942322
visibility: 0.999927282333374
","x: 251.84823608398438
y: 201.50352478027344
z: -0.32037511467933655
visibility: 0.9999324083328247
","x: 248.51927185058594
y: 195.86019897460938
z: -0.32116106152534485
visibility: 0.9999353885650635
","x: 246.98220825195312
y: 194.88656616210938
z: -0.321174681186676
visibility: 0.9999324679374695
","x: 244.42140197753906
y: 194.0402374267578
z: -0.32113340497016907
visibility: 0.9999303817749023
","x: 250.2183380126953
y: 208.3181610107422
z: -0.2045346200466156
visibility: 0.9996901750564575
","x: 237.5847930908203
y: 199.0282440185547
z: -0.21184822916984558
visibility: 0.9999128580093384
","x: 251.0383758544922
y: 214.22894287109375
z: -0.29658180475234985
visibility: 0.999920666217804
","x: 245.81631469726562
y: 211.67156982421875
z: -0.2983565926551819
visibility: 0.9999397993087769
","x: 256.0441589355469
y: 257.0647277832031
z: -0.13064128160476685
visibility: 0.99986732006073
","x: 214.4591064453125
y: 253.13699340820312
z: -0.13859930634498596
visibility: 0.9999175667762756
","x: 262.8450927734375
y: 316.005615234375
z: -0.09775649011135101
visibility: 0.7627067565917969
","x: 202.89505004882812
y: 311.79241943359375
z: -0.05818285793066025
visibility: 0.9841454029083252
","x: 259.6866455078125
y: 365.25738525390625
z: -0.21729214489459991
visibility: 0.8804485201835632
","x: 191.75791931152344
y: 364.22174072265625
z: -0.14917482435703278
visibility: 0.9591863751411438
","x: 258.07733154296875
y: 381.58929443359375
z: -0.2528802156448364
visibility: 0.8381288647651672
","x: 187.6009979248047
y: 381.58831787109375
z: -0.17981214821338654
visibility: 0.9261012673377991
","x: 254.70654296875
y: 379.74981689453125
z: -0.28708165884017944
visibility: 0.8498198390007019
","x: 189.02134704589844
y: 382.24505615234375
z: -0.2173548936843872
visibility: 0.9271178841590881
","x: 253.90420532226562
y: 375.3719482421875
z: -0.2324056178331375
visibility: 0.8214541673660278
","x: 190.96432495117188
y: 377.57000732421875
z: -0.1669030487537384
visibility: 0.9086740612983704
","x: 243.49671936035156
y: 369.902099609375
z: 0.007314558140933514
visibility: 0.9996450543403625
","x: 216.13851928710938
y: 364.64593505859375
z: -0.00745940487831831
visibility: 0.9995879530906677
","x: 247.3779754638672
y: 459.9767761230469
z: 0.030668994411826134
visibility: 0.9125346541404724
","x: 207.46585083007812
y: 457.9521484375
z: -0.004369731061160564
visibility: 0.9858976602554321
","x: 250.991455078125
y: 541.545166015625
z: 0.17245134711265564
visibility: 0.9574123024940491
","x: 198.37425231933594
y: 538.9324340820312
z: 0.1337338238954544
visibility: 0.981867790222168
","x: 247.86215209960938
y: 552.75927734375
z: 0.17952848970890045
visibility: 0.8994879722595215
","x: 200.4419708251953
y: 549.1235961914062
z: 0.1387510895729065
visibility: 0.7590200901031494
","x: 262.12640380859375
y: 564.9036865234375
z: 0.04307742044329643
visibility: 0.9516794681549072
","x: 189.7704315185547
y: 564.1788330078125
z: -0.0016985168913379312
visibility: 0.9671181440353394
",,,,,,,,,,,,,,,,,,,,,,,,,,,,,,,,,,,,,,,,,,
7,"x: 229.16358947753906
y: 203.8947296142578
z: -0.3104785978794098
visibility: 0.9999626278877258
","x: 232.10385131835938
y: 199.11329650878906
z: -0.29156607389450073
visibility: 0.999943733215332
","x: 233.3478240966797
y: 200.24583435058594
z: -0.2916194498538971
visibility: 0.9999334812164307
","x: 234.60589599609375
y: 201.36801147460938
z: -0.2916373014450073
visibility: 0.9999380707740784
","x: 227.04269409179688
y: 196.5540313720703
z: -0.29373449087142944
visibility: 0.9999405741691589
","x: 225.064208984375
y: 195.88815307617188
z: -0.2937313914299011
visibility: 0.9999376535415649
","x: 223.22467041015625
y: 195.38043212890625
z: -0.29369211196899414
visibility: 0.9999356269836426
","x: 236.42840576171875
y: 208.10906982421875
z: -0.17689453065395355
visibility: 0.9997188448905945
","x: 220.16551208496094
y: 200.1459503173828
z: -0.19652369618415833
visibility: 0.999917209148407
","x: 231.4880828857422
y: 214.2078857421875
z: -0.2679399251937866
visibility: 0.9999276399612427
","x: 224.39682006835938
y: 211.67660522460938
z: -0.2713069021701813
visibility: 0.9999446868896484
","x: 243.218505859375
y: 256.7789001464844
z: -0.111223503947258
visibility: 0.9998779892921448
","x: 202.86105346679688
y: 255.90170288085938
z: -0.09260000288486481
visibility: 0.9999197721481323
","x: 248.56851196289062
y: 317.5299377441406
z: -0.08194689452648163
visibility: 0.7851802110671997
","x: 193.6518096923828
y: 312.8994140625
z: -0.02521464228630066
visibility: 0.9815287590026855
","x: 247.49925231933594
y: 371.3955383300781
z: -0.1877424716949463
visibility: 0.8898919820785522
","x: 182.56448364257812
y: 366.8049621582031
z: -0.10518892109394073
visibility: 0.9587540030479431
","x: 247.58531188964844
y: 387.1049499511719
z: -0.21748682856559753
visibility: 0.8480059504508972
","x: 177.8859100341797
y: 384.22625732421875
z: -0.12936341762542725
visibility: 0.9255302548408508
","x: 245.3957977294922
y: 387.3125915527344
z: -0.25128501653671265
visibility: 0.858909010887146
","x: 179.25193786621094
y: 385.12738037109375
z: -0.16636905074119568
visibility: 0.9272040128707886
","x: 244.4046630859375
y: 383.4689636230469
z: -0.20328550040721893
visibility: 0.8320765495300293
","x: 181.39051818847656
y: 380.2649230957031
z: -0.12218837440013885
visibility: 0.909821093082428
","x: 229.98287963867188
y: 370.779296875
z: -8.248314406955615e-05
visibility: 0.9996582865715027
","x: 204.48593139648438
y: 367.0992431640625
z: -6.627523544011638e-05
visibility: 0.9996128678321838
","x: 239.28314208984375
y: 460.8567810058594
z: 0.002716227201744914
visibility: 0.9204223155975342
","x: 198.84518432617188
y: 457.30035400390625
z: -0.004538192413747311
visibility: 0.986585259437561
","x: 250.69090270996094
y: 541.5345458984375
z: 0.11620316654443741
visibility: 0.9609349370002747
","x: 194.53773498535156
y: 539.6736450195312
z: 0.12370076030492783
visibility: 0.9830581545829773
","x: 247.80950927734375
y: 552.3831787109375
z: 0.1194213479757309
visibility: 0.9006903767585754
","x: 196.47860717773438
y: 550.4698486328125
z: 0.12793323397636414
visibility: 0.7708869576454163
","x: 262.14239501953125
y: 564.6277465820312
z: -0.011227133683860302
visibility: 0.9552021622657776
","x: 187.77227783203125
y: 563.339111328125
z: -0.004736901726573706
visibility: 0.9690245389938354
",,,,,,,,,,,,,,,,,,,,,,,,,,,,,,,,,,,,,,,,,,
8,"x: 215.81781005859375
y: 203.58807373046875
z: -0.29551002383232117
visibility: 0.9999654293060303
","x: 218.5859375
y: 198.69107055664062
z: -0.28961390256881714
visibility: 0.9999467134475708
","x: 220.27137756347656
y: 199.78158569335938
z: -0.28984370827674866
visibility: 0.9999377131462097
","x: 221.92149353027344
y: 200.92236328125
z: -0.28982043266296387
visibility: 0.9999421238899231
","x: 213.39120483398438
y: 196.33924865722656
z: -0.26846036314964294
visibility: 0.9999427199363708
","x: 211.60963439941406
y: 195.7406005859375
z: -0.2684093117713928
visibility: 0.99993896484375
","x: 210.1781005859375
y: 195.306396484375
z: -0.2683604955673218
visibility: 0.9999366402626038
","x: 223.63291931152344
y: 207.84112548828125
z: -0.15886656939983368
visibility: 0.9997443556785583
","x: 207.22691345214844
y: 200.2131805419922
z: -0.14826275408267975
visibility: 0.9999088048934937
","x: 218.18206787109375
y: 213.97032165527344
z: -0.25617796182632446
visibility: 0.9999338388442993
","x: 211.5388641357422
y: 211.45704650878906
z: -0.2453494369983673
visibility: 0.999948263168335
","x: 231.35845947265625
y: 255.83355712890625
z: -0.11791746318340302
visibility: 0.999889075756073
","x: 192.5119171142578
y: 256.1904296875
z: -0.03435710817575455
visibility: 0.9999088048934937
","x: 238.15335083007812
y: 314.5110168457031
z: -0.11339908838272095
visibility: 0.8061447143554688
","x: 183.25990295410156
y: 313.80084228515625
z: 0.03085990808904171
visibility: 0.9692202806472778
","x: 230.8583221435547
y: 368.6455993652344
z: -0.23385672271251678
visibility: 0.8997127413749695
","x: 171.34799194335938
y: 366.3562316894531
z: -0.07401759922504425
visibility: 0.9525997042655945
","x: 229.01316833496094
y: 385.99432373046875
z: -0.2708545923233032
visibility: 0.8603339791297913
","x: 167.08102416992188
y: 382.7568359375
z: -0.10035371780395508
visibility: 0.9184548854827881
","x: 225.64540100097656
y: 385.4312744140625
z: -0.29989567399024963
visibility: 0.8702093958854675
","x: 167.97189331054688
y: 383.8201599121094
z: -0.14191894233226776
visibility: 0.9213860034942627
","x: 224.907958984375
y: 381.1845397949219
z: -0.24704930186271667
visibility: 0.8450173139572144
","x: 169.8296661376953
y: 379.07275390625
z: -0.09392502903938293
visibility: 0.9053013920783997
","x: 219.2552490234375
y: 370.7592468261719
z: -0.0237867534160614
visibility: 0.9996393918991089
","x: 195.45870971679688
y: 368.125
z: 0.023750416934490204
visibility: 0.999593198299408
","x: 227.0043182373047
y: 460.9781494140625
z: -0.01910891942679882
visibility: 0.9280610084533691
","x: 194.63673400878906
y: 457.6865234375
z: 0.02886446937918663
visibility: 0.9870235323905945
","x: 241.43795776367188
y: 535.4061279296875
z: 0.12352754175662994
visibility: 0.9644212126731873
","x: 194.2415313720703
y: 540.168212890625
z: 0.16344580054283142
visibility: 0.9840693473815918
","x: 242.6680450439453
y: 544.3401489257812
z: 0.1285312920808792
visibility: 0.8978593945503235
","x: 196.71658325195312
y: 551.4061889648438
z: 0.1678512990474701
visibility: 0.7857022285461426
","x: 243.36447143554688
y: 561.1069946289062
z: -0.008411012589931488
visibility: 0.9587804675102234
","x: 188.25682067871094
y: 563.67626953125
z: 0.04234011843800545
visibility: 0.9708672761917114
",,,,,,,,,,,,,,,,,,,,,,,,,,,,,,,,,,,,,,,,,,
9,"x: 206.21670532226562
y: 203.53515625
z: -0.33977875113487244
visibility: 0.9999685287475586
","x: 209.58082580566406
y: 198.17999267578125
z: -0.32464897632598877
visibility: 0.9999510645866394
","x: 211.419677734375
y: 199.0638885498047
z: -0.32470858097076416
visibility: 0.9999431371688843
","x: 212.94009399414062
y: 199.87002563476562
z: -0.3247396647930145
visibility: 0.9999471306800842
","x: 204.1681365966797
y: 196.31491088867188
z: -0.3185059130191803
visibility: 0.9999468326568604
","x: 202.30740356445312
y: 195.61312866210938
z: -0.3184874653816223
visibility: 0.9999431371688843
","x: 200.47169494628906
y: 195.15924072265625
z: -0.31844401359558105
visibility: 0.9999405145645142
","x: 215.2552032470703
y: 205.8394775390625
z: -0.21637697517871857
visibility: 0.9997690916061401
","x: 199.36056518554688
y: 200.1644744873047
z: -0.19349944591522217
visibility: 0.999910295009613
","x: 209.0729522705078
y: 213.68711853027344
z: -0.2994120717048645
visibility: 0.9999401569366455
","x: 202.28973388671875
y: 211.36984252929688
z: -0.2927873730659485
visibility: 0.9999525547027588
","x: 225.1940155029297
y: 251.95748901367188
z: -0.175138458609581
visibility: 0.9998998045921326
","x: 187.06454467773438
y: 256.039794921875
z: -0.06465356796979904
visibility: 0.9998983144760132
","x: 230.04835510253906
y: 312.86175537109375
z: -0.16021092236042023
visibility: 0.8253716230392456
","x: 177.3730926513672
y: 313.5549621582031
z: 0.004609139170497656
visibility: 0.9565820693969727
","x: 211.86251831054688
y: 365.0714416503906
z: -0.26004162430763245
visibility: 0.9095022678375244
","x: 162.84344482421875
y: 358.4393615722656
z: -0.10133908689022064
visibility: 0.9464942812919617
","x: 207.61981201171875
y: 381.5122985839844
z: -0.2970724105834961
visibility: 0.8735376000404358
","x: 157.35411071777344
y: 374.7833557128906
z: -0.1276036649942398
visibility: 0.911819577217102
","x: 204.4111328125
y: 380.9115905761719
z: -0.31892699003219604
visibility: 0.8824437856674194
","x: 157.44589233398438
y: 375.4075622558594
z: -0.16810986399650574
visibility: 0.9157297611236572
","x: 204.7460174560547
y: 376.84649658203125
z: -0.2685249447822571
visibility: 0.8593020439147949
","x: 159.1548614501953
y: 371.645751953125
z: -0.1203172579407692
visibility: 0.8998350501060486
","x: 216.1273956298828
y: 366.8027038574219
z: -0.026610860601067543
visibility: 0.9996406435966492
","x: 192.45948791503906
y: 366.7273254394531
z: 0.026549343019723892
visibility: 0.9995877742767334
","x: 209.12356567382812
y: 459.9263000488281
z: -0.02438681200146675
visibility: 0.9348112940788269
","x: 194.53173828125
y: 457.5627136230469
z: 0.012689093127846718
visibility: 0.9865750074386597
","x: 214.49485778808594
y: 532.056640625
z: 0.162444069981575
visibility: 0.9673766493797302
","x: 194.09603881835938
y: 540.0545654296875
z: 0.1677163541316986
visibility: 0.9845515489578247
","x: 213.96763610839844
y: 540.46142578125
z: 0.17594724893569946
visibility: 0.8964073061943054
","x: 196.12904357910156
y: 551.1270751953125
z: 0.17452439665794373
visibility: 0.7940289378166199
","x: 216.82846069335938
y: 561.330810546875
z: 0.038327910006046295
visibility: 0.9619311094284058
","x: 189.23751831054688
y: 564.60546875
z: 0.04297897592186928
visibility: 0.9721791744232178
",,,,,,,,,,,,,,,,,,,,,,,,,,,,,,,,,,,,,,,,,,
10,"x: 203.87203979492188
y: 203.36972045898438
z: -0.3358358144760132
visibility: 0.999971330165863
","x: 206.763916015625
y: 197.97706604003906
z: -0.31912165880203247
visibility: 0.9999551177024841
","x: 208.47393798828125
y: 198.95997619628906
z: -0.3191643953323364
visibility: 0.9999480247497559
","x: 210.2314453125
y: 199.69180297851562
z: -0.31919413805007935
visibility: 0.9999517202377319
","x: 202.25970458984375
y: 196.23919677734375
z: -0.3164120614528656
visibility: 0.9999508857727051
","x: 200.7452392578125
y: 195.67654418945312
z: -0.3164030611515045
visibility: 0.9999472498893738
","x: 198.76956176757812
y: 195.2760009765625
z: -0.3163682818412781
visibility: 0.9999444484710693
","x: 213.17111206054688
y: 205.3591766357422
z: -0.2087683230638504
visibility: 0.9997912049293518
","x: 196.53758239746094
y: 200.2721405029297
z: -0.19849178194999695
visibility: 0.9999141693115234
","x: 205.997802734375
y: 213.5061798095703
z: -0.29431647062301636
visibility: 0.9999458193778992
","x: 200.6719970703125
y: 211.3269805908203
z: -0.2915535569190979
visibility: 0.999956488609314
","x: 223.1370391845703
y: 251.64971923828125
z: -0.15650741755962372
visibility: 0.9999092817306519
","x: 185.1020050048828
y: 255.9015655517578
z: -0.07393442094326019
visibility: 0.9998950958251953
","x: 228.49578857421875
y: 311.9970397949219
z: -0.1368243247270584
visibility: 0.8426662087440491
","x: 175.5347900390625
y: 312.4567565917969
z: -0.0025534755550324917
visibility: 0.9485993981361389
","x: 207.7122802734375
y: 361.1511535644531
z: -0.23870889842510223
visibility: 0.9182583689689636
","x: 160.4188232421875
y: 356.00762939453125
z: -0.10758946090936661
visibility: 0.9399179816246033
","x: 203.56704711914062
y: 378.4674377441406
z: -0.275490403175354
visibility: 0.885180652141571
","x: 154.22091674804688
y: 371.94464111328125
z: -0.13398481905460358
visibility: 0.9041431546211243
","x: 199.95384216308594
y: 373.71478271484375
z: -0.29632091522216797
visibility: 0.8932285308837891
","x: 154.80618286132812
y: 372.4139099121094
z: -0.17470090091228485
visibility: 0.908898115158081
","x: 200.23780822753906
y: 368.5157775878906
z: -0.24686071276664734
visibility: 0.8717908263206482
","x: 157.04144287109375
y: 369.169921875
z: -0.12665200233459473
visibility: 0.8929854035377502
","x: 215.15525817871094
y: 365.8869934082031
z: -0.014326909556984901
visibility: 0.9996501207351685
","x: 191.17654418945312
y: 366.0089416503906
z: 0.014249749481678009
visibility: 0.9995881915092468
","x: 207.44044494628906
y: 459.87432861328125
z: -0.021214943379163742
visibility: 0.9403897523880005
","x: 194.923828125
y: 457.1905822753906
z: 0.0115094855427742
visibility: 0.9858482480049133
","x: 207.42384338378906
y: 536.08837890625
z: 0.11820992082357407
visibility: 0.969856321811676
","x: 194.85240173339844
y: 540.2401123046875
z: 0.15234586596488953
visibility: 0.984664261341095
","x: 205.26763916015625
y: 546.4307250976562
z: 0.12350505590438843
visibility: 0.8979098200798035
","x: 196.29177856445312
y: 551.2861328125
z: 0.1573020964860916
visibility: 0.7983832955360413
","x: 214.4259796142578
y: 564.4782104492188
z: -0.01279725693166256
visibility: 0.964515745639801
","x: 189.4993438720703
y: 565.0484008789062
z: 0.027420584112405777
visibility: 0.9729608297348022
",,,,,,,,,,,,,,,,,,,,,,,,,,,,,,,,,,,,,,,,,,
11,"x: 203.7388458251953
y: 205.25082397460938
z: -0.3466965854167938
visibility: 0.9999738931655884
","x: 206.93211364746094
y: 199.64450073242188
z: -0.3277287483215332
visibility: 0.9999588131904602
","x: 208.58428955078125
y: 200.46038818359375
z: -0.32776033878326416
visibility: 0.9999523758888245
","x: 210.32528686523438
y: 201.048583984375
z: -0.3277643024921417
visibility: 0.9999556541442871
","x: 201.69692993164062
y: 197.82220458984375
z: -0.32667291164398193
visibility: 0.9999549388885498
","x: 200.13768005371094
y: 197.19509887695312
z: -0.3266673684120178
visibility: 0.9999514222145081
","x: 198.7522430419922
y: 196.78790283203125
z: -0.326628178358078
visibility: 0.9999487996101379
","x: 212.30374145507812
y: 206.42974853515625
z: -0.20728962123394012
visibility: 0.9998108744621277
","x: 196.01699829101562
y: 201.63128662109375
z: -0.2033758908510208
visibility: 0.9999197125434875
","x: 206.237060546875
y: 214.9449462890625
z: -0.30130434036254883
visibility: 0.9999509453773499
","x: 200.02174377441406
y: 212.91888427734375
z: -0.3003326654434204
visibility: 0.9999604225158691
","x: 221.2847137451172
y: 252.09352111816406
z: -0.14643177390098572
visibility: 0.9999175667762756
","x: 181.42576599121094
y: 258.65411376953125
z: -0.07842691242694855
visibility: 0.9999000430107117
","x: 232.47171020507812
y: 311.4462890625
z: -0.15388017892837524
visibility: 0.8582538366317749
","x: 174.0740966796875
y: 314.6295471191406
z: -0.006721979938447475
visibility: 0.949070930480957
","x: 209.51083374023438
y: 345.76177978515625
z: -0.3038477301597595
visibility: 0.9261133670806885
","x: 161.89553833007812
y: 357.4898986816406
z: -0.11469211429357529
visibility: 0.94029301404953
","x: 203.52633666992188
y: 360.246337890625
z: -0.34765154123306274
visibility: 0.8955543041229248
","x: 157.84642028808594
y: 372.9132080078125
z: -0.14125403761863708
visibility: 0.9041731953620911
","x: 199.20602416992188
y: 355.54754638671875
z: -0.3653269410133362
visibility: 0.9028106927871704
","x: 158.61473083496094
y: 374.7401428222656
z: -0.1790786236524582
visibility: 0.9091326594352722
","x: 199.96273803710938
y: 351.1109924316406
z: -0.3119218945503235
visibility: 0.8827589154243469
","x: 160.2371063232422
y: 371.04473876953125
z: -0.13233444094657898
visibility: 0.8932516574859619
","x: 214.437255859375
y: 365.9351806640625
z: -0.010593168437480927
visibility: 0.9996384978294373
","x: 190.1129608154297
y: 366.90087890625
z: 0.01052478514611721
visibility: 0.9995882511138916
","x: 215.58023071289062
y: 459.43310546875
z: -0.0069879284128546715
visibility: 0.9458556175231934
","x: 193.4198455810547
y: 459.13873291015625
z: 0.005840919446200132
visibility: 0.9864694476127625
","x: 215.5360107421875
y: 535.2387084960938
z: 0.15706585347652435
visibility: 0.9721755981445312
","x: 194.6636199951172
y: 540.3958740234375
z: 0.1610400378704071
visibility: 0.9855427145957947
","x: 212.73143005371094
y: 545.471435546875
z: 0.1664033681154251
visibility: 0.897310733795166
","x: 196.39541625976562
y: 551.6314086914062
z: 0.16715876758098602
visibility: 0.8080532550811768
","x: 218.66441345214844
y: 564.61865234375
z: 0.02193596586585045
visibility: 0.967098593711853
","x: 190.2335662841797
y: 565.6571044921875
z: 0.0299322959035635
visibility: 0.974621057510376
",,,,,,,,,,,,,,,,,,,,,,,,,,,,,,,,,,,,,,,,,,
12,"x: 204.71820068359375
y: 206.7568359375
z: -0.3363986313343048
visibility: 0.9999762773513794
","x: 208.08192443847656
y: 200.9710693359375
z: -0.3154985308647156
visibility: 0.9999623894691467
","x: 209.52493286132812
y: 201.75531005859375
z: -0.31553736329078674
visibility: 0.9999565482139587
","x: 210.81187438964844
y: 202.34304809570312
z: -0.31556639075279236
visibility: 0.9999594688415527
","x: 202.94390869140625
y: 199.31857299804688
z: -0.3152707815170288
visibility: 0.999958872795105
","x: 200.98895263671875
y: 198.92945861816406
z: -0.31523436307907104
visibility: 0.9999554753303528
","x: 199.4505157470703
y: 198.70822143554688
z: -0.3151630759239197
visibility: 0.999953031539917
","x: 213.12840270996094
y: 207.6693115234375
z: -0.18979817628860474
visibility: 0.9998289942741394
","x: 196.7227020263672
y: 202.9601287841797
z: -0.19730927050113678
visibility: 0.9999261498451233
","x: 207.29237365722656
y: 216.48443603515625
z: -0.2888551950454712
visibility: 0.9999555945396423
","x: 200.51231384277344
y: 214.68055725097656
z: -0.28885844349861145
visibility: 0.9999639987945557
","x: 223.25267028808594
y: 252.0408477783203
z: -0.12271595001220703
visibility: 0.9999252557754517
","x: 181.8889923095703
y: 258.3459777832031
z: -0.060034025460481644
visibility: 0.9999061822891235
","x: 235.58375549316406
y: 299.31573486328125
z: -0.14154213666915894
visibility: 0.872326672077179
","x: 172.88389587402344
y: 312.1524658203125
z: 0.030239930376410484
visibility: 0.9521068930625916
","x: 213.36749267578125
y: 314.2459411621094
z: -0.3208642601966858
visibility: 0.9333556294441223
","x: 162.48410034179688
y: 358.0872802734375
z: -0.06982805579900742
visibility: 0.9439338445663452
","x: 206.7340087890625
y: 323.3480224609375
z: -0.3698103129863739
visibility: 0.9053667187690735
","x: 160.01327514648438
y: 375.3494567871094
z: -0.09716171771287918
visibility: 0.9092038869857788
","x: 203.0626220703125
y: 319.1466064453125
z: -0.383280485868454
visibility: 0.9118980169296265
","x: 161.14524841308594
y: 376.508056640625
z: -0.13413551449775696
visibility: 0.9139226675033569
","x: 204.68023681640625
y: 316.54986572265625
z: -0.328279584646225
visibility: 0.8933147192001343
","x: 162.49993896484375
y: 372.6683349609375
z: -0.08617149293422699
visibility: 0.8984265327453613
","x: 216.7724151611328
y: 366.1033630371094
z: -0.0049741617403924465
visibility: 0.9996466040611267
","x: 191.69102478027344
y: 367.076416015625
z: 0.0048838830552995205
visibility: 0.9996026754379272
","x: 218.60443115234375
y: 459.23291015625
z: -0.01638181321322918
visibility: 0.9508709907531738
","x: 193.29776000976562
y: 460.95037841796875
z: -0.006271044258028269
visibility: 0.987502932548523
","x: 222.0027618408203
y: 535.3717041015625
z: 0.13296982645988464
visibility: 0.9743292331695557
","x: 194.02728271484375
y: 540.9343872070312
z: 0.13910886645317078
visibility: 0.9865326881408691
","x: 217.56106567382812
y: 546.1987915039062
z: 0.13978278636932373
visibility: 0.9019577503204346
","x: 196.70166015625
y: 551.8439331054688
z: 0.14316365122795105
visibility: 0.8173056840896606
","x: 227.72166442871094
y: 564.7545166015625
z: 0.003985532093793154
visibility: 0.9693487882614136
","x: 189.40066528320312
y: 566.2493286132812
z: 0.002068918664008379
visibility: 0.9761987924575806
",,,,,,,,,,,,,,,,,,,,,,,,,,,,,,,,,,,,,,,,,,
13,"x: 208.7633056640625
y: 206.2999725341797
z: -0.2939179539680481
visibility: 0.9999784827232361
","x: 211.67184448242188
y: 200.5647430419922
z: -0.27102115750312805
visibility: 0.9999657273292542
","x: 213.18760681152344
y: 200.9965362548828
z: -0.27105817198753357
visibility: 0.9999604225158691
","x: 214.73899841308594
y: 201.28390502929688
z: -0.27108240127563477
visibility: 0.9999630451202393
","x: 206.86843872070312
y: 199.23257446289062
z: -0.2710942327976227
visibility: 0.999962568283081
","x: 204.92568969726562
y: 198.88059997558594
z: -0.2710416615009308
visibility: 0.9999593496322632
","x: 203.11965942382812
y: 198.63267517089844
z: -0.27098655700683594
visibility: 0.9999570250511169
","x: 216.62037658691406
y: 206.14727783203125
z: -0.14065071940422058
visibility: 0.999845027923584
","x: 199.9381561279297
y: 202.92965698242188
z: -0.1426013857126236
visibility: 0.9999326467514038
","x: 210.81149291992188
y: 216.20225524902344
z: -0.2459070384502411
visibility: 0.9999597668647766
","x: 204.6026611328125
y: 214.42025756835938
z: -0.24614138901233673
visibility: 0.9999672770500183
","x: 226.3404541015625
y: 249.1356658935547
z: -0.07722416520118713
visibility: 0.9999309778213501
","x: 186.38571166992188
y: 255.49200439453125
z: -0.03871653974056244
visibility: 0.9999114871025085
","x: 246.24307250976562
y: 288.34649658203125
z: -0.1945352703332901
visibility: 0.8849769830703735
","x: 174.1968994140625
y: 306.9634704589844
z: 0.01839279942214489
visibility: 0.9556502103805542
","x: 220.29727172851562
y: 269.51837158203125
z: -0.4311780333518982
visibility: 0.9398689866065979
","x: 157.5929412841797
y: 351.4098815917969
z: -0.06848818808794022
visibility: 0.9478808641433716
","x: 214.5123291015625
y: 270.35711669921875
z: -0.4833112359046936
visibility: 0.9141502976417542
","x: 153.44119262695312
y: 366.6445617675781
z: -0.0915783941745758
visibility: 0.9145090579986572
","x: 211.47076416015625
y: 265.9049072265625
z: -0.4782077670097351
visibility: 0.9200122952461243
","x: 153.8334503173828
y: 367.4288635253906
z: -0.1289193332195282
visibility: 0.9190648198127747
","x: 212.6685791015625
y: 265.1385803222656
z: -0.4334586560726166
visibility: 0.9027441740036011
","x: 155.4397735595703
y: 363.5388488769531
z: -0.0848538875579834
visibility: 0.9042102098464966
","x: 219.29640197753906
y: 366.04864501953125
z: 0.0016569100553169847
visibility: 0.9996591806411743
","x: 194.86737060546875
y: 366.4891052246094
z: -0.0018510809168219566
visibility: 0.9996155500411987
","x: 226.0452117919922
y: 458.02392578125
z: 0.0015162971103563905
visibility: 0.9551700949668884
","x: 195.20059204101562
y: 459.8280334472656
z: -0.009330496191978455
visibility: 0.9883227944374084
","x: 223.09410095214844
y: 536.671630859375
z: 0.1315380036830902
visibility: 0.9761896133422852
","x: 193.8079376220703
y: 540.846435546875
z: 0.117855504155159
visibility: 0.9872534275054932
","x: 221.34646606445312
y: 548.2181396484375
z: 0.13621631264686584
visibility: 0.9052107930183411
","x: 195.90463256835938
y: 551.3636474609375
z: 0.12118766456842422
visibility: 0.8203555345535278
","x: 234.5884552001953
y: 566.302734375
z: 0.004698493052273989
visibility: 0.9711896777153015
","x: 189.98263549804688
y: 566.103759765625
z: -0.016248323023319244
visibility: 0.9772064089775085
",,,,,,,,,,,,,,,,,,,,,,,,,,,,,,,,,,,,,,,,,,
14,"x: 210.0296173095703
y: 206.36251831054688
z: -0.2951672077178955
visibility: 0.9999804496765137
","x: 213.1658172607422
y: 200.33074951171875
z: -0.27170076966285706
visibility: 0.9999688267707825
","x: 214.69601440429688
y: 200.78097534179688
z: -0.27173301577568054
visibility: 0.9999639987945557
","x: 216.2041473388672
y: 201.13670349121094
z: -0.2717459797859192
visibility: 0.9999663233757019
","x: 208.02398681640625
y: 199.146728515625
z: -0.27522343397140503
visibility: 0.999966025352478
","x: 206.19522094726562
y: 198.85948181152344
z: -0.27520552277565
visibility: 0.9999630451202393
","x: 204.38568115234375
y: 198.6599884033203
z: -0.2751752734184265
visibility: 0.9999608993530273
","x: 217.8043670654297
y: 206.0959014892578
z: -0.13539695739746094
visibility: 0.9998592138290405
","x: 201.66587829589844
y: 203.39508056640625
z: -0.1550946682691574
visibility: 0.99993896484375
","x: 210.98834228515625
y: 216.20664978027344
z: -0.24542388319969177
visibility: 0.9999635219573975
","x: 204.8571014404297
y: 214.5877685546875
z: -0.25054484605789185
visibility: 0.9999703764915466
","x: 228.1553192138672
y: 249.20855712890625
z: -0.05492984503507614
visibility: 0.9999348521232605
","x: 188.2811279296875
y: 256.77813720703125
z: -0.04644118994474411
visibility: 0.9999176263809204
","x: 249.34390258789062
y: 292.3580627441406
z: -0.17037101089954376
visibility: 0.8961528539657593
","x: 175.41453552246094
y: 307.1468505859375
z: -0.026563581079244614
visibility: 0.9590754508972168
","x: 224.54266357421875
y: 262.44696044921875
z: -0.41077232360839844
visibility: 0.945457935333252
","x: 156.259765625
y: 354.4124755859375
z: -0.10401765257120132
visibility: 0.9508678913116455
","x: 217.08737182617188
y: 257.1156005859375
z: -0.4608515202999115
visibility: 0.9210691452026367
","x: 150.6151885986328
y: 369.5718688964844
z: -0.12270931154489517
visibility: 0.9177307486534119
","x: 214.353515625
y: 251.84808349609375
z: -0.45520371198654175
visibility: 0.9263091683387756
","x: 150.9425048828125
y: 370.3524475097656
z: -0.1561042070388794
visibility: 0.9222212433815002
","x: 217.65872192382812
y: 253.30364990234375
z: -0.41372236609458923
visibility: 0.9097170233726501
","x: 153.05213928222656
y: 366.6368408203125
z: -0.11815644800662994
visibility: 0.9077011346817017
","x: 223.68975830078125
y: 367.10162353515625
z: 0.02327634207904339
visibility: 0.9996662139892578
","x: 199.67857360839844
y: 367.2801513671875
z: -0.02350396290421486
visibility: 0.9996275901794434
","x: 232.1671600341797
y: 458.4498291015625
z: 0.036448948085308075
visibility: 0.9585745930671692
","x: 195.85464477539062
y: 459.681640625
z: -0.021708499640226364
visibility: 0.9889177680015564
","x: 225.0511474609375
y: 540.739501953125
z: 0.17979255318641663
visibility: 0.9777061939239502
","x: 193.6417694091797
y: 540.9195556640625
z: 0.11626579612493515
visibility: 0.9879264831542969
","x: 222.98345947265625
y: 553.666259765625
z: 0.18683381378650665
visibility: 0.9093780517578125
","x: 195.17872619628906
y: 551.5411376953125
z: 0.12123294174671173
visibility: 0.8235510587692261
","x: 239.3022918701172
y: 567.2548828125
z: 0.0640670508146286
visibility: 0.972867488861084
","x: 190.1260986328125
y: 566.0316162109375
z: -0.015355737879872322
visibility: 0.9781976342201233
",,,,,,,,,,,,,,,,,,,,,,,,,,,,,,,,,,,,,,,,,,
15,"x: 216.3477325439453
y: 208.04751586914062
z: -0.3036431670188904
visibility: 0.9999822974205017
","x: 218.7711639404297
y: 202.0594940185547
z: -0.2757781147956848
visibility: 0.9999717473983765
","x: 220.36407470703125
y: 202.50404357910156
z: -0.27579396963119507
visibility: 0.9999673366546631
","x: 221.88807678222656
y: 202.83287048339844
z: -0.2757759392261505
visibility: 0.9999694228172302
","x: 213.82354736328125
y: 200.93661499023438
z: -0.281769722700119
visibility: 0.9999692440032959
","x: 211.97927856445312
y: 200.73468017578125
z: -0.2817966639995575
visibility: 0.9999665021896362
","x: 210.74264526367188
y: 200.49337768554688
z: -0.28179553151130676
visibility: 0.9999645948410034
","x: 223.65826416015625
y: 208.4140625
z: -0.14127078652381897
visibility: 0.9998723864555359
","x: 208.07589721679688
y: 205.53750610351562
z: -0.16063153743743896
visibility: 0.999944806098938
","x: 218.3210906982422
y: 217.15768432617188
z: -0.2456628382205963
visibility: 0.9999669790267944
","x: 211.92684936523438
y: 216.24502563476562
z: -0.2551153600215912
visibility: 0.9999731779098511
","x: 235.13571166992188
y: 252.3228759765625
z: -0.0602237693965435
visibility: 0.99993896484375
","x: 192.88497924804688
y: 259.75665283203125
z: -0.05821681022644043
visibility: 0.9999243021011353
","x: 250.3594512939453
y: 308.35150146484375
z: -0.1672368347644806
visibility: 0.9057900905609131
","x: 178.3175048828125
y: 317.2275085449219
z: -0.02524118684232235
visibility: 0.9615545272827148
","x: 228.1336669921875
y: 280.8472900390625
z: -0.4236740469932556
visibility: 0.9502614736557007
","x: 161.9642333984375
y: 362.13720703125
z: -0.11401551961898804
visibility: 0.9518688917160034
","x: 218.84339904785156
y: 272.88336181640625
z: -0.4773798882961273
visibility: 0.9270548224449158
","x: 157.43716430664062
y: 378.70916748046875
z: -0.1356765329837799
visibility: 0.9176585674285889
","x: 220.31532287597656
y: 265.29339599609375
z: -0.477851927280426
visibility: 0.9318354725837708
","x: 158.1833038330078
y: 380.30450439453125
z: -0.17121924459934235
visibility: 0.9223597049713135
","x: 222.86251831054688
y: 267.1761474609375
z: -0.4296058714389801
visibility: 0.915617048740387
","x: 159.9774169921875
y: 376.6607360839844
z: -0.1289862096309662
visibility: 0.907618522644043
","x: 233.0565948486328
y: 369.7442626953125
z: 0.02449876256287098
visibility: 0.999675989151001
","x: 208.9203338623047
y: 369.9487609863281
z: -0.02467498555779457
visibility: 0.9996451139450073
","x: 234.6325225830078
y: 460.8734130859375
z: 0.03825434669852257
visibility: 0.961454451084137
","x: 205.23159790039062
y: 461.6856384277344
z: -0.034110408276319504
visibility: 0.9895045757293701
","x: 226.87777709960938
y: 543.450439453125
z: 0.2029903382062912
visibility: 0.9789772629737854
","x: 193.70993041992188
y: 540.9739990234375
z: 0.11756265163421631
visibility: 0.9885053038597107
","x: 223.8200225830078
y: 556.7693481445312
z: 0.2118697613477707
visibility: 0.9122816920280457
","x: 195.5164794921875
y: 551.5503540039062
z: 0.12326206266880035
visibility: 0.8260038495063782
","x: 240.64573669433594
y: 568.0315551757812
z: 0.08502551168203354
visibility: 0.97429358959198
","x: 190.43017578125
y: 565.3838500976562
z: -0.015416827984154224
visibility: 0.9791769981384277
",,,,,,,,,,,,,,,,,,,,,,,,,,,,,,,,,,,,,,,,,,
16,"x: 221.6623992919922
y: 209.15625
z: -0.2933308482170105
visibility: 0.9999840259552002
","x: 223.97171020507812
y: 203.3474884033203
z: -0.2675108313560486
visibility: 0.9999744296073914
","x: 225.55572509765625
y: 203.80819702148438
z: -0.2675268054008484
visibility: 0.9999704360961914
","x: 226.931640625
y: 204.28744506835938
z: -0.26750659942626953
visibility: 0.9999722838401794
","x: 219.08314514160156
y: 202.2820281982422
z: -0.2729957699775696
visibility: 0.9999721646308899
","x: 217.2634735107422
y: 201.96755981445312
z: -0.2730092704296112
visibility: 0.9999697208404541
","x: 215.61387634277344
y: 201.70321655273438
z: -0.27297478914260864
visibility: 0.9999679923057556
","x: 228.2827606201172
y: 209.82119750976562
z: -0.12747952342033386
visibility: 0.9998846054077148
","x: 212.90785217285156
y: 206.46217346191406
z: -0.15188086032867432
visibility: 0.999950110912323
","x: 223.81588745117188
y: 217.89797973632812
z: -0.24014601111412048
visibility: 0.9999701976776123
","x: 217.36293029785156
y: 217.25099182128906
z: -0.24794237315654755
visibility: 0.9999758005142212
","x: 239.13760375976562
y: 253.82545471191406
z: -0.0490141399204731
visibility: 0.9999443888664246
","x: 197.23492431640625
y: 261.1844177246094
z: -0.05721909552812576
visibility: 0.9999306797981262
","x: 255.77865600585938
y: 309.90533447265625
z: -0.15092170238494873
visibility: 0.9149109721183777
","x: 186.971923828125
y: 320.4228515625
z: -0.0207822285592556
visibility: 0.9645741581916809
","x: 233.54869079589844
y: 289.66363525390625
z: -0.4036179184913635
visibility: 0.9549433588981628
","x: 174.88941955566406
y: 367.4087829589844
z: -0.11391077935695648
visibility: 0.9548543095588684
","x: 225.08047485351562
y: 284.8327331542969
z: -0.4588988721370697
visibility: 0.9333651661872864
","x: 170.82232666015625
y: 385.86724853515625
z: -0.13769909739494324
visibility: 0.9217028617858887
","x: 225.3057861328125
y: 278.3913269042969
z: -0.4601394236087799
visibility: 0.9376842975616455
","x: 172.00985717773438
y: 386.9090270996094
z: -0.1727820634841919
visibility: 0.9261987209320068
","x: 227.52627563476562
y: 279.2147216796875
z: -0.40948039293289185
visibility: 0.9224256873130798
","x: 173.75599670410156
y: 382.74176025390625
z: -0.12889954447746277
visibility: 0.9118313193321228
","x: 236.00314331054688
y: 371.97039794921875
z: 0.022968193516135216
visibility: 0.9996994733810425
","x: 211.69146728515625
y: 371.1683349609375
z: -0.02313622646033764
visibility: 0.9996668696403503
","x: 236.69253540039062
y: 464.3011474609375
z: 0.019553329795598984
visibility: 0.9644472599029541
","x: 207.96206665039062
y: 462.853515625
z: -0.043245263397693634
visibility: 0.9901520609855652
","x: 227.49267578125
y: 543.8471069335938
z: 0.1985902041196823
visibility: 0.9800181984901428
","x: 193.84945678710938
y: 539.2984619140625
z: 0.14876312017440796
visibility: 0.9886724352836609
","x: 224.39712524414062
y: 556.7363891601562
z: 0.21010823547840118
visibility: 0.9143825769424438
","x: 195.61614990234375
y: 549.5455322265625
z: 0.16142787039279938
visibility: 0.8261033892631531
","x: 240.5386199951172
y: 568.1605834960938
z: 0.0904049351811409
visibility: 0.9753866791725159
","x: 190.50857543945312
y: 564.06298828125
z: 0.03964174538850784
visibility: 0.9795507192611694
",,,,,,,,,,,,,,,,,,,,,,,,,,,,,,,,,,,,,,,,,,
17,"x: 229.0513458251953
y: 208.87890625
z: -0.28602710366249084
visibility: 0.9999855160713196
","x: 230.36949157714844
y: 203.20193481445312
z: -0.25880637764930725
visibility: 0.9999766945838928
","x: 231.3651123046875
y: 203.73928833007812
z: -0.2588270902633667
visibility: 0.9999729990959167
","x: 232.56488037109375
y: 204.2790069580078
z: -0.2588271498680115
visibility: 0.9999746680259705
","x: 226.41461181640625
y: 201.8096923828125
z: -0.2656746804714203
visibility: 0.9999746680259705
","x: 224.7652130126953
y: 201.467041015625
z: -0.26568323373794556
visibility: 0.9999724626541138
","x: 222.78541564941406
y: 201.2006378173828
z: -0.2656497359275818
visibility: 0.9999708533287048
","x: 233.17660522460938
y: 209.65150451660156
z: -0.11303404718637466
visibility: 0.9998950362205505
","x: 218.59642028808594
y: 206.00741577148438
z: -0.14584429562091827
visibility: 0.9999548196792603
","x: 230.50564575195312
y: 217.74270629882812
z: -0.2328656017780304
visibility: 0.9999730587005615
","x: 224.63827514648438
y: 217.0133819580078
z: -0.24235542118549347
visibility: 0.9999781250953674
","x: 242.74598693847656
y: 253.9260711669922
z: -0.029464635998010635
visibility: 0.9999493360519409
","x: 201.73374938964844
y: 260.901611328125
z: -0.06112569570541382
visibility: 0.9999366998672485
","x: 268.0897216796875
y: 292.93109130859375
z: -0.14926420152187347
visibility: 0.9232153296470642
","x: 189.07266235351562
y: 318.29229736328125
z: -0.021641429513692856
visibility: 0.9677534699440002
","x: 242.90476989746094
y: 276.7233581542969
z: -0.4045538902282715
visibility: 0.9591293931007385
","x: 178.19454956054688
y: 365.5943298339844
z: -0.10312463343143463
visibility: 0.9580622315406799
","x: 235.1727294921875
y: 277.2094421386719
z: -0.45935648679733276
visibility: 0.9386927485466003
","x: 174.9466094970703
y: 385.5048828125
z: -0.12623825669288635
visibility: 0.9262128472328186
","x: 233.11276245117188
y: 271.9727783203125
z: -0.451751708984375
visibility: 0.9425607323646545
","x: 176.95028686523438
y: 386.6787109375
z: -0.15951336920261383
visibility: 0.9304333925247192
","x: 234.7499542236328
y: 271.41790771484375
z: -0.4071179926395416
visibility: 0.9280461668968201
","x: 179.11061096191406
y: 382.65423583984375
z: -0.11622579395771027
visibility: 0.9165676832199097
","x: 237.86166381835938
y: 373.7472229003906
z: 0.03817011043429375
visibility: 0.9997252821922302
","x: 213.8375701904297
y: 372.383544921875
z: -0.03840329498052597
visibility: 0.9996910095214844
","x: 238.7635040283203
y: 466.1142272949219
z: 0.021552735939621925
visibility: 0.9658057689666748
","x: 210.68115234375
y: 464.1153564453125
z: -0.06681861728429794
visibility: 0.990730881690979
","x: 227.86380004882812
y: 544.8982543945312
z: 0.23597092926502228
visibility: 0.9799320101737976
","x: 194.07290649414062
y: 536.460693359375
z: 0.16415148973464966
visibility: 0.9881064295768738
","x: 224.8680877685547
y: 557.5516357421875
z: 0.25206977128982544
visibility: 0.9145853519439697
","x: 194.9952850341797
y: 545.00439453125
z: 0.1822734922170639
visibility: 0.8201598525047302
","x: 240.70570373535156
y: 568.6383666992188
z: 0.15051335096359253
visibility: 0.9754846096038818
","x: 190.87245178222656
y: 563.5801391601562
z: 0.07782065123319626
visibility: 0.9790289998054504
",,,,,,,,,,,,,,,,,,,,,,,,,,,,,,,,,,,,,,,,,,
18,"x: 232.25088500976562
y: 209.03428649902344
z: -0.24507169425487518
visibility: 0.9999868273735046
","x: 233.92430114746094
y: 203.43431091308594
z: -0.21937420964241028
visibility: 0.9999786615371704
","x: 234.91119384765625
y: 204.14895629882812
z: -0.2193770855665207
visibility: 0.9999751448631287
","x: 235.74282836914062
y: 204.7738800048828
z: -0.21935439109802246
visibility: 0.9999766945838928
","x: 229.71331787109375
y: 201.59878540039062
z: -0.22948279976844788
visibility: 0.9999769330024719
","x: 227.7653045654297
y: 201.20425415039062
z: -0.22949913144111633
visibility: 0.9999749064445496
","x: 225.92173767089844
y: 200.9141845703125
z: -0.22948524355888367
visibility: 0.9999735355377197
","x: 235.98353576660156
y: 209.93653869628906
z: -0.0789690762758255
visibility: 0.9999036192893982
","x: 221.39503479003906
y: 205.7303466796875
z: -0.12771205604076385
visibility: 0.9999591112136841
","x: 233.18862915039062
y: 218.0013427734375
z: -0.1939169019460678
visibility: 0.9999755620956421
","x: 227.57449340820312
y: 217.12005615234375
z: -0.2079463005065918
visibility: 0.9999802112579346
","x: 243.9126739501953
y: 254.90235900878906
z: 0.0011211071396246552
visibility: 0.9999525547027588
","x: 204.8914031982422
y: 260.4775085449219
z: -0.05674850195646286
visibility: 0.9999417066574097
","x: 269.9113464355469
y: 288.4259338378906
z: -0.11908341944217682
visibility: 0.9304463267326355
","x: 189.01963806152344
y: 313.9658508300781
z: -0.03239312022924423
visibility: 0.9704728126525879
","x: 247.15948486328125
y: 263.2961730957031
z: -0.36827388405799866
visibility: 0.9625636339187622
","x: 176.12689208984375
y: 358.0586242675781
z: -0.10495109856128693
visibility: 0.9603841304779053
","x: 240.57318115234375
y: 264.7589416503906
z: -0.4185953140258789
visibility: 0.942206859588623
","x: 170.7883758544922
y: 375.7312316894531
z: -0.12832625210285187
visibility: 0.9288521409034729
","x: 237.85523986816406
y: 261.87994384765625
z: -0.4384951591491699
visibility: 0.9456110596656799
","x: 172.334716796875
y: 377.1417541503906
z: -0.16262690722942352
visibility: 0.9329371452331543
","x: 239.06103515625
y: 261.87939453125
z: -0.37444645166397095
visibility: 0.9312255382537842
","x: 174.67381286621094
y: 372.4366455078125
z: -0.11723685264587402
visibility: 0.9194238781929016
","x: 242.0328369140625
y: 373.34222412109375
z: 0.039675116539001465
visibility: 0.9997367262840271
","x: 219.7167510986328
y: 372.1839904785156
z: -0.039908330887556076
visibility: 0.9996999502182007
","x: 238.8815460205078
y: 466.0211181640625
z: 0.035817112773656845
visibility: 0.9654180407524109
","x: 212.54544067382812
y: 463.95074462890625
z: -0.05033925920724869
visibility: 0.990527868270874
","x: 229.8446502685547
y: 545.7680053710938
z: 0.20734843611717224
visibility: 0.9797634482383728
","x: 194.2755126953125
y: 536.9507446289062
z: 0.12144701182842255
visibility: 0.9881666302680969
","x: 225.67689514160156
y: 558.4717407226562
z: 0.2193586379289627
visibility: 0.9152895212173462
","x: 194.72216796875
y: 545.9677734375
z: 0.13135021924972534
visibility: 0.8219629526138306
","x: 240.72535705566406
y: 568.815673828125
z: 0.1027369499206543
visibility: 0.9756172895431519
","x: 190.80136108398438
y: 563.6699829101562
z: 0.01583119109272957
visibility: 0.9792531132698059
",,,,,,,,,,,,,,,,,,,,,,,,,,,,,,,,,,,,,,,,,,
19,"x: 237.35008239746094
y: 211.3245849609375
z: -0.2518457770347595
visibility: 0.9999880194664001
","x: 238.32168579101562
y: 205.87399291992188
z: -0.2269279956817627
visibility: 0.9999805688858032
","x: 239.19529724121094
y: 206.79605102539062
z: -0.22697047889232635
visibility: 0.9999773502349854
","x: 240.10537719726562
y: 207.65960693359375
z: -0.22697710990905762
visibility: 0.99997878074646
","x: 235.0008087158203
y: 203.549072265625
z: -0.2365957498550415
visibility: 0.9999789595603943
","x: 233.21495056152344
y: 202.90818786621094
z: -0.2366069108247757
visibility: 0.9999771118164062
","x: 231.32049560546875
y: 202.2611083984375
z: -0.23659145832061768
visibility: 0.999975860118866
","x: 239.00244140625
y: 211.9745635986328
z: -0.08510445058345795
visibility: 0.9999122619628906
","x: 225.78846740722656
y: 206.86309814453125
z: -0.13287809491157532
visibility: 0.9999629259109497
","x: 237.75405883789062
y: 220.30148315429688
z: -0.19978927075862885
visibility: 0.9999778270721436
","x: 232.55914306640625
y: 219.26522827148438
z: -0.21340079605579376
visibility: 0.9999820590019226
","x: 246.72177124023438
y: 259.422119140625
z: -0.004020579159259796
visibility: 0.9999558329582214
","x: 208.53208923339844
y: 261.76123046875
z: -0.05267418175935745
visibility: 0.9999460577964783
","x: 263.11029052734375
y: 317.3788757324219
z: -0.1074855700135231
visibility: 0.9355186820030212
","x: 195.8636474609375
y: 318.75152587890625
z: -0.010196862742304802
visibility: 0.9721100926399231
","x: 251.15003967285156
y: 278.334716796875
z: -0.374632865190506
visibility: 0.9655343294143677
","x: 175.31295776367188
y: 356.79833984375
z: -0.09260820597410202
visibility: 0.962451696395874
","x: 246.73379516601562
y: 272.77191162109375
z: -0.4291335940361023
visibility: 0.9462214708328247
","x: 169.5054473876953
y: 369.9537353515625
z: -0.11621880531311035
visibility: 0.9324468970298767
","x: 245.46511840820312
y: 267.26507568359375
z: -0.4358072876930237
visibility: 0.9493568539619446
","x: 168.2442626953125
y: 369.06475830078125
z: -0.15649928152561188
visibility: 0.9365948438644409
","x: 245.71432495117188
y: 269.7401123046875
z: -0.3837456703186035
visibility: 0.9355064630508423
","x: 171.33348083496094
y: 365.4761047363281
z: -0.10979042202234268
visibility: 0.923778772354126
","x: 244.78695678710938
y: 376.6962890625
z: 0.04068303853273392
visibility: 0.9997534155845642
","x: 222.3468780517578
y: 374.6591796875
z: -0.040847960859537125
visibility: 0.9997153878211975
","x: 240.62155151367188
y: 469.6575927734375
z: 0.035673223435878754
visibility: 0.9669246673583984
","x: 216.85150146484375
y: 465.5875244140625
z: -0.056065164506435394
visibility: 0.9908888339996338
","x: 229.98211669921875
y: 545.4425659179688
z: 0.2289547473192215
visibility: 0.9805676937103271
","x: 195.48240661621094
y: 537.04736328125
z: 0.13716907799243927
visibility: 0.9883477091789246
","x: 224.13743591308594
y: 558.0482177734375
z: 0.24268755316734314
visibility: 0.9192445874214172
","x: 194.8087921142578
y: 546.5538330078125
z: 0.15171143412590027
visibility: 0.8252274990081787
","x: 240.5215606689453
y: 568.9864501953125
z: 0.1407364159822464
visibility: 0.9766073822975159
","x: 190.58970642089844
y: 563.963134765625
z: 0.04249229282140732
visibility: 0.9796323180198669
",,,,,,,,,,,,,,,,,,,,,,,,,,,,,,,,,,,,,,,,,,
20,"x: 241.6414794921875
y: 211.25181579589844
z: -0.2224821299314499
visibility: 0.9999891519546509
","x: 242.8946075439453
y: 206.0869598388672
z: -0.19733011722564697
visibility: 0.9999824166297913
","x: 243.8157958984375
y: 207.0074462890625
z: -0.19739028811454773
visibility: 0.9999794960021973
","x: 244.56687927246094
y: 207.9178009033203
z: -0.19740021228790283
visibility: 0.9999808073043823
","x: 239.67430114746094
y: 203.5078125
z: -0.2116466760635376
visibility: 0.9999809265136719
","x: 238.00518798828125
y: 202.73406982421875
z: -0.21165499091148376
visibility: 0.9999792575836182
","x: 236.2009735107422
y: 202.02130126953125
z: -0.2116263210773468
visibility: 0.9999780654907227
","x: 242.98770141601562
y: 212.43287658691406
z: -0.05312534421682358
visibility: 0.9999206066131592
","x: 230.55580139160156
y: 206.59259033203125
z: -0.12307091802358627
visibility: 0.9999665021896362
","x: 241.7474822998047
y: 220.08413696289062
z: -0.16931888461112976
visibility: 0.9999799728393555
","x: 237.06626892089844
y: 218.84156799316406
z: -0.18945269286632538
visibility: 0.9999837875366211
","x: 249.5554962158203
y: 260.6539001464844
z: 0.034209009259939194
visibility: 0.9999600052833557
","x: 210.45327758789062
y: 261.59283447265625
z: -0.04864773154258728
visibility: 0.9999508261680603
","x: 260.5738525390625
y: 326.54046630859375
z: -0.04009510204195976
visibility: 0.9407336115837097
","x: 204.33348083496094
y: 319.5645446777344
z: -0.012225489132106304
visibility: 0.9734964370727539
","x: 254.73211669921875
y: 289.9996032714844
z: -0.31200283765792847
visibility: 0.9686717391014099
","x: 184.1009063720703
y: 351.8603515625
z: -0.12421880662441254
visibility: 0.9649031758308411
","x: 252.17977905273438
y: 281.6690368652344
z: -0.3695468604564667
visibility: 0.9509265422821045
","x: 177.59129333496094
y: 362.67144775390625
z: -0.15628856420516968
visibility: 0.9371141791343689
","x: 251.45201110839844
y: 276.93914794921875
z: -0.38009798526763916
visibility: 0.9537978172302246
","x: 176.20718383789062
y: 360.5593566894531
z: -0.19643576443195343
visibility: 0.941118061542511
","x: 251.2721405029297
y: 277.74737548828125
z: -0.3237735331058502
visibility: 0.9409156441688538
","x: 178.6494598388672
y: 357.1206359863281
z: -0.14222492277622223
visibility: 0.9289175271987915
","x: 245.38644409179688
y: 376.1435241699219
z: 0.05006920173764229
visibility: 0.9997749924659729
","x: 221.53207397460938
y: 373.91278076171875
z: -0.05015616863965988
visibility: 0.9997352957725525
","x: 244.09384155273438
y: 470.1163330078125
z: 0.010038844309747219
visibility: 0.9683293700218201
","x: 221.8846435546875
y: 466.451416015625
z: -0.09960773587226868
visibility: 0.9912229180335999
","x: 230.9579315185547
y: 545.177490234375
z: 0.21344661712646484
visibility: 0.9813137054443359
","x: 196.73085021972656
y: 533.119873046875
z: 0.14406275749206543
visibility: 0.9881303906440735
","x: 224.46273803710938
y: 557.70654296875
z: 0.22708198428153992
visibility: 0.9233250021934509
","x: 194.45431518554688
y: 540.020263671875
z: 0.16336607933044434
visibility: 0.8280940055847168
","x: 240.57252502441406
y: 569.0192260742188
z: 0.1263282150030136
visibility: 0.9776127934455872
","x: 192.88128662109375
y: 563.716064453125
z: 0.06463246792554855
visibility: 0.979677140712738
",,,,,,,,,,,,,,,,,,,,,,,,,,,,,,,,,,,,,,,,,,
21,"x: 245.38705444335938
y: 212.02447509765625
z: -0.10234172642230988
visibility: 0.9999901056289673
","x: 247.23240661621094
y: 207.84375
z: -0.07709937542676926
visibility: 0.999984085559845
","x: 248.02056884765625
y: 208.90296936035156
z: -0.07715171575546265
visibility: 0.9999814033508301
","x: 248.67308044433594
y: 210.0279998779297
z: -0.07720132172107697
visibility: 0.9999825954437256
","x: 244.09803771972656
y: 204.67306518554688
z: -0.0977250188589096
visibility: 0.9999826550483704
","x: 242.58413696289062
y: 203.5366973876953
z: -0.09772191941738129
visibility: 0.9999810457229614
","x: 240.89593505859375
y: 202.45924377441406
z: -0.09768204391002655
visibility: 0.9999799728393555
","x: 246.72300720214844
y: 214.46778869628906
z: 0.06079515069723129
visibility: 0.9999282360076904
","x: 235.20570373535156
y: 206.3896026611328
z: -0.03921593353152275
visibility: 0.9999696016311646
","x: 244.70718383789062
y: 220.6289825439453
z: -0.05060804635286331
visibility: 0.9999818801879883
","x: 240.28704833984375
y: 218.64434814453125
z: -0.07940506935119629
visibility: 0.9999852776527405
","x: 248.93594360351562
y: 263.6694641113281
z: 0.14407023787498474
visibility: 0.9999634027481079
","x: 212.3839569091797
y: 253.9757080078125
z: 0.00036689426633529365
visibility: 0.99995356798172
","x: 257.2535705566406
y: 327.4393310546875
z: 0.056002844125032425
visibility: 0.9381546378135681
","x: 204.00439453125
y: 315.0917663574219
z: -0.0803736001253128
visibility: 0.9710323810577393
","x: 260.2276611328125
y: 289.172607421875
z: -0.20398470759391785
visibility: 0.9710332155227661
","x: 197.63336181640625
y: 307.68792724609375
z: -0.2772964537143707
visibility: 0.9661093950271606
","x: 260.9494323730469
y: 279.55731201171875
z: -0.25560450553894043
visibility: 0.9546501040458679
","x: 195.4722900390625
y: 307.8363342285156
z: -0.3208675980567932
visibility: 0.9401969909667969
","x: 260.7894287109375
y: 275.1170654296875
z: -0.26367607712745667
visibility: 0.9573478698730469
","x: 196.114990234375
y: 300.35968017578125
z: -0.3363190293312073
visibility: 0.9439403414726257
","x: 259.7757568359375
y: 277.3195495605469
z: -0.21535101532936096
visibility: 0.9452434182167053
","x: 197.6363525390625
y: 300.03875732421875
z: -0.28759458661079407
visibility: 0.9318232536315918
","x: 243.03451538085938
y: 375.1710510253906
z: 0.06551946699619293
visibility: 0.9997925162315369
","x: 220.6291961669922
y: 371.72808837890625
z: -0.06555252522230148
visibility: 0.9997455477714539
","x: 244.15460205078125
y: 469.09674072265625
z: 0.017891645431518555
visibility: 0.9682865738868713
","x: 225.81195068359375
y: 466.4016418457031
z: -0.11257950961589813
visibility: 0.9908213019371033
","x: 231.37936401367188
y: 545.5086669921875
z: 0.20778465270996094
visibility: 0.9801098108291626
","x: 205.17254638671875
y: 533.4876708984375
z: 0.08988215029239655
visibility: 0.9868693947792053
","x: 224.6634979248047
y: 558.1337280273438
z: 0.2188643515110016
visibility: 0.92244553565979
","x: 198.46957397460938
y: 541.165283203125
z: 0.10619436204433441
visibility: 0.827642560005188
","x: 240.59237670898438
y: 568.6760864257812
z: 0.12440216541290283
visibility: 0.9764174818992615
","x: 208.3802947998047
y: 564.262939453125
z: 0.011382346972823143
visibility: 0.9781784415245056
",,,,,,,,,,,,,,,,,,,,,,,,,,,,,,,,,,,,,,,,,,
22,"x: 244.1727752685547
y: 213.833251953125
z: -0.09076256304979324
visibility: 0.9999897480010986
","x: 245.55718994140625
y: 209.51051330566406
z: -0.07142733782529831
visibility: 0.9999841451644897
","x: 246.1708526611328
y: 210.25372314453125
z: -0.07143169641494751
visibility: 0.9999810457229614
","x: 246.7506103515625
y: 211.03048706054688
z: -0.07144156098365784
visibility: 0.9999824166297913
","x: 242.9757537841797
y: 207.02574157714844
z: -0.09434100985527039
visibility: 0.9999826550483704
","x: 241.63616943359375
y: 205.93504333496094
z: -0.09434564411640167
visibility: 0.9999808073043823
","x: 240.20945739746094
y: 204.7406005859375
z: -0.09437461197376251
visibility: 0.9999800324440002
","x: 244.55580139160156
y: 214.26332092285156
z: 0.04293554276227951
visibility: 0.9999288320541382
","x: 234.6512908935547
y: 206.5928497314453
z: -0.0643206238746643
visibility: 0.9999707341194153
","x: 243.1529083251953
y: 220.98548889160156
z: -0.04631904885172844
visibility: 0.9999814033508301
","x: 240.03558349609375
y: 218.92111206054688
z: -0.07781647145748138
visibility: 0.99998539686203
","x: 247.0928192138672
y: 262.358154296875
z: 0.1367022693157196
visibility: 0.9999606013298035
","x: 211.35372924804688
y: 245.67645263671875
z: -0.017526427283883095
visibility: 0.9999542236328125
","x: 249.2126922607422
y: 321.9292907714844
z: 0.09988009184598923
visibility: 0.9287752509117126
","x: 199.9237060546875
y: 301.1373596191406
z: -0.1616145372390747
visibility: 0.973235011100769
","x: 259.1441955566406
y: 275.526611328125
z: -0.0652121901512146
visibility: 0.9724299311637878
","x: 204.28736877441406
y: 252.2987518310547
z: -0.3112059235572815
visibility: 0.9692302346229553
","x: 261.4298095703125
y: 264.91033935546875
z: -0.08982162922620773
visibility: 0.9563820362091064
","x: 203.89198303222656
y: 240.14764404296875
z: -0.34206831455230713
visibility: 0.9454988837242126
","x: 260.5865478515625
y: 260.89410400390625
z: -0.09002278745174408
visibility: 0.9588242173194885
","x: 205.0732879638672
y: 237.83692932128906
z: -0.3388999104499817
visibility: 0.9487857818603516
","x: 259.13519287109375
y: 263.193603515625
z: -0.07015614956617355
visibility: 0.9467952251434326
","x: 205.9678192138672
y: 242.1489715576172
z: -0.3109389543533325
visibility: 0.9373298287391663
","x: 241.7428741455078
y: 371.5240478515625
z: 0.07105288654565811
visibility: 0.9997153282165527
","x: 219.7393798828125
y: 367.7418212890625
z: -0.07114516943693161
visibility: 0.9996247291564941
","x: 236.14463806152344
y: 464.0912170410156
z: 0.04352379962801933
visibility: 0.9562113285064697
","x: 222.48239135742188
y: 463.88677978515625
z: -0.10270540416240692
visibility: 0.987335741519928
","x: 231.45465087890625
y: 545.33349609375
z: 0.12681446969509125
visibility: 0.9713289141654968
","x: 203.89064025878906
y: 542.559326171875
z: -0.020356424152851105
visibility: 0.9838967323303223
","x: 224.82444763183594
y: 558.389404296875
z: 0.12837551534175873
visibility: 0.9082083702087402
","x: 197.9896240234375
y: 556.743896484375
z: -0.017611440271139145
visibility: 0.8264057040214539
","x: 240.54771423339844
y: 568.4061279296875
z: 0.04997643083333969
visibility: 0.9695260524749756
","x: 208.8213348388672
y: 567.86962890625
z: -0.12588618695735931
visibility: 0.9752869009971619
","x: 257.6639709472656
y: 271.6199951171875
z: 0.0
","x: 256.4688720703125
y: 264.2080993652344
z: 0.0007600276148878038
","x: 256.8408508300781
y: 257.1332702636719
z: 0.0003445018664933741
","x: 258.35662841796875
y: 253.28872680664062
z: -0.001180721796117723
","x: 260.2609558105469
y: 252.5386199951172
z: -0.0022339033894240856
","x: 260.2505187988281
y: 255.08145141601562
z: 0.002286369912326336
","x: 260.8057861328125
y: 249.3057861328125
z: -0.0005361702060326934
","x: 259.33587646484375
y: 250.53887939453125
z: -0.0017718117451295257
","x: 258.4005126953125
y: 253.31500244140625
z: -0.002127263695001602
","x: 261.7674560546875
y: 257.0796203613281
z: -1.4764415936951991e-05
","x: 261.92559814453125
y: 251.5811767578125
z: -0.00320238433778286
","x: 260.13250732421875
y: 254.0663299560547
z: -0.004159110132604837
","x: 259.1224060058594
y: 257.5377197265625
z: -0.004039551597088575
","x: 263.2406921386719
y: 259.848876953125
z: -0.0028159120120108128
","x: 262.55029296875
y: 255.56520080566406
z: -0.005269566085189581
","x: 260.5933532714844
y: 258.38726806640625
z: -0.004650016315281391
","x: 259.4891662597656
y: 261.6280822753906
z: -0.003584879217669368
","x: 264.58721923828125
y: 263.24066162109375
z: -0.005880758166313171
","x: 264.069580078125
y: 258.9083557128906
z: -0.006878943648189306
","x: 262.08001708984375
y: 259.7132263183594
z: -0.006151094101369381
","x: 260.52911376953125
y: 261.7108154296875
z: -0.005213577300310135
",,,,,,,,,,,,,,,,,,,,,
23,"x: 244.1727752685547
y: 213.833251953125
z: -0.09076256304979324
visibility: 0.9999897480010986
","x: 245.55718994140625
y: 209.51051330566406
z: -0.07142733782529831
visibility: 0.9999841451644897
","x: 246.1708526611328
y: 210.25372314453125
z: -0.07143169641494751
visibility: 0.9999810457229614
","x: 246.7506103515625
y: 211.03048706054688
z: -0.07144156098365784
visibility: 0.9999824166297913
","x: 242.9757537841797
y: 207.02574157714844
z: -0.09434100985527039
visibility: 0.9999826550483704
","x: 241.63616943359375
y: 205.93504333496094
z: -0.09434564411640167
visibility: 0.9999808073043823
","x: 240.20945739746094
y: 204.7406005859375
z: -0.09437461197376251
visibility: 0.9999800324440002
","x: 244.55580139160156
y: 214.26332092285156
z: 0.04293554276227951
visibility: 0.9999288320541382
","x: 234.6512908935547
y: 206.5928497314453
z: -0.0643206238746643
visibility: 0.9999707341194153
","x: 243.1529083251953
y: 220.98548889160156
z: -0.04631904885172844
visibility: 0.9999814033508301
","x: 240.03558349609375
y: 218.92111206054688
z: -0.07781647145748138
visibility: 0.99998539686203
","x: 247.0928192138672
y: 262.358154296875
z: 0.1367022693157196
visibility: 0.9999606013298035
","x: 211.35372924804688
y: 245.67645263671875
z: -0.017526427283883095
visibility: 0.9999542236328125
","x: 249.2126922607422
y: 321.9292907714844
z: 0.09988009184598923
visibility: 0.9287752509117126
","x: 199.9237060546875
y: 301.1373596191406
z: -0.1616145372390747
visibility: 0.973235011100769
","x: 259.1441955566406
y: 275.526611328125
z: -0.0652121901512146
visibility: 0.9724299311637878
","x: 204.28736877441406
y: 252.2987518310547
z: -0.3112059235572815
visibility: 0.9692302346229553
","x: 261.4298095703125
y: 264.91033935546875
z: -0.08982162922620773
visibility: 0.9563820362091064
","x: 203.89198303222656
y: 240.14764404296875
z: -0.34206831455230713
visibility: 0.9454988837242126
","x: 260.5865478515625
y: 260.89410400390625
z: -0.09002278745174408
visibility: 0.9588242173194885
","x: 205.0732879638672
y: 237.83692932128906
z: -0.3388999104499817
visibility: 0.9487857818603516
","x: 259.13519287109375
y: 263.193603515625
z: -0.07015614956617355
visibility: 0.9467952251434326
","x: 205.9678192138672
y: 242.1489715576172
z: -0.3109389543533325
visibility: 0.9373298287391663
","x: 241.7428741455078
y: 371.5240478515625
z: 0.07105288654565811
visibility: 0.9997153282165527
","x: 219.7393798828125
y: 367.7418212890625
z: -0.07114516943693161
visibility: 0.9996247291564941
","x: 236.14463806152344
y: 464.0912170410156
z: 0.04352379962801933
visibility: 0.9562113285064697
","x: 222.48239135742188
y: 463.88677978515625
z: -0.10270540416240692
visibility: 0.987335741519928
","x: 231.45465087890625
y: 545.33349609375
z: 0.12681446969509125
visibility: 0.9713289141654968
","x: 203.89064025878906
y: 542.559326171875
z: -0.020356424152851105
visibility: 0.9838967323303223
","x: 224.82444763183594
y: 558.389404296875
z: 0.12837551534175873
visibility: 0.9082083702087402
","x: 197.9896240234375
y: 556.743896484375
z: -0.017611440271139145
visibility: 0.8264057040214539
","x: 240.54771423339844
y: 568.4061279296875
z: 0.04997643083333969
visibility: 0.9695260524749756
","x: 208.8213348388672
y: 567.86962890625
z: -0.12588618695735931
visibility: 0.9752869009971619
","x: 257.6639709472656
y: 271.6199951171875
z: 0.0
","x: 256.4688720703125
y: 264.2080993652344
z: 0.0007600276148878038
","x: 256.8408508300781
y: 257.1332702636719
z: 0.0003445018664933741
","x: 258.35662841796875
y: 253.28872680664062
z: -0.001180721796117723
","x: 260.2609558105469
y: 252.5386199951172
z: -0.0022339033894240856
","x: 260.2505187988281
y: 255.08145141601562
z: 0.002286369912326336
","x: 260.8057861328125
y: 249.3057861328125
z: -0.0005361702060326934
","x: 259.33587646484375
y: 250.53887939453125
z: -0.0017718117451295257
","x: 258.4005126953125
y: 253.31500244140625
z: -0.002127263695001602
","x: 261.7674560546875
y: 257.0796203613281
z: -1.4764415936951991e-05
","x: 261.92559814453125
y: 251.5811767578125
z: -0.00320238433778286
","x: 260.13250732421875
y: 254.0663299560547
z: -0.004159110132604837
","x: 259.1224060058594
y: 257.5377197265625
z: -0.004039551597088575
","x: 263.2406921386719
y: 259.848876953125
z: -0.0028159120120108128
","x: 262.55029296875
y: 255.56520080566406
z: -0.005269566085189581
","x: 260.5933532714844
y: 258.38726806640625
z: -0.004650016315281391
","x: 259.4891662597656
y: 261.6280822753906
z: -0.003584879217669368
","x: 264.58721923828125
y: 263.24066162109375
z: -0.005880758166313171
","x: 264.069580078125
y: 258.9083557128906
z: -0.006878943648189306
","x: 262.08001708984375
y: 259.7132263183594
z: -0.006151094101369381
","x: 260.52911376953125
y: 261.7108154296875
z: -0.005213577300310135
",,,,,,,,,,,,,,,,,,,,,
24,"x: 239.9352569580078
y: 215.90863037109375
z: -0.08139090985059738
visibility: 0.9999836683273315
","x: 241.43309020996094
y: 212.44219970703125
z: -0.05968674272298813
visibility: 0.9999772310256958
","x: 242.3490753173828
y: 213.24058532714844
z: -0.05969064682722092
visibility: 0.9999709129333496
","x: 243.22154235839844
y: 213.99925231933594
z: -0.05969526246190071
visibility: 0.9999730587005615
","x: 238.08863830566406
y: 209.90028381347656
z: -0.07955281436443329
visibility: 0.9999756813049316
","x: 236.51531982421875
y: 208.850341796875
z: -0.07956300675868988
visibility: 0.9999729990959167
","x: 234.9249267578125
y: 207.63055419921875
z: -0.07961215078830719
visibility: 0.9999741911888123
","x: 242.59568786621094
y: 217.4412384033203
z: 0.05459136888384819
visibility: 0.9998903870582581
","x: 229.92665100097656
y: 209.77291870117188
z: -0.03951648622751236
visibility: 0.9999644160270691
","x: 240.59185791015625
y: 223.6854248046875
z: -0.03810427710413933
visibility: 0.9999638795852661
","x: 235.6285400390625
y: 221.19390869140625
z: -0.06539759039878845
visibility: 0.9999788403511047
","x: 242.4249725341797
y: 264.0333251953125
z: 0.13274751603603363
visibility: 0.9999153017997742
","x: 210.45529174804688
y: 246.71865844726562
z: -0.031914569437503815
visibility: 0.9999521374702454
","x: 241.87188720703125
y: 321.72479248046875
z: 0.05431615561246872
visibility: 0.897447407245636
","x: 196.5267333984375
y: 301.062744140625
z: -0.1864449679851532
visibility: 0.9753939509391785
","x: 254.36871337890625
y: 277.67724609375
z: -0.13398058712482452
visibility: 0.9677445292472839
","x: 204.76959228515625
y: 245.42050170898438
z: -0.33672887086868286
visibility: 0.9720590710639954
","x: 256.1272888183594
y: 267.3865661621094
z: -0.16439053416252136
visibility: 0.9504172801971436
","x: 205.2908477783203
y: 233.17324829101562
z: -0.3709335923194885
visibility: 0.9502912759780884
","x: 256.0750427246094
y: 263.4814453125
z: -0.16232940554618835
visibility: 0.9525346159934998
","x: 205.96923828125
y: 231.0431671142578
z: -0.3628411293029785
visibility: 0.9531506299972534
","x: 254.75987243652344
y: 266.066650390625
z: -0.13973715901374817
visibility: 0.9393308162689209
","x: 206.57716369628906
y: 235.60401916503906
z: -0.33485299348831177
visibility: 0.9422435760498047
","x: 237.21469116210938
y: 371.52105712890625
z: 0.06601259857416153
visibility: 0.9996364712715149
","x: 216.92100524902344
y: 367.3106689453125
z: -0.0661015510559082
visibility: 0.9995729923248291
","x: 233.27210998535156
y: 461.86480712890625
z: 0.05301393195986748
visibility: 0.949256956577301
","x: 221.8560333251953
y: 463.53314208984375
z: -0.12372799962759018
visibility: 0.9859153628349304
","x: 231.460693359375
y: 545.281494140625
z: 0.14420977234840393
visibility: 0.9664014577865601
","x: 202.8881378173828
y: 548.109619140625
z: -0.061896830797195435
visibility: 0.9822510480880737
","x: 225.5142059326172
y: 558.1859130859375
z: 0.14799635112285614
visibility: 0.8987972736358643
","x: 195.27987670898438
y: 564.2461547851562
z: -0.0612717866897583
visibility: 0.8209196925163269
","x: 240.5564727783203
y: 568.056884765625
z: 0.06253558397293091
visibility: 0.9652716517448425
","x: 208.607177734375
y: 573.5473022460938
z: -0.18106111884117126
visibility: 0.973209023475647
","x: 251.8062744140625
y: 273.3287658691406
z: 0.0
","x: 250.20501708984375
y: 264.97088623046875
z: 0.0007952243322506547
","x: 250.28286743164062
y: 257.7776794433594
z: 0.00046488651423715055
","x: 251.94754028320312
y: 253.26177978515625
z: -0.001023862394504249
","x: 254.16098022460938
y: 253.16299438476562
z: -0.0020309253595769405
","x: 253.68991088867188
y: 255.49485778808594
z: 0.0030485165771096945
","x: 254.47940063476562
y: 249.95367431640625
z: 0.0005231688846834004
","x: 253.0579071044922
y: 251.7005157470703
z: -0.0006485939957201481
","x: 252.18707275390625
y: 254.27911376953125
z: -0.0010194052010774612
","x: 255.36749267578125
y: 257.1246643066406
z: 0.0007136340136639774
","x: 255.6699981689453
y: 252.380126953125
z: -0.002020498039200902
","x: 253.95323181152344
y: 255.32760620117188
z: -0.002860580338165164
","x: 253.1302947998047
y: 258.5339660644531
z: -0.002784888492897153
","x: 256.9377746582031
y: 259.59307861328125
z: -0.0021630788687616587
","x: 256.7772216796875
y: 255.88226318359375
z: -0.0043603843078017235
","x: 254.99159240722656
y: 258.87738037109375
z: -0.0037274318747222424
","x: 254.08026123046875
y: 261.99591064453125
z: -0.002737603383138776
","x: 258.4605407714844
y: 262.53826904296875
z: -0.005348136182874441
","x: 258.3883361816406
y: 258.75335693359375
z: -0.006069236434996128
","x: 256.7248229980469
y: 260.161376953125
z: -0.0051750983111560345
","x: 255.51327514648438
y: 262.5963134765625
z: -0.004176634829491377
",,,,,,,,,,,,,,,,,,,,,
25,"x: 239.9352569580078
y: 215.90863037109375
z: -0.08139090985059738
visibility: 0.9999836683273315
","x: 241.43309020996094
y: 212.44219970703125
z: -0.05968674272298813
visibility: 0.9999772310256958
","x: 242.3490753173828
y: 213.24058532714844
z: -0.05969064682722092
visibility: 0.9999709129333496
","x: 243.22154235839844
y: 213.99925231933594
z: -0.05969526246190071
visibility: 0.9999730587005615
","x: 238.08863830566406
y: 209.90028381347656
z: -0.07955281436443329
visibility: 0.9999756813049316
","x: 236.51531982421875
y: 208.850341796875
z: -0.07956300675868988
visibility: 0.9999729990959167
","x: 234.9249267578125
y: 207.63055419921875
z: -0.07961215078830719
visibility: 0.9999741911888123
","x: 242.59568786621094
y: 217.4412384033203
z: 0.05459136888384819
visibility: 0.9998903870582581
","x: 229.92665100097656
y: 209.77291870117188
z: -0.03951648622751236
visibility: 0.9999644160270691
","x: 240.59185791015625
y: 223.6854248046875
z: -0.03810427710413933
visibility: 0.9999638795852661
","x: 235.6285400390625
y: 221.19390869140625
z: -0.06539759039878845
visibility: 0.9999788403511047
","x: 242.4249725341797
y: 264.0333251953125
z: 0.13274751603603363
visibility: 0.9999153017997742
","x: 210.45529174804688
y: 246.71865844726562
z: -0.031914569437503815
visibility: 0.9999521374702454
","x: 241.87188720703125
y: 321.72479248046875
z: 0.05431615561246872
visibility: 0.897447407245636
","x: 196.5267333984375
y: 301.062744140625
z: -0.1864449679851532
visibility: 0.9753939509391785
","x: 254.36871337890625
y: 277.67724609375
z: -0.13398058712482452
visibility: 0.9677445292472839
","x: 204.76959228515625
y: 245.42050170898438
z: -0.33672887086868286
visibility: 0.9720590710639954
","x: 256.1272888183594
y: 267.3865661621094
z: -0.16439053416252136
visibility: 0.9504172801971436
","x: 205.2908477783203
y: 233.17324829101562
z: -0.3709335923194885
visibility: 0.9502912759780884
","x: 256.0750427246094
y: 263.4814453125
z: -0.16232940554618835
visibility: 0.9525346159934998
","x: 205.96923828125
y: 231.0431671142578
z: -0.3628411293029785
visibility: 0.9531506299972534
","x: 254.75987243652344
y: 266.066650390625
z: -0.13973715901374817
visibility: 0.9393308162689209
","x: 206.57716369628906
y: 235.60401916503906
z: -0.33485299348831177
visibility: 0.9422435760498047
","x: 237.21469116210938
y: 371.52105712890625
z: 0.06601259857416153
visibility: 0.9996364712715149
","x: 216.92100524902344
y: 367.3106689453125
z: -0.0661015510559082
visibility: 0.9995729923248291
","x: 233.27210998535156
y: 461.86480712890625
z: 0.05301393195986748
visibility: 0.949256956577301
","x: 221.8560333251953
y: 463.53314208984375
z: -0.12372799962759018
visibility: 0.9859153628349304
","x: 231.460693359375
y: 545.281494140625
z: 0.14420977234840393
visibility: 0.9664014577865601
","x: 202.8881378173828
y: 548.109619140625
z: -0.061896830797195435
visibility: 0.9822510480880737
","x: 225.5142059326172
y: 558.1859130859375
z: 0.14799635112285614
visibility: 0.8987972736358643
","x: 195.27987670898438
y: 564.2461547851562
z: -0.0612717866897583
visibility: 0.8209196925163269
","x: 240.5564727783203
y: 568.056884765625
z: 0.06253558397293091
visibility: 0.9652716517448425
","x: 208.607177734375
y: 573.5473022460938
z: -0.18106111884117126
visibility: 0.973209023475647
","x: 251.8062744140625
y: 273.3287658691406
z: 0.0
","x: 250.20501708984375
y: 264.97088623046875
z: 0.0007952243322506547
","x: 250.28286743164062
y: 257.7776794433594
z: 0.00046488651423715055
","x: 251.94754028320312
y: 253.26177978515625
z: -0.001023862394504249
","x: 254.16098022460938
y: 253.16299438476562
z: -0.0020309253595769405
","x: 253.68991088867188
y: 255.49485778808594
z: 0.0030485165771096945
","x: 254.47940063476562
y: 249.95367431640625
z: 0.0005231688846834004
","x: 253.0579071044922
y: 251.7005157470703
z: -0.0006485939957201481
","x: 252.18707275390625
y: 254.27911376953125
z: -0.0010194052010774612
","x: 255.36749267578125
y: 257.1246643066406
z: 0.0007136340136639774
","x: 255.6699981689453
y: 252.380126953125
z: -0.002020498039200902
","x: 253.95323181152344
y: 255.32760620117188
z: -0.002860580338165164
","x: 253.1302947998047
y: 258.5339660644531
z: -0.002784888492897153
","x: 256.9377746582031
y: 259.59307861328125
z: -0.0021630788687616587
","x: 256.7772216796875
y: 255.88226318359375
z: -0.0043603843078017235
","x: 254.99159240722656
y: 258.87738037109375
z: -0.0037274318747222424
","x: 254.08026123046875
y: 261.99591064453125
z: -0.002737603383138776
","x: 258.4605407714844
y: 262.53826904296875
z: -0.005348136182874441
","x: 258.3883361816406
y: 258.75335693359375
z: -0.006069236434996128
","x: 256.7248229980469
y: 260.161376953125
z: -0.0051750983111560345
","x: 255.51327514648438
y: 262.5963134765625
z: -0.004176634829491377
",,,,,,,,,,,,,,,,,,,,,
26,"x: 232.3506317138672
y: 218.5985107421875
z: -0.09068574011325836
visibility: 0.9999750256538391
","x: 233.9758758544922
y: 214.67520141601562
z: -0.06973224133253098
visibility: 0.9999637007713318
","x: 234.5049285888672
y: 215.4481658935547
z: -0.0697437971830368
visibility: 0.9999540448188782
","x: 235.0942840576172
y: 216.2467041015625
z: -0.06974849104881287
visibility: 0.9999569058418274
","x: 231.54518127441406
y: 212.37307739257812
z: -0.0939720869064331
