uscmakers/ReverseChoreography/data/8_skeletons_keshi.csv
,NOSE,LEFT_EYE_INNER,LEFT_EYE,LEFT_EYE_OUTER,RIGHT_EYE_INNER,RIGHT_EYE,RIGHT_EYE_OUTER,LEFT_EAR,RIGHT_EAR,MOUTH_LEFT,MOUTH_RIGHT,LEFT_SHOULDER,RIGHT_SHOULDER,LEFT_ELBOW,RIGHT_ELBOW,LEFT_WRIST,RIGHT_WRIST,LEFT_PINKY,RIGHT_PINKY,LEFT_INDEX,RIGHT_INDEX,LEFT_THUMB,RIGHT_THUMB,LEFT_HIP,RIGHT_HIP,LEFT_KNEE,RIGHT_KNEE,LEFT_ANKLE,RIGHT_ANKLE,LEFT_HEEL,RIGHT_HEEL,LEFT_FOOT_INDEX,RIGHT_FOOT_INDEX,WRIST,THUMB_CPC,THUMB_MCP,THUMB_IP,THUMB_TIP,INDEX_FINGER_MCP,INDEX_FINGER_PIP,INDEX_FINGER_DIP,INDEX_FINGER_TIP,MIDDLE_FINGER_MCP,MIDDLE_FINGER_PIP,MIDDLE_FINGER_DIP,MIDDLE_FINGER_TIP,RING_FINGER_PIP,RING_FINGER_DIP,RING_FINGER_TIP,RING_FINGER_MCP,PINKY_MCP,PINKY_PIP,PINKY_DIP,PINKY_TIP,WRIST2,THUMB_CPC2,THUMB_MCP2,THUMB_IP2,THUMB_TIP2,INDEX_FINGER_MCP2,INDEX_FINGER_PIP2,INDEX_FINGER_DIP2,INDEX_FINGER_TIP2,MIDDLE_FINGER_MCP2,MIDDLE_FINGER_PIP2,MIDDLE_FINGER_DIP2,MIDDLE_FINGER_TIP2,RING_FINGER_PIP2,RING_FINGER_DIP2,RING_FINGER_TIP2,RING_FINGER_MCP2,PINKY_MCP2,PINKY_PIP2,PINKY_DIP2,PINKY_TIP2
0,"x: 281.24273681640625
y: 211.49636840820312
z: -0.2659689784049988
visibility: 0.9999163150787354
","x: 281.2094421386719
y: 204.44329833984375
z: -0.24047501385211945
visibility: 0.9997954964637756
","x: 281.59710693359375
y: 204.5850372314453
z: -0.2404828518629074
visibility: 0.9997400641441345
","x: 281.9513244628906
y: 204.6943817138672
z: -0.2404841184616089
visibility: 0.9997416138648987
","x: 278.4385681152344
y: 203.3564910888672
z: -0.2626435160636902
visibility: 0.9998486042022705
","x: 277.01202392578125
y: 202.87269592285156
z: -0.2626767158508301
visibility: 0.999843955039978
","x: 275.3950500488281
y: 202.3007049560547
z: -0.26271238923072815
visibility: 0.9998310804367065
","x: 279.1737365722656
y: 207.70718383789062
z: -0.09559393674135208
visibility: 0.9989758729934692
","x: 269.10296630859375
y: 205.73655700683594
z: -0.19553104043006897
visibility: 0.9997541308403015
","x: 281.0957946777344
y: 220.321533203125
z: -0.20940332114696503
visibility: 0.9993935823440552
","x: 277.4837951660156
y: 219.1831817626953
z: -0.2383190095424652
visibility: 0.999631404876709
","x: 279.1553649902344
y: 258.57537841796875
z: 0.05343034118413925
visibility: 0.9994997978210449
","x: 255.2860107421875
y: 251.61129760742188
z: -0.1979578137397766
visibility: 0.99973064661026
","x: 282.7951354980469
y: 311.65301513671875
z: 0.14347462356090546
visibility: 0.6698789596557617
","x: 248.61883544921875
y: 315.1517028808594
z: -0.3159666359424591
visibility: 0.9952796697616577
","x: 302.3416748046875
y: 328.1456298828125
z: 0.05955176800489426
visibility: 0.8897337317466736
","x: 279.1230773925781
y: 298.356689453125
z: -0.45588207244873047
visibility: 0.9949162006378174
","x: 309.71136474609375
y: 332.8528137207031
z: 0.04451673850417137
visibility: 0.8253383040428162
","x: 285.6371154785156
y: 294.80169677734375
z: -0.4965597093105316
visibility: 0.9876189231872559
","x: 310.1435852050781
y: 331.086669921875
z: 0.011416679248213768
visibility: 0.8473055362701416
","x: 285.3616638183594
y: 288.131591796875
z: -0.49198055267333984
visibility: 0.9870152473449707
","x: 307.2763671875
y: 329.81768798828125
z: 0.04288729280233383
visibility: 0.8121747970581055
","x: 283.5588073730469
y: 288.9893493652344
z: -0.4543536305427551
visibility: 0.9765341281890869
","x: 276.2469177246094
y: 373.6270446777344
z: 0.0833091139793396
visibility: 0.998360812664032
","x: 260.5058898925781
y: 372.9293212890625
z: -0.08337422460317612
visibility: 0.9982738494873047
","x: 271.9445495605469
y: 456.33740234375
z: 0.09971897304058075
visibility: 0.8715196251869202
","x: 265.0830993652344
y: 458.99853515625
z: -0.03936796262860298
visibility: 0.9761809706687927
","x: 265.42578125
y: 539.7357788085938
z: 0.2249523103237152
visibility: 0.9380165338516235
","x: 241.67933654785156
y: 526.4204711914062
z: 0.14384926855564117
visibility: 0.9749696850776672
","x: 261.1923522949219
y: 550.6384887695312
z: 0.22947411239147186
visibility: 0.8828065395355225
","x: 236.23388671875
y: 532.9338989257812
z: 0.15671417117118835
visibility: 0.8728182315826416
","x: 276.0166015625
y: 559.87353515625
z: 0.12993279099464417
visibility: 0.9484300017356873
","x: 248.3641357421875
y: 553.5668334960938
z: 0.05701819807291031
visibility: 0.9728466868400574
","x: 277.7946472167969
y: 297.6537780761719
z: 0.0
","x: 282.24554443359375
y: 293.10009765625
z: 0.0009406454628333449
","x: 286.44805908203125
y: 289.4412841796875
z: -0.0002275625301990658
","x: 289.77734375
y: 286.6553955078125
z: -0.0022175442427396774
","x: 292.4066162109375
y: 284.4174499511719
z: -0.003954966552555561
","x: 287.793701171875
y: 291.9985656738281
z: -0.0015793128404766321
","x: 292.05645751953125
y: 294.5825500488281
z: -0.004652148578315973
","x: 293.7994079589844
y: 296.0146484375
z: -0.005886095575988293
","x: 294.92694091796875
y: 296.7352294921875
z: -0.006478991825133562
","x: 286.349853515625
y: 293.9040222167969
z: -0.004281981848180294
","x: 289.9346008300781
y: 297.2750549316406
z: -0.008193578571081161
","x: 290.51373291015625
y: 298.58941650390625
z: -0.008656468242406845
","x: 290.5919494628906
y: 299.29974365234375
z: -0.00841110572218895
","x: 284.5256042480469
y: 296.3439636230469
z: -0.007031313609331846
","x: 287.80853271484375
y: 299.4749755859375
z: -0.010318667627871037
","x: 288.4561767578125
y: 300.3894348144531
z: -0.009158664382994175
","x: 288.465087890625
y: 300.5915832519531
z: -0.007955723442137241
","x: 282.5465087890625
y: 298.99395751953125
z: -0.009891675785183907
","x: 285.6642150878906
y: 301.16497802734375
z: -0.012350751087069511
","x: 287.4533996582031
y: 301.4657287597656
z: -0.011845922097563744
","x: 288.6057434082031
y: 301.32635498046875
z: -0.011043659411370754
",,,,,,,,,,,,,,,,,,,,,
1,"x: 281.24273681640625
y: 211.49636840820312
z: -0.2659689784049988
visibility: 0.9999163150787354
","x: 281.2094421386719
y: 204.44329833984375
z: -0.24047501385211945
visibility: 0.9997954964637756
","x: 281.59710693359375
y: 204.5850372314453
z: -0.2404828518629074
visibility: 0.9997400641441345
","x: 281.9513244628906
y: 204.6943817138672
z: -0.2404841184616089
visibility: 0.9997416138648987
","x: 278.4385681152344
y: 203.3564910888672
z: -0.2626435160636902
visibility: 0.9998486042022705
","x: 277.01202392578125
y: 202.87269592285156
z: -0.2626767158508301
visibility: 0.999843955039978
","x: 275.3950500488281
y: 202.3007049560547
z: -0.26271238923072815
visibility: 0.9998310804367065
","x: 279.1737365722656
y: 207.70718383789062
z: -0.09559393674135208
visibility: 0.9989758729934692
","x: 269.10296630859375
y: 205.73655700683594
z: -0.19553104043006897
visibility: 0.9997541308403015
","x: 281.0957946777344
y: 220.321533203125
z: -0.20940332114696503
visibility: 0.9993935823440552
","x: 277.4837951660156
y: 219.1831817626953
z: -0.2383190095424652
visibility: 0.999631404876709
","x: 279.1553649902344
y: 258.57537841796875
z: 0.05343034118413925
visibility: 0.9994997978210449
","x: 255.2860107421875
y: 251.61129760742188
z: -0.1979578137397766
visibility: 0.99973064661026
","x: 282.7951354980469
y: 311.65301513671875
z: 0.14347462356090546
visibility: 0.6698789596557617
","x: 248.61883544921875
y: 315.1517028808594
z: -0.3159666359424591
visibility: 0.9952796697616577
","x: 302.3416748046875
y: 328.1456298828125
z: 0.05955176800489426
visibility: 0.8897337317466736
","x: 279.1230773925781
y: 298.356689453125
z: -0.45588207244873047
visibility: 0.9949162006378174
","x: 309.71136474609375
y: 332.8528137207031
z: 0.04451673850417137
visibility: 0.8253383040428162
","x: 285.6371154785156
y: 294.80169677734375
z: -0.4965597093105316
visibility: 0.9876189231872559
","x: 310.1435852050781
y: 331.086669921875
z: 0.011416679248213768
visibility: 0.8473055362701416
","x: 285.3616638183594
y: 288.131591796875
z: -0.49198055267333984
visibility: 0.9870152473449707
","x: 307.2763671875
y: 329.81768798828125
z: 0.04288729280233383
visibility: 0.8121747970581055
","x: 283.5588073730469
y: 288.9893493652344
z: -0.4543536305427551
visibility: 0.9765341281890869
","x: 276.2469177246094
y: 373.6270446777344
z: 0.0833091139793396
visibility: 0.998360812664032
","x: 260.5058898925781
y: 372.9293212890625
z: -0.08337422460317612
visibility: 0.9982738494873047
","x: 271.9445495605469
y: 456.33740234375
z: 0.09971897304058075
visibility: 0.8715196251869202
","x: 265.0830993652344
y: 458.99853515625
z: -0.03936796262860298
visibility: 0.9761809706687927
","x: 265.42578125
y: 539.7357788085938
z: 0.2249523103237152
visibility: 0.9380165338516235
","x: 241.67933654785156
y: 526.4204711914062
z: 0.14384926855564117
visibility: 0.9749696850776672
","x: 261.1923522949219
y: 550.6384887695312
z: 0.22947411239147186
visibility: 0.8828065395355225
","x: 236.23388671875
y: 532.9338989257812
z: 0.15671417117118835
visibility: 0.8728182315826416
","x: 276.0166015625
y: 559.87353515625
z: 0.12993279099464417
visibility: 0.9484300017356873
","x: 248.3641357421875
y: 553.5668334960938
z: 0.05701819807291031
visibility: 0.9728466868400574
","x: 277.7946472167969
y: 297.6537780761719
z: 0.0
","x: 282.24554443359375
y: 293.10009765625
z: 0.0009406454628333449
","x: 286.44805908203125
y: 289.4412841796875
z: -0.0002275625301990658
","x: 289.77734375
y: 286.6553955078125
z: -0.0022175442427396774
","x: 292.4066162109375
y: 284.4174499511719
z: -0.003954966552555561
","x: 287.793701171875
y: 291.9985656738281
z: -0.0015793128404766321
","x: 292.05645751953125
y: 294.5825500488281
z: -0.004652148578315973
","x: 293.7994079589844
y: 296.0146484375
z: -0.005886095575988293
","x: 294.92694091796875
y: 296.7352294921875
z: -0.006478991825133562
","x: 286.349853515625
y: 293.9040222167969
z: -0.004281981848180294
","x: 289.9346008300781
y: 297.2750549316406
z: -0.008193578571081161
","x: 290.51373291015625
y: 298.58941650390625
z: -0.008656468242406845
","x: 290.5919494628906
y: 299.29974365234375
z: -0.00841110572218895
","x: 284.5256042480469
y: 296.3439636230469
z: -0.007031313609331846
","x: 287.80853271484375
y: 299.4749755859375
z: -0.010318667627871037
","x: 288.4561767578125
y: 300.3894348144531
z: -0.009158664382994175
","x: 288.465087890625
y: 300.5915832519531
z: -0.007955723442137241
","x: 282.5465087890625
y: 298.99395751953125
z: -0.009891675785183907
","x: 285.6642150878906
y: 301.16497802734375
z: -0.012350751087069511
","x: 287.4533996582031
y: 301.4657287597656
z: -0.011845922097563744
","x: 288.6057434082031
y: 301.32635498046875
z: -0.011043659411370754
",,,,,,,,,,,,,,,,,,,,,
2,"x: 279.3653259277344
y: 211.71856689453125
z: -0.26223024725914
visibility: 0.9999202489852905
","x: 280.88671875
y: 204.70791625976562
z: -0.23994982242584229
visibility: 0.9998109340667725
","x: 281.5968017578125
y: 204.85760498046875
z: -0.23997242748737335
visibility: 0.9997594952583313
","x: 282.4094543457031
y: 204.972412109375
z: -0.23998498916625977
visibility: 0.9997606873512268
","x: 276.9620666503906
y: 203.9209747314453
z: -0.24633829295635223
visibility: 0.9998573064804077
","x: 275.12176513671875
y: 203.61207580566406
z: -0.24635513126850128
visibility: 0.9998521208763123
","x: 273.47406005859375
y: 203.261474609375
z: -0.2463630884885788
visibility: 0.9998415112495422
","x: 283.5411682128906
y: 208.7703857421875
z: -0.09836681187152863
visibility: 0.9990622401237488
","x: 269.05950927734375
y: 206.9080352783203
z: -0.12457402795553207
visibility: 0.9997692704200745
","x: 280.9382019042969
y: 220.74398803710938
z: -0.20871630311012268
visibility: 0.9994497895240784
","x: 276.1340637207031
y: 219.7500457763672
z: -0.2168230265378952
visibility: 0.9996649026870728
","x: 290.78399658203125
y: 258.7898864746094
z: 0.009932806715369225
visibility: 0.9995347857475281
","x: 255.207275390625
y: 251.75982666015625
z: -0.041545167565345764
visibility: 0.9997349977493286
","x: 299.2176208496094
y: 312.9288024902344
z: -0.07655573636293411
visibility: 0.6963151693344116
","x: 242.00254821777344
y: 314.5911865234375
z: -0.12873883545398712
visibility: 0.9919804930686951
","x: 302.8508605957031
y: 313.6301574707031
z: -0.34523719549179077
visibility: 0.8957250118255615
","x: 249.98202514648438
y: 297.8826599121094
z: -0.37088167667388916
visibility: 0.9911057353019714
","x: 305.4753723144531
y: 310.7620849609375
z: -0.39763444662094116
visibility: 0.8332657814025879
","x: 253.81307983398438
y: 291.76324462890625
z: -0.4180243909358978
visibility: 0.9805319905281067
","x: 305.069580078125
y: 306.1650390625
z: -0.40330418944358826
visibility: 0.8534653186798096
","x: 254.08407592773438
y: 285.8014831542969
z: -0.4251929819583893
visibility: 0.9797571897506714
","x: 303.9691162109375
y: 307.11126708984375
z: -0.35402828454971313
visibility: 0.8175914883613586
","x: 254.0889129638672
y: 287.5213317871094
z: -0.3775789439678192
visibility: 0.9664487242698669
","x: 277.71258544921875
y: 370.6721496582031
z: 0.028536278754472733
visibility: 0.9984680414199829
","x: 258.6458435058594
y: 366.30926513671875
z: -0.02859482169151306
visibility: 0.9983513355255127
","x: 272.1401062011719
y: 457.27728271484375
z: 0.003647246165201068
visibility: 0.8798924088478088
","x: 253.15206909179688
y: 459.2242736816406
z: -0.03934815153479576
visibility: 0.9763518571853638
","x: 265.74578857421875
y: 540.880859375
z: 0.16735045611858368
visibility: 0.9419280290603638
","x: 241.36590576171875
y: 532.1532592773438
z: 0.13310082256793976
visibility: 0.975493311882019
","x: 261.147705078125
y: 551.591064453125
z: 0.17544415593147278
visibility: 0.8830475807189941
","x: 239.44610595703125
y: 541.3390502929688
z: 0.14213937520980835
visibility: 0.865372896194458
","x: 274.8418884277344
y: 561.1736450195312
z: 0.04004102200269699
visibility: 0.9507685303688049
","x: 240.6886749267578
y: 558.6552124023438
z: -0.0010623321868479252
visibility: 0.9729351997375488
",,,,,,,,,,,,,,,,,,,,,,,,,,,,,,,,,,,,,,,,,,
3,"x: 274.1634216308594
y: 211.87823486328125
z: -0.14908643066883087
visibility: 0.9999262094497681
","x: 277.0158386230469
y: 204.8169708251953
z: -0.12863053381443024
visibility: 0.9998272061347961
","x: 278.20489501953125
y: 204.98233032226562
z: -0.1286756694316864
visibility: 0.999779999256134
","x: 279.665771484375
y: 205.13063049316406
z: -0.12869104743003845
visibility: 0.9997811317443848
","x: 272.0207214355469
y: 204.12548828125
z: -0.13185223937034607
visibility: 0.9998686909675598
","x: 269.8340148925781
y: 203.91506958007812
z: -0.13183622062206268
visibility: 0.9998633861541748
","x: 268.1165466308594
y: 203.73696899414062
z: -0.13178814947605133
visibility: 0.999854564666748
","x: 283.4659729003906
y: 209.24993896484375
z: -0.00643817987293005
visibility: 0.9991491436958313
","x: 265.47747802734375
y: 207.55714416503906
z: -0.02336224541068077
visibility: 0.9997882843017578
","x: 277.0146484375
y: 220.81932067871094
z: -0.10340513288974762
visibility: 0.9995022416114807
","x: 270.4352111816406
y: 219.94264221191406
z: -0.10796961933374405
visibility: 0.999696671962738
","x: 289.1210632324219
y: 258.13629150390625
z: 0.05856270715594292
visibility: 0.9995769262313843
","x: 251.4346160888672
y: 251.05599975585938
z: 0.04303360357880592
visibility: 0.9997522830963135
","x: 299.4748229980469
y: 305.088134765625
z: -0.022117450833320618
visibility: 0.7237216830253601
","x: 236.12498474121094
y: 308.2391662597656
z: -0.042497653514146805
visibility: 0.9912510514259338
","x: 302.2380676269531
y: 303.16302490234375
z: -0.27239811420440674
visibility: 0.9040512442588806
","x: 242.30123901367188
y: 296.2008056640625
z: -0.2657238841056824
visibility: 0.9907923340797424
","x: 303.1750183105469
y: 308.4950866699219
z: -0.3261009156703949
visibility: 0.8457240462303162
","x: 243.02369689941406
y: 293.6288757324219
z: -0.3124363124370575
visibility: 0.9798098802566528
","x: 300.44708251953125
y: 304.4229431152344
z: -0.3360153138637543
visibility: 0.864105761051178
","x: 246.7229461669922
y: 288.774658203125
z: -0.3183993399143219
visibility: 0.9790604114532471
","x: 298.900390625
y: 302.2362365722656
z: -0.282808393239975
visibility: 0.8300337791442871
","x: 247.76109313964844
y: 288.8659362792969
z: -0.2717723250389099
visibility: 0.9657217860221863
","x: 277.333740234375
y: 369.62750244140625
z: 0.011729266494512558
visibility: 0.9985886216163635
","x: 254.19302368164062
y: 364.041015625
z: -0.011659449897706509
visibility: 0.9984716773033142
","x: 270.3385009765625
y: 457.3744201660156
z: -0.013364692218601704
visibility: 0.8899602890014648
","x: 244.7464141845703
y: 458.3059387207031
z: -0.03949473053216934
visibility: 0.9772445559501648
","x: 265.92578125
y: 541.1339721679688
z: 0.11524462699890137
visibility: 0.9457966685295105
","x: 234.1482696533203
y: 533.03759765625
z: 0.09679390490055084
visibility: 0.976148784160614
","x: 261.2177429199219
y: 552.495849609375
z: 0.12008816003799438
visibility: 0.8807504177093506
","x: 236.57730102539062
y: 543.6217651367188
z: 0.10201792418956757
visibility: 0.8572746515274048
","x: 273.664794921875
y: 561.1844482421875
z: -0.009340775199234486
visibility: 0.9524167776107788
","x: 228.24734497070312
y: 558.173095703125
z: -0.03403315320611
visibility: 0.9724751710891724
",,,,,,,,,,,,,,,,,,,,,,,,,,,,,,,,,,,,,,,,,,
4,"x: 264.25927734375
y: 211.8014373779297
z: -0.18472936749458313
visibility: 0.999931812286377
","x: 267.3038024902344
y: 204.78736877441406
z: -0.18656489253044128
visibility: 0.9998411536216736
","x: 269.13507080078125
y: 204.9797821044922
z: -0.18661507964134216
visibility: 0.9997978806495667
","x: 271.05572509765625
y: 205.1444854736328
z: -0.18661555647850037
visibility: 0.9997991323471069
","x: 262.69085693359375
y: 204.07814025878906
z: -0.18371473252773285
visibility: 0.9998786449432373
","x: 260.761962890625
y: 203.86923217773438
z: -0.1837741732597351
visibility: 0.9998733401298523
","x: 259.1937561035156
y: 203.69747924804688
z: -0.18394112586975098
visibility: 0.9998658895492554
","x: 274.6094055175781
y: 209.8147430419922
z: -0.09664513170719147
visibility: 0.9992252588272095
","x: 256.8064270019531
y: 207.69229125976562
z: -0.10690505802631378
visibility: 0.9998034834861755
","x: 267.09967041015625
y: 220.8165740966797
z: -0.17622721195220947
visibility: 0.9995495080947876
","x: 261.0603942871094
y: 219.87628173828125
z: -0.14439721405506134
visibility: 0.9997252225875854
","x: 285.01898193359375
y: 258.771484375
z: -0.037174224853515625
visibility: 0.9996113181114197
","x: 243.2283172607422
y: 252.52828979492188
z: -0.03442215919494629
visibility: 0.9997578263282776
","x: 295.3917541503906
y: 306.0194091796875
z: -0.05158982798457146
visibility: 0.7498428821563721
","x: 226.22589111328125
y: 306.24578857421875
z: -0.0692424476146698
visibility: 0.9896312355995178
","x: 284.1759338378906
y: 319.85369873046875
z: -0.20750418305397034
visibility: 0.9104710817337036
","x: 234.6490020751953
y: 315.1186218261719
z: -0.24072369933128357
visibility: 0.9855634570121765
","x: 281.20489501953125
y: 332.31256103515625
z: -0.24876613914966583
visibility: 0.8538928031921387
","x: 238.76332092285156
y: 324.8167724609375
z: -0.2802632451057434
visibility: 0.9698475003242493
","x: 278.3671875
y: 328.410888671875
z: -0.26517894864082336
visibility: 0.8706102967262268
","x: 241.4971466064453
y: 320.97357177734375
z: -0.2906656265258789
visibility: 0.9689068794250488
","x: 278.716796875
y: 323.6404724121094
z: -0.21663978695869446
visibility: 0.8371632695198059
","x: 240.91061401367188
y: 318.06500244140625
z: -0.24726319313049316
visibility: 0.953342616558075
","x: 271.08135986328125
y: 369.8275451660156
z: 0.005333423614501953
visibility: 0.9986801147460938
","x: 246.62576293945312
y: 365.0015869140625
z: -0.005384347401559353
visibility: 0.9985655546188354
","x: 267.3919677734375
y: 458.28509521484375
z: 0.0087137995287776
visibility: 0.8997581005096436
","x: 240.9469451904297
y: 458.367431640625
z: -0.010882226750254631
visibility: 0.9784912467002869
","x: 265.9906005859375
y: 541.1852416992188
z: 0.12343726307153702
visibility: 0.9502912759780884
","x: 232.14990234375
y: 534.5360717773438
z: 0.11258454620838165
visibility: 0.9773702621459961
","x: 261.48297119140625
y: 552.6585693359375
z: 0.1263396143913269
visibility: 0.8815202116966248
","x: 234.91387939453125
y: 545.157958984375
z: 0.11884287744760513
visibility: 0.8529595732688904
","x: 272.84844970703125
y: 561.1737670898438
z: -0.005056452471762896
visibility: 0.9553372263908386
","x: 226.4122314453125
y: 557.9441528320312
z: -0.010979143902659416
visibility: 0.9730261564254761
",,,,,,,,,,,,,,,,,,,,,,,,,,,,,,,,,,,,,,,,,,
5,"x: 256.46173095703125
y: 210.87368774414062
z: -0.23456506431102753
visibility: 0.9999380111694336
","x: 259.17523193359375
y: 204.18734741210938
z: -0.22556790709495544
visibility: 0.9998558163642883
","x: 260.9397888183594
y: 204.47328186035156
z: -0.22561275959014893
visibility: 0.9998166561126709
","x: 262.38720703125
y: 204.73968505859375
z: -0.22563712298870087
visibility: 0.9998177886009216
","x: 254.4893035888672
y: 203.45933532714844
z: -0.20099928975105286
visibility: 0.9998894333839417
","x: 252.68434143066406
y: 203.3224639892578
z: -0.2009192258119583
visibility: 0.9998842477798462
","x: 250.75830078125
y: 203.2064208984375
z: -0.20066991448402405
visibility: 0.9998774528503418
","x: 265.61212158203125
y: 209.7825927734375
z: -0.1201455146074295
visibility: 0.9993006587028503
","x: 248.57122802734375
y: 207.48838806152344
z: -0.11595988273620605
visibility: 0.9998188614845276
","x: 258.59942626953125
y: 220.09738159179688
z: -0.2057480365037918
visibility: 0.9995936155319214
","x: 252.74420166015625
y: 219.35537719726562
z: -0.16825997829437256
visibility: 0.9997515678405762
","x: 276.3137512207031
y: 258.4627685546875
z: -0.06530386954545975
visibility: 0.9996457099914551
","x: 235.88116455078125
y: 252.78704833984375
z: -0.02011851966381073
visibility: 0.9997629523277283
","x: 286.78582763671875
y: 310.0646667480469
z: -0.10445988178253174
visibility: 0.774202823638916
","x: 223.23609924316406
y: 306.0348205566406
z: -0.06518280506134033
visibility: 0.9799265265464783
","x: 267.5486755371094
y: 326.3919372558594
z: -0.26635274291038513
visibility: 0.9177085757255554
","x: 226.5468292236328
y: 316.931884765625
z: -0.2809738516807556
visibility: 0.9732524156570435
","x: 262.5760498046875
y: 336.8695373535156
z: -0.3097796142101288
visibility: 0.8641213774681091
","x: 228.03912353515625
y: 324.0592041015625
z: -0.32522276043891907
visibility: 0.9529373049736023
","x: 260.9405822753906
y: 331.2947998046875
z: -0.32135209441185
visibility: 0.879214346408844
","x: 230.45359802246094
y: 320.0745849609375
z: -0.33892208337783813
visibility: 0.9519162774085999
","x: 261.98699951171875
y: 327.1676330566406
z: -0.27292555570602417
visibility: 0.8468570113182068
","x: 231.00819396972656
y: 318.5637512207031
z: -0.29102829098701477
visibility: 0.9339698553085327
","x: 263.81451416015625
y: 369.8537902832031
z: -0.011143355630338192
visibility: 0.9987758994102478
","x: 238.91952514648438
y: 365.58233642578125
z: 0.011092769913375378
visibility: 0.9986699819564819
","x: 264.0206604003906
y: 458.3896484375
z: 0.00355355441570282
visibility: 0.9091137647628784
","x: 235.3699493408203
y: 457.44647216796875
z: 0.018827708438038826
visibility: 0.9799790978431702
","x: 265.9534912109375
y: 540.9998779296875
z: 0.1236763745546341
visibility: 0.9547429084777832
","x: 231.25088500976562
y: 537.1260986328125
z: 0.14775407314300537
visibility: 0.9791874885559082
","x: 261.619384765625
y: 552.345458984375
z: 0.12676064670085907
visibility: 0.8861632943153381
","x: 234.50938415527344
y: 549.9540405273438
z: 0.15101413428783417
visibility: 0.8611664772033691
","x: 273.0677185058594
y: 562.0127563476562
z: -0.0050942786037921906
visibility: 0.9588707089424133
","x: 222.7401580810547
y: 557.8931274414062
z: 0.01734382100403309
visibility: 0.9748154878616333
",,,,,,,,,,,,,,,,,,,,,,,,,,,,,,,,,,,,,,,,,,
6,"x: 247.73646545410156
y: 209.61709594726562
z: -0.2471380978822708
visibility: 0.9999439120292664
","x: 250.72598266601562
y: 203.34033203125
z: -0.23448629677295685
visibility: 0.9998697638511658
","x: 252.33140563964844
y: 203.7552490234375
z: -0.234562948346138
visibility: 0.999834418296814
","x: 253.69883728027344
y: 204.19741821289062
z: -0.23459689319133759
visibility: 0.9998354315757751
","x: 245.6278076171875
y: 202.60987854003906
z: -0.20817072689533234
visibility: 0.9998998045921326
","x: 243.6605682373047
y: 202.58935546875
z: -0.20801320672035217
visibility: 0.9998948574066162
","x: 241.95327758789062
y: 202.59173583984375
z: -0.20753487944602966
visibility: 0.9998885989189148
","x: 256.5630798339844
y: 209.77206420898438
z: -0.12298966944217682
visibility: 0.9993700385093689
","x: 240.17286682128906
y: 207.33981323242188
z: -0.11252863705158234
visibility: 0.9998340606689453
","x: 250.22286987304688
y: 219.29156494140625
z: -0.20991654694080353
visibility: 0.9996339082717896
","x: 243.93807983398438
y: 218.52781677246094
z: -0.1743977963924408
visibility: 0.9997757077217102
","x: 267.29400634765625
y: 258.1925048828125
z: -0.07195650041103363
visibility: 0.999679684638977
","x: 228.79153442382812
y: 253.27066040039062
z: 0.004645705223083496
visibility: 0.9997730851173401
","x: 277.0189514160156
y: 316.0979919433594
z: -0.1461814045906067
visibility: 0.7964911460876465
","x: 221.20510864257812
y: 308.7287292480469
z: -0.05558212473988533
visibility: 0.9689647555351257
","x: 261.1377258300781
y: 319.1827087402344
z: -0.3460032045841217
visibility: 0.925617516040802
","x: 211.01242065429688
y: 305.0787353515625
z: -0.3141994774341583
visibility: 0.9734609723091125
","x: 256.1038818359375
y: 319.3982238769531
z: -0.3928757607936859
visibility: 0.8766931891441345
","x: 206.02015686035156
y: 303.14654541015625
z: -0.359992116689682
visibility: 0.9541034698486328
","x: 255.6595001220703
y: 310.252197265625
z: -0.3973925709724426
visibility: 0.8902722001075745
","x: 205.71295166015625
y: 298.0154724121094
z: -0.37564900517463684
visibility: 0.9532856941223145
","x: 256.77862548828125
y: 309.096923828125
z: -0.3503207266330719
visibility: 0.8604287505149841
","x: 207.69329833984375
y: 298.91619873046875
z: -0.32703539729118347
visibility: 0.9358518123626709
","x: 256.4141845703125
y: 369.1277770996094
z: -0.021446218714118004
visibility: 0.9988535642623901
","x: 232.68829345703125
y: 365.97760009765625
z: 0.02138880267739296
visibility: 0.9987560510635376
","x: 259.8876037597656
y: 459.0296630859375
z: -0.0020870291627943516
visibility: 0.9175669550895691
","x: 230.44972229003906
y: 457.0677490234375
z: 0.02850748971104622
visibility: 0.98128342628479
","x: 266.0020446777344
y: 540.7940063476562
z: 0.12424764782190323
visibility: 0.9587138891220093
","x: 230.5640411376953
y: 536.365478515625
z: 0.16709598898887634
visibility: 0.9808126091957092
","x: 261.7391662597656
y: 551.86474609375
z: 0.12814131379127502
visibility: 0.8919758796691895
","x: 234.5913848876953
y: 548.8773803710938
z: 0.17195618152618408
visibility: 0.8707252740859985
","x: 273.2012939453125
y: 561.9904174804688
z: 0.0006327625014819205
visibility: 0.9621621370315552
","x: 222.8188018798828
y: 557.745361328125
z: 0.050545834004879
visibility: 0.976503849029541
",,,,,,,,,,,,,,,,,,,,,,,,,,,,,,,,,,,,,,,,,,
7,"x: 241.98663330078125
y: 209.23345947265625
z: -0.21972393989562988
visibility: 0.9999493360519409
","x: 244.79815673828125
y: 203.08226013183594
z: -0.20340844988822937
visibility: 0.9998824596405029
","x: 246.30923461914062
y: 203.51600646972656
z: -0.2034788876771927
visibility: 0.9998505711555481
","x: 247.98895263671875
y: 204.02000427246094
z: -0.20350494980812073
visibility: 0.9998514652252197
","x: 240.0139617919922
y: 202.26568603515625
z: -0.1964024156332016
visibility: 0.9999094009399414
","x: 237.95989990234375
y: 202.1931610107422
z: -0.19637855887413025
visibility: 0.9999048113822937
","x: 235.80517578125
y: 202.165771484375
z: -0.19624243676662445
visibility: 0.99989914894104
","x: 250.51199340820312
y: 209.7401123046875
z: -0.09582005441188812
visibility: 0.9994325637817383
","x: 233.6595916748047
y: 207.19082641601562
z: -0.07698903977870941
visibility: 0.9998492002487183
","x: 243.95033264160156
y: 219.03955078125
z: -0.17956995964050293
visibility: 0.9996702671051025
","x: 238.00869750976562
y: 218.1844482421875
z: -0.170749232172966
visibility: 0.9997977614402771
","x: 259.41925048828125
y: 257.4620361328125
z: -0.04518828168511391
visibility: 0.9997086524963379
","x: 221.50196838378906
y: 253.67153930664062
z: 0.034511931240558624
visibility: 0.9997882843017578
","x: 268.99285888671875
y: 317.3693542480469
z: -0.14764992892742157
visibility: 0.8161599040031433
","x: 212.39410400390625
y: 312.75799560546875
z: -0.048467978835105896
visibility: 0.9649838209152222
","x: 255.75125122070312
y: 293.6971740722656
z: -0.35365620255470276
visibility: 0.9324284791946411
","x: 203.496826171875
y: 286.47381591796875
z: -0.31884321570396423
visibility: 0.9751576781272888
","x: 253.27294921875
y: 284.1104736328125
z: -0.3993474841117859
visibility: 0.8873664736747742
","x: 198.3055419921875
y: 274.432861328125
z: -0.36558836698532104
visibility: 0.9571084976196289
","x: 253.7021484375
y: 278.2633056640625
z: -0.398716539144516
visibility: 0.8995197415351868
","x: 198.54428100585938
y: 268.5923156738281
z: -0.377450168132782
visibility: 0.956376314163208
","x: 253.36578369140625
y: 280.23681640625
z: -0.35694384574890137
visibility: 0.8715782165527344
","x: 201.2316131591797
y: 272.72711181640625
z: -0.33075258135795593
visibility: 0.9400160908699036
","x: 251.59835815429688
y: 367.08544921875
z: -0.02411508746445179
visibility: 0.9989333152770996
","x: 228.35169982910156
y: 365.49908447265625
z: 0.024038776755332947
visibility: 0.9988483190536499
","x: 255.14073181152344
y: 459.1988830566406
z: -0.005551634356379509
visibility: 0.9254318475723267
","x: 228.56822204589844
y: 456.60528564453125
z: 0.03318817913532257
visibility: 0.9826131463050842
","x: 265.6509094238281
y: 538.617919921875
z: 0.13995462656021118
visibility: 0.9624378681182861
","x: 230.3094024658203
y: 536.7969360351562
z: 0.18385262787342072
visibility: 0.9823906421661377
","x: 262.5127868652344
y: 547.4024047851562
z: 0.145578071475029
visibility: 0.8962516784667969
","x: 233.91796875
y: 549.0028076171875
z: 0.1905956119298935
visibility: 0.8794429302215576
","x: 272.53125
y: 561.963623046875
z: 0.020652245730161667
visibility: 0.965329647064209
","x: 223.68301391601562
y: 557.8194580078125
z: 0.06904099881649017
visibility: 0.9782219529151917
","x: 201.65164184570312
y: 276.59503173828125
z: 0.0
","x: 202.9878387451172
y: 270.0677185058594
z: -0.002003510482609272
","x: 202.7157440185547
y: 263.3246765136719
z: -0.002992876572534442
","x: 201.32754516601562
y: 259.63751220703125
z: -0.004329341929405928
","x: 199.6943359375
y: 258.0980224609375
z: -0.005500121042132378
","x: 196.9170379638672
y: 257.5142517089844
z: 0.001089087687432766
","x: 194.8879852294922
y: 251.73269653320312
z: -0.0005684096249751747
","x: 193.59486389160156
y: 248.18447875976562
z: -0.0020045009441673756
","x: 192.42794799804688
y: 245.0501251220703
z: -0.0028570308350026608
","x: 195.11070251464844
y: 259.86669921875
z: 0.0002540885761845857
","x: 192.6337432861328
y: 254.61993408203125
z: -0.0007989609730429947
","x: 191.42770385742188
y: 251.0703887939453
z: -0.0016412325203418732
","x: 190.44691467285156
y: 247.88206481933594
z: -0.0022436147555708885
","x: 193.917236328125
y: 263.0337829589844
z: -0.0012766177533194423
","x: 191.3848114013672
y: 258.4488220214844
z: -0.0029049001168459654
","x: 190.28565979003906
y: 255.15438842773438
z: -0.0035597074311226606
","x: 189.59011840820312
y: 252.26173400878906
z: -0.003843942889943719
","x: 193.2139434814453
y: 266.9371032714844
z: -0.0032770615071058273
","x: 190.93814086914062
y: 263.2956848144531
z: -0.00460844999179244
","x: 189.9696044921875
y: 260.5730895996094
z: -0.004914259538054466
","x: 189.4635772705078
y: 258.0030822753906
z: -0.004991293419152498
",,,,,,,,,,,,,,,,,,,,,
8,"x: 241.98663330078125
y: 209.23345947265625
z: -0.21972393989562988
visibility: 0.9999493360519409
","x: 244.79815673828125
y: 203.08226013183594
z: -0.20340844988822937
visibility: 0.9998824596405029
","x: 246.30923461914062
y: 203.51600646972656
z: -0.2034788876771927
visibility: 0.9998505711555481
","x: 247.98895263671875
y: 204.02000427246094
z: -0.20350494980812073
visibility: 0.9998514652252197
","x: 240.0139617919922
y: 202.26568603515625
z: -0.1964024156332016
visibility: 0.9999094009399414
","x: 237.95989990234375
y: 202.1931610107422
z: -0.19637855887413025
visibility: 0.9999048113822937
","x: 235.80517578125
y: 202.165771484375
z: -0.19624243676662445
visibility: 0.99989914894104
","x: 250.51199340820312
y: 209.7401123046875
z: -0.09582005441188812
visibility: 0.9994325637817383
","x: 233.6595916748047
y: 207.19082641601562
z: -0.07698903977870941
visibility: 0.9998492002487183
","x: 243.95033264160156
y: 219.03955078125
z: -0.17956995964050293
visibility: 0.9996702671051025
","x: 238.00869750976562
y: 218.1844482421875
z: -0.170749232172966
visibility: 0.9997977614402771
","x: 259.41925048828125
y: 257.4620361328125
z: -0.04518828168511391
visibility: 0.9997086524963379
","x: 221.50196838378906
y: 253.67153930664062
z: 0.034511931240558624
visibility: 0.9997882843017578
","x: 268.99285888671875
y: 317.3693542480469
z: -0.14764992892742157
visibility: 0.8161599040031433
","x: 212.39410400390625
y: 312.75799560546875
z: -0.048467978835105896
visibility: 0.9649838209152222
","x: 255.75125122070312
y: 293.6971740722656
z: -0.35365620255470276
visibility: 0.9324284791946411
","x: 203.496826171875
y: 286.47381591796875
z: -0.31884321570396423
visibility: 0.9751576781272888
","x: 253.27294921875
y: 284.1104736328125
z: -0.3993474841117859
visibility: 0.8873664736747742
","x: 198.3055419921875
y: 274.432861328125
z: -0.36558836698532104
visibility: 0.9571084976196289
","x: 253.7021484375
y: 278.2633056640625
z: -0.398716539144516
visibility: 0.8995197415351868
","x: 198.54428100585938
y: 268.5923156738281
z: -0.377450168132782
visibility: 0.956376314163208
","x: 253.36578369140625
y: 280.23681640625
z: -0.35694384574890137
visibility: 0.8715782165527344
","x: 201.2316131591797
y: 272.72711181640625
z: -0.33075258135795593
visibility: 0.9400160908699036
","x: 251.59835815429688
y: 367.08544921875
z: -0.02411508746445179
visibility: 0.9989333152770996
","x: 228.35169982910156
y: 365.49908447265625
z: 0.024038776755332947
visibility: 0.9988483190536499
","x: 255.14073181152344
y: 459.1988830566406
z: -0.005551634356379509
visibility: 0.9254318475723267
","x: 228.56822204589844
y: 456.60528564453125
z: 0.03318817913532257
visibility: 0.9826131463050842
","x: 265.6509094238281
y: 538.617919921875
z: 0.13995462656021118
visibility: 0.9624378681182861
","x: 230.3094024658203
y: 536.7969360351562
z: 0.18385262787342072
visibility: 0.9823906421661377
","x: 262.5127868652344
y: 547.4024047851562
z: 0.145578071475029
visibility: 0.8962516784667969
","x: 233.91796875
y: 549.0028076171875
z: 0.1905956119298935
visibility: 0.8794429302215576
","x: 272.53125
y: 561.963623046875
z: 0.020652245730161667
visibility: 0.965329647064209
","x: 223.68301391601562
y: 557.8194580078125
z: 0.06904099881649017
visibility: 0.9782219529151917
","x: 201.65164184570312
y: 276.59503173828125
z: 0.0
","x: 202.9878387451172
y: 270.0677185058594
z: -0.002003510482609272
","x: 202.7157440185547
y: 263.3246765136719
z: -0.002992876572534442
","x: 201.32754516601562
y: 259.63751220703125
z: -0.004329341929405928
","x: 199.6943359375
y: 258.0980224609375
z: -0.005500121042132378
","x: 196.9170379638672
y: 257.5142517089844
z: 0.001089087687432766
","x: 194.8879852294922
y: 251.73269653320312
z: -0.0005684096249751747
","x: 193.59486389160156
y: 248.18447875976562
z: -0.0020045009441673756
","x: 192.42794799804688
y: 245.0501251220703
z: -0.0028570308350026608
","x: 195.11070251464844
y: 259.86669921875
z: 0.0002540885761845857
","x: 192.6337432861328
y: 254.61993408203125
z: -0.0007989609730429947
","x: 191.42770385742188
y: 251.0703887939453
z: -0.0016412325203418732
","x: 190.44691467285156
y: 247.88206481933594
z: -0.0022436147555708885
","x: 193.917236328125
y: 263.0337829589844
z: -0.0012766177533194423
","x: 191.3848114013672
y: 258.4488220214844
z: -0.0029049001168459654
","x: 190.28565979003906
y: 255.15438842773438
z: -0.0035597074311226606
","x: 189.59011840820312
y: 252.26173400878906
z: -0.003843942889943719
","x: 193.2139434814453
y: 266.9371032714844
z: -0.0032770615071058273
","x: 190.93814086914062
y: 263.2956848144531
z: -0.00460844999179244
","x: 189.9696044921875
y: 260.5730895996094
z: -0.004914259538054466
","x: 189.4635772705078
y: 258.0030822753906
z: -0.004991293419152498
",,,,,,,,,,,,,,,,,,,,,
9,"x: 237.54629516601562
y: 208.56234741210938
z: -0.23969538509845734
visibility: 0.9999536275863647
","x: 240.35653686523438
y: 202.59286499023438
z: -0.2279135286808014
visibility: 0.9998927712440491
","x: 242.1411895751953
y: 202.9765625
z: -0.22796964645385742
visibility: 0.9998639225959778
","x: 244.01492309570312
y: 203.4626007080078
z: -0.22799177467823029
visibility: 0.999864399433136
","x: 235.88943481445312
y: 201.6754150390625
z: -0.2091175615787506
visibility: 0.9999167919158936
","x: 234.3861083984375
y: 201.4781951904297
z: -0.20913735032081604
visibility: 0.999912440776825
","x: 232.5006866455078
y: 201.27529907226562
z: -0.20908072590827942
visibility: 0.9999073147773743
","x: 247.3047637939453
y: 209.19406127929688
z: -0.12463021278381348
visibility: 0.9994868040084839
","x: 229.7716522216797
y: 206.30943298339844
z: -0.09847568720579147
visibility: 0.9998599290847778
","x: 239.24954223632812
y: 218.68614196777344
z: -0.2024114429950714
visibility: 0.999701976776123
","x: 234.24737548828125
y: 217.78192138671875
z: -0.17234662175178528
visibility: 0.9998165369033813
","x: 256.2215881347656
y: 254.71560668945312
z: -0.0772637277841568
visibility: 0.9997197985649109
","x: 217.23561096191406
y: 253.7166748046875
z: 0.009057869203388691
visibility: 0.9997947216033936
","x: 264.6451721191406
y: 317.1634216308594
z: -0.22138333320617676
visibility: 0.8334617018699646
","x: 203.36990356445312
y: 312.64044189453125
z: -0.09088839590549469
visibility: 0.9649864435195923
","x: 255.92929077148438
y: 269.570068359375
z: -0.4536532759666443
visibility: 0.9381125569343567
","x: 197.3309326171875
y: 266.6094665527344
z: -0.35832923650741577
visibility: 0.9770060181617737
","x: 255.77110290527344
y: 255.54991149902344
z: -0.5001580119132996
visibility: 0.8959639072418213
","x: 194.1217041015625
y: 252.0934295654297
z: -0.404553085565567
visibility: 0.9600560665130615
","x: 255.72879028320312
y: 250.67628479003906
z: -0.4912666380405426
visibility: 0.9066875576972961
","x: 195.34378051757812
y: 246.53985595703125
z: -0.4089590609073639
visibility: 0.9593440294265747
","x: 254.55796813964844
y: 255.14352416992188
z: -0.45464077591896057
visibility: 0.8797881007194519
","x: 197.15548706054688
y: 250.96029663085938
z: -0.36824390292167664
visibility: 0.9439757466316223
","x: 247.36849975585938
y: 367.11285400390625
z: -0.034687262028455734
visibility: 0.9989511966705322
","x: 224.05148315429688
y: 365.6723327636719
z: 0.034524042159318924
visibility: 0.9988955855369568
","x: 251.0343017578125
y: 459.1883544921875
z: -0.012597148306667805
visibility: 0.9323537349700928
","x: 227.3583526611328
y: 456.61480712890625
z: 0.055325768887996674
visibility: 0.9833697080612183
","x: 262.8945617675781
y: 536.7973022460938
z: 0.1344621628522873
visibility: 0.9657020568847656
","x: 230.18838500976562
y: 536.9807739257812
z: 0.2059146910905838
visibility: 0.9835665225982666
","x: 261.18621826171875
y: 545.0988159179688
z: 0.1408323049545288
visibility: 0.8976714611053467
","x: 233.92593383789062
y: 549.100830078125
z: 0.21368026733398438
visibility: 0.8868992328643799
","x: 266.1992492675781
y: 560.6468505859375
z: 0.0107091860845685
visibility: 0.9680598378181458
","x: 223.13458251953125
y: 558.2506103515625
z: 0.09394287317991257
visibility: 0.9795769453048706
","x: 197.66909790039062
y: 260.96026611328125
z: 0.0
","x: 199.51724243164062
y: 254.24179077148438
z: -0.0013342894380912185
","x: 199.9488067626953
y: 247.29896545410156
z: -0.002139426302164793
","x: 199.1654510498047
y: 242.627685546875
z: -0.003548115026205778
","x: 197.35829162597656
y: 241.0487518310547
z: -0.00473495339974761
","x: 195.2378692626953
y: 241.18150329589844
z: 0.00159347802400589
","x: 193.9313201904297
y: 234.32522583007812
z: -0.0002387555141467601
","x: 193.37149047851562
y: 230.67115783691406
z: -0.0018167487578466535
","x: 192.9706268310547
y: 228.39105224609375
z: -0.0027360180392861366
","x: 193.26515197753906
y: 242.85968017578125
z: 0.00037691579200327396
","x: 191.07933044433594
y: 235.7091064453125
z: -0.0017643560422584414
","x: 191.66644287109375
y: 233.96559143066406
z: -0.002970030065625906
","x: 192.69285583496094
y: 234.4502410888672
z: -0.0032221172004938126
","x: 191.6743621826172
y: 245.27899169921875
z: -0.0014411049196496606
","x: 189.40658569335938
y: 239.19090270996094
z: -0.003338317619636655
","x: 190.03123474121094
y: 238.02322387695312
z: -0.0036135984119027853
","x: 191.09617614746094
y: 238.92738342285156
z: -0.0032755392603576183
","x: 190.48069763183594
y: 248.71383666992188
z: -0.0037308759056031704
","x: 188.3915252685547
y: 244.37315368652344
z: -0.004983903374522924
","x: 188.51612854003906
y: 242.8579864501953
z: -0.00504293804988265
","x: 189.2168426513672
y: 242.8388671875
z: -0.0046953074634075165
",,,,,,,,,,,,,,,,,,,,,
10,"x: 237.54629516601562
y: 208.56234741210938
z: -0.23969538509845734
visibility: 0.9999536275863647
","x: 240.35653686523438
y: 202.59286499023438
z: -0.2279135286808014
visibility: 0.9998927712440491
","x: 242.1411895751953
y: 202.9765625
z: -0.22796964645385742
visibility: 0.9998639225959778
","x: 244.01492309570312
y: 203.4626007080078
z: -0.22799177467823029
visibility: 0.999864399433136
","x: 235.88943481445312
y: 201.6754150390625
z: -0.2091175615787506
visibility: 0.9999167919158936
","x: 234.3861083984375
y: 201.4781951904297
z: -0.20913735032081604
visibility: 0.999912440776825
","x: 232.5006866455078
y: 201.27529907226562
z: -0.20908072590827942
visibility: 0.9999073147773743
","x: 247.3047637939453
y: 209.19406127929688
z: -0.12463021278381348
visibility: 0.9994868040084839
","x: 229.7716522216797
y: 206.30943298339844
z: -0.09847568720579147
visibility: 0.9998599290847778
","x: 239.24954223632812
y: 218.68614196777344
z: -0.2024114429950714
visibility: 0.999701976776123
","x: 234.24737548828125
y: 217.78192138671875
z: -0.17234662175178528
visibility: 0.9998165369033813
","x: 256.2215881347656
y: 254.71560668945312
z: -0.0772637277841568
visibility: 0.9997197985649109
","x: 217.23561096191406
y: 253.7166748046875
z: 0.009057869203388691
visibility: 0.9997947216033936
","x: 264.6451721191406
y: 317.1634216308594
z: -0.22138333320617676
visibility: 0.8334617018699646
","x: 203.36990356445312
y: 312.64044189453125
z: -0.09088839590549469
visibility: 0.9649864435195923
","x: 255.92929077148438
y: 269.570068359375
z: -0.4536532759666443
visibility: 0.9381125569343567
","x: 197.3309326171875
y: 266.6094665527344
z: -0.35832923650741577
visibility: 0.9770060181617737
","x: 255.77110290527344
y: 255.54991149902344
z: -0.5001580119132996
visibility: 0.8959639072418213
","x: 194.1217041015625
y: 252.0934295654297
z: -0.404553085565567
visibility: 0.9600560665130615
","x: 255.72879028320312
y: 250.67628479003906
z: -0.4912666380405426
visibility: 0.9066875576972961
","x: 195.34378051757812
y: 246.53985595703125
z: -0.4089590609073639
visibility: 0.9593440294265747
","x: 254.55796813964844
y: 255.14352416992188
z: -0.45464077591896057
visibility: 0.8797881007194519
","x: 197.15548706054688
y: 250.96029663085938
z: -0.36824390292167664
visibility: 0.9439757466316223
","x: 247.36849975585938
y: 367.11285400390625
z: -0.034687262028455734
visibility: 0.9989511966705322
","x: 224.05148315429688
y: 365.6723327636719
z: 0.034524042159318924
visibility: 0.9988955855369568
","x: 251.0343017578125
y: 459.1883544921875
z: -0.012597148306667805
visibility: 0.9323537349700928
","x: 227.3583526611328
y: 456.61480712890625
z: 0.055325768887996674
visibility: 0.9833697080612183
","x: 262.8945617675781
y: 536.7973022460938
z: 0.1344621628522873
visibility: 0.9657020568847656
","x: 230.18838500976562
y: 536.9807739257812
z: 0.2059146910905838
visibility: 0.9835665225982666
","x: 261.18621826171875
y: 545.0988159179688
z: 0.1408323049545288
visibility: 0.8976714611053467
","x: 233.92593383789062
y: 549.100830078125
z: 0.21368026733398438
visibility: 0.8868992328643799
","x: 266.1992492675781
y: 560.6468505859375
z: 0.0107091860845685
visibility: 0.9680598378181458
","x: 223.13458251953125
y: 558.2506103515625
z: 0.09394287317991257
visibility: 0.9795769453048706
","x: 197.66909790039062
y: 260.96026611328125
z: 0.0
","x: 199.51724243164062
y: 254.24179077148438
z: -0.0013342894380912185
","x: 199.9488067626953
y: 247.29896545410156
z: -0.002139426302164793
","x: 199.1654510498047
y: 242.627685546875
z: -0.003548115026205778
","x: 197.35829162597656
y: 241.0487518310547
z: -0.00473495339974761
","x: 195.2378692626953
y: 241.18150329589844
z: 0.00159347802400589
","x: 193.9313201904297
y: 234.32522583007812
z: -0.0002387555141467601
","x: 193.37149047851562
y: 230.67115783691406
z: -0.0018167487578466535
","x: 192.9706268310547
y: 228.39105224609375
z: -0.0027360180392861366
","x: 193.26515197753906
y: 242.85968017578125
z: 0.00037691579200327396
","x: 191.07933044433594
y: 235.7091064453125
z: -0.0017643560422584414
","x: 191.66644287109375
y: 233.96559143066406
z: -0.002970030065625906
","x: 192.69285583496094
y: 234.4502410888672
z: -0.0032221172004938126
","x: 191.6743621826172
y: 245.27899169921875
z: -0.0014411049196496606
","x: 189.40658569335938
y: 239.19090270996094
z: -0.003338317619636655
","x: 190.03123474121094
y: 238.02322387695312
z: -0.0036135984119027853
","x: 191.09617614746094
y: 238.92738342285156
z: -0.0032755392603576183
","x: 190.48069763183594
y: 248.71383666992188
z: -0.0037308759056031704
","x: 188.3915252685547
y: 244.37315368652344
z: -0.004983903374522924
","x: 188.51612854003906
y: 242.8579864501953
z: -0.00504293804988265
","x: 189.2168426513672
y: 242.8388671875
z: -0.0046953074634075165
",,,,,,,,,,,,,,,,,,,,,
11,"x: 235.1068115234375
y: 208.58670043945312
z: -0.1990305334329605
visibility: 0.9999576807022095
","x: 238.32420349121094
y: 202.6106414794922
z: -0.18375316262245178
visibility: 0.9999024271965027
","x: 240.27377319335938
y: 202.98577880859375
z: -0.18380126357078552
visibility: 0.9998761415481567
","x: 242.1823272705078
y: 203.45541381835938
z: -0.1838407814502716
visibility: 0.9998764395713806
","x: 233.56289672851562
y: 201.70657348632812
z: -0.17669056355953217
visibility: 0.999923825263977
","x: 231.9257049560547
y: 201.5022430419922
z: -0.1766897439956665
visibility: 0.9999194741249084
","x: 230.14785766601562
y: 201.28195190429688
z: -0.17663410305976868
visibility: 0.9999149441719055
","x: 245.17962646484375
y: 209.1893310546875
z: -0.07915177196264267
visibility: 0.9995362162590027
","x: 227.40554809570312
y: 206.2882080078125
z: -0.05337168648838997
visibility: 0.9998708963394165
","x: 237.38270568847656
y: 218.70042419433594
z: -0.15948717296123505
visibility: 0.9997308850288391
","x: 232.02122497558594
y: 217.74513244628906
z: -0.15047481656074524
visibility: 0.9998340010643005
","x: 253.93795776367188
y: 254.37725830078125
z: -0.06284235417842865
visibility: 0.999738335609436
","x: 214.4537811279297
y: 254.50218200683594
z: 0.04354408010840416
visibility: 0.9998049736022949
","x: 264.0450439453125
y: 316.7183532714844
z: -0.15837444365024567
visibility: 0.8492916822433472
","x: 200.87457275390625
y: 312.6119689941406
z: -0.05637062340974808
visibility: 0.9640281200408936
","x: 252.8773193359375
y: 263.9279479980469
z: -0.3662843704223633
visibility: 0.9435378909111023
","x: 196.59461975097656
y: 263.208984375
z: -0.31337183713912964
visibility: 0.9781885743141174
","x: 251.9625701904297
y: 249.44593811035156
z: -0.40994834899902344
visibility: 0.904133141040802
","x: 195.00323486328125
y: 250.0357208251953
z: -0.35875052213668823
visibility: 0.9616478681564331
","x: 251.8983612060547
y: 243.9681854248047
z: -0.3984294533729553
visibility: 0.913550853729248
","x: 196.39996337890625
y: 244.6562042236328
z: -0.35806548595428467
visibility: 0.9608585834503174
","x: 250.94049072265625
y: 249.20269775390625
z: -0.36581212282180786
visibility: 0.8878880739212036
","x: 197.5458526611328
y: 248.89132690429688
z: -0.3205576539039612
visibility: 0.9460451006889343
","x: 244.6230926513672
y: 367.0249938964844
z: -0.021823303773999214
visibility: 0.9990231990814209
","x: 220.75405883789062
y: 365.7206726074219
z: 0.02170739509165287
visibility: 0.9989693760871887
","x: 247.3719940185547
y: 459.1973876953125
z: -0.005482302978634834
visibility: 0.9382902383804321
","x: 226.430419921875
y: 456.83935546875
z: 0.03415745496749878
visibility: 0.9837774634361267
","x: 258.5599060058594
y: 536.3822021484375
z: 0.1495266854763031
visibility: 0.9681460857391357
","x: 229.40028381347656
y: 536.5806274414062
z: 0.20015516877174377
visibility: 0.9843471050262451
","x: 256.6195068359375
y: 544.8378295898438
z: 0.1618957370519638
visibility: 0.8979578614234924
","x: 233.52322387695312
y: 548.4436645507812
z: 0.2103518545627594
visibility: 0.890300452709198
","x: 265.3543701171875
y: 560.5919189453125
z: 0.03737249970436096
visibility: 0.9698354005813599
","x: 224.1408233642578
y: 558.6046142578125
z: 0.09034303575754166
visibility: 0.9802364706993103
","x: 197.34405517578125
y: 261.262451171875
z: 0.0
","x: 199.62710571289062
y: 254.83558654785156
z: -0.0009238076163455844
","x: 200.72100830078125
y: 248.30279541015625
z: -0.00218534586019814
","x: 200.96661376953125
y: 243.35873413085938
z: -0.004219855647534132
","x: 200.7374267578125
y: 239.30209350585938
z: -0.006115611642599106
","x: 196.41983032226562
y: 241.867919921875
z: 0.0005543381557799876
","x: 195.6156768798828
y: 234.8329315185547
z: -0.002013670513406396
","x: 195.61648559570312
y: 231.72726440429688
z: -0.003893560264259577
","x: 195.68836975097656
y: 229.78091430664062
z: -0.00494100246578455
","x: 194.5513153076172
y: 243.2583770751953
z: -0.0013134678592905402
","x: 193.1934356689453
y: 235.99688720703125
z: -0.00379319884814322
","x: 193.48220825195312
y: 232.95957946777344
z: -0.005388901103287935
","x: 193.955810546875
y: 231.46070861816406
z: -0.006246315781027079
","x: 192.90859985351562
y: 245.62478637695312
z: -0.003727616975083947
","x: 191.35850524902344
y: 239.45346069335938
z: -0.005990495905280113
","x: 191.93331909179688
y: 237.16952514648438
z: -0.006622747052460909
","x: 192.80795288085938
y: 236.47946166992188
z: -0.006811592727899551
","x: 191.4559326171875
y: 248.96583557128906
z: -0.006527209188789129
","x: 189.96905517578125
y: 244.46783447265625
z: -0.007939762435853481
","x: 190.45115661621094
y: 242.94259643554688
z: -0.0080215809866786
","x: 191.33319091796875
y: 242.7410888671875
z: -0.007934695109724998
",,,,,,,,,,,,,,,,,,,,,
12,"x: 235.1068115234375
y: 208.58670043945312
z: -0.1990305334329605
visibility: 0.9999576807022095
","x: 238.32420349121094
y: 202.6106414794922
z: -0.18375316262245178
visibility: 0.9999024271965027
","x: 240.27377319335938
y: 202.98577880859375
z: -0.18380126357078552
visibility: 0.9998761415481567
","x: 242.1823272705078
y: 203.45541381835938
z: -0.1838407814502716
visibility: 0.9998764395713806
","x: 233.56289672851562
y: 201.70657348632812
z: -0.17669056355953217
visibility: 0.999923825263977
","x: 231.9257049560547
y: 201.5022430419922
z: -0.1766897439956665
visibility: 0.9999194741249084
","x: 230.14785766601562
y: 201.28195190429688
z: -0.17663410305976868
visibility: 0.9999149441719055
","x: 245.17962646484375
y: 209.1893310546875
z: -0.07915177196264267
visibility: 0.9995362162590027
","x: 227.40554809570312
y: 206.2882080078125
z: -0.05337168648838997
visibility: 0.9998708963394165
","x: 237.38270568847656
y: 218.70042419433594
z: -0.15948717296123505
visibility: 0.9997308850288391
","x: 232.02122497558594
y: 217.74513244628906
z: -0.15047481656074524
visibility: 0.9998340010643005
","x: 253.93795776367188
y: 254.37725830078125
z: -0.06284235417842865
visibility: 0.999738335609436
","x: 214.4537811279297
y: 254.50218200683594
z: 0.04354408010840416
visibility: 0.9998049736022949
","x: 264.0450439453125
y: 316.7183532714844
z: -0.15837444365024567
visibility: 0.8492916822433472
","x: 200.87457275390625
y: 312.6119689941406
z: -0.05637062340974808
visibility: 0.9640281200408936
","x: 252.8773193359375
y: 263.9279479980469
z: -0.3662843704223633
visibility: 0.9435378909111023
","x: 196.59461975097656
y: 263.208984375
z: -0.31337183713912964
visibility: 0.9781885743141174
","x: 251.9625701904297
y: 249.44593811035156
z: -0.40994834899902344
visibility: 0.904133141040802
","x: 195.00323486328125
y: 250.0357208251953
z: -0.35875052213668823
visibility: 0.9616478681564331
","x: 251.8983612060547
y: 243.9681854248047
z: -0.3984294533729553
visibility: 0.913550853729248
","x: 196.39996337890625
y: 244.6562042236328
z: -0.35806548595428467
visibility: 0.9608585834503174
","x: 250.94049072265625
y: 249.20269775390625
z: -0.36581212282180786
visibility: 0.8878880739212036
","x: 197.5458526611328
y: 248.89132690429688
z: -0.3205576539039612
visibility: 0.9460451006889343
","x: 244.6230926513672
y: 367.0249938964844
z: -0.021823303773999214
visibility: 0.9990231990814209
","x: 220.75405883789062
y: 365.7206726074219
z: 0.02170739509165287
visibility: 0.9989693760871887
","x: 247.3719940185547
y: 459.1973876953125
z: -0.005482302978634834
visibility: 0.9382902383804321
","x: 226.430419921875
y: 456.83935546875
z: 0.03415745496749878
visibility: 0.9837774634361267
","x: 258.5599060058594
y: 536.3822021484375
z: 0.1495266854763031
visibility: 0.9681460857391357
","x: 229.40028381347656
y: 536.5806274414062
z: 0.20015516877174377
visibility: 0.9843471050262451
","x: 256.6195068359375
y: 544.8378295898438
z: 0.1618957370519638
visibility: 0.8979578614234924
","x: 233.52322387695312
y: 548.4436645507812
z: 0.2103518545627594
visibility: 0.890300452709198
","x: 265.3543701171875
y: 560.5919189453125
z: 0.03737249970436096
visibility: 0.9698354005813599
","x: 224.1408233642578
y: 558.6046142578125
z: 0.09034303575754166
visibility: 0.9802364706993103
","x: 197.34405517578125
y: 261.262451171875
z: 0.0
","x: 199.62710571289062
y: 254.83558654785156
z: -0.0009238076163455844
","x: 200.72100830078125
y: 248.30279541015625
z: -0.00218534586019814
","x: 200.96661376953125
y: 243.35873413085938
z: -0.004219855647534132
","x: 200.7374267578125
y: 239.30209350585938
z: -0.006115611642599106
","x: 196.41983032226562
y: 241.867919921875
z: 0.0005543381557799876
","x: 195.6156768798828
y: 234.8329315185547
z: -0.002013670513406396
","x: 195.61648559570312
y: 231.72726440429688
z: -0.003893560264259577
","x: 195.68836975097656
y: 229.78091430664062
z: -0.00494100246578455
","x: 194.5513153076172
y: 243.2583770751953
z: -0.0013134678592905402
","x: 193.1934356689453
y: 235.99688720703125
z: -0.00379319884814322
","x: 193.48220825195312
y: 232.95957946777344
z: -0.005388901103287935
","x: 193.955810546875
y: 231.46070861816406
z: -0.006246315781027079
","x: 192.90859985351562
y: 245.62478637695312
z: -0.003727616975083947
","x: 191.35850524902344
y: 239.45346069335938
z: -0.005990495905280113
","x: 191.93331909179688
y: 237.16952514648438
z: -0.006622747052460909
","x: 192.80795288085938
y: 236.47946166992188
z: -0.006811592727899551
","x: 191.4559326171875
y: 248.96583557128906
z: -0.006527209188789129
","x: 189.96905517578125
y: 244.46783447265625
z: -0.007939762435853481
","x: 190.45115661621094
y: 242.94259643554688
z: -0.0080215809866786
","x: 191.33319091796875
y: 242.7410888671875
z: -0.007934695109724998
",,,,,,,,,,,,,,,,,,,,,
13,"x: 232.41293334960938
y: 207.8162841796875
z: -0.21049892902374268
visibility: 0.9999616146087646
","x: 235.54934692382812
y: 202.2689666748047
z: -0.1953238546848297
visibility: 0.9999117255210876
","x: 237.56802368164062
y: 202.6300811767578
z: -0.1953584849834442
visibility: 0.9998878836631775
","x: 239.44326782226562
y: 203.10385131835938
z: -0.19536378979682922
visibility: 0.9998881220817566
","x: 230.6298370361328
y: 201.34519958496094
z: -0.19614902138710022
visibility: 0.9999309182167053
","x: 229.11166381835938
y: 201.09849548339844
z: -0.19615279138088226
visibility: 0.9999268054962158
","x: 227.24749755859375
y: 200.76052856445312
z: -0.19613951444625854
visibility: 0.9999227523803711
","x: 241.69595336914062
y: 208.99838256835938
z: -0.08444467186927795
visibility: 0.9995818734169006
","x: 224.44985961914062
y: 206.02749633789062
z: -0.0817774310708046
visibility: 0.9998824596405029
","x: 234.7687225341797
y: 218.21531677246094
z: -0.1674620807170868
visibility: 0.9997575283050537
","x: 229.07376098632812
y: 217.08587646484375
z: -0.16995719075202942
visibility: 0.9998502731323242
","x: 251.7770538330078
y: 254.4821319580078
z: -0.04092366248369217
visibility: 0.999761164188385
","x: 210.6250457763672
y: 255.97181701660156
z: 0.013243700377643108
visibility: 0.9998169541358948
","x: 264.4505920410156
y: 316.3470764160156
z: -0.1397266983985901
visibility: 0.8636674284934998
","x: 198.89584350585938
y: 314.5263977050781
z: -0.08320498466491699
visibility: 0.9637395143508911
","x: 253.64175415039062
y: 280.39501953125
z: -0.3681243062019348
visibility: 0.9483960270881653
","x: 194.4556427001953
y: 273.781494140625
z: -0.35602623224258423
visibility: 0.9792002439498901
","x: 250.39427185058594
y: 273.8171691894531
z: -0.4165000319480896
visibility: 0.9114925861358643
","x: 194.01039123535156
y: 265.20684814453125
z: -0.40789976716041565
visibility: 0.9633129835128784
","x: 248.29637145996094
y: 267.7083740234375
z: -0.41458162665367126
visibility: 0.9198749661445618
","x: 195.22789001464844
y: 259.7759094238281
z: -0.4128161072731018
visibility: 0.9625414609909058
","x: 248.26589965820312
y: 269.66204833984375
z: -0.37141892313957214
visibility: 0.8953682780265808
","x: 195.83908081054688
y: 262.5743713378906
z: -0.36543959379196167
visibility: 0.9481812119483948
","x: 245.71505737304688
y: 366.75006103515625
z: -0.01234445534646511
visibility: 0.9990925192832947
","x: 220.77908325195312
y: 366.0842590332031
z: 0.012258957140147686
visibility: 0.9990439414978027
","x: 250.63424682617188
y: 459.23321533203125
z: -0.009318457916378975
visibility: 0.9438707232475281
","x: 224.66702270507812
y: 457.8912048339844
z: 0.02937997877597809
visibility: 0.9844937920570374
","x: 258.74078369140625
y: 535.6658325195312
z: 0.17901423573493958
visibility: 0.9703227281570435
","x: 227.72610473632812
y: 536.6990356445312
z: 0.19378787279129028
visibility: 0.9851738214492798
","x: 256.4021911621094
y: 544.137451171875
z: 0.19191351532936096
visibility: 0.8983294367790222
","x: 232.96412658691406
y: 549.6422729492188
z: 0.20431391894817352
visibility: 0.8924417495727539
","x: 266.0929260253906
y: 560.45751953125
z: 0.06438769400119781
visibility: 0.9713262915611267
","x: 223.50997924804688
y: 559.3733520507812
z: 0.07636873424053192
visibility: 0.9807979464530945
",,,,,,,,,,,,,,,,,,,,,,,,,,,,,,,,,,,,,,,,,,
14,"x: 232.2086639404297
y: 207.8452911376953
z: -0.2430872917175293
visibility: 0.9999650716781616
","x: 235.32742309570312
y: 202.27346801757812
z: -0.22512581944465637
visibility: 0.9999198913574219
","x: 237.0882110595703
y: 202.64784240722656
z: -0.22515061497688293
visibility: 0.9998982548713684
","x: 238.53244018554688
y: 203.11805725097656
z: -0.2251729965209961
visibility: 0.999898374080658
","x: 230.14645385742188
y: 201.30690002441406
z: -0.22617006301879883
visibility: 0.9999372363090515
","x: 228.43556213378906
y: 201.06642150878906
z: -0.22618134319782257
visibility: 0.9999333620071411
","x: 226.67404174804688
y: 200.71368408203125
z: -0.22610394656658173
visibility: 0.9999297261238098
","x: 239.7605438232422
y: 208.9942169189453
z: -0.10413436591625214
visibility: 0.999622642993927
","x: 224.04840087890625
y: 205.9061279296875
z: -0.10860397666692734
visibility: 0.999893069267273
","x: 234.64968872070312
y: 218.11026000976562
z: -0.19713562726974487
visibility: 0.9997814297676086
","x: 228.1854248046875
y: 216.9853515625
z: -0.19939276576042175
visibility: 0.999864935874939
","x: 250.22268676757812
y: 253.0198974609375
z: -0.044384196400642395
visibility: 0.9997835159301758
","x: 210.38735961914062
y: 255.82740783691406
z: -0.00449859444051981
visibility: 0.9998311400413513
","x: 266.0705871582031
y: 312.1465759277344
z: -0.12433125078678131
visibility: 0.877012312412262
","x: 196.1908721923828
y: 310.5677490234375
z: -0.08911676704883575
visibility: 0.9657332897186279
","x: 248.9279327392578
y: 286.1014099121094
z: -0.34805864095687866
visibility: 0.9531884789466858
","x: 200.18359375
y: 295.969970703125
z: -0.3434000313282013
visibility: 0.9800990223884583
","x: 244.96432495117188
y: 301.20556640625
z: -0.4010220170021057
visibility: 0.9191929697990417
","x: 201.9582061767578
y: 299.33648681640625
z: -0.3966118097305298
visibility: 0.9645610451698303
","x: 241.21438598632812
y: 297.4525146484375
z: -0.4055413603782654
visibility: 0.9267233610153198
","x: 204.4887237548828
y: 293.31719970703125
z: -0.4080461859703064
visibility: 0.9638005495071411
","x: 241.82955932617188
y: 293.2983093261719
z: -0.35329434275627136
visibility: 0.9037891030311584
","x: 204.84690856933594
y: 292.3690185546875
z: -0.3524230122566223
visibility: 0.9496272206306458
","x: 246.76211547851562
y: 366.7332763671875
z: -0.008672590367496014
visibility: 0.999151885509491
","x: 221.81858825683594
y: 367.02996826171875
z: 0.008621260523796082
visibility: 0.9991125464439392
","x: 253.24264526367188
y: 459.0148620605469
z: -0.006202410906553268
visibility: 0.948997437953949
","x: 224.3232421875
y: 458.74761962890625
z: 0.028157856315374374
visibility: 0.9853619933128357
","x: 259.6458435058594
y: 535.87109375
z: 0.14516976475715637
visibility: 0.9725997447967529
","x: 228.24688720703125
y: 537.1631469726562
z: 0.16214579343795776
visibility: 0.986070454120636
","x: 257.0301208496094
y: 544.5399169921875
z: 0.15235818922519684
visibility: 0.9023028612136841
","x: 233.39657592773438
y: 551.0042114257812
z: 0.16801799833774567
visibility: 0.8959059715270996
","x: 266.1536560058594
y: 560.5003662109375
z: 0.021741481497883797
visibility: 0.973042905330658
","x: 224.1392822265625
y: 559.7119750976562
z: 0.03680867329239845
visibility: 0.9814700484275818
","x: 199.2352294921875
y: 289.07989501953125
z: 0.0
","x: 203.4856414794922
y: 289.17779541015625
z: 0.0002396030176896602
","x: 207.13819885253906
y: 292.7535705566406
z: -0.0011361389188095927
","x: 209.3131103515625
y: 297.2474060058594
z: -0.002724192338064313
","x: 210.530517578125
y: 300.93804931640625
z: -0.004292819648981094
","x: 207.1345672607422
y: 294.8197937011719
z: -0.00448038661852479
","x: 209.32765197753906
y: 301.0666198730469
z: -0.0068442970514297485
","x: 210.58445739746094
y: 305.077392578125
z: -0.007695753592997789
","x: 211.44277954101562
y: 307.93572998046875
z: -0.008081809617578983
","x: 205.19992065429688
y: 297.0665283203125
z: -0.005994634702801704
","x: 207.21469116210938
y: 303.79217529296875
z: -0.00857948325574398
","x: 208.29953002929688
y: 307.91876220703125
z: -0.008565728552639484
","x: 209.07550048828125
y: 310.7457275390625
z: -0.008523655124008656
","x: 203.0459442138672
y: 299.1678161621094
z: -0.0072349607944488525
","x: 205.02618408203125
y: 305.644287109375
z: -0.009372581727802753
","x: 206.1930694580078
y: 309.3980712890625
z: -0.008587433025240898
","x: 206.99160766601562
y: 311.6869201660156
z: -0.008032350800931454
","x: 200.95802307128906
y: 300.7598876953125
z: -0.008453864604234695
","x: 202.5773468017578
y: 306.3258056640625
z: -0.010093122720718384
","x: 203.48558044433594
y: 309.0316162109375
z: -0.009639757685363293
","x: 204.235595703125
y: 310.6123046875
z: -0.009179937653243542
",,,,,,,,,,,,,,,,,,,,,
15,"x: 232.2086639404297
y: 207.8452911376953
z: -0.2430872917175293
visibility: 0.9999650716781616
","x: 235.32742309570312
y: 202.27346801757812
z: -0.22512581944465637
visibility: 0.9999198913574219
","x: 237.0882110595703
y: 202.64784240722656
z: -0.22515061497688293
visibility: 0.9998982548713684
","x: 238.53244018554688
y: 203.11805725097656
z: -0.2251729965209961
visibility: 0.999898374080658
","x: 230.14645385742188
y: 201.30690002441406
z: -0.22617006301879883
visibility: 0.9999372363090515
","x: 228.43556213378906
y: 201.06642150878906
z: -0.22618134319782257
visibility: 0.9999333620071411
","x: 226.67404174804688
y: 200.71368408203125
z: -0.22610394656658173
visibility: 0.9999297261238098
","x: 239.7605438232422
y: 208.9942169189453
z: -0.10413436591625214
visibility: 0.999622642993927
","x: 224.04840087890625
y: 205.9061279296875
z: -0.10860397666692734
visibility: 0.999893069267273
","x: 234.64968872070312
y: 218.11026000976562
z: -0.19713562726974487
visibility: 0.9997814297676086
","x: 228.1854248046875
y: 216.9853515625
z: -0.19939276576042175
visibility: 0.999864935874939
","x: 250.22268676757812
y: 253.0198974609375
z: -0.044384196400642395
visibility: 0.9997835159301758
","x: 210.38735961914062
y: 255.82740783691406
z: -0.00449859444051981
visibility: 0.9998311400413513
","x: 266.0705871582031
y: 312.1465759277344
z: -0.12433125078678131
visibility: 0.877012312412262
","x: 196.1908721923828
y: 310.5677490234375
z: -0.08911676704883575
visibility: 0.9657332897186279
","x: 248.9279327392578
y: 286.1014099121094
z: -0.34805864095687866
visibility: 0.9531884789466858
","x: 200.18359375
y: 295.969970703125
z: -0.3434000313282013
visibility: 0.9800990223884583
","x: 244.96432495117188
y: 301.20556640625
z: -0.4010220170021057
visibility: 0.9191929697990417
","x: 201.9582061767578
y: 299.33648681640625
z: -0.3966118097305298
visibility: 0.9645610451698303
","x: 241.21438598632812
y: 297.4525146484375
z: -0.4055413603782654
visibility: 0.9267233610153198
","x: 204.4887237548828
y: 293.31719970703125
z: -0.4080461859703064
visibility: 0.9638005495071411
","x: 241.82955932617188
y: 293.2983093261719
z: -0.35329434275627136
visibility: 0.9037891030311584
","x: 204.84690856933594
y: 292.3690185546875
z: -0.3524230122566223
visibility: 0.9496272206306458
","x: 246.76211547851562
y: 366.7332763671875
z: -0.008672590367496014
visibility: 0.999151885509491
","x: 221.81858825683594
y: 367.02996826171875
z: 0.008621260523796082
visibility: 0.9991125464439392
","x: 253.24264526367188
y: 459.0148620605469
z: -0.006202410906553268
visibility: 0.948997437953949
","x: 224.3232421875
y: 458.74761962890625
z: 0.028157856315374374
visibility: 0.9853619933128357
","x: 259.6458435058594
y: 535.87109375
z: 0.14516976475715637
visibility: 0.9725997447967529
","x: 228.24688720703125
y: 537.1631469726562
z: 0.16214579343795776
visibility: 0.986070454120636
","x: 257.0301208496094
y: 544.5399169921875
z: 0.15235818922519684
visibility: 0.9023028612136841
","x: 233.39657592773438
y: 551.0042114257812
z: 0.16801799833774567
visibility: 0.8959059715270996
","x: 266.1536560058594
y: 560.5003662109375
z: 0.021741481497883797
visibility: 0.973042905330658
","x: 224.1392822265625
y: 559.7119750976562
z: 0.03680867329239845
visibility: 0.9814700484275818
","x: 199.2352294921875
y: 289.07989501953125
z: 0.0
","x: 203.4856414794922
y: 289.17779541015625
z: 0.0002396030176896602
","x: 207.13819885253906
y: 292.7535705566406
z: -0.0011361389188095927
","x: 209.3131103515625
y: 297.2474060058594
z: -0.002724192338064313
","x: 210.530517578125
y: 300.93804931640625
z: -0.004292819648981094
","x: 207.1345672607422
y: 294.8197937011719
z: -0.00448038661852479
","x: 209.32765197753906
y: 301.0666198730469
z: -0.0068442970514297485
","x: 210.58445739746094
y: 305.077392578125
z: -0.007695753592997789
","x: 211.44277954101562
y: 307.93572998046875
z: -0.008081809617578983
","x: 205.19992065429688
y: 297.0665283203125
z: -0.005994634702801704
","x: 207.21469116210938
y: 303.79217529296875
z: -0.00857948325574398
","x: 208.29953002929688
y: 307.91876220703125
z: -0.008565728552639484
","x: 209.07550048828125
y: 310.7457275390625
z: -0.008523655124008656
","x: 203.0459442138672
y: 299.1678161621094
z: -0.0072349607944488525
","x: 205.02618408203125
y: 305.644287109375
z: -0.009372581727802753
","x: 206.1930694580078
y: 309.3980712890625
z: -0.008587433025240898
","x: 206.99160766601562
y: 311.6869201660156
z: -0.008032350800931454
","x: 200.95802307128906
y: 300.7598876953125
z: -0.008453864604234695
","x: 202.5773468017578
y: 306.3258056640625
z: -0.010093122720718384
","x: 203.48558044433594
y: 309.0316162109375
z: -0.009639757685363293
","x: 204.235595703125
y: 310.6123046875
z: -0.009179937653243542
",,,,,,,,,,,,,,,,,,,,,
16,"x: 234.14573669433594
y: 207.5308380126953
z: -0.26734593510627747
visibility: 0.9999662041664124
","x: 236.068603515625
y: 202.03125
z: -0.24662427604198456
visibility: 0.9999241232872009
","x: 237.27622985839844
y: 202.38272094726562
z: -0.24665021896362305
visibility: 0.9999037384986877
","x: 238.6764678955078
y: 202.8146209716797
z: -0.2466798722743988
visibility: 0.9999035596847534
","x: 231.6931915283203
y: 201.14361572265625
z: -0.25053566694259644
visibility: 0.9999402761459351
","x: 229.91371154785156
y: 200.96311950683594
z: -0.2505606412887573
visibility: 0.9999364614486694
","x: 227.9856719970703
y: 200.69805908203125
z: -0.2505154013633728
visibility: 0.9999333620071411
","x: 239.89512634277344
y: 208.3859405517578
z: -0.11836210638284683
visibility: 0.999652624130249
","x: 224.47695922851562
y: 205.91749572753906
z: -0.13668248057365417
visibility: 0.9998989701271057
","x: 236.32992553710938
y: 217.4698028564453
z: -0.21910548210144043
visibility: 0.9998010396957397
","x: 230.33148193359375
y: 216.72354125976562
z: -0.224690243601799
visibility: 0.9998767375946045
","x: 251.42503356933594
y: 251.88397216796875
z: -0.046835266053676605
visibility: 0.9997993111610413
","x: 211.6114501953125
y: 256.251708984375
z: -0.04629899561405182
visibility: 0.999834418296814
","x: 267.53533935546875
y: 308.5152587890625
z: -0.11585382372140884
visibility: 0.8882769346237183
","x: 197.79904174804688
y: 310.9549865722656
z: -0.12133320420980453
visibility: 0.9671101570129395
","x: 247.6243438720703
y: 303.27227783203125
z: -0.3276178240776062
visibility: 0.9554718732833862
","x: 207.3217010498047
y: 305.61810302734375
z: -0.34005555510520935
visibility: 0.9777029156684875
","x: 242.6046142578125
y: 316.3662109375
z: -0.3782743513584137
visibility: 0.9208659529685974
","x: 209.96484375
y: 310.00238037109375
z: -0.3884332776069641
visibility: 0.9589612483978271
","x: 239.5983428955078
y: 313.55841064453125
z: -0.38151615858078003
visibility: 0.927621603012085
","x: 213.9647674560547
y: 306.3875427246094
z: -0.3957318961620331
visibility: 0.9577818512916565
","x: 240.61431884765625
y: 308.9892883300781
z: -0.3326571583747864
visibility: 0.903362512588501
","x: 211.6408233642578
y: 304.4067077636719
z: -0.3461841344833374
visibility: 0.9408426880836487
","x: 249.3105926513672
y: 366.7828063964844
z: -0.0073533011600375175
visibility: 0.9991832375526428
","x: 224.49179077148438
y: 369.12890625
z: 0.007349034305661917
visibility: 0.9991461038589478
","x: 255.97955322265625
y: 458.39044189453125
z: -0.000768128433264792
visibility: 0.9533676505088806
","x: 225.2330322265625
y: 458.7374572753906
z: 0.022197572514414787
visibility: 0.9856516122817993
","x: 262.1129455566406
y: 536.2459106445312
z: 0.14181245863437653
visibility: 0.9744666814804077
","x: 228.2630615234375
y: 536.9898681640625
z: 0.16067036986351013
visibility: 0.9862918257713318
","x: 259.2383728027344
y: 545.8369750976562
z: 0.14734326303005219
visibility: 0.9032706618309021
","x: 232.3862762451172
y: 550.8304443359375
z: 0.1669464111328125
visibility: 0.8918130993843079
","x: 268.9364013671875
y: 560.7555541992188
z: 0.010856343433260918
visibility: 0.974055290222168
","x: 224.4467010498047
y: 559.6135864257812
z: 0.034747421741485596
visibility: 0.9811293482780457
",,,,,,,,,,,,,,,,,,,,,,"x: 242.80657958984375
y: 309.889404296875
z: 0.0
","x: 238.7017822265625
y: 314.64788818359375
z: 0.0018544003833085299
","x: 235.7763214111328
y: 322.1864318847656
z: 0.0008148445631377399
","x: 234.27255249023438
y: 328.26519775390625
z: -0.0009185646777041256
","x: 233.5673828125
y: 332.71905517578125
z: -0.002501707524061203
","x: 235.0868682861328
y: 323.8965148925781
z: -0.004431223031133413
","x: 233.22935485839844
y: 334.9710693359375
z: -0.007407615426927805
","x: 233.24586486816406
y: 336.986083984375
z: -0.007496103644371033
","x: 233.29507446289062
y: 336.52874755859375
z: -0.007108835503458977
","x: 237.45895385742188
y: 324.242431640625
z: -0.007368854712694883
","x: 235.7528839111328
y: 336.7454528808594
z: -0.01033809781074524
","x: 235.60031127929688
y: 337.6415710449219
z: -0.00919902604073286
","x: 235.67886352539062
y: 335.6964416503906
z: -0.00791874248534441
","x: 240.32537841796875
y: 323.9224548339844
z: -0.010078022256493568
","x: 238.81301879882812
y: 335.01373291015625
z: -0.012318316847085953
","x: 238.67034912109375
y: 335.8475341796875
z: -0.010387392714619637
","x: 238.83303833007812
y: 334.3868408203125
z: -0.008885566145181656
","x: 243.3983154296875
y: 323.17938232421875
z: -0.012713346630334854
","x: 242.5883331298828
y: 331.0644836425781
z: -0.014437302015721798
","x: 242.54742431640625
y: 332.2099304199219
z: -0.01341169886291027
","x: 242.8902587890625
y: 331.5309143066406
z: -0.012350204400718212
"
17,"x: 234.14573669433594
y: 207.5308380126953
z: -0.26734593510627747
visibility: 0.9999662041664124
","x: 236.068603515625
y: 202.03125
z: -0.24662427604198456
visibility: 0.9999241232872009
","x: 237.27622985839844
y: 202.38272094726562
z: -0.24665021896362305
visibility: 0.9999037384986877
","x: 238.6764678955078
y: 202.8146209716797
z: -0.2466798722743988
visibility: 0.9999035596847534
","x: 231.6931915283203
y: 201.14361572265625
z: -0.25053566694259644
visibility: 0.9999402761459351
","x: 229.91371154785156
y: 200.96311950683594
z: -0.2505606412887573
visibility: 0.9999364614486694
","x: 227.9856719970703
y: 200.69805908203125
z: -0.2505154013633728
visibility: 0.9999333620071411
","x: 239.89512634277344
y: 208.3859405517578
z: -0.11836210638284683
visibility: 0.999652624130249
","x: 224.47695922851562
y: 205.91749572753906
z: -0.13668248057365417
visibility: 0.9998989701271057
","x: 236.32992553710938
y: 217.4698028564453
z: -0.21910548210144043
visibility: 0.9998010396957397
","x: 230.33148193359375
y: 216.72354125976562
z: -0.224690243601799
visibility: 0.9998767375946045
","x: 251.42503356933594
y: 251.88397216796875
z: -0.046835266053676605
visibility: 0.9997993111610413
","x: 211.6114501953125
y: 256.251708984375
z: -0.04629899561405182
visibility: 0.999834418296814
","x: 267.53533935546875
y: 308.5152587890625
z: -0.11585382372140884
visibility: 0.8882769346237183
","x: 197.79904174804688
y: 310.9549865722656
z: -0.12133320420980453
visibility: 0.9671101570129395
","x: 247.6243438720703
y: 303.27227783203125
z: -0.3276178240776062
visibility: 0.9554718732833862
","x: 207.3217010498047
y: 305.61810302734375
z: -0.34005555510520935
visibility: 0.9777029156684875
","x: 242.6046142578125
y: 316.3662109375
z: -0.3782743513584137
visibility: 0.9208659529685974
","x: 209.96484375
y: 310.00238037109375
z: -0.3884332776069641
visibility: 0.9589612483978271
","x: 239.5983428955078
y: 313.55841064453125
z: -0.38151615858078003
visibility: 0.927621603012085
","x: 213.9647674560547
y: 306.3875427246094
z: -0.3957318961620331
visibility: 0.9577818512916565
","x: 240.61431884765625
y: 308.9892883300781
z: -0.3326571583747864
visibility: 0.903362512588501
","x: 211.6408233642578
y: 304.4067077636719
z: -0.3461841344833374
visibility: 0.9408426880836487
","x: 249.3105926513672
y: 366.7828063964844
z: -0.0073533011600375175
visibility: 0.9991832375526428
","x: 224.49179077148438
y: 369.12890625
z: 0.007349034305661917
visibility: 0.9991461038589478
","x: 255.97955322265625
y: 458.39044189453125
z: -0.000768128433264792
visibility: 0.9533676505088806
","x: 225.2330322265625
y: 458.7374572753906
z: 0.022197572514414787
visibility: 0.9856516122817993
","x: 262.1129455566406
y: 536.2459106445312
z: 0.14181245863437653
visibility: 0.9744666814804077
","x: 228.2630615234375
y: 536.9898681640625
z: 0.16067036986351013
visibility: 0.9862918257713318
","x: 259.2383728027344
y: 545.8369750976562
z: 0.14734326303005219
visibility: 0.9032706618309021
","x: 232.3862762451172
y: 550.8304443359375
z: 0.1669464111328125
visibility: 0.8918130993843079
","x: 268.9364013671875
y: 560.7555541992188
z: 0.010856343433260918
visibility: 0.974055290222168
","x: 224.4467010498047
y: 559.6135864257812
z: 0.034747421741485596
visibility: 0.9811293482780457
",,,,,,,,,,,,,,,,,,,,,,"x: 242.80657958984375
y: 309.889404296875
z: 0.0
","x: 238.7017822265625
y: 314.64788818359375
z: 0.0018544003833085299
","x: 235.7763214111328
y: 322.1864318847656
z: 0.0008148445631377399
","x: 234.27255249023438
y: 328.26519775390625
z: -0.0009185646777041256
","x: 233.5673828125
y: 332.71905517578125
z: -0.002501707524061203
","x: 235.0868682861328
y: 323.8965148925781
z: -0.004431223031133413
","x: 233.22935485839844
y: 334.9710693359375
z: -0.007407615426927805
","x: 233.24586486816406
y: 336.986083984375
z: -0.007496103644371033
","x: 233.29507446289062
y: 336.52874755859375
z: -0.007108835503458977
","x: 237.45895385742188
y: 324.242431640625
z: -0.007368854712694883
","x: 235.7528839111328
y: 336.7454528808594
z: -0.01033809781074524
","x: 235.60031127929688
y: 337.6415710449219
z: -0.00919902604073286
","x: 235.67886352539062
y: 335.6964416503906
z: -0.00791874248534441
","x: 240.32537841796875
y: 323.9224548339844
z: -0.010078022256493568
","x: 238.81301879882812
y: 335.01373291015625
z: -0.012318316847085953
","x: 238.67034912109375
y: 335.8475341796875
z: -0.010387392714619637
","x: 238.83303833007812
y: 334.3868408203125
z: -0.008885566145181656
","x: 243.3983154296875
y: 323.17938232421875
z: -0.012713346630334854
","x: 242.5883331298828
y: 331.0644836425781
z: -0.014437302015721798
","x: 242.54742431640625
y: 332.2099304199219
z: -0.01341169886291027
","x: 242.8902587890625
y: 331.5309143066406
z: -0.012350204400718212
"
18,"x: 236.5719451904297
y: 205.57862854003906
z: -0.27305513620376587
visibility: 0.9999671578407288
","x: 238.16958618164062
y: 199.485107421875
z: -0.2509232759475708
visibility: 0.9999278783798218
","x: 239.44155883789062
y: 199.57244873046875
z: -0.2509332299232483
visibility: 0.9999085068702698
","x: 240.88702392578125
y: 199.71458435058594
z: -0.25093957781791687
visibility: 0.9999077916145325
","x: 233.71339416503906
y: 199.55743408203125
z: -0.25455838441848755
visibility: 0.9999432563781738
","x: 231.82601928710938
y: 199.76905822753906
z: -0.25459054112434387
visibility: 0.9999397397041321
","x: 229.90101623535156
y: 199.9408721923828
z: -0.2545637786388397
visibility: 0.9999372959136963
","x: 242.5538330078125
y: 205.0944366455078
z: -0.11846166849136353
visibility: 0.9996757507324219
","x: 226.3746337890625
y: 205.6980743408203
z: -0.13548682630062103
visibility: 0.9999056458473206
","x: 239.0155487060547
y: 214.94100952148438
z: -0.22352716326713562
visibility: 0.9998180866241455
","x: 233.560302734375
y: 215.4983367919922
z: -0.22853699326515198
visibility: 0.9998876452445984
","x: 254.81512451171875
y: 250.29676818847656
z: -0.04061447083950043
visibility: 0.999809205532074
","x: 215.31495666503906
y: 255.40521240234375
z: -0.05528518557548523
visibility: 0.9998401999473572
","x: 268.7644348144531
y: 304.8953552246094
z: -0.11249065399169922
visibility: 0.8983505964279175
","x: 200.07952880859375
y: 310.86383056640625
z: -0.13184300065040588
visibility: 0.9697473049163818
","x: 250.317626953125
y: 304.9979553222656
z: -0.3294803500175476
visibility: 0.9577440619468689
","x: 221.6617889404297
y: 304.86273193359375
z: -0.32256457209587097
visibility: 0.977876603603363
","x: 245.51467895507812
y: 313.033935546875
z: -0.3814546465873718
visibility: 0.9226489067077637
","x: 229.249267578125
y: 309.5072021484375
z: -0.36787664890289307
visibility: 0.9571669101715088
","x: 242.8389892578125
y: 309.0584716796875
z: -0.38274478912353516
visibility: 0.9286822080612183
","x: 233.1040496826172
y: 305.5843811035156
z: -0.36745360493659973
visibility: 0.9555656313896179
","x: 243.52603149414062
y: 306.23541259765625
z: -0.3340841233730316
visibility: 0.9031110405921936
","x: 230.9688262939453
y: 303.62298583984375
z: -0.3238679766654968
visibility: 0.936738908290863
","x: 249.79551696777344
y: 366.2031555175781
z: 0.003949370235204697
visibility: 0.9992160201072693
","x: 226.7822265625
y: 368.3111877441406
z: -0.003978298045694828
visibility: 0.9991872310638428
","x: 259.265380859375
y: 456.70208740234375
z: 0.013649801723659039
visibility: 0.9572795033454895
","x: 227.76470947265625
y: 457.0397644042969
z: 0.006293102167546749
visibility: 0.9862784743309021
","x: 264.0567321777344
y: 536.3477783203125
z: 0.15637947618961334
visibility: 0.9763667583465576
","x: 228.5198211669922
y: 536.9324340820312
z: 0.1554602086544037
visibility: 0.9868225455284119
","x: 261.5165100097656
y: 546.5938110351562
z: 0.16152921319007874
visibility: 0.9053356647491455
","x: 232.0532989501953
y: 550.2440795898438
z: 0.1622825413942337
visibility: 0.8875522017478943
","x: 270.1528625488281
y: 560.8121337890625
z: 0.02061489224433899
visibility: 0.975346565246582
","x: 224.75018310546875
y: 559.5389404296875
z: 0.021642666310071945
visibility: 0.9814398884773254
",,,,,,,,,,,,,,,,,,,,,,,,,,,,,,,,,,,,,,,,,,
19,"x: 238.84605407714844
y: 205.47802734375
z: -0.27736014127731323
visibility: 0.9999696016311646
","x: 240.9132080078125
y: 199.34628295898438
z: -0.2560439109802246
visibility: 0.9999338984489441
","x: 242.2698211669922
y: 199.26007080078125
z: -0.2560526728630066
visibility: 0.9999162554740906
","x: 243.71546936035156
y: 199.21730041503906
z: -0.2560489773750305
visibility: 0.9999154806137085
","x: 236.43264770507812
y: 199.65219116210938
z: -0.2600094676017761
visibility: 0.999947726726532
","x: 234.62608337402344
y: 199.8625030517578
z: -0.2600453495979309
visibility: 0.9999445080757141
","x: 232.73037719726562
y: 200.3414764404297
z: -0.26001179218292236
visibility: 0.9999423623085022
","x: 245.33627319335938
y: 204.5885009765625
z: -0.1241118460893631
visibility: 0.9997051954269409
","x: 229.30242919921875
y: 207.1289825439453
z: -0.14239975810050964
visibility: 0.9999130964279175
","x: 239.7730255126953
y: 214.95166015625
z: -0.2281099110841751
visibility: 0.9998353123664856
","x: 234.0319366455078
y: 215.57095336914062
z: -0.23335149884223938
visibility: 0.9998980760574341
","x: 260.80072021484375
y: 250.34226989746094
z: -0.03824704885482788
visibility: 0.9998236298561096
","x: 216.54571533203125
y: 257.18426513671875
z: -0.059093259274959564
visibility: 0.9998456239700317
","x: 274.24737548828125
y: 305.7611083984375
z: -0.11822561919689178
visibility: 0.9077322483062744
","x: 210.2068328857422
y: 316.28680419921875
z: -0.14035017788410187
visibility: 0.9716758728027344
","x: 255.70249938964844
y: 304.4574890136719
z: -0.3704363703727722
visibility: 0.9611619710922241
","x: 228.96002197265625
y: 304.2288513183594
z: -0.3610588312149048
visibility: 0.9788349866867065
","x: 246.76397705078125
y: 311.9172058105469
z: -0.42539387941360474
visibility: 0.9279735088348389
","x: 234.2027587890625
y: 303.56195068359375
z: -0.40972861647605896
visibility: 0.9581892490386963
","x: 244.06820678710938
y: 304.6078796386719
z: -0.4289870262145996
visibility: 0.9334619641304016
","x: 234.67282104492188
y: 300.3015441894531
z: -0.4114813208580017
visibility: 0.9564913511276245
","x: 245.42599487304688
y: 303.1213073730469
z: -0.37665021419525146
visibility: 0.9086281657218933
","x: 233.84544372558594
y: 298.68798828125
z: -0.36401572823524475
visibility: 0.93720942735672
","x: 257.2767333984375
y: 365.9795837402344
z: 0.008594873361289501
visibility: 0.9992479085922241
","x: 233.15972900390625
y: 367.8494873046875
z: -0.008654621429741383
visibility: 0.9992241859436035
","x: 262.3399963378906
y: 456.7457580566406
z: 0.017078936100006104
visibility: 0.9607247710227966
","x: 230.42625427246094
y: 457.0540771484375
z: -0.0030277727637439966
visibility: 0.9868522882461548
","x: 265.1899719238281
y: 537.62158203125
z: 0.1629195660352707
visibility: 0.9780641198158264
","x: 228.70826721191406
y: 536.8248291015625
z: 0.15134577453136444
visibility: 0.9873755574226379
","x: 262.1719665527344
y: 548.826904296875
z: 0.16817069053649902
visibility: 0.9076412916183472
","x: 231.63194274902344
y: 550.0220947265625
z: 0.15814363956451416
visibility: 0.8846752643585205
","x: 272.2312316894531
y: 561.2630615234375
z: 0.024321299046278
visibility: 0.9766058921813965
","x: 224.13525390625
y: 559.4841918945312
z: 0.013423053547739983
visibility: 0.9819198846817017
",,,,,,,,,,,,,,,,,,,,,,,,,,,,,,,,,,,,,,,,,,
20,"x: 248.64569091796875
y: 206.69813537597656
z: -0.15730398893356323
visibility: 0.9999716281890869
","x: 249.2521514892578
y: 199.83299255371094
z: -0.13419762253761292
visibility: 0.9999394416809082
","x: 250.64749145507812
y: 199.56329345703125
z: -0.13422200083732605
visibility: 0.9999233484268188
","x: 251.70135498046875
y: 199.34495544433594
z: -0.13420560956001282
visibility: 0.9999225735664368
","x: 244.54298400878906
y: 201.05746459960938
z: -0.13879002630710602
visibility: 0.9999514222145081
","x: 242.64505004882812
y: 201.8668212890625
z: -0.13879463076591492
visibility: 0.999948263168335
","x: 241.0017852783203
y: 202.8970947265625
z: -0.13875015079975128
visibility: 0.9999464154243469
","x: 253.1319580078125
y: 204.74295043945312
z: -0.00574484234675765
visibility: 0.9997318387031555
","x: 238.73043823242188
y: 209.15443420410156
z: -0.027108673006296158
visibility: 0.9999194741249084
","x: 251.44308471679688
y: 215.46205139160156
z: -0.11016698181629181
visibility: 0.999850869178772
","x: 245.57461547851562
y: 216.67471313476562
z: -0.1161036267876625
visibility: 0.999907374382019
","x: 269.93536376953125
y: 252.8068389892578
z: 0.07151317596435547
visibility: 0.9998387694358826
","x: 229.20098876953125
y: 258.5902099609375
z: 0.03384406864643097
visibility: 0.9998536109924316
","x: 280.02740478515625
y: 313.68365478515625
z: -0.02392110601067543
visibility: 0.9148520827293396
","x: 225.10494995117188
y: 322.44219970703125
z: -0.04030928760766983
visibility: 0.9722545146942139
","x: 272.0126953125
y: 301.81951904296875
z: -0.27693286538124084
visibility: 0.9640222191810608
","x: 234.68360900878906
y: 302.64990234375
z: -0.23718678951263428
visibility: 0.9796262979507446
","x: 269.32037353515625
y: 296.39044189453125
z: -0.3288685381412506
visibility: 0.9328231811523438
","x: 237.74612426757812
y: 298.4624328613281
z: -0.2802189290523529
visibility: 0.9593087434768677
","x: 268.4943542480469
y: 287.7013244628906
z: -0.32963645458221436
visibility: 0.9377943873405457
","x: 237.61111450195312
y: 292.1741027832031
z: -0.28463464975357056
visibility: 0.9576019644737244
","x: 268.1016845703125
y: 288.89581298828125
z: -0.2836133539676666
visibility: 0.9140298962593079
","x: 237.47134399414062
y: 293.6378173828125
z: -0.2420041263103485
visibility: 0.9384894967079163
","x: 265.517333984375
y: 365.9537353515625
z: 0.01882777363061905
visibility: 0.9993011355400085
","x: 241.1580810546875
y: 367.5472717285156
z: -0.018841950222849846
visibility: 0.999264121055603
","x: 267.57403564453125
y: 458.957763671875
z: -0.0055996207520365715
visibility: 0.9637300372123718
","x: 238.49388122558594
y: 459.29083251953125
z: -0.047372736036777496
visibility: 0.9874054789543152
","x: 266.27142333984375
y: 538.8182983398438
z: 0.1615191102027893
visibility: 0.9795657992362976
","x: 230.16494750976562
y: 536.7232055664062
z: 0.12153023481369019
visibility: 0.9877946376800537
","x: 263.1402893066406
y: 551.0884399414062
z: 0.1678163707256317
visibility: 0.9098537564277649
","x: 231.9001007080078
y: 548.3331909179688
z: 0.13023456931114197
visibility: 0.8813673257827759
","x: 273.148681640625
y: 562.341552734375
z: 0.02623915672302246
visibility: 0.9776182174682617
","x: 226.1736297607422
y: 559.4556274414062
z: -0.010055983439087868
visibility: 0.982351541519165
",,,,,,,,,,,,,,,,,,,,,,,,,,,,,,,,,,,,,,,,,,
21,"x: 258.3147277832031
y: 207.9900360107422
z: -0.15983814001083374
visibility: 0.9999737739562988
","x: 258.85174560546875
y: 200.5281982421875
z: -0.1396944224834442
visibility: 0.9999446272850037
","x: 260.1317138671875
y: 200.0932159423828
z: -0.13973046839237213
visibility: 0.9999300241470337
","x: 261.5720520019531
y: 199.6507568359375
z: -0.13971543312072754
visibility: 0.9999293088912964
","x: 254.1776885986328
y: 202.26742553710938
z: -0.14199426770210266
visibility: 0.9999549388885498
","x: 252.2165069580078
y: 203.27655029296875
z: -0.141999751329422
visibility: 0.9999517798423767
","x: 250.3966064453125
y: 204.30874633789062
z: -0.141971617937088
visibility: 0.9999500513076782
","x: 263.1983947753906
y: 204.7828826904297
z: -0.02119557373225689
visibility: 0.9997563362121582
","x: 247.6617889404297
y: 209.926025390625
z: -0.0326400026679039
visibility: 0.9999246001243591
","x: 261.2853698730469
y: 216.00955200195312
z: -0.11596562713384628
visibility: 0.9998648762702942
","x: 255.45458984375
y: 217.5701141357422
z: -0.11909262090921402
visibility: 0.999915361404419
","x: 279.5641174316406
y: 253.90982055664062
z: 0.04789753258228302
visibility: 0.9998529553413391
","x: 239.2345428466797
y: 258.7329406738281
z: 0.02687240019440651
visibility: 0.9998568892478943
","x: 288.11492919921875
y: 318.5325012207031
z: -0.053823284804821014
visibility: 0.9221287369728088
","x: 235.06011962890625
y: 325.90478515625
z: -0.0699952021241188
visibility: 0.972676694393158
","x: 284.8270263671875
y: 286.10260009765625
z: -0.2853549122810364
visibility: 0.9673678874969482
","x: 239.67918395996094
y: 289.7439270019531
z: -0.2889552414417267
visibility: 0.9809452891349792
","x: 285.38006591796875
y: 275.64739990234375
z: -0.3313630223274231
visibility: 0.9388766884803772
","x: 239.90830993652344
y: 278.613037109375
z: -0.3322364389896393
visibility: 0.9616842865943909
","x: 285.1468811035156
y: 269.302490234375
z: -0.3303554654121399
visibility: 0.9433420896530151
","x: 239.2713165283203
y: 272.20172119140625
z: -0.3340517282485962
visibility: 0.9600232839584351
","x: 283.86859130859375
y: 272.8973693847656
z: -0.2904113829135895
visibility: 0.9214863777160645
","x: 240.0660858154297
y: 275.30303955078125
z: -0.2937883138656616
visibility: 0.9418720006942749
","x: 273.5346374511719
y: 367.5362854003906
z: 0.016112830489873886
visibility: 0.9993553757667542
","x: 249.28173828125
y: 367.67218017578125
z: -0.01615038886666298
visibility: 0.9993060231208801
","x: 270.998046875
y: 461.2989501953125
z: -0.008310908451676369
visibility: 0.9659909605979919
","x: 244.61883544921875
y: 460.43218994140625
z: -0.04226117953658104
visibility: 0.9873526096343994
","x: 267.3767395019531
y: 539.55224609375
z: 0.15291695296764374
visibility: 0.9798523187637329
","x: 231.50978088378906
y: 535.0731201171875
z: 0.125570148229599
visibility: 0.9856272339820862
","x: 263.196044921875
y: 551.7979736328125
z: 0.16140881180763245
visibility: 0.9039607644081116
","x: 232.130615234375
y: 543.407958984375
z: 0.14760719239711761
visibility: 0.8632595539093018
","x: 273.3378601074219
y: 562.402099609375
z: 0.031526923179626465
visibility: 0.9771400690078735
","x: 227.60105895996094
y: 559.359619140625
z: 0.04366419091820717
visibility: 0.9801511764526367
","x: 242.31985473632812
y: 281.5960998535156
z: 0.0
","x: 244.4927520751953
y: 275.55340576171875
z: -0.0015695194015279412
","x: 245.69509887695312
y: 269.46234130859375
z: -0.002634777221828699
","x: 246.0640869140625
y: 265.11773681640625
z: -0.004051509778946638
","x: 245.59786987304688
y: 262.14154052734375
z: -0.005424289032816887
","x: 240.49307250976562
y: 263.873046875
z: -0.0006200330681167543
","x: 239.29779052734375
y: 257.6095886230469
z: -0.0029279817827045918
","x: 238.8402099609375
y: 253.39486694335938
z: -0.004712330177426338
","x: 238.7278289794922
y: 249.70736694335938
z: -0.00589558994397521
","x: 238.59811401367188
y: 265.646728515625
z: -0.0018727312562987208
","x: 237.09939575195312
y: 259.83978271484375
z: -0.003906320780515671
","x: 236.6823272705078
y: 255.71829223632812
z: -0.005230837967246771
","x: 236.71246337890625
y: 252.11376953125
z: -0.006247173063457012
","x: 237.2060089111328
y: 268.5037841796875
z: -0.00361849507316947
","x: 235.5867919921875
y: 263.5057373046875
z: -0.005979006644338369
","x: 235.0606231689453
y: 259.9364013671875
z: -0.0071595278568565845
","x: 235.1346893310547
y: 256.8222961425781
z: -0.007898419164121151
","x: 236.23696899414062
y: 272.33551025390625
z: -0.00570274842903018
","x: 234.49432373046875
y: 268.9203186035156
z: -0.007674328051507473
","x: 233.89723205566406
y: 266.4366760253906
z: -0.008436192758381367
","x: 233.92031860351562
y: 264.2327880859375
z: -0.008898812346160412
","x: 282.7070007324219
y: 283.1777648925781
z: 0.0
","x: 280.9345397949219
y: 276.77105712890625
z: -0.0009510575328022242
","x: 279.9587707519531
y: 270.294677734375
z: -0.0026373418513685465
","x: 279.7103271484375
y: 266.1416931152344
z: -0.00493663689121604
","x: 280.2267150878906
y: 263.398193359375
z: -0.007239964324980974
","x: 284.9573669433594
y: 265.39849853515625
z: -0.0021170678082853556
","x: 286.5342712402344
y: 259.00189208984375
z: -0.00535557372495532
","x: 287.0089111328125
y: 256.154052734375
z: -0.00734443124383688
","x: 287.2297058105469
y: 254.0376434326172
z: -0.008635719306766987
","x: 286.97979736328125
y: 267.55621337890625
z: -0.004482325632125139
","x: 289.0812683105469
y: 261.37603759765625
z: -0.007565246429294348
","x: 290.06201171875
y: 257.7774353027344
z: -0.009158874861896038
","x: 290.81591796875
y: 254.6637725830078
z: -0.010515641421079636
","x: 288.3840637207031
y: 271.0240173339844
z: -0.007216110359877348
","x: 290.8152160644531
y: 266.1527099609375
z: -0.010754342190921307
","x: 292.1147766113281
y: 262.9458923339844
z: -0.012249714694917202
","x: 293.18505859375
y: 260.36907958984375
z: -0.013244595378637314
","x: 289.1688232421875
y: 275.53350830078125
z: -0.010162027552723885
","x: 291.6556396484375
y: 274.0835876464844
z: -0.013136892579495907
","x: 293.3294982910156
y: 273.402587890625
z: -0.014089209027588367
","x: 294.7464294433594
y: 272.91845703125
z: -0.014713958837091923
"
22,"x: 258.3147277832031
y: 207.9900360107422
z: -0.15983814001083374
visibility: 0.9999737739562988
","x: 258.85174560546875
y: 200.5281982421875
z: -0.1396944224834442
visibility: 0.9999446272850037
","x: 260.1317138671875
y: 200.0932159423828
z: -0.13973046839237213
visibility: 0.9999300241470337
","x: 261.5720520019531
y: 199.6507568359375
z: -0.13971543312072754
visibility: 0.9999293088912964
","x: 254.1776885986328
y: 202.26742553710938
z: -0.14199426770210266
visibility: 0.9999549388885498
","x: 252.2165069580078
y: 203.27655029296875
z: -0.141999751329422
visibility: 0.9999517798423767
","x: 250.3966064453125
y: 204.30874633789062
z: -0.141971617937088
visibility: 0.9999500513076782
","x: 263.1983947753906
y: 204.7828826904297
z: -0.02119557373225689
visibility: 0.9997563362121582
","x: 247.6617889404297
y: 209.926025390625
z: -0.0326400026679039
visibility: 0.9999246001243591
","x: 261.2853698730469
y: 216.00955200195312
z: -0.11596562713384628
visibility: 0.9998648762702942
","x: 255.45458984375
y: 217.5701141357422
z: -0.11909262090921402
visibility: 0.999915361404419
","x: 279.5641174316406
y: 253.90982055664062
z: 0.04789753258228302
visibility: 0.9998529553413391
","x: 239.2345428466797
y: 258.7329406738281
z: 0.02687240019440651
visibility: 0.9998568892478943
","x: 288.11492919921875
y: 318.5325012207031
z: -0.053823284804821014
visibility: 0.9221287369728088
","x: 235.06011962890625
y: 325.90478515625
z: -0.0699952021241188
visibility: 0.972676694393158
","x: 284.8270263671875
y: 286.10260009765625
z: -0.2853549122810364
visibility: 0.9673678874969482
","x: 239.67918395996094
y: 289.7439270019531
z: -0.2889552414417267
visibility: 0.9809452891349792
","x: 285.38006591796875
y: 275.64739990234375
z: -0.3313630223274231
visibility: 0.9388766884803772
","x: 239.90830993652344
y: 278.613037109375
z: -0.3322364389896393
visibility: 0.9616842865943909
","x: 285.1468811035156
y: 269.302490234375
z: -0.3303554654121399
visibility: 0.9433420896530151
","x: 239.2713165283203
y: 272.20172119140625
z: -0.3340517282485962
visibility: 0.9600232839584351
","x: 283.86859130859375
y: 272.8973693847656
z: -0.2904113829135895
visibility: 0.9214863777160645
","x: 240.0660858154297
y: 275.30303955078125
z: -0.2937883138656616
visibility: 0.9418720006942749
","x: 273.5346374511719
y: 367.5362854003906
z: 0.016112830489873886
visibility: 0.9993553757667542
","x: 249.28173828125
y: 367.67218017578125
z: -0.01615038886666298
visibility: 0.9993060231208801
","x: 270.998046875
y: 461.2989501953125
z: -0.008310908451676369
visibility: 0.9659909605979919
","x: 244.61883544921875
y: 460.43218994140625
z: -0.04226117953658104
visibility: 0.9873526096343994
","x: 267.3767395019531
y: 539.55224609375
z: 0.15291695296764374
visibility: 0.9798523187637329
","x: 231.50978088378906
y: 535.0731201171875
z: 0.125570148229599
visibility: 0.9856272339820862
","x: 263.196044921875
y: 551.7979736328125
z: 0.16140881180763245
visibility: 0.9039607644081116
","x: 232.130615234375
y: 543.407958984375
z: 0.14760719239711761
visibility: 0.8632595539093018
","x: 273.3378601074219
y: 562.402099609375
z: 0.031526923179626465
visibility: 0.9771400690078735
","x: 227.60105895996094
y: 559.359619140625
z: 0.04366419091820717
visibility: 0.9801511764526367
","x: 242.31985473632812
y: 281.5960998535156
z: 0.0
","x: 244.4927520751953
y: 275.55340576171875
z: -0.0015695194015279412
","x: 245.69509887695312
y: 269.46234130859375
z: -0.002634777221828699
","x: 246.0640869140625
y: 265.11773681640625
z: -0.004051509778946638
","x: 245.59786987304688
y: 262.14154052734375
z: -0.005424289032816887
","x: 240.49307250976562
y: 263.873046875
z: -0.0006200330681167543
","x: 239.29779052734375
y: 257.6095886230469
z: -0.0029279817827045918
","x: 238.8402099609375
y: 253.39486694335938
z: -0.004712330177426338
","x: 238.7278289794922
y: 249.70736694335938
z: -0.00589558994397521
","x: 238.59811401367188
y: 265.646728515625
z: -0.0018727312562987208
","x: 237.09939575195312
y: 259.83978271484375
z: -0.003906320780515671
","x: 236.6823272705078
y: 255.71829223632812
z: -0.005230837967246771
","x: 236.71246337890625
y: 252.11376953125
z: -0.006247173063457012
","x: 237.2060089111328
y: 268.5037841796875
z: -0.00361849507316947
","x: 235.5867919921875
y: 263.5057373046875
z: -0.005979006644338369
","x: 235.0606231689453
y: 259.9364013671875
z: -0.0071595278568565845
","x: 235.1346893310547
y: 256.8222961425781
z: -0.007898419164121151
","x: 236.23696899414062
y: 272.33551025390625
z: -0.00570274842903018
","x: 234.49432373046875
y: 268.9203186035156
z: -0.007674328051507473
","x: 233.89723205566406
y: 266.4366760253906
z: -0.008436192758381367
","x: 233.92031860351562
y: 264.2327880859375
z: -0.008898812346160412
","x: 282.7070007324219
y: 283.1777648925781
z: 0.0
","x: 280.9345397949219
y: 276.77105712890625
z: -0.0009510575328022242
","x: 279.9587707519531
y: 270.294677734375
z: -0.0026373418513685465
","x: 279.7103271484375
y: 266.1416931152344
z: -0.00493663689121604
","x: 280.2267150878906
y: 263.398193359375
z: -0.007239964324980974
","x: 284.9573669433594
y: 265.39849853515625
z: -0.0021170678082853556
","x: 286.5342712402344
y: 259.00189208984375
z: -0.00535557372495532
","x: 287.0089111328125
y: 256.154052734375
z: -0.00734443124383688
","x: 287.2297058105469
y: 254.0376434326172
