uscmakers/ReverseChoreography/data/8_slow_dancing_in_the_dark_joji.csv
,NOSE,LEFT_EYE_INNER,LEFT_EYE,LEFT_EYE_OUTER,RIGHT_EYE_INNER,RIGHT_EYE,RIGHT_EYE_OUTER,LEFT_EAR,RIGHT_EAR,MOUTH_LEFT,MOUTH_RIGHT,LEFT_SHOULDER,RIGHT_SHOULDER,LEFT_ELBOW,RIGHT_ELBOW,LEFT_WRIST,RIGHT_WRIST,LEFT_PINKY,RIGHT_PINKY,LEFT_INDEX,RIGHT_INDEX,LEFT_THUMB,RIGHT_THUMB,LEFT_HIP,RIGHT_HIP,LEFT_KNEE,RIGHT_KNEE,LEFT_ANKLE,RIGHT_ANKLE,LEFT_HEEL,RIGHT_HEEL,LEFT_FOOT_INDEX,RIGHT_FOOT_INDEX,WRIST2,THUMB_CPC2,THUMB_MCP2,THUMB_IP2,THUMB_TIP2,INDEX_FINGER_MCP2,INDEX_FINGER_PIP2,INDEX_FINGER_DIP2,INDEX_FINGER_TIP2,MIDDLE_FINGER_MCP2,MIDDLE_FINGER_PIP2,MIDDLE_FINGER_DIP2,MIDDLE_FINGER_TIP2,RING_FINGER_PIP2,RING_FINGER_DIP2,RING_FINGER_TIP2,RING_FINGER_MCP2,PINKY_MCP2,PINKY_PIP2,PINKY_DIP2,PINKY_TIP2,WRIST,THUMB_CPC,THUMB_MCP,THUMB_IP,THUMB_TIP,INDEX_FINGER_MCP,INDEX_FINGER_PIP,INDEX_FINGER_DIP,INDEX_FINGER_TIP,MIDDLE_FINGER_MCP,MIDDLE_FINGER_PIP,MIDDLE_FINGER_DIP,MIDDLE_FINGER_TIP,RING_FINGER_PIP,RING_FINGER_DIP,RING_FINGER_TIP,RING_FINGER_MCP,PINKY_MCP,PINKY_PIP,PINKY_DIP,PINKY_TIP
0,"x: 243.97845458984375
y: 219.26580810546875
z: -0.17757970094680786
visibility: 0.9999958276748657
","x: 245.38653564453125
y: 212.79202270507812
z: -0.15294627845287323
visibility: 0.9999916553497314
","x: 246.75604248046875
y: 213.242431640625
z: -0.15297956764698029
visibility: 0.9999896287918091
","x: 247.91799926757812
y: 213.65914916992188
z: -0.15302462875843048
visibility: 0.9999898672103882
","x: 241.67221069335938
y: 211.2523193359375
z: -0.16271071135997772
visibility: 0.9999880790710449
","x: 239.75070190429688
y: 210.717041015625
z: -0.16264654695987701
visibility: 0.9999839067459106
","x: 237.86325073242188
y: 210.25177001953125
z: -0.16259527206420898
visibility: 0.9999822378158569
","x: 248.30111694335938
y: 219.0857696533203
z: -0.017461426556110382
visibility: 0.9999759197235107
","x: 232.53762817382812
y: 215.33006286621094
z: -0.06526598334312439
visibility: 0.9999833106994629
","x: 245.20068359375
y: 229.3662872314453
z: -0.12726174294948578
visibility: 0.9999955892562866
","x: 239.9859619140625
y: 228.35223388671875
z: -0.14105455577373505
visibility: 0.9999961853027344
","x: 254.69882202148438
y: 267.44873046875
z: 0.04787854477763176
visibility: 0.9999924898147583
","x: 219.6497802734375
y: 260.69561767578125
z: 0.008397532626986504
visibility: 0.9999731779098511
","x: 264.0641174316406
y: 329.64056396484375
z: -0.047312233597040176
visibility: 0.9909283518791199
","x: 215.11187744140625
y: 320.1379699707031
z: 0.03253139182925224
visibility: 0.9647276401519775
","x: 255.8250274658203
y: 283.2253723144531
z: -0.2796545624732971
visibility: 0.9980012774467468
","x: 217.14527893066406
y: 379.1383361816406
z: -0.04673392325639725
visibility: 0.9508721232414246
","x: 251.7386016845703
y: 274.62359619140625
z: -0.33446064591407776
visibility: 0.9946221113204956
","x: 216.3663787841797
y: 398.1363525390625
z: -0.07359790056943893
visibility: 0.9082130193710327
","x: 250.59124755859375
y: 269.7393493652344
z: -0.3362399637699127
visibility: 0.9946902990341187
","x: 218.8221435546875
y: 397.5227355957031
z: -0.10311154276132584
visibility: 0.9095101952552795
","x: 251.068359375
y: 271.5676574707031
z: -0.2869381606578827
visibility: 0.9906474947929382
","x: 220.09068298339844
y: 392.060302734375
z: -0.05928472429513931
visibility: 0.8910945057868958
","x: 255.93438720703125
y: 382.45831298828125
z: 0.017332375049591064
visibility: 0.9999558925628662
","x: 231.791015625
y: 383.0148010253906
z: -0.017236411571502686
visibility: 0.9999172687530518
","x: 264.5211181640625
y: 470.4597473144531
z: -0.030536795035004616
visibility: 0.993930459022522
","x: 230.094482421875
y: 475.5631103515625
z: -0.03231677785515785
visibility: 0.9896028637886047
","x: 259.81976318359375
y: 546.9769897460938
z: 0.1595582365989685
visibility: 0.9832672476768494
","x: 225.98484802246094
y: 545.0671997070312
z: 0.17859698832035065
visibility: 0.9812458753585815
","x: 256.2037658691406
y: 557.8657836914062
z: 0.17223285138607025
visibility: 0.8748018741607666
","x: 227.0611114501953
y: 553.8707275390625
z: 0.1918383240699768
visibility: 0.7820358872413635
","x: 265.3543701171875
y: 571.3361206054688
z: 0.05250813439488411
visibility: 0.9742776155471802
","x: 222.7295379638672
y: 567.0765380859375
z: 0.07276570796966553
visibility: 0.9720594882965088
","x: 255.87547302246094
y: 279.7676696777344
z: 0.0
","x: 253.72166442871094
y: 275.0164794921875
z: 0.0020859192591160536
","x: 250.5284423828125
y: 272.1521301269531
z: 0.002038161735981703
","x: 248.237548828125
y: 271.59295654296875
z: 0.0012513853143900633
","x: 246.8946075439453
y: 271.89715576171875
z: 0.0002491584455128759
","x: 247.9635772705078
y: 270.21337890625
z: -0.0001292757224291563
","x: 244.14596557617188
y: 266.3512268066406
z: -0.0017044392880052328
","x: 241.70883178710938
y: 264.0302734375
z: -0.0027121221646666527
","x: 239.78318786621094
y: 261.9311828613281
z: -0.003538134042173624
","x: 247.5131378173828
y: 272.3998107910156
z: -0.0026048345025628805
","x: 242.87850952148438
y: 269.9740905761719
z: -0.00391693040728569
","x: 239.8603515625
y: 268.3685607910156
z: -0.004626224283128977
","x: 237.445068359375
y: 267.0787353515625
z: -0.005459558684378862
","x: 247.65383911132812
y: 275.45672607421875
z: -0.004981490783393383
","x: 243.07626342773438
y: 274.6853332519531
z: -0.006507327780127525
","x: 240.13189697265625
y: 274.7094421386719
z: -0.0074729956686496735
","x: 237.87152099609375
y: 274.78778076171875
z: -0.008370744064450264
","x: 248.40191650390625
y: 279.0703430175781
z: -0.00723645556718111
","x: 245.23953247070312
y: 280.36871337890625
z: -0.008802630007266998
","x: 243.2108917236328
y: 281.5499267578125
z: -0.009516133926808834
","x: 241.5284423828125
y: 282.51715087890625
z: -0.010144339874386787
",,,,,,,,,,,,,,,,,,,,,
1,"x: 243.97845458984375
y: 219.26580810546875
z: -0.17757970094680786
visibility: 0.9999958276748657
","x: 245.38653564453125
y: 212.79202270507812
z: -0.15294627845287323
visibility: 0.9999916553497314
","x: 246.75604248046875
y: 213.242431640625
z: -0.15297956764698029
visibility: 0.9999896287918091
","x: 247.91799926757812
y: 213.65914916992188
z: -0.15302462875843048
visibility: 0.9999898672103882
","x: 241.67221069335938
y: 211.2523193359375
z: -0.16271071135997772
visibility: 0.9999880790710449
","x: 239.75070190429688
y: 210.717041015625
z: -0.16264654695987701
visibility: 0.9999839067459106
","x: 237.86325073242188
y: 210.25177001953125
z: -0.16259527206420898
visibility: 0.9999822378158569
","x: 248.30111694335938
y: 219.0857696533203
z: -0.017461426556110382
visibility: 0.9999759197235107
","x: 232.53762817382812
y: 215.33006286621094
z: -0.06526598334312439
visibility: 0.9999833106994629
","x: 245.20068359375
y: 229.3662872314453
z: -0.12726174294948578
visibility: 0.9999955892562866
","x: 239.9859619140625
y: 228.35223388671875
z: -0.14105455577373505
visibility: 0.9999961853027344
","x: 254.69882202148438
y: 267.44873046875
z: 0.04787854477763176
visibility: 0.9999924898147583
","x: 219.6497802734375
y: 260.69561767578125
z: 0.008397532626986504
visibility: 0.9999731779098511
","x: 264.0641174316406
y: 329.64056396484375
z: -0.047312233597040176
visibility: 0.9909283518791199
","x: 215.11187744140625
y: 320.1379699707031
z: 0.03253139182925224
visibility: 0.9647276401519775
","x: 255.8250274658203
y: 283.2253723144531
z: -0.2796545624732971
visibility: 0.9980012774467468
","x: 217.14527893066406
y: 379.1383361816406
z: -0.04673392325639725
visibility: 0.9508721232414246
","x: 251.7386016845703
y: 274.62359619140625
z: -0.33446064591407776
visibility: 0.9946221113204956
","x: 216.3663787841797
y: 398.1363525390625
z: -0.07359790056943893
visibility: 0.9082130193710327
","x: 250.59124755859375
y: 269.7393493652344
z: -0.3362399637699127
visibility: 0.9946902990341187
","x: 218.8221435546875
y: 397.5227355957031
z: -0.10311154276132584
visibility: 0.9095101952552795
","x: 251.068359375
y: 271.5676574707031
z: -0.2869381606578827
visibility: 0.9906474947929382
","x: 220.09068298339844
y: 392.060302734375
z: -0.05928472429513931
visibility: 0.8910945057868958
","x: 255.93438720703125
y: 382.45831298828125
z: 0.017332375049591064
visibility: 0.9999558925628662
","x: 231.791015625
y: 383.0148010253906
z: -0.017236411571502686
visibility: 0.9999172687530518
","x: 264.5211181640625
y: 470.4597473144531
z: -0.030536795035004616
visibility: 0.993930459022522
","x: 230.094482421875
y: 475.5631103515625
z: -0.03231677785515785
visibility: 0.9896028637886047
","x: 259.81976318359375
y: 546.9769897460938
z: 0.1595582365989685
visibility: 0.9832672476768494
","x: 225.98484802246094
y: 545.0671997070312
z: 0.17859698832035065
visibility: 0.9812458753585815
","x: 256.2037658691406
y: 557.8657836914062
z: 0.17223285138607025
visibility: 0.8748018741607666
","x: 227.0611114501953
y: 553.8707275390625
z: 0.1918383240699768
visibility: 0.7820358872413635
","x: 265.3543701171875
y: 571.3361206054688
z: 0.05250813439488411
visibility: 0.9742776155471802
","x: 222.7295379638672
y: 567.0765380859375
z: 0.07276570796966553
visibility: 0.9720594882965088
","x: 255.87547302246094
y: 279.7676696777344
z: 0.0
","x: 253.72166442871094
y: 275.0164794921875
z: 0.0020859192591160536
","x: 250.5284423828125
y: 272.1521301269531
z: 0.002038161735981703
","x: 248.237548828125
y: 271.59295654296875
z: 0.0012513853143900633
","x: 246.8946075439453
y: 271.89715576171875
z: 0.0002491584455128759
","x: 247.9635772705078
y: 270.21337890625
z: -0.0001292757224291563
","x: 244.14596557617188
y: 266.3512268066406
z: -0.0017044392880052328
","x: 241.70883178710938
y: 264.0302734375
z: -0.0027121221646666527
","x: 239.78318786621094
y: 261.9311828613281
z: -0.003538134042173624
","x: 247.5131378173828
y: 272.3998107910156
z: -0.0026048345025628805
","x: 242.87850952148438
y: 269.9740905761719
z: -0.00391693040728569
","x: 239.8603515625
y: 268.3685607910156
z: -0.004626224283128977
","x: 237.445068359375
y: 267.0787353515625
z: -0.005459558684378862
","x: 247.65383911132812
y: 275.45672607421875
z: -0.004981490783393383
","x: 243.07626342773438
y: 274.6853332519531
z: -0.006507327780127525
","x: 240.13189697265625
y: 274.7094421386719
z: -0.0074729956686496735
","x: 237.87152099609375
y: 274.78778076171875
z: -0.008370744064450264
","x: 248.40191650390625
y: 279.0703430175781
z: -0.00723645556718111
","x: 245.23953247070312
y: 280.36871337890625
z: -0.008802630007266998
","x: 243.2108917236328
y: 281.5499267578125
z: -0.009516133926808834
","x: 241.5284423828125
y: 282.51715087890625
z: -0.010144339874386787
",,,,,,,,,,,,,,,,,,,,,
2,"x: 239.07870483398438
y: 218.531005859375
z: -0.2704845070838928
visibility: 0.9999940991401672
","x: 241.98927307128906
y: 212.3277587890625
z: -0.2541053891181946
visibility: 0.9999856352806091
","x: 243.7333526611328
y: 212.57415771484375
z: -0.25414782762527466
visibility: 0.9999837279319763
","x: 245.49368286132812
y: 212.84109497070312
z: -0.2541414499282837
visibility: 0.9999830722808838
","x: 237.34580993652344
y: 211.2479248046875
z: -0.24639472365379333
visibility: 0.9999818801879883
","x: 235.6373291015625
y: 210.77879333496094
z: -0.24636606872081757
visibility: 0.9999768733978271
","x: 233.8087158203125
y: 210.5087127685547
z: -0.24638351798057556
visibility: 0.9999748468399048
","x: 248.25808715820312
y: 218.63125610351562
z: -0.14981071650981903
visibility: 0.9999608397483826
","x: 232.0283660888672
y: 216.08778381347656
z: -0.1134926825761795
visibility: 0.9999682903289795
","x: 242.457763671875
y: 228.56533813476562
z: -0.23166850209236145
visibility: 0.9999922513961792
","x: 236.1088104248047
y: 228.03103637695312
z: -0.2213875949382782
visibility: 0.9999923706054688
","x: 259.30450439453125
y: 265.62860107421875
z: -0.11633578687906265
visibility: 0.9999856352806091
","x: 221.37237548828125
y: 268.5809020996094
z: -0.009432122111320496
visibility: 0.9999695420265198
","x: 262.01580810546875
y: 324.4662780761719
z: -0.2527444362640381
visibility: 0.9907503128051758
","x: 215.36013793945312
y: 327.42681884765625
z: 0.04546679928898811
visibility: 0.9608339667320251
","x: 239.7437286376953
y: 288.4729309082031
z: -0.48710471391677856
visibility: 0.9972667694091797
","x: 211.79176330566406
y: 383.1589050292969
z: -0.04449944943189621
visibility: 0.948582112789154
","x: 233.51710510253906
y: 282.21142578125
z: -0.5388790369033813
visibility: 0.9931991100311279
","x: 210.2417449951172
y: 399.95074462890625
z: -0.06590183079242706
visibility: 0.9047925472259521
","x: 234.4873809814453
y: 276.837890625
z: -0.5364247560501099
visibility: 0.9932347536087036
","x: 211.00218200683594
y: 400.5060119628906
z: -0.09935593605041504
visibility: 0.9063316583633423
","x: 236.20867919921875
y: 278.14794921875
z: -0.4906662106513977
visibility: 0.9878734350204468
","x: 212.30767822265625
y: 396.69354248046875
z: -0.05876528099179268
visibility: 0.8877360224723816
","x: 254.24917602539062
y: 382.63262939453125
z: -0.017140725627541542
visibility: 0.9999479651451111
","x: 228.97006225585938
y: 382.8643798828125
z: 0.016906460747122765
visibility: 0.9999080300331116
","x: 258.61474609375
y: 473.4465026855469
z: -0.021387433633208275
visibility: 0.9936719536781311
","x: 225.13673400878906
y: 472.45892333984375
z: 0.025601962581276894
visibility: 0.9901110529899597
","x: 259.6899108886719
y: 546.90869140625
z: 0.1924169659614563
visibility: 0.9840957522392273
","x: 225.44200134277344
y: 544.6948852539062
z: 0.2435608208179474
visibility: 0.9823042750358582
","x: 256.8144226074219
y: 557.4622802734375
z: 0.20688025653362274
visibility: 0.8727072477340698
","x: 227.04833984375
y: 553.9732055664062
z: 0.2581307888031006
visibility: 0.7928035855293274
","x: 263.3171691894531
y: 571.5438232421875
z: 0.07655496895313263
visibility: 0.9754628539085388
","x: 220.96176147460938
y: 566.5078125
z: 0.14027175307273865
visibility: 0.9736473560333252
",,,,,,,,,,,,,,,,,,,,,,,,,,,,,,,,,,,,,,,,,,
3,"x: 235.57150268554688
y: 214.4520721435547
z: -0.23988108336925507
visibility: 0.9999932646751404
","x: 239.0317840576172
y: 207.81797790527344
z: -0.224690243601799
visibility: 0.999982476234436
","x: 240.97735595703125
y: 207.91456604003906
z: -0.22474417090415955
visibility: 0.9999808669090271
","x: 242.77365112304688
y: 208.27328491210938
z: -0.2247435599565506
visibility: 0.9999797344207764
","x: 233.94525146484375
y: 207.75025939941406
z: -0.21657302975654602
visibility: 0.99997878074646
","x: 232.48092651367188
y: 207.82562255859375
z: -0.2165144383907318
visibility: 0.9999730587005615
","x: 230.8842315673828
y: 208.07757568359375
z: -0.21651120483875275
visibility: 0.9999703764915466
","x: 246.67196655273438
y: 214.83041381835938
z: -0.1303609311580658
visibility: 0.9999547600746155
","x: 230.85122680664062
y: 214.727294921875
z: -0.09448926150798798
visibility: 0.9999592304229736
","x: 239.68931579589844
y: 225.0892791748047
z: -0.20416703820228577
visibility: 0.9999901652336121
","x: 233.0052490234375
y: 225.00082397460938
z: -0.19315554201602936
visibility: 0.9999896883964539
","x: 258.57476806640625
y: 259.4466857910156
z: -0.11659852415323257
visibility: 0.9999826550483704
","x: 221.95620727539062
y: 267.48651123046875
z: 0.013908520340919495
visibility: 0.9999653697013855
","x: 254.3977813720703
y: 315.27130126953125
z: -0.25894179940223694
visibility: 0.9907466173171997
","x: 215.33482360839844
y: 327.6224060058594
z: 0.07213784754276276
visibility: 0.9432838559150696
","x: 230.6415557861328
y: 285.19805908203125
z: -0.47151798009872437
visibility: 0.9968439936637878
","x: 210.36813354492188
y: 382.85357666015625
z: -0.01511534582823515
visibility: 0.9395995736122131
","x: 224.710693359375
y: 280.9363708496094
z: -0.5210750699043274
visibility: 0.9924147725105286
","x: 208.9452667236328
y: 398.8806457519531
z: -0.03113248571753502
visibility: 0.8936673402786255
","x: 226.3015594482422
y: 275.10968017578125
z: -0.5161311626434326
visibility: 0.9924067854881287
","x: 209.36846923828125
y: 399.7924499511719
z: -0.06549554318189621
visibility: 0.8953568935394287
","x: 228.46099853515625
y: 275.2834777832031
z: -0.4738070070743561
visibility: 0.9862245917320251
","x: 210.62721252441406
y: 396.40435791015625
z: -0.030897850170731544
visibility: 0.8760311007499695
","x: 250.35604858398438
y: 381.74609375
z: -0.030536022037267685
visibility: 0.9999434947967529
","x: 225.6748809814453
y: 381.5623474121094
z: 0.03028707578778267
visibility: 0.9999004006385803
","x: 254.02284240722656
y: 472.83392333984375
z: -0.02188573032617569
visibility: 0.9937665462493896
","x: 222.0673065185547
y: 468.869384765625
z: 0.05453496053814888
visibility: 0.9906215071678162
","x: 259.68487548828125
y: 546.9105834960938
z: 0.15026305615901947
visibility: 0.9852709770202637
","x: 224.8517608642578
y: 543.1075439453125
z: 0.23518279194831848
visibility: 0.9835481643676758
","x: 257.42034912109375
y: 557.399169921875
z: 0.1587316244840622
visibility: 0.8756474852561951
","x: 227.08058166503906
y: 553.072509765625
z: 0.2461308240890503
visibility: 0.8069008588790894
","x: 262.2716369628906
y: 571.241943359375
z: 0.02680426836013794
visibility: 0.9771016240119934
","x: 219.7395782470703
y: 565.180908203125
z: 0.13711872696876526
visibility: 0.9754842519760132
",,,,,,,,,,,,,,,,,,,,,,,,,,,,,,,,,,,,,,,,,,
4,"x: 233.5834503173828
y: 211.69985961914062
z: -0.20120462775230408
visibility: 0.9999929666519165
","x: 237.3691864013672
y: 205.44070434570312
z: -0.19979658722877502
visibility: 0.9999814629554749
","x: 239.44761657714844
y: 205.5585479736328
z: -0.1999158263206482
visibility: 0.9999799132347107
","x: 241.4390869140625
y: 205.8162078857422
z: -0.19988544285297394
visibility: 0.9999785423278809
","x: 232.25787353515625
y: 205.5508270263672
z: -0.17471225559711456
visibility: 0.9999780058860779
","x: 230.80178833007812
y: 205.8016357421875
z: -0.17464062571525574
visibility: 0.999971866607666
","x: 229.6748809814453
y: 206.05703735351562
z: -0.1746346652507782
visibility: 0.9999691247940063
","x: 245.21176147460938
y: 212.2545623779297
z: -0.09143749624490738
visibility: 0.9999536275863647
","x: 229.98471069335938
y: 211.88302612304688
z: -0.042062751948833466
visibility: 0.9999565482139587
","x: 237.7906036376953
y: 222.39828491210938
z: -0.1905565708875656
visibility: 0.9999892711639404
","x: 231.02386474609375
y: 221.84710693359375
z: -0.14935587346553802
visibility: 0.9999884963035583
","x: 257.07366943359375
y: 254.59664916992188
z: -0.07259044796228409
visibility: 0.9999802708625793
","x: 222.22373962402344
y: 264.8643798828125
z: 0.06057962030172348
visibility: 0.9999640583992004
","x: 247.78041076660156
y: 307.5782470703125
z: -0.20819857716560364
visibility: 0.990176260471344
","x: 214.99264526367188
y: 327.1586608886719
z: 0.10875922441482544
visibility: 0.9212964773178101
","x: 226.28549194335938
y: 275.16351318359375
z: -0.40429893136024475
visibility: 0.9958785176277161
","x: 208.30555725097656
y: 374.8976135253906
z: 0.025524143129587173
visibility: 0.9292641878128052
","x: 221.591064453125
y: 268.59051513671875
z: -0.4523201584815979
visibility: 0.990734875202179
","x: 206.86703491210938
y: 390.5677795410156
z: 0.008760987780988216
visibility: 0.881537675857544
","x: 223.15191650390625
y: 264.5704040527344
z: -0.44838714599609375
visibility: 0.9906402826309204
","x: 206.8793487548828
y: 390.91363525390625
z: -0.025781918317079544
visibility: 0.8833865523338318
","x: 225.04466247558594
y: 266.1650390625
z: -0.40727004408836365
visibility: 0.9831598401069641
","x: 208.0622100830078
y: 386.9482421875
z: 0.009225739166140556
visibility: 0.8634880185127258
","x: 244.369384765625
y: 377.81201171875
z: -0.03327267989516258
visibility: 0.9999431371688843
","x: 220.7812042236328
y: 376.05364990234375
z: 0.03310539945960045
visibility: 0.9998993277549744
","x: 249.95155334472656
y: 470.5328369140625
z: -0.04316001385450363
visibility: 0.9940633773803711
","x: 219.7963409423828
y: 466.91302490234375
z: 0.06361375004053116
visibility: 0.9912102222442627
","x: 259.314208984375
y: 547.4309692382812
z: 0.05836834758520126
visibility: 0.9865249991416931
","x: 223.31253051757812
y: 543.1353149414062
z: 0.21789245307445526
visibility: 0.9848625063896179
","x: 257.3955383300781
y: 557.439208984375
z: 0.06075061485171318
visibility: 0.8815916776657104
","x: 227.04437255859375
y: 553.08984375
z: 0.22961118817329407
visibility: 0.8213459253311157
","x: 262.155517578125
y: 571.2410278320312
z: -0.07332669198513031
visibility: 0.9789304733276367
","x: 217.025390625
y: 564.1966552734375
z: 0.11783023923635483
visibility: 0.9774044752120972
",,,,,,,,,,,,,,,,,,,,,,,,,,,,,,,,,,,,,,,,,,
5,"x: 231.82598876953125
y: 209.6381378173828
z: -0.17102527618408203
visibility: 0.9999920725822449
","x: 235.55282592773438
y: 203.95669555664062
z: -0.16390664875507355
visibility: 0.9999780654907227
","x: 237.76214599609375
y: 204.27285766601562
z: -0.16398462653160095
visibility: 0.9999772906303406
","x: 239.82669067382812
y: 204.64439392089844
z: -0.16396358609199524
visibility: 0.9999752640724182
","x: 230.68954467773438
y: 203.74298095703125
z: -0.14814230799674988
visibility: 0.9999741315841675
","x: 229.5923309326172
y: 203.95692443847656
z: -0.148075670003891
visibility: 0.999967634677887
","x: 228.3795166015625
y: 204.17315673828125
z: -0.14806091785430908
visibility: 0.9999645948410034
","x: 243.64614868164062
y: 211.6486358642578
z: -0.08129013329744339
visibility: 0.9999507069587708
","x: 228.5582733154297
y: 210.63290405273438
z: -0.027137333527207375
visibility: 0.9999489784240723
","x: 235.49252319335938
y: 220.77561950683594
z: -0.15012414753437042
visibility: 0.9999879598617554
","x: 229.3583984375
y: 219.720458984375
z: -0.1255112886428833
visibility: 0.9999865293502808
","x: 254.2970428466797
y: 253.57537841796875
z: -0.0788402110338211
visibility: 0.999980092048645
","x: 221.09335327148438
y: 264.28765869140625
z: 0.0694752112030983
visibility: 0.9999641180038452
","x: 244.26443481445312
y: 300.92938232421875
z: -0.22751402854919434
visibility: 0.9899866580963135
","x: 210.85177612304688
y: 326.5914611816406
z: 0.11563444137573242
visibility: 0.9095141887664795
","x: 223.69534301757812
y: 268.7419738769531
z: -0.42426031827926636
visibility: 0.9950941205024719
","x: 200.66378784179688
y: 372.90228271484375
z: 0.029973229393363
visibility: 0.9266613721847534
","x: 219.82467651367188
y: 261.5472717285156
z: -0.472412109375
visibility: 0.9892725944519043
","x: 198.62380981445312
y: 388.5079650878906
z: 0.01369362510740757
visibility: 0.879209578037262
","x: 221.50146484375
y: 257.8370361328125
z: -0.46561598777770996
visibility: 0.9890508651733398
","x: 198.46646118164062
y: 388.7376708984375
z: -0.021127836778759956
visibility: 0.881098210811615
","x: 223.17990112304688
y: 259.80206298828125
z: -0.4260950982570648
visibility: 0.9804331064224243
","x: 199.8252410888672
y: 384.82135009765625
z: 0.013494190759956837
visibility: 0.861116349697113
","x: 238.42144775390625
y: 375.525146484375
z: -0.039453767240047455
visibility: 0.9999422430992126
","x: 215.267333984375
y: 373.98095703125
z: 0.039251286536455154
visibility: 0.9998971819877625
","x: 244.9102325439453
y: 468.6059265136719
z: -0.05332016944885254
visibility: 0.9943956732749939
","x: 217.6416778564453
y: 465.9523010253906
z: 0.053999029099941254
visibility: 0.9917329549789429
","x: 259.01043701171875
y: 547.1857299804688
z: 0.0679640918970108
visibility: 0.9877007007598877
","x: 223.302734375
y: 544.067138671875
z: 0.20332279801368713
visibility: 0.9860511422157288
","x: 258.01007080078125
y: 556.8546142578125
z: 0.0724446102976799
visibility: 0.8857347369194031
","x: 226.97708129882812
y: 554.6168823242188
z: 0.208454892039299
visibility: 0.8343865871429443
","x: 261.8236999511719
y: 571.2244262695312
z: -0.06253951042890549
visibility: 0.9806627035140991
","x: 217.240478515625
y: 566.47119140625
z: 0.10476599633693695
visibility: 0.9791730046272278
",,,,,,,,,,,,,,,,,,,,,,,,,,,,,,,,,,,,,,,,,,
6,"x: 231.23919677734375
y: 209.97158813476562
z: -0.15811802446842194
visibility: 0.9999913573265076
","x: 234.97189331054688
y: 204.47869873046875
z: -0.14619067311286926
visibility: 0.9999755024909973
","x: 237.1522979736328
y: 204.86167907714844
z: -0.14626437425613403
visibility: 0.9999752640724182
","x: 239.09141540527344
y: 205.30714416503906
z: -0.14627090096473694
visibility: 0.9999728798866272
","x: 230.1236572265625
y: 203.90667724609375
z: -0.1350448727607727
visibility: 0.9999706745147705
","x: 229.05587768554688
y: 203.91455078125
z: -0.13497969508171082
visibility: 0.9999637603759766
","x: 227.7051544189453
y: 203.91973876953125
z: -0.13495773077011108
visibility: 0.9999606013298035
","x: 242.4752960205078
y: 212.12294006347656
z: -0.07209338992834091
visibility: 0.9999484419822693
","x: 227.12942504882812
y: 210.1593017578125
z: -0.013767142780125141
visibility: 0.9999427199363708
","x: 234.5013885498047
y: 221.03309631347656
z: -0.12918803095817566
visibility: 0.9999871850013733
","x: 228.5166778564453
y: 219.51654052734375
z: -0.1133272647857666
visibility: 0.99998539686203
","x: 252.04336547851562
y: 254.21560668945312
z: -0.06263236701488495
visibility: 0.9999806880950928
","x: 218.1001739501953
y: 264.1325988769531
z: 0.07805262506008148
visibility: 0.999965250492096
","x: 242.18307495117188
y: 300.95318603515625
z: -0.21650242805480957
visibility: 0.9899587631225586
","x: 206.83888244628906
y: 325.56280517578125
z: 0.1197834461927414
visibility: 0.9034217596054077
","x: 223.79177856445312
y: 265.3419189453125
z: -0.4213966727256775
visibility: 0.9946483969688416
","x: 195.51095581054688
y: 371.23065185546875
z: 0.029491135850548744
visibility: 0.9257633090019226
","x: 219.86148071289062
y: 256.9031066894531
z: -0.4721067547798157
visibility: 0.988292932510376
","x: 192.9246368408203
y: 387.05181884765625
z: 0.009896322153508663
visibility: 0.8792985677719116
","x: 221.61961364746094
y: 253.00320434570312
z: -0.4648877680301666
visibility: 0.9879683256149292
","x: 193.15792846679688
y: 387.5830383300781
z: -0.022681722417473793
visibility: 0.8811653256416321
","x: 223.27178955078125
y: 255.66229248046875
z: -0.42359066009521484
visibility: 0.9786205291748047
","x: 194.66615295410156
y: 383.9614562988281
z: 0.013756902888417244
visibility: 0.8610499501228333
","x: 235.90310668945312
y: 375.00714111328125
z: -0.03535286337137222
visibility: 0.9999428391456604
","x: 212.37815856933594
y: 372.904052734375
z: 0.03517228364944458
visibility: 0.9998981356620789
","x: 242.04835510253906
y: 468.47369384765625
z: -0.05436480790376663
visibility: 0.994407594203949
","x: 217.41122436523438
y: 466.0450744628906
z: 0.036919619888067245
visibility: 0.9919850826263428
","x: 257.9462890625
y: 547.0455322265625
z: 0.09189170598983765
visibility: 0.9885063171386719
","x: 222.65602111816406
y: 544.1168823242188
z: 0.19488301873207092
visibility: 0.9867870807647705
","x: 257.6000061035156
y: 555.7398681640625
z: 0.09960655122995377
visibility: 0.8868905305862427
","x: 226.5526580810547
y: 554.8277587890625
z: 0.2019062489271164
visibility: 0.8430178165435791
","x: 261.9726257324219
y: 571.2437133789062
z: -0.03395518660545349
visibility: 0.9818139672279358
","x: 218.63853454589844
y: 567.505859375
z: 0.09099425375461578
visibility: 0.9802610874176025
",,,,,,,,,,,,,,,,,,,,,,,,,,,,,,,,,,,,,,,,,,
7,"x: 231.32644653320312
y: 210.61663818359375
z: -0.1502476930618286
visibility: 0.9999916553497314
","x: 235.380859375
y: 204.9703369140625
z: -0.13491877913475037
visibility: 0.9999760389328003
","x: 237.40582275390625
y: 205.2230224609375
z: -0.13498175144195557
visibility: 0.9999760389328003
","x: 239.14755249023438
y: 205.370849609375
z: -0.13500472903251648
visibility: 0.9999736547470093
","x: 230.31109619140625
y: 204.29888916015625
z: -0.12981365621089935
visibility: 0.9999712109565735
","x: 228.96847534179688
y: 204.19883728027344
z: -0.12975051999092102
visibility: 0.9999644756317139
","x: 227.6707763671875
y: 204.04788208007812
z: -0.12972210347652435
visibility: 0.9999613165855408
","x: 241.827880859375
y: 212.16773986816406
z: -0.045306477695703506
visibility: 0.9999507069587708
","x: 226.03233337402344
y: 209.12881469726562
z: -0.01844467781484127
visibility: 0.9999449849128723
","x: 233.89500427246094
y: 221.5072784423828
z: -0.1158575639128685
visibility: 0.999987781047821
","x: 227.91712951660156
y: 219.65171813964844
z: -0.10903720557689667
visibility: 0.9999861717224121
","x: 248.95516967773438
y: 255.09446716308594
z: -0.05360645800828934
visibility: 0.9999822378158569
","x: 211.9140625
y: 262.2535400390625
z: 0.06940706074237823
visibility: 0.9999678134918213
","x: 243.65675354003906
y: 302.75201416015625
z: -0.1843634396791458
visibility: 0.9905086755752563
","x: 199.52964782714844
y: 315.96087646484375
z: 0.1098395362496376
visibility: 0.9088587760925293
","x: 226.3657684326172
y: 265.36517333984375
z: -0.39778462052345276
visibility: 0.9948918223381042
","x: 190.39190673828125
y: 364.35284423828125
z: 0.021912043914198875
visibility: 0.9304351210594177
","x: 222.18246459960938
y: 256.3804016113281
z: -0.44918113946914673
visibility: 0.9887699484825134
","x: 187.81593322753906
y: 381.4681701660156
z: 0.00023396126925945282
visibility: 0.8864589929580688
","x: 223.6082000732422
y: 252.28768920898438
z: -0.4443455636501312
visibility: 0.9884235858917236
","x: 188.9268035888672
y: 381.617431640625
z: -0.029620587825775146
visibility: 0.888235867023468
","x: 224.99081420898438
y: 255.26885986328125
z: -0.40106552839279175
visibility: 0.9793961048126221
","x: 190.41209411621094
y: 377.4290771484375
z: 0.007720728870481253
visibility: 0.8690972924232483
","x: 234.25949096679688
y: 374.47442626953125
z: -0.02867351472377777
visibility: 0.9999452233314514
","x: 210.02098083496094
y: 372.2114562988281
z: 0.028524139896035194
visibility: 0.9999025464057922
","x: 240.79153442382812
y: 467.99810791015625
z: -0.054865747690200806
visibility: 0.9946920275688171
","x: 216.13369750976562
y: 466.08544921875
z: 0.03360092639923096
visibility: 0.9922301173210144
","x: 257.3449401855469
y: 545.8681640625
z: 0.0960674062371254
visibility: 0.9892557859420776
","x: 222.04368591308594
y: 543.719482421875
z: 0.19953033328056335
visibility: 0.9874318838119507
","x: 256.8099670410156
y: 554.897216796875
z: 0.10450653731822968
visibility: 0.8876038789749146
","x: 225.84580993652344
y: 554.2835693359375
z: 0.20841169357299805
visibility: 0.8507474660873413
","x: 262.10089111328125
y: 571.2418212890625
z: -0.02668793871998787
visibility: 0.9828291535377502
","x: 218.33651733398438
y: 567.5459594726562
z: 0.09966208040714264
visibility: 0.9811850786209106
",,,,,,,,,,,,,,,,,,,,,,,,,,,,,,,,,,,,,,,,,,
8,"x: 232.09857177734375
y: 211.0245361328125
z: -0.15174955129623413
visibility: 0.9999922513961792
","x: 236.13656616210938
y: 205.21279907226562
z: -0.13207237422466278
visibility: 0.9999775886535645
","x: 237.9924774169922
y: 206.32586669921875
z: -0.13212689757347107
visibility: 0.9999775290489197
","x: 239.58343505859375
y: 207.5443878173828
z: -0.13216206431388855
visibility: 0.999975323677063
","x: 231.22251892089844
y: 204.46588134765625
z: -0.133499413728714
visibility: 0.9999731779098511
","x: 229.76483154296875
y: 204.0713348388672
z: -0.13344189524650574
visibility: 0.9999669194221497
","x: 228.273193359375
y: 203.39529418945312
z: -0.1333923041820526
visibility: 0.9999639987945557
","x: 241.21192932128906
y: 214.1402587890625
z: -0.022525345906615257
visibility: 0.9999538064002991
","x: 225.6156005859375
y: 206.59921264648438
z: -0.02883530780673027
visibility: 0.9999493360519409
","x: 233.33338928222656
y: 221.82940673828125
z: -0.11119252443313599
visibility: 0.9999886155128479
","x: 227.66949462890625
y: 219.44467163085938
z: -0.11368384212255478
visibility: 0.9999873042106628
","x: 245.5291290283203
y: 254.62896728515625
z: -0.0070141376927495
visibility: 0.999983549118042
","x: 207.06011962890625
y: 257.2137145996094
z: 0.05819098278880119
visibility: 0.9999703764915466
","x: 245.7827606201172
y: 305.5423583984375
z: -0.1299624741077423
visibility: 0.990976870059967
","x: 195.7838897705078
y: 310.0848083496094
z: 0.1020054966211319
visibility: 0.9152126312255859
","x: 229.76809692382812
y: 263.7624816894531
z: -0.34595558047294617
visibility: 0.995121955871582
","x: 188.9060821533203
y: 362.46588134765625
z: 0.01521201990544796
visibility: 0.9348417520523071
","x: 225.5139923095703
y: 254.13629150390625
z: -0.3987015187740326
visibility: 0.9891659617424011
","x: 186.2010955810547
y: 379.7008972167969
z: -0.005251522175967693
visibility: 0.8928370475769043
","x: 226.65057373046875
y: 250.0153350830078
z: -0.3956715166568756
visibility: 0.9888135194778442
","x: 188.6212615966797
y: 380.04461669921875
z: -0.03660018742084503
visibility: 0.8946577906608582
","x: 227.93829345703125
y: 253.71543884277344
z: -0.35011056065559387
visibility: 0.9801291823387146
","x: 190.35792541503906
y: 376.49945068359375
z: -0.0011739874025806785
visibility: 0.8764826059341431
","x: 234.8400115966797
y: 373.8160400390625
z: -0.019997647032141685
visibility: 0.9999470114707947
","x: 209.10499572753906
y: 372.27337646484375
z: 0.019893765449523926
visibility: 0.9999070167541504
","x: 242.2869873046875
y: 465.82098388671875
z: -0.03723006695508957
visibility: 0.995036780834198
","x: 214.74156188964844
y: 465.1803283691406
z: 0.024515030905604362
visibility: 0.9925796389579773
","x: 256.7685546875
y: 545.8916015625
z: 0.10990341752767563
visibility: 0.9899505376815796
","x: 221.6495819091797
y: 542.4000244140625
z: 0.18838229775428772
visibility: 0.9881687164306641
","x: 255.46717834472656
y: 555.0772705078125
z: 0.11912163347005844
visibility: 0.8913005590438843
","x: 224.8169403076172
y: 552.5205688476562
z: 0.1980513483285904
visibility: 0.8582388758659363
","x: 262.18414306640625
y: 571.2163696289062
z: -0.004769721068441868
visibility: 0.9838151335716248
","x: 218.17649841308594
y: 567.5237426757812
z: 0.0872604176402092
visibility: 0.9820877909660339
",,,,,,,,,,,,,,,,,,,,,,,,,,,,,,,,,,,,,,,,,,
9,"x: 233.69113159179688
y: 211.27647399902344
z: -0.13549406826496124
visibility: 0.9999927878379822
","x: 237.07325744628906
y: 205.27992248535156
z: -0.11392386257648468
visibility: 0.9999790787696838
","x: 238.45608520507812
y: 207.01080322265625
z: -0.11397532373666763
visibility: 0.9999788403511047
","x: 239.67068481445312
y: 208.81216430664062
z: -0.11403912305831909
visibility: 0.9999768733978271
","x: 233.38645935058594
y: 204.27996826171875
z: -0.12199916690587997
visibility: 0.9999751448631287
","x: 231.7383575439453
y: 203.271728515625
z: -0.12192700058221817
visibility: 0.9999692440032959
","x: 230.02781677246094
y: 201.99607849121094
z: -0.12184955924749374
visibility: 0.999966561794281
","x: 241.65762329101562
y: 214.8768768310547
z: 0.0014948091702535748
visibility: 0.9999567866325378
","x: 226.07371520996094
y: 204.7052764892578
z: -0.03349744528532028
visibility: 0.99995356798172
","x: 234.28256225585938
y: 221.99063110351562
z: -0.09254008531570435
visibility: 0.9999894499778748
","x: 228.50253295898438
y: 218.51304626464844
z: -0.10422468185424805
visibility: 0.9999884366989136
","x: 245.02267456054688
y: 254.72898864746094
z: 0.026009762659668922
visibility: 0.9999844431877136
","x: 205.4135284423828
y: 250.7611846923828
z: 0.04483377933502197
visibility: 0.9999725818634033
","x: 247.226318359375
y: 311.34259033203125
z: -0.08987736701965332
visibility: 0.9912850260734558
","x: 194.76388549804688
y: 307.34539794921875
z: 0.06154647469520569
visibility: 0.9207382202148438
","x: 232.6073455810547
y: 265.7265625
z: -0.297342985868454
visibility: 0.9952700138092041
","x: 191.29141235351562
y: 360.54205322265625
z: -0.010582038201391697
visibility: 0.9377387762069702
","x: 227.87754821777344
y: 256.8982238769531
z: -0.35097232460975647
visibility: 0.9892955422401428
","x: 188.9752960205078
y: 378.1783447265625
z: -0.0391576774418354
visibility: 0.8964715600013733
","x: 228.1461639404297
y: 252.64364624023438
z: -0.34830328822135925
visibility: 0.988950252532959
","x: 191.81497192382812
y: 378.31475830078125
z: -0.06268485635519028
visibility: 0.8983417749404907
","x: 229.35523986816406
y: 255.75270080566406
z: -0.30224424600601196
visibility: 0.9805013537406921
","x: 193.32737731933594
y: 373.9535827636719
z: -0.022212613373994827
visibility: 0.8805280923843384
","x: 236.07151794433594
y: 372.1953125
z: -0.0011023830156773329
visibility: 0.9999476671218872
","x: 209.94406127929688
y: 372.1563720703125
z: 0.0011293001007288694
visibility: 0.9999115467071533
","x: 244.77023315429688
y: 461.8358154296875
z: -0.011494478210806847
visibility: 0.9952673316001892
","x: 213.44757080078125
y: 463.7947082519531
z: 0.0005189006915315986
visibility: 0.9928668737411499
","x: 256.8870849609375
y: 544.7193603515625
z: 0.15648934245109558
visibility: 0.9902871251106262
","x: 220.28660583496094
y: 541.9524536132812
z: 0.17798146605491638
visibility: 0.9888344407081604
","x: 254.9708709716797
y: 555.0525512695312
z: 0.16829563677310944
visibility: 0.895508348941803
","x: 223.6848907470703
y: 552.0604858398438
z: 0.18827059864997864
visibility: 0.8648689389228821
","x: 266.1910095214844
y: 568.01708984375
z: 0.05263219028711319
visibility: 0.9842549562454224
","x: 217.4501953125
y: 567.4515380859375
z: 0.07099838554859161
visibility: 0.9826552867889404
",,,,,,,,,,,,,,,,,,,,,,,,,,,,,,,,,,,,,,,,,,
10,"x: 236.8284912109375
y: 211.38314819335938
z: -0.13930949568748474
visibility: 0.9999932050704956
","x: 239.44198608398438
y: 205.5145263671875
z: -0.1180352121591568
visibility: 0.9999803900718689
","x: 240.66329956054688
y: 207.07418823242188
z: -0.11808516085147858
visibility: 0.9999799728393555
","x: 241.69137573242188
y: 208.8695526123047
z: -0.11815571784973145
visibility: 0.9999781847000122
","x: 236.00933837890625
y: 204.31944274902344
z: -0.12899604439735413
visibility: 0.9999768733978271
","x: 234.3718719482422
y: 203.2570037841797
z: -0.1289350390434265
visibility: 0.9999711513519287
","x: 232.63954162597656
y: 201.8895721435547
z: -0.12887927889823914
visibility: 0.9999687075614929
","x: 242.0030059814453
y: 215.07057189941406
z: 0.0008917347295209765
visibility: 0.9999592900276184
","x: 227.41958618164062
y: 204.4454345703125
z: -0.052077122032642365
visibility: 0.9999573826789856
","x: 236.4161376953125
y: 221.97755432128906
z: -0.09429540485143661
visibility: 0.9999902248382568
","x: 231.6529083251953
y: 218.0521240234375
z: -0.11007276922464371
visibility: 0.9999894499778748
","x: 245.81454467773438
y: 255.34239196777344
z: 0.045936886221170425
visibility: 0.9999849200248718
","x: 207.60472106933594
y: 247.15142822265625
z: 0.015478353016078472
visibility: 0.9999746680259705
","x: 247.90093994140625
y: 319.44140625
z: -0.04515451192855835
visibility: 0.9912831783294678
","x: 196.8619842529297
y: 304.8635559082031
z: 0.0316697433590889
visibility: 0.9270759224891663
","x: 239.76992797851562
y: 271.1510009765625
z: -0.2511104941368103
visibility: 0.9953991770744324
","x: 194.27142333984375
y: 359.9404296875
z: -0.038069456815719604
visibility: 0.9418232440948486
","x: 235.05752563476562
y: 263.11859130859375
z: -0.3024083375930786
visibility: 0.9894083738327026
","x: 191.009033203125
y: 378.3636169433594
z: -0.06753374636173248
visibility: 0.902108907699585
","x: 235.6454315185547
y: 256.2088623046875
z: -0.30408403277397156
visibility: 0.9891059398651123
","x: 193.93646240234375
y: 377.82452392578125
z: -0.0880507379770279
visibility: 0.9038621783256531
","x: 236.72320556640625
y: 258.48370361328125
z: -0.25795528292655945
visibility: 0.9808905720710754
","x: 195.33409118652344
y: 373.04803466796875
z: -0.047475092113018036
visibility: 0.8864463567733765
","x: 237.380859375
y: 372.3509216308594
z: 0.012954267673194408
visibility: 0.9999464154243469
","x: 211.76846313476562
y: 372.5280456542969
z: -0.012898395769298077
visibility: 0.9999153017997742
","x: 245.86203002929688
y: 459.66937255859375
z: 0.0014930040342733264
visibility: 0.9952936172485352
","x: 214.8978729248047
y: 464.1654968261719
z: -0.014858230948448181
visibility: 0.9929558038711548
","x: 257.4437561035156
y: 542.1680297851562
z: 0.18376962840557098
visibility: 0.9901663661003113
","x: 220.50778198242188
y: 542.03271484375
z: 0.17295749485492706
visibility: 0.9893038868904114
","x: 255.0392303466797
y: 553.0736694335938
z: 0.19708435237407684
visibility: 0.898291826248169
","x: 223.851318359375
y: 552.1238403320312
z: 0.18386530876159668
visibility: 0.8694581985473633
","x: 269.5296630859375
y: 565.3095092773438
z: 0.08314003795385361
visibility: 0.9840793013572693
","x: 217.60446166992188
y: 567.5887451171875
z: 0.059538327157497406
visibility: 0.9829847812652588
",,,,,,,,,,,,,,,,,,,,,,,,,,,,,,,,,,,,,,,,,,
11,"x: 240.08363342285156
y: 211.50979614257812
z: -0.14698342978954315
visibility: 0.9999936819076538
","x: 242.31817626953125
y: 205.71153259277344
z: -0.1261174976825714
visibility: 0.9999818801879883
","x: 243.44810485839844
y: 207.20375061035156
z: -0.1261647343635559
visibility: 0.9999813437461853
","x: 244.55580139160156
y: 208.90347290039062
z: -0.1262223720550537
visibility: 0.9999797344207764
","x: 238.46112060546875
y: 204.4243621826172
z: -0.13465659320354462
visibility: 0.9999787211418152
","x: 236.87176513671875
y: 203.41400146484375
z: -0.13459472358226776
visibility: 0.9999732971191406
","x: 235.07705688476562
y: 202.14932250976562
z: -0.13454590737819672
visibility: 0.9999710917472839
","x: 244.30667114257812
y: 215.03724670410156
z: -0.006459380034357309
visibility: 0.9999619126319885
","x: 230.23141479492188
y: 205.0100555419922
z: -0.060698747634887695
visibility: 0.9999611377716064
","x: 240.38687133789062
y: 221.9774169921875
z: -0.10199116170406342
visibility: 0.9999909996986389
","x: 235.62579345703125
y: 218.26536560058594
z: -0.11485477536916733
visibility: 0.9999904036521912
","x: 246.59059143066406
y: 256.83795166015625
z: 0.05311969667673111
visibility: 0.9999854564666748
","x: 208.23597717285156
y: 245.73495483398438
z: -0.0018411691999062896
visibility: 0.9999767541885376
","x: 249.85009765625
y: 324.3766784667969
z: -0.033267125487327576
visibility: 0.9912627935409546
","x: 197.2656707763672
y: 304.7228088378906
z: 0.013949066400527954
visibility: 0.9331454634666443
","x: 246.0636749267578
y: 278.1693420410156
z: -0.2467581033706665
visibility: 0.9955906271934509
","x: 201.89678955078125
y: 360.7983703613281
z: -0.05293171852827072
visibility: 0.945977509021759
","x: 241.13731384277344
y: 269.9579772949219
z: -0.2972498834133148
visibility: 0.9897028207778931
","x: 200.084716796875
y: 378.7745361328125
z: -0.08233354240655899
visibility: 0.9081051349639893
","x: 241.37266540527344
y: 262.43548583984375
z: -0.29992684721946716
visibility: 0.989434003829956
","x: 204.2742156982422
y: 378.2253723144531
z: -0.10161755234003067
visibility: 0.9096361398696899
","x: 242.21914672851562
y: 264.03533935546875
z: -0.25398004055023193
visibility: 0.9815338850021362
","x: 205.5618896484375
y: 373.20269775390625
z: -0.06122807785868645
visibility: 0.8926761746406555
","x: 238.2225799560547
y: 372.6795654296875
z: 0.025480370968580246
visibility: 0.9999457597732544
","x: 212.2211151123047
y: 372.58612060546875
z: -0.02549024485051632
visibility: 0.9999192953109741
","x: 248.71127319335938
y: 459.4981384277344
z: 0.022557931020855904
visibility: 0.9952041506767273
","x: 217.05502319335938
y: 463.74761962890625
z: -0.01900961808860302
visibility: 0.9932668209075928
","x: 258.6928405761719
y: 540.580078125
z: 0.1949208676815033
visibility: 0.99017333984375
","x: 220.66627502441406
y: 541.7601928710938
z: 0.16227193176746368
visibility: 0.9899136424064636
","x: 255.39076232910156
y: 552.1473388671875
z: 0.20671474933624268
visibility: 0.9026352167129517
","x: 223.99147033691406
y: 552.0009765625
z: 0.17263856530189514
visibility: 0.8748066425323486
","x: 271.6280212402344
y: 563.4436645507812
z: 0.09484609216451645
visibility: 0.9841653108596802
","x: 217.90196228027344
y: 567.590576171875
z: 0.04873605817556381
visibility: 0.9837218523025513
",,,,,,,,,,,,,,,,,,,,,,,,,,,,,,,,,,,,,,,,,,
12,"x: 244.08062744140625
y: 211.2493133544922
z: -0.16606462001800537
visibility: 0.9999938011169434
","x: 245.6911163330078
y: 205.67755126953125
z: -0.14261281490325928
visibility: 0.999982476234436
","x: 246.88153076171875
y: 206.87646484375
z: -0.142647847533226
visibility: 0.9999812245368958
","x: 247.98468017578125
y: 208.17013549804688
z: -0.14268775284290314
visibility: 0.9999796748161316
","x: 241.5163116455078
y: 204.4327392578125
z: -0.16077806055545807
visibility: 0.9999800324440002
","x: 239.6971435546875
y: 203.53427124023438
z: -0.16075147688388824
visibility: 0.9999748468399048
","x: 238.08766174316406
y: 202.25241088867188
z: -0.16074487566947937
visibility: 0.999972939491272
","x: 247.74072265625
y: 214.0334930419922
z: -0.015442976728081703
visibility: 0.9999580979347229
","x: 233.8466033935547
y: 205.12799072265625
z: -0.0919826328754425
visibility: 0.9999643564224243
","x: 245.2516632080078
y: 221.41259765625
z: -0.11394836008548737
visibility: 0.9999908804893494
","x: 239.88482666015625
y: 218.41860961914062
z: -0.1395583599805832
visibility: 0.9999909996986389
","x: 248.24346923828125
y: 258.292724609375
z: 0.06928126513957977
visibility: 0.9999741911888123
","x: 217.36056518554688
y: 246.9662628173828
z: -0.06476220488548279
visibility: 0.9999784231185913
","x: 251.76341247558594
y: 322.6612854003906
z: -0.0229035597294569
visibility: 0.9825321435928345
","x: 210.75086975097656
y: 305.9981689453125
z: -0.071729376912117
visibility: 0.9383468627929688
","x: 252.06173706054688
y: 278.94952392578125
z: -0.2503132224082947
visibility: 0.9924942851066589
","x: 214.3335723876953
y: 367.69232177734375
z: -0.1285305768251419
visibility: 0.9490443468093872
","x: 247.065673828125
y: 270.82891845703125
z: -0.2974282503128052
visibility: 0.9833501577377319
","x: 213.3047332763672
y: 385.1414489746094
z: -0.1579553782939911
visibility: 0.9122039079666138
","x: 246.37796020507812
y: 263.86395263671875
z: -0.2973679304122925
visibility: 0.983091413974762
","x: 217.18548583984375
y: 385.29473876953125
z: -0.176254540681839
visibility: 0.9133931994438171
","x: 247.2147216796875
y: 265.36138916015625
z: -0.2579061985015869
visibility: 0.973296046257019
","x: 218.40138244628906
y: 380.4541015625
z: -0.1354919821023941
visibility: 0.8962181210517883
","x: 243.97207641601562
y: 374.37109375
z: 0.047704990953207016
visibility: 0.9999327659606934
","x: 221.18777465820312
y: 373.7101745605469
z: -0.04779597371816635
visibility: 0.9999172687530518
","x: 252.4446258544922
y: 459.83447265625
z: 0.06448768079280853
visibility: 0.9939202070236206
","x: 223.9918670654297
y: 463.3871765136719
z: -0.02405400387942791
visibility: 0.9934214353561401
","x: 259.9351806640625
y: 540.8353271484375
z: 0.21132755279541016
visibility: 0.9892359375953674
","x: 221.59478759765625
y: 541.8804321289062
z: 0.138325035572052
visibility: 0.99039626121521
","x: 256.8865051269531
y: 552.3204956054688
z: 0.2201234996318817
visibility: 0.9061725735664368
","x: 224.090087890625
y: 552.1466674804688
z: 0.14690135419368744
visibility: 0.8790889382362366
","x: 273.6567687988281
y: 563.4155883789062
z: 0.1181417852640152
visibility: 0.9836435317993164
","x: 220.15869140625
y: 567.6030883789062
z: 0.026521731168031693
visibility: 0.9844050407409668
",,,,,,,,,,,,,,,,,,,,,,"x: 218.88560485839844
y: 369.7967224121094
z: 0.0
","x: 221.1973114013672
y: 378.4094543457031
z: 0.0017606751061975956
","x: 221.701171875
y: 387.285888671875
z: 0.0012479124125093222
","x: 220.7187042236328
y: 393.72259521484375
z: -0.0003364753210917115
","x: 219.5364532470703
y: 397.59912109375
z: -0.001402563415467739
","x: 220.90457153320312
y: 390.0035095214844
z: -0.0006540925242006779
","x: 218.8165740966797
y: 399.3349914550781
z: -0.0030285841785371304
","x: 218.9242706298828
y: 397.01214599609375
z: -0.0032138379756361246
","x: 219.57192993164062
y: 393.8043212890625
z: -0.0029318484012037516
","x: 218.76602172851562
y: 388.4915771484375
z: -0.0033821770921349525
","x: 216.81777954101562
y: 397.5458068847656
z: -0.006122995633631945
","x: 217.00543212890625
y: 395.22247314453125
z: -0.0056167105212807655
","x: 217.58599853515625
y: 391.7782287597656
z: -0.004657683428376913
","x: 216.50082397460938
y: 386.4040832519531
z: -0.006091407500207424
","x: 214.78298950195312
y: 394.5639343261719
z: -0.007786499336361885
","x: 215.18374633789062
y: 392.5738525390625
z: -0.005779818166047335
","x: 215.75579833984375
y: 389.36932373046875
z: -0.004194139968603849
","x: 214.2784423828125
y: 383.88055419921875
z: -0.008918368257582188
","x: 212.8306884765625
y: 390.762939453125
z: -0.009319501928985119
","x: 213.26260375976562
y: 389.3163757324219
z: -0.007672443054616451
","x: 213.77586364746094
y: 386.36175537109375
z: -0.00630399864166975
"
13,"x: 244.08062744140625
y: 211.2493133544922
z: -0.16606462001800537
visibility: 0.9999938011169434
","x: 245.6911163330078
y: 205.67755126953125
z: -0.14261281490325928
visibility: 0.999982476234436
","x: 246.88153076171875
y: 206.87646484375
z: -0.142647847533226
visibility: 0.9999812245368958
","x: 247.98468017578125
y: 208.17013549804688
z: -0.14268775284290314
visibility: 0.9999796748161316
","x: 241.5163116455078
y: 204.4327392578125
z: -0.16077806055545807
visibility: 0.9999800324440002
","x: 239.6971435546875
y: 203.53427124023438
z: -0.16075147688388824
visibility: 0.9999748468399048
","x: 238.08766174316406
y: 202.25241088867188
z: -0.16074487566947937
visibility: 0.999972939491272
","x: 247.74072265625
y: 214.0334930419922
z: -0.015442976728081703
visibility: 0.9999580979347229
","x: 233.8466033935547
y: 205.12799072265625
z: -0.0919826328754425
visibility: 0.9999643564224243
","x: 245.2516632080078
y: 221.41259765625
z: -0.11394836008548737
visibility: 0.9999908804893494
","x: 239.88482666015625
y: 218.41860961914062
z: -0.1395583599805832
visibility: 0.9999909996986389
","x: 248.24346923828125
y: 258.292724609375
z: 0.06928126513957977
visibility: 0.9999741911888123
","x: 217.36056518554688
y: 246.9662628173828
z: -0.06476220488548279
visibility: 0.9999784231185913
","x: 251.76341247558594
y: 322.6612854003906
z: -0.0229035597294569
visibility: 0.9825321435928345
","x: 210.75086975097656
y: 305.9981689453125
z: -0.071729376912117
visibility: 0.9383468627929688
","x: 252.06173706054688
y: 278.94952392578125
z: -0.2503132224082947
visibility: 0.9924942851066589
","x: 214.3335723876953
y: 367.69232177734375
z: -0.1285305768251419
visibility: 0.9490443468093872
","x: 247.065673828125
y: 270.82891845703125
z: -0.2974282503128052
visibility: 0.9833501577377319
","x: 213.3047332763672
y: 385.1414489746094
z: -0.1579553782939911
visibility: 0.9122039079666138
","x: 246.37796020507812
y: 263.86395263671875
z: -0.2973679304122925
visibility: 0.983091413974762
","x: 217.18548583984375
y: 385.29473876953125
z: -0.176254540681839
visibility: 0.9133931994438171
","x: 247.2147216796875
y: 265.36138916015625
z: -0.2579061985015869
visibility: 0.973296046257019
","x: 218.40138244628906
y: 380.4541015625
z: -0.1354919821023941
visibility: 0.8962181210517883
","x: 243.97207641601562
y: 374.37109375
z: 0.047704990953207016
visibility: 0.9999327659606934
","x: 221.18777465820312
y: 373.7101745605469
z: -0.04779597371816635
visibility: 0.9999172687530518
","x: 252.4446258544922
y: 459.83447265625
z: 0.06448768079280853
visibility: 0.9939202070236206
","x: 223.9918670654297
y: 463.3871765136719
z: -0.02405400387942791
visibility: 0.9934214353561401
","x: 259.9351806640625
y: 540.8353271484375
z: 0.21132755279541016
visibility: 0.9892359375953674
","x: 221.59478759765625
y: 541.8804321289062
z: 0.138325035572052
visibility: 0.99039626121521
","x: 256.8865051269531
y: 552.3204956054688
z: 0.2201234996318817
visibility: 0.9061725735664368
","x: 224.090087890625
y: 552.1466674804688
z: 0.14690135419368744
visibility: 0.8790889382362366
","x: 273.6567687988281
y: 563.4155883789062
z: 0.1181417852640152
visibility: 0.9836435317993164
","x: 220.15869140625
y: 567.6030883789062
z: 0.026521731168031693
visibility: 0.9844050407409668
",,,,,,,,,,,,,,,,,,,,,,"x: 218.88560485839844
y: 369.7967224121094
z: 0.0
","x: 221.1973114013672
y: 378.4094543457031
z: 0.0017606751061975956
","x: 221.701171875
y: 387.285888671875
z: 0.0012479124125093222
","x: 220.7187042236328
y: 393.72259521484375
z: -0.0003364753210917115
","x: 219.5364532470703
y: 397.59912109375
z: -0.001402563415467739
","x: 220.90457153320312
y: 390.0035095214844
z: -0.0006540925242006779
","x: 218.8165740966797
y: 399.3349914550781
z: -0.0030285841785371304
","x: 218.9242706298828
y: 397.01214599609375
z: -0.0032138379756361246
","x: 219.57192993164062
y: 393.8043212890625
z: -0.0029318484012037516
","x: 218.76602172851562
y: 388.4915771484375
z: -0.0033821770921349525
","x: 216.81777954101562
y: 397.5458068847656
z: -0.006122995633631945
","x: 217.00543212890625
y: 395.22247314453125
z: -0.0056167105212807655
","x: 217.58599853515625
y: 391.7782287597656
z: -0.004657683428376913
","x: 216.50082397460938
y: 386.4040832519531
z: -0.006091407500207424
","x: 214.78298950195312
y: 394.5639343261719
z: -0.007786499336361885
","x: 215.18374633789062
y: 392.5738525390625
z: -0.005779818166047335
","x: 215.75579833984375
y: 389.36932373046875
z: -0.004194139968603849
","x: 214.2784423828125
y: 383.88055419921875
z: -0.008918368257582188
","x: 212.8306884765625
y: 390.762939453125
z: -0.009319501928985119
","x: 213.26260375976562
y: 389.3163757324219
z: -0.007672443054616451
","x: 213.77586364746094
y: 386.36175537109375
z: -0.00630399864166975
"
14,"x: 246.61868286132812
y: 208.1303253173828
z: -0.19639387726783752
visibility: 0.9999936819076538
","x: 247.58920288085938
y: 202.7793731689453
z: -0.17169111967086792
visibility: 0.9999825954437256
","x: 248.80926513671875
y: 203.3989715576172
z: -0.17169636487960815
visibility: 0.9999802708625793
","x: 249.96031188964844
y: 204.11032104492188
z: -0.1716974675655365
visibility: 0.9999781847000122
","x: 243.32594299316406
y: 202.365234375
z: -0.18879017233848572
visibility: 0.999981164932251
","x: 241.43099975585938
y: 202.20541381835938
z: -0.1887854039669037
visibility: 0.9999763369560242
","x: 239.92271423339844
y: 201.84649658203125
z: -0.18880382180213928
visibility: 0.9999747276306152
","x: 250.00393676757812
y: 210.46002197265625
z: -0.035892095416784286
visibility: 0.9999454617500305
","x: 236.47874450683594
y: 205.4075927734375
z: -0.11374519020318985
visibility: 0.9999673962593079
","x: 248.55001831054688
y: 218.1562957763672
z: -0.1453569531440735
visibility: 0.9999886751174927
","x: 242.8008270263672
y: 217.05294799804688
z: -0.16816721856594086
visibility: 0.9999909996986389
","x: 252.99302673339844
y: 261.2108154296875
z: 0.07583855092525482
visibility: 0.9998950362205505
","x: 224.8325958251953
y: 248.18899536132812
z: -0.10873806476593018
visibility: 0.9999794363975525
","x: 252.82144165039062
y: 322.50445556640625
z: 0.0287543423473835
visibility: 0.9344843626022339
","x: 218.70684814453125
y: 308.6445007324219
z: -0.12617819011211395
visibility: 0.94376140832901
","x: 255.80392456054688
y: 279.07110595703125
z: -0.1456875503063202
visibility: 0.9714329838752747
","x: 223.84814453125
y: 373.52374267578125
z: -0.16093744337558746
visibility: 0.9517130851745605
","x: 253.15550231933594
y: 270.8853759765625
z: -0.1768711507320404
visibility: 0.9535313844680786
","x: 222.37734985351562
y: 389.2833251953125
z: -0.18559372425079346
visibility: 0.9148382544517517
","x: 252.235595703125
y: 263.9130859375
z: -0.18101069331169128
visibility: 0.9537739753723145
","x: 226.6045379638672
y: 389.9978332519531
z: -0.20034757256507874
visibility: 0.9156134128570557
","x: 252.46435546875
y: 266.5361328125
z: -0.1538648009300232
visibility: 0.9391346573829651
","x: 227.92124938964844
y: 384.99798583984375
z: -0.16530796885490417
visibility: 0.8981357216835022
","x: 250.87286376953125
y: 376.42034912109375
z: 0.06022890657186508
visibility: 0.9998952746391296
","x: 229.91329956054688
y: 375.536865234375
z: -0.06035127490758896
visibility: 0.9999074935913086
","x: 256.3133850097656
y: 460.3274841308594
z: 0.09313175827264786
visibility: 0.9929642081260681
","x: 228.84182739257812
y: 463.6230163574219
z: -0.023126784712076187
visibility: 0.9937988519668579
","x: 260.3835754394531
y: 541.1057739257812
z: 0.22645369172096252
visibility: 0.9892395734786987
","x: 222.73301696777344
y: 542.1001586914062
z: 0.13392826914787292
visibility: 0.9910743236541748
","x: 256.77777099609375
y: 552.7633056640625
z: 0.23235420882701874
visibility: 0.9114732146263123
","x: 224.11441040039062
y: 552.2747192382812
z: 0.14227157831192017
visibility: 0.8847818374633789
","x: 272.89471435546875
y: 563.6768188476562
z: 0.129601389169693
visibility: 0.983920693397522
","x: 221.1258544921875
y: 567.507080078125
z: 0.02178412303328514
visibility: 0.9854693412780762
",,,,,,,,,,,,,,,,,,,,,,,,,,,,,,,,,,,,,,,,,,
15,"x: 250.72193908691406
y: 206.65060424804688
z: -0.19593140482902527
visibility: 0.9999940991401672
","x: 250.65130615234375
y: 200.7003173828125
z: -0.1715105175971985
visibility: 0.9999838471412659
","x: 251.687255859375
y: 200.81155395507812
z: -0.1715143322944641
visibility: 0.9999814629554749
","x: 252.75633239746094
y: 201.0117950439453
z: -0.17151260375976562
visibility: 0.9999794960021973
","x: 246.67520141601562
y: 201.38832092285156
z: -0.1877002865076065
visibility: 0.9999827146530151
","x: 245.08633422851562
y: 201.77040100097656
z: -0.18769070506095886
visibility: 0.9999783039093018
","x: 243.37660217285156
y: 201.8943634033203
z: -0.1877157837152481
visibility: 0.9999768733978271
","x: 253.0386505126953
y: 206.73765563964844
z: -0.035109374672174454
visibility: 0.9999464154243469
","x: 240.7109375
y: 205.77792358398438
z: -0.10673008114099503
visibility: 0.9999703764915466
","x: 253.1837158203125
y: 215.99185180664062
z: -0.14384588599205017
visibility: 0.9999890327453613
","x: 248.08367919921875
y: 216.7561492919922
z: -0.16487285494804382
visibility: 0.9999915361404419
","x: 260.8415222167969
y: 261.16131591796875
z: 0.09707987308502197
visibility: 0.9998868107795715
","x: 234.310302734375
y: 248.38433837890625
z: -0.10534539073705673
visibility: 0.9999801516532898
","x: 266.9440002441406
y: 321.30853271484375
z: 0.0006596565945073962
visibility: 0.9243040084838867
","x: 233.92684936523438
y: 313.2264404296875
z: -0.12837351858615875
visibility: 0.9477013945579529
","x: 267.59393310546875
y: 278.9053039550781
z: -0.2325729876756668
visibility: 0.9695733189582825
","x: 239.5640869140625
y: 378.6170959472656
z: -0.16611632704734802
visibility: 0.9527825713157654
","x: 264.25634765625
y: 270.47918701171875
z: -0.27498993277549744
visibility: 0.9483991861343384
","x: 237.7453155517578
y: 394.85400390625
z: -0.1906321793794632
visibility: 0.914595901966095
","x: 263.0118103027344
y: 263.7561950683594
z: -0.271925151348114
visibility: 0.9486769437789917
","x: 241.74557495117188
y: 396.0142517089844
z: -0.20571887493133545
visibility: 0.9147159457206726
","x: 263.2261047363281
y: 266.3667907714844
z: -0.23878982663154602
visibility: 0.9317954778671265
","x: 243.12603759765625
y: 390.30816650390625
z: -0.17032183706760406
visibility: 0.8957346081733704
","x: 260.9438781738281
y: 376.7436218261719
z: 0.07024998962879181
visibility: 0.9998716711997986
","x: 241.14291381835938
y: 375.57489013671875
z: -0.07043918967247009
visibility: 0.9998917579650879
","x: 261.9959411621094
y: 461.36541748046875
z: 0.08918161690235138
visibility: 0.9890869855880737
","x: 235.6779327392578
y: 465.0672607421875
z: -0.04782363027334213
visibility: 0.9938405752182007
","x: 260.300048828125
y: 541.89111328125
z: 0.23242199420928955
visibility: 0.9879651665687561
","x: 223.90093994140625
y: 542.2850341796875
z: 0.09697873890399933
visibility: 0.9914953112602234
","x: 256.1652526855469
y: 552.8154907226562
z: 0.24007995426654816
visibility: 0.9151918888092041
","x: 224.12576293945312
y: 552.5519409179688
z: 0.10492713749408722
visibility: 0.8876256346702576
","x: 273.36614990234375
y: 563.91943359375
z: 0.1450560986995697
visibility: 0.983359158039093
","x: 222.17562866210938
y: 567.455078125
z: -0.013867788016796112
visibility: 0.98614102602005
",,,,,,,,,,,,,,,,,,,,,,,,,,,,,,,,,,,,,,,,,,
16,"x: 253.6109161376953
y: 206.37525939941406
z: -0.1967351734638214
visibility: 0.9999943971633911
","x: 253.32203674316406
y: 200.5747833251953
z: -0.1718120127916336
visibility: 0.9999849796295166
","x: 254.409423828125
y: 200.49923706054688
z: -0.17183880507946014
visibility: 0.9999826550483704
","x: 255.5839080810547
y: 200.46762084960938
z: -0.17184662818908691
visibility: 0.9999808669090271
","x: 249.370849609375
y: 201.59536743164062
z: -0.18553616106510162
visibility: 0.9999839067459106
","x: 247.783935546875
y: 201.8929901123047
z: -0.1855214238166809
visibility: 0.9999798536300659
","x: 246.3901824951172
y: 202.29124450683594
z: -0.18554268777370453
visibility: 0.9999784827232361
","x: 256.6888427734375
y: 205.97373962402344
z: -0.03468920662999153
visibility: 0.9999487400054932
","x: 243.94308471679688
y: 208.61167907714844
z: -0.0949520468711853
visibility: 0.9999728202819824
","x: 257.0184326171875
y: 215.3899383544922
z: -0.14459547400474548
visibility: 0.9999895691871643
","x: 251.54588317871094
y: 216.87051391601562
z: -0.16234208643436432
visibility: 0.9999918937683105
","x: 268.39056396484375
y: 259.7686767578125
z: 0.08779920637607574
visibility: 0.9998928904533386
","x: 238.90383911132812
y: 251.99815368652344
z: -0.07968172430992126
visibility: 0.9999787211418152
","x: 280.3963317871094
y: 316.18548583984375
z: -0.018341703340411186
visibility: 0.9273301959037781
","x: 241.1277618408203
y: 317.6379089355469
z: -0.08919163048267365
visibility: 0.9495232105255127
","x: 276.9387512207031
y: 278.6581115722656
z: -0.2531980872154236
visibility: 0.971250057220459
","x: 247.43356323242188
y: 379.1656494140625
z: -0.1364784687757492
visibility: 0.9492449760437012
","x: 273.6872253417969
y: 270.37109375
z: -0.30542463064193726
visibility: 0.950124204158783
","x: 247.25755310058594
y: 394.870849609375
z: -0.16083520650863647
visibility: 0.9069626331329346
","x: 272.417724609375
y: 264.04095458984375
z: -0.2918948531150818
visibility: 0.950405478477478
","x: 251.1715545654297
y: 395.632080078125
z: -0.18217867612838745
visibility: 0.9063262939453125
","x: 272.8191833496094
y: 266.4185791015625
z: -0.2599029242992401
visibility: 0.9334786534309387
","x: 251.97389221191406
y: 390.4954528808594
z: -0.14359387755393982
visibility: 0.8847161531448364
","x: 268.3503112792969
y: 376.72503662109375
z: 0.06487833708524704
visibility: 0.99985671043396
","x: 247.7408447265625
y: 375.57427978515625
z: -0.06501271575689316
visibility: 0.9998688101768494
","x: 267.8905944824219
y: 462.18267822265625
z: 0.07211922854185104
visibility: 0.9830965399742126
","x: 241.21156311035156
y: 465.0750427246094
z: -0.052701257169246674
visibility: 0.993500292301178
","x: 261.1728515625
y: 543.859375
z: 0.20726068317890167
visibility: 0.986058235168457
","x: 225.23216247558594
y: 542.0134887695312
z: 0.08219593018293381
visibility: 0.9913180470466614
","x: 256.1510009765625
y: 555.1502685546875
z: 0.21509604156017303
visibility: 0.9156737327575684
","x: 224.1661376953125
y: 552.0523681640625
z: 0.08854858577251434
visibility: 0.8851474523544312
","x: 274.08807373046875
y: 563.9692993164062
z: 0.10937690734863281
visibility: 0.9816892743110657
","x: 224.7437744140625
y: 567.5413208007812
z: -0.0353069081902504
visibility: 0.9859904050827026
",,,,,,,,,,,,,,,,,,,,,,,,,,,,,,,,,,,,,,,,,,
17,"x: 253.67648315429688
y: 206.6970672607422
z: -0.2173001766204834
visibility: 0.9999948143959045
","x: 253.84901428222656
y: 200.84207153320312
z: -0.19296859204769135
visibility: 0.9999861717224121
","x: 255.1059112548828
y: 200.386474609375
z: -0.1929849237203598
visibility: 0.9999840259552002
","x: 256.4598388671875
y: 199.9165496826172
z: -0.19296735525131226
visibility: 0.9999823570251465
","x: 249.71969604492188
y: 202.2287139892578
z: -0.19990353286266327
visibility: 0.9999852180480957
","x: 248.11529541015625
y: 203.32489013671875
z: -0.1998920738697052
visibility: 0.9999815225601196
","x: 246.23777770996094
y: 204.87677001953125
z: -0.19990304112434387
visibility: 0.9999802708625793
","x: 258.62066650390625
y: 204.48670959472656
z: -0.05764589458703995
visibility: 0.9999523162841797
","x: 243.8838348388672
y: 212.48670959472656
z: -0.09115545451641083
visibility: 0.999975323677063
","x: 257.71826171875
y: 215.2477264404297
z: -0.1678711473941803
visibility: 0.9999904036521912
","x: 252.58941650390625
y: 216.94252014160156
z: -0.1765729933977127
visibility: 0.9999924898147583
","x: 275.0056457519531
y: 256.41119384765625
z: 0.06681268662214279
visibility: 0.9999004006385803
","x: 240.72970581054688
y: 254.99620056152344
z: -0.06610603630542755
visibility: 0.9999789595603943
","x: 293.03460693359375
y: 305.8526916503906
z: -0.06809955835342407
visibility: 0.9334933161735535
","x: 241.04673767089844
y: 321.09271240234375
z: -0.07305071502923965
visibility: 0.9533698558807373
","x: 285.54901123046875
y: 271.8255920410156
z: -0.3318634033203125
visibility: 0.9735237956047058
","x: 248.2189178466797
y: 380.3277893066406
z: -0.13756653666496277
visibility: 0.9508054256439209
","x: 281.2374572753906
y: 266.1893005371094
z: -0.3834196925163269
visibility: 0.9531943202018738
","x: 248.81979370117188
y: 396.2002868652344
z: -0.1624119132757187
visibility: 0.9079210758209229
","x: 279.6664123535156
y: 261.6155090332031
z: -0.3757876455783844
visibility: 0.9534180760383606
","x: 253.60919189453125
y: 396.4462585449219
z: -0.1850602626800537
visibility: 0.9069609045982361
","x: 280.3158874511719
y: 263.0642395019531
z: -0.33652785420417786
visibility: 0.9371257424354553
","x: 254.19361877441406
y: 391.3142395019531
z: -0.145453542470932
visibility: 0.8847644925117493
","x: 273.2599792480469
y: 376.762451171875
z: 0.05109522491693497
visibility: 0.9998507499694824
","x: 251.03952026367188
y: 375.3874206542969
z: -0.05121124908328056
visibility: 0.9998584985733032
","x: 270.2572937011719
y: 463.1671142578125
z: 0.05486682057380676
visibility: 0.9792211651802063
","x: 243.48226928710938
y: 465.08355712890625
z: -0.041473113000392914
visibility: 0.993450939655304
","x: 261.4163513183594
y: 544.0360107421875
z: 0.2028329074382782
visibility: 0.9846615791320801
","x: 227.92576599121094
y: 542.4010620117188
z: 0.10205209255218506
visibility: 0.9910421967506409
","x: 256.2734680175781
y: 555.1465454101562
z: 0.21240320801734924
visibility: 0.9158737063407898
","x: 226.66900634765625
y: 552.2820434570312
z: 0.10928785800933838
visibility: 0.8802517652511597
","x: 273.50762939453125
y: 564.2108154296875
z: 0.10108651220798492
visibility: 0.9802284240722656
","x: 224.6941375732422
y: 567.5386962890625
z: -0.01710757240653038
visibility: 0.9856098294258118
",,,,,,,,,,,,,,,,,,,,,,,,,,,,,,,,,,,,,,,,,,
18,"x: 252.439208984375
y: 208.0980682373047
z: -0.2592858076095581
visibility: 0.999995231628418
","x: 253.13621520996094
y: 200.8918914794922
z: -0.23916363716125488
visibility: 0.9999873042106628
","x: 254.6494140625
y: 200.8979034423828
z: -0.2391630858182907
visibility: 0.99998539686203
","x: 256.19354248046875
y: 200.43959045410156
z: -0.2391367256641388
visibility: 0.9999838471412659
","x: 248.39967346191406
y: 204.9700164794922
z: -0.23784410953521729
visibility: 0.9999864101409912
","x: 246.7590789794922
y: 206.93704223632812
z: -0.23782913386821747
visibility: 0.9999830722808838
","x: 245.2177276611328
y: 208.80328369140625
z: -0.23782284557819366
visibility: 0.9999818801879883
","x: 259.72796630859375
y: 204.4332275390625
z: -0.11372969299554825
visibility: 0.9999564290046692
","x: 243.84461975097656
y: 215.67535400390625
z: -0.1062500923871994
visibility: 0.9999774694442749
","x: 257.1395263671875
y: 215.6646728515625
z: -0.2129996120929718
visibility: 0.999991238117218
","x: 251.43161010742188
y: 219.13209533691406
z: -0.21052038669586182
visibility: 0.999993085861206
","x: 279.7962951660156
y: 253.32022094726562
z: -0.013679491356015205
visibility: 0.9999091029167175
","x: 240.83865356445312
y: 258.3948669433594
z: -0.04944417625665665
visibility: 0.9999788403511047
","x: 301.4549255371094
y: 298.72052001953125
z: -0.13361750543117523
visibility: 0.9396394491195679
","x: 239.15684509277344
y: 320.2901916503906
z: -0.006722571793943644
visibility: 0.9556707143783569
","x: 292.3070068359375
y: 269.24981689453125
z: -0.3953028917312622
visibility: 0.9756210446357727
","x: 241.0928497314453
y: 379.593994140625
z: -0.08903603255748749
visibility: 0.9504411816596985
","x: 289.191650390625
y: 265.0567932128906
z: -0.4448325037956238
visibility: 0.9560323357582092
","x: 241.33506774902344
y: 395.9403991699219
z: -0.10676676034927368
visibility: 0.9049285054206848
","x: 286.5633239746094
y: 260.45672607421875
z: -0.4432141184806824
visibility: 0.9562690854072571
","x: 244.35362243652344
y: 396.1712341308594
z: -0.1382790207862854
visibility: 0.9040669798851013
","x: 286.7748107910156
y: 261.56158447265625
z: -0.40047937631607056
visibility: 0.9404452443122864
","x: 244.92514038085938
y: 391.34454345703125
z: -0.10133378207683563
visibility: 0.8815739154815674
","x: 275.96954345703125
y: 374.724365234375
z: 0.019104551523923874
visibility: 0.9998476505279541
","x: 252.17958068847656
y: 373.252685546875
z: -0.019193585962057114
visibility: 0.9998497366905212
","x: 270.19677734375
y: 463.57489013671875
z: 0.010516628623008728
visibility: 0.9795381426811218
","x: 244.0048065185547
y: 465.8797607421875
z: -0.03771752864122391
visibility: 0.9936959743499756
","x: 261.5365295410156
y: 544.80078125
z: 0.17226187884807587
visibility: 0.9853137135505676
","x: 231.39990234375
y: 543.81298828125
z: 0.1035725474357605
visibility: 0.9914537072181702
","x: 255.53750610351562
y: 555.681640625
z: 0.18000033497810364
visibility: 0.9176982045173645
","x: 233.48849487304688
y: 553.7644653320312
z: 0.11774826049804688
visibility: 0.8820862770080566
","x: 273.24786376953125
y: 564.6677856445312
z: 0.044613294303417206
visibility: 0.9808464646339417
","x: 224.56234741210938
y: 568.342529296875
z: -9.892302477965131e-05
visibility: 0.986218273639679
",,,,,,,,,,,,,,,,,,,,,,,,,,,,,,,,,,,,,,,,,,
19,"x: 251.97264099121094
y: 209.44786071777344
z: -0.2443060576915741
visibility: 0.9999948143959045
","x: 252.7008819580078
y: 201.45677185058594
z: -0.22838521003723145
visibility: 0.9999860525131226
","x: 254.3704376220703
y: 201.14443969726562
z: -0.22840996086597443
visibility: 0.9999844431877136
","x: 256.0760192871094
y: 200.83421325683594
z: -0.2284047156572342
visibility: 0.9999828338623047
","x: 248.18406677246094
y: 206.6012725830078
z: -0.223166823387146
visibility: 0.9999843239784241
","x: 246.72946166992188
y: 208.5072021484375
z: -0.2231665551662445
visibility: 0.999980628490448
","x: 245.5354461669922
y: 210.1449737548828
z: -0.22318486869335175
visibility: 0.9999788999557495
","x: 260.1685485839844
y: 204.02670288085938
z: -0.11641645431518555
visibility: 0.9999552965164185
","x: 245.53973388671875
y: 216.12596130371094
z: -0.10129399597644806
visibility: 0.9999730587005615
","x: 257.30389404296875
y: 215.97068786621094
z: -0.201980322599411
visibility: 0.9999908208847046
","x: 251.4567413330078
y: 220.078369140625
z: -0.19459828734397888
visibility: 0.9999911189079285
","x: 281.51177978515625
y: 250.22901916503906
z: -0.030360156670212746
visibility: 0.9999123811721802
","x: 242.9171600341797
y: 260.07891845703125
z: -0.011504657566547394
visibility: 0.999967634677887
","x: 301.6464538574219
y: 296.33551025390625
z: -0.16797669231891632
visibility: 0.9447958469390869
","x: 239.78436279296875
y: 320.8956604003906
z: 0.024726364761590958
visibility: 0.9480007886886597
","x: 290.8902282714844
y: 260.5079040527344
z: -0.4112688899040222
visibility: 0.976660966873169
","x: 229.77645874023438
y: 362.26617431640625
z: -0.07029721885919571
visibility: 0.9449076056480408
","x: 286.0328369140625
y: 251.5264892578125
z: -0.45649710297584534
visibility: 0.9561219215393066
","x: 222.5203857421875
y: 373.07684326171875
z: -0.08956386893987656
visibility: 0.8965962529182434
","x: 284.4646911621094
y: 246.10678100585938
z: -0.4523750841617584
visibility: 0.9564281702041626
","x: 220.32554626464844
y: 371.51708984375
z: -0.12548598647117615
visibility: 0.8968533277511597
","x: 284.8680725097656
y: 249.85862731933594
z: -0.41483163833618164
visibility: 0.9401307106018066
","x: 221.97109985351562
y: 368.4854431152344
z: -0.08691754192113876
visibility: 0.8746234178543091
","x: 274.63543701171875
y: 372.29913330078125
z: 0.004131285939365625
visibility: 0.9998310208320618
","x: 250.95445251464844
y: 368.751708984375
z: -0.004204742144793272
visibility: 0.9998165369033813
","x: 268.9383850097656
y: 464.1846923828125
z: -0.014799403958022594
visibility: 0.9796864986419678
","x: 242.9097137451172
y: 465.4519348144531
z: -0.03146668151021004
visibility: 0.9937322735786438
","x: 261.4422912597656
y: 544.8016967773438
z: 0.1530619114637375
visibility: 0.9856940507888794
","x: 232.67788696289062
y: 544.0706176757812
z: 0.11664106696844101
visibility: 0.9918514490127563
","x: 255.46096801757812
y: 555.5046997070312
z: 0.1622379571199417
visibility: 0.9189982414245605
","x: 236.61578369140625
y: 554.3349609375
z: 0.1264379918575287
visibility: 0.8844686150550842
","x: 272.0150146484375
y: 564.7997436523438
z: 0.030813302844762802
visibility: 0.9811893105506897
","x: 223.8848114013672
y: 568.2498779296875
z: 0.007328828331083059
visibility: 0.986728847026825
",,,,,,,,,,,,,,,,,,,,,,,,,,,,,,,,,,,,,,,,,,
20,"x: 251.08946228027344
y: 212.07464599609375
z: -0.15030670166015625
visibility: 0.9999939203262329
","x: 251.90631103515625
y: 202.94874572753906
z: -0.1441536694765091
visibility: 0.9999851584434509
","x: 253.5030517578125
y: 201.71449279785156
z: -0.14421521127223969
visibility: 0.9999837279319763
","x: 255.05584716796875
y: 201.0051727294922
z: -0.14424322545528412
visibility: 0.9999824166297913
","x: 247.47845458984375
y: 208.60821533203125
z: -0.12739518284797668
visibility: 0.9999811053276062
","x: 246.1707763671875
y: 210.35107421875
z: -0.1273726522922516
visibility: 0.9999759197235107
","x: 245.099609375
y: 211.75926208496094
z: -0.12737807631492615
visibility: 0.9999737739562988
","x: 259.8071594238281
y: 204.53622436523438
z: -0.11002255976200104
visibility: 0.9999569654464722
","x: 246.37281799316406
y: 216.1665496826172
z: 0.0005106469616293907
visibility: 0.9999661445617676
","x: 255.54940795898438
y: 217.11709594726562
z: -0.12336425483226776
visibility: 0.9999902248382568
","x: 250.00997924804688
y: 220.95640563964844
z: -0.10124462842941284
visibility: 0.9999880194664001
","x: 280.4215393066406
y: 249.23123168945312
z: -0.018880344927310944
visibility: 0.9999182224273682
","x: 245.76756286621094
y: 260.2288513183594
z: 0.09066032618284225
visibility: 0.9999467134475708
","x: 293.9773254394531
y: 297.01007080078125
z: -0.15640270709991455
visibility: 0.9498875737190247
","x: 241.76206970214844
y: 321.9122619628906
z: 0.11565228551626205
visibility: 0.9260748028755188
","x: 281.9691467285156
y: 244.37539672851562
z: -0.3615361452102661
visibility: 0.9787921905517578
","x: 219.87359619140625
y: 316.8039855957031
z: -0.026588210836052895
visibility: 0.9428803324699402
","x: 279.3031005859375
y: 230.02931213378906
z: -0.4066821038722992
visibility: 0.9598541259765625
","x: 211.3709259033203
y: 317.07177734375
z: -0.048723649233579636
visibility: 0.8957083225250244
","x: 278.986083984375
y: 226.5644989013672
z: -0.4012967646121979
visibility: 0.9600914716720581
","x: 209.80050659179688
y: 312.27197265625
z: -0.08027365058660507
visibility: 0.8966394662857056
","x: 278.8346252441406
y: 230.90475463867188
z: -0.3644576370716095
visibility: 0.9448649287223816
","x: 212.55470275878906
y: 311.6734924316406
z: -0.04451673850417137
visibility: 0.8749359250068665
","x: 273.3786926269531
y: 371.8616943359375
z: -0.021214542910456657
visibility: 0.9998254776000977
","x: 249.35374450683594
y: 367.9220886230469
z: 0.021253803744912148
visibility: 0.9997956156730652
","x: 267.8864440917969
y: 464.3693542480469
z: -0.04578791558742523
visibility: 0.9810107350349426
","x: 240.34527587890625
y: 464.351806640625
z: -0.00861271470785141
visibility: 0.9939619898796082
","x: 261.8359680175781
y: 544.9544677734375
z: 0.11352300643920898
visibility: 0.9863850474357605
","x: 232.68490600585938
y: 544.0734252929688
z: 0.11979969590902328
visibility: 0.9922646880149841
","x: 255.6260528564453
y: 555.6525268554688
z: 0.1227119117975235
visibility: 0.9209155440330505
","x: 236.6448211669922
y: 554.7579345703125
z: 0.1280357539653778
visibility: 0.8897287845611572
","x: 271.6122741699219
y: 565.13818359375
z: -0.0019255945226177573
visibility: 0.9819809198379517
","x: 223.7122802734375
y: 568.2421264648438
z: 0.010658804327249527
visibility: 0.987297534942627
",,,,,,,,,,,,,,,,,,,,,,,,,,,,,,,,,,,,,,,,,,
21,"x: 248.9554901123047
y: 216.74929809570312
z: -0.06659481674432755
visibility: 0.9999796748161316
","x: 251.1453399658203
y: 207.30770874023438
z: -0.07931805402040482
visibility: 0.9999604821205139
","x: 252.39016723632812
y: 206.18104553222656
z: -0.0793682336807251
visibility: 0.9999586939811707
","x: 253.70249938964844
y: 205.17764282226562
z: -0.07937021553516388
visibility: 0.9999564290046692
","x: 247.1381072998047
y: 210.31663513183594
z: -0.05168776586651802
visibility: 0.9999440312385559
","x: 246.33917236328125
y: 211.0594024658203
z: -0.05168280005455017
visibility: 0.9999302625656128
","x: 245.91021728515625
y: 211.7005615234375
z: -0.05176243931055069
visibility: 0.9999315738677979
","x: 259.1241760253906
y: 206.7365264892578
z: -0.08870372921228409
visibility: 0.9999175071716309
","x: 250.9581756591797
y: 216.0331573486328
z: 0.03733435273170471
visibility: 0.9999063611030579
","x: 253.98959350585938
y: 221.07237243652344
z: -0.06592215597629547
visibility: 0.9999509453773499
","x: 249.19915771484375
y: 223.32879638671875
z: -0.029990065842866898
visibility: 0.9999234080314636
","x: 281.21063232421875
y: 248.28443908691406
z: -0.08228037506341934
visibility: 0.9998846054077148
","x: 248.1828155517578
y: 259.91571044921875
z: 0.11249607801437378
visibility: 0.9999153017997742
","x: 279.7080078125
y: 299.4185485839844
z: -0.1997734010219574
visibility: 0.9517231583595276
","x: 239.61932373046875
y: 319.0189208984375
z: 0.15076923370361328
visibility: 0.8990827798843384
","x: 268.25982666015625
y: 240.14651489257812
z: -0.3128557503223419
visibility: 0.9799566864967346
","x: 220.30056762695312
y: 283.07330322265625
z: 0.052119456231594086
visibility: 0.9394384622573853
","x: 267.71392822265625
y: 224.5582733154297
z: -0.3384537398815155
visibility: 0.961844265460968
","x: 214.2249755859375
y: 273.8509216308594
z: 0.04101003333926201
visibility: 0.8914380669593811
","x: 272.2983093261719
y: 221.23374938964844
z: -0.3316531777381897
visibility: 0.9618332982063293
","x: 214.23019409179688
y: 268.69097900390625
z: 0.02158661000430584
visibility: 0.8927391767501831
","x: 272.82794189453125
y: 224.80801391601562
z: -0.3102116584777832
visibility: 0.9462108612060547
","x: 216.44635009765625
y: 271.2190856933594
z: 0.03923296183347702
visibility: 0.8704594373703003
","x: 270.4681396484375
y: 372.09295654296875
z: -0.03955882787704468
visibility: 0.999761164188385
","x: 247.5149688720703
y: 367.6498718261719
z: 0.03954554349184036
visibility: 0.9997797012329102
","x: 266.8363342285156
y: 464.3614501953125
z: -0.042857825756073
visibility: 0.981793224811554
","x: 238.50119018554688
y: 457.9168395996094
z: -0.010527625679969788
visibility: 0.9942116141319275
","x: 261.76324462890625
y: 544.95458984375
z: 0.12883372604846954
visibility: 0.9866142272949219
","x: 230.87252807617188
y: 542.3328247070312
z: 0.10046841949224472
visibility: 0.9926491975784302
","x: 255.66506958007812
y: 555.641845703125
z: 0.13953553140163422
visibility: 0.919879674911499
","x: 234.99435424804688
y: 553.8316650390625
z: 0.10648491233587265
visibility: 0.8963285088539124
","x: 270.63238525390625
y: 565.212646484375
z: 0.028110835701227188
visibility: 0.9823116064071655
","x: 215.4894256591797
y: 567.596923828125
z: 0.0028173918835818768
visibility: 0.9879494309425354
",,,,,,,,,,,,,,,,,,,,,,,,,,,,,,,,,,,,,,,,,,
22,"x: 244.1529541015625
y: 218.39173889160156
z: -0.05020414665341377
visibility: 0.9999691247940063
","x: 246.78880310058594
y: 209.02902221679688
z: -0.06551998853683472
visibility: 0.99994295835495
","x: 247.93865966796875
y: 208.03353881835938
z: -0.06554936617612839
visibility: 0.999940037727356
","x: 249.1571044921875
y: 207.00796508789062
z: -0.06555114686489105
visibility: 0.9999359846115112
","x: 245.13711547851562
y: 210.67579650878906
z: -0.035447847098112106
visibility: 0.9999226927757263
","x: 245.37103271484375
y: 210.94114685058594
z: -0.035452984273433685
visibility: 0.9999066591262817
","x: 245.64271545410156
y: 211.28302001953125
z: -0.03550278767943382
visibility: 0.9999096393585205
","x: 258.17535400390625
y: 207.0944061279297
z: -0.08627782762050629
visibility: 0.999889612197876
","x: 250.1749725341797
y: 214.5035400390625
z: 0.047549761831760406
visibility: 0.9998645186424255
","x: 248.4483184814453
y: 223.56300354003906
z: -0.05466027185320854
visibility: 0.9999191761016846
","x: 247.19873046875
y: 224.9650421142578
z: -0.01600411906838417
visibility: 0.9998723864555359
","x: 277.75653076171875
y: 247.6143035888672
z: -0.09266158193349838
visibility: 0.9998524785041809
","x: 246.2729034423828
y: 258.444580078125
z: 0.11219270527362823
visibility: 0.9998949766159058
","x: 264.5906066894531
y: 300.6021423339844
z: -0.16266627609729767
visibility: 0.9526820182800293
","x: 237.90431213378906
y: 310.4894104003906
z: 0.07366913557052612
visibility: 0.872888445854187
","x: 252.38485717773438
y: 245.53651428222656
z: -0.17603930830955505
visibility: 0.9799926280975342
","x: 224.5970916748047
y: 274.89068603515625
z: -0.12600749731063843
visibility: 0.9334393739700317
","x: 249.4058380126953
y: 229.4599151611328
z: -0.19238600134849548
visibility: 0.9612684845924377
","x: 220.7978057861328
y: 264.5963439941406
z: -0.1491623967885971
visibility: 0.8831685185432434
","x: 253.40200805664062
y: 223.11148071289062
z: -0.18470945954322815
visibility: 0.960750162601471
","x: 220.06393432617188
y: 260.6806640625
z: -0.1488829255104065
visibility: 0.8831751942634583
","x: 254.4891357421875
y: 226.6739501953125
z: -0.17074468731880188
visibility: 0.9433351755142212
","x: 221.851318359375
y: 263.6736755371094
z: -0.13401179015636444
visibility: 0.8589950203895569
","x: 268.92242431640625
y: 372.2168273925781
z: -0.0336630679666996
visibility: 0.9997358322143555
","x: 245.7045135498047
y: 367.82733154296875
z: 0.033557772636413574
visibility: 0.9997757077217102
","x: 264.7354431152344
y: 464.6993408203125
z: -0.03061232902109623
visibility: 0.9828106760978699
","x: 234.11814880371094
y: 456.7623596191406
z: 0.027469754219055176
visibility: 0.9943051934242249
","x: 261.6473388671875
y: 544.9525146484375
z: 0.14119791984558105
visibility: 0.9867866635322571
","x: 222.11471557617188
y: 534.5866088867188
z: 0.16639344394207
visibility: 0.9927300810813904
","x: 256.1476135253906
y: 555.3405151367188
z: 0.15148663520812988
visibility: 0.9194532036781311
","x: 225.1951446533203
y: 544.7931518554688
z: 0.1754527986049652
visibility: 0.8980975151062012
","x: 270.6649475097656
y: 565.43701171875
z: 0.04418417066335678
visibility: 0.9824537634849548
","x: 212.48611450195312
y: 562.867431640625
z: 0.08488734066486359
visibility: 0.9880712628364563
",,,,,,,,,,,,,,,,,,,,,,"x: 227.4767608642578
y: 271.7947998046875
z: 0.0
","x: 229.82542419433594
y: 266.37982177734375
z: -0.001407909905537963
","x: 230.5576629638672
y: 259.44482421875
z: -0.0020710674580186605
","x: 230.70980834960938
y: 254.1786346435547
z: -0.003161849919706583
","x: 230.9229736328125
y: 250.12783813476562
z: -0.003981545101851225
","x: 224.52508544921875
y: 254.60470581054688
z: 0.001586556201800704
","x: 223.9404754638672
y: 246.83682250976562
z: -0.0001537239004392177
","x: 224.4592742919922
y: 242.62548828125
z: -0.0015716581838205457
","x: 224.99560546875
y: 239.39181518554688
z: -0.0023089428432285786
","x: 222.97093200683594
y: 255.2711181640625
z: 0.0006878622225485742
","x: 222.31546020507812
y: 247.44309997558594
z: -0.0008907992742024362
","x: 223.10015869140625
y: 242.832763671875
z: -0.002130137523636222
","x: 223.92210388183594
y: 239.43780517578125
z: -0.0028403408359736204
","x: 221.8889617919922
y: 256.5020751953125
z: -0.0008337675244547427
","x: 221.4084014892578
y: 249.25360107421875
z: -0.0027312696911394596
","x: 222.08193969726562
y: 244.86085510253906
z: -0.003734914120286703
","x: 222.9273223876953
y: 241.6619873046875
z: -0.004192259628325701
","x: 221.33531188964844
y: 258.2601623535156
z: -0.002732645021751523
","x: 220.7265625
y: 252.2499237060547
z: -0.004235061351209879
","x: 221.15321350097656
y: 248.64122009277344
z: -0.004839277360588312
","x: 221.8623504638672
y: 245.9884796142578
z: -0.005072707310318947
"
23,"x: 244.1529541015625
y: 218.39173889160156
z: -0.05020414665341377
visibility: 0.9999691247940063
","x: 246.78880310058594
y: 209.02902221679688
z: -0.06551998853683472
visibility: 0.99994295835495
","x: 247.93865966796875
y: 208.03353881835938
z: -0.06554936617612839
visibility: 0.999940037727356
","x: 249.1571044921875
y: 207.00796508789062
z: -0.06555114686489105
visibility: 0.9999359846115112
","x: 245.13711547851562
y: 210.67579650878906
z: -0.035447847098112106
visibility: 0.9999226927757263
","x: 245.37103271484375
y: 210.94114685058594
z: -0.035452984273433685
visibility: 0.9999066591262817
","x: 245.64271545410156
y: 211.28302001953125
z: -0.03550278767943382
visibility: 0.9999096393585205
","x: 258.17535400390625
y: 207.0944061279297
z: -0.08627782762050629
visibility: 0.999889612197876
","x: 250.1749725341797
y: 214.5035400390625
z: 0.047549761831760406
visibility: 0.9998645186424255
","x: 248.4483184814453
y: 223.56300354003906
z: -0.05466027185320854
visibility: 0.9999191761016846
","x: 247.19873046875
y: 224.9650421142578
z: -0.01600411906838417
visibility: 0.9998723864555359
","x: 277.75653076171875
y: 247.6143035888672
z: -0.09266158193349838
visibility: 0.9998524785041809
","x: 246.2729034423828
y: 258.444580078125
z: 0.11219270527362823
visibility: 0.9998949766159058
","x: 264.5906066894531
y: 300.6021423339844
z: -0.16266627609729767
visibility: 0.9526820182800293
","x: 237.90431213378906
y: 310.4894104003906
z: 0.07366913557052612
visibility: 0.872888445854187
","x: 252.38485717773438
y: 245.53651428222656
z: -0.17603930830955505
visibility: 0.9799926280975342
","x: 224.5970916748047
y: 274.89068603515625
z: -0.12600749731063843
visibility: 0.9334393739700317
","x: 249.4058380126953
y: 229.4599151611328
z: -0.19238600134849548
visibility: 0.9612684845924377
","x: 220.7978057861328
y: 264.5963439941406
z: -0.1491623967885971
visibility: 0.8831685185432434
","x: 253.40200805664062
y: 223.11148071289062
z: -0.18470945954322815
visibility: 0.960750162601471
","x: 220.06393432617188
y: 260.6806640625
z: -0.1488829255104065
visibility: 0.8831751942634583
","x: 254.4891357421875
y: 226.6739501953125
z: -0.17074468731880188
visibility: 0.9433351755142212
","x: 221.851318359375
y: 263.6736755371094
z: -0.13401179015636444
visibility: 0.8589950203895569
","x: 268.92242431640625
y: 372.2168273925781
z: -0.0336630679666996
visibility: 0.9997358322143555
","x: 245.7045135498047
y: 367.82733154296875
z: 0.033557772636413574
visibility: 0.9997757077217102
","x: 264.7354431152344
y: 464.6993408203125
z: -0.03061232902109623
visibility: 0.9828106760978699
","x: 234.11814880371094
y: 456.7623596191406
z: 0.027469754219055176
visibility: 0.9943051934242249
","x: 261.6473388671875
y: 544.9525146484375
z: 0.14119791984558105
visibility: 0.9867866635322571
","x: 222.11471557617188
y: 534.5866088867188
z: 0.16639344394207
visibility: 0.9927300810813904
","x: 256.1476135253906
y: 555.3405151367188
z: 0.15148663520812988
visibility: 0.9194532036781311
","x: 225.1951446533203
y: 544.7931518554688
z: 0.1754527986049652
visibility: 0.8980975151062012
","x: 270.6649475097656
y: 565.43701171875
z: 0.04418417066335678
visibility: 0.9824537634849548
","x: 212.48611450195312
y: 562.867431640625
z: 0.08488734066486359
visibility: 0.9880712628364563
",,,,,,,,,,,,,,,,,,,,,,"x: 227.4767608642578
y: 271.7947998046875
z: 0.0
","x: 229.82542419433594
y: 266.37982177734375
z: -0.001407909905537963
","x: 230.5576629638672
y: 259.44482421875
z: -0.0020710674580186605
","x: 230.70980834960938
y: 254.1786346435547
z: -0.003161849919706583
","x: 230.9229736328125
y: 250.12783813476562
z: -0.003981545101851225
","x: 224.52508544921875
y: 254.60470581054688
z: 0.001586556201800704
","x: 223.9404754638672
y: 246.83682250976562
z: -0.0001537239004392177
","x: 224.4592742919922
y: 242.62548828125
z: -0.0015716581838205457
","x: 224.99560546875
y: 239.39181518554688
z: -0.0023089428432285786
","x: 222.97093200683594
y: 255.2711181640625
z: 0.0006878622225485742
","x: 222.31546020507812
y: 247.44309997558594
z: -0.0008907992742024362
","x: 223.10015869140625
y: 242.832763671875
z: -0.002130137523636222
","x: 223.92210388183594
y: 239.43780517578125
z: -0.0028403408359736204
","x: 221.8889617919922
y: 256.5020751953125
z: -0.0008337675244547427
","x: 221.4084014892578
y: 249.25360107421875
z: -0.0027312696911394596
","x: 222.08193969726562
y: 244.86085510253906
z: -0.003734914120286703
","x: 222.9273223876953
y: 241.6619873046875
z: -0.004192259628325701
","x: 221.33531188964844
y: 258.2601623535156
z: -0.002732645021751523
","x: 220.7265625
y: 252.2499237060547
z: -0.004235061351209879
","x: 221.15321350097656
y: 248.64122009277344
z: -0.004839277360588312
","x: 221.8623504638672
y: 245.9884796142578
z: -0.005072707310318947
"
24,"x: 238.3595733642578
y: 216.3706817626953
z: -0.016110431402921677
visibility: 0.9999513626098633
","x: 241.97129821777344
y: 206.94383239746094
z: -0.030649710446596146
visibility: 0.9999156594276428
","x: 243.17770385742188
y: 206.40748596191406
z: -0.030687719583511353
visibility: 0.9999130964279175
","x: 244.47647094726562
y: 205.8557891845703
z: -0.030711542814970016
visibility: 0.9999104738235474
","x: 241.0090789794922
y: 207.180908203125
z: -0.004225957673043013
visibility: 0.999886691570282
","x: 241.66799926757812
y: 206.81021118164062
z: -0.004227706231176853
visibility: 0.99986332654953
","x: 242.53054809570312
y: 206.51055908203125
z: -0.004231989849358797
visibility: 0.999864935874939
","x: 252.62774658203125
y: 206.89495849609375
z: -0.0559258759021759
visibility: 0.9998612999916077
","x: 248.38668823242188
y: 209.01333618164062
z: 0.06594410538673401
visibility: 0.9997708797454834
","x: 241.82797241210938
y: 222.56639099121094
z: -0.020431796088814735
visibility: 0.9998638033866882
","x: 240.92428588867188
y: 222.8842010498047
z: 0.013146154582500458
visibility: 0.999761700630188
","x: 269.57867431640625
y: 247.90956115722656
z: -0.0690293163061142
visibility: 0.9998151063919067
","x: 243.6632843017578
y: 252.47869873046875
z: 0.12736870348453522
visibility: 0.9998067617416382
","x: 254.2640838623047
y: 302.21954345703125
z: -0.11114877462387085
visibility: 0.9526194930076599
","x: 236.47879028320312
y: 303.606201171875
z: 0.06033499166369438
visibility: 0.8156760931015015
","x: 236.62185668945312
y: 246.89694213867188
z: -0.0556994192302227
visibility: 0.9785529971122742
","x: 228.2237091064453
y: 268.8744812011719
z: -0.11665475368499756
visibility: 0.8874776363372803
","x: 231.58963012695312
y: 231.66139221191406
z: -0.06405585259199142
visibility: 0.9575157761573792
","x: 225.59735107421875
y: 257.8875427246094
z: -0.1396811306476593
visibility: 0.8332145810127258
","x: 233.92584228515625
y: 226.0308837890625
z: -0.056145161390304565
visibility: 0.9565133452415466
","x: 225.47003173828125
y: 252.81752014160156
z: -0.1390891969203949
visibility: 0.8309229016304016
","x: 235.84144592285156
y: 227.23046875
z: -0.04878177493810654
visibility: 0.9366805553436279
","x: 227.6157989501953
y: 255.11962890625
z: -0.12365059554576874
visibility: 0.805385947227478
","x: 261.6012268066406
y: 372.3223876953125
z: -0.03071211650967598
visibility: 0.9996922612190247
","x: 239.49038696289062
y: 367.7312927246094
z: 0.030681168660521507
visibility: 0.999755859375
","x: 258.541015625
y: 464.021240234375
z: -0.022802721709012985
visibility: 0.983814001083374
","x: 228.5003204345703
y: 456.3746643066406
z: 0.03896377235651016
visibility: 0.9944013953208923
","x: 261.1031494140625
y: 544.9349365234375
z: 0.12090404331684113
visibility: 0.9873381853103638
","x: 217.066650390625
y: 534.923828125
z: 0.15738466382026672
visibility: 0.9929595589637756
","x: 256.4275817871094
y: 555.2039184570312
z: 0.12748795747756958
visibility: 0.9201170802116394
","x: 218.8683319091797
y: 545.3937377929688
z: 0.16395306587219238
visibility: 0.9001325964927673
","x: 270.6559143066406
y: 565.7294311523438
z: 0.025997847318649292
visibility: 0.9830580949783325
","x: 210.4461212158203
y: 562.4840087890625
z: 0.07098445296287537
visibility: 0.9883133769035339
",,,,,,,,,,,,,,,,,,,,,,,,,,,,,,,,,,,,,,,,,,
25,"x: 232.39321899414062
y: 209.63697814941406
z: -0.025498952716588974
visibility: 0.9999508261680603
","x: 236.48773193359375
y: 201.2187042236328
z: -0.09775375574827194
visibility: 0.9999136924743652
","x: 237.6468963623047
y: 201.10369873046875
z: -0.09784109890460968
visibility: 0.9999109506607056
","x: 238.97364807128906
y: 200.9049072265625
z: -0.09785047173500061
visibility: 0.9999083280563354
","x: 234.85842895507812
y: 201.2450408935547
z: -0.008083401247859001
visibility: 0.9998833537101746
","x: 234.96966552734375
y: 201.12008666992188
z: -0.008252867497503757
visibility: 0.9998582601547241
","x: 235.21484375
y: 200.9890594482422
z: -0.008938669227063656
visibility: 0.9998571276664734
","x: 246.27999877929688
y: 204.93115234375
z: -0.11052628606557846
visibility: 0.9998624324798584
","x: 241.38002014160156
y: 204.35360717773438
z: 0.04499923437833786
visibility: 0.999729335308075
","x: 235.05455017089844
y: 217.3769989013672
z: -0.09043880552053452
visibility: 0.9998661875724792
","x: 233.24740600585938
y: 216.72325134277344
z: -0.002783471252769232
visibility: 0.9997588992118835
","x: 258.5685119628906
y: 248.11456298828125
z: -0.11661157757043839
visibility: 0.9997993111610413
","x: 233.55633544921875
y: 252.0572509765625
z: 0.0821899026632309
visibility: 0.9997718334197998
","x: 245.9617919921875
y: 310.35772705078125
z: -0.13759519159793854
visibility: 0.9545888304710388
","x: 225.7457275390625
y: 314.37969970703125
z: 0.014414581470191479
visibility: 0.7667341232299805
","x: 226.70924377441406
y: 262.30047607421875
z: -0.1224806159734726
visibility: 0.9784091711044312
","x: 222.7806854248047
y: 275.4500427246094
z: -0.19974960386753082
visibility: 0.8618590235710144
","x: 220.666015625
y: 250.85964965820312
z: -0.13477370142936707
visibility: 0.9564084410667419
","x: 220.14468383789062
y: 264.368408203125
z: -0.23070859909057617
visibility: 0.8067169785499573
","x: 223.0762176513672
y: 244.23733520507812
z: -0.13050588965415955
visibility: 0.9551148414611816
","x: 220.31414794921875
y: 259.66143798828125
z: -0.23261821269989014
visibility: 0.8016754388809204
","x: 225.189208984375
y: 245.4837188720703
z: -0.11724957078695297
visibility: 0.9342821836471558
","x: 222.4742431640625
y: 262.4081726074219
z: -0.2087298333644867
visibility: 0.7740588784217834
","x: 248.74371337890625
y: 372.4200134277344
z: -0.0334354005753994
visibility: 0.9996697902679443
","x: 226.91082763671875
y: 367.99761962890625
z: 0.03334026038646698
visibility: 0.9997383952140808
","x: 250.8528594970703
y: 463.39434814453125
z: 0.018410511314868927
visibility: 0.9850112199783325
","x: 220.32638549804688
y: 457.0343322753906
z: 0.07696003466844559
visibility: 0.9946864247322083
","x: 261.3153076171875
y: 544.4791259765625
z: 0.1515434980392456
visibility: 0.9881114363670349
","x: 214.66026306152344
y: 535.7911987304688
z: 0.21362340450286865
visibility: 0.9932880997657776
","x: 258.1792297363281
y: 553.892822265625
z: 0.15693983435630798
visibility: 0.921480655670166
","x: 216.4081573486328
y: 546.291259765625
z: 0.22120897471904755
visibility: 0.9046226739883423
","x: 270.47308349609375
y: 566.0902709960938
z: 0.04687326401472092
visibility: 0.9839680194854736
","x: 209.67662048339844
y: 562.604736328125
z: 0.12727037072181702
visibility: 0.9887902140617371
",,,,,,,,,,,,,,,,,,,,,,"x: 225.9942626953125
y: 266.5256652832031
z: 0.0
","x: 226.52618408203125
y: 257.35992431640625
z: 0.0014520405093207955
","x: 224.57211303710938
y: 249.8390350341797
z: 0.0007819533930160105
","x: 221.31500244140625
y: 247.22662353515625
z: -0.0005132639780640602
","x: 218.17860412597656
y: 247.74667358398438
z: -0.0016683555440977216
","x: 222.1162872314453
y: 246.70950317382812
z: -0.0007947768899612129
","x: 218.8347625732422
y: 239.96820068359375
z: -0.0020878666546195745
","x: 216.9638671875
y: 235.85267639160156
z: -0.002466424135491252
","x: 215.62899780273438
y: 233.080078125
z: -0.002646195236593485
","x: 219.70010375976562
y: 249.883544921875
z: -0.002813167404383421
","x: 214.97833251953125
y: 245.5256805419922
z: -0.003520247293636203
","x: 214.90460205078125
y: 247.51068115234375
z: -0.002086767926812172
","x: 215.87185668945312
y: 249.8440399169922
z: -0.0008652706164866686
","x: 217.77157592773438
y: 254.0878448486328
z: -0.004784094635397196
","x: 213.6138458251953
y: 251.09085083007812
z: -0.005180775187909603
","x: 214.14242553710938
y: 253.25865173339844
z: -0.0033615706488490105
","x: 215.41676330566406
y: 255.1414794921875
z: -0.0020823776721954346
","x: 216.414306640625
y: 258.6673583984375
z: -0.0068426551297307014
","x: 213.36326599121094
y: 256.656982421875
z: -0.007022268138825893
","x: 213.87811279296875
y: 258.2074890136719
z: -0.0056954179890453815
","x: 214.98094177246094
y: 259.86187744140625
z: -0.004574957303702831
"
26,"x: 232.39321899414062
y: 209.63697814941406
z: -0.025498952716588974
visibility: 0.9999508261680603
","x: 236.48773193359375
y: 201.2187042236328
z: -0.09775375574827194
visibility: 0.9999136924743652
","x: 237.6468963623047
y: 201.10369873046875
z: -0.09784109890460968
visibility: 0.9999109506607056
","x: 238.97364807128906
y: 200.9049072265625
z: -0.09785047173500061
visibility: 0.9999083280563354
","x: 234.85842895507812
y: 201.2450408935547
z: -0.008083401247859001
visibility: 0.9998833537101746
","x: 234.96966552734375
y: 201.12008666992188
z: -0.008252867497503757
visibility: 0.9998582601547241
","x: 235.21484375
y: 200.9890594482422
z: -0.008938669227063656
visibility: 0.9998571276664734
","x: 246.27999877929688
y: 204.93115234375
z: -0.11052628606557846
visibility: 0.9998624324798584
","x: 241.38002014160156
y: 204.35360717773438
z: 0.04499923437833786
visibility: 0.999729335308075
","x: 235.05455017089844
y: 217.3769989013672
z: -0.09043880552053452
visibility: 0.9998661875724792
","x: 233.24740600585938
y: 216.72325134277344
z: -0.002783471252769232
visibility: 0.9997588992118835
","x: 258.5685119628906
y: 248.11456298828125
z: -0.11661157757043839
visibility: 0.9997993111610413
","x: 233.55633544921875
y: 252.0572509765625
z: 0.0821899026632309
visibility: 0.9997718334197998
","x: 245.9617919921875
y: 310.35772705078125
z: -0.13759519159793854
visibility: 0.9545888304710388
","x: 225.7457275390625
y: 314.37969970703125
z: 0.014414581470191479
visibility: 0.7667341232299805
","x: 226.70924377441406
y: 262.30047607421875
z: -0.1224806159734726
visibility: 0.9784091711044312
","x: 222.7806854248047
y: 275.4500427246094
z: -0.19974960386753082
visibility: 0.8618590235710144
","x: 220.666015625
y: 250.85964965820312
z: -0.13477370142936707
visibility: 0.9564084410667419
","x: 220.14468383789062
y: 264.368408203125
z: -0.23070859909057617
visibility: 0.8067169785499573
","x: 223.0762176513672
