uscmakers/ReverseChoreography/data/8_thats_what_i_like_bruno_mars.csv
,NOSE,LEFT_EYE_INNER,LEFT_EYE,LEFT_EYE_OUTER,RIGHT_EYE_INNER,RIGHT_EYE,RIGHT_EYE_OUTER,LEFT_EAR,RIGHT_EAR,MOUTH_LEFT,MOUTH_RIGHT,LEFT_SHOULDER,RIGHT_SHOULDER,LEFT_ELBOW,RIGHT_ELBOW,LEFT_WRIST,RIGHT_WRIST,LEFT_PINKY,RIGHT_PINKY,LEFT_INDEX,RIGHT_INDEX,LEFT_THUMB,RIGHT_THUMB,LEFT_HIP,RIGHT_HIP,LEFT_KNEE,RIGHT_KNEE,LEFT_ANKLE,RIGHT_ANKLE,LEFT_HEEL,RIGHT_HEEL,LEFT_FOOT_INDEX,RIGHT_FOOT_INDEX,WRIST,THUMB_CPC,THUMB_MCP,THUMB_IP,THUMB_TIP,INDEX_FINGER_MCP,INDEX_FINGER_PIP,INDEX_FINGER_DIP,INDEX_FINGER_TIP,MIDDLE_FINGER_MCP,MIDDLE_FINGER_PIP,MIDDLE_FINGER_DIP,MIDDLE_FINGER_TIP,RING_FINGER_PIP,RING_FINGER_DIP,RING_FINGER_TIP,RING_FINGER_MCP,PINKY_MCP,PINKY_PIP,PINKY_DIP,PINKY_TIP,WRIST2,THUMB_CPC2,THUMB_MCP2,THUMB_IP2,THUMB_TIP2,INDEX_FINGER_MCP2,INDEX_FINGER_PIP2,INDEX_FINGER_DIP2,INDEX_FINGER_TIP2,MIDDLE_FINGER_MCP2,MIDDLE_FINGER_PIP2,MIDDLE_FINGER_DIP2,MIDDLE_FINGER_TIP2,RING_FINGER_PIP2,RING_FINGER_DIP2,RING_FINGER_TIP2,RING_FINGER_MCP2,PINKY_MCP2,PINKY_PIP2,PINKY_DIP2,PINKY_TIP2
0,"x: 252.04660034179688
y: 199.10556030273438
z: -0.33972489833831787
visibility: 0.999975323677063
","x: 254.0362091064453
y: 192.26707458496094
z: -0.31740236282348633
visibility: 0.9999072551727295
","x: 255.7979736328125
y: 192.90296936035156
z: -0.3173910975456238
visibility: 0.9998904466629028
","x: 257.36151123046875
y: 193.65296936035156
z: -0.31737425923347473
visibility: 0.9998836517333984
","x: 249.37506103515625
y: 190.9481201171875
z: -0.3242298662662506
visibility: 0.9999151229858398
","x: 247.34390258789062
y: 190.8494415283203
z: -0.3242383301258087
visibility: 0.999919056892395
","x: 245.06964111328125
y: 190.7352294921875
z: -0.3242241442203522
visibility: 0.9999216794967651
","x: 258.6160583496094
y: 200.1487579345703
z: -0.18235072493553162
visibility: 0.9995908141136169
","x: 240.89801025390625
y: 196.6024169921875
z: -0.21757058799266815
visibility: 0.9998471736907959
","x: 253.71365356445312
y: 210.68319702148438
z: -0.2890245020389557
visibility: 0.9999207258224487
","x: 247.76858520507812
y: 209.57662963867188
z: -0.29906922578811646
visibility: 0.9999496936798096
","x: 268.83721923828125
y: 251.23348999023438
z: -0.0763498991727829
visibility: 0.9998728036880493
","x: 226.8927001953125
y: 251.20013427734375
z: -0.13194012641906738
visibility: 0.9997809529304504
","x: 278.7547607421875
y: 308.62042236328125
z: 0.005028006620705128
visibility: 0.9707567691802979
","x: 216.88238525390625
y: 317.2044982910156
z: -0.13789106905460358
visibility: 0.9868060350418091
","x: 289.2451171875
y: 351.26104736328125
z: -0.10402821004390717
visibility: 0.9756762981414795
","x: 235.35560607910156
y: 339.7904968261719
z: -0.27415716648101807
visibility: 0.9762899279594421
","x: 294.0059509277344
y: 365.2005310058594
z: -0.1347217857837677
visibility: 0.9481791257858276
","x: 241.39627075195312
y: 348.1002502441406
z: -0.31269556283950806
visibility: 0.9503967761993408
","x: 293.6829833984375
y: 365.13836669921875
z: -0.17324669659137726
visibility: 0.9539842009544373
","x: 243.96168518066406
y: 341.29742431640625
z: -0.33156633377075195
visibility: 0.9516465067863464
","x: 291.75244140625
y: 361.3836975097656
z: -0.12235204875469208
visibility: 0.9462416172027588
","x: 242.39581298828125
y: 338.474365234375
z: -0.2829159200191498
visibility: 0.9363029599189758
","x: 265.23724365234375
y: 371.4734191894531
z: 0.013127593323588371
visibility: 0.9992678761482239
","x: 238.37017822265625
y: 372.1332092285156
z: -0.013222107663750648
visibility: 0.9991705417633057
","x: 263.4931335449219
y: 473.21221923828125
z: 0.01763349212706089
visibility: 0.9872733354568481
","x: 236.553955078125
y: 472.9842834472656
z: -0.015613545663654804
visibility: 0.9876370429992676
","x: 261.2589111328125
y: 554.189697265625
z: 0.18665669858455658
visibility: 0.9870440363883972
","x: 232.29229736328125
y: 556.9146728515625
z: 0.15279126167297363
visibility: 0.9872767329216003
","x: 257.3460693359375
y: 565.755859375
z: 0.19406460225582123
visibility: 0.8921763896942139
","x: 233.83511352539062
y: 567.5316162109375
z: 0.1611277163028717
visibility: 0.8231925368309021
","x: 265.13336181640625
y: 583.3397827148438
z: 0.05073435232043266
visibility: 0.9796883463859558
","x: 229.4915771484375
y: 582.5369873046875
z: 0.012803031131625175
visibility: 0.9799245595932007
",,,,,,,,,,,,,,,,,,,,,,,,,,,,,,,,,,,,,,,,,,
1,"x: 245.33140563964844
y: 199.96389770507812
z: -0.2803131639957428
visibility: 0.9999770522117615
","x: 248.6400604248047
y: 192.7405548095703
z: -0.2610466182231903
visibility: 0.9999150633811951
","x: 250.65213012695312
y: 193.2430419921875
z: -0.2611035406589508
visibility: 0.9998997449874878
","x: 252.27938842773438
y: 193.8629150390625
z: -0.2611139714717865
visibility: 0.9998936653137207
","x: 242.89801025390625
y: 192.0645751953125
z: -0.25869065523147583
visibility: 0.9999216794967651
","x: 241.04409790039062
y: 192.15951538085938
z: -0.25870612263679504
visibility: 0.9999249577522278
","x: 239.12672424316406
y: 192.26174926757812
z: -0.25864773988723755
visibility: 0.9999273419380188
","x: 255.41876220703125
y: 200.18533325195312
z: -0.1370522528886795
visibility: 0.9996302127838135
","x: 237.4974365234375
y: 198.4817352294922
z: -0.12793263792991638
visibility: 0.9998564124107361
","x: 248.78945922851562
y: 210.84176635742188
z: -0.23389700055122375
visibility: 0.9999279379844666
","x: 241.637939453125
y: 210.09701538085938
z: -0.2314356565475464
visibility: 0.9999534487724304
","x: 267.69384765625
y: 250.8765869140625
z: -0.07952310144901276
visibility: 0.9998819828033447
","x: 226.09584045410156
y: 252.26422119140625
z: -0.00580047769472003
visibility: 0.9997605085372925
","x: 277.9278259277344
y: 310.2419738769531
z: -0.11127199977636337
visibility: 0.9730297327041626
","x: 216.86338806152344
y: 315.03680419921875
z: -0.042283795773983
visibility: 0.9635305404663086
","x: 257.0198974609375
y: 342.5403137207031
z: -0.27364280819892883
visibility: 0.9765087962150574
","x: 208.9305877685547
y: 329.21142578125
z: -0.29399219155311584
visibility: 0.9662243127822876
","x: 251.5395050048828
y: 350.7167053222656
z: -0.32086488604545593
visibility: 0.949601948261261
","x: 205.76904296875
y: 330.739013671875
z: -0.34508174657821655
visibility: 0.9414272904396057
","x: 248.447021484375
y: 345.0216064453125
z: -0.33481210470199585
visibility: 0.9548866152763367
","x: 204.94236755371094
y: 326.8443298339844
z: -0.37497103214263916
visibility: 0.9435889720916748
","x: 249.57040405273438
y: 342.10003662109375
z: -0.2813328504562378
visibility: 0.9462472796440125
","x: 206.53109741210938
y: 326.8720703125
z: -0.3130674660205841
visibility: 0.9272233843803406
","x: 259.4305114746094
y: 372.26953125
z: -0.016280168667435646
visibility: 0.9992984533309937
","x: 233.1182098388672
y: 372.20465087890625
z: 0.016205931082367897
visibility: 0.9991757273674011
","x: 259.1020812988281
y: 473.2098083496094
z: -0.01862788014113903
visibility: 0.988207995891571
","x: 234.4817352294922
y: 473.24951171875
z: 0.013060582801699638
visibility: 0.9881351590156555
","x: 261.339111328125
y: 554.3111572265625
z: 0.15371790528297424
visibility: 0.9879247546195984
","x: 231.8804473876953
y: 557.2926025390625
z: 0.17666836082935333
visibility: 0.9879254698753357
","x: 258.6481628417969
y: 565.4896240234375
z: 0.1610056459903717
visibility: 0.8914094567298889
","x: 233.6854248046875
y: 569.1630859375
z: 0.1835358589887619
visibility: 0.8314825296401978
","x: 263.422607421875
y: 583.3849487304688
z: 0.012401836924254894
visibility: 0.9809357523918152
","x: 228.61941528320312
y: 582.9441528320312
z: 0.0433751679956913
visibility: 0.9809494018554688
","x: 207.01458740234375
y: 322.56982421875
z: 0.0
","x: 204.5637969970703
y: 325.9884948730469
z: -0.0004217839159537107
","x: 201.8781280517578
y: 327.9638366699219
z: -0.002156319795176387
","x: 199.99343872070312
y: 328.5955505371094
z: -0.004159110132604837
","x: 198.6458282470703
y: 328.77471923828125
z: -0.005696712527424097
","x: 197.36349487304688
y: 321.0379638671875
z: -0.0029053029138594866
","x: 197.10345458984375
y: 327.6015930175781
z: -0.006009217351675034
","x: 199.60818481445312
y: 329.8306579589844
z: -0.006935806944966316
","x: 201.52064514160156
y: 329.9205017089844
z: -0.007088881451636553
","x: 197.513671875
y: 318.9993896484375
z: -0.004561889450997114
","x: 197.83306884765625
y: 326.23077392578125
z: -0.007380563300102949
","x: 200.28433227539062
y: 328.30096435546875
z: -0.00699211098253727
","x: 201.92811584472656
y: 328.2005615234375
z: -0.006538827437907457
","x: 198.5264434814453
y: 317.7490234375
z: -0.006466974969953299
","x: 199.12786865234375
y: 324.76239013671875
z: -0.008742224425077438
","x: 201.28131103515625
y: 326.106689453125
z: -0.007392732426524162
","x: 202.4949188232422
y: 325.5553894042969
z: -0.006326930597424507
","x: 200.02537536621094
y: 317.09954833984375
z: -0.008555755950510502
","x: 200.69276428222656
y: 322.7929382324219
z: -0.009665173478424549
","x: 202.18344116210938
y: 324.20855712890625
z: -0.00862954556941986
","x: 202.98062133789062
y: 323.773681640625
z: -0.007724097464233637
",,,,,,,,,,,,,,,,,,,,,
2,"x: 245.33140563964844
y: 199.96389770507812
z: -0.2803131639957428
visibility: 0.9999770522117615
","x: 248.6400604248047
y: 192.7405548095703
z: -0.2610466182231903
visibility: 0.9999150633811951
","x: 250.65213012695312
y: 193.2430419921875
z: -0.2611035406589508
visibility: 0.9998997449874878
","x: 252.27938842773438
y: 193.8629150390625
z: -0.2611139714717865
visibility: 0.9998936653137207
","x: 242.89801025390625
y: 192.0645751953125
z: -0.25869065523147583
visibility: 0.9999216794967651
","x: 241.04409790039062
y: 192.15951538085938
z: -0.25870612263679504
visibility: 0.9999249577522278
","x: 239.12672424316406
y: 192.26174926757812
z: -0.25864773988723755
visibility: 0.9999273419380188
","x: 255.41876220703125
y: 200.18533325195312
z: -0.1370522528886795
visibility: 0.9996302127838135
","x: 237.4974365234375
y: 198.4817352294922
z: -0.12793263792991638
visibility: 0.9998564124107361
","x: 248.78945922851562
y: 210.84176635742188
z: -0.23389700055122375
visibility: 0.9999279379844666
","x: 241.637939453125
y: 210.09701538085938
z: -0.2314356565475464
visibility: 0.9999534487724304
","x: 267.69384765625
y: 250.8765869140625
z: -0.07952310144901276
visibility: 0.9998819828033447
","x: 226.09584045410156
y: 252.26422119140625
z: -0.00580047769472003
visibility: 0.9997605085372925
","x: 277.9278259277344
y: 310.2419738769531
z: -0.11127199977636337
visibility: 0.9730297327041626
","x: 216.86338806152344
y: 315.03680419921875
z: -0.042283795773983
visibility: 0.9635305404663086
","x: 257.0198974609375
y: 342.5403137207031
z: -0.27364280819892883
visibility: 0.9765087962150574
","x: 208.9305877685547
y: 329.21142578125
z: -0.29399219155311584
visibility: 0.9662243127822876
","x: 251.5395050048828
y: 350.7167053222656
z: -0.32086488604545593
visibility: 0.949601948261261
","x: 205.76904296875
y: 330.739013671875
z: -0.34508174657821655
visibility: 0.9414272904396057
","x: 248.447021484375
y: 345.0216064453125
z: -0.33481210470199585
visibility: 0.9548866152763367
","x: 204.94236755371094
y: 326.8443298339844
z: -0.37497103214263916
visibility: 0.9435889720916748
","x: 249.57040405273438
y: 342.10003662109375
z: -0.2813328504562378
visibility: 0.9462472796440125
","x: 206.53109741210938
y: 326.8720703125
z: -0.3130674660205841
visibility: 0.9272233843803406
","x: 259.4305114746094
y: 372.26953125
z: -0.016280168667435646
visibility: 0.9992984533309937
","x: 233.1182098388672
y: 372.20465087890625
z: 0.016205931082367897
visibility: 0.9991757273674011
","x: 259.1020812988281
y: 473.2098083496094
z: -0.01862788014113903
visibility: 0.988207995891571
","x: 234.4817352294922
y: 473.24951171875
z: 0.013060582801699638
visibility: 0.9881351590156555
","x: 261.339111328125
y: 554.3111572265625
z: 0.15371790528297424
visibility: 0.9879247546195984
","x: 231.8804473876953
y: 557.2926025390625
z: 0.17666836082935333
visibility: 0.9879254698753357
","x: 258.6481628417969
y: 565.4896240234375
z: 0.1610056459903717
visibility: 0.8914094567298889
","x: 233.6854248046875
y: 569.1630859375
z: 0.1835358589887619
visibility: 0.8314825296401978
","x: 263.422607421875
y: 583.3849487304688
z: 0.012401836924254894
visibility: 0.9809357523918152
","x: 228.61941528320312
y: 582.9441528320312
z: 0.0433751679956913
visibility: 0.9809494018554688
","x: 207.01458740234375
y: 322.56982421875
z: 0.0
","x: 204.5637969970703
y: 325.9884948730469
z: -0.0004217839159537107
","x: 201.8781280517578
y: 327.9638366699219
z: -0.002156319795176387
","x: 199.99343872070312
y: 328.5955505371094
z: -0.004159110132604837
","x: 198.6458282470703
y: 328.77471923828125
z: -0.005696712527424097
","x: 197.36349487304688
y: 321.0379638671875
z: -0.0029053029138594866
","x: 197.10345458984375
y: 327.6015930175781
z: -0.006009217351675034
","x: 199.60818481445312
y: 329.8306579589844
z: -0.006935806944966316
","x: 201.52064514160156
y: 329.9205017089844
z: -0.007088881451636553
","x: 197.513671875
y: 318.9993896484375
z: -0.004561889450997114
","x: 197.83306884765625
y: 326.23077392578125
z: -0.007380563300102949
","x: 200.28433227539062
y: 328.30096435546875
z: -0.00699211098253727
","x: 201.92811584472656
y: 328.2005615234375
z: -0.006538827437907457
","x: 198.5264434814453
y: 317.7490234375
z: -0.006466974969953299
","x: 199.12786865234375
y: 324.76239013671875
z: -0.008742224425077438
","x: 201.28131103515625
y: 326.106689453125
z: -0.007392732426524162
","x: 202.4949188232422
y: 325.5553894042969
z: -0.006326930597424507
","x: 200.02537536621094
y: 317.09954833984375
z: -0.008555755950510502
","x: 200.69276428222656
y: 322.7929382324219
z: -0.009665173478424549
","x: 202.18344116210938
y: 324.20855712890625
z: -0.00862954556941986
","x: 202.98062133789062
y: 323.773681640625
z: -0.007724097464233637
",,,,,,,,,,,,,,,,,,,,,
3,"x: 242.15704345703125
y: 200.825927734375
z: -0.2668634355068207
visibility: 0.9999788403511047
","x: 245.39736938476562
y: 193.53700256347656
z: -0.2488340437412262
visibility: 0.9999225735664368
","x: 247.6346435546875
y: 193.90016174316406
z: -0.2488928735256195
visibility: 0.9999086856842041
","x: 249.42672729492188
y: 194.34950256347656
z: -0.2489016056060791
visibility: 0.9999032616615295
","x: 239.68002319335938
y: 193.26280212402344
z: -0.24556776881217957
visibility: 0.9999281764030457
","x: 237.75062561035156
y: 193.274658203125
z: -0.24557629227638245
visibility: 0.9999309182167053
","x: 236.43182373046875
y: 193.37686157226562
z: -0.24550941586494446
visibility: 0.9999330639839172
","x: 252.1634063720703
y: 200.18527221679688
z: -0.12888889014720917
visibility: 0.999666154384613
","x: 234.81201171875
y: 199.50265502929688
z: -0.11562500149011612
visibility: 0.9998666048049927
","x: 245.6241455078125
y: 211.08111572265625
z: -0.2218131572008133
visibility: 0.999934732913971
","x: 238.61376953125
y: 210.45748901367188
z: -0.21815307438373566
visibility: 0.999957263469696
","x: 265.3297119140625
y: 250.484375
z: -0.07949282974004745
visibility: 0.9998912811279297
","x: 223.53396606445312
y: 252.4266357421875
z: 0.0039028481114655733
visibility: 0.9997565746307373
","x: 275.0709533691406
y: 311.2715759277344
z: -0.11583505570888519
visibility: 0.9752009510993958
","x: 215.95135498046875
y: 314.27044677734375
z: -0.03490268439054489
visibility: 0.9492992162704468
","x: 253.20184326171875
y: 338.25042724609375
z: -0.2885018289089203
visibility: 0.9776328802108765
","x: 206.91819763183594
y: 323.5095520019531
z: -0.29533451795578003
visibility: 0.9611321091651917
","x: 246.78762817382812
y: 345.9852600097656
z: -0.3363502621650696
visibility: 0.951676607131958
","x: 203.11019897460938
y: 325.2593688964844
z: -0.3470536172389984
visibility: 0.9369922280311584
","x: 243.69839477539062
y: 339.0301208496094
z: -0.350047767162323
visibility: 0.9564690589904785
","x: 202.8480224609375
y: 321.6170959472656
z: -0.37463992834091187
visibility: 0.939565122127533
","x: 245.10641479492188
y: 335.982421875
z: -0.2962760329246521
visibility: 0.9472631216049194
","x: 204.74029541015625
y: 321.4457702636719
z: -0.3136832118034363
visibility: 0.9224794507026672
","x: 255.3452911376953
y: 372.64892578125
z: -0.02097281627357006
visibility: 0.9993327260017395
","x: 229.23809814453125
y: 372.20574951171875
z: 0.020894235000014305
visibility: 0.9991897940635681
","x: 255.20779418945312
y: 473.0752868652344
z: -0.02311747521162033
visibility: 0.9890691041946411
","x: 232.06158447265625
y: 472.78271484375
z: 0.018803197890520096
visibility: 0.9887323379516602
","x: 260.943115234375
y: 554.5771484375
z: 0.14446401596069336
visibility: 0.9887887239456177
","x: 230.755615234375
y: 556.3857421875
z: 0.17792148888111115
visibility: 0.9886197447776794
","x: 258.65667724609375
y: 565.4996337890625
z: 0.15137514472007751
visibility: 0.8926764130592346
","x: 233.3685760498047
y: 568.3182983398438
z: 0.18450617790222168
visibility: 0.8403918743133545
","x: 262.60894775390625
y: 583.3511962890625
z: 0.0017863850807771087
visibility: 0.9822127223014832
","x: 228.57955932617188
y: 582.7698364257812
z: 0.045345745980739594
visibility: 0.9820261001586914
",,,,,,,,,,,,,,,,,,,,,,,,,,,,,,,,,,,,,,,,,,
4,"x: 239.97647094726562
y: 201.40074157714844
z: -0.24795536696910858
visibility: 0.9999802708625793
","x: 243.36737060546875
y: 194.23330688476562
z: -0.23023808002471924
visibility: 0.999928891658783
","x: 245.4264678955078
y: 194.52120971679688
z: -0.2302984893321991
visibility: 0.9999162554740906
","x: 247.3868408203125
y: 194.89569091796875
z: -0.2303113490343094
visibility: 0.999911367893219
","x: 237.57696533203125
y: 193.97543334960938
z: -0.2266465127468109
visibility: 0.9999334812164307
","x: 235.9151153564453
y: 193.9346160888672
z: -0.22664642333984375
visibility: 0.9999355673789978
","x: 234.66995239257812
y: 194.02586364746094
z: -0.22656723856925964
visibility: 0.9999375343322754
","x: 250.07704162597656
y: 200.27920532226562
z: -0.10910172760486603
visibility: 0.9996981024742126
","x: 232.9517822265625
y: 200.2438201904297
z: -0.0936739444732666
visibility: 0.999873697757721
","x: 243.4156951904297
y: 211.3893280029297
z: -0.2020569145679474
visibility: 0.9999405741691589
","x: 236.68157958984375
y: 210.75115966796875
z: -0.1978188306093216
visibility: 0.9999603629112244
","x: 262.27777099609375
y: 250.17852783203125
z: -0.058353789150714874
visibility: 0.9998999238014221
","x: 221.2018585205078
y: 252.41253662109375
z: 0.02505463734269142
visibility: 0.999756395816803
","x: 272.14239501953125
y: 311.44775390625
z: -0.10341527312994003
visibility: 0.9771397113800049
","x: 213.9123077392578
y: 312.6153869628906
z: -0.03143271058797836
visibility: 0.9350590109825134
","x: 249.260498046875
y: 333.30029296875
z: -0.2829244136810303
visibility: 0.9786298871040344
","x: 207.14077758789062
y: 314.614013671875
z: -0.30877867341041565
visibility: 0.9568729400634766
","x: 242.31748962402344
y: 341.32037353515625
z: -0.3323172926902771
visibility: 0.9534289240837097
","x: 203.89239501953125
y: 316.07073974609375
z: -0.36470505595207214
visibility: 0.9333443641662598
","x: 239.70675659179688
y: 334.21429443359375
z: -0.3449523150920868
visibility: 0.9577592611312866
","x: 204.2054901123047
y: 311.92913818359375
z: -0.3883870244026184
visibility: 0.9360480308532715
","x: 241.1190948486328
y: 331.0568542480469
z: -0.2904730439186096
visibility: 0.947875440120697
","x: 206.03196716308594
y: 311.9324645996094
z: -0.32613450288772583
visibility: 0.9179100394248962
","x: 251.8212890625
y: 372.6593017578125
z: -0.0210031159222126
visibility: 0.9993605613708496
","x: 226.26333618164062
y: 372.1283264160156
z: 0.02097332291305065
visibility: 0.999209463596344
","x: 252.91220092773438
y: 472.69696044921875
z: -0.018053723499178886
visibility: 0.9898362159729004
","x: 230.3546600341797
y: 472.662109375
z: 0.015961211174726486
visibility: 0.9893260598182678
","x: 260.9378662109375
y: 554.1729125976562
z: 0.13945211470127106
visibility: 0.989561915397644
","x: 230.13821411132812
y: 556.963623046875
z: 0.17266130447387695
visibility: 0.9893282651901245
","x: 258.82244873046875
y: 564.5497436523438
z: 0.14523930847644806
visibility: 0.894149899482727
","x: 233.41807556152344
y: 569.7747192382812
z: 0.18094007670879364
visibility: 0.8496829867362976
","x: 262.5859680175781
y: 583.196044921875
z: -0.006347820162773132
visibility: 0.9833512306213379
","x: 227.6718292236328
y: 583.028076171875
z: 0.03735535591840744
visibility: 0.9830796718597412
",,,,,,,,,,,,,,,,,,,,,,,,,,,,,,,,,,,,,,,,,,
5,"x: 238.1372833251953
y: 201.51235961914062
z: -0.25475677847862244
visibility: 0.9999816417694092
","x: 241.6868896484375
y: 194.41183471679688
z: -0.2376043051481247
visibility: 0.9999347925186157
","x: 243.6475830078125
y: 194.69174194335938
z: -0.23765912652015686
visibility: 0.9999234080314636
","x: 245.6709442138672
y: 195.07183837890625
z: -0.23767614364624023
visibility: 0.999919056892395
","x: 235.9397735595703
y: 194.0976104736328
z: -0.23376497626304626
visibility: 0.9999386072158813
","x: 234.58908081054688
y: 194.05531311035156
z: -0.23375630378723145
visibility: 0.999940037727356
","x: 233.14077758789062
y: 194.11065673828125
z: -0.23367872834205627
visibility: 0.9999416470527649
","x: 248.48104858398438
y: 200.3516387939453
z: -0.12051675468683243
visibility: 0.9997273683547974
","x: 231.3286590576172
y: 200.30259704589844
z: -0.10519629716873169
visibility: 0.9998809099197388
","x: 241.5853271484375
y: 211.48866271972656
z: -0.21039745211601257
visibility: 0.9999459385871887
","x: 235.08865356445312
y: 210.78900146484375
z: -0.20614945888519287
visibility: 0.9999633431434631
","x: 260.50146484375
y: 250.2029266357422
z: -0.06974944472312927
visibility: 0.9999083876609802
","x: 218.77056884765625
y: 252.4891815185547
z: 0.018620064482092857
visibility: 0.999748706817627
","x: 269.2596435546875
y: 311.95355224609375
z: -0.09265386313199997
visibility: 0.9790372252464294
","x: 209.6894073486328
y: 311.05120849609375
z: -0.03187153860926628
visibility: 0.9066290855407715
","x: 248.52496337890625
y: 335.9861755371094
z: -0.22628052532672882
visibility: 0.9796417951583862
","x: 206.2027130126953
y: 314.5028381347656
z: -0.3014604151248932
visibility: 0.9386341571807861
","x: 243.616455078125
y: 350.90625
z: -0.26877063512802124
visibility: 0.9552450180053711
","x: 204.71263122558594
y: 321.4222412109375
z: -0.3526707589626312
visibility: 0.915026068687439
","x: 239.2815399169922
y: 340.8610534667969
z: -0.28912094235420227
visibility: 0.9591823220252991
","x: 206.37530517578125
y: 317.3595886230469
z: -0.37558814883232117
visibility: 0.9183160066604614
","x: 239.88002014160156
y: 335.64385986328125
z: -0.2359417974948883
visibility: 0.9488407373428345
","x: 207.763916015625
y: 315.91815185546875
z: -0.3174944519996643
visibility: 0.8984465599060059
","x: 250.4335174560547
y: 373.3786315917969
z: -0.02531021274626255
visibility: 0.999371349811554
","x: 224.7257537841797
y: 372.8656311035156
z: 0.025324270129203796
visibility: 0.9992225170135498
","x: 252.1544189453125
y: 472.26934814453125
z: -0.011712990701198578
visibility: 0.9905968904495239
","x: 229.25152587890625
y: 471.53985595703125
z: 0.02920401096343994
visibility: 0.9897971749305725
","x: 260.9759521484375
y: 554.131103515625
z: 0.13197104632854462
visibility: 0.9903398752212524
","x: 230.22999572753906
y: 558.3704833984375
z: 0.17063838243484497
visibility: 0.9900333285331726
","x: 259.1714782714844
y: 564.5648803710938
z: 0.13518288731575012
visibility: 0.8965941667556763
","x: 233.5741729736328
y: 572.5608520507812
z: 0.17803996801376343
visibility: 0.8597197532653809
","x: 262.458251953125
y: 582.6122436523438
z: -0.015532548539340496
visibility: 0.9844860434532166
","x: 226.44656372070312
y: 583.0291137695312
z: 0.03623279184103012
visibility: 0.9841079711914062
",,,,,,,,,,,,,,,,,,,,,,,,,,,,,,,,,,,,,,,,,,
6,"x: 238.44259643554688
y: 201.51502990722656
z: -0.2617085576057434
visibility: 0.9999827742576599
","x: 241.76536560058594
y: 194.47689819335938
z: -0.23996198177337646
visibility: 0.9999399185180664
","x: 243.8309326171875
y: 194.7757110595703
z: -0.23997072875499725
visibility: 0.9999295473098755
","x: 245.7587890625
y: 195.21923828125
z: -0.23992910981178284
visibility: 0.9999256134033203
","x: 235.9062957763672
y: 194.11920166015625
z: -0.24328342080116272
visibility: 0.9999430775642395
","x: 234.2024688720703
y: 194.0548858642578
z: -0.24325017631053925
visibility: 0.9999441504478455
","x: 232.80914306640625
y: 194.11093139648438
z: -0.24322190880775452
visibility: 0.9999454617500305
","x: 248.1370086669922
y: 200.36241149902344
z: -0.12765447795391083
visibility: 0.9997527599334717
","x: 230.32044982910156
y: 200.29180908203125
z: -0.1279061734676361
visibility: 0.999888002872467
","x: 241.61407470703125
y: 211.48965454101562
z: -0.21497699618339539
visibility: 0.9999504685401917
","x: 234.7398681640625
y: 210.7845916748047
z: -0.21924321353435516
visibility: 0.9999659061431885
","x: 259.63421630859375
y: 250.26119995117188
z: -0.07739494740962982
visibility: 0.9999145269393921
","x: 216.7899627685547
y: 252.4805450439453
z: -0.02255886048078537
visibility: 0.9997463822364807
","x: 268.9343566894531
y: 312.6040954589844
z: -0.08148325979709625
visibility: 0.9801174402236938
","x: 207.24891662597656
y: 310.9096984863281
z: -0.08510937541723251
visibility: 0.9037708640098572
","x: 251.5755615234375
y: 337.485595703125
z: -0.215811088681221
visibility: 0.9791161417961121
","x: 209.32403564453125
y: 313.4786376953125
z: -0.3515844941139221
visibility: 0.933467447757721
","x: 246.27525329589844
y: 352.8258972167969
z: -0.2553481161594391
visibility: 0.9537883996963501
","x: 210.8895263671875
y: 317.88262939453125
z: -0.4033944606781006
visibility: 0.9079367518424988
","x: 242.82302856445312
y: 341.5491027832031
z: -0.27686721086502075
visibility: 0.9573624134063721
","x: 212.1295928955078
y: 311.49957275390625
z: -0.41673436760902405
visibility: 0.9108090400695801
","x: 243.90664672851562
y: 337.3916015625
z: -0.22542831301689148
visibility: 0.9455735087394714
","x: 212.44837951660156
y: 310.41278076171875
z: -0.3626874089241028
visibility: 0.8888349533081055
","x: 249.9044647216797
y: 373.5218505859375
z: -0.018678613007068634
visibility: 0.9993870854377747
","x: 224.42445373535156
y: 372.8923034667969
z: 0.01865938864648342
visibility: 0.9992456436157227
","x: 251.56231689453125
y: 472.1766357421875
z: -0.0008167625637724996
visibility: 0.9911126494407654
","x: 228.67388916015625
y: 470.5126953125
z: 0.022422898560762405
visibility: 0.9900429844856262
","x: 260.9659423828125
y: 554.164306640625
z: 0.14230987429618835
visibility: 0.9908631443977356
","x: 229.6318359375
y: 558.351806640625
z: 0.17292708158493042
visibility: 0.9904521107673645
","x: 259.13165283203125
y: 564.5745239257812
z: 0.14445830881595612
visibility: 0.8970491886138916
","x: 232.74658203125
y: 572.2138061523438
z: 0.17957989871501923
visibility: 0.864773154258728
","x: 262.8206787109375
y: 582.6160888671875
z: -0.008392073214054108
visibility: 0.985188901424408
","x: 226.32827758789062
y: 583.0405883789062
z: 0.037478093057870865
visibility: 0.9846823215484619
",,,,,,,,,,,,,,,,,,,,,,,,,,,,,,,,,,,,,,,,,,
7,"x: 239.3845672607422
y: 202.27113342285156
z: -0.26181715726852417
visibility: 0.9999841451644897
","x: 242.71176147460938
y: 195.12930297851562
z: -0.23991818726062775
visibility: 0.9999452829360962
","x: 244.678466796875
y: 195.5428466796875
z: -0.23993489146232605
visibility: 0.9999357461929321
","x: 246.37841796875
y: 196.0067901611328
z: -0.2399199903011322
visibility: 0.9999321103096008
","x: 236.83021545410156
y: 194.40451049804688
z: -0.24458448588848114
visibility: 0.9999480247497559
","x: 234.9033966064453
y: 194.22543334960938
z: -0.24458424746990204
visibility: 0.9999488592147827
","x: 233.1724853515625
y: 194.23428344726562
z: -0.2445233166217804
visibility: 0.9999501705169678
","x: 248.28656005859375
y: 200.88182067871094
z: -0.10321231186389923
visibility: 0.9997760653495789
","x: 230.28887939453125
y: 200.26268005371094
z: -0.12465474754571915
visibility: 0.9998979568481445
","x: 242.42340087890625
y: 212.19036865234375
z: -0.2095673829317093
visibility: 0.9999551177024841
","x: 235.34617614746094
y: 211.07147216796875
z: -0.2162022888660431
visibility: 0.9999690651893616
","x: 259.928955078125
y: 250.46316528320312
z: -0.013046677224338055
visibility: 0.9999219179153442
","x: 215.24134826660156
y: 252.41751098632812
z: -0.025511348620057106
visibility: 0.9997674226760864
","x: 270.17279052734375
y: 311.09942626953125
z: -0.0569765642285347
visibility: 0.9813363552093506
","x: 204.36688232421875
y: 311.7232360839844
z: -0.09669847041368484
visibility: 0.9125366806983948
","x: 257.4891357421875
y: 326.5964050292969
z: -0.2720854878425598
visibility: 0.9804320931434631
","x: 211.67710876464844
y: 306.23187255859375
z: -0.3529857397079468
visibility: 0.9394462704658508
","x: 254.30746459960938
y: 333.5898132324219
z: -0.3239922821521759
visibility: 0.9562872052192688
","x: 213.9667510986328
y: 302.6440124511719
z: -0.40689414739608765
visibility: 0.9155517816543579
","x: 251.78564453125
y: 326.0812683105469
z: -0.33886417746543884
visibility: 0.9595141410827637
","x: 215.30624389648438
y: 294.79150390625
z: -0.4144442081451416
visibility: 0.9180797934532166
","x: 252.14109802246094
y: 323.84100341796875
z: -0.2819140553474426
visibility: 0.9476646184921265
","x: 215.47073364257812
y: 294.99615478515625
z: -0.36009135842323303
visibility: 0.8973256945610046
","x: 251.36636352539062
y: 373.411376953125
z: 0.005408479832112789
visibility: 0.9994141459465027
","x: 225.42926025390625
y: 373.1014404296875
z: -0.00550078134983778
visibility: 0.99928218126297
","x: 252.94515991210938
y: 472.22027587890625
z: 0.004546942189335823
visibility: 0.9915478825569153
","x: 229.03750610351562
y: 470.66973876953125
z: -0.009573846124112606
visibility: 0.9903721213340759
","x: 260.86480712890625
y: 554.3441162109375
z: 0.21057143807411194
visibility: 0.9910567998886108
","x: 229.5292510986328
y: 558.450439453125
z: 0.17379525303840637
visibility: 0.9906700253486633
","x: 258.97503662109375
y: 564.7876586914062
z: 0.2220798283815384
visibility: 0.8976321220397949
","x: 232.44613647460938
y: 571.984619140625
z: 0.18319207429885864
visibility: 0.8660447597503662
","x: 263.0340270996094
y: 582.6369018554688
z: 0.07107363641262054
visibility: 0.9854702949523926
","x: 226.4434051513672
y: 583.0663452148438
z: 0.035644978284835815
visibility: 0.9849821329116821
",,,,,,,,,,,,,,,,,,,,,,,,,,,,,,,,,,,,,,,,,,
8,"x: 240.326904296875
y: 202.95037841796875
z: -0.30747872591018677
visibility: 0.9999816417694092
","x: 243.51107788085938
y: 195.6686248779297
z: -0.2836454212665558
visibility: 0.9999431371688843
","x: 245.3716583251953
y: 196.1593780517578
z: -0.28366145491600037
visibility: 0.9999317526817322
","x: 246.95127868652344
y: 196.67733764648438
z: -0.28367096185684204
visibility: 0.9999260306358337
","x: 237.7587890625
y: 194.69338989257812
z: -0.29097598791122437
visibility: 0.999947726726532
","x: 235.84823608398438
y: 194.47579956054688
z: -0.29102176427841187
visibility: 0.9999485611915588
","x: 234.0785675048828
y: 194.38815307617188
z: -0.29103145003318787
visibility: 0.9999507069587708
","x: 248.93231201171875
y: 201.6636505126953
z: -0.12363890558481216
visibility: 0.9997734427452087
","x: 231.07374572753906
y: 200.24720764160156
z: -0.1645936220884323
visibility: 0.9999024271965027
","x: 243.2041778564453
y: 212.8884735107422
z: -0.24937704205513
visibility: 0.9999548196792603
","x: 236.23455810546875
y: 211.50717163085938
z: -0.2593444585800171
visibility: 0.9999699592590332
","x: 260.0853576660156
y: 251.20018005371094
z: -0.031208345666527748
visibility: 0.9998894929885864
","x: 215.52777099609375
y: 252.40994262695312
z: -0.07474203407764435
visibility: 0.999780535697937
","x: 270.8607177734375
y: 310.80584716796875
z: -0.10105361044406891
visibility: 0.9731147885322571
","x: 204.08721923828125
y: 315.1803283691406
z: -0.16261906921863556
visibility: 0.9202158451080322
","x: 263.1591796875
y: 314.9932556152344
z: -0.3774354159832001
visibility: 0.9662126898765564
","x: 212.23045349121094
y: 304.205810546875
z: -0.4045790731906891
visibility: 0.9440202116966248
","x: 262.3531494140625
y: 316.62042236328125
z: -0.431769996881485
visibility: 0.9345995187759399
","x: 217.69589233398438
y: 299.0581359863281
z: -0.4551745355129242
visibility: 0.9205723404884338
","x: 260.28289794921875
y: 311.9359130859375
z: -0.4406612515449524
visibility: 0.9380210638046265
","x: 218.16183471679688
y: 291.3370361328125
z: -0.46014824509620667
visibility: 0.9227208495140076
","x: 259.14434814453125
y: 310.44500732421875
z: -0.3876226246356964
visibility: 0.9201623797416687
","x: 217.21954345703125
y: 292.4635009765625
z: -0.40947312116622925
visibility: 0.901914119720459
","x: 252.47274780273438
y: 373.1515197753906
z: 0.014309470541775227
visibility: 0.9992854595184326
","x: 226.47569274902344
y: 373.24151611328125
z: -0.014412527903914452
visibility: 0.9992286562919617
","x: 253.2583770751953
y: 472.01336669921875
z: 0.004499153234064579
visibility: 0.9912222027778625
","x: 229.3030242919922
y: 470.5440979003906
z: -0.02164290100336075
visibility: 0.9902451038360596
","x: 260.8580627441406
y: 554.4720458984375
z: 0.20887725055217743
visibility: 0.9905311465263367
","x: 229.36434936523438
y: 558.4193115234375
z: 0.17364029586315155
visibility: 0.9902591109275818
","x: 258.8690490722656
y: 565.1265869140625
z: 0.21995873749256134
visibility: 0.8943802714347839
","x: 231.8950958251953
y: 571.928466796875
z: 0.18113073706626892
visibility: 0.862044632434845
","x: 263.1773376464844
y: 582.629150390625
z: 0.06669087707996368
visibility: 0.9847085475921631
","x: 226.48118591308594
y: 583.0219116210938
z: 0.022787202149629593
visibility: 0.9842830300331116
","x: 218.71133422851562
y: 298.421142578125
z: 0.0
","x: 221.35263061523438
y: 289.9676818847656
z: 0.0015290038427338004
","x: 224.977294921875
y: 283.5877380371094
z: -0.0007451024721376598
","x: 228.46961975097656
y: 280.6142272949219
z: -0.0038924652617424726
","x: 230.94837951660156
y: 279.62457275390625
z: -0.00661599962040782
","x: 222.90219116210938
y: 281.31292724609375
z: -0.007131803780794144
","x: 229.0071563720703
y: 280.38916015625
z: -0.011389641091227531
","x: 229.177978515625
y: 282.75384521484375
z: -0.012378229759633541
","x: 228.21849060058594
y: 283.18829345703125
z: -0.01270156167447567
","x: 221.96412658691406
y: 285.5987548828125
z: -0.010764147154986858
","x: 228.3058319091797
y: 286.0769348144531
z: -0.015884989872574806
","x: 226.9961395263672
y: 288.2825622558594
z: -0.015137141570448875
","x: 224.65350341796875
y: 288.9228515625
z: -0.014040614478290081
","x: 221.47483825683594
y: 290.31170654296875
z: -0.01387001108378172
","x: 227.47093200683594
y: 290.96295166015625
z: -0.01746576465666294
","x: 226.0158233642578
y: 292.04107666015625
z: -0.014112439006567001
","x: 223.6805877685547
y: 292.3086242675781
z: -0.011683874763548374
","x: 221.3112335205078
y: 295.1912841796875
z: -0.01694156788289547
","x: 226.37156677246094
y: 295.1123352050781
z: -0.01865534670650959
","x: 225.1073760986328
y: 295.29315185546875
z: -0.015988806262612343
","x: 222.7772979736328
y: 295.1080627441406
z: -0.013906288892030716
",,,,,,,,,,,,,,,,,,,,,
9,"x: 240.326904296875
y: 202.95037841796875
z: -0.30747872591018677
visibility: 0.9999816417694092
","x: 243.51107788085938
y: 195.6686248779297
z: -0.2836454212665558
visibility: 0.9999431371688843
","x: 245.3716583251953
y: 196.1593780517578
z: -0.28366145491600037
visibility: 0.9999317526817322
","x: 246.95127868652344
y: 196.67733764648438
z: -0.28367096185684204
visibility: 0.9999260306358337
","x: 237.7587890625
y: 194.69338989257812
z: -0.29097598791122437
visibility: 0.999947726726532
","x: 235.84823608398438
y: 194.47579956054688
z: -0.29102176427841187
visibility: 0.9999485611915588
","x: 234.0785675048828
y: 194.38815307617188
z: -0.29103145003318787
visibility: 0.9999507069587708
","x: 248.93231201171875
y: 201.6636505126953
z: -0.12363890558481216
visibility: 0.9997734427452087
","x: 231.07374572753906
y: 200.24720764160156
z: -0.1645936220884323
visibility: 0.9999024271965027
","x: 243.2041778564453
y: 212.8884735107422
z: -0.24937704205513
visibility: 0.9999548196792603
","x: 236.23455810546875
y: 211.50717163085938
z: -0.2593444585800171
visibility: 0.9999699592590332
","x: 260.0853576660156
y: 251.20018005371094
z: -0.031208345666527748
visibility: 0.9998894929885864
","x: 215.52777099609375
y: 252.40994262695312
z: -0.07474203407764435
visibility: 0.999780535697937
","x: 270.8607177734375
y: 310.80584716796875
z: -0.10105361044406891
visibility: 0.9731147885322571
","x: 204.08721923828125
y: 315.1803283691406
z: -0.16261906921863556
visibility: 0.9202158451080322
","x: 263.1591796875
y: 314.9932556152344
z: -0.3774354159832001
visibility: 0.9662126898765564
","x: 212.23045349121094
y: 304.205810546875
z: -0.4045790731906891
visibility: 0.9440202116966248
","x: 262.3531494140625
y: 316.62042236328125
z: -0.431769996881485
visibility: 0.9345995187759399
","x: 217.69589233398438
y: 299.0581359863281
z: -0.4551745355129242
visibility: 0.9205723404884338
","x: 260.28289794921875
y: 311.9359130859375
z: -0.4406612515449524
visibility: 0.9380210638046265
","x: 218.16183471679688
y: 291.3370361328125
z: -0.46014824509620667
visibility: 0.9227208495140076
","x: 259.14434814453125
y: 310.44500732421875
z: -0.3876226246356964
visibility: 0.9201623797416687
","x: 217.21954345703125
y: 292.4635009765625
z: -0.40947312116622925
visibility: 0.901914119720459
","x: 252.47274780273438
y: 373.1515197753906
z: 0.014309470541775227
visibility: 0.9992854595184326
","x: 226.47569274902344
y: 373.24151611328125
z: -0.014412527903914452
visibility: 0.9992286562919617
","x: 253.2583770751953
y: 472.01336669921875
z: 0.004499153234064579
visibility: 0.9912222027778625
","x: 229.3030242919922
y: 470.5440979003906
z: -0.02164290100336075
visibility: 0.9902451038360596
","x: 260.8580627441406
y: 554.4720458984375
z: 0.20887725055217743
visibility: 0.9905311465263367
","x: 229.36434936523438
y: 558.4193115234375
z: 0.17364029586315155
visibility: 0.9902591109275818
","x: 258.8690490722656
y: 565.1265869140625
z: 0.21995873749256134
visibility: 0.8943802714347839
","x: 231.8950958251953
y: 571.928466796875
z: 0.18113073706626892
visibility: 0.862044632434845
","x: 263.1773376464844
y: 582.629150390625
z: 0.06669087707996368
visibility: 0.9847085475921631
","x: 226.48118591308594
y: 583.0219116210938
z: 0.022787202149629593
visibility: 0.9842830300331116
","x: 218.71133422851562
y: 298.421142578125
z: 0.0
","x: 221.35263061523438
y: 289.9676818847656
z: 0.0015290038427338004
","x: 224.977294921875
y: 283.5877380371094
z: -0.0007451024721376598
","x: 228.46961975097656
y: 280.6142272949219
z: -0.0038924652617424726
","x: 230.94837951660156
y: 279.62457275390625
z: -0.00661599962040782
","x: 222.90219116210938
y: 281.31292724609375
z: -0.007131803780794144
","x: 229.0071563720703
y: 280.38916015625
z: -0.011389641091227531
","x: 229.177978515625
y: 282.75384521484375
z: -0.012378229759633541
","x: 228.21849060058594
y: 283.18829345703125
z: -0.01270156167447567
","x: 221.96412658691406
y: 285.5987548828125
z: -0.010764147154986858
","x: 228.3058319091797
y: 286.0769348144531
z: -0.015884989872574806
","x: 226.9961395263672
y: 288.2825622558594
z: -0.015137141570448875
","x: 224.65350341796875
y: 288.9228515625
z: -0.014040614478290081
","x: 221.47483825683594
y: 290.31170654296875
z: -0.01387001108378172
","x: 227.47093200683594
y: 290.96295166015625
z: -0.01746576465666294
","x: 226.0158233642578
y: 292.04107666015625
z: -0.014112439006567001
","x: 223.6805877685547
y: 292.3086242675781
z: -0.011683874763548374
","x: 221.3112335205078
y: 295.1912841796875
z: -0.01694156788289547
","x: 226.37156677246094
y: 295.1123352050781
z: -0.01865534670650959
","x: 225.1073760986328
y: 295.29315185546875
z: -0.015988806262612343
","x: 222.7772979736328
y: 295.1080627441406
z: -0.013906288892030716
",,,,,,,,,,,,,,,,,,,,,
10,"x: 242.45347595214844
y: 202.88632202148438
z: -0.2784036695957184
visibility: 0.9999824166297913
","x: 245.53501892089844
y: 195.632080078125
z: -0.2533109784126282
visibility: 0.9999470710754395
","x: 246.87057495117188
y: 196.11575317382812
z: -0.2533125579357147
visibility: 0.9999359846115112
","x: 248.18698120117188
y: 196.63888549804688
z: -0.2533024549484253
visibility: 0.9999303221702576
","x: 240.75991821289062
y: 194.6613311767578
z: -0.26190873980522156
visibility: 0.9999514222145081
","x: 238.66552734375
y: 194.37521362304688
z: -0.26193392276763916
visibility: 0.9999520778656006
","x: 236.610595703125
y: 194.2477569580078
z: -0.2619309425354004
visibility: 0.9999542832374573
","x: 250.13002014160156
y: 201.78961181640625
z: -0.10144492238759995
visibility: 0.9997899532318115
","x: 232.04933166503906
y: 199.76495361328125
z: -0.14019741117954254
visibility: 0.9999104738235474
","x: 244.5371551513672
y: 212.86622619628906
z: -0.22089342772960663
visibility: 0.9999580979347229
","x: 238.44271850585938
y: 211.46768188476562
z: -0.23219315707683563
visibility: 0.999972403049469
","x: 260.3192138671875
y: 252.08937072753906
z: 0.007260425947606564
visibility: 0.9998911023139954
","x: 216.3616943359375
y: 251.60800170898438
z: -0.06325875222682953
visibility: 0.9997977018356323
","x: 270.9482727050781
y: 310.4989929199219
z: -0.053414084017276764
visibility: 0.9689589738845825
","x: 205.73080444335938
y: 316.6905517578125
z: -0.13949111104011536
visibility: 0.9273267388343811
","x: 270.24566650390625
y: 312.1107177734375
z: -0.30899807810783386
visibility: 0.9645494818687439
","x: 221.88616943359375
y: 302.660400390625
z: -0.37554678320884705
visibility: 0.9488236904144287
","x: 271.51812744140625
y: 312.6761779785156
z: -0.3607178330421448
visibility: 0.9318135976791382
","x: 227.1488800048828
y: 299.78143310546875
z: -0.4252642095088959
visibility: 0.9265209436416626
","x: 269.407470703125
y: 308.2247314453125
z: -0.3731061816215515
visibility: 0.9352102279663086
","x: 228.43936157226562
y: 290.958740234375
z: -0.4308266043663025
visibility: 0.9283583760261536
","x: 267.7720947265625
y: 307.62615966796875
z: -0.32010573148727417
visibility: 0.9151758551597595
","x: 227.1386260986328
y: 291.4351806640625
z: -0.3804900646209717
visibility: 0.9083194732666016
","x: 254.75888061523438
y: 373.12921142578125
z: 0.019184183329343796
visibility: 0.999291181564331
","x: 228.68234252929688
y: 373.28387451171875
z: -0.019279619678854942
visibility: 0.9992481470108032
","x: 255.50242614746094
y: 472.2419738769531
z: 0.004428698681294918
visibility: 0.9912940263748169
","x: 230.1606903076172
y: 470.6445007324219
z: -0.029827412217855453
visibility: 0.9902935028076172
","x: 260.89044189453125
y: 555.2830810546875
z: 0.21583731472492218
visibility: 0.9904667735099792
","x: 229.4090576171875
y: 558.407958984375
z: 0.17231325805187225
visibility: 0.9902328848838806
","x: 258.70867919921875
y: 566.1195678710938
z: 0.22768160700798035
visibility: 0.8939400911331177
","x: 231.95523071289062
y: 571.8641357421875
z: 0.1809094250202179
visibility: 0.8618108630180359
","x: 263.213623046875
y: 582.7413330078125
z: 0.07531864196062088
visibility: 0.9845758080482483
","x: 226.57089233398438
y: 583.0658569335938
z: 0.02245459146797657
visibility: 0.9843487739562988
",,,,,,,,,,,,,,,,,,,,,,,,,,,,,,,,,,,,,,,,,,
11,"x: 246.61749267578125
y: 202.64804077148438
z: -0.24636304378509521
visibility: 0.9999831318855286
","x: 248.4217987060547
y: 195.42544555664062
z: -0.22004494071006775
visibility: 0.9999508857727051
","x: 249.76864624023438
y: 195.8749542236328
z: -0.22005894780158997
visibility: 0.9999402761459351
","x: 251.0383758544922
y: 196.4484405517578
z: -0.22003436088562012
visibility: 0.999934732913971
","x: 244.22630310058594
y: 194.4465789794922
z: -0.22972044348716736
visibility: 0.999954879283905
","x: 242.3738250732422
y: 194.20065307617188
z: -0.22972862422466278
visibility: 0.9999553561210632
","x: 240.28211975097656
y: 194.0141143798828
z: -0.22970764338970184
visibility: 0.9999575018882751
","x: 251.9199981689453
y: 201.7843475341797
z: -0.06949769705533981
visibility: 0.9998058676719666
","x: 234.62301635742188
y: 199.16128540039062
z: -0.11402902752161026
visibility: 0.9999178647994995
","x: 247.81690979003906
y: 212.60980224609375
z: -0.19001266360282898
visibility: 0.9999607801437378
","x: 242.4853973388672
y: 211.18792724609375
z: -0.20277199149131775
visibility: 0.9999744296073914
","x: 261.6477966308594
y: 252.02284240722656
z: 0.03848590329289436
visibility: 0.9998924136161804
","x: 218.5614013671875
y: 251.52716064453125
z: -0.04219786077737808
visibility: 0.9998106360435486
","x: 271.314208984375
y: 309.3238525390625
z: -0.000933588482439518
visibility: 0.9625727534294128
","x: 210.13233947753906
y: 319.6014709472656
z: -0.13156384229660034
visibility: 0.9337369203567505
","x: 274.6505126953125
y: 313.0003662109375
z: -0.2742078900337219
visibility: 0.9639890193939209
","x: 230.44290161132812
y: 298.79644775390625
z: -0.3620440363883972
visibility: 0.9534199833869934
","x: 277.1598205566406
y: 311.62786865234375
z: -0.3442508578300476
visibility: 0.931342601776123
","x: 235.81283569335938
y: 293.1024169921875
z: -0.41047120094299316
visibility: 0.9325652718544006
","x: 275.8321533203125
y: 306.221923828125
z: -0.338708758354187
visibility: 0.9347509741783142
","x: 236.5041961669922
y: 285.4991455078125
z: -0.4167720675468445
visibility: 0.9341545104980469
","x: 274.23712158203125
y: 306.5337219238281
z: -0.28915640711784363
visibility: 0.9138750433921814
","x: 235.11195373535156
y: 286.73590087890625
z: -0.3669808506965637
visibility: 0.9152184724807739
","x: 258.444091796875
y: 373.02313232421875
z: 0.024171607568860054
visibility: 0.9992882609367371
","x: 232.97169494628906
y: 373.2793884277344
z: -0.02421392686665058
visibility: 0.9992519617080688
","x: 258.3148498535156
y: 472.05010986328125
z: 0.01016432698816061
visibility: 0.9911181330680847
","x: 232.2369384765625
y: 470.7166748046875
z: -0.03555779531598091
visibility: 0.9901934266090393
","x: 261.0147399902344
y: 555.6807861328125
z: 0.2023666650056839
visibility: 0.9902809858322144
","x: 229.72068786621094
y: 558.3945922851562
z: 0.14205798506736755
visibility: 0.9900011420249939
","x: 258.2721862792969
y: 567.8645629882812
z: 0.21212145686149597
visibility: 0.8944333791732788
","x: 232.1686553955078
y: 571.8330078125
z: 0.15045860409736633
visibility: 0.8603433966636658
","x: 263.4297180175781
y: 582.6688232421875
z: 0.06250084936618805
visibility: 0.984361469745636
","x: 226.58688354492188
y: 583.03076171875
z: -0.005204254761338234
visibility: 0.9841596484184265
",,,,,,,,,,,,,,,,,,,,,,,,,,,,,,,,,,,,,,,,,,
12,"x: 248.73770141601562
y: 202.595947265625
z: -0.256864994764328
visibility: 0.9999842643737793
","x: 250.43707275390625
y: 195.28631591796875
z: -0.23230460286140442
visibility: 0.999954879283905
","x: 251.9355010986328
y: 195.7735595703125
z: -0.2323192059993744
visibility: 0.9999450445175171
","x: 253.16969299316406
y: 196.3923797607422
z: -0.23228371143341064
visibility: 0.9999397993087769
","x: 246.31524658203125
y: 194.2930908203125
z: -0.2401084452867508
visibility: 0.9999583959579468
","x: 244.3092498779297
y: 194.06777954101562
z: -0.24011707305908203
visibility: 0.9999588131904602
","x: 242.46783447265625
y: 193.864501953125
z: -0.24009843170642853
visibility: 0.9999608397483826
","x: 254.5099639892578
y: 201.77503967285156
z: -0.08596327155828476
visibility: 0.9998220205307007
","x: 237.4265899658203
y: 199.0853729248047
z: -0.1227756142616272
visibility: 0.9999249577522278
","x: 250.24034118652344
y: 212.51214599609375
z: -0.2019859254360199
visibility: 0.9999639391899109
","x: 244.8427734375
y: 211.0726776123047
z: -0.21245841681957245
visibility: 0.9999765753746033
","x: 264.8570556640625
y: 252.00514221191406
z: 0.023534681648015976
visibility: 0.9998984932899475
","x: 222.27984619140625
y: 251.54702758789062
z: -0.04544436186552048
visibility: 0.9998248815536499
","x: 271.74658203125
y: 309.3356018066406
z: -0.011586474254727364
visibility: 0.9591054916381836
","x: 215.22366333007812
y: 321.4429931640625
z: -0.13797390460968018
visibility: 0.9397013187408447
","x: 280.0710754394531
y: 311.9887390136719
z: -0.2698575258255005
visibility: 0.9652273654937744
","x: 235.42955017089844
y: 300.0115661621094
z: -0.3658038079738617
visibility: 0.9576776027679443
","x: 284.01055908203125
y: 311.91424560546875
z: -0.32413381338119507
visibility: 0.9339140057563782
","x: 241.0769500732422
y: 293.7939147949219
z: -0.4142325818538666
visibility: 0.9382832646369934
","x: 283.2790832519531
y: 307.09478759765625
z: -0.3374831974506378
visibility: 0.9372296333312988
","x: 241.77249145507812
y: 286.3213806152344
z: -0.4189635217189789
visibility: 0.9396603107452393
","x: 281.2829895019531
y: 306.8956298828125
z: -0.28363698720932007
visibility: 0.9166450500488281
","x: 240.17630004882812
y: 287.5580139160156
z: -0.369996041059494
visibility: 0.9219021201133728
","x: 262.4315185546875
y: 373.1014709472656
z: 0.026911180466413498
visibility: 0.9993032217025757
","x: 237.052001953125
y: 373.4603576660156
z: -0.0269810501486063
visibility: 0.9992590546607971
","x: 259.89019775390625
y: 472.0317077636719
z: 0.019749388098716736
visibility: 0.9908545017242432
","x: 234.41726684570312
y: 470.7347412109375
z: -0.029745865613222122
visibility: 0.9902794361114502
","x: 261.0310974121094
y: 555.7136840820312
z: 0.21253648400306702
visibility: 0.9901711344718933
","x: 229.91177368164062
y: 557.81298828125
z: 0.14735542237758636
visibility: 0.9897609949111938
","x: 257.66485595703125
y: 568.27001953125
z: 0.22223380208015442
visibility: 0.8954428434371948
","x: 232.19471740722656
y: 571.218505859375
z: 0.15256533026695251
visibility: 0.857687771320343
","x: 263.482421875
y: 582.6829833984375
z: 0.07504373788833618
visibility: 0.9843957424163818
","x: 227.4150848388672
y: 583.0181274414062
z: 0.004054409451782703
visibility: 0.9840964078903198
",,,,,,,,,,,,,,,,,,,,,,,,,,,,,,,,,,,,,,,,,,
13,"x: 252.35220336914062
y: 202.58160400390625
z: -0.2855742573738098
visibility: 0.9999854564666748
","x: 253.73028564453125
y: 195.2643585205078
z: -0.2594650685787201
visibility: 0.9999587535858154
","x: 255.08474731445312
y: 195.7484130859375
z: -0.25948625802993774
visibility: 0.9999496936798096
","x: 256.58721923828125
y: 196.36758422851562
z: -0.2594394385814667
visibility: 0.9999446272850037
","x: 249.23475646972656
y: 194.27671813964844
z: -0.2705744802951813
visibility: 0.9999619126319885
","x: 247.4472198486328
y: 194.05203247070312
z: -0.27058976888656616
visibility: 0.9999622702598572
","x: 245.20516967773438
y: 193.85488891601562
z: -0.2705898880958557
visibility: 0.9999641180038452
","x: 257.3813781738281
y: 201.76702880859375
z: -0.10141340643167496
visibility: 0.9998371601104736
","x: 240.7486114501953
y: 199.0701446533203
z: -0.15771834552288055
visibility: 0.9999317526817322
","x: 254.1927032470703
y: 212.44952392578125
z: -0.22814786434173584
visibility: 0.9999667406082153
","x: 248.8603057861328
y: 211.06744384765625
z: -0.2427997589111328
visibility: 0.9999784827232361
","x: 268.0802307128906
y: 251.69168090820312
z: 0.004813572857528925
visibility: 0.9999029040336609
","x: 226.00071716308594
y: 253.6776580810547
z: -0.08351276069879532
visibility: 0.9998371601104736
","x: 273.8724670410156
y: 310.42901611328125
z: -0.017889363691210747
visibility: 0.9528345465660095
","x: 220.94406127929688
y: 325.0860900878906
z: -0.17211297154426575
visibility: 0.9451403617858887
","x: 287.22265625
y: 307.36083984375
z: -0.273029088973999
visibility: 0.9664714336395264
","x: 237.0286865234375
y: 302.8207702636719
z: -0.40287715196609497
visibility: 0.961632490158081
","x: 293.0321960449219
y: 305.98748779296875
z: -0.3219861686229706
visibility: 0.9366574883460999
","x: 242.39581298828125
y: 296.7235107421875
z: -0.4500824809074402
visibility: 0.9437496066093445
","x: 293.5340270996094
y: 301.31060791015625
z: -0.34120553731918335
visibility: 0.9399325847625732
","x: 242.4100341796875
y: 288.7157897949219
z: -0.4555867314338684
visibility: 0.9449583888053894
","x: 290.5090026855469
y: 301.6573791503906
z: -0.28795579075813293
visibility: 0.9199058413505554
","x: 240.90768432617188
y: 290.11822509765625
z: -0.40725892782211304
visibility: 0.9284486174583435
","x: 267.392333984375
y: 373.3160095214844
z: 0.028079912066459656
visibility: 0.9993084669113159
","x: 242.4221649169922
y: 374.0231628417969
z: -0.028169507160782814
visibility: 0.9992594122886658
","x: 262.9142150878906
y: 472.5545959472656
z: 0.029117684811353683
visibility: 0.9904438853263855
","x: 238.11279296875
y: 471.0752868652344
z: -0.026054030284285545
visibility: 0.9903467297554016
","x: 261.0543212890625
y: 556.1732788085938
z: 0.22244691848754883
visibility: 0.9899452924728394
","x: 230.1379852294922
y: 556.6480102539062
z: 0.1515423059463501
visibility: 0.9894739985466003
","x: 257.59466552734375
y: 568.854736328125
z: 0.23186412453651428
visibility: 0.8966051936149597
","x: 232.2527313232422
y: 569.221435546875
z: 0.1605561077594757
visibility: 0.8550751209259033
","x: 264.14691162109375
y: 582.9279174804688
z: 0.08910894393920898
visibility: 0.9843189716339111
","x: 228.87020874023438
y: 582.6995239257812
z: 0.011877056211233139
visibility: 0.9840195775032043
",,,,,,,,,,,,,,,,,,,,,,,,,,,,,,,,,,,,,,,,,,
14,"x: 253.1879425048828
y: 202.45291137695312
z: -0.28469109535217285
visibility: 0.9999860525131226
","x: 254.8970947265625
y: 195.15699768066406
z: -0.2583901882171631
visibility: 0.9999615550041199
","x: 256.2562255859375
y: 195.64089965820312
z: -0.2584201693534851
visibility: 0.9999530911445618
","x: 257.89337158203125
y: 196.23760986328125
z: -0.25838255882263184
visibility: 0.999948263168335
","x: 250.24508666992188
y: 194.2658233642578
z: -0.2687246799468994
visibility: 0.9999639987945557
","x: 248.33621215820312
y: 194.03684997558594
z: -0.26873502135276794
visibility: 0.9999641180038452
","x: 246.15087890625
y: 193.83514404296875
z: -0.26876258850097656
visibility: 0.9999658465385437
","x: 259.2962951660156
y: 201.73646545410156
z: -0.10552646964788437
visibility: 0.9998490214347839
","x: 242.2836456298828
y: 199.12298583984375
z: -0.1482160985469818
visibility: 0.9999361038208008
","x: 255.5729522705078
y: 212.2531280517578
z: -0.22683103382587433
visibility: 0.9999687075614929
","x: 250.01695251464844
y: 211.05337524414062
z: -0.23971965909004211
visibility: 0.9999796152114868
","x: 271.4276428222656
y: 251.6707000732422
z: 0.004844938404858112
visibility: 0.9999080896377563
","x: 229.1082305908203
y: 254.61492919921875
z: -0.07709050178527832
visibility: 0.9998406171798706
","x: 278.9690246582031
y: 311.3544616699219
z: -0.01966257579624653
visibility: 0.9489781856536865
","x: 223.7185821533203
y: 326.34881591796875
z: -0.14928728342056274
visibility: 0.9488505125045776
","x: 290.59552001953125
y: 302.11993408203125
z: -0.2986909747123718
visibility: 0.9680553078651428
","x: 235.814208984375
y: 303.5570373535156
z: -0.380289226770401
visibility: 0.9645180702209473
","x: 297.0783996582031
y: 299.36505126953125
z: -0.34904852509498596
visibility: 0.9399219751358032
","x: 239.49940490722656
y: 299.67779541015625
z: -0.42763811349868774
visibility: 0.9472435116767883
","x: 297.5470275878906
y: 294.0435485839844
z: -0.3685941696166992
visibility: 0.9431523084640503
","x: 239.68251037597656
y: 292.1163330078125
z: -0.4363587498664856
visibility: 0.9483081102371216
","x: 294.48876953125
y: 294.66705322265625
z: -0.31357520818710327
visibility: 0.9238491654396057
","x: 238.94581604003906
y: 293.0181579589844
z: -0.3867710828781128
visibility: 0.932357132434845
","x: 269.461181640625
y: 373.7774963378906
z: 0.024148639291524887
visibility: 0.9993255734443665
","x: 244.00732421875
y: 374.10595703125
z: -0.02422466315329075
visibility: 0.9992570281028748
","x: 263.6374816894531
y: 473.1051330566406
z: 0.023508351296186447
visibility: 0.9904139041900635
","x: 240.49066162109375
y: 471.5845031738281
z: -0.02442569099366665
visibility: 0.990363597869873
","x: 261.0556640625
y: 556.8263549804688
z: 0.22120952606201172
visibility: 0.9900646805763245
","x: 230.29525756835938
y: 554.9278564453125
z: 0.16676896810531616
visibility: 0.9893267750740051
","x: 257.8302917480469
y: 569.6477661132812
z: 0.23164471983909607
visibility: 0.8969663977622986
","x: 232.06137084960938
y: 566.0936889648438
z: 0.17812612652778625
visibility: 0.851142406463623
","x: 264.09674072265625
y: 582.9661865234375
z: 0.08380143344402313
visibility: 0.9845157265663147
","x: 229.31602478027344
y: 582.1689453125
z: 0.024197084829211235
visibility: 0.9841265678405762
",,,,,,,,,,,,,,,,,,,,,,,,,,,,,,,,,,,,,,,,,,
15,"x: 253.06463623046875
y: 202.41912841796875
z: -0.2668999433517456
visibility: 0.9999868869781494
","x: 254.9417266845703
y: 195.09054565429688
z: -0.24264344573020935
visibility: 0.9999645352363586
","x: 256.65625
y: 195.51084899902344
z: -0.2426701784133911
visibility: 0.9999566674232483
","x: 258.23419189453125
y: 196.0330810546875
z: -0.24265065789222717
visibility: 0.9999521374702454
","x: 250.24435424804688
y: 194.23973083496094
z: -0.24767740070819855
visibility: 0.9999665021896362
","x: 248.2913360595703
y: 194.0408172607422
z: -0.24768953025341034
visibility: 0.999966561794281
","x: 246.45175170898438
y: 193.87387084960938
z: -0.24767854809761047
visibility: 0.9999682307243347
","x: 260.96307373046875
y: 201.6470184326172
z: -0.0974554792046547
visibility: 0.9998610019683838
","x: 243.08938598632812
y: 199.69842529296875
z: -0.12066678702831268
visibility: 0.9999409914016724
","x: 255.61781311035156
y: 212.18350219726562
z: -0.21282999217510223
visibility: 0.9999710917472839
","x: 249.7630157470703
y: 211.0490264892578
z: -0.21939730644226074
visibility: 0.9999811053276062
","x: 274.3941650390625
y: 251.514404296875
z: 0.009151352569460869
visibility: 0.9999136328697205
","x: 231.2234344482422
y: 256.41790771484375
z: -0.03710636496543884
visibility: 0.9998489022254944
","x: 287.25579833984375
y: 310.0244445800781
z: -0.04818154126405716
visibility: 0.9490679502487183
","x: 224.86590576171875
y: 326.7816162109375
z: -0.11933716386556625
visibility: 0.9525829553604126
","x: 295.2601318359375
y: 299.7891540527344
z: -0.33714112639427185
visibility: 0.9694111347198486
","x: 234.68040466308594
y: 304.7603759765625
z: -0.37973642349243164
visibility: 0.9672403335571289
","x: 300.296142578125
y: 297.2140808105469
z: -0.3932873606681824
visibility: 0.9425279498100281
","x: 237.96051025390625
y: 301.23590087890625
z: -0.4234001636505127
visibility: 0.9505246877670288
","x: 299.26824951171875
y: 292.5501708984375
z: -0.4107450544834137
visibility: 0.9457598924636841
","x: 237.9876251220703
y: 293.8103942871094
z: -0.4344637393951416
visibility: 0.9514575004577637
","x: 296.71868896484375
y: 293.37664794921875
z: -0.35162967443466187
visibility: 0.9269922971725464
","x: 237.59454345703125
y: 294.4407043457031
z: -0.38475847244262695
visibility: 0.9360262155532837
","x: 271.1959228515625
y: 373.8156433105469
z: 0.02330840192735195
visibility: 0.999358057975769
","x: 245.0626983642578
y: 374.0083312988281
z: -0.023329442366957664
visibility: 0.9992786049842834
","x: 264.3926696777344
y: 473.9939880371094
z: 0.002181118819862604
visibility: 0.9900030493736267
","x: 240.82723999023438
y: 474.1378173828125
z: -0.033145856112241745
visibility: 0.9899510741233826
","x: 261.19757080078125
y: 557.37353515625
z: 0.20498745143413544
visibility: 0.989786684513092
","x: 230.3895263671875
y: 555.3810424804688
z: 0.16668695211410522
visibility: 0.9884945750236511
","x: 257.7926330566406
y: 570.8685302734375
z: 0.21659991145133972
visibility: 0.8942582607269287
","x: 232.0427703857422
y: 566.5352783203125
z: 0.17739717662334442
visibility: 0.8422393202781677
","x: 264.2383117675781
y: 583.4835205078125
z: 0.06531509011983871
visibility: 0.9840894341468811
","x: 229.05770874023438
y: 582.550537109375
z: 0.02395111694931984
visibility: 0.9834093451499939
",,,,,,,,,,,,,,,,,,,,,,,,,,,,,,,,,,,,,,,,,,
16,"x: 253.36016845703125
y: 202.39576721191406
z: -0.26616260409355164
visibility: 0.9999846816062927
","x: 255.3700408935547
y: 195.02566528320312
z: -0.2419862300157547
visibility: 0.9999633431434631
","x: 257.026123046875
y: 195.25155639648438
z: -0.24202363193035126
visibility: 0.9999546408653259
","x: 258.8591003417969
y: 195.5471954345703
z: -0.2420228272676468
visibility: 0.9999501705169678
","x: 250.58761596679688
y: 194.28497314453125
z: -0.2461230456829071
visibility: 0.9999645352363586
","x: 248.8973846435547
y: 194.17152404785156
z: -0.24613985419273376
visibility: 0.99996417760849
","x: 246.84765625
y: 194.17471313476562
z: -0.2461298406124115
visibility: 0.9999667406082153
","x: 262.192138671875
y: 201.2859344482422
z: -0.09795941412448883
visibility: 0.9998608231544495
","x: 244.02825927734375
y: 200.70970153808594
z: -0.11575376987457275
visibility: 0.9999398589134216
","x: 256.2444763183594
y: 212.07330322265625
z: -0.2125891000032425
visibility: 0.9999709129333496
","x: 250.43008422851562
y: 211.10166931152344
z: -0.2176569402217865
visibility: 0.9999804496765137
","x: 276.8138427734375
y: 251.4112548828125
z: 0.0035527602303773165
visibility: 0.9999033212661743
","x: 232.49208068847656
y: 256.3228759765625
z: -0.0308617502450943
visibility: 0.9998384118080139
","x: 289.2054443359375
y: 308.4820251464844
z: -0.06672127544879913
visibility: 0.9429978132247925
","x: 226.2860870361328
y: 325.8490295410156
z: -0.07784031331539154
visibility: 0.9539934992790222
","x: 289.83740234375
y: 304.4010314941406
z: -0.34044864773750305
visibility: 0.9560917019844055
","x: 234.19903564453125
y: 313.01568603515625
z: -0.28254732489585876
visibility: 0.9651703238487244
","x: 292.1612548828125
y: 301.16021728515625
z: -0.39681321382522583
visibility: 0.9237743616104126
","x: 237.58816528320312
y: 310.35382080078125
z: -0.3287796974182129
visibility: 0.9448891282081604
","x: 290.90655517578125
y: 296.36541748046875
z: -0.4114413857460022
visibility: 0.9277146458625793
","x: 237.5625457763672
y: 303.64208984375
z: -0.3422282040119171
visibility: 0.9456182718276978
","x: 289.0622253417969
y: 293.9953918457031
z: -0.35347211360931396
visibility: 0.9055255055427551
","x: 237.2322235107422
y: 304.1830749511719
z: -0.29060447216033936
visibility: 0.9277762770652771
","x: 270.8731384277344
y: 374.7330017089844
z: 0.019470755010843277
visibility: 0.999365508556366
","x: 244.68821716308594
y: 374.0268249511719
z: -0.019470030441880226
visibility: 0.9992680549621582
","x: 263.9657897949219
y: 474.8428955078125
z: -0.011348137632012367
visibility: 0.9894903302192688
","x: 239.99578857421875
y: 476.5201416015625
z: -0.03038962557911873
visibility: 0.9898480176925659
","x: 261.22711181640625
y: 557.6145629882812
z: 0.21023376286029816
visibility: 0.9895585775375366
","x: 230.45809936523438
y: 556.7534790039062
z: 0.18580037355422974
visibility: 0.9883792400360107
","x: 257.5373229980469
y: 571.3778076171875
z: 0.2232644259929657
visibility: 0.8914035558700562
","x: 232.08172607421875
y: 568.040771484375
z: 0.19799931347370148
visibility: 0.8392653465270996
","x: 264.1953430175781
y: 583.6012573242188
z: 0.0673714354634285
visibility: 0.9835334420204163
","x: 228.2452850341797
y: 582.5505981445312
z: 0.03757674992084503
visibility: 0.9832814931869507
",,,,,,,,,,,,,,,,,,,,,,,,,,,,,,,,,,,,,,,,,,
17,"x: 253.47201538085938
y: 201.4364013671875
z: -0.23583276569843292
visibility: 0.9999854564666748
","x: 255.903564453125
y: 194.18972778320312
z: -0.21343331038951874
visibility: 0.9999659061431885
","x: 257.5588073730469
y: 194.30503845214844
z: -0.21351805329322815
visibility: 0.9999579787254333
","x: 259.1263732910156
y: 194.43563842773438
z: -0.21353933215141296
visibility: 0.9999539256095886
","x: 250.80593872070312
y: 193.9078369140625
z: -0.21454933285713196
visibility: 0.999966025352478
","x: 248.865478515625
y: 193.9412841796875
z: -0.21455390751361847
visibility: 0.9999653100967407
","x: 246.7601318359375
y: 194.07098388671875
z: -0.21451786160469055
visibility: 0.999967634677887
","x: 262.5863037109375
y: 200.18780517578125
z: -0.07680860906839371
visibility: 0.9998728632926941
","x: 243.92221069335938
y: 200.6987762451172
z: -0.08262546360492706
visibility: 0.9999401569366455
","x: 256.3834228515625
y: 210.992919921875
z: -0.18559549748897552
visibility: 0.9999731183052063
","x: 250.3023681640625
y: 210.85662841796875
z: -0.18698470294475555
visibility: 0.9999812245368958
","x: 277.41937255859375
y: 250.79063415527344
z: 0.003823618171736598
visibility: 0.9999104738235474
","x: 233.25930786132812
y: 256.18603515625
z: 0.012173740193247795
visibility: 0.9998286366462708
","x: 288.77703857421875
y: 308.54034423828125
z: -0.07027314603328705
visibility: 0.9441565275192261
","x: 227.33851623535156
y: 323.2646179199219
z: -0.048477377742528915
visibility: 0.9505265951156616
","x: 296.2170104980469
y: 305.46759033203125
z: -0.34019288420677185
visibility: 0.9584468603134155
","x: 217.22366333007812
y: 310.61151123046875
z: -0.31260114908218384
visibility: 0.9658486843109131
","x: 301.0805358886719
y: 305.093017578125
z: -0.39641958475112915
visibility: 0.9281454086303711
","x: 212.96107482910156
y: 309.8138122558594
z: -0.3619043231010437
visibility: 0.9463450908660889
","x: 300.76806640625
y: 300.4982604980469
z: -0.4197331368923187
visibility: 0.9320829510688782
","x: 212.7367401123047
y: 303.489013671875
z: -0.35343819856643677
visibility: 0.9474135041236877
","x: 298.3627624511719
y: 299.59527587890625
z: -0.35673651099205017
visibility: 0.9109604358673096
","x: 214.3201141357422
y: 303.74951171875
z: -0.3220972418785095
visibility: 0.9303721189498901
","x: 269.4085388183594
y: 374.70562744140625
z: 0.004468363709747791
visibility: 0.9993971586227417
","x: 243.3194122314453
y: 373.59173583984375
z: -0.004440802149474621
visibility: 0.9992786645889282
","x: 263.56488037109375
y: 474.7781982421875
z: -0.031164634972810745
visibility: 0.9897741675376892
","x: 237.0944366455078
y: 476.2644958496094
z: -0.035786475986242294
visibility: 0.9898039698600769
","x: 261.22052001953125
y: 557.5879516601562
z: 0.17494472861289978
visibility: 0.9897702932357788
","x: 230.4242401123047
y: 556.6481323242188
z: 0.1825270801782608
visibility: 0.9880766272544861
","x: 257.471435546875
y: 571.1998291015625
z: 0.18669338524341583
visibility: 0.8882609009742737
","x: 232.20664978027344
y: 568.0858764648438
z: 0.19687290489673615
visibility: 0.8356446027755737
","x: 263.92529296875
y: 583.689697265625
z: 0.037428803741931915
visibility: 0.9838839173316956
","x: 226.95834350585938
y: 582.4382934570312
z: 0.03500866889953613
visibility: 0.9831313490867615
",,,,,,,,,,,,,,,,,,,,,,,,,,,,,,,,,,,,,,,,,,
18,"x: 251.73208618164062
y: 201.441162109375
z: -0.3012560307979584
visibility: 0.999985933303833
","x: 255.26876831054688
y: 194.1836395263672
z: -0.28234899044036865
visibility: 0.9999674558639526
","x: 257.4633483886719
y: 194.2769775390625
z: -0.2823811173439026
visibility: 0.99996018409729
","x: 259.05303955078125
y: 194.40982055664062
z: -0.2824397087097168
visibility: 0.999956488609314
","x: 249.0443572998047
y: 193.97804260253906
z: -0.27695873379707336
visibility: 0.999967098236084
","x: 247.0911865234375
y: 194.0888671875
z: -0.27698829770088196
visibility: 0.9999663829803467
","x: 245.21978759765625
y: 194.2803955078125
z: -0.2769539952278137
visibility: 0.9999684691429138
","x: 261.5834045410156
y: 200.21852111816406
z: -0.1594049036502838
visibility: 0.9998825192451477
","x: 243.34413146972656
y: 200.81178283691406
z: -0.13467811048030853
visibility: 0.9999406933784485
","x: 256.10223388671875
y: 210.9827880859375
z: -0.2560192942619324
visibility: 0.9999744892120361
","x: 248.29598999023438
y: 210.87049865722656
z: -0.24957887828350067
visibility: 0.999981164932251
","x: 276.169921875
y: 251.11026000976562
z: -0.0822596624493599
visibility: 0.999906063079834
","x: 231.78506469726562
y: 256.06494140625
z: -0.02896248735487461
visibility: 0.9997946619987488
","x: 297.36871337890625
y: 298.7357177734375
z: -0.2261500358581543
visibility: 0.9494561553001404
","x: 213.75877380371094
y: 309.0465393066406
z: -0.14816302061080933
visibility: 0.9540274143218994
","x: 295.97698974609375
y: 258.1747131347656
z: -0.4640018045902252
visibility: 0.9619336724281311
","x: 204.74346923828125
y: 262.72113037109375
z: -0.421140193939209
visibility: 0.9683274030685425
","x: 295.9374084472656
y: 249.89566040039062
z: -0.5101822018623352
visibility: 0.932705819606781
","x: 202.14601135253906
y: 251.39747619628906
z: -0.47105202078819275
visibility: 0.9489871263504028
","x: 294.5881042480469
y: 245.69444274902344
z: -0.49953532218933105
visibility: 0.9360685348510742
","x: 204.3383331298828
y: 246.59339904785156
z: -0.4678451418876648
visibility: 0.9498150944709778
","x: 293.5284118652344
y: 248.8204345703125
z: -0.46493181586265564
visibility: 0.9158496260643005
","x: 205.72789001464844
y: 250.91464233398438
z: -0.4275910258293152
visibility: 0.9333446621894836
","x: 268.5914611816406
y: 374.6833801269531
z: -0.013555606827139854
visibility: 0.9994117021560669
","x: 241.59613037109375
y: 373.3434753417969
z: 0.013442439958453178
visibility: 0.9992648363113403
","x: 262.7352294921875
y: 473.5235900878906
z: -0.022245775908231735
visibility: 0.9894774556159973
","x: 232.6922607421875
y: 475.65850830078125
z: 0.015286835841834545
visibility: 0.9890601634979248
","x: 261.2247314453125
y: 557.1546630859375
z: 0.17944535613059998
visibility: 0.9892339110374451
","x: 228.66030883789062
y: 556.65185546875
z: 0.19854098558425903
visibility: 0.9875622391700745
","x: 258.4447326660156
y: 570.3319091796875
z: 0.19149115681648254
visibility: 0.8771077394485474
","x: 231.1151123046875
y: 568.2274169921875
z: 0.21015124022960663
visibility: 0.8327909111976624
","x: 262.97735595703125
y: 583.6072387695312
z: 0.043995268642902374
visibility: 0.9833470582962036
","x: 224.06105041503906
y: 582.1730346679688
z: 0.07041957229375839
visibility: 0.9825789332389832
",,,,,,,,,,,,,,,,,,,,,,,,,,,,,,,,,,,,,,,,,,
19,"x: 246.14260864257812
y: 202.8885040283203
z: -0.3160967528820038
visibility: 0.99998539686203
","x: 250.61410522460938
y: 196.38250732421875
z: -0.2948856055736542
visibility: 0.9999669194221497
","x: 252.98269653320312
y: 196.890380859375
z: -0.2948407828807831
visibility: 0.9999593496322632
","x: 255.07174682617188
y: 197.31259155273438
z: -0.29485780000686646
visibility: 0.9999562501907349
","x: 244.55641174316406
y: 195.04615783691406
z: -0.2943947911262512
visibility: 0.9999672770500183
","x: 243.25332641601562
y: 194.86427307128906
z: -0.2944444715976715
visibility: 0.9999665021896362
","x: 241.46873474121094
y: 194.79837036132812
z: -0.29440420866012573
visibility: 0.9999688267707825
","x: 258.3877258300781
y: 203.54150390625
z: -0.17397411167621613
visibility: 0.9998878240585327
","x: 240.0386199951172
y: 201.416259765625
z: -0.174127995967865
visibility: 0.99994295835495
","x: 249.57579040527344
y: 213.09242248535156
z: -0.2724006772041321
visibility: 0.9999744892120361
","x: 243.1123046875
y: 211.64529418945312
z: -0.27266228199005127
visibility: 0.9999809861183167
","x: 270.885498046875
y: 251.95303344726562
z: -0.12167096138000488
visibility: 0.9998854398727417
","x: 225.54217529296875
y: 256.3797607421875
z: -0.09517785161733627
visibility: 0.9997669458389282
","x: 298.0277099609375
y: 272.07159423828125
z: -0.2750028073787689
visibility: 0.9541428089141846
","x: 193.08238220214844
y: 278.4362487792969
z: -0.2278653085231781
visibility: 0.95794677734375
","x: 280.6043701171875
y: 270.5172424316406
z: -0.46489620208740234
visibility: 0.9629781246185303
","x: 208.92926025390625
y: 272.0354919433594
z: -0.40504589676856995
visibility: 0.9668267369270325
","x: 274.1303405761719
y: 274.5727844238281
z: -0.5082317590713501
visibility: 0.929036557674408
","x: 212.61648559570312
y: 272.5462646484375
z: -0.4459826946258545
visibility: 0.9395283460617065
","x: 269.71392822265625
y: 272.0268859863281
z: -0.4915357530117035
visibility: 0.9307624697685242
","x: 214.36508178710938
y: 268.3539123535156
z: -0.44019001722335815
visibility: 0.9386522769927979
","x: 271.17578125
y: 271.2241516113281
z: -0.46236521005630493
visibility: 0.9092848300933838
","x: 214.52606201171875
y: 269.2700500488281
z: -0.40414825081825256
visibility: 0.9210483431816101
","x: 260.466552734375
y: 375.9714050292969
z: -0.013933409936726093
visibility: 0.9994118809700012
","x: 233.2898406982422
y: 375.3935241699219
z: 0.013687062077224255
visibility: 0.9992501139640808
","x: 257.75140380859375
y: 474.17498779296875
z: -0.00025248268502764404
visibility: 0.9893268346786499
","x: 229.70928955078125
y: 475.7969970703125
z: 0.04492245241999626
visibility: 0.9885361790657043
","x: 261.0272216796875
y: 556.3309936523438
z: 0.18336914479732513
visibility: 0.9889807105064392
","x: 227.313232421875
y: 557.5287475585938
z: 0.20851635932922363
visibility: 0.987439751625061
","x: 258.45159912109375
y: 568.7576904296875
z: 0.1940341740846634
visibility: 0.86452716588974
","x: 230.4716796875
y: 571.55224609375
z: 0.21795892715454102
visibility: 0.8324790000915527
","x: 263.0084228515625
y: 583.6012573242188
z: 0.0561051182448864
visibility: 0.9825912714004517
","x: 219.30050659179688
y: 581.8094482421875
z: 0.09159804880619049
visibility: 0.9822332859039307
",,,,,,,,,,,,,,,,,,,,,,,,,,,,,,,,,,,,,,,,,,
20,"x: 241.94764709472656
y: 202.88023376464844
z: -0.2778584361076355
visibility: 0.9999852180480957
","x: 245.8162841796875
y: 196.69976806640625
z: -0.25688236951828003
visibility: 0.9999657869338989
","x: 247.79421997070312
y: 197.5867462158203
z: -0.2568454146385193
visibility: 0.9999575614929199
","x: 249.66668701171875
y: 198.4650421142578
z: -0.25684982538223267
visibility: 0.9999547004699707
","x: 241.167724609375
y: 195.02227783203125
z: -0.25578975677490234
visibility: 0.9999671578407288
","x: 239.45269775390625
y: 194.853271484375
z: -0.25580325722694397
visibility: 0.9999662041664124
","x: 237.82366943359375
y: 194.6981201171875
z: -0.2557581961154938
visibility: 0.9999690055847168
","x: 252.5186309814453
y: 205.15322875976562
z: -0.15790477395057678
visibility: 0.9998903274536133
","x: 235.25852966308594
y: 201.11611938476562
z: -0.1437980979681015
visibility: 0.9999431371688843
","x: 243.4077911376953
y: 213.2455291748047
z: -0.2375568449497223
visibility: 0.9999751448631287
","x: 237.7704315185547
y: 211.62095642089844
z: -0.2369776964187622
visibility: 0.9999816417694092
","x: 260.2962341308594
y: 251.96621704101562
z: -0.08464179933071136
visibility: 0.9998881816864014
","x: 218.86981201171875
y: 255.07444763183594
z: -0.043267350643873215
visibility: 0.9997727870941162
","x: 286.8468017578125
y: 283.7566223144531
z: -0.22098883986473083
visibility: 0.958257257938385
","x: 191.2084503173828
y: 287.36138916015625
z: -0.10640213638544083
visibility: 0.9608526229858398
","x: 256.20184326171875
y: 308.4383850097656
z: -0.27288371324539185
visibility: 0.9637832045555115
","x: 213.31057739257812
y: 291.71343994140625
z: -0.26710182428359985
visibility: 0.9658616185188293
","x: 249.28933715820312
y: 321.04833984375
z: -0.3153485953807831
visibility: 0.9273349046707153
","x: 217.36070251464844
y: 302.7769775390625
z: -0.30397874116897583
visibility: 0.9351425170898438
","x: 246.59762573242188
y: 317.484375
z: -0.31187814474105835
visibility: 0.9283459782600403
","x: 221.02127075195312
y: 301.2453918457031
z: -0.30344095826148987
visibility: 0.9337056875228882
","x: 247.71875
y: 314.3785400390625
z: -0.27291589975357056
visibility: 0.9058104157447815
","x: 219.35403442382812
y: 299.5831604003906
z: -0.26832231879234314
visibility: 0.9152991771697998
","x: 251.96214294433594
y: 375.7630920410156
z: -0.025104448199272156
visibility: 0.999415934085846
","x: 226.17123413085938
y: 375.34783935546875
z: 0.024875184521079063
visibility: 0.9992581009864807
","x: 250.47683715820312
y: 473.7467041015625
z: -0.04642169922590256
visibility: 0.9898093938827515
","x: 221.8124542236328
y: 474.65899658203125
z: 0.03007284738123417
visibility: 0.987957239151001
","x: 260.1225891113281
y: 549.3799438476562
z: 0.15924188494682312
visibility: 0.9891651272773743
","x: 225.43414306640625
y: 556.91064453125
z: 0.1996898353099823
visibility: 0.9874832034111023
","x: 258.4663391113281
y: 556.6788330078125
z: 0.17229053378105164
visibility: 0.8608511686325073
","x: 229.06851196289062
y: 570.1257934570312
z: 0.2096080482006073
visibility: 0.8379409313201904
","x: 261.8569030761719
y: 582.7965087890625
z: 0.04625391587615013
visibility: 0.982725203037262
","x: 218.7438201904297
y: 581.5948486328125
z: 0.08216498047113419
visibility: 0.9820390939712524
","x: 215.78831481933594
y: 306.1995849609375
z: 0.0
","x: 219.5287322998047
y: 313.87371826171875
z: 0.0012120219180360436
","x: 223.57960510253906
y: 317.1019287109375
z: -0.000284987356280908
","x: 226.34573364257812
y: 319.2290954589844
z: -0.002813200931996107
","x: 228.17495727539062
y: 320.31219482421875
z: -0.004814981948584318
","x: 228.6365203857422
y: 310.2959899902344
z: -0.0011619089636951685
","x: 232.1736602783203
y: 314.54901123046875
z: -0.004492293111979961
","x: 232.18116760253906
y: 318.82501220703125
z: -0.00603342242538929
","x: 231.62049865722656
y: 321.49212646484375
z: -0.006773317698389292
","x: 227.54544067382812
y: 307.8256530761719
z: -0.004245113581418991
","x: 230.36703491210938
y: 314.3548889160156
z: -0.0072741336189210415
","x: 229.00640869140625
y: 317.4832763671875
z: -0.0071112122386693954
","x: 227.53224182128906
y: 318.0856628417969
z: -0.006703635212033987
","x: 225.50965881347656
y: 306.6018371582031
z: -0.0074986303225159645
","x: 226.89181518554688
y: 313.73883056640625
z: -0.0102437948808074
","x: 225.3671112060547
y: 316.42999267578125
z: -0.008618611842393875
","x: 223.82156372070312
y: 316.7263488769531
z: -0.007163781672716141
","x: 222.68186950683594
y: 306.6273193359375
z: -0.010921082459390163
","x: 223.4882354736328
y: 312.6353759765625
z: -0.012888764962553978
","x: 222.3477325439453
y: 315.4127197265625
z: -0.011650191619992256
","x: 221.10137939453125
y: 316.28704833984375
z: -0.010320796631276608
",,,,,,,,,,,,,,,,,,,,,
21,"x: 241.94764709472656
y: 202.88023376464844
z: -0.2778584361076355
visibility: 0.9999852180480957
","x: 245.8162841796875
y: 196.69976806640625
z: -0.25688236951828003
visibility: 0.9999657869338989
","x: 247.79421997070312
y: 197.5867462158203
z: -0.2568454146385193
visibility: 0.9999575614929199
","x: 249.66668701171875
y: 198.4650421142578
z: -0.25684982538223267
visibility: 0.9999547004699707
","x: 241.167724609375
y: 195.02227783203125
z: -0.25578975677490234
visibility: 0.9999671578407288
","x: 239.45269775390625
y: 194.853271484375
z: -0.25580325722694397
visibility: 0.9999662041664124
","x: 237.82366943359375
y: 194.6981201171875
z: -0.2557581961154938
visibility: 0.9999690055847168
","x: 252.5186309814453
y: 205.15322875976562
z: -0.15790477395057678
visibility: 0.9998903274536133
","x: 235.25852966308594
y: 201.11611938476562
z: -0.1437980979681015
visibility: 0.9999431371688843
","x: 243.4077911376953
y: 213.2455291748047
z: -0.2375568449497223
visibility: 0.9999751448631287
","x: 237.7704315185547
y: 211.62095642089844
z: -0.2369776964187622
visibility: 0.9999816417694092
","x: 260.2962341308594
y: 251.96621704101562
z: -0.08464179933071136
visibility: 0.9998881816864014
","x: 218.86981201171875
y: 255.07444763183594
z: -0.043267350643873215
visibility: 0.9997727870941162
","x: 286.8468017578125
y: 283.7566223144531
z: -0.22098883986473083
visibility: 0.958257257938385
","x: 191.2084503173828
y: 287.36138916015625
z: -0.10640213638544083
visibility: 0.9608526229858398
","x: 256.20184326171875
y: 308.4383850097656
z: -0.27288371324539185
visibility: 0.9637832045555115
","x: 213.31057739257812
y: 291.71343994140625
z: -0.26710182428359985
visibility: 0.9658616185188293
","x: 249.28933715820312
y: 321.04833984375
z: -0.3153485953807831
visibility: 0.9273349046707153
","x: 217.36070251464844
y: 302.7769775390625
z: -0.30397874116897583
visibility: 0.9351425170898438
","x: 246.59762573242188
y: 317.484375
z: -0.31187814474105835
visibility: 0.9283459782600403
","x: 221.02127075195312
y: 301.2453918457031
z: -0.30344095826148987
visibility: 0.9337056875228882
","x: 247.71875
y: 314.3785400390625
z: -0.27291589975357056
visibility: 0.9058104157447815
","x: 219.35403442382812
y: 299.5831604003906
z: -0.26832231879234314
visibility: 0.9152991771697998
","x: 251.96214294433594
y: 375.7630920410156
z: -0.025104448199272156
visibility: 0.999415934085846
","x: 226.17123413085938
y: 375.34783935546875
z: 0.024875184521079063
visibility: 0.9992581009864807
","x: 250.47683715820312
y: 473.7467041015625
z: -0.04642169922590256
visibility: 0.9898093938827515
","x: 221.8124542236328
y: 474.65899658203125
z: 0.03007284738123417
visibility: 0.987957239151001
","x: 260.1225891113281
y: 549.3799438476562
z: 0.15924188494682312
visibility: 0.9891651272773743
","x: 225.43414306640625
y: 556.91064453125
z: 0.1996898353099823
visibility: 0.9874832034111023
","x: 258.4663391113281
y: 556.6788330078125
z: 0.17229053378105164
visibility: 0.8608511686325073
","x: 229.06851196289062
y: 570.1257934570312
z: 0.2096080482006073
visibility: 0.8379409313201904
","x: 261.8569030761719
y: 582.7965087890625
z: 0.04625391587615013
visibility: 0.982725203037262
","x: 218.7438201904297
y: 581.5948486328125
z: 0.08216498047113419
visibility: 0.9820390939712524
","x: 215.78831481933594
y: 306.1995849609375
z: 0.0
","x: 219.5287322998047
y: 313.87371826171875
z: 0.0012120219180360436
","x: 223.57960510253906
y: 317.1019287109375
z: -0.000284987356280908
","x: 226.34573364257812
y: 319.2290954589844
z: -0.002813200931996107
","x: 228.17495727539062
y: 320.31219482421875
z: -0.004814981948584318
","x: 228.6365203857422
y: 310.2959899902344
z: -0.0011619089636951685
","x: 232.1736602783203
y: 314.54901123046875
z: -0.004492293111979961
","x: 232.18116760253906
y: 318.82501220703125
z: -0.00603342242538929
","x: 231.62049865722656
y: 321.49212646484375
z: -0.006773317698389292
","x: 227.54544067382812
y: 307.8256530761719
z: -0.004245113581418991
","x: 230.36703491210938
y: 314.3548889160156
z: -0.0072741336189210415
","x: 229.00640869140625
y: 317.4832763671875
z: -0.0071112122386693954
","x: 227.53224182128906
y: 318.0856628417969
z: -0.006703635212033987
","x: 225.50965881347656
y: 306.6018371582031
z: -0.0074986303225159645
","x: 226.89181518554688
y: 313.73883056640625
z: -0.0102437948808074
","x: 225.3671112060547
y: 316.42999267578125
z: -0.008618611842393875
","x: 223.82156372070312
y: 316.7263488769531
z: -0.007163781672716141
","x: 222.68186950683594
y: 306.6273193359375
z: -0.010921082459390163
","x: 223.4882354736328
y: 312.6353759765625
z: -0.012888764962553978
","x: 222.3477325439453
y: 315.4127197265625
z: -0.011650191619992256
","x: 221.10137939453125
y: 316.28704833984375
z: -0.010320796631276608
",,,,,,,,,,,,,,,,,,,,,
22,"x: 238.33428955078125
y: 203.50555419921875
z: -0.27605050802230835
visibility: 0.9999837875366211
","x: 242.61532592773438
y: 198.37014770507812
z: -0.25544193387031555
visibility: 0.9999622702598572
","x: 244.5787811279297
y: 199.51266479492188
z: -0.25541460514068604
visibility: 0.9999532699584961
","x: 246.38064575195312
y: 200.50570678710938
z: -0.2554321885108948
visibility: 0.9999492168426514
","x: 237.6342010498047
y: 195.4678497314453
z: -0.25486594438552856
visibility: 0.9999648332595825
","x: 236.19456481933594
y: 195.0286865234375
z: -0.25488704442977905
visibility: 0.9999637007713318
","x: 234.33497619628906
y: 194.719970703125
z: -0.25485411286354065
visibility: 0.9999673366546631
","x: 248.5836181640625
y: 206.89080810546875
z: -0.14414750039577484
visibility: 0.9998916387557983
","x: 231.58294677734375
y: 201.0824432373047
z: -0.14242030680179596
visibility: 0.9999399185180664
","x: 239.8096160888672
y: 214.22518920898438
z: -0.23462092876434326
visibility: 0.9999749064445496
","x: 234.15513610839844
y: 211.74612426757812
z: -0.23378518223762512
visibility: 0.9999813437461853
","x: 255.64083862304688
y: 253.49388122558594
z: -0.0904742181301117
visibility: 0.9998918175697327
","x: 213.17271423339844
y: 254.01963806152344
z: -0.034411799162626266
visibility: 0.9997836351394653
","x: 273.6463623046875
y: 307.0240173339844
z: -0.17404606938362122
visibility: 0.9619579911231995
","x: 191.1824188232422
y: 294.419677734375
z: -0.11569366604089737
visibility: 0.9628974199295044
","x: 241.3448486328125
y: 319.0792541503906
z: -0.27403590083122253
visibility: 0.9652783274650574
","x: 214.6988067626953
y: 293.71453857421875
z: -0.30740246176719666
visibility: 0.9665593504905701
","x: 232.86000061035156
y: 325.7689208984375
z: -0.33927252888679504
visibility: 0.9281879663467407
","x: 217.63961791992188
y: 301.5498962402344
z: -0.3311759829521179
visibility: 0.9349878430366516
","x: 230.98202514648438
y: 320.69061279296875
z: -0.35753685235977173
visibility: 0.9285678267478943
","x: 222.14817810058594
y: 298.52215576171875
z: -0.3563806414604187
visibility: 0.9329174160957336
","x: 232.73826599121094
y: 318.40850830078125
z: -0.31177759170532227
visibility: 0.9047808647155762
","x: 219.4713592529297
y: 297.64959716796875
z: -0.2807322144508362
visibility: 0.9135235548019409
","x: 247.8998260498047
y: 375.7239990234375
z: -0.031673405319452286
visibility: 0.9994411468505859
","x: 221.24949645996094
y: 375.8213806152344
z: 0.03144196793437004
visibility: 0.9993000030517578
","x: 243.10269165039062
y: 471.4656982421875
z: -0.10671961307525635
visibility: 0.9905183911323547
","x: 216.88580322265625
y: 474.62200927734375
z: 0.026203319430351257
visibility: 0.9873966574668884
","x: 258.5451965332031
y: 544.4541015625
z: 0.14401915669441223
visibility: 0.9896763563156128
","x: 224.6924591064453
y: 556.7137451171875
z: 0.2208261787891388
visibility: 0.987918496131897
","x: 259.572998046875
y: 550.1783447265625
z: 0.16260120272636414
visibility: 0.8597084283828735
","x: 229.33522033691406
y: 570.1368408203125
z: 0.23345725238323212
visibility: 0.8472338914871216
","x: 259.4981994628906
y: 581.728271484375
z: 0.043261054903268814
visibility: 0.983487069606781
","x: 217.94601440429688
y: 581.6008911132812
z: 0.11306565999984741
visibility: 0.9824233055114746
","x: 216.53411865234375
y: 300.08642578125
z: 0.0
","x: 223.4702911376953
y: 302.0614929199219
z: 0.0028972316067665815
","x: 228.9437713623047
y: 300.35626220703125
z: 0.0018936584237962961
","x: 232.53073120117188
y: 300.1639099121094
z: -0.00019063572108279914
","x: 234.8037567138672
y: 300.5953063964844
z: -0.0013191484613344073
","x: 231.18138122558594
y: 289.24932861328125
z: -0.0006232248269952834
","x: 234.42864990234375
y: 297.2745361328125
z: -0.003149611409753561
","x: 232.4742431640625
y: 299.5535583496094
z: -0.003633674932643771
","x: 231.11668395996094
y: 298.03070068359375
z: -0.003909705672413111
","x: 229.06475830078125
y: 288.4124450683594
z: -0.004590062890201807
","x: 231.9610595703125
y: 298.8494567871094
z: -0.007189812604337931
","x: 230.29641723632812
y: 300.32275390625
z: -0.006206827703863382
","x: 229.24356079101562
y: 298.5992126464844
z: -0.005691198166459799
","x: 226.38470458984375
y: 289.5470275878906
z: -0.008402225561439991
","x: 228.78436279296875
y: 300.02337646484375
z: -0.010062538087368011
","x: 227.512451171875
y: 300.919677734375
z: -0.007438058033585548
","x: 226.70297241210938
y: 298.6846008300781
z: -0.005996029358357191
","x: 223.41046142578125
y: 292.35205078125
z: -0.01221384759992361
","x: 225.5128631591797
y: 300.30657958984375
z: -0.013006145134568214
","x: 224.51788330078125
y: 300.6972961425781
z: -0.010928400792181492
","x: 223.5724639892578
y: 298.29742431640625
z: -0.009514248929917812
",,,,,,,,,,,,,,,,,,,,,
23,"x: 238.33428955078125
y: 203.50555419921875
z: -0.27605050802230835
visibility: 0.9999837875366211
","x: 242.61532592773438
y: 198.37014770507812
z: -0.25544193387031555
visibility: 0.9999622702598572
","x: 244.5787811279297
y: 199.51266479492188
z: -0.25541460514068604
visibility: 0.9999532699584961
","x: 246.38064575195312
y: 200.50570678710938
z: -0.2554321885108948
visibility: 0.9999492168426514
","x: 237.6342010498047
y: 195.4678497314453
z: -0.25486594438552856
visibility: 0.9999648332595825
","x: 236.19456481933594
y: 195.0286865234375
z: -0.25488704442977905
visibility: 0.9999637007713318
","x: 234.33497619628906
y: 194.719970703125
z: -0.25485411286354065
visibility: 0.9999673366546631
","x: 248.5836181640625
y: 206.89080810546875
z: -0.14414750039577484
visibility: 0.9998916387557983
","x: 231.58294677734375
y: 201.0824432373047
z: -0.14242030680179596
visibility: 0.9999399185180664
","x: 239.8096160888672
y: 214.22518920898438
z: -0.23462092876434326
visibility: 0.9999749064445496
","x: 234.15513610839844
y: 211.74612426757812
z: -0.23378518223762512
visibility: 0.9999813437461853
","x: 255.64083862304688
y: 253.49388122558594
z: -0.0904742181301117
visibility: 0.9998918175697327
","x: 213.17271423339844
y: 254.01963806152344
z: -0.034411799162626266
visibility: 0.9997836351394653
","x: 273.6463623046875
y: 307.0240173339844
z: -0.17404606938362122
visibility: 0.9619579911231995
","x: 191.1824188232422
y: 294.419677734375
z: -0.11569366604089737
visibility: 0.9628974199295044
","x: 241.3448486328125
y: 319.0792541503906
z: -0.27403590083122253
visibility: 0.9652783274650574
","x: 214.6988067626953
y: 293.71453857421875
z: -0.30740246176719666
visibility: 0.9665593504905701
","x: 232.86000061035156
y: 325.7689208984375
z: -0.33927252888679504
visibility: 0.9281879663467407
","x: 217.63961791992188
y: 301.5498962402344
z: -0.3311759829521179
visibility: 0.9349878430366516
","x: 230.98202514648438
y: 320.69061279296875
z: -0.35753685235977173
visibility: 0.9285678267478943
","x: 222.14817810058594
y: 298.52215576171875
z: -0.3563806414604187
visibility: 0.9329174160957336
","x: 232.73826599121094
y: 318.40850830078125
z: -0.31177759170532227
visibility: 0.9047808647155762
","x: 219.4713592529297
y: 297.64959716796875
z: -0.2807322144508362
visibility: 0.9135235548019409
","x: 247.8998260498047
y: 375.7239990234375
z: -0.031673405319452286
visibility: 0.9994411468505859
","x: 221.24949645996094
y: 375.8213806152344
z: 0.03144196793437004
visibility: 0.9993000030517578
","x: 243.10269165039062
y: 471.4656982421875
z: -0.10671961307525635
visibility: 0.9905183911323547
","x: 216.88580322265625
y: 474.62200927734375
z: 0.026203319430351257
visibility: 0.9873966574668884
","x: 258.5451965332031
y: 544.4541015625
z: 0.14401915669441223
visibility: 0.9896763563156128
","x: 224.6924591064453
y: 556.7137451171875
z: 0.2208261787891388
visibility: 0.987918496131897
","x: 259.572998046875
y: 550.1783447265625
z: 0.16260120272636414
visibility: 0.8597084283828735
","x: 229.33522033691406
y: 570.1368408203125
z: 0.23345725238323212
visibility: 0.8472338914871216
","x: 259.4981994628906
y: 581.728271484375
z: 0.043261054903268814
visibility: 0.983487069606781
","x: 217.94601440429688
y: 581.6008911132812
z: 0.11306565999984741
visibility: 0.9824233055114746
","x: 216.53411865234375
y: 300.08642578125
z: 0.0
","x: 223.4702911376953
y: 302.0614929199219
z: 0.0028972316067665815
","x: 228.9437713623047
y: 300.35626220703125
z: 0.0018936584237962961
","x: 232.53073120117188
y: 300.1639099121094
z: -0.00019063572108279914
","x: 234.8037567138672
y: 300.5953063964844
z: -0.0013191484613344073
","x: 231.18138122558594
y: 289.24932861328125
z: -0.0006232248269952834
","x: 234.42864990234375
y: 297.2745361328125
z: -0.003149611409753561
","x: 232.4742431640625
y: 299.5535583496094
z: -0.003633674932643771
","x: 231.11668395996094
y: 298.03070068359375
z: -0.003909705672413111
","x: 229.06475830078125
y: 288.4124450683594
z: -0.004590062890201807
","x: 231.9610595703125
y: 298.8494567871094
z: -0.007189812604337931
","x: 230.29641723632812
y: 300.32275390625
z: -0.006206827703863382
","x: 229.24356079101562
y: 298.5992126464844
z: -0.005691198166459799
","x: 226.38470458984375
y: 289.5470275878906
z: -0.008402225561439991
","x: 228.78436279296875
y: 300.02337646484375
z: -0.010062538087368011
","x: 227.512451171875
y: 300.919677734375
z: -0.007438058033585548
","x: 226.70297241210938
y: 298.6846008300781
z: -0.005996029358357191
","x: 223.41046142578125
y: 292.35205078125
z: -0.01221384759992361
","x: 225.5128631591797
y: 300.30657958984375
z: -0.013006145134568214
","x: 224.51788330078125
y: 300.6972961425781
z: -0.010928400792181492
","x: 223.5724639892578
y: 298.29742431640625
z: -0.009514248929917812
",,,,,,,,,,,,,,,,,,,,,
24,"x: 236.69723510742188
y: 202.90093994140625
z: -0.18107405304908752
visibility: 0.9999848008155823
","x: 241.0215606689453
y: 197.7224884033203
z: -0.15862271189689636
visibility: 0.9999650120735168
","x: 242.8848876953125
y: 199.01124572753906
z: -0.15865615010261536
visibility: 0.9999566674232483
","x: 244.76564025878906
y: 200.32049560546875
z: -0.1586833894252777
visibility: 0.9999529123306274
","x: 235.193115234375
y: 194.94900512695312
z: -0.15677830576896667
visibility: 0.9999669194221497
","x: 233.3131866455078
y: 194.3986358642578
z: -0.1567600518465042
visibility: 0.9999656081199646
","x: 231.74671936035156
y: 193.88002014160156
z: -0.15666048228740692
visibility: 0.9999690651893616
","x: 246.52493286132812
y: 206.5312042236328
z: -0.036986738443374634
visibility: 0.9999008178710938
","x: 228.48423767089844
y: 199.55899047851562
z: -0.031043866649270058
visibility: 0.9999426603317261
","x: 238.47348022460938
y: 213.77484130859375
z: -0.13685168325901031
visibility: 0.9999767541885376
","x: 232.05596923828125
y: 211.21002197265625
z: -0.1354134976863861
visibility: 0.9999825954437256
","x: 254.66783142089844
y: 256.23468017578125
z: 0.00020641708397306502
visibility: 0.9998981952667236
","x: 211.8491668701172
y: 253.4539031982422
z: 0.06675895303487778
visibility: 0.999790370464325
","x: 258.4591064453125
y: 323.1808166503906
z: -0.09983295947313309
visibility: 0.9645787477493286
","x: 197.31793212890625
y: 305.5489807128906
z: -0.03533925861120224
visibility: 0.9618637561798096
","x: 241.5872344970703
y: 297.74566650390625
z: -0.27412745356559753
visibility: 0.9679198861122131
","x: 210.4796905517578
y: 277.0682678222656
z: -0.2829282879829407
visibility: 0.967840850353241
","x: 237.82513427734375
y: 285.3619384765625
z: -0.3212704062461853
visibility: 0.9332723021507263
","x: 212.02377319335938
y: 268.2469482421875
z: -0.33098453283309937
visibility: 0.9370386600494385
","x: 238.96559143066406
y: 278.4640197753906
z: -0.3176302909851074
visibility: 0.9334733486175537
","x: 213.63906860351562
y: 261.0419921875
z: -0.3276776671409607
visibility: 0.9347588419914246
","x: 239.30760192871094
y: 281.1368103027344
z: -0.27861425280570984
visibility: 0.9106004238128662
","x: 213.2501983642578
y: 263.25421142578125
z: -0.28486791253089905
visibility: 0.9154084920883179
","x: 244.90150451660156
y: 373.7876892089844
z: -0.023184504359960556
visibility: 0.9994775056838989
","x: 218.6784210205078
y: 373.54296875
z: 0.023039400577545166
visibility: 0.9993317127227783
","x: 241.8551483154297
y: 471.5322570800781
z: -0.09442659467458725
visibility: 0.9910179376602173
","x: 217.8004913330078
y: 472.123046875
z: 0.020069552585482597
visibility: 0.9878214001655579
","x: 250.62960815429688
y: 545.9901733398438
z: 0.20320288836956024
visibility: 0.9900638461112976
","x: 223.55426025390625
y: 555.4542846679688
z: 0.23535172641277313
visibility: 0.9883978366851807
","x: 249.84426879882812
y: 551.152099609375
z: 0.22092053294181824
visibility: 0.858306884765625
","x: 227.94131469726562
y: 566.8329467773438
z: 0.25007370114326477
visibility: 0.8524417281150818
","x: 251.9777069091797
y: 583.0745239257812
z: 0.0826939195394516
visibility: 0.9840500354766846
","x: 218.95504760742188
y: 581.375
z: 0.11474677175283432
visibility: 0.9830225110054016
",,,,,,,,,,,,,,,,,,,,,,,,,,,,,,,,,,,,,,,,,,
25,"x: 238.10179138183594
y: 203.8561248779297
z: -0.2559560537338257
visibility: 0.999985933303833
","x: 242.11077880859375
y: 198.0596160888672
z: -0.23256821930408478
visibility: 0.9999678730964661
","x: 243.68142700195312
y: 199.18215942382812
z: -0.23264117538928986
visibility: 0.9999602437019348
","x: 245.2374725341797
y: 200.26756286621094
z: -0.23272958397865295
visibility: 0.9999569058418274
","x: 236.46450805664062
y: 195.2028045654297
z: -0.23470726609230042
visibility: 0.9999691247940063
","x: 234.30755615234375
y: 194.563232421875
z: -0.23466762900352478
visibility: 0.9999675154685974
","x: 232.560302734375
y: 193.99649047851562
z: -0.23462338745594025
visibility: 0.999970555305481
","x: 247.357177734375
y: 206.3998260498047
z: -0.0914502665400505
visibility: 0.9999095797538757
","x: 229.27584838867188
y: 199.5645751953125
z: -0.10527169704437256
visibility: 0.999945342540741
","x: 240.2041015625
y: 214.35879516601562
z: -0.20428219437599182
visibility: 0.9999785423278809
","x: 233.05426025390625
y: 211.93411254882812
z: -0.20867915451526642
visibility: 0.9999836087226868
","x: 256.30560302734375
y: 257.7222900390625
z: -0.018527112901210785
visibility: 0.9999039173126221
","x: 212.4639892578125
y: 252.1945343017578
z: -0.03012201189994812
visibility: 0.9997849464416504
","x: 261.5046081542969
y: 324.3651123046875
z: -0.1524510681629181
visibility: 0.9669963717460632
","x: 199.1212921142578
y: 307.49700927734375
z: -0.16819468140602112
visibility: 0.9638577699661255
","x: 250.91961669921875
y: 275.07342529296875
z: -0.37558653950691223
visibility: 0.9708927273750305
","x: 201.43075561523438
y: 257.70904541015625
z: -0.4316181540489197
visibility: 0.9703514575958252
","x: 252.67330932617188
y: 261.35791015625
z: -0.4187074303627014
visibility: 0.9392631649971008
","x: 199.85862731933594
y: 243.4123077392578
z: -0.4820653796195984
visibility: 0.9416734576225281
","x: 256.4669189453125
y: 255.0141143798828
z: -0.41567984223365784
visibility: 0.939397394657135
","x: 200.1854705810547
y: 238.15155029296875
z: -0.47949790954589844
visibility: 0.9395214915275574
","x: 253.03805541992188
y: 258.12371826171875
z: -0.3797348141670227
visibility: 0.9183453321456909
","x: 201.39956665039062
y: 243.64678955078125
z: -0.43791860342025757
visibility: 0.9213561415672302
","x: 247.3890838623047
y: 377.222412109375
z: -0.0021350299939513206
visibility: 0.9995050430297852
","x: 220.7018585205078
y: 375.7855224609375
z: 0.0019724625162780285
visibility: 0.9993597865104675
","x: 243.848876953125
y: 474.75146484375
z: -0.025394389405846596
visibility: 0.9914952516555786
","x: 217.23587036132812
y: 473.2184143066406
z: 0.00020606882753781974
visibility: 0.9883775115013123
","x: 252.4904022216797
y: 547.3558959960938
z: 0.2572952210903168
visibility: 0.9897021651268005
","x: 223.48385620117188
y: 554.554931640625
z: 0.24528467655181885
visibility: 0.988073468208313
","x: 249.35105895996094
y: 554.5403442382812
z: 0.2781432271003723
visibility: 0.8568359613418579
","x: 227.6616973876953
y: 564.2189331054688
z: 0.26462674140930176
visibility: 0.8509072065353394
","x: 254.60311889648438
y: 581.4293212890625
z: 0.14926649630069733
visibility: 0.9839510321617126
","x: 219.21253967285156
y: 581.3397827148438
z: 0.13417096436023712
visibility: 0.9827392101287842
","x: 200.69439697265625
y: 254.2803192138672
z: 0.0
","x: 203.4916534423828
y: 245.06643676757812
z: 0.004053720738738775
","x: 203.25733947753906
y: 238.8568115234375
z: 0.004835518077015877
","x: 202.69534301757812
y: 233.77853393554688
z: 0.003953401930630207
","x: 202.2589111328125
y: 229.41262817382812
z: 0.0036120503209531307
","x: 197.75511169433594
y: 234.27008056640625
z: 0.005464088637381792
","x: 199.57272338867188
y: 226.76290893554688
z: 0.004070458468049765
","x: 202.1791229248047
y: 227.7581024169922
z: 0.0036644279025495052
","x: 203.59312438964844
y: 230.80482482910156
