uscmakers/ReverseChoreography/data/8_throwin_elbows_excision.csv
,NOSE,LEFT_EYE_INNER,LEFT_EYE,LEFT_EYE_OUTER,RIGHT_EYE_INNER,RIGHT_EYE,RIGHT_EYE_OUTER,LEFT_EAR,RIGHT_EAR,MOUTH_LEFT,MOUTH_RIGHT,LEFT_SHOULDER,RIGHT_SHOULDER,LEFT_ELBOW,RIGHT_ELBOW,LEFT_WRIST,RIGHT_WRIST,LEFT_PINKY,RIGHT_PINKY,LEFT_INDEX,RIGHT_INDEX,LEFT_THUMB,RIGHT_THUMB,LEFT_HIP,RIGHT_HIP,LEFT_KNEE,RIGHT_KNEE,LEFT_ANKLE,RIGHT_ANKLE,LEFT_HEEL,RIGHT_HEEL,LEFT_FOOT_INDEX,RIGHT_FOOT_INDEX,WRIST,THUMB_CPC,THUMB_MCP,THUMB_IP,THUMB_TIP,INDEX_FINGER_MCP,INDEX_FINGER_PIP,INDEX_FINGER_DIP,INDEX_FINGER_TIP,MIDDLE_FINGER_MCP,MIDDLE_FINGER_PIP,MIDDLE_FINGER_DIP,MIDDLE_FINGER_TIP,RING_FINGER_PIP,RING_FINGER_DIP,RING_FINGER_TIP,RING_FINGER_MCP,PINKY_MCP,PINKY_PIP,PINKY_DIP,PINKY_TIP,WRIST2,THUMB_CPC2,THUMB_MCP2,THUMB_IP2,THUMB_TIP2,INDEX_FINGER_MCP2,INDEX_FINGER_PIP2,INDEX_FINGER_DIP2,INDEX_FINGER_TIP2,MIDDLE_FINGER_MCP2,MIDDLE_FINGER_PIP2,MIDDLE_FINGER_DIP2,MIDDLE_FINGER_TIP2,RING_FINGER_PIP2,RING_FINGER_DIP2,RING_FINGER_TIP2,RING_FINGER_MCP2,PINKY_MCP2,PINKY_PIP2,PINKY_DIP2,PINKY_TIP2
0,"x: 175.27854919433594
y: 206.363525390625
z: -0.23795506358146667
visibility: 0.9999502897262573
","x: 177.87322998046875
y: 200.46434020996094
z: -0.21687379479408264
visibility: 0.9998980760574341
","x: 179.2146759033203
y: 201.24359130859375
z: -0.21694675087928772
visibility: 0.9998745918273926
","x: 180.8437042236328
y: 201.7402801513672
z: -0.21697601675987244
visibility: 0.9998912811279297
","x: 173.29739379882812
y: 198.8948211669922
z: -0.21811160445213318
visibility: 0.9998722076416016
","x: 171.6526336669922
y: 198.82977294921875
z: -0.21805043518543243
visibility: 0.9998250603675842
","x: 169.78382873535156
y: 198.85093688964844
z: -0.21802334487438202
visibility: 0.9998557567596436
","x: 182.53501892089844
y: 206.56495666503906
z: -0.09503192454576492
visibility: 0.9997509121894836
","x: 166.7716064453125
y: 202.9855499267578
z: -0.1028047576546669
visibility: 0.9996812343597412
","x: 177.32151794433594
y: 215.24986267089844
z: -0.1934577077627182
visibility: 0.9999427795410156
","x: 171.15377807617188
y: 215.22845458984375
z: -0.1956380307674408
visibility: 0.9999436140060425
","x: 191.0218963623047
y: 251.47705078125
z: -0.04281700775027275
visibility: 0.9999377727508545
","x: 155.29833984375
y: 254.22708129882812
z: -0.004537174478173256
visibility: 0.9998947381973267
","x: 201.08811950683594
y: 301.99249267578125
z: -0.11922626197338104
visibility: 0.9759364128112793
","x: 146.73019409179688
y: 305.98101806640625
z: 0.05243512988090515
visibility: 0.9718661308288574
","x: 199.26791381835938
y: 305.64007568359375
z: -0.36623576283454895
visibility: 0.9791221022605896
","x: 137.88479614257812
y: 354.8897705078125
z: -0.053109120577573776
visibility: 0.9554826021194458
","x: 198.9349822998047
y: 309.8977966308594
z: -0.4206821024417877
visibility: 0.9623329043388367
","x: 135.25872802734375
y: 372.7969055175781
z: -0.08375554531812668
visibility: 0.9159916043281555
","x: 196.34793090820312
y: 307.4187927246094
z: -0.43783706426620483
visibility: 0.9645542502403259
","x: 136.30442810058594
y: 374.1618347167969
z: -0.11830149590969086
visibility: 0.9244952201843262
","x: 195.6836395263672
y: 305.806396484375
z: -0.3791810870170593
visibility: 0.9464836716651917
","x: 137.73446655273438
y: 369.37890625
z: -0.06991763412952423
visibility: 0.9126609563827515
","x: 184.42848205566406
y: 360.2877502441406
z: 6.228373877092963e-06
visibility: 0.9994701743125916
","x: 162.1552276611328
y: 360.61358642578125
z: 1.329994120169431e-05
visibility: 0.9993869066238403
","x: 190.0207061767578
y: 449.5938720703125
z: 0.008373511023819447
visibility: 0.979080855846405
","x: 158.78475952148438
y: 453.54833984375
z: -0.009809629991650581
visibility: 0.9907149076461792
","x: 199.5140380859375
y: 517.0794067382812
z: 0.1807945817708969
visibility: 0.9685414433479309
","x: 158.319580078125
y: 531.4060668945312
z: 0.15028290450572968
visibility: 0.9796934127807617
","x: 197.92056274414062
y: 526.1925048828125
z: 0.19152414798736572
visibility: 0.6872274875640869
","x: 158.82855224609375
y: 541.7935791015625
z: 0.15867899358272552
visibility: 0.7147294878959656
","x: 204.5457000732422
y: 542.5647583007812
z: 0.06700477749109268
visibility: 0.951608419418335
","x: 158.67921447753906
y: 553.4371337890625
z: 0.02803792990744114
visibility: 0.9643495678901672
",,,,,,,,,,,,,,,,,,,,,,,,,,,,,,,,,,,,,,,,,,
1,"x: 215.6260528564453
y: 204.63983154296875
z: -0.24273912608623505
visibility: 0.9999542832374573
","x: 215.27613830566406
y: 199.5771026611328
z: -0.22050730884075165
visibility: 0.999906063079834
","x: 215.83119201660156
y: 200.144287109375
z: -0.22055299580097198
visibility: 0.9998847246170044
","x: 216.39491271972656
y: 200.63516235351562
z: -0.22056686878204346
visibility: 0.9998996257781982
","x: 212.64381408691406
y: 198.54795837402344
z: -0.2331031858921051
visibility: 0.9998825788497925
","x: 211.37042236328125
y: 198.51113891601562
z: -0.23315517604351044
visibility: 0.9998403787612915
","x: 209.98097229003906
y: 198.4947967529297
z: -0.23316070437431335
visibility: 0.9998675584793091
","x: 214.36228942871094
y: 205.73361206054688
z: -0.09490208327770233
visibility: 0.9997672438621521
","x: 204.99423217773438
y: 202.8433074951172
z: -0.1535656899213791
visibility: 0.9997105002403259
","x: 216.02700805664062
y: 213.52281188964844
z: -0.19502609968185425
visibility: 0.9999456405639648
","x: 212.8131103515625
y: 212.98150634765625
z: -0.2114373743534088
visibility: 0.9999469518661499
","x: 221.30111694335938
y: 251.52825927734375
z: 0.01568838581442833
visibility: 0.9999403953552246
","x: 189.05426025390625
y: 249.37319946289062
z: -0.11847048997879028
visibility: 0.9999017119407654
","x: 229.17420959472656
y: 302.2840576171875
z: 0.06955977529287338
visibility: 0.9676743745803833
","x: 164.89874267578125
y: 293.57928466796875
z: -0.116033174097538
visibility: 0.9744589924812317
","x: 249.1768798828125
y: 333.74859619140625
z: -0.05096348375082016
visibility: 0.9783336520195007
","x: 138.3334503173828
y: 322.4900817871094
z: -0.2216636836528778
visibility: 0.9596008658409119
","x: 255.15975952148438
y: 342.4171447753906
z: -0.07226911187171936
visibility: 0.9609695076942444
","x: 132.58665466308594
y: 328.5290222167969
z: -0.2538550794124603
visibility: 0.9235950708389282
","x: 255.95819091796875
y: 342.7659912109375
z: -0.11356060206890106
visibility: 0.9639185667037964
","x: 132.352294921875
y: 327.7862854003906
z: -0.28685814142227173
visibility: 0.9313717484474182
","x: 253.9171600341797
y: 340.5308837890625
z: -0.07229890674352646
visibility: 0.9475284814834595
","x: 134.62106323242188
y: 326.6535949707031
z: -0.23817257583141327
visibility: 0.9205597639083862
","x: 209.94580078125
y: 360.28143310546875
z: 0.060469359159469604
visibility: 0.99950110912323
","x: 189.6753692626953
y: 358.09503173828125
z: -0.06055421382188797
visibility: 0.9994103908538818
","x: 211.9898223876953
y: 450.5920104980469
z: 0.032922375947237015
visibility: 0.9764320850372314
","x: 191.30690002441406
y: 450.09210205078125
z: -0.09873707592487335
visibility: 0.9911729693412781
","x: 202.38771057128906
y: 521.419677734375
z: 0.17580831050872803
visibility: 0.9696727395057678
","x: 170.9931182861328
y: 514.81298828125
z: 0.06483076512813568
visibility: 0.980689525604248
","x: 198.73329162597656
y: 532.6220092773438
z: 0.1831894814968109
visibility: 0.7093808650970459
","x: 166.37057495117188
y: 519.7945556640625
z: 0.07643525302410126
visibility: 0.7276458740234375
","x: 211.55223083496094
y: 545.268310546875
z: 0.08580104261636734
visibility: 0.9544820189476013
","x: 177.2342529296875
y: 546.7981567382812
z: -0.01691615954041481
visibility: 0.9666799306869507
","x: 136.3252410888672
y: 322.839599609375
z: 0.0
","x: 133.5963134765625
y: 322.0975036621094
z: -0.005323128309100866
","x: 129.91024780273438
y: 322.47674560546875
z: -0.00596518674865365
","x: 127.25758361816406
y: 325.7888488769531
z: -0.0059615736827254295
","x: 125.36769104003906
y: 329.2471923828125
z: -0.005609420593827963
","x: 127.1953125
y: 320.5517578125
z: 0.001106972573325038
","x: 124.12039184570312
y: 324.610595703125
z: 0.0005003884434700012
","x: 123.5682373046875
y: 329.13494873046875
z: -0.0007227063179016113
","x: 124.11970520019531
y: 332.0541076660156
z: -0.0013723514275625348
","x: 127.97708892822266
y: 323.5766906738281
z: 0.0035537593066692352
","x: 125.32500457763672
y: 327.4916076660156
z: 0.002758938353508711
","x: 125.52798461914062
y: 331.6331787109375
z: 0.0001230687485076487
","x: 126.92979431152344
y: 333.7673645019531
z: -0.0014205247862264514
","x: 129.06236267089844
y: 326.22308349609375
z: 0.005199279170483351
","x: 127.21202087402344
y: 330.0911865234375
z: 0.004071742296218872
","x: 127.6061019897461
y: 333.3111877441406
z: 0.0010238891700282693
","x: 128.87071228027344
y: 334.5709228515625
z: -0.0005910669569857419
","x: 130.3040008544922
y: 328.55682373046875
z: 0.006304062437266111
","x: 128.94833374023438
y: 331.4836120605469
z: 0.005197219084948301
","x: 129.19186401367188
y: 333.7730407714844
z: 0.0031497119925916195
","x: 129.9630584716797
y: 334.63623046875
z: 0.002011645818129182
",,,,,,,,,,,,,,,,,,,,,
2,"x: 215.6260528564453
y: 204.63983154296875
z: -0.24273912608623505
visibility: 0.9999542832374573
","x: 215.27613830566406
y: 199.5771026611328
z: -0.22050730884075165
visibility: 0.999906063079834
","x: 215.83119201660156
y: 200.144287109375
z: -0.22055299580097198
visibility: 0.9998847246170044
","x: 216.39491271972656
y: 200.63516235351562
z: -0.22056686878204346
visibility: 0.9998996257781982
","x: 212.64381408691406
y: 198.54795837402344
z: -0.2331031858921051
visibility: 0.9998825788497925
","x: 211.37042236328125
y: 198.51113891601562
z: -0.23315517604351044
visibility: 0.9998403787612915
","x: 209.98097229003906
y: 198.4947967529297
z: -0.23316070437431335
visibility: 0.9998675584793091
","x: 214.36228942871094
y: 205.73361206054688
z: -0.09490208327770233
visibility: 0.9997672438621521
","x: 204.99423217773438
y: 202.8433074951172
z: -0.1535656899213791
visibility: 0.9997105002403259
","x: 216.02700805664062
y: 213.52281188964844
z: -0.19502609968185425
visibility: 0.9999456405639648
","x: 212.8131103515625
y: 212.98150634765625
z: -0.2114373743534088
visibility: 0.9999469518661499
","x: 221.30111694335938
y: 251.52825927734375
z: 0.01568838581442833
visibility: 0.9999403953552246
","x: 189.05426025390625
y: 249.37319946289062
z: -0.11847048997879028
visibility: 0.9999017119407654
","x: 229.17420959472656
y: 302.2840576171875
z: 0.06955977529287338
visibility: 0.9676743745803833
","x: 164.89874267578125
y: 293.57928466796875
z: -0.116033174097538
visibility: 0.9744589924812317
","x: 249.1768798828125
y: 333.74859619140625
z: -0.05096348375082016
visibility: 0.9783336520195007
","x: 138.3334503173828
y: 322.4900817871094
z: -0.2216636836528778
visibility: 0.9596008658409119
","x: 255.15975952148438
y: 342.4171447753906
z: -0.07226911187171936
visibility: 0.9609695076942444
","x: 132.58665466308594
y: 328.5290222167969
z: -0.2538550794124603
visibility: 0.9235950708389282
","x: 255.95819091796875
y: 342.7659912109375
z: -0.11356060206890106
visibility: 0.9639185667037964
","x: 132.352294921875
y: 327.7862854003906
z: -0.28685814142227173
visibility: 0.9313717484474182
","x: 253.9171600341797
y: 340.5308837890625
z: -0.07229890674352646
visibility: 0.9475284814834595
","x: 134.62106323242188
y: 326.6535949707031
z: -0.23817257583141327
visibility: 0.9205597639083862
","x: 209.94580078125
y: 360.28143310546875
z: 0.060469359159469604
visibility: 0.99950110912323
","x: 189.6753692626953
y: 358.09503173828125
z: -0.06055421382188797
visibility: 0.9994103908538818
","x: 211.9898223876953
y: 450.5920104980469
z: 0.032922375947237015
visibility: 0.9764320850372314
","x: 191.30690002441406
y: 450.09210205078125
z: -0.09873707592487335
visibility: 0.9911729693412781
","x: 202.38771057128906
y: 521.419677734375
z: 0.17580831050872803
visibility: 0.9696727395057678
","x: 170.9931182861328
y: 514.81298828125
z: 0.06483076512813568
visibility: 0.980689525604248
","x: 198.73329162597656
y: 532.6220092773438
z: 0.1831894814968109
visibility: 0.7093808650970459
","x: 166.37057495117188
y: 519.7945556640625
z: 0.07643525302410126
visibility: 0.7276458740234375
","x: 211.55223083496094
y: 545.268310546875
z: 0.08580104261636734
visibility: 0.9544820189476013
","x: 177.2342529296875
y: 546.7981567382812
z: -0.01691615954041481
visibility: 0.9666799306869507
","x: 136.3252410888672
y: 322.839599609375
z: 0.0
","x: 133.5963134765625
y: 322.0975036621094
z: -0.005323128309100866
","x: 129.91024780273438
y: 322.47674560546875
z: -0.00596518674865365
","x: 127.25758361816406
y: 325.7888488769531
z: -0.0059615736827254295
","x: 125.36769104003906
y: 329.2471923828125
z: -0.005609420593827963
","x: 127.1953125
y: 320.5517578125
z: 0.001106972573325038
","x: 124.12039184570312
y: 324.610595703125
z: 0.0005003884434700012
","x: 123.5682373046875
y: 329.13494873046875
z: -0.0007227063179016113
","x: 124.11970520019531
y: 332.0541076660156
z: -0.0013723514275625348
","x: 127.97708892822266
y: 323.5766906738281
z: 0.0035537593066692352
","x: 125.32500457763672
y: 327.4916076660156
z: 0.002758938353508711
","x: 125.52798461914062
y: 331.6331787109375
z: 0.0001230687485076487
","x: 126.92979431152344
y: 333.7673645019531
z: -0.0014205247862264514
","x: 129.06236267089844
y: 326.22308349609375
z: 0.005199279170483351
","x: 127.21202087402344
y: 330.0911865234375
z: 0.004071742296218872
","x: 127.6061019897461
y: 333.3111877441406
z: 0.0010238891700282693
","x: 128.87071228027344
y: 334.5709228515625
z: -0.0005910669569857419
","x: 130.3040008544922
y: 328.55682373046875
z: 0.006304062437266111
","x: 128.94833374023438
y: 331.4836120605469
z: 0.005197219084948301
","x: 129.19186401367188
y: 333.7730407714844
z: 0.0031497119925916195
","x: 129.9630584716797
y: 334.63623046875
z: 0.002011645818129182
",,,,,,,,,,,,,,,,,,,,,
3,"x: 217.50149536132812
y: 235.58851623535156
z: -0.2844540774822235
visibility: 0.9999580383300781
","x: 219.88514709472656
y: 229.83837890625
z: -0.26277321577072144
visibility: 0.9999130964279175
","x: 220.83311462402344
y: 230.4913330078125
z: -0.26282039284706116
visibility: 0.999893307685852
","x: 221.7509307861328
y: 230.95681762695312
z: -0.26284700632095337
visibility: 0.9999064803123474
","x: 216.35366821289062
y: 226.58387756347656
z: -0.2752479910850525
visibility: 0.9998918175697327
","x: 214.73980712890625
y: 225.11044311523438
z: -0.2752780318260193
visibility: 0.9998534917831421
","x: 213.02513122558594
y: 223.54861450195312
z: -0.27529123425483704
visibility: 0.9998771548271179
","x: 220.2520294189453
y: 231.02346801757812
z: -0.12823499739170074
visibility: 0.999781608581543
","x: 208.1146240234375
y: 222.98641967773438
z: -0.18783429265022278
visibility: 0.9997350573539734
","x: 217.212158203125
y: 242.48435974121094
z: -0.23246240615844727
visibility: 0.9999477863311768
","x: 212.76515197753906
y: 239.3924560546875
z: -0.24977567791938782
visibility: 0.9999502897262573
","x: 222.24118041992188
y: 270.1802978515625
z: -0.0076311812736094
visibility: 0.9999447464942932
","x: 188.2937469482422
y: 255.8128204345703
z: -0.12692904472351074
visibility: 0.9999095797538757
","x: 231.83128356933594
y: 320.4187316894531
z: 0.0160712581127882
visibility: 0.9651384353637695
","x: 164.34060668945312
y: 295.8370056152344
z: -0.11079315096139908
visibility: 0.9766690731048584
","x: 248.7985076904297
y: 356.1523742675781
z: -0.13715429604053497
visibility: 0.9790862202644348
","x: 136.5609130859375
y: 325.5000305175781
z: -0.20357950031757355
visibility: 0.9631985425949097
","x: 254.84121704101562
y: 366.55419921875
z: -0.16574297845363617
visibility: 0.962185800075531
","x: 128.5574493408203
y: 331.95654296875
z: -0.23081469535827637
visibility: 0.9302136301994324
","x: 255.09361267089844
y: 367.08148193359375
z: -0.20555660128593445
visibility: 0.965265154838562
","x: 128.12570190429688
y: 332.14666748046875
z: -0.26741209626197815
visibility: 0.9373770356178284
","x: 252.86441040039062
y: 364.66937255859375
z: -0.15842291712760925
visibility: 0.9502888917922974
","x: 130.62368774414062
y: 331.0343933105469
z: -0.221018984913826
visibility: 0.9274651408195496
","x: 211.65878295898438
y: 374.9420471191406
z: 0.058261483907699585
visibility: 0.9995194673538208
","x: 191.567626953125
y: 373.65350341796875
z: -0.05832519382238388
visibility: 0.9994328022003174
","x: 221.9901123046875
y: 456.90570068359375
z: 0.03775553032755852
visibility: 0.9760210514068604
","x: 192.99649047851562
y: 457.9629821777344
z: -0.07893330603837967
visibility: 0.9915370345115662
","x: 203.9451904296875
y: 524.0526123046875
z: 0.23231415450572968
visibility: 0.9693991541862488
","x: 173.4679718017578
y: 524.3177490234375
z: 0.06495582312345505
visibility: 0.9820784330368042
","x: 198.91944885253906
y: 534.9228515625
z: 0.24680683016777039
visibility: 0.7302321195602417
","x: 169.78720092773438
y: 536.0840454101562
z: 0.07375090569257736
visibility: 0.7448099255561829
","x: 216.065673828125
y: 546.6607055664062
z: 0.16707894206047058
visibility: 0.9558030962944031
","x: 176.3746337890625
y: 550.7774047851562
z: -0.04025258123874664
visibility: 0.968998372554779
",,,,,,,,,,,,,,,,,,,,,,,,,,,,,,,,,,,,,,,,,,
4,"x: 210.13778686523438
y: 226.63209533691406
z: -0.27186280488967896
visibility: 0.9999582171440125
","x: 211.71926879882812
y: 220.4090576171875
z: -0.2540380358695984
visibility: 0.9999092221260071
","x: 212.5838165283203
y: 220.8639373779297
z: -0.25408023595809937
visibility: 0.9998894929885864
","x: 213.4933319091797
y: 221.1953887939453
z: -0.25410929322242737
visibility: 0.9999012351036072
","x: 209.04904174804688
y: 218.8626251220703
z: -0.2590157389640808
visibility: 0.9998908638954163
","x: 208.06002807617188
y: 218.34951782226562
z: -0.25905707478523254
visibility: 0.9998559951782227
","x: 207.13760375976562
y: 217.8079071044922
z: -0.2591041028499603
visibility: 0.9998776316642761
","x: 213.1976318359375
y: 223.6873779296875
z: -0.14150407910346985
visibility: 0.9997713565826416
","x: 204.58843994140625
y: 220.31729125976562
z: -0.16280438005924225
visibility: 0.999742865562439
","x: 211.16676330566406
y: 234.0674591064453
z: -0.22803668677806854
visibility: 0.9999461770057678
","x: 207.8064727783203
y: 232.83811950683594
z: -0.23498840630054474
visibility: 0.999950647354126
","x: 220.86654663085938
y: 267.3349609375
z: -0.05220881104469299
visibility: 0.9999440312385559
","x: 185.0362548828125
y: 259.762451171875
z: -0.10609859228134155
visibility: 0.9999163150787354
","x: 228.61117553710938
y: 323.9200134277344
z: -0.03061860240995884
visibility: 0.9648534059524536
","x: 161.88528442382812
y: 297.21832275390625
z: -0.08555732667446136
visibility: 0.9786652326583862
","x: 245.6156768798828
y: 369.4844970703125
z: -0.16506478190422058
visibility: 0.9748956561088562
","x: 133.84487915039062
y: 327.31195068359375
z: -0.16839894652366638
visibility: 0.9661761522293091
","x: 250.6350555419922
y: 380.5295104980469
z: -0.1905725747346878
visibility: 0.9546053409576416
","x: 125.58232879638672
y: 333.2802734375
z: -0.19337928295135498
visibility: 0.9354932904243469
","x: 251.17630004882812
y: 382.73919677734375
z: -0.2268846035003662
visibility: 0.958550751209259
","x: 125.18511962890625
y: 333.41693115234375
z: -0.23092253506183624
visibility: 0.9421892762184143
","x: 249.1123809814453
y: 380.1134948730469
z: -0.18410710990428925
visibility: 0.9449533820152283
","x: 127.89503479003906
y: 332.6919250488281
z: -0.18659162521362305
visibility: 0.9329947829246521
","x: 210.6810760498047
y: 375.1422119140625
z: 0.04047296941280365
visibility: 0.9995277523994446
","x: 188.28721618652344
y: 373.1898193359375
z: -0.04054591432213783
visibility: 0.9994617700576782
","x: 220.4688720703125
y: 460.0166015625
z: -0.016728641465306282
visibility: 0.9768808484077454
","x: 186.15713500976562
y: 462.5738220214844
z: -0.062008462846279144
visibility: 0.9916383028030396
","x: 204.30470275878906
y: 526.9397583007812
z: 0.17256304621696472
visibility: 0.9699480533599854
","x: 172.08096313476562
y: 533.0264892578125
z: 0.08586496859788895
visibility: 0.9830933809280396
","x: 198.95126342773438
y: 538.185302734375
z: 0.18631413578987122
visibility: 0.7483006119728088
","x: 168.18405151367188
y: 543.8099365234375
z: 0.09448876231908798
visibility: 0.7565323114395142
","x: 215.4411163330078
y: 548.9234619140625
z: 0.10136576741933823
visibility: 0.95737624168396
","x: 176.81707763671875
y: 554.073974609375
z: -0.02708333730697632
visibility: 0.9707615375518799
","x: 132.32350158691406
y: 330.6321716308594
z: 0.0
","x: 128.49923706054688
y: 332.0257263183594
z: -0.0017499513924121857
","x: 124.53529357910156
y: 332.59991455078125
z: -0.0015456806868314743
","x: 121.47105407714844
y: 334.84625244140625
z: -0.0011922382982447743
","x: 119.60989379882812
y: 337.6537780761719
z: -0.00012384666479192674
","x: 121.05982208251953
y: 329.3970031738281
z: 0.0019199196249246597
","x: 117.58155822753906
y: 334.99749755859375
z: 0.0022083399817347527
","x: 117.96263885498047
y: 338.6629943847656
z: 0.0027990019880235195
","x: 119.06394958496094
y: 340.3017578125
z: 0.0035223858430981636
","x: 121.59241485595703
y: 331.5409851074219
z: 0.0027704304084181786
","x: 118.61314392089844
y: 336.8466491699219
z: 0.0032887619454413652
","x: 120.00513458251953
y: 339.5925598144531
z: 0.0035474365577101707
","x: 121.87367248535156
y: 340.045654296875
z: 0.004057721700519323
","x: 122.51475524902344
y: 333.58111572265625
z: 0.0032114821951836348
","x: 120.09355163574219
y: 338.5393981933594
z: 0.0036308474373072386
","x: 121.30604553222656
y: 340.4247741699219
z: 0.0035669223871082067
","x: 122.7906265258789
y: 340.3021240234375
z: 0.003871711902320385
","x: 123.5819320678711
y: 335.56768798828125
z: 0.003328209975734353
","x: 121.46720123291016
y: 339.26922607421875
z: 0.003649376565590501
","x: 121.9419174194336
y: 340.43988037109375
z: 0.0036994395777583122
","x: 122.72077941894531
y: 339.899169921875
z: 0.004122467711567879
",,,,,,,,,,,,,,,,,,,,,
5,"x: 210.13778686523438
y: 226.63209533691406
z: -0.27186280488967896
visibility: 0.9999582171440125
","x: 211.71926879882812
y: 220.4090576171875
z: -0.2540380358695984
visibility: 0.9999092221260071
","x: 212.5838165283203
y: 220.8639373779297
z: -0.25408023595809937
visibility: 0.9998894929885864
","x: 213.4933319091797
y: 221.1953887939453
z: -0.25410929322242737
visibility: 0.9999012351036072
","x: 209.04904174804688
y: 218.8626251220703
z: -0.2590157389640808
visibility: 0.9998908638954163
","x: 208.06002807617188
y: 218.34951782226562
z: -0.25905707478523254
visibility: 0.9998559951782227
","x: 207.13760375976562
y: 217.8079071044922
z: -0.2591041028499603
visibility: 0.9998776316642761
","x: 213.1976318359375
y: 223.6873779296875
z: -0.14150407910346985
visibility: 0.9997713565826416
","x: 204.58843994140625
y: 220.31729125976562
z: -0.16280438005924225
visibility: 0.999742865562439
","x: 211.16676330566406
y: 234.0674591064453
z: -0.22803668677806854
visibility: 0.9999461770057678
","x: 207.8064727783203
y: 232.83811950683594
z: -0.23498840630054474
visibility: 0.999950647354126
","x: 220.86654663085938
y: 267.3349609375
z: -0.05220881104469299
visibility: 0.9999440312385559
","x: 185.0362548828125
y: 259.762451171875
z: -0.10609859228134155
visibility: 0.9999163150787354
","x: 228.61117553710938
y: 323.9200134277344
z: -0.03061860240995884
visibility: 0.9648534059524536
","x: 161.88528442382812
y: 297.21832275390625
z: -0.08555732667446136
visibility: 0.9786652326583862
","x: 245.6156768798828
y: 369.4844970703125
z: -0.16506478190422058
visibility: 0.9748956561088562
","x: 133.84487915039062
y: 327.31195068359375
z: -0.16839894652366638
visibility: 0.9661761522293091
","x: 250.6350555419922
y: 380.5295104980469
z: -0.1905725747346878
visibility: 0.9546053409576416
","x: 125.58232879638672
y: 333.2802734375
z: -0.19337928295135498
visibility: 0.9354932904243469
","x: 251.17630004882812
y: 382.73919677734375
z: -0.2268846035003662
visibility: 0.958550751209259
","x: 125.18511962890625
y: 333.41693115234375
z: -0.23092253506183624
visibility: 0.9421892762184143
","x: 249.1123809814453
y: 380.1134948730469
z: -0.18410710990428925
visibility: 0.9449533820152283
","x: 127.89503479003906
y: 332.6919250488281
z: -0.18659162521362305
visibility: 0.9329947829246521
","x: 210.6810760498047
y: 375.1422119140625
z: 0.04047296941280365
visibility: 0.9995277523994446
","x: 188.28721618652344
y: 373.1898193359375
z: -0.04054591432213783
visibility: 0.9994617700576782
","x: 220.4688720703125
y: 460.0166015625
z: -0.016728641465306282
visibility: 0.9768808484077454
","x: 186.15713500976562
y: 462.5738220214844
z: -0.062008462846279144
visibility: 0.9916383028030396
","x: 204.30470275878906
y: 526.9397583007812
z: 0.17256304621696472
visibility: 0.9699480533599854
","x: 172.08096313476562
y: 533.0264892578125
z: 0.08586496859788895
visibility: 0.9830933809280396
","x: 198.95126342773438
y: 538.185302734375
z: 0.18631413578987122
visibility: 0.7483006119728088
","x: 168.18405151367188
y: 543.8099365234375
z: 0.09448876231908798
visibility: 0.7565323114395142
","x: 215.4411163330078
y: 548.9234619140625
z: 0.10136576741933823
visibility: 0.95737624168396
","x: 176.81707763671875
y: 554.073974609375
z: -0.02708333730697632
visibility: 0.9707615375518799
","x: 132.32350158691406
y: 330.6321716308594
z: 0.0
","x: 128.49923706054688
y: 332.0257263183594
z: -0.0017499513924121857
","x: 124.53529357910156
y: 332.59991455078125
z: -0.0015456806868314743
","x: 121.47105407714844
y: 334.84625244140625
z: -0.0011922382982447743
","x: 119.60989379882812
y: 337.6537780761719
z: -0.00012384666479192674
","x: 121.05982208251953
y: 329.3970031738281
z: 0.0019199196249246597
","x: 117.58155822753906
y: 334.99749755859375
z: 0.0022083399817347527
","x: 117.96263885498047
y: 338.6629943847656
z: 0.0027990019880235195
","x: 119.06394958496094
y: 340.3017578125
z: 0.0035223858430981636
","x: 121.59241485595703
y: 331.5409851074219
z: 0.0027704304084181786
","x: 118.61314392089844
y: 336.8466491699219
z: 0.0032887619454413652
","x: 120.00513458251953
y: 339.5925598144531
z: 0.0035474365577101707
","x: 121.87367248535156
y: 340.045654296875
z: 0.004057721700519323
","x: 122.51475524902344
y: 333.58111572265625
z: 0.0032114821951836348
","x: 120.09355163574219
y: 338.5393981933594
z: 0.0036308474373072386
","x: 121.30604553222656
y: 340.4247741699219
z: 0.0035669223871082067
","x: 122.7906265258789
y: 340.3021240234375
z: 0.003871711902320385
","x: 123.5819320678711
y: 335.56768798828125
z: 0.003328209975734353
","x: 121.46720123291016
y: 339.26922607421875
z: 0.003649376565590501
","x: 121.9419174194336
y: 340.43988037109375
z: 0.0036994395777583122
","x: 122.72077941894531
y: 339.899169921875
z: 0.004122467711567879
",,,,,,,,,,,,,,,,,,,,,
6,"x: 204.1295928955078
y: 217.4441680908203
z: -0.3243255615234375
visibility: 0.9999619722366333
","x: 206.48635864257812
y: 212.9072265625
z: -0.31040090322494507
visibility: 0.999917209148407
","x: 207.70481872558594
y: 213.21478271484375
z: -0.31041404604911804
visibility: 0.9998993277549744
","x: 208.98826599121094
y: 213.72657775878906
z: -0.3104231059551239
visibility: 0.9999098777770996
","x: 203.18600463867188
y: 211.63946533203125
z: -0.3106188476085663
visibility: 0.9999004602432251
","x: 202.0879364013672
y: 210.97012329101562
z: -0.3106864392757416
visibility: 0.9998690485954285
","x: 201.0492706298828
y: 210.38714599609375
z: -0.31072482466697693
visibility: 0.9998884797096252
","x: 210.4554443359375
y: 216.45608520507812
z: -0.20219328999519348
visibility: 0.9997917413711548
","x: 199.17059326171875
y: 213.0429229736328
z: -0.205256387591362
visibility: 0.999765932559967
","x: 205.69143676757812
y: 223.48397827148438
z: -0.28249940276145935
visibility: 0.9999508857727051
","x: 201.7295379638672
y: 221.4665069580078
z: -0.28347957134246826
visibility: 0.999954879283905
","x: 219.1035919189453
y: 264.93902587890625
z: -0.1071576476097107
visibility: 0.999946653842926
","x: 181.7009735107422
y: 252.29722595214844
z: -0.13193759322166443
visibility: 0.9999232292175293
","x: 224.96644592285156
y: 319.76934814453125
z: -0.04724910855293274
visibility: 0.9669179916381836
","x: 159.84226989746094
y: 295.47900390625
z: -0.09171947091817856
visibility: 0.9803149700164795
","x: 237.08973693847656
y: 363.946533203125
z: -0.1737784892320633
visibility: 0.9749456644058228
","x: 133.82406616210938
y: 326.7449645996094
z: -0.17659321427345276
visibility: 0.9687744975090027
","x: 240.2613525390625
y: 378.124755859375
z: -0.19813527166843414
visibility: 0.9535779356956482
","x: 126.61129760742188
y: 333.5934753417969
z: -0.20289330184459686
visibility: 0.940099835395813
","x: 240.07810974121094
y: 379.3199157714844
z: -0.2364722192287445
visibility: 0.9577749967575073
","x: 126.39482879638672
y: 333.9857482910156
z: -0.24178919196128845
visibility: 0.9464077949523926
","x: 238.78021240234375
y: 375.8961181640625
z: -0.19206807017326355
visibility: 0.9452020525932312
","x: 128.8594970703125
y: 332.91558837890625
z: -0.19537392258644104
visibility: 0.9378771781921387
","x: 206.96563720703125
y: 369.9081726074219
z: 0.034370213747024536
visibility: 0.9995455741882324
","x: 183.54478454589844
y: 365.7421875
z: -0.03432922810316086
visibility: 0.9994939565658569
","x: 213.29922485351562
y: 458.7781066894531
z: -0.010657835751771927
visibility: 0.9783362150192261
","x: 180.11343383789062
y: 461.37628173828125
z: -0.05270262807607651
visibility: 0.9922187924385071
","x: 204.32525634765625
y: 526.195556640625
z: 0.16022983193397522
visibility: 0.9722983837127686
","x: 169.7108612060547
y: 532.694580078125
z: 0.0910273939371109
visibility: 0.9845022559165955
","x: 199.15927124023438
y: 536.9911499023438
z: 0.170466810464859
visibility: 0.768768846988678
","x: 167.81033325195312
y: 543.2716064453125
z: 0.09818253666162491
visibility: 0.7715086936950684
","x: 214.65484619140625
y: 549.114501953125
z: 0.05883941054344177
visibility: 0.9607585668563843
","x: 172.96539306640625
y: 555.0486450195312
z: -0.03300565853714943
visibility: 0.973098635673523
",,,,,,,,,,,,,,,,,,,,,,,,,,,,,,,,,,,,,,,,,,
7,"x: 199.77923583984375
y: 212.69992065429688
z: -0.2921205163002014
visibility: 0.9999608397483826
","x: 203.08888244628906
y: 210.63470458984375
z: -0.27703770995140076
visibility: 0.9999082684516907
","x: 205.55580139160156
y: 211.50267028808594
z: -0.2770623564720154
visibility: 0.9998936653137207
","x: 207.59381103515625
y: 212.58706665039062
z: -0.2770910859107971
visibility: 0.9999026656150818
","x: 201.0791015625
y: 209.9833984375
z: -0.27601075172424316
visibility: 0.9998912811279297
","x: 201.34056091308594
y: 210.13685607910156
z: -0.27602991461753845
visibility: 0.9998629689216614
","x: 199.87205505371094
y: 210.25518798828125
z: -0.27604514360427856
visibility: 0.9998790621757507
","x: 206.46505737304688
y: 215.6136474609375
z: -0.2117554396390915
visibility: 0.999787449836731
","x: 193.81773376464844
y: 212.3884735107422
z: -0.1839272379875183
visibility: 0.9997520446777344
","x: 203.51963806152344
y: 220.0767364501953
z: -0.25587111711502075
visibility: 0.9999472498893738
","x: 200.20111083984375
y: 218.0738983154297
z: -0.2520076334476471
visibility: 0.9999480843544006
","x: 214.20870971679688
y: 264.2125244140625
z: -0.1473003476858139
visibility: 0.9999372363090515
","x: 178.66653442382812
y: 253.3270263671875
z: -0.1288505643606186
visibility: 0.9999252557754517
","x: 221.4710693359375
y: 321.6593017578125
z: -0.11899332702159882
visibility: 0.968727171421051
","x: 158.19480895996094
y: 297.7355041503906
z: -0.08519311249256134
visibility: 0.9810041189193726
","x: 232.53652954101562
y: 369.4783935546875
z: -0.19781041145324707
visibility: 0.9735649824142456
","x: 133.78924560546875
y: 329.252197265625
z: -0.14961300790309906
visibility: 0.9699510931968689
","x: 235.31857299804688
y: 384.0657958984375
z: -0.21849659085273743
visibility: 0.9493756890296936
","x: 127.27134704589844
y: 340.1419677734375
z: -0.17951038479804993
visibility: 0.9418160319328308
","x: 235.0038299560547
y: 385.072998046875
z: -0.2540423572063446
visibility: 0.9541033506393433
","x: 127.09669494628906
y: 340.697998046875
z: -0.21931450068950653
visibility: 0.9481188654899597
","x: 233.83493041992188
y: 381.5972595214844
z: -0.21414723992347717
visibility: 0.94255131483078
","x: 129.31765747070312
y: 338.7251281738281
z: -0.167239248752594
visibility: 0.9399493932723999
","x: 204.18539428710938
y: 369.0428161621094
z: 0.016923267394304276
visibility: 0.9994959831237793
","x: 182.9845733642578
y: 366.4450378417969
z: -0.01702154241502285
visibility: 0.999511182308197
","x: 210.9066925048828
y: 457.9222412109375
z: 0.003899239469319582
visibility: 0.9795277714729309
","x: 172.5657958984375
y: 461.3116455078125
z: -0.017218103632330894
visibility: 0.9926613569259644
","x: 204.1400909423828
y: 525.6884765625
z: 0.16679036617279053
visibility: 0.974261462688446
","x: 168.58282470703125
y: 533.0404052734375
z: 0.11323273181915283
visibility: 0.9856846928596497
","x: 199.1664276123047
y: 536.281494140625
z: 0.1767912209033966
visibility: 0.7866649627685547
","x: 167.83033752441406
y: 543.80810546875
z: 0.11898323148488998
visibility: 0.7841925621032715
","x: 214.10797119140625
y: 548.7156982421875
z: 0.06596077978610992
visibility: 0.9634611010551453
","x: 170.0802001953125
y: 555.3881225585938
z: 0.004452799446880817
visibility: 0.9749696850776672
",,,,,,,,,,,,,,,,,,,,,,,,,,,,,,,,,,,,,,,,,,
8,"x: 179.36654663085938
y: 208.6702880859375
z: -0.18994088470935822
visibility: 0.9999597668647766
","x: 183.37953186035156
y: 205.81321716308594
z: -0.19115754961967468
visibility: 0.9998936057090759
","x: 184.63699340820312
y: 206.44615173339844
z: -0.19118452072143555
visibility: 0.9998815059661865
","x: 185.81475830078125
y: 207.23193359375
z: -0.1912144273519516
visibility: 0.9998899102210999
","x: 181.86358642578125
y: 205.41708374023438
z: -0.17810679972171783
visibility: 0.9998760223388672
","x: 181.97039794921875
y: 205.63360595703125
z: -0.17811906337738037
visibility: 0.9998506903648376
","x: 181.88414001464844
y: 205.83404541015625
z: -0.17817020416259766
visibility: 0.9998660087585449
","x: 189.60202026367188
y: 212.90524291992188
z: -0.17753979563713074
visibility: 0.9997820258140564
","x: 184.62423706054688
y: 210.5919189453125
z: -0.09672506153583527
visibility: 0.999728262424469
","x: 181.0101776123047
y: 216.11412048339844
z: -0.17454929649829865
visibility: 0.9999464750289917
","x: 179.28834533691406
y: 214.83827209472656
z: -0.15727929770946503
visibility: 0.999943733215332
","x: 205.89138793945312
y: 262.5809020996094
z: -0.11019188165664673
visibility: 0.9999391436576843
","x: 168.82540893554688
y: 253.75836181640625
z: -0.0373174250125885
visibility: 0.9999296069145203
","x: 213.2483673095703
y: 321.0151672363281
z: -0.10326340049505234
visibility: 0.970707893371582
","x: 154.704345703125
y: 300.3375549316406
z: 0.014745421707630157
visibility: 0.9796935319900513
","x: 226.7870635986328
y: 362.0423889160156
z: -0.134018212556839
visibility: 0.9737468957901001
","x: 134.083251953125
y: 337.5408630371094
z: -0.04567500203847885
visibility: 0.9704346656799316
","x: 232.00369262695312
y: 376.8942565917969
z: -0.1513696163892746
visibility: 0.9487357139587402
","x: 127.87549591064453
y: 346.2453918457031
z: -0.0610339529812336
visibility: 0.9425832629203796
","x: 229.51141357421875
y: 377.102783203125
z: -0.1842285692691803
visibility: 0.9535268545150757
","x: 127.88262176513672
y: 345.7119445800781
z: -0.09733600914478302
visibility: 0.9489117860794067
","x: 227.3638458251953
y: 373.30072021484375
z: -0.1480759084224701
visibility: 0.9422513842582703
","x: 130.02728271484375
y: 343.6649169921875
z: -0.06349098682403564
visibility: 0.9408653378486633
","x: 197.5762176513672
y: 367.0650634765625
z: -0.00912374909967184
visibility: 0.9994832873344421
","x: 173.97756958007812
y: 366.25628662109375
z: 0.009049108251929283
visibility: 0.9995337724685669
","x: 204.32345581054688
y: 457.46649169921875
z: -0.0419192798435688
visibility: 0.9810764193534851
","x: 166.85191345214844
y: 461.21649169921875
z: -0.009416257962584496
visibility: 0.993016242980957
","x: 205.08554077148438
y: 525.6240234375
z: 0.11342830955982208
visibility: 0.9761995673179626
","x: 167.92591857910156
y: 533.2335815429688
z: 0.12045514583587646
visibility: 0.9867324233055115
","x: 201.47930908203125
y: 534.2496948242188
z: 0.12236408144235611
visibility: 0.800129234790802
","x: 168.7083740234375
y: 544.6693115234375
z: 0.12581048905849457
visibility: 0.7979808449745178
","x: 213.51058959960938
y: 548.7491455078125
z: 0.010398643091320992
visibility: 0.9661644697189331
","x: 167.39523315429688
y: 555.6847534179688
z: 0.016470197588205338
visibility: 0.976758599281311
",,,,,,,,,,,,,,,,,,,,,,"x: 223.2876739501953
y: 361.6712951660156
z: 0.0
","x: 220.89564514160156
y: 368.13604736328125
z: -0.00245145196095109
","x: 220.4219970703125
y: 376.42767333984375
z: -0.0031307402532547712
","x: 220.13092041015625
y: 382.6402282714844
z: -0.003541238373145461
","x: 219.90957641601562
y: 387.886474609375
z: -0.003652601968497038
","x: 224.7914581298828
y: 382.43438720703125
z: -0.0020091345068067312
","x: 224.5084991455078
y: 393.5092468261719
z: -0.0032663936726748943
","x: 224.2164764404297
y: 400.2125549316406
z: -0.004024036228656769
","x: 224.33056640625
y: 405.3675537109375
z: -0.004362788982689381
","x: 226.15203857421875
y: 381.4853210449219
z: -0.001138244871981442
","x: 224.0138397216797
y: 390.9614562988281
z: -0.002256423234939575
","x: 221.4930877685547
y: 390.11859130859375
z: -0.0016436809673905373
","x: 220.56658935546875
y: 387.8060607910156
z: -0.0006039453437551856
","x: 226.64773559570312
y: 380.16259765625
z: -0.0005306113744154572
","x: 224.97389221191406
y: 388.36053466796875
z: -0.0013959300704300404
","x: 222.57907104492188
y: 387.2105712890625
z: -0.00034646931453607976
","x: 221.72593688964844
y: 384.8873596191406
z: 0.0007440749905072153
","x: 226.39208984375
y: 378.4385681152344
z: -0.00036236707819625735
","x: 225.3723907470703
y: 384.74224853515625
z: -0.0008490808540955186
","x: 223.4576416015625
y: 385.0541687011719
z: -0.00023599340056534857
","x: 222.51222229003906
y: 383.4012145996094
z: 0.0006985104992054403
"
9,"x: 179.36654663085938
y: 208.6702880859375
z: -0.18994088470935822
visibility: 0.9999597668647766
","x: 183.37953186035156
y: 205.81321716308594
z: -0.19115754961967468
visibility: 0.9998936057090759
","x: 184.63699340820312
y: 206.44615173339844
z: -0.19118452072143555
visibility: 0.9998815059661865
","x: 185.81475830078125
y: 207.23193359375
z: -0.1912144273519516
visibility: 0.9998899102210999
","x: 181.86358642578125
y: 205.41708374023438
z: -0.17810679972171783
visibility: 0.9998760223388672
","x: 181.97039794921875
y: 205.63360595703125
z: -0.17811906337738037
visibility: 0.9998506903648376
","x: 181.88414001464844
y: 205.83404541015625
z: -0.17817020416259766
visibility: 0.9998660087585449
","x: 189.60202026367188
y: 212.90524291992188
z: -0.17753979563713074
visibility: 0.9997820258140564
","x: 184.62423706054688
y: 210.5919189453125
z: -0.09672506153583527
visibility: 0.999728262424469
","x: 181.0101776123047
y: 216.11412048339844
z: -0.17454929649829865
visibility: 0.9999464750289917
","x: 179.28834533691406
y: 214.83827209472656
z: -0.15727929770946503
visibility: 0.999943733215332
","x: 205.89138793945312
y: 262.5809020996094
z: -0.11019188165664673
visibility: 0.9999391436576843
","x: 168.82540893554688
y: 253.75836181640625
z: -0.0373174250125885
visibility: 0.9999296069145203
","x: 213.2483673095703
y: 321.0151672363281
z: -0.10326340049505234
visibility: 0.970707893371582
","x: 154.704345703125
y: 300.3375549316406
z: 0.014745421707630157
visibility: 0.9796935319900513
","x: 226.7870635986328
y: 362.0423889160156
z: -0.134018212556839
visibility: 0.9737468957901001
","x: 134.083251953125
y: 337.5408630371094
z: -0.04567500203847885
visibility: 0.9704346656799316
","x: 232.00369262695312
y: 376.8942565917969
z: -0.1513696163892746
visibility: 0.9487357139587402
","x: 127.87549591064453
y: 346.2453918457031
z: -0.0610339529812336
visibility: 0.9425832629203796
","x: 229.51141357421875
y: 377.102783203125
z: -0.1842285692691803
visibility: 0.9535268545150757
","x: 127.88262176513672
y: 345.7119445800781
z: -0.09733600914478302
visibility: 0.9489117860794067
","x: 227.3638458251953
y: 373.30072021484375
z: -0.1480759084224701
visibility: 0.9422513842582703
","x: 130.02728271484375
y: 343.6649169921875
z: -0.06349098682403564
visibility: 0.9408653378486633
","x: 197.5762176513672
y: 367.0650634765625
z: -0.00912374909967184
visibility: 0.9994832873344421
","x: 173.97756958007812
y: 366.25628662109375
z: 0.009049108251929283
visibility: 0.9995337724685669
","x: 204.32345581054688
y: 457.46649169921875
z: -0.0419192798435688
visibility: 0.9810764193534851
","x: 166.85191345214844
y: 461.21649169921875
z: -0.009416257962584496
visibility: 0.993016242980957
","x: 205.08554077148438
y: 525.6240234375
z: 0.11342830955982208
visibility: 0.9761995673179626
","x: 167.92591857910156
y: 533.2335815429688
z: 0.12045514583587646
visibility: 0.9867324233055115
","x: 201.47930908203125
y: 534.2496948242188
z: 0.12236408144235611
visibility: 0.800129234790802
","x: 168.7083740234375
y: 544.6693115234375
z: 0.12581048905849457
visibility: 0.7979808449745178
","x: 213.51058959960938
y: 548.7491455078125
z: 0.010398643091320992
visibility: 0.9661644697189331
","x: 167.39523315429688
y: 555.6847534179688
z: 0.016470197588205338
visibility: 0.976758599281311
",,,,,,,,,,,,,,,,,,,,,,"x: 223.2876739501953
y: 361.6712951660156
z: 0.0
","x: 220.89564514160156
y: 368.13604736328125
z: -0.00245145196095109
","x: 220.4219970703125
y: 376.42767333984375
z: -0.0031307402532547712
","x: 220.13092041015625
y: 382.6402282714844
z: -0.003541238373145461
","x: 219.90957641601562
y: 387.886474609375
z: -0.003652601968497038
","x: 224.7914581298828
y: 382.43438720703125
z: -0.0020091345068067312
","x: 224.5084991455078
y: 393.5092468261719
z: -0.0032663936726748943
","x: 224.2164764404297
y: 400.2125549316406
z: -0.004024036228656769
","x: 224.33056640625
y: 405.3675537109375
z: -0.004362788982689381
","x: 226.15203857421875
y: 381.4853210449219
z: -0.001138244871981442
","x: 224.0138397216797
y: 390.9614562988281
z: -0.002256423234939575
","x: 221.4930877685547
y: 390.11859130859375
z: -0.0016436809673905373
","x: 220.56658935546875
y: 387.8060607910156
z: -0.0006039453437551856
","x: 226.64773559570312
y: 380.16259765625
z: -0.0005306113744154572
","x: 224.97389221191406
y: 388.36053466796875
z: -0.0013959300704300404
","x: 222.57907104492188
y: 387.2105712890625
z: -0.00034646931453607976
","x: 221.72593688964844
y: 384.8873596191406
z: 0.0007440749905072153
","x: 226.39208984375
y: 378.4385681152344
z: -0.00036236707819625735
","x: 225.3723907470703
y: 384.74224853515625
z: -0.0008490808540955186
","x: 223.4576416015625
y: 385.0541687011719
z: -0.00023599340056534857
","x: 222.51222229003906
y: 383.4012145996094
z: 0.0006985104992054403
"
10,"x: 177.41896057128906
y: 204.19435119628906
z: -0.18330100178718567
visibility: 0.999957799911499
","x: 181.11666870117188
y: 199.75172424316406
z: -0.18431387841701508
visibility: 0.9998786449432373
","x: 182.28323364257812
y: 200.29446411132812
z: -0.1843620091676712
visibility: 0.9998692870140076
","x: 183.35906982421875
y: 200.90008544921875
z: -0.18440032005310059
visibility: 0.9998773336410522
","x: 178.9464111328125
y: 199.3427734375
z: -0.1721900999546051
visibility: 0.9998604655265808
","x: 178.62765502929688
y: 199.58055114746094
z: -0.17220965027809143
visibility: 0.9998380541801453
","x: 178.2557373046875
y: 199.78514099121094
z: -0.17226336896419525
visibility: 0.9998555779457092
","x: 186.661865234375
y: 207.09881591796875
z: -0.17372456192970276
visibility: 0.9997832775115967
","x: 180.11968994140625
y: 205.821533203125
z: -0.08584766089916229
visibility: 0.9997072219848633
","x: 178.8758544921875
y: 212.91348266601562
z: -0.16482703387737274
visibility: 0.9999460577964783
","x: 176.38661193847656
y: 211.91236877441406
z: -0.14858956634998322
visibility: 0.9999405145645142
","x: 200.57386779785156
y: 256.35772705078125
z: -0.10947734117507935
visibility: 0.999941885471344
","x: 166.25579833984375
y: 252.89578247070312
z: -0.0053823101334273815
visibility: 0.9999335408210754
","x: 207.0740509033203
y: 314.6325378417969
z: -0.09093490988016129
visibility: 0.9723171591758728
","x: 153.39727783203125
y: 301.21240234375
z: 0.047203827649354935
visibility: 0.9759010672569275
","x: 219.68849182128906
y: 358.0631103515625
z: -0.14058922231197357
visibility: 0.9716954827308655
","x: 134.23536682128906
y: 342.663818359375
z: -0.022817010059952736
visibility: 0.970348596572876
","x: 225.0865936279297
y: 373.3133239746094
z: -0.16074231266975403
visibility: 0.9449162483215332
","x: 128.2615966796875
y: 353.2588195800781
z: -0.03758418560028076
visibility: 0.9427493214607239
","x: 222.86032104492188
y: 373.514404296875
z: -0.18967686593532562
visibility: 0.9498819708824158
","x: 128.2594757080078
y: 352.7746887207031
z: -0.07701054960489273
visibility: 0.9491965770721436
","x: 220.60928344726562
y: 369.0038757324219
z: -0.15317849814891815
visibility: 0.9384636282920837
","x: 130.3262481689453
y: 350.2159423828125
z: -0.04185623303055763
visibility: 0.9413551092147827
","x: 189.73928833007812
y: 363.5169982910156
z: -0.0331449955701828
visibility: 0.999466598033905
","x: 168.27467346191406
y: 363.9254455566406
z: 0.03307619318366051
visibility: 0.9995452165603638
","x: 197.17185974121094
y: 457.1481628417969
z: -0.06542276591062546
visibility: 0.9824541807174683
","x: 164.81939697265625
y: 460.72430419921875
z: 0.014898288063704967
visibility: 0.9926050305366516
","x: 209.18788146972656
y: 524.3287353515625
z: 0.07277479022741318
visibility: 0.9779507517814636
","x: 168.2779998779297
y: 535.144775390625
z: 0.1335683912038803
visibility: 0.9872948527336121
","x: 212.66273498535156
y: 532.707763671875
z: 0.07947470247745514
visibility: 0.8024253845214844
","x: 170.7582244873047
y: 546.3507080078125
z: 0.13820631802082062
visibility: 0.8104314208030701
","x: 212.43704223632812
y: 547.664306640625
z: -0.0344933457672596
visibility: 0.9684170484542847
","x: 164.9077911376953
y: 555.6342163085938
z: 0.03370905667543411
visibility: 0.9778587818145752
",,,,,,,,,,,,,,,,,,,,,,"x: 219.0540771484375
y: 359.48626708984375
z: 0.0
","x: 216.88673400878906
y: 365.8145751953125
z: -0.0021951671224087477
","x: 217.00146484375
y: 373.0292053222656
z: -0.0021489160135388374
","x: 217.63229370117188
y: 379.1070251464844
z: -0.0017210048390552402
","x: 217.96749877929688
y: 383.33746337890625
z: -0.0008497202070429921
","x: 221.64111328125
y: 376.41455078125
z: -0.0007609992171637714
","x: 220.02078247070312
y: 385.2978515625
z: -0.0009291337919421494
","x: 218.01133728027344
y: 388.3518981933594
z: -0.0006581289926543832
","x: 216.45620727539062
y: 389.9715576171875
z: -0.0002703349746298045
","x: 222.380615234375
y: 376.9926452636719
z: 0.000102521080407314
","x: 220.35879516601562
y: 385.63323974609375
z: 0.000232767328270711
","x: 217.98756408691406
y: 389.2142333984375
z: 0.00018007360631600022
","x: 215.96609497070312
y: 391.14019775390625
z: 3.336116424179636e-05
","x: 222.3953094482422
y: 377.21478271484375
z: 0.0007134549668990076
","x: 220.5137939453125
y: 385.2026672363281
z: 0.0004650283954106271
","x: 218.3021240234375
y: 388.43841552734375
z: -0.0001670268247835338
","x: 216.3634796142578
y: 390.15203857421875
z: -0.0006646593101322651
","x: 221.78038024902344
y: 377.0226745605469
z: 0.0010724493768066168
","x: 220.68955993652344
y: 383.23126220703125
z: 0.0005838467623107135
","x: 219.08958435058594
y: 385.80450439453125
z: 0.00018024435848928988
","x: 217.5325164794922
y: 386.9776916503906
z: 2.837005740730092e-05
"
11,"x: 177.41896057128906
y: 204.19435119628906
z: -0.18330100178718567
visibility: 0.999957799911499
","x: 181.11666870117188
y: 199.75172424316406
z: -0.18431387841701508
visibility: 0.9998786449432373
","x: 182.28323364257812
y: 200.29446411132812
z: -0.1843620091676712
visibility: 0.9998692870140076
","x: 183.35906982421875
y: 200.90008544921875
z: -0.18440032005310059
visibility: 0.9998773336410522
","x: 178.9464111328125
y: 199.3427734375
z: -0.1721900999546051
visibility: 0.9998604655265808
","x: 178.62765502929688
y: 199.58055114746094
z: -0.17220965027809143
visibility: 0.9998380541801453
","x: 178.2557373046875
y: 199.78514099121094
z: -0.17226336896419525
visibility: 0.9998555779457092
","x: 186.661865234375
y: 207.09881591796875
z: -0.17372456192970276
visibility: 0.9997832775115967
","x: 180.11968994140625
y: 205.821533203125
z: -0.08584766089916229
visibility: 0.9997072219848633
","x: 178.8758544921875
y: 212.91348266601562
z: -0.16482703387737274
visibility: 0.9999460577964783
","x: 176.38661193847656
y: 211.91236877441406
z: -0.14858956634998322
visibility: 0.9999405145645142
","x: 200.57386779785156
y: 256.35772705078125
z: -0.10947734117507935
visibility: 0.999941885471344
","x: 166.25579833984375
y: 252.89578247070312
z: -0.0053823101334273815
visibility: 0.9999335408210754
","x: 207.0740509033203
y: 314.6325378417969
z: -0.09093490988016129
visibility: 0.9723171591758728
","x: 153.39727783203125
y: 301.21240234375
z: 0.047203827649354935
visibility: 0.9759010672569275
","x: 219.68849182128906
y: 358.0631103515625
z: -0.14058922231197357
visibility: 0.9716954827308655
","x: 134.23536682128906
y: 342.663818359375
z: -0.022817010059952736
visibility: 0.970348596572876
","x: 225.0865936279297
y: 373.3133239746094
z: -0.16074231266975403
visibility: 0.9449162483215332
","x: 128.2615966796875
y: 353.2588195800781
z: -0.03758418560028076
visibility: 0.9427493214607239
","x: 222.86032104492188
y: 373.514404296875
z: -0.18967686593532562
visibility: 0.9498819708824158
","x: 128.2594757080078
y: 352.7746887207031
z: -0.07701054960489273
visibility: 0.9491965770721436
","x: 220.60928344726562
y: 369.0038757324219
z: -0.15317849814891815
visibility: 0.9384636282920837
","x: 130.3262481689453
y: 350.2159423828125
z: -0.04185623303055763
visibility: 0.9413551092147827
","x: 189.73928833007812
y: 363.5169982910156
z: -0.0331449955701828
visibility: 0.999466598033905
","x: 168.27467346191406
y: 363.9254455566406
z: 0.03307619318366051
visibility: 0.9995452165603638
","x: 197.17185974121094
y: 457.1481628417969
z: -0.06542276591062546
visibility: 0.9824541807174683
","x: 164.81939697265625
y: 460.72430419921875
z: 0.014898288063704967
visibility: 0.9926050305366516
","x: 209.18788146972656
y: 524.3287353515625
z: 0.07277479022741318
visibility: 0.9779507517814636
","x: 168.2779998779297
y: 535.144775390625
z: 0.1335683912038803
visibility: 0.9872948527336121
","x: 212.66273498535156
y: 532.707763671875
z: 0.07947470247745514
visibility: 0.8024253845214844
","x: 170.7582244873047
y: 546.3507080078125
z: 0.13820631802082062
visibility: 0.8104314208030701
","x: 212.43704223632812
y: 547.664306640625
z: -0.0344933457672596
visibility: 0.9684170484542847
","x: 164.9077911376953
y: 555.6342163085938
z: 0.03370905667543411
visibility: 0.9778587818145752
",,,,,,,,,,,,,,,,,,,,,,"x: 219.0540771484375
y: 359.48626708984375
z: 0.0
","x: 216.88673400878906
y: 365.8145751953125
z: -0.0021951671224087477
","x: 217.00146484375
y: 373.0292053222656
z: -0.0021489160135388374
","x: 217.63229370117188
y: 379.1070251464844
z: -0.0017210048390552402
","x: 217.96749877929688
y: 383.33746337890625
z: -0.0008497202070429921
","x: 221.64111328125
y: 376.41455078125
z: -0.0007609992171637714
","x: 220.02078247070312
y: 385.2978515625
z: -0.0009291337919421494
","x: 218.01133728027344
y: 388.3518981933594
z: -0.0006581289926543832
","x: 216.45620727539062
y: 389.9715576171875
z: -0.0002703349746298045
","x: 222.380615234375
y: 376.9926452636719
z: 0.000102521080407314
","x: 220.35879516601562
y: 385.63323974609375
z: 0.000232767328270711
","x: 217.98756408691406
y: 389.2142333984375
z: 0.00018007360631600022
","x: 215.96609497070312
y: 391.14019775390625
z: 3.336116424179636e-05
","x: 222.3953094482422
y: 377.21478271484375
z: 0.0007134549668990076
","x: 220.5137939453125
y: 385.2026672363281
z: 0.0004650283954106271
","x: 218.3021240234375
y: 388.43841552734375
z: -0.0001670268247835338
","x: 216.3634796142578
y: 390.15203857421875
z: -0.0006646593101322651
","x: 221.78038024902344
y: 377.0226745605469
z: 0.0010724493768066168
","x: 220.68955993652344
y: 383.23126220703125
z: 0.0005838467623107135
","x: 219.08958435058594
y: 385.80450439453125
z: 0.00018024435848928988
","x: 217.5325164794922
y: 386.9776916503906
z: 2.837005740730092e-05
"
12,"x: 174.0688018798828
y: 220.14056396484375
z: -0.3085314631462097
visibility: 0.9999609589576721
","x: 178.2021026611328
y: 213.8743438720703
z: -0.3020644187927246
visibility: 0.9998855590820312
","x: 179.809326171875
y: 214.18008422851562
z: -0.30209285020828247
visibility: 0.9998780488967896
","x: 181.3409881591797
y: 214.46231079101562
z: -0.30212727189064026
visibility: 0.9998849630355835
","x: 174.37672424316406
y: 212.6087646484375
z: -0.2902123034000397
visibility: 0.9998666644096375
","x: 173.4171600341797
y: 212.05474853515625
z: -0.2902035117149353
visibility: 0.9998454451560974
","x: 172.58108520507812
y: 211.46925354003906
z: -0.2901960015296936
visibility: 0.999860942363739
","x: 184.733154296875
y: 218.02896118164062
z: -0.22642119228839874
visibility: 0.9998018741607666
","x: 174.19888305664062
y: 214.34542846679688
z: -0.1685793697834015
visibility: 0.9997187256813049
","x: 176.35894775390625
y: 229.09677124023438
z: -0.277252733707428
visibility: 0.9999505281448364
","x: 171.8674774169922
y: 226.22885131835938
z: -0.26125943660736084
visibility: 0.9999446868896484
","x: 197.14602661132812
y: 265.76641845703125
z: -0.19358274340629578
visibility: 0.9999473690986633
","x: 160.08389282226562
y: 259.8216857910156
z: -0.03310711309313774
visibility: 0.9999377131462097
","x: 203.39492797851562
y: 318.3262939453125
z: -0.19180674850940704
visibility: 0.9748967289924622
","x: 149.14817810058594
y: 313.5952453613281
z: 0.03657645359635353
visibility: 0.970846951007843
","x: 211.84730529785156
y: 369.54791259765625
z: -0.28409379720687866
visibility: 0.9739236235618591
","x: 131.473876953125
y: 359.5565185546875
z: -0.04168232902884483
visibility: 0.9712982177734375
","x: 214.3725128173828
y: 383.8624572753906
z: -0.3149557411670685
visibility: 0.9487500786781311
","x: 126.60183715820312
y: 374.16217041015625
z: -0.05808205157518387
visibility: 0.9445700645446777
","x: 212.1827392578125
y: 383.381591796875
z: -0.3427216708660126
visibility: 0.9533585906028748
","x: 126.95381927490234
y: 374.3333435058594
z: -0.09782363474369049
visibility: 0.9508073925971985
","x: 210.64437866210938
y: 379.30609130859375
z: -0.29650819301605225
visibility: 0.9426076412200928
","x: 128.66134643554688
y: 370.6418151855469
z: -0.06058505177497864
visibility: 0.943556010723114
","x: 186.64328002929688
y: 370.8628845214844
z: -0.04638466611504555
visibility: 0.9995077252388
","x: 164.29051208496094
y: 372.85760498046875
z: 0.04624029994010925
visibility: 0.9995825290679932
","x: 192.1907501220703
y: 459.8463439941406
z: -0.08073517680168152
visibility: 0.9840718507766724
","x: 160.06655883789062
y: 462.7245788574219
z: 0.023417551070451736
visibility: 0.9928507208824158
","x: 212.2294921875
y: 521.9689331054688
z: 0.15974310040473938
visibility: 0.979844868183136
","x: 167.95993041992188
y: 534.9466552734375
z: 0.22083230316638947
visibility: 0.988241970539093
","x: 217.47044372558594
y: 524.9962768554688
z: 0.1821402609348297
visibility: 0.8098748922348022
","x: 170.677490234375
y: 545.946533203125
z: 0.23381900787353516
visibility: 0.826369047164917
","x: 212.4053192138672
y: 548.0228881835938
z: 0.07881830632686615
visibility: 0.9709826707839966
","x: 164.56507873535156
y: 557.3142700195312
z: 0.1335628628730774
visibility: 0.9795302152633667
","x: 130.1385040283203
y: 362.87225341796875
z: 0.0
","x: 128.7682342529297
y: 367.21429443359375
z: -0.004532015882432461
","x: 127.18214416503906
y: 373.67779541015625
z: -0.0053103649988770485
","x: 126.77348327636719
y: 380.549072265625
z: -0.005432580132037401
","x: 127.0150146484375
y: 386.30364990234375
z: -0.00497159780934453
","x: 124.30451965332031
y: 378.3514404296875
z: -0.00021854035730939358
","x: 123.7913818359375
y: 386.75848388671875
z: -0.0006473105167970061
","x: 125.30304718017578
y: 390.13470458984375
z: -0.0009164714138023555
","x: 126.95629119873047
y: 391.16705322265625
z: -0.0007920016651041806
","x: 125.72312927246094
y: 379.55023193359375
z: 0.0017882874235510826
","x: 125.56175994873047
y: 387.7843933105469
z: 0.0015798273961991072
","x: 127.46453857421875
y: 390.2857971191406
z: 0.0006815739907324314
","x: 129.19293212890625
y: 390.31610107421875
z: 0.000307017209706828
","x: 127.29716491699219
y: 379.8876953125
z: 0.003146061208099127
","x: 127.85025787353516
y: 386.7206115722656
z: 0.0029189519118517637
","x: 129.58302307128906
y: 388.75665283203125
z: 0.0016652880003675818
","x: 130.99124145507812
y: 388.77490234375
z: 0.0010727342450991273
","x: 128.99171447753906
y: 379.5984191894531
z: 0.003962630871683359
","x: 129.39276123046875
y: 385.0259704589844
z: 0.0037191782612353563
","x: 130.41551208496094
y: 387.1900939941406
z: 0.0028101864736527205
","x: 131.27072143554688
y: 387.7334289550781
z: 0.0024308005813509226
",,,,,,,,,,,,,,,,,,,,,
13,"x: 174.0688018798828
y: 220.14056396484375
z: -0.3085314631462097
visibility: 0.9999609589576721
","x: 178.2021026611328
y: 213.8743438720703
z: -0.3020644187927246
visibility: 0.9998855590820312
","x: 179.809326171875
y: 214.18008422851562
z: -0.30209285020828247
visibility: 0.9998780488967896
","x: 181.3409881591797
y: 214.46231079101562
z: -0.30212727189064026
visibility: 0.9998849630355835
","x: 174.37672424316406
y: 212.6087646484375
z: -0.2902123034000397
visibility: 0.9998666644096375
","x: 173.4171600341797
y: 212.05474853515625
z: -0.2902035117149353
visibility: 0.9998454451560974
","x: 172.58108520507812
y: 211.46925354003906
z: -0.2901960015296936
visibility: 0.999860942363739
","x: 184.733154296875
y: 218.02896118164062
z: -0.22642119228839874
visibility: 0.9998018741607666
","x: 174.19888305664062
y: 214.34542846679688
z: -0.1685793697834015
visibility: 0.9997187256813049
","x: 176.35894775390625
y: 229.09677124023438
z: -0.277252733707428
visibility: 0.9999505281448364
","x: 171.8674774169922
y: 226.22885131835938
z: -0.26125943660736084
visibility: 0.9999446868896484
","x: 197.14602661132812
y: 265.76641845703125
z: -0.19358274340629578
visibility: 0.9999473690986633
","x: 160.08389282226562
y: 259.8216857910156
z: -0.03310711309313774
visibility: 0.9999377131462097
","x: 203.39492797851562
y: 318.3262939453125
z: -0.19180674850940704
visibility: 0.9748967289924622
","x: 149.14817810058594
y: 313.5952453613281
z: 0.03657645359635353
visibility: 0.970846951007843
","x: 211.84730529785156
y: 369.54791259765625
z: -0.28409379720687866
visibility: 0.9739236235618591
","x: 131.473876953125
y: 359.5565185546875
z: -0.04168232902884483
visibility: 0.9712982177734375
","x: 214.3725128173828
y: 383.8624572753906
z: -0.3149557411670685
visibility: 0.9487500786781311
","x: 126.60183715820312
y: 374.16217041015625
z: -0.05808205157518387
visibility: 0.9445700645446777
","x: 212.1827392578125
y: 383.381591796875
z: -0.3427216708660126
visibility: 0.9533585906028748
","x: 126.95381927490234
y: 374.3333435058594
z: -0.09782363474369049
visibility: 0.9508073925971985
","x: 210.64437866210938
y: 379.30609130859375
z: -0.29650819301605225
visibility: 0.9426076412200928
","x: 128.66134643554688
y: 370.6418151855469
z: -0.06058505177497864
visibility: 0.943556010723114
","x: 186.64328002929688
y: 370.8628845214844
z: -0.04638466611504555
visibility: 0.9995077252388
","x: 164.29051208496094
y: 372.85760498046875
z: 0.04624029994010925
visibility: 0.9995825290679932
","x: 192.1907501220703
y: 459.8463439941406
z: -0.08073517680168152
visibility: 0.9840718507766724
","x: 160.06655883789062
y: 462.7245788574219
z: 0.023417551070451736
visibility: 0.9928507208824158
","x: 212.2294921875
y: 521.9689331054688
z: 0.15974310040473938
visibility: 0.979844868183136
","x: 167.95993041992188
y: 534.9466552734375
z: 0.22083230316638947
visibility: 0.988241970539093
","x: 217.47044372558594
y: 524.9962768554688
z: 0.1821402609348297
visibility: 0.8098748922348022
","x: 170.677490234375
y: 545.946533203125
z: 0.23381900787353516
visibility: 0.826369047164917
","x: 212.4053192138672
y: 548.0228881835938
z: 0.07881830632686615
visibility: 0.9709826707839966
","x: 164.56507873535156
y: 557.3142700195312
z: 0.1335628628730774
visibility: 0.9795302152633667
","x: 130.1385040283203
y: 362.87225341796875
z: 0.0
","x: 128.7682342529297
y: 367.21429443359375
z: -0.004532015882432461
","x: 127.18214416503906
y: 373.67779541015625
z: -0.0053103649988770485
","x: 126.77348327636719
y: 380.549072265625
z: -0.005432580132037401
","x: 127.0150146484375
y: 386.30364990234375
z: -0.00497159780934453
","x: 124.30451965332031
y: 378.3514404296875
z: -0.00021854035730939358
","x: 123.7913818359375
y: 386.75848388671875
z: -0.0006473105167970061
","x: 125.30304718017578
y: 390.13470458984375
z: -0.0009164714138023555
","x: 126.95629119873047
y: 391.16705322265625
z: -0.0007920016651041806
","x: 125.72312927246094
y: 379.55023193359375
z: 0.0017882874235510826
","x: 125.56175994873047
y: 387.7843933105469
z: 0.0015798273961991072
","x: 127.46453857421875
y: 390.2857971191406
z: 0.0006815739907324314
","x: 129.19293212890625
y: 390.31610107421875
z: 0.000307017209706828
","x: 127.29716491699219
y: 379.8876953125
z: 0.003146061208099127
","x: 127.85025787353516
y: 386.7206115722656
z: 0.0029189519118517637
","x: 129.58302307128906
y: 388.75665283203125
z: 0.0016652880003675818
","x: 130.99124145507812
y: 388.77490234375
z: 0.0010727342450991273
","x: 128.99171447753906
y: 379.5984191894531
z: 0.003962630871683359
","x: 129.39276123046875
y: 385.0259704589844
z: 0.0037191782612353563
","x: 130.41551208496094
y: 387.1900939941406
z: 0.0028101864736527205
","x: 131.27072143554688
y: 387.7334289550781
z: 0.0024308005813509226
",,,,,,,,,,,,,,,,,,,,,
14,"x: 177.40792846679688
y: 205.015869140625
z: -0.3226826786994934
visibility: 0.9999643564224243
","x: 181.1348419189453
y: 200.342529296875
z: -0.30836164951324463
visibility: 0.9998947978019714
","x: 182.89060974121094
y: 201.39967346191406
z: -0.3083905875682831
visibility: 0.9998884201049805
","x: 184.65487670898438
y: 202.64772033691406
z: -0.30839988589286804
visibility: 0.9998944401741028
","x: 177.24542236328125
y: 198.21533203125
z: -0.3030290901660919
visibility: 0.9998767971992493
","x: 176.02134704589844
y: 197.61654663085938
z: -0.3030287027359009
visibility: 0.9998576641082764
","x: 174.8549346923828
y: 197.1066131591797
z: -0.3030204772949219
visibility: 0.9998713731765747
","x: 187.79122924804688
y: 210.0435791015625
z: -0.2094399631023407
visibility: 0.9998193979263306
","x: 174.54910278320312
y: 202.18173217773438
z: -0.1836092174053192
visibility: 0.9997385740280151
","x: 179.03121948242188
y: 216.43218994140625
z: -0.28519612550735474
visibility: 0.9999549984931946
","x: 174.5045166015625
y: 211.92941284179688
z: -0.2781750559806824
visibility: 0.9999494552612305
","x: 197.93560791015625
y: 255.88861083984375
z: -0.1574719399213791
visibility: 0.9999518990516663
","x: 156.82046508789062
y: 257.7579345703125
z: -0.0669989138841629
visibility: 0.9999397397041321
","x: 203.48529052734375
y: 311.4107360839844
z: -0.14604726433753967
visibility: 0.9769884943962097
","x: 147.3359375
y: 311.1929931640625
z: 0.016816822811961174
visibility: 0.9696743488311768
","x: 209.03224182128906
y: 363.6815185546875
z: -0.26408031582832336
visibility: 0.9753508567810059
","x: 131.55548095703125
y: 356.58447265625
z: -0.06564820557832718
visibility: 0.971032440662384
","x: 210.7913360595703
y: 379.0787353515625
z: -0.2953740060329437
visibility: 0.9508199095726013
","x: 126.8126220703125
y: 371.83050537109375
z: -0.08628308027982712
visibility: 0.9440081119537354
","x: 207.5936279296875
y: 378.9994812011719
z: -0.32729941606521606
visibility: 0.9552538990974426
","x: 126.91204833984375
y: 372.02679443359375
z: -0.12374762445688248
visibility: 0.9503640532493591
","x: 206.2638702392578
y: 375.45037841796875
z: -0.2786174416542053
visibility: 0.9447094798088074
","x: 128.5543670654297
y: 368.5176086425781
z: -0.08393605053424835
visibility: 0.943550705909729
","x: 188.6804962158203
y: 366.26043701171875
z: -0.024971220642328262
visibility: 0.9995342493057251
","x: 164.30679321289062
y: 369.9485778808594
z: 0.024839360266923904
visibility: 0.9996044039726257
","x: 193.3704071044922
y: 455.58636474609375
z: -0.05299476534128189
visibility: 0.9854682683944702
","x: 162.58847045898438
y: 462.30889892578125
z: 0.005978055763989687
visibility: 0.9929978251457214
","x: 210.8140411376953
y: 520.1990966796875
z: 0.1829352080821991
visibility: 0.9815273880958557
","x: 167.39390563964844
y: 534.743408203125
z: 0.1976165473461151
visibility: 0.9889687895774841
","x: 212.97080993652344
y: 525.0825805664062
z: 0.19993333518505096
visibility: 0.814207136631012
","x: 170.0101776123047
y: 545.6600341796875
z: 0.20904803276062012
visibility: 0.8347724080085754
","x: 212.38868713378906
y: 548.2022705078125
z: 0.07154667377471924
visibility: 0.9732713103294373
","x: 164.65667724609375
y: 557.7745361328125
z: 0.08090271055698395
visibility: 0.9808270931243896
",,,,,,,,,,,,,,,,,,,,,,"x: 207.9432373046875
y: 362.21539306640625
z: 0.0
","x: 204.6336669921875
y: 366.5490417480469
z: -0.001826539053581655
","x: 203.12803649902344
y: 373.76507568359375
z: -0.0021684416569769382
","x: 202.9652862548828
y: 380.1388244628906
z: -0.002102460013702512
","x: 203.02859497070312
y: 384.6044616699219
z: -0.0017810696735978127
","x: 206.3809356689453
y: 378.2583312988281
z: -0.0020654082763940096
","x: 204.89878845214844
y: 386.2429504394531
z: -0.002442516852170229
","x: 203.16342163085938
y: 389.8460693359375
z: -0.0019953567534685135
","x: 201.75177001953125
y: 391.85284423828125
z: -0.0014245464699342847
","x: 208.402099609375
y: 378.7976379394531
z: -0.0015687888953834772
","x: 206.8201904296875
y: 386.78411865234375
z: -0.0014297965681180358
","x: 204.90267944335938
y: 390.0588684082031
z: -0.0006871434161439538
","x: 203.38531494140625
y: 391.7135925292969
z: -0.00021889533672947437
","x: 209.62232971191406
y: 378.5147705078125
z: -0.0012108763912692666
","x: 208.28021240234375
y: 386.1443786621094
z: -0.0013080944772809744
","x: 206.48077392578125
y: 388.84832763671875
z: -0.000829067372251302
","x: 205.0196533203125
y: 389.943359375
z: -0.0005533851799555123
","x: 210.15663146972656
y: 377.5068359375
z: -0.0010940516367554665
","x: 209.1207733154297
y: 384.4751281738281
z: -0.0015265669208019972
","x: 207.67819213867188
y: 387.0439147949219
z: -0.0013254277873784304
","x: 206.40431213378906
y: 387.76434326171875
z: -0.0010072269942611456
"
15,"x: 177.40792846679688
y: 205.015869140625
z: -0.3226826786994934
visibility: 0.9999643564224243
","x: 181.1348419189453
y: 200.342529296875
z: -0.30836164951324463
visibility: 0.9998947978019714
","x: 182.89060974121094
y: 201.39967346191406
z: -0.3083905875682831
visibility: 0.9998884201049805
","x: 184.65487670898438
y: 202.64772033691406
z: -0.30839988589286804
visibility: 0.9998944401741028
","x: 177.24542236328125
y: 198.21533203125
z: -0.3030290901660919
visibility: 0.9998767971992493
","x: 176.02134704589844
y: 197.61654663085938
z: -0.3030287027359009
visibility: 0.9998576641082764
","x: 174.8549346923828
y: 197.1066131591797
z: -0.3030204772949219
visibility: 0.9998713731765747
","x: 187.79122924804688
y: 210.0435791015625
z: -0.2094399631023407
visibility: 0.9998193979263306
","x: 174.54910278320312
y: 202.18173217773438
z: -0.1836092174053192
visibility: 0.9997385740280151
","x: 179.03121948242188
y: 216.43218994140625
z: -0.28519612550735474
visibility: 0.9999549984931946
","x: 174.5045166015625
y: 211.92941284179688
z: -0.2781750559806824
visibility: 0.9999494552612305
","x: 197.93560791015625
y: 255.88861083984375
z: -0.1574719399213791
visibility: 0.9999518990516663
","x: 156.82046508789062
y: 257.7579345703125
z: -0.0669989138841629
visibility: 0.9999397397041321
","x: 203.48529052734375
y: 311.4107360839844
z: -0.14604726433753967
visibility: 0.9769884943962097
","x: 147.3359375
y: 311.1929931640625
z: 0.016816822811961174
visibility: 0.9696743488311768
","x: 209.03224182128906
y: 363.6815185546875
z: -0.26408031582832336
visibility: 0.9753508567810059
","x: 131.55548095703125
y: 356.58447265625
z: -0.06564820557832718
visibility: 0.971032440662384
","x: 210.7913360595703
y: 379.0787353515625
z: -0.2953740060329437
visibility: 0.9508199095726013
","x: 126.8126220703125
y: 371.83050537109375
z: -0.08628308027982712
visibility: 0.9440081119537354
","x: 207.5936279296875
y: 378.9994812011719
z: -0.32729941606521606
visibility: 0.9552538990974426
","x: 126.91204833984375
y: 372.02679443359375
z: -0.12374762445688248
visibility: 0.9503640532493591
","x: 206.2638702392578
y: 375.45037841796875
z: -0.2786174416542053
visibility: 0.9447094798088074
","x: 128.5543670654297
y: 368.5176086425781
z: -0.08393605053424835
visibility: 0.943550705909729
","x: 188.6804962158203
y: 366.26043701171875
z: -0.024971220642328262
visibility: 0.9995342493057251
","x: 164.30679321289062
y: 369.9485778808594
z: 0.024839360266923904
visibility: 0.9996044039726257
","x: 193.3704071044922
y: 455.58636474609375
z: -0.05299476534128189
visibility: 0.9854682683944702
","x: 162.58847045898438
y: 462.30889892578125
z: 0.005978055763989687
visibility: 0.9929978251457214
","x: 210.8140411376953
y: 520.1990966796875
z: 0.1829352080821991
visibility: 0.9815273880958557
","x: 167.39390563964844
y: 534.743408203125
z: 0.1976165473461151
visibility: 0.9889687895774841
","x: 212.97080993652344
y: 525.0825805664062
z: 0.19993333518505096
visibility: 0.814207136631012
","x: 170.0101776123047
y: 545.6600341796875
z: 0.20904803276062012
visibility: 0.8347724080085754
","x: 212.38868713378906
y: 548.2022705078125
z: 0.07154667377471924
visibility: 0.9732713103294373
","x: 164.65667724609375
y: 557.7745361328125
z: 0.08090271055698395
visibility: 0.9808270931243896
",,,,,,,,,,,,,,,,,,,,,,"x: 207.9432373046875
y: 362.21539306640625
z: 0.0
","x: 204.6336669921875
y: 366.5490417480469
z: -0.001826539053581655
","x: 203.12803649902344
y: 373.76507568359375
z: -0.0021684416569769382
","x: 202.9652862548828
y: 380.1388244628906
z: -0.002102460013702512
","x: 203.02859497070312
y: 384.6044616699219
z: -0.0017810696735978127
","x: 206.3809356689453
y: 378.2583312988281
z: -0.0020654082763940096
","x: 204.89878845214844
y: 386.2429504394531
z: -0.002442516852170229
","x: 203.16342163085938
y: 389.8460693359375
z: -0.0019953567534685135
","x: 201.75177001953125
y: 391.85284423828125
z: -0.0014245464699342847
","x: 208.402099609375
y: 378.7976379394531
z: -0.0015687888953834772
","x: 206.8201904296875
y: 386.78411865234375
z: -0.0014297965681180358
","x: 204.90267944335938
y: 390.0588684082031
z: -0.0006871434161439538
","x: 203.38531494140625
y: 391.7135925292969
z: -0.00021889533672947437
","x: 209.62232971191406
y: 378.5147705078125
z: -0.0012108763912692666
","x: 208.28021240234375
y: 386.1443786621094
z: -0.0013080944772809744
","x: 206.48077392578125
y: 388.84832763671875
z: -0.000829067372251302
","x: 205.0196533203125
y: 389.943359375
z: -0.0005533851799555123
","x: 210.15663146972656
y: 377.5068359375
z: -0.0010940516367554665
","x: 209.1207733154297
y: 384.4751281738281
z: -0.0015265669208019972
","x: 207.67819213867188
y: 387.0439147949219
z: -0.0013254277873784304
","x: 206.40431213378906
y: 387.76434326171875
z: -0.0010072269942611456
"
16,"x: 179.31069946289062
y: 194.7134552001953
z: -0.3509286046028137
visibility: 0.9999675154685974
","x: 182.18756103515625
y: 191.2871551513672
z: -0.33468982577323914
visibility: 0.9999037981033325
","x: 183.78878784179688
y: 192.16470336914062
z: -0.3347040116786957
visibility: 0.9998982548713684
","x: 185.469482421875
y: 193.259765625
z: -0.3347192406654358
visibility: 0.999903678894043
","x: 177.95510864257812
y: 190.68212890625
z: -0.33358675241470337
visibility: 0.999887228012085
","x: 176.5458526611328
y: 191.11082458496094
z: -0.33362358808517456
visibility: 0.9998700022697449
","x: 175.10015869140625
y: 191.6146697998047
z: -0.33361613750457764
visibility: 0.9998821020126343
","x: 187.69601440429688
y: 201.0435333251953
z: -0.23158800601959229
visibility: 0.9998354911804199
","x: 172.71250915527344
y: 198.8917236328125
z: -0.2260458767414093
visibility: 0.999758780002594
","x: 181.400146484375
y: 206.25393676757812
z: -0.31278175115585327
visibility: 0.9999589920043945
","x: 176.17697143554688
y: 203.89730834960938
z: -0.31137916445732117
visibility: 0.9999537467956543
","x: 198.767578125
y: 254.97976684570312
z: -0.16549542546272278
visibility: 0.999955415725708
","x: 156.89663696289062
y: 257.3362121582031
z: -0.13907501101493835
visibility: 0.9999406933784485
","x: 205.24598693847656
y: 311.8092041015625
z: -0.12855680286884308
visibility: 0.9787266850471497
","x: 146.24002075195312
y: 311.7149963378906
z: -0.08277390152215958
visibility: 0.9710921049118042
","x: 211.6536407470703
y: 362.636962890625
z: -0.22230979800224304
visibility: 0.9763085842132568
","x: 129.70155334472656
y: 355.382568359375
z: -0.15567335486412048
visibility: 0.9706218242645264
","x: 213.55908203125
y: 378.6920471191406
z: -0.24520191550254822
visibility: 0.951892077922821
","x: 123.60723876953125
y: 369.8236389160156
z: -0.18076486885547638
visibility: 0.9426472187042236
","x: 211.35919189453125
y: 378.83990478515625
z: -0.27990153431892395
visibility: 0.9562569856643677
","x: 122.83911895751953
y: 370.3372802734375
z: -0.21825210750102997
visibility: 0.9492529034614563
","x: 209.87442016601562
y: 375.44439697265625
z: -0.23691213130950928
visibility: 0.945984423160553
","x: 124.70984649658203
y: 366.6699523925781
z: -0.17408214509487152
visibility: 0.9427220225334167
","x: 189.5703582763672
y: 363.7052917480469
z: -0.014631686732172966
visibility: 0.9995515942573547
","x: 165.5257110595703
y: 368.15966796875
z: 0.014364548027515411
visibility: 0.9996137619018555
","x: 195.52700805664062
y: 451.55682373046875
z: -0.0218699611723423
visibility: 0.9866560697555542
","x: 163.8544158935547
y: 460.555419921875
z: 0.0011044576531276107
visibility: 0.9932488203048706
","x: 209.97052001953125
y: 519.5858154296875
z: 0.1853843778371811
visibility: 0.9830328226089478
","x: 167.2135467529297
y: 534.6104736328125
z: 0.17913100123405457
visibility: 0.9895064830780029
","x: 211.41270446777344
y: 525.6592407226562
z: 0.19835790991783142
visibility: 0.8217640519142151
","x: 169.54795837402344
y: 545.4837646484375
z: 0.18924197554588318
visibility: 0.8352547287940979
","x: 212.56607055664062
y: 548.2869262695312
z: 0.06687932461500168
visibility: 0.9753132462501526
","x: 164.72703552246094
y: 558.1929931640625
z: 0.058412861078977585
visibility: 0.981724739074707
",,,,,,,,,,,,,,,,,,,,,,,,,,,,,,,,,,,,,,,,,,
17,"x: 182.78379821777344
y: 198.07054138183594
z: -0.3221471905708313
visibility: 0.9999704957008362
","x: 182.83999633789062
y: 193.95501708984375
z: -0.3050151765346527
visibility: 0.9999125003814697
","x: 184.07620239257812
y: 194.61260986328125
z: -0.30504319071769714
visibility: 0.9999076128005981
","x: 185.7499542236328
y: 195.34132385253906
z: -0.30505308508872986
visibility: 0.9999125599861145
","x: 178.26744079589844
y: 193.13815307617188
z: -0.30600351095199585
visibility: 0.9998971819877625
","x: 177.14280700683594
y: 193.11001586914062
z: -0.3060341477394104
visibility: 0.9998816251754761
","x: 176.20492553710938
y: 192.85220336914062
z: -0.306043416261673
visibility: 0.9998921751976013
","x: 188.73263549804688
y: 202.0541534423828
z: -0.20184509456157684
visibility: 0.9998505115509033
","x: 174.79547119140625
y: 200.59609985351562
z: -0.20160312950611115
visibility: 0.9997791051864624
","x: 185.3026123046875
y: 208.16021728515625
z: -0.28185054659843445
visibility: 0.9999627470970154
","x: 180.4314727783203
y: 206.55795288085938
z: -0.2833624482154846
visibility: 0.999957799911499
","x: 200.5271759033203
y: 254.8580780029297
z: -0.13885758817195892
visibility: 0.9999590516090393
","x: 157.15802001953125
y: 256.9121398925781
z: -0.12245504558086395
visibility: 0.999941885471344
","x: 206.58238220214844
y: 312.98822021484375
z: -0.07672832161188126
visibility: 0.9801614880561829
","x: 150.1735382080078
y: 311.3593444824219
z: -0.0727386623620987
visibility: 0.972480833530426
","x: 217.87046813964844
y: 361.16644287109375
z: -0.1748502552509308
visibility: 0.9779918789863586
","x: 130.7866973876953
y: 356.9653015136719
z: -0.15418662130832672
visibility: 0.9716861248016357
","x: 221.62548828125
y: 376.39874267578125
z: -0.20105847716331482
visibility: 0.9549169540405273
","x: 123.71676635742188
y: 370.111328125
z: -0.18023690581321716
visibility: 0.9446713924407959
","x: 220.33688354492188
y: 376.7706298828125
z: -0.23878619074821472
visibility: 0.9590746760368347
","x: 123.77200317382812
y: 370.833984375
z: -0.2219391167163849
visibility: 0.9511415362358093
","x: 218.86459350585938
y: 373.5675354003906
z: -0.19207581877708435
visibility: 0.9494560360908508
","x: 125.28153228759766
y: 367.84600830078125
z: -0.17399026453495026
visibility: 0.9448673129081726
","x: 194.578369140625
y: 363.473388671875
z: 0.008540302515029907
visibility: 0.9995761513710022
","x: 169.4214630126953
y: 367.99853515625
z: -0.00872368086129427
visibility: 0.9996225833892822
","x: 207.4350128173828
y: 449.6042175292969
z: -0.01753908209502697
visibility: 0.9875892996788025
","x: 166.32373046875
y: 459.9484558105469
z: -0.021631738170981407
visibility: 0.9935377836227417
","x: 211.4106903076172
y: 519.609375
z: 0.17724677920341492
visibility: 0.9842825531959534
","x: 166.34503173828125
y: 534.5279541015625
z: 0.14651623368263245
visibility: 0.9900258183479309
","x: 209.8623046875
y: 527.138427734375
z: 0.18956753611564636
visibility: 0.8328089714050293
","x: 168.09567260742188
y: 544.1563720703125
z: 0.15544702112674713
visibility: 0.8358407020568848
","x: 216.27166748046875
y: 548.267578125
z: 0.060863327234983444
visibility: 0.9769518971443176
","x: 164.9821319580078
y: 558.10009765625
z: 0.015173847787082195
visibility: 0.9825388193130493
",,,,,,,,,,,,,,,,,,,,,,,,,,,,,,,,,,,,,,,,,,
18,"x: 194.41925048828125
y: 197.49159240722656
z: -0.3054806590080261
visibility: 0.9999732375144958
","x: 194.83706665039062
y: 193.22903442382812
z: -0.2961832880973816
visibility: 0.9999206066131592
","x: 195.9486083984375
y: 193.893310546875
z: -0.296221524477005
visibility: 0.9999162554740906
","x: 197.11326599121094
y: 194.61351013183594
z: -0.29628708958625793
visibility: 0.999920666217804
","x: 190.4395751953125
y: 192.21975708007812
z: -0.29021790623664856
visibility: 0.9999066591262817
","x: 188.76626586914062
y: 192.20858764648438
z: -0.29024577140808105
visibility: 0.9998927116394043
","x: 187.15916442871094
y: 192.3033447265625
z: -0.29025760293006897
visibility: 0.9999020099639893
","x: 196.9652099609375
y: 200.72048950195312
z: -0.16050714254379272
visibility: 0.9998639225959778
","x: 183.61705017089844
y: 199.17752075195312
z: -0.19205760955810547
visibility: 0.9997997283935547
","x: 195.97256469726562
y: 207.31906127929688
z: -0.2751455307006836
visibility: 0.9999661445617676
","x: 190.84664916992188
y: 206.35606384277344
z: -0.2670517861843109
visibility: 0.9999616742134094
","x: 207.26283264160156
y: 250.63998413085938
z: -0.06387417018413544
visibility: 0.9999622106552124
","x: 166.0667266845703
y: 250.00587463378906
z: -0.1193540096282959
visibility: 0.9999459385871887
","x: 212.46633911132812
y: 307.85040283203125
z: 0.0021110933739691973
visibility: 0.980532169342041
","x: 159.15478515625
y: 308.99212646484375
z: -0.07140137255191803
visibility: 0.9744041562080383
","x: 223.78929138183594
y: 358.28759765625
z: -0.10346885770559311
visibility: 0.97891765832901
","x: 143.8996124267578
y: 355.2217102050781
z: -0.1538536697626114
visibility: 0.9734669327735901
","x: 227.19992065429688
y: 375.7362060546875
z: -0.1296301931142807
visibility: 0.9565114974975586
","x: 138.7956085205078
y: 368.3931884765625
z: -0.18342754244804382
visibility: 0.9480363726615906
","x: 226.2620849609375
y: 375.9313659667969
z: -0.17062827944755554
visibility: 0.9606085419654846
","x: 138.5452880859375
y: 369.1332702636719
z: -0.22323763370513916
visibility: 0.9541060328483582
","x: 224.81068420410156
y: 371.8084411621094
z: -0.12248114496469498
visibility: 0.9513757824897766
","x: 140.1984100341797
y: 365.761474609375
z: -0.1720706969499588
visibility: 0.9479629993438721
","x: 200.6156463623047
y: 361.2876892089844
z: 0.028061294928193092
visibility: 0.9996046423912048
","x: 176.08120727539062
y: 362.80908203125
z: -0.02818773314356804
visibility: 0.9996448159217834
","x: 213.45578002929688
y: 448.83868408203125
z: 0.013475748710334301
visibility: 0.9884019494056702
","x: 171.8020477294922
y: 456.7608337402344
z: -0.04222419112920761
visibility: 0.9939621090888977
","x: 216.55645751953125
y: 521.38427734375
z: 0.17727476358413696
visibility: 0.9855095744132996
","x: 166.0959014892578
y: 533.2261352539062
z: 0.10863705724477768
visibility: 0.9907664656639099
","x: 213.18365478515625
y: 530.9026489257812
z: 0.1868591010570526
visibility: 0.8449850678443909
","x: 166.61131286621094
y: 542.4957885742188
z: 0.11549869924783707
visibility: 0.8411069512367249
","x: 228.27247619628906
y: 548.242431640625
z: 0.06037656590342522
visibility: 0.9786497354507446
","x: 165.30325317382812
y: 557.9413452148438
z: -0.027000313624739647
visibility: 0.9837518334388733
",,,,,,,,,,,,,,,,,,,,,,,,,,,,,,,,,,,,,,,,,,
19,"x: 213.9036102294922
y: 216.38975524902344
z: -0.18047316372394562
visibility: 0.9999725818634033
","x: 214.0151824951172
y: 209.3473663330078
z: -0.16003522276878357
visibility: 0.9999213218688965
","x: 214.38511657714844
y: 209.37527465820312
z: -0.16009031236171722
visibility: 0.9999164938926697
","x: 214.76730346679688
y: 209.34323120117188
z: -0.16010507941246033
visibility: 0.999920666217804
","x: 211.39878845214844
y: 208.06251525878906
z: -0.1826203167438507
visibility: 0.9999086260795593
","x: 209.94198608398438
y: 207.13645935058594
z: -0.1826592981815338
visibility: 0.9998966455459595
","x: 208.3880615234375
y: 206.11611938476562
z: -0.1827121078968048
visibility: 0.9999041557312012
","x: 210.61871337890625
y: 211.0197296142578
z: -0.041025564074516296
visibility: 0.9998460412025452
","x: 202.29945373535156
y: 208.7201690673828
z: -0.14913566410541534
visibility: 0.999811589717865
","x: 212.79620361328125
y: 224.29718017578125
z: -0.13529416918754578
visibility: 0.9999629259109497
","x: 209.20486450195312
y: 223.84454345703125
z: -0.1655939370393753
visibility: 0.9999610781669617
","x: 214.71743774414062
y: 255.8814697265625
z: 0.0676172524690628
visibility: 0.9999597668647766
","x: 186.8269500732422
y: 250.5195770263672
z: -0.13287654519081116
visibility: 0.9999476671218872
","x: 221.28977966308594
y: 314.49261474609375
z: 0.1263575702905655
visibility: 0.9490941166877747
","x: 178.16366577148438
y: 311.1794128417969
z: -0.1417088359594345
visibility: 0.9758965373039246
","x: 234.1090087890625
y: 358.8929443359375
z: 0.023148946464061737
visibility: 0.9673586487770081
","x: 172.36146545410156
y: 365.6792907714844
z: -0.2063569724559784
visibility: 0.9742588996887207
","x: 237.52651977539062
y: 374.677001953125
z: 0.0028323731385171413
visibility: 0.9412922263145447
","x: 169.7469940185547
y: 381.6806640625
z: -0.24168233573436737
visibility: 0.9497277140617371
","x: 237.5691375732422
y: 375.270263671875
z: -0.040398769080638885
visibility: 0.947446882724762
","x: 171.64675903320312
y: 383.18133544921875
z: -0.2640748918056488
visibility: 0.9552770256996155
","x: 235.89947509765625
y: 371.5005798339844
z: 0.0014470221940428019
visibility: 0.9373828768730164
","x: 173.18765258789062
y: 378.72430419921875
z: -0.21637003123760223
visibility: 0.9480268359184265
","x: 212.29275512695312
y: 367.784423828125
z: 0.06351147592067719
visibility: 0.9996076822280884
","x: 191.74342346191406
y: 367.6285400390625
z: -0.06343358010053635
visibility: 0.9996349215507507
","x: 224.9878387451172
y: 450.81427001953125
z: 0.0472201444208622
visibility: 0.9879431128501892
","x: 184.0503387451172
y: 457.7569274902344
z: -0.08677739650011063
visibility: 0.9942299127578735
","x: 221.26309204101562
y: 527.2123413085938
z: 0.17618736624717712
visibility: 0.9858734011650085
","x: 165.31919860839844
y: 530.8031616210938
z: 0.0366416797041893
visibility: 0.9913976788520813
","x: 215.92478942871094
y: 539.472412109375
z: 0.1850540041923523
visibility: 0.8556723594665527
","x: 161.25205993652344
y: 540.7620849609375
z: 0.0418100468814373
visibility: 0.8471794128417969
","x: 232.67088317871094
y: 550.46826171875
z: 0.07843037694692612
visibility: 0.9793668389320374
","x: 166.86541748046875
y: 557.846435546875
z: -0.0830569937825203
visibility: 0.9847550988197327
",,,,,,,,,,,,,,,,,,,,,,,,,,,,,,,,,,,,,,,,,,
20,"x: 222.7364501953125
y: 217.44871520996094
z: -0.18015612661838531
visibility: 0.9999744296073914
","x: 222.7490234375
y: 210.80319213867188
z: -0.16341474652290344
visibility: 0.9999268651008606
","x: 223.18557739257812
y: 210.83743286132812
z: -0.163431316614151
visibility: 0.9999222159385681
","x: 223.669921875
y: 210.84022521972656
z: -0.16342906653881073
visibility: 0.9999260306358337
","x: 220.8231658935547
y: 210.0872802734375
z: -0.18612636625766754
visibility: 0.9999157190322876
","x: 219.87657165527344
y: 209.639892578125
z: -0.18617118895053864
visibility: 0.9999051690101624
","x: 218.92030334472656
y: 209.17672729492188
z: -0.1862107217311859
visibility: 0.999911904335022
","x: 222.01466369628906
y: 213.7245330810547
z: -0.05719231814146042
visibility: 0.9998518228530884
","x: 214.53085327148438
y: 212.91229248046875
z: -0.15450523793697357
visibility: 0.999828577041626
","x: 222.5145721435547
y: 224.61846923828125
z: -0.13788993656635284
visibility: 0.9999644756317139
","x: 220.12657165527344
y: 224.72119140625
z: -0.16790877282619476
visibility: 0.9999637603759766
","x: 227.99940490722656
y: 258.76171875
z: 0.06290587037801743
visibility: 0.9999601244926453
","x: 199.87835693359375
y: 250.9739532470703
z: -0.16214267909526825
visibility: 0.9999518990516663
","x: 229.76266479492188
y: 321.5090637207031
z: 0.13620224595069885
visibility: 0.9228011965751648
","x: 192.65170288085938
y: 312.4503173828125
z: -0.1718744933605194
visibility: 0.9781107306480408
","x: 242.71983337402344
y: 363.13409423828125
z: 0.04311821982264519
visibility: 0.9605201482772827
","x: 190.74989318847656
y: 371.4209289550781
z: -0.2285623997449875
visibility: 0.9765080213546753
","x: 246.02059936523438
y: 376.4767150878906
z: 0.026789823547005653
visibility: 0.9324932098388672
","x: 189.35841369628906
y: 386.9464111328125
z: -0.2638111710548401
visibility: 0.9539605379104614
","x: 246.5641632080078
y: 377.5146484375
z: -0.01620151475071907
visibility: 0.939856231212616
","x: 192.82669067382812
y: 387.9617004394531
z: -0.2806839644908905
visibility: 0.9589543342590332
","x: 244.60235595703125
y: 374.375
z: 0.021712979301810265
visibility: 0.9291183352470398
","x: 194.46844482421875
y: 383.2989501953125
z: -0.23540718853473663
visibility: 0.9518694877624512
","x: 222.24337768554688
y: 369.6176452636719
z: 0.06899283826351166
visibility: 0.9996309876441956
","x: 203.54098510742188
y: 368.51153564453125
z: -0.06899139285087585
visibility: 0.9996514916419983
","x: 232.172607421875
y: 451.58453369140625
z: 0.041364796459674835
visibility: 0.9877169728279114
","x: 199.01669311523438
y: 458.81158447265625
z: -0.10024136304855347
visibility: 0.9945600628852844
","x: 223.92535400390625
y: 528.1766967773438
z: 0.17246155440807343
visibility: 0.986374020576477
","x: 168.507568359375
y: 525.2550659179688
z: 0.027478476986289024
visibility: 0.9920145869255066
","x: 218.38980102539062
y: 540.3765869140625
z: 0.1769249439239502
visibility: 0.8643952012062073
","x: 162.02113342285156
y: 532.0812377929688
z: 0.03435174375772476
visibility: 0.8554832935333252
","x: 233.26174926757812
y: 551.71044921875
z: 0.07641978561878204
visibility: 0.9802708029747009
","x: 168.20492553710938
y: 556.4539184570312
z: -0.07686323672533035
visibility: 0.9858660101890564
",,,,,,,,,,,,,,,,,,,,,,"x: 244.15362548828125
y: 361.7497253417969
z: 0.0
","x: 243.12698364257812
y: 367.3574523925781
z: -0.0023415314499288797
","x: 244.06854248046875
y: 373.33282470703125
z: -0.0028727976605296135
","x: 244.9757537841797
y: 379.3857421875
z: -0.003150713862851262
","x: 245.10903930664062
y: 384.1219787597656
z: -0.0028578846249729395
","x: 248.3760986328125
y: 377.5242919921875
z: -0.0009658724302425981
","x: 247.48521423339844
y: 386.6546325683594
z: -0.0016581501113250852
","x: 245.21327209472656
y: 389.3832092285156
z: -0.0014555273810401559
","x: 243.3404998779297
y: 389.74859619140625
z: -0.0009748299489729106
","x: 248.99168395996094
y: 378.366943359375
z: -0.0002831352758221328
","x: 247.5654296875
y: 387.3656005859375
z: -0.0007553134928457439
","x: 245.21412658691406
y: 389.66204833984375
z: -0.0006110185640864074
","x: 243.43145751953125
y: 389.97955322265625
z: -0.00029922890826128423
","x: 248.77735900878906
y: 378.73388671875
z: 8.175498805940151e-05
","x: 247.46279907226562
y: 386.8836975097656
z: -0.0006064089247956872
","x: 245.44085693359375
y: 389.0693664550781
z: -0.0006542344926856458
","x: 243.82266235351562
y: 389.68194580078125
z: -0.0004653302312362939
","x: 247.90008544921875
y: 378.8406677246094
z: 0.00013132719323039055
","x: 247.28811645507812
y: 385.5345458984375
z: -0.0006251647137105465
","x: 245.856201171875
y: 387.9249267578125
z: -0.0006752235349267721
","x: 244.4616241455078
y: 388.7626647949219
z: -0.0003246591368224472
"
21,"x: 222.7364501953125
y: 217.44871520996094
z: -0.18015612661838531
visibility: 0.9999744296073914
","x: 222.7490234375
y: 210.80319213867188
z: -0.16341474652290344
visibility: 0.9999268651008606
","x: 223.18557739257812
y: 210.83743286132812
z: -0.163431316614151
visibility: 0.9999222159385681
","x: 223.669921875
y: 210.84022521972656
z: -0.16342906653881073
visibility: 0.9999260306358337
","x: 220.8231658935547
y: 210.0872802734375
z: -0.18612636625766754
visibility: 0.9999157190322876
","x: 219.87657165527344
y: 209.639892578125
z: -0.18617118895053864
visibility: 0.9999051690101624
","x: 218.92030334472656
y: 209.17672729492188
z: -0.1862107217311859
visibility: 0.999911904335022
","x: 222.01466369628906
y: 213.7245330810547
z: -0.05719231814146042
visibility: 0.9998518228530884
","x: 214.53085327148438
y: 212.91229248046875
z: -0.15450523793697357
visibility: 0.999828577041626
","x: 222.5145721435547
y: 224.61846923828125
z: -0.13788993656635284
visibility: 0.9999644756317139
","x: 220.12657165527344
y: 224.72119140625
z: -0.16790877282619476
visibility: 0.9999637603759766
","x: 227.99940490722656
y: 258.76171875
z: 0.06290587037801743
visibility: 0.9999601244926453
","x: 199.87835693359375
y: 250.9739532470703
z: -0.16214267909526825
visibility: 0.9999518990516663
","x: 229.76266479492188
y: 321.5090637207031
z: 0.13620224595069885
visibility: 0.9228011965751648
","x: 192.65170288085938
y: 312.4503173828125
z: -0.1718744933605194
visibility: 0.9781107306480408
","x: 242.71983337402344
y: 363.13409423828125
z: 0.04311821982264519
visibility: 0.9605201482772827
","x: 190.74989318847656
y: 371.4209289550781
z: -0.2285623997449875
visibility: 0.9765080213546753
","x: 246.02059936523438
y: 376.4767150878906
z: 0.026789823547005653
visibility: 0.9324932098388672
","x: 189.35841369628906
y: 386.9464111328125
z: -0.2638111710548401
visibility: 0.9539605379104614
","x: 246.5641632080078
y: 377.5146484375
z: -0.01620151475071907
visibility: 0.939856231212616
","x: 192.82669067382812
y: 387.9617004394531
z: -0.2806839644908905
visibility: 0.9589543342590332
","x: 244.60235595703125
y: 374.375
z: 0.021712979301810265
visibility: 0.9291183352470398
","x: 194.46844482421875
y: 383.2989501953125
z: -0.23540718853473663
visibility: 0.9518694877624512
","x: 222.24337768554688
y: 369.6176452636719
z: 0.06899283826351166
visibility: 0.9996309876441956
","x: 203.54098510742188
y: 368.51153564453125
z: -0.06899139285087585
visibility: 0.9996514916419983
","x: 232.172607421875
y: 451.58453369140625
z: 0.041364796459674835
visibility: 0.9877169728279114
","x: 199.01669311523438
y: 458.81158447265625
z: -0.10024136304855347
visibility: 0.9945600628852844
","x: 223.92535400390625
y: 528.1766967773438
z: 0.17246155440807343
visibility: 0.986374020576477
","x: 168.507568359375
y: 525.2550659179688
z: 0.027478476986289024
visibility: 0.9920145869255066
","x: 218.38980102539062
y: 540.3765869140625
z: 0.1769249439239502
visibility: 0.8643952012062073
","x: 162.02113342285156
y: 532.0812377929688
z: 0.03435174375772476
visibility: 0.8554832935333252
","x: 233.26174926757812
y: 551.71044921875
z: 0.07641978561878204
visibility: 0.9802708029747009
","x: 168.20492553710938
y: 556.4539184570312
z: -0.07686323672533035
visibility: 0.9858660101890564
",,,,,,,,,,,,,,,,,,,,,,"x: 244.15362548828125
y: 361.7497253417969
z: 0.0
","x: 243.12698364257812
y: 367.3574523925781
z: -0.0023415314499288797
","x: 244.06854248046875
y: 373.33282470703125
z: -0.0028727976605296135
","x: 244.9757537841797
y: 379.3857421875
z: -0.003150713862851262
","x: 245.10903930664062
y: 384.1219787597656
z: -0.0028578846249729395
","x: 248.3760986328125
y: 377.5242919921875
z: -0.0009658724302425981
","x: 247.48521423339844
y: 386.6546325683594
z: -0.0016581501113250852
","x: 245.21327209472656
y: 389.3832092285156
z: -0.0014555273810401559
","x: 243.3404998779297
y: 389.74859619140625
z: -0.0009748299489729106
","x: 248.99168395996094
y: 378.366943359375
z: -0.0002831352758221328
","x: 247.5654296875
y: 387.3656005859375
z: -0.0007553134928457439
","x: 245.21412658691406
y: 389.66204833984375
z: -0.0006110185640864074
","x: 243.43145751953125
y: 389.97955322265625
z: -0.00029922890826128423
","x: 248.77735900878906
y: 378.73388671875
z: 8.175498805940151e-05
","x: 247.46279907226562
y: 386.8836975097656
z: -0.0006064089247956872
","x: 245.44085693359375
y: 389.0693664550781
z: -0.0006542344926856458
","x: 243.82266235351562
y: 389.68194580078125
z: -0.0004653302312362939
","x: 247.90008544921875
y: 378.8406677246094
z: 0.00013132719323039055
","x: 247.28811645507812
y: 385.5345458984375
z: -0.0006251647137105465
","x: 245.856201171875
y: 387.9249267578125
z: -0.0006752235349267721
","x: 244.4616241455078
y: 388.7626647949219
z: -0.0003246591368224472
"
22,"x: 224.58938598632812
y: 207.6509246826172
z: -0.16933538019657135
visibility: 0.9999678730964661
","x: 223.34259033203125
y: 202.05282592773438
z: -0.15283331274986267
visibility: 0.9999060034751892
","x: 223.8227081298828
y: 201.9556884765625
z: -0.15286573767662048
visibility: 0.9998989701271057
","x: 224.35130310058594
y: 201.93804931640625
z: -0.1528770625591278
visibility: 0.9999063014984131
","x: 221.39675903320312
y: 203.4120330810547
z: -0.17468984425067902
visibility: 0.999901294708252
","x: 220.44927978515625
y: 204.22523498535156
z: -0.17470701038837433
visibility: 0.9998935461044312
","x: 219.50543212890625
y: 205.11741638183594
z: -0.17476411163806915
visibility: 0.9998975396156311
","x: 224.22576904296875
y: 207.03858947753906
z: -0.05314455181360245
visibility: 0.9997329711914062
","x: 217.6674041748047
y: 210.93844604492188
z: -0.1515432894229889
visibility: 0.9998207688331604
","x: 226.44287109375
y: 214.821533203125
z: -0.13023047149181366
visibility: 0.9999487400054932
","x: 223.9282989501953
y: 215.87286376953125
z: -0.15868397057056427
visibility: 0.999953031539917
","x: 233.28021240234375
y: 257.1016540527344
z: 0.07145356386899948
visibility: 0.9999363422393799
","x: 208.5487518310547
y: 249.54864501953125
z: -0.175417959690094
visibility: 0.999952495098114
","x: 234.20806884765625
y: 318.150146484375
z: 0.13881152868270874
visibility: 0.8701255917549133
","x: 201.40036010742188
y: 311.06866455078125
z: -0.1826317310333252
visibility: 0.9798781871795654
","x: 246.36363220214844
y: 360.9097900390625
z: 0.0649203434586525
visibility: 0.9304644465446472
","x: 199.04969787597656
y: 366.5238037109375
z: -0.2226651906967163
visibility: 0.9777567982673645
","x: 249.60382080078125
y: 371.14764404296875
z: 0.05308913066983223
visibility: 0.8978708386421204
","x: 197.81353759765625
y: 381.1370544433594
z: -0.25547510385513306
visibility: 0.9562664031982422
","x: 250.025146484375
y: 372.6918029785156
z: 0.01574486494064331
visibility: 0.9080824851989746
","x: 199.66641235351562
y: 381.9176025390625
z: -0.2716832756996155
visibility: 0.9607376456260681
","x: 247.93038940429688
y: 369.2458801269531
z: 0.04625042527914047
visibility: 0.8965328931808472
","x: 200.79757690429688
y: 377.90704345703125
z: -0.22914354503154755
visibility: 0.9531430006027222
","x: 224.93380737304688
y: 366.52020263671875
z: 0.08543873578310013
visibility: 0.9996307492256165
","x: 210.32766723632812
y: 364.2682189941406
z: -0.0854850560426712
visibility: 0.9996281862258911
","x: 226.39248657226562
y: 448.8275451660156
z: 0.051248032599687576
visibility: 0.979607343673706
","x: 216.4728240966797
y: 449.8086853027344
z: -0.10600005090236664
visibility: 0.9944945573806763
","x: 221.8274688720703
y: 528.774658203125
z: 0.16782823204994202
visibility: 0.9854262471199036
","x: 185.1271514892578
y: 503.3187255859375
z: 0.058097194880247116
visibility: 0.9918158054351807
","x: 216.71250915527344
y: 541.7095336914062
z: 0.1706266552209854
visibility: 0.8716453909873962
","x: 178.26478576660156
y: 508.7522888183594
z: 0.06897804141044617
visibility: 0.861216127872467
","x: 233.99610900878906
y: 551.4575805664062
z: 0.08021076023578644
visibility: 0.9799489378929138
","x: 188.95877075195312
y: 533.8317260742188
z: -0.05702013894915581
visibility: 0.9860455989837646
",,,,,,,,,,,,,,,,,,,,,,,,,,,,,,,,,,,,,,,,,,
23,"x: 220.1342010498047
y: 205.02191162109375
z: -0.1598362922668457
visibility: 0.9999673962593079
","x: 219.27781677246094
y: 201.91424560546875
z: -0.14636285603046417
visibility: 0.99990314245224
","x: 220.20936584472656
y: 201.92247009277344
z: -0.14636003971099854
visibility: 0.9998970031738281
","x: 221.2579803466797
y: 201.99517822265625
z: -0.1463543027639389
visibility: 0.9999054670333862
","x: 216.94442749023438
y: 203.28094482421875
z: -0.16311921179294586
visibility: 0.9999020099639893
","x: 216.24221801757812
y: 204.0365753173828
z: -0.1631556898355484
visibility: 0.9998958706855774
","x: 215.5994415283203
y: 204.9458465576172
z: -0.16320782899856567
visibility: 0.9998971223831177
","x: 223.51080322265625
y: 208.33062744140625
z: -0.05924481153488159
visibility: 0.9997254610061646
","x: 215.75889587402344
y: 211.7061767578125
z: -0.1373191773891449
visibility: 0.99982750415802
","x: 224.0207977294922
y: 213.0550994873047
z: -0.12609337270259857
visibility: 0.9999486804008484
","x: 220.97897338867188
y: 213.85089111328125
z: -0.14830943942070007
visibility: 0.9999514222145081
","x: 235.46078491210938
y: 261.491455078125
z: 0.05488236993551254
visibility: 0.9999324679374695
","x: 211.4539794921875
y: 249.70419311523438
z: -0.17393459379673004
visibility: 0.9999552965164185
","x: 239.09774780273438
y: 318.36572265625
z: 0.11757443100214005
visibility: 0.84630286693573
","x: 202.77964782714844
y: 310.9277038574219
z: -0.2084997445344925
visibility: 0.9813618659973145
","x: 251.4193115234375
y: 363.03448486328125
z: 0.06634197384119034
visibility: 0.9212163090705872
","x: 197.8828125
y: 366.250732421875
z: -0.2966724932193756
visibility: 0.9787217378616333
","x: 255.5967559814453
y: 375.73406982421875
