uscmakers/ReverseChoreography/data/8_tik_tok_kesha.csv
,NOSE,LEFT_EYE_INNER,LEFT_EYE,LEFT_EYE_OUTER,RIGHT_EYE_INNER,RIGHT_EYE,RIGHT_EYE_OUTER,LEFT_EAR,RIGHT_EAR,MOUTH_LEFT,MOUTH_RIGHT,LEFT_SHOULDER,RIGHT_SHOULDER,LEFT_ELBOW,RIGHT_ELBOW,LEFT_WRIST,RIGHT_WRIST,LEFT_PINKY,RIGHT_PINKY,LEFT_INDEX,RIGHT_INDEX,LEFT_THUMB,RIGHT_THUMB,LEFT_HIP,RIGHT_HIP,LEFT_KNEE,RIGHT_KNEE,LEFT_ANKLE,RIGHT_ANKLE,LEFT_HEEL,RIGHT_HEEL,LEFT_FOOT_INDEX,RIGHT_FOOT_INDEX,WRIST,THUMB_CPC,THUMB_MCP,THUMB_IP,THUMB_TIP,INDEX_FINGER_MCP,INDEX_FINGER_PIP,INDEX_FINGER_DIP,INDEX_FINGER_TIP,MIDDLE_FINGER_MCP,MIDDLE_FINGER_PIP,MIDDLE_FINGER_DIP,MIDDLE_FINGER_TIP,RING_FINGER_PIP,RING_FINGER_DIP,RING_FINGER_TIP,RING_FINGER_MCP,PINKY_MCP,PINKY_PIP,PINKY_DIP,PINKY_TIP,WRIST2,THUMB_CPC2,THUMB_MCP2,THUMB_IP2,THUMB_TIP2,INDEX_FINGER_MCP2,INDEX_FINGER_PIP2,INDEX_FINGER_DIP2,INDEX_FINGER_TIP2,MIDDLE_FINGER_MCP2,MIDDLE_FINGER_PIP2,MIDDLE_FINGER_DIP2,MIDDLE_FINGER_TIP2,RING_FINGER_PIP2,RING_FINGER_DIP2,RING_FINGER_TIP2,RING_FINGER_MCP2,PINKY_MCP2,PINKY_PIP2,PINKY_DIP2,PINKY_TIP2
0,"x: 254.48544311523438
y: 198.6408233642578
z: -0.28621867299079895
visibility: 0.9999762773513794
","x: 256.7142639160156
y: 192.30471801757812
z: -0.26444995403289795
visibility: 0.999929666519165
","x: 258.44549560546875
y: 193.0039825439453
z: -0.2644892632961273
visibility: 0.9999313354492188
","x: 259.9092102050781
y: 193.64205932617188
z: -0.26450061798095703
visibility: 0.9999312162399292
","x: 252.43319702148438
y: 190.4026641845703
z: -0.26330116391181946
visibility: 0.9999157190322876
","x: 250.56967163085938
y: 189.99142456054688
z: -0.2632649540901184
visibility: 0.9999048709869385
","x: 248.740966796875
y: 189.69789123535156
z: -0.2632286250591278
visibility: 0.9999030828475952
","x: 261.49859619140625
y: 198.9788818359375
z: -0.1388653665781021
visibility: 0.9999070167541504
","x: 245.00653076171875
y: 193.8964080810547
z: -0.13228139281272888
visibility: 0.9997876286506653
","x: 255.99966430664062
y: 209.1035614013672
z: -0.238925501704216
visibility: 0.9999725818634033
","x: 250.09774780273438
y: 207.40652465820312
z: -0.2373296320438385
visibility: 0.999955415725708
","x: 270.8606872558594
y: 244.25570678710938
z: -0.09920920431613922
visibility: 0.9999842643737793
","x: 231.36245727539062
y: 244.81793212890625
z: 0.001651909900829196
visibility: 0.9998094439506531
","x: 279.3756103515625
y: 290.34063720703125
z: -0.17266756296157837
visibility: 0.9977268576622009
","x: 219.9329376220703
y: 303.80291748046875
z: 0.08462828397750854
visibility: 0.9564165472984314
","x: 249.33795166015625
y: 299.52593994140625
z: -0.37639114260673523
visibility: 0.997129499912262
","x: 216.747802734375
y: 358.59857177734375
z: -0.010109038092195988
visibility: 0.9574216604232788
","x: 242.88780212402344
y: 303.43792724609375
z: -0.4279385209083557
visibility: 0.9912934899330139
","x: 214.6300048828125
y: 377.1505126953125
z: -0.03517063707113266
visibility: 0.9204217791557312
","x: 240.24960327148438
y: 297.6097412109375
z: -0.4294002950191498
visibility: 0.9909969568252563
","x: 216.0458221435547
y: 377.4710693359375
z: -0.06832373142242432
visibility: 0.923901379108429
","x: 242.15354919433594
y: 296.36822509765625
z: -0.3797227442264557
visibility: 0.9834138751029968
","x: 217.6095428466797
y: 371.8646545410156
z: -0.025022810325026512
visibility: 0.9068707823753357
","x: 260.5166931152344
y: 364.9871520996094
z: -0.028690600767731667
visibility: 0.9995379447937012
","x: 235.7548370361328
y: 363.330078125
z: 0.02849094197154045
visibility: 0.9992771744728088
","x: 255.41404724121094
y: 459.0108947753906
z: -0.03499593585729599
visibility: 0.9957764744758606
","x: 232.54832458496094
y: 458.83648681640625
z: 0.02998748980462551
visibility: 0.9898259043693542
","x: 261.9869384765625
y: 538.9169921875
z: 0.1599264144897461
visibility: 0.9930283427238464
","x: 235.35406494140625
y: 540.5355224609375
z: 0.20643362402915955
visibility: 0.9881477952003479
","x: 264.80511474609375
y: 547.7244262695312
z: 0.17133666574954987
visibility: 0.7628615498542786
","x: 237.64109802246094
y: 550.69677734375
z: 0.21585401892662048
visibility: 0.8454794883728027
","x: 256.4896545410156
y: 571.7742919921875
z: 0.02566421963274479
visibility: 0.9870439171791077
","x: 233.1020965576172
y: 566.0245361328125
z: 0.08346109092235565
visibility: 0.9843741059303284
",,,,,,,,,,,,,,,,,,,,,,,,,,,,,,,,,,,,,,,,,,
1,"x: 259.8016052246094
y: 204.33819580078125
z: -0.26159828901290894
visibility: 0.9999770522117615
","x: 263.06683349609375
y: 199.66189575195312
z: -0.2367192953824997
visibility: 0.9999343156814575
","x: 264.4155578613281
y: 200.53378295898438
z: -0.2367430031299591
visibility: 0.9999348521232605
","x: 266.1249694824219
y: 201.61317443847656
z: -0.2367599904537201
visibility: 0.9999345541000366
","x: 258.8263244628906
y: 196.56884765625
z: -0.2433582842350006
visibility: 0.9999215006828308
","x: 257.3564147949219
y: 195.5908966064453
z: -0.24334771931171417
visibility: 0.9999111890792847
","x: 255.5364990234375
y: 194.6393585205078
z: -0.24329304695129395
visibility: 0.9999099969863892
","x: 267.1204833984375
y: 207.7450408935547
z: -0.09432875365018845
visibility: 0.9999100565910339
","x: 251.89398193359375
y: 198.7029266357422
z: -0.12690967321395874
visibility: 0.9998040795326233
","x: 260.3891906738281
y: 214.79342651367188
z: -0.20897340774536133
visibility: 0.9999738931655884
","x: 255.04525756835938
y: 211.10533142089844
z: -0.21873798966407776
visibility: 0.9999590516090393
","x: 272.5745544433594
y: 255.3560028076172
z: -0.026314448565244675
visibility: 0.999975860118866
","x: 231.3599853515625
y: 249.63143920898438
z: -0.033497463911771774
visibility: 0.9998131394386292
","x: 277.5597839355469
y: 319.2884521484375
z: -0.12386868894100189
visibility: 0.9940983653068542
","x: 218.32325744628906
y: 311.0699462890625
z: -0.13824424147605896
visibility: 0.9587160348892212
","x: 264.4860534667969
y: 299.8328552246094
z: -0.3767290711402893
visibility: 0.9947291612625122
","x: 226.0185546875
y: 301.6518249511719
z: -0.385710209608078
visibility: 0.9589294195175171
","x: 260.8349304199219
y: 298.5087890625
z: -0.4303743839263916
visibility: 0.986769437789917
","x: 229.87005615234375
y: 296.19403076171875
z: -0.4368947446346283
visibility: 0.9226435422897339
","x: 261.42041015625
y: 289.10064697265625
z: -0.4315658211708069
visibility: 0.9864197969436646
","x: 230.64022827148438
y: 286.6625671386719
z: -0.437635600566864
visibility: 0.9255307912826538
","x: 261.9181213378906
y: 289.34930419921875
z: -0.38185104727745056
visibility: 0.9766899347305298
","x: 230.5339813232422
y: 287.13592529296875
z: -0.390608012676239
visibility: 0.9074430465698242
","x: 261.3338928222656
y: 374.6516418457031
z: 0.011260155588388443
visibility: 0.9995644092559814
","x: 235.99948120117188
y: 373.10040283203125
z: -0.011443289928138256
visibility: 0.9993147850036621
","x: 268.2802429199219
y: 469.0374450683594
z: -0.03816605359315872
visibility: 0.9958138465881348
","x: 232.57293701171875
y: 465.72039794921875
z: -0.01993970200419426
visibility: 0.9899713397026062
","x: 261.93890380859375
y: 538.9365234375
z: 0.2532119154930115
visibility: 0.9922009110450745
","x: 233.76467895507812
y: 540.7365112304688
z: 0.2316710501909256
visibility: 0.9877738952636719
","x: 259.207763671875
y: 547.0140991210938
z: 0.27678704261779785
visibility: 0.771102786064148
","x: 235.67355346679688
y: 550.7564697265625
z: 0.2507345676422119
visibility: 0.8404619097709656
","x: 259.9629821777344
y: 571.8673095703125
z: 0.14477381110191345
visibility: 0.9860262274742126
","x: 233.1122283935547
y: 569.048828125
z: 0.10858243703842163
visibility: 0.983677089214325
",,,,,,,,,,,,,,,,,,,,,,,,,,,,,,,,,,,,,,,,,,
2,"x: 260.92022705078125
y: 204.13983154296875
z: -0.20642800629138947
visibility: 0.9999788999557495
","x: 263.78338623046875
y: 199.10733032226562
z: -0.1825561225414276
visibility: 0.9999402761459351
","x: 265.2369079589844
y: 200.0747528076172
z: -0.18259045481681824
visibility: 0.9999406933784485
","x: 266.7052001953125
y: 201.09469604492188
z: -0.18260222673416138
visibility: 0.9999403953552246
","x: 259.7069091796875
y: 196.15089416503906
z: -0.1910334825515747
visibility: 0.9999284148216248
","x: 257.9055480957031
y: 195.15692138671875
z: -0.1910143941640854
visibility: 0.9999188184738159
","x: 256.1925964355469
y: 194.22608947753906
z: -0.19096794724464417
visibility: 0.9999176263809204
","x: 267.8240051269531
y: 206.99720764160156
z: -0.04653090611100197
visibility: 0.9999178647994995
","x: 251.85711669921875
y: 198.37510681152344
z: -0.08843020349740982
visibility: 0.9998215436935425
","x: 261.64288330078125
y: 214.23463439941406
z: -0.15619483590126038
visibility: 0.9999760389328003
","x: 256.32861328125
y: 210.95269775390625
z: -0.16834162175655365
visibility: 0.9999626278877258
","x: 273.5057373046875
y: 255.58148193359375
z: 0.028741350397467613
visibility: 0.9999764561653137
","x: 231.57925415039062
y: 249.25660705566406
z: -0.021728241816163063
visibility: 0.9998180866241455
","x: 278.7966613769531
y: 318.51531982421875
z: -0.06933517754077911
visibility: 0.9934786558151245
","x: 218.37994384765625
y: 314.30615234375
z: -0.12904080748558044
visibility: 0.9609410166740417
","x: 286.0697326660156
y: 280.9156494140625
z: -0.32031741738319397
visibility: 0.9950582981109619
","x: 224.60362243652344
y: 269.84765625
z: -0.3773772120475769
visibility: 0.9624533653259277
","x: 290.939697265625
y: 270.0832824707031
z: -0.369467556476593
visibility: 0.9875553250312805
","x: 225.00790405273438
y: 256.08843994140625
z: -0.42348232865333557
visibility: 0.9290565252304077
","x: 292.05010986328125
y: 263.7396545410156
z: -0.3718941807746887
visibility: 0.9872405529022217
","x: 226.90805053710938
y: 251.6490478515625
z: -0.42874079942703247
visibility: 0.9316268563270569
","x: 289.2024841308594
y: 266.61083984375
z: -0.3278616666793823
visibility: 0.9781316518783569
","x: 226.76023864746094
y: 255.6433868408203
z: -0.3849693536758423
visibility: 0.9147118330001831
","x: 263.8497314453125
y: 373.49652099609375
z: 0.01937909424304962
visibility: 0.9995907545089722
","x: 237.53697204589844
y: 372.8930358886719
z: -0.019488709047436714
visibility: 0.9993447065353394
","x: 275.930419921875
y: 467.448486328125
z: -0.03279384970664978
visibility: 0.9959129691123962
","x: 232.88905334472656
y: 465.72564697265625
z: -0.03469712287187576
visibility: 0.9897231459617615
","x: 268.57501220703125
y: 539.02392578125
z: 0.20367677509784698
visibility: 0.991943895816803
","x: 231.6173858642578
y: 540.8980712890625
z: 0.19358108937740326
visibility: 0.9863607883453369
","x: 263.0179748535156
y: 547.05224609375
z: 0.21790742874145508
visibility: 0.7816048860549927
","x: 233.56251525878906
y: 551.0487060546875
z: 0.21071112155914307
visibility: 0.8297634720802307
","x: 270.6822814941406
y: 571.8596801757812
z: 0.1172405332326889
visibility: 0.9856879711151123
","x: 231.8743133544922
y: 569.4877319335938
z: 0.07823935896158218
visibility: 0.9821610450744629
","x: 225.31288146972656
y: 267.0784912109375
z: 0.0
","x: 227.20892333984375
y: 259.6441345214844
z: -0.002303756307810545
","x: 227.24246215820312
y: 251.45697021484375
z: -0.0026790988631546497
","x: 225.44192504882812
y: 246.1197509765625
z: -0.0033580062445253134
","x: 223.3074493408203
y: 243.8478240966797
z: -0.003887967439368367
","x: 221.76988220214844
y: 244.6308135986328
z: 0.0022246979642659426
","x: 219.6921844482422
y: 238.1295928955078
z: 0.001066426862962544
","x: 218.29718017578125
y: 234.78919982910156
z: -2.2421232642955147e-05
","x: 216.97447204589844
y: 231.8002166748047
z: -0.0007003687787801027
","x: 219.4329376220703
y: 246.3319091796875
z: 0.0015831683995202184
","x: 216.9563446044922
y: 240.15908813476562
z: 0.00123278284445405
","x: 215.40748596191406
y: 236.725830078125
z: 0.0004351746174506843
","x: 213.95343017578125
y: 233.6652374267578
z: -0.0002766569668892771
","x: 217.75238037109375
y: 249.209228515625
z: 9.17984070838429e-05
","x: 214.968017578125
y: 243.62594604492188
z: -0.0013414387358352542
","x: 213.19342041015625
y: 240.55519104003906
z: -0.002493946347385645
","x: 211.78155517578125
y: 238.14414978027344
z: -0.0031335388775914907
","x: 216.5526885986328
y: 253.28302001953125
z: -0.0019164748955518007
","x: 213.94415283203125
y: 249.6188507080078
z: -0.0035287379287183285
","x: 212.10858154296875
y: 247.65243530273438
z: -0.004245657008141279
","x: 210.65211486816406
y: 246.03970336914062
z: -0.004514911212027073
","x: 284.68572998046875
y: 272.4308776855469
z: 0.0
","x: 284.5415344238281
y: 264.3424377441406
z: -0.000919718062505126
","x: 286.6071472167969
y: 257.5538024902344
z: -0.0017372728325426579
","x: 289.1417236328125
y: 253.82913208007812
z: -0.0030595173593610525
","x: 290.9593811035156
y: 250.92977905273438
z: -0.004406236577779055
","x: 292.7373962402344
y: 256.3081970214844
z: 0.00035777228185907006
","x: 296.6585388183594
y: 251.46868896484375
z: -0.0017833346500992775
","x: 298.9482727050781
y: 248.71649169921875
z: -0.003298609284684062
","x: 300.8453063964844
y: 246.63308715820312
z: -0.004312717821449041
","x: 294.2809753417969
y: 259.9707946777344
z: -0.0015154570573940873
","x: 298.5061340332031
y: 254.95782470703125
z: -0.003433624980971217
","x: 301.0572814941406
y: 251.90826416015625
z: -0.004992058500647545
","x: 303.1875305175781
y: 249.498046875
z: -0.006203063298016787
","x: 295.07684326171875
y: 264.17926025390625
z: -0.00387874455191195
","x: 299.3149719238281
y: 259.7210693359375
z: -0.0062370384112000465
","x: 301.9001159667969
y: 256.53692626953125
z: -0.007863793522119522
","x: 304.056640625
y: 253.8054656982422
z: -0.009001589380204678
","x: 295.1419677734375
y: 269.18511962890625
z: -0.006534786894917488
","x: 298.6943664550781
y: 266.703125
z: -0.008621962741017342
","x: 300.89208984375
y: 264.7947998046875
z: -0.009753848426043987
","x: 302.8533020019531
y: 263.08087158203125
z: -0.0105478810146451
"
3,"x: 260.92022705078125
y: 204.13983154296875
z: -0.20642800629138947
visibility: 0.9999788999557495
","x: 263.78338623046875
y: 199.10733032226562
z: -0.1825561225414276
visibility: 0.9999402761459351
","x: 265.2369079589844
y: 200.0747528076172
z: -0.18259045481681824
visibility: 0.9999406933784485
","x: 266.7052001953125
y: 201.09469604492188
z: -0.18260222673416138
visibility: 0.9999403953552246
","x: 259.7069091796875
y: 196.15089416503906
z: -0.1910334825515747
visibility: 0.9999284148216248
","x: 257.9055480957031
y: 195.15692138671875
z: -0.1910143941640854
visibility: 0.9999188184738159
","x: 256.1925964355469
y: 194.22608947753906
z: -0.19096794724464417
visibility: 0.9999176263809204
","x: 267.8240051269531
y: 206.99720764160156
z: -0.04653090611100197
visibility: 0.9999178647994995
","x: 251.85711669921875
y: 198.37510681152344
z: -0.08843020349740982
visibility: 0.9998215436935425
","x: 261.64288330078125
y: 214.23463439941406
z: -0.15619483590126038
visibility: 0.9999760389328003
","x: 256.32861328125
y: 210.95269775390625
z: -0.16834162175655365
visibility: 0.9999626278877258
","x: 273.5057373046875
y: 255.58148193359375
z: 0.028741350397467613
visibility: 0.9999764561653137
","x: 231.57925415039062
y: 249.25660705566406
z: -0.021728241816163063
visibility: 0.9998180866241455
","x: 278.7966613769531
y: 318.51531982421875
z: -0.06933517754077911
visibility: 0.9934786558151245
","x: 218.37994384765625
y: 314.30615234375
z: -0.12904080748558044
visibility: 0.9609410166740417
","x: 286.0697326660156
y: 280.9156494140625
z: -0.32031741738319397
visibility: 0.9950582981109619
","x: 224.60362243652344
y: 269.84765625
z: -0.3773772120475769
visibility: 0.9624533653259277
","x: 290.939697265625
y: 270.0832824707031
z: -0.369467556476593
visibility: 0.9875553250312805
","x: 225.00790405273438
y: 256.08843994140625
z: -0.42348232865333557
visibility: 0.9290565252304077
","x: 292.05010986328125
y: 263.7396545410156
z: -0.3718941807746887
visibility: 0.9872405529022217
","x: 226.90805053710938
y: 251.6490478515625
z: -0.42874079942703247
visibility: 0.9316268563270569
","x: 289.2024841308594
y: 266.61083984375
z: -0.3278616666793823
visibility: 0.9781316518783569
","x: 226.76023864746094
y: 255.6433868408203
z: -0.3849693536758423
visibility: 0.9147118330001831
","x: 263.8497314453125
y: 373.49652099609375
z: 0.01937909424304962
visibility: 0.9995907545089722
","x: 237.53697204589844
y: 372.8930358886719
z: -0.019488709047436714
visibility: 0.9993447065353394
","x: 275.930419921875
y: 467.448486328125
z: -0.03279384970664978
visibility: 0.9959129691123962
","x: 232.88905334472656
y: 465.72564697265625
z: -0.03469712287187576
visibility: 0.9897231459617615
","x: 268.57501220703125
y: 539.02392578125
z: 0.20367677509784698
visibility: 0.991943895816803
","x: 231.6173858642578
y: 540.8980712890625
z: 0.19358108937740326
visibility: 0.9863607883453369
","x: 263.0179748535156
y: 547.05224609375
z: 0.21790742874145508
visibility: 0.7816048860549927
","x: 233.56251525878906
y: 551.0487060546875
z: 0.21071112155914307
visibility: 0.8297634720802307
","x: 270.6822814941406
y: 571.8596801757812
z: 0.1172405332326889
visibility: 0.9856879711151123
","x: 231.8743133544922
y: 569.4877319335938
z: 0.07823935896158218
visibility: 0.9821610450744629
","x: 225.31288146972656
y: 267.0784912109375
z: 0.0
","x: 227.20892333984375
y: 259.6441345214844
z: -0.002303756307810545
","x: 227.24246215820312
y: 251.45697021484375
z: -0.0026790988631546497
","x: 225.44192504882812
y: 246.1197509765625
z: -0.0033580062445253134
","x: 223.3074493408203
y: 243.8478240966797
z: -0.003887967439368367
","x: 221.76988220214844
y: 244.6308135986328
z: 0.0022246979642659426
","x: 219.6921844482422
y: 238.1295928955078
z: 0.001066426862962544
","x: 218.29718017578125
y: 234.78919982910156
z: -2.2421232642955147e-05
","x: 216.97447204589844
y: 231.8002166748047
z: -0.0007003687787801027
","x: 219.4329376220703
y: 246.3319091796875
z: 0.0015831683995202184
","x: 216.9563446044922
y: 240.15908813476562
z: 0.00123278284445405
","x: 215.40748596191406
y: 236.725830078125
z: 0.0004351746174506843
","x: 213.95343017578125
y: 233.6652374267578
z: -0.0002766569668892771
","x: 217.75238037109375
y: 249.209228515625
z: 9.17984070838429e-05
","x: 214.968017578125
y: 243.62594604492188
z: -0.0013414387358352542
","x: 213.19342041015625
y: 240.55519104003906
z: -0.002493946347385645
","x: 211.78155517578125
y: 238.14414978027344
z: -0.0031335388775914907
","x: 216.5526885986328
y: 253.28302001953125
z: -0.0019164748955518007
","x: 213.94415283203125
y: 249.6188507080078
z: -0.0035287379287183285
","x: 212.10858154296875
y: 247.65243530273438
z: -0.004245657008141279
","x: 210.65211486816406
y: 246.03970336914062
z: -0.004514911212027073
","x: 284.68572998046875
y: 272.4308776855469
z: 0.0
","x: 284.5415344238281
y: 264.3424377441406
z: -0.000919718062505126
","x: 286.6071472167969
y: 257.5538024902344
z: -0.0017372728325426579
","x: 289.1417236328125
y: 253.82913208007812
z: -0.0030595173593610525
","x: 290.9593811035156
y: 250.92977905273438
z: -0.004406236577779055
","x: 292.7373962402344
y: 256.3081970214844
z: 0.00035777228185907006
","x: 296.6585388183594
y: 251.46868896484375
z: -0.0017833346500992775
","x: 298.9482727050781
y: 248.71649169921875
z: -0.003298609284684062
","x: 300.8453063964844
y: 246.63308715820312
z: -0.004312717821449041
","x: 294.2809753417969
y: 259.9707946777344
z: -0.0015154570573940873
","x: 298.5061340332031
y: 254.95782470703125
z: -0.003433624980971217
","x: 301.0572814941406
y: 251.90826416015625
z: -0.004992058500647545
","x: 303.1875305175781
y: 249.498046875
z: -0.006203063298016787
","x: 295.07684326171875
y: 264.17926025390625
z: -0.00387874455191195
","x: 299.3149719238281
y: 259.7210693359375
z: -0.0062370384112000465
","x: 301.9001159667969
y: 256.53692626953125
z: -0.007863793522119522
","x: 304.056640625
y: 253.8054656982422
z: -0.009001589380204678
","x: 295.1419677734375
y: 269.18511962890625
z: -0.006534786894917488
","x: 298.6943664550781
y: 266.703125
z: -0.008621962741017342
","x: 300.89208984375
y: 264.7947998046875
z: -0.009753848426043987
","x: 302.8533020019531
y: 263.08087158203125
z: -0.0105478810146451
"
4,"x: 260.92022705078125
y: 204.13983154296875
z: -0.20642800629138947
visibility: 0.9999788999557495
","x: 263.78338623046875
y: 199.10733032226562
z: -0.1825561225414276
visibility: 0.9999402761459351
","x: 265.2369079589844
y: 200.0747528076172
z: -0.18259045481681824
visibility: 0.9999406933784485
","x: 266.7052001953125
y: 201.09469604492188
z: -0.18260222673416138
visibility: 0.9999403953552246
","x: 259.7069091796875
y: 196.15089416503906
z: -0.1910334825515747
visibility: 0.9999284148216248
","x: 257.9055480957031
y: 195.15692138671875
z: -0.1910143941640854
visibility: 0.9999188184738159
","x: 256.1925964355469
y: 194.22608947753906
z: -0.19096794724464417
visibility: 0.9999176263809204
","x: 267.8240051269531
y: 206.99720764160156
z: -0.04653090611100197
visibility: 0.9999178647994995
","x: 251.85711669921875
y: 198.37510681152344
z: -0.08843020349740982
visibility: 0.9998215436935425
","x: 261.64288330078125
y: 214.23463439941406
z: -0.15619483590126038
visibility: 0.9999760389328003
","x: 256.32861328125
y: 210.95269775390625
z: -0.16834162175655365
visibility: 0.9999626278877258
","x: 273.5057373046875
y: 255.58148193359375
z: 0.028741350397467613
visibility: 0.9999764561653137
","x: 231.57925415039062
y: 249.25660705566406
z: -0.021728241816163063
visibility: 0.9998180866241455
","x: 278.7966613769531
y: 318.51531982421875
z: -0.06933517754077911
visibility: 0.9934786558151245
","x: 218.37994384765625
y: 314.30615234375
z: -0.12904080748558044
visibility: 0.9609410166740417
","x: 286.0697326660156
y: 280.9156494140625
z: -0.32031741738319397
visibility: 0.9950582981109619
","x: 224.60362243652344
y: 269.84765625
z: -0.3773772120475769
visibility: 0.9624533653259277
","x: 290.939697265625
y: 270.0832824707031
z: -0.369467556476593
visibility: 0.9875553250312805
","x: 225.00790405273438
y: 256.08843994140625
z: -0.42348232865333557
visibility: 0.9290565252304077
","x: 292.05010986328125
y: 263.7396545410156
z: -0.3718941807746887
visibility: 0.9872405529022217
","x: 226.90805053710938
y: 251.6490478515625
z: -0.42874079942703247
visibility: 0.9316268563270569
","x: 289.2024841308594
y: 266.61083984375
z: -0.3278616666793823
visibility: 0.9781316518783569
","x: 226.76023864746094
y: 255.6433868408203
z: -0.3849693536758423
visibility: 0.9147118330001831
","x: 263.8497314453125
y: 373.49652099609375
z: 0.01937909424304962
visibility: 0.9995907545089722
","x: 237.53697204589844
y: 372.8930358886719
z: -0.019488709047436714
visibility: 0.9993447065353394
","x: 275.930419921875
y: 467.448486328125
z: -0.03279384970664978
visibility: 0.9959129691123962
","x: 232.88905334472656
y: 465.72564697265625
z: -0.03469712287187576
visibility: 0.9897231459617615
","x: 268.57501220703125
y: 539.02392578125
z: 0.20367677509784698
visibility: 0.991943895816803
","x: 231.6173858642578
y: 540.8980712890625
z: 0.19358108937740326
visibility: 0.9863607883453369
","x: 263.0179748535156
y: 547.05224609375
z: 0.21790742874145508
visibility: 0.7816048860549927
","x: 233.56251525878906
y: 551.0487060546875
z: 0.21071112155914307
visibility: 0.8297634720802307
","x: 270.6822814941406
y: 571.8596801757812
z: 0.1172405332326889
visibility: 0.9856879711151123
","x: 231.8743133544922
y: 569.4877319335938
z: 0.07823935896158218
visibility: 0.9821610450744629
","x: 225.31288146972656
y: 267.0784912109375
z: 0.0
","x: 227.20892333984375
y: 259.6441345214844
z: -0.002303756307810545
","x: 227.24246215820312
y: 251.45697021484375
z: -0.0026790988631546497
","x: 225.44192504882812
y: 246.1197509765625
z: -0.0033580062445253134
","x: 223.3074493408203
y: 243.8478240966797
z: -0.003887967439368367
","x: 221.76988220214844
y: 244.6308135986328
z: 0.0022246979642659426
","x: 219.6921844482422
y: 238.1295928955078
z: 0.001066426862962544
","x: 218.29718017578125
y: 234.78919982910156
z: -2.2421232642955147e-05
","x: 216.97447204589844
y: 231.8002166748047
z: -0.0007003687787801027
","x: 219.4329376220703
y: 246.3319091796875
z: 0.0015831683995202184
","x: 216.9563446044922
y: 240.15908813476562
z: 0.00123278284445405
","x: 215.40748596191406
y: 236.725830078125
z: 0.0004351746174506843
","x: 213.95343017578125
y: 233.6652374267578
z: -0.0002766569668892771
","x: 217.75238037109375
y: 249.209228515625
z: 9.17984070838429e-05
","x: 214.968017578125
y: 243.62594604492188
z: -0.0013414387358352542
","x: 213.19342041015625
y: 240.55519104003906
z: -0.002493946347385645
","x: 211.78155517578125
y: 238.14414978027344
z: -0.0031335388775914907
","x: 216.5526885986328
y: 253.28302001953125
z: -0.0019164748955518007
","x: 213.94415283203125
y: 249.6188507080078
z: -0.0035287379287183285
","x: 212.10858154296875
y: 247.65243530273438
z: -0.004245657008141279
","x: 210.65211486816406
y: 246.03970336914062
z: -0.004514911212027073
","x: 284.68572998046875
y: 272.4308776855469
z: 0.0
","x: 284.5415344238281
y: 264.3424377441406
z: -0.000919718062505126
","x: 286.6071472167969
y: 257.5538024902344
z: -0.0017372728325426579
","x: 289.1417236328125
y: 253.82913208007812
z: -0.0030595173593610525
","x: 290.9593811035156
y: 250.92977905273438
z: -0.004406236577779055
","x: 292.7373962402344
y: 256.3081970214844
z: 0.00035777228185907006
","x: 296.6585388183594
y: 251.46868896484375
z: -0.0017833346500992775
","x: 298.9482727050781
y: 248.71649169921875
z: -0.003298609284684062
","x: 300.8453063964844
y: 246.63308715820312
z: -0.004312717821449041
","x: 294.2809753417969
y: 259.9707946777344
z: -0.0015154570573940873
","x: 298.5061340332031
y: 254.95782470703125
z: -0.003433624980971217
","x: 301.0572814941406
y: 251.90826416015625
z: -0.004992058500647545
","x: 303.1875305175781
y: 249.498046875
z: -0.006203063298016787
","x: 295.07684326171875
y: 264.17926025390625
z: -0.00387874455191195
","x: 299.3149719238281
y: 259.7210693359375
z: -0.0062370384112000465
","x: 301.9001159667969
y: 256.53692626953125
z: -0.007863793522119522
","x: 304.056640625
y: 253.8054656982422
z: -0.009001589380204678
","x: 295.1419677734375
y: 269.18511962890625
z: -0.006534786894917488
","x: 298.6943664550781
y: 266.703125
z: -0.008621962741017342
","x: 300.89208984375
y: 264.7947998046875
z: -0.009753848426043987
","x: 302.8533020019531
y: 263.08087158203125
z: -0.0105478810146451
"
5,"x: 263.64825439453125
y: 208.16793823242188
z: -0.2333163321018219
visibility: 0.9999806880950928
","x: 265.7308044433594
y: 201.6817626953125
z: -0.2152462899684906
visibility: 0.999945878982544
","x: 267.2850036621094
y: 202.2812042236328
z: -0.21534006297588348
visibility: 0.9999462366104126
","x: 268.7906494140625
y: 202.9082489013672
z: -0.2154955416917801
visibility: 0.9999459385871887
","x: 261.1090393066406
y: 199.94448852539062
z: -0.2286890745162964
visibility: 0.9999348521232605
","x: 259.36083984375
y: 199.48818969726562
z: -0.22877545654773712
visibility: 0.9999260902404785
","x: 257.3831481933594
y: 199.07925415039062
z: -0.2287130057811737
visibility: 0.9999248385429382
","x: 269.98504638671875
y: 207.70791625976562
z: -0.04976581782102585
visibility: 0.999925434589386
","x: 253.2332000732422
y: 204.1537322998047
z: -0.12446948140859604
visibility: 0.9998377561569214
","x: 265.5456848144531
y: 217.4153289794922
z: -0.17363819479942322
visibility: 0.9999781250953674
","x: 259.5212707519531
y: 216.38185119628906
z: -0.1993524730205536
visibility: 0.9999659061431885
","x: 278.9571533203125
y: 256.31451416015625
z: -0.02126636728644371
visibility: 0.9999778270721436
","x: 236.87228393554688
y: 255.02305603027344
z: -0.05058057978749275
visibility: 0.9998199939727783
","x: 290.9863586425781
y: 317.04254150390625
z: -0.11273781210184097
visibility: 0.993454098701477
","x: 224.68569946289062
y: 319.1845397949219
z: -0.17606471478939056
visibility: 0.9626874327659607
","x: 302.0224609375
y: 283.4851989746094
z: -0.38633596897125244
visibility: 0.9953944087028503
","x: 223.57643127441406
y: 277.7755126953125
z: -0.4559679627418518
visibility: 0.9654191136360168
","x: 308.2552490234375
y: 274.8022155761719
z: -0.43632155656814575
visibility: 0.9883055090904236
","x: 221.80718994140625
y: 264.2725830078125
z: -0.5064104795455933
visibility: 0.9344449043273926
","x: 307.7384338378906
y: 268.02783203125
z: -0.44200849533081055
visibility: 0.9880355596542358
","x: 221.8958740234375
y: 259.3802185058594
z: -0.5134751200675964
visibility: 0.9367640018463135
","x: 304.9010009765625
y: 270.9087829589844
z: -0.3956526815891266
visibility: 0.9795201420783997
","x: 224.43984985351562
y: 263.1075439453125
z: -0.4658483564853668
visibility: 0.9208309054374695
","x: 271.33367919921875
y: 376.03985595703125
z: 0.014792710542678833
visibility: 0.9996089339256287
","x: 245.854736328125
y: 376.9859313964844
z: -0.014881801791489124
visibility: 0.9993691444396973
","x: 279.6712341308594
y: 471.1910705566406
z: -0.017595075070858
visibility: 0.9958862066268921
","x: 239.00955200195312
y: 473.47235107421875
z: -0.03150355443358421
visibility: 0.9898435473442078
","x: 278.9127197265625
y: 544.4373168945312
z: 0.19595341384410858
visibility: 0.991639256477356
","x: 231.48846435546875
y: 543.863037109375
z: 0.18231123685836792
visibility: 0.9857454895973206
","x: 274.8328857421875
y: 554.4293823242188
z: 0.2094866931438446
visibility: 0.7919213175773621
","x: 233.38540649414062
y: 553.6380615234375
z: 0.1974349021911621
visibility: 0.8215697407722473
","x: 280.4128112792969
y: 573.7880249023438
z: 0.083420529961586
visibility: 0.9851589798927307
","x: 231.62037658691406
y: 570.6476440429688
z: 0.0665399357676506
visibility: 0.9810104370117188
",,,,,,,,,,,,,,,,,,,,,,,,,,,,,,,,,,,,,,,,,,
6,"x: 262.7038879394531
y: 210.8330078125
z: -0.26761162281036377
visibility: 0.9999811053276062
","x: 264.59100341796875
y: 203.00604248046875
z: -0.25146859884262085
visibility: 0.9999489188194275
","x: 266.2218322753906
y: 203.14430236816406
z: -0.25153011083602905
visibility: 0.9999488592147827
","x: 267.83856201171875
y: 203.4813690185547
z: -0.25158923864364624
visibility: 0.9999482035636902
","x: 259.9432678222656
y: 203.18345642089844
z: -0.2523987591266632
visibility: 0.9999381899833679
","x: 258.16900634765625
y: 203.53152465820312
z: -0.25246661901474
visibility: 0.9999298453330994
","x: 256.2117919921875
y: 204.0221405029297
z: -0.25244301557540894
visibility: 0.9999287724494934
","x: 270.04742431640625
y: 208.00209045410156
z: -0.11530178785324097
visibility: 0.9999282956123352
","x: 252.90036010742188
y: 209.194091796875
z: -0.1258174479007721
visibility: 0.9998466968536377
","x: 265.1792907714844
y: 219.54141235351562
z: -0.21597452461719513
visibility: 0.99997878074646
","x: 259.277587890625
y: 219.8167724609375
z: -0.21926160156726837
visibility: 0.9999675750732422
","x: 282.0929870605469
y: 258.10528564453125
z: -0.03822289779782295
visibility: 0.9999661445617676
","x: 240.9556427001953
y: 260.31036376953125
z: -0.039812199771404266
visibility: 0.9998185634613037
","x: 288.950439453125
y: 322.1309814453125
z: -0.15647463500499725
visibility: 0.9870832562446594
","x: 231.70928955078125
y: 329.1399841308594
z: -0.14364445209503174
visibility: 0.9614936709403992
","x: 292.048095703125
y: 299.6178283691406
z: -0.442277729511261
visibility: 0.9911686182022095
","x: 231.00888061523438
y: 292.9779357910156
z: -0.4287688136100769
visibility: 0.9665105938911438
","x: 293.77325439453125
y: 295.56756591796875
z: -0.4956948161125183
visibility: 0.9818542003631592
","x: 228.51104736328125
y: 286.368896484375
z: -0.4823381304740906
visibility: 0.9370562434196472
","x: 293.8008117675781
y: 292.3366394042969
z: -0.5053592324256897
visibility: 0.9817506670951843
","x: 228.24913024902344
y: 281.37432861328125
z: -0.4903939664363861
visibility: 0.9391416311264038
","x: 292.4013977050781
y: 292.8174743652344
z: -0.45276325941085815
visibility: 0.9705743789672852
","x: 230.13722229003906
y: 282.8858642578125
z: -0.4388677477836609
visibility: 0.9231003522872925
","x: 274.4620361328125
y: 381.0978698730469
z: 0.0058802589774131775
visibility: 0.9996078610420227
","x: 248.66578674316406
y: 381.1639709472656
z: -0.0060060336254537106
visibility: 0.9993897080421448
","x: 283.1325988769531
y: 477.2502136230469
z: -0.025812724605202675
visibility: 0.996026337146759
","x: 239.460205078125
y: 476.1513671875
z: -0.020895812660455704
visibility: 0.9905986189842224
","x: 282.18817138671875
y: 545.1683349609375
z: 0.2200380563735962
visibility: 0.991909384727478
","x: 235.42880249023438
y: 545.0751342773438
z: 0.2109018862247467
visibility: 0.9867408871650696
","x: 278.326904296875
y: 554.142333984375
z: 0.23768234252929688
visibility: 0.8037785887718201
","x: 238.95840454101562
y: 555.9217529296875
z: 0.22825837135314941
visibility: 0.8313520550727844
","x: 283.4844665527344
y: 575.6102294921875
z: 0.0993819385766983
visibility: 0.9856426119804382
","x: 230.95608520507812
y: 571.3751831054688
z: 0.08768105506896973
visibility: 0.9821416735649109
",,,,,,,,,,,,,,,,,,,,,,,,,,,,,,,,,,,,,,,,,,
7,"x: 261.2864990234375
y: 209.41275024414062
z: -0.2706753611564636
visibility: 0.9999827742576599
","x: 263.9771423339844
y: 202.3587188720703
z: -0.25269269943237305
visibility: 0.9999536871910095
","x: 265.4875793457031
y: 203.05401611328125
z: -0.2527269721031189
visibility: 0.9999536275863647
","x: 267.76611328125
y: 202.84498596191406
z: -0.25275716185569763
visibility: 0.9999529719352722
","x: 258.1119384765625
y: 201.61338806152344
z: -0.25270533561706543
visibility: 0.9999438524246216
","x: 255.61334228515625
y: 201.7257537841797
z: -0.2527562975883484
visibility: 0.9999362826347351
","x: 253.79010009765625
y: 201.99644470214844
z: -0.25273120403289795
visibility: 0.9999352693557739
","x: 269.0979309082031
y: 207.28506469726562
z: -0.12161791324615479
visibility: 0.9999349117279053
","x: 252.0401611328125
y: 207.03607177734375
z: -0.12501759827136993
visibility: 0.9998608827590942
","x: 264.3869323730469
y: 218.48919677734375
z: -0.22137367725372314
visibility: 0.9999806880950928
","x: 258.5429992675781
y: 218.28286743164062
z: -0.22156746685504913
visibility: 0.9999704360961914
","x: 281.0694885253906
y: 257.6792297363281
z: -0.05247967690229416
visibility: 0.9999673366546631
","x: 239.03628540039062
y: 258.30584716796875
z: -0.04295065253973007
visibility: 0.9998185634613037
","x: 288.93212890625
y: 319.2550354003906
z: -0.2036089152097702
visibility: 0.987790048122406
","x: 228.7579803466797
y: 323.8856201171875
z: -0.18356646597385406
visibility: 0.9623404145240784
","x: 281.65118408203125
y: 289.8312683105469
z: -0.45273488759994507
visibility: 0.9916260242462158
","x: 235.74832153320312
y: 282.1789855957031
z: -0.45222005248069763
visibility: 0.967714786529541
","x: 281.58880615234375
y: 280.8356628417969
z: -0.5007345080375671
visibility: 0.9824270606040955
","x: 237.12744140625
y: 272.8994140625
z: -0.5042250156402588
visibility: 0.9385533332824707
","x: 280.5298767089844
y: 276.30029296875
z: -0.49432581663131714
visibility: 0.9822534322738647
","x: 237.27420043945312
y: 265.0368957519531
z: -0.49725404381752014
visibility: 0.9399666786193848
","x: 280.0248107910156
y: 278.1820373535156
z: -0.45435744524002075
visibility: 0.9711620807647705
","x: 238.03509521484375
y: 267.20806884765625
z: -0.45554977655410767
visibility: 0.9231666326522827
","x: 271.9644775390625
y: 380.0001220703125
z: 0.0019572931341826916
visibility: 0.9996364712715149
","x: 245.8931884765625
y: 379.0821533203125
z: -0.0021686707623302937
visibility: 0.9994320869445801
","x: 278.97943115234375
y: 474.4046325683594
z: -0.051425136625766754
visibility: 0.9961951375007629
","x: 233.330078125
y: 475.9085693359375
z: -0.032750122249126434
visibility: 0.991306483745575
","x: 282.4939880371094
y: 545.2646484375
z: 0.194912850856781
visibility: 0.9923011660575867
","x: 234.23565673828125
y: 539.9261474609375
z: 0.22742295265197754
visibility: 0.9874629378318787
","x: 281.2392578125
y: 554.1234130859375
z: 0.21399283409118652
visibility: 0.8110855221748352
","x: 238.5106201171875
y: 549.4291381835938
z: 0.2481568157672882
visibility: 0.8387419581413269
","x: 281.42041015625
y: 575.79150390625
z: 0.06576462090015411
visibility: 0.9862979650497437
","x: 229.13909912109375
y: 570.2413330078125
z: 0.12499680370092392
visibility: 0.9828940629959106
","x: 238.3282928466797
y: 278.1768493652344
z: 0.0
","x: 242.4383087158203
y: 273.8912048339844
z: -0.00014464094419963658
","x: 245.59873962402344
y: 268.9870910644531
z: -0.0011122719151899219
","x: 247.19850158691406
y: 264.5032043457031
z: -0.002938169287517667
","x: 247.37091064453125
y: 260.5550537109375
z: -0.004392294213175774
","x: 243.42050170898438
y: 262.4419250488281
z: 0.0010354970581829548
","x: 244.34097290039062
y: 256.1990661621094
z: -0.0017306156223639846
","x: 245.29432678222656
y: 256.218994140625
z: -0.003205051878467202
","x: 245.8166046142578
y: 257.3813171386719
z: -0.003765388624742627
","x: 241.27713012695312
y: 262.13128662109375
z: -0.0009888625936582685
","x: 242.21360778808594
y: 255.75279235839844
z: -0.004360213875770569
","x: 243.05917358398438
y: 257.558349609375
z: -0.005298949778079987
","x: 243.31764221191406
y: 260.4625244140625
z: -0.005079006310552359
","x: 238.9951629638672
y: 262.434326171875
z: -0.00352071993984282
","x: 239.71893310546875
y: 256.0381774902344
z: -0.006030441261827946
","x: 240.5508575439453
y: 257.2935791015625
z: -0.0053009032271802425
","x: 240.92343139648438
y: 259.72149658203125
z: -0.00426541268825531
","x: 236.54470825195312
y: 263.3439025878906
z: -0.006406803615391254
","x: 236.8577880859375
y: 257.566162109375
z: -0.007815911434590816
","x: 237.7695770263672
y: 256.9369201660156
z: -0.007284141145646572
","x: 238.47341918945312
y: 257.4612121582031
z: -0.00650510098785162
",,,,,,,,,,,,,,,,,,,,,
8,"x: 261.2864990234375
y: 209.41275024414062
z: -0.2706753611564636
visibility: 0.9999827742576599
","x: 263.9771423339844
y: 202.3587188720703
z: -0.25269269943237305
visibility: 0.9999536871910095
","x: 265.4875793457031
y: 203.05401611328125
z: -0.2527269721031189
visibility: 0.9999536275863647
","x: 267.76611328125
y: 202.84498596191406
z: -0.25275716185569763
visibility: 0.9999529719352722
","x: 258.1119384765625
y: 201.61338806152344
z: -0.25270533561706543
visibility: 0.9999438524246216
","x: 255.61334228515625
y: 201.7257537841797
z: -0.2527562975883484
visibility: 0.9999362826347351
","x: 253.79010009765625
y: 201.99644470214844
z: -0.25273120403289795
visibility: 0.9999352693557739
","x: 269.0979309082031
y: 207.28506469726562
z: -0.12161791324615479
visibility: 0.9999349117279053
","x: 252.0401611328125
y: 207.03607177734375
z: -0.12501759827136993
visibility: 0.9998608827590942
","x: 264.3869323730469
y: 218.48919677734375
z: -0.22137367725372314
visibility: 0.9999806880950928
","x: 258.5429992675781
y: 218.28286743164062
z: -0.22156746685504913
visibility: 0.9999704360961914
","x: 281.0694885253906
y: 257.6792297363281
z: -0.05247967690229416
visibility: 0.9999673366546631
","x: 239.03628540039062
y: 258.30584716796875
z: -0.04295065253973007
visibility: 0.9998185634613037
","x: 288.93212890625
y: 319.2550354003906
z: -0.2036089152097702
visibility: 0.987790048122406
","x: 228.7579803466797
y: 323.8856201171875
z: -0.18356646597385406
visibility: 0.9623404145240784
","x: 281.65118408203125
y: 289.8312683105469
z: -0.45273488759994507
visibility: 0.9916260242462158
","x: 235.74832153320312
y: 282.1789855957031
z: -0.45222005248069763
visibility: 0.967714786529541
","x: 281.58880615234375
y: 280.8356628417969
z: -0.5007345080375671
visibility: 0.9824270606040955
","x: 237.12744140625
y: 272.8994140625
z: -0.5042250156402588
visibility: 0.9385533332824707
","x: 280.5298767089844
y: 276.30029296875
z: -0.49432581663131714
visibility: 0.9822534322738647
","x: 237.27420043945312
y: 265.0368957519531
z: -0.49725404381752014
visibility: 0.9399666786193848
","x: 280.0248107910156
y: 278.1820373535156
z: -0.45435744524002075
visibility: 0.9711620807647705
","x: 238.03509521484375
y: 267.20806884765625
z: -0.45554977655410767
visibility: 0.9231666326522827
","x: 271.9644775390625
y: 380.0001220703125
z: 0.0019572931341826916
visibility: 0.9996364712715149
","x: 245.8931884765625
y: 379.0821533203125
z: -0.0021686707623302937
visibility: 0.9994320869445801
","x: 278.97943115234375
y: 474.4046325683594
z: -0.051425136625766754
visibility: 0.9961951375007629
","x: 233.330078125
y: 475.9085693359375
z: -0.032750122249126434
visibility: 0.991306483745575
","x: 282.4939880371094
y: 545.2646484375
z: 0.194912850856781
visibility: 0.9923011660575867
","x: 234.23565673828125
y: 539.9261474609375
z: 0.22742295265197754
visibility: 0.9874629378318787
","x: 281.2392578125
y: 554.1234130859375
z: 0.21399283409118652
visibility: 0.8110855221748352
","x: 238.5106201171875
y: 549.4291381835938
z: 0.2481568157672882
visibility: 0.8387419581413269
","x: 281.42041015625
y: 575.79150390625
z: 0.06576462090015411
visibility: 0.9862979650497437
","x: 229.13909912109375
y: 570.2413330078125
z: 0.12499680370092392
visibility: 0.9828940629959106
","x: 238.3282928466797
y: 278.1768493652344
z: 0.0
","x: 242.4383087158203
y: 273.8912048339844
z: -0.00014464094419963658
","x: 245.59873962402344
y: 268.9870910644531
z: -0.0011122719151899219
","x: 247.19850158691406
y: 264.5032043457031
z: -0.002938169287517667
","x: 247.37091064453125
y: 260.5550537109375
z: -0.004392294213175774
","x: 243.42050170898438
y: 262.4419250488281
z: 0.0010354970581829548
","x: 244.34097290039062
y: 256.1990661621094
z: -0.0017306156223639846
","x: 245.29432678222656
y: 256.218994140625
z: -0.003205051878467202
","x: 245.8166046142578
y: 257.3813171386719
z: -0.003765388624742627
","x: 241.27713012695312
y: 262.13128662109375
z: -0.0009888625936582685
","x: 242.21360778808594
y: 255.75279235839844
z: -0.004360213875770569
","x: 243.05917358398438
y: 257.558349609375
z: -0.005298949778079987
","x: 243.31764221191406
y: 260.4625244140625
z: -0.005079006310552359
","x: 238.9951629638672
y: 262.434326171875
z: -0.00352071993984282
","x: 239.71893310546875
y: 256.0381774902344
z: -0.006030441261827946
","x: 240.5508575439453
y: 257.2935791015625
z: -0.0053009032271802425
","x: 240.92343139648438
y: 259.72149658203125
z: -0.00426541268825531
","x: 236.54470825195312
y: 263.3439025878906
z: -0.006406803615391254
","x: 236.8577880859375
y: 257.566162109375
z: -0.007815911434590816
","x: 237.7695770263672
y: 256.9369201660156
z: -0.007284141145646572
","x: 238.47341918945312
y: 257.4612121582031
z: -0.00650510098785162
",,,,,,,,,,,,,,,,,,,,,
9,"x: 253.84446716308594
y: 202.46743774414062
z: -0.1257707178592682
visibility: 0.9999833106994629
","x: 257.02716064453125
y: 196.12811279296875
z: -0.10315780341625214
visibility: 0.9999567270278931
","x: 259.15771484375
y: 196.58172607421875
z: -0.10318055003881454
visibility: 0.9999562501907349
","x: 261.0927734375
y: 196.54385375976562
z: -0.10320937633514404
visibility: 0.9999557137489319
","x: 251.1572723388672
y: 195.57781982421875
z: -0.10523377358913422
visibility: 0.9999476671218872
","x: 249.5674591064453
y: 195.5386962890625
z: -0.10521531105041504
visibility: 0.9999405145645142
","x: 248.04833984375
y: 195.63275146484375
z: -0.10514768213033676
visibility: 0.9999398589134216
","x: 263.0130920410156
y: 202.30223083496094
z: 0.01856442168354988
visibility: 0.9999380111694336
","x: 245.3018798828125
y: 201.13861083984375
z: 0.007729365490376949
visibility: 0.9998722076416016
","x: 256.8314208984375
y: 213.8082733154297
z: -0.08085983991622925
visibility: 0.9999810457229614
","x: 250.41128540039062
y: 212.43295288085938
z: -0.08412820100784302
visibility: 0.9999720454216003
","x: 272.4765319824219
y: 254.2400360107422
z: 0.06782779842615128
visibility: 0.9999669790267944
","x: 229.76608276367188
y: 252.3716583251953
z: 0.05598040297627449
visibility: 0.9998283386230469
","x: 282.43603515625
y: 317.6233215332031
z: -0.05906365439295769
visibility: 0.9879582524299622
","x: 220.43984985351562
y: 313.65948486328125
z: -0.10431525856256485
visibility: 0.9639443755149841
","x: 264.7752380371094
y: 274.5959167480469
z: -0.24847343564033508
visibility: 0.9912221431732178
","x: 235.47763061523438
y: 275.2038269042969
z: -0.2831302285194397
visibility: 0.9682174324989319
","x: 261.19927978515625
y: 266.7309875488281
z: -0.2914717197418213
visibility: 0.9805088639259338
","x: 238.90602111816406
y: 266.52154541015625
z: -0.3317157030105591
visibility: 0.9372010231018066
","x: 260.5899658203125
y: 261.6002502441406
z: -0.2767046093940735
visibility: 0.9801110625267029
","x: 239.38087463378906
y: 260.4784851074219
z: -0.2983148992061615
visibility: 0.9375371932983398
","x: 260.9320068359375
y: 264.08038330078125
z: -0.2466801404953003
visibility: 0.967857301235199
","x: 239.46055603027344
y: 262.7801818847656
z: -0.2717262804508209
visibility: 0.9189538955688477
","x: 263.22869873046875
y: 374.78802490234375
z: 0.004900278523564339
visibility: 0.9996669888496399
","x: 238.16015625
y: 372.3927001953125
z: -0.004961398430168629
visibility: 0.9994780421257019
","x: 271.12652587890625
y: 471.15655517578125
z: -0.022166457027196884
visibility: 0.9958028793334961
","x: 226.9641876220703
y: 472.74169921875
z: -0.025089319795370102
visibility: 0.9910675883293152
","x: 278.30914306640625
y: 548.4510498046875
z: 0.13538162410259247
visibility: 0.9919869303703308
","x: 218.14068603515625
y: 539.904296875
z: 0.19552138447761536
visibility: 0.9862804412841797
","x: 277.3387451171875
y: 560.2332153320312
z: 0.1435183584690094
visibility: 0.812411904335022
","x: 218.3699493408203
y: 549.5030517578125
z: 0.21169114112854004
visibility: 0.8248484134674072
","x: 281.1053466796875
y: 575.6683959960938
z: 0.006876909639686346
visibility: 0.9853107929229736
","x: 216.3489532470703
y: 570.177978515625
z: 0.09652164578437805
visibility: 0.9801927208900452
",,,,,,,,,,,,,,,,,,,,,,,,,,,,,,,,,,,,,,,,,,
10,"x: 241.71475219726562
y: 204.9495086669922
z: -0.16391882300376892
visibility: 0.9999846816062927
","x: 245.01718139648438
y: 199.6256103515625
z: -0.1384601891040802
visibility: 0.9999605417251587
","x: 246.71556091308594
y: 200.86810302734375
z: -0.13851317763328552
visibility: 0.9999599456787109
","x: 248.07005310058594
y: 201.70388793945312
z: -0.13854382932186127
visibility: 0.9999595284461975
","x: 240.5471954345703
y: 196.95974731445312
z: -0.14593040943145752
visibility: 0.9999523162841797
","x: 238.66000366210938
y: 196.40414428710938
z: -0.14590461552143097
visibility: 0.9999457597732544
","x: 236.8499298095703
y: 196.0240936279297
z: -0.1458306610584259
visibility: 0.9999452233314514
","x: 249.39256286621094
y: 206.8467559814453
z: -0.0046075452119112015
visibility: 0.9999422430992126
","x: 232.9767608642578
y: 201.0631561279297
z: -0.04103465750813484
visibility: 0.9998840093612671
","x: 242.48248291015625
y: 215.87371826171875
z: -0.11502585560083389
visibility: 0.999982476234436
","x: 236.3060302734375
y: 213.41261291503906
z: -0.12564775347709656
visibility: 0.9999745488166809
","x: 254.85488891601562
y: 254.4662628173828
z: 0.05552663654088974
visibility: 0.9999687075614929
","x: 214.96861267089844
y: 252.13345336914062
z: 0.02128249779343605
visibility: 0.99984210729599
","x: 265.01910400390625
y: 317.0513610839844
z: 0.012872347608208656
visibility: 0.9868369698524475
","x: 207.89515686035156
y: 312.46160888671875
z: -0.04559605196118355
visibility: 0.965690553188324
","x: 255.2992401123047
y: 328.55047607421875
z: -0.18420293927192688
visibility: 0.9895731210708618
","x: 233.06678771972656
y: 328.3697814941406
z: -0.18197879195213318
visibility: 0.9679907560348511
","x: 253.2642822265625
y: 342.5252685546875
z: -0.23936577141284943
visibility: 0.97724449634552
","x: 233.5576171875
y: 341.22979736328125
z: -0.22792434692382812
visibility: 0.9373072385787964
","x: 249.80340576171875
y: 340.00628662109375
z: -0.2566940486431122
visibility: 0.9771618247032166
","x: 234.97158813476562
y: 338.0813293457031
z: -0.2428021878004074
visibility: 0.9377264976501465
","x: 249.40194702148438
y: 335.48223876953125
z: -0.1968754678964615
visibility: 0.9642754197120667
","x: 234.8990936279297
y: 332.5377197265625
z: -0.18948447704315186
visibility: 0.9186976552009583
","x: 249.54042053222656
y: 374.6184997558594
z: 0.018080715090036392
visibility: 0.999693751335144
","x: 223.79978942871094
y: 372.3526306152344
z: -0.018123315647244453
visibility: 0.9995188117027283
","x: 264.45025634765625
y: 470.51629638671875
z: -0.01233378890901804
visibility: 0.9956544637680054
","x: 219.1990203857422
y: 471.3161926269531
z: -0.03494624048471451
visibility: 0.9911242127418518
","x: 276.1861572265625
y: 548.6217041015625
z: 0.12343486398458481
visibility: 0.9920362830162048
","x: 215.16192626953125
y: 542.3448486328125
z: 0.15228180587291718
visibility: 0.9859936237335205
","x: 271.5652770996094
y: 559.75244140625
z: 0.1290411800146103
visibility: 0.8232849836349487
","x: 215.53952026367188
y: 551.9909057617188
z: 0.16335895657539368
visibility: 0.8148728013038635
","x: 283.4287109375
y: 575.6505126953125
z: -0.008308527059853077
visibility: 0.9852116107940674
","x: 215.39219665527344
y: 570.878662109375
z: 0.027387941256165504
visibility: 0.9789279699325562
",,,,,,,,,,,,,,,,,,,,,,,,,,,,,,,,,,,,,,,,,,
11,"x: 235.1667938232422
y: 212.08953857421875
z: -0.30086180567741394
visibility: 0.9999845623970032
","x: 238.04855346679688
y: 205.94383239746094
z: -0.27818065881729126
visibility: 0.9999596476554871
","x: 239.35855102539062
y: 206.89268493652344
z: -0.2782021462917328
visibility: 0.9999578595161438
","x: 240.51409912109375
y: 207.8126678466797
z: -0.27821654081344604
visibility: 0.9999575018882751
","x: 234.0245819091797
y: 203.14125061035156
z: -0.2913554310798645
visibility: 0.9999523758888245
","x: 232.2496795654297
y: 202.00341796875
z: -0.29135316610336304
visibility: 0.9999459981918335
","x: 230.46377563476562
y: 200.7761993408203
z: -0.2913542091846466
visibility: 0.9999459981918335
","x: 240.01919555664062
y: 211.41090393066406
z: -0.13644468784332275
visibility: 0.9999291300773621
","x: 225.4022216796875
y: 202.94517517089844
z: -0.19962623715400696
visibility: 0.9998888969421387
","x: 234.83921813964844
y: 221.40185546875
z: -0.24626120924949646
visibility: 0.9999814629554749
","x: 230.1062774658203
y: 218.88385009765625
z: -0.26485222578048706
visibility: 0.9999755620956421
","x: 245.69131469726562
y: 254.2636260986328
z: -0.017392534762620926
visibility: 0.9999679923057556
","x: 204.97640991210938
y: 252.08753967285156
z: -0.12259633839130402
visibility: 0.9998511672019958
","x: 255.40707397460938
y: 316.5265197753906
z: 0.028624873608350754
visibility: 0.9839244484901428
","x: 201.67019653320312
y: 313.19781494140625
z: -0.11965310573577881
visibility: 0.9679006338119507
","x: 254.16896057128906
y: 350.2246398925781
z: -0.11082674562931061
visibility: 0.9856126308441162
","x: 227.7635498046875
y: 339.4048767089844
z: -0.19702231884002686
visibility: 0.9689695835113525
","x: 254.4654541015625
y: 365.936279296875
z: -0.14988256990909576
visibility: 0.9697977900505066
","x: 232.38377380371094
y: 349.2159729003906
z: -0.24301716685295105
visibility: 0.9393483400344849
","x: 252.1575164794922
y: 363.3027648925781
z: -0.184373676776886
visibility: 0.9701874256134033
","x: 232.66558837890625
y: 343.8869934082031
z: -0.2773849070072174
visibility: 0.9397547245025635
","x: 251.1807403564453
y: 357.6174621582031
z: -0.1282547265291214
visibility: 0.956319272518158
","x: 233.5680389404297
y: 339.76849365234375
z: -0.20489318668842316
visibility: 0.9205309152603149
","x: 242.3162841796875
y: 374.2765808105469
z: 0.02337544411420822
visibility: 0.9997017979621887
","x: 216.24156188964844
y: 373.4599304199219
z: -0.023458663374185562
visibility: 0.9995324611663818
","x: 259.9504089355469
y: 464.7002868652344
z: -0.0015927425120025873
visibility: 0.9958267211914062
","x: 213.2139129638672
y: 471.0198974609375
z: -0.03465690463781357
visibility: 0.9915330410003662
","x: 266.2237243652344
y: 545.5739135742188
z: 0.17267996072769165
visibility: 0.9923543930053711
","x: 212.58311462402344
y: 543.3861694335938
z: 0.16412076354026794
visibility: 0.9866482019424438
","x: 261.982421875
y: 554.6396484375
z: 0.1807924211025238
visibility: 0.8344993591308594
","x: 213.55152893066406
y: 552.57763671875
z: 0.17622463405132294
visibility: 0.8175121545791626
","x: 277.4877014160156
y: 573.71728515625
z: 0.03937835246324539
visibility: 0.9857465624809265
","x: 214.40676879882812
y: 571.3020629882812
z: 0.03249864652752876
visibility: 0.979651153087616
",,,,,,,,,,,,,,,,,,,,,,,,,,,,,,,,,,,,,,,,,,
12,"x: 232.8549041748047
y: 211.35476684570312
z: -0.3274478316307068
visibility: 0.9999850988388062
","x: 235.2432861328125
y: 205.24075317382812
z: -0.30639487504959106
visibility: 0.9999609589576721
","x: 236.17771911621094
y: 206.0664520263672
z: -0.3063899874687195
visibility: 0.9999586939811707
","x: 237.03762817382812
y: 206.79273986816406
z: -0.3063982129096985
visibility: 0.9999583959579468
","x: 231.3832550048828
y: 203.05734252929688
z: -0.3210359215736389
visibility: 0.9999545812606812
","x: 229.5048065185547
y: 201.52682495117188
z: -0.3210795223712921
visibility: 0.9999486804008484
","x: 227.5482940673828
y: 199.8064422607422
z: -0.3211080729961395
visibility: 0.9999487996101379
","x: 236.56597900390625
y: 211.15771484375
z: -0.1643304079771042
visibility: 0.999921441078186
","x: 222.0830078125
y: 200.86366271972656
z: -0.23481149971485138
visibility: 0.9998963475227356
","x: 232.77493286132812
y: 221.11361694335938
z: -0.2717212736606598
visibility: 0.9999808073043823
","x: 227.794677734375
y: 218.7986602783203
z: -0.29223698377609253
visibility: 0.9999766945838928
","x: 242.11126708984375
y: 252.0791473388672
z: -0.032061733305454254
visibility: 0.999965488910675
","x: 202.11685180664062
y: 250.23690795898438
z: -0.16486012935638428
visibility: 0.999860942363739
","x: 249.31405639648438
y: 309.0041198730469
z: 0.024388212710618973
visibility: 0.9799524545669556
","x: 201.07386779785156
y: 308.9453430175781
z: -0.1798911988735199
visibility: 0.9704131484031677
","x: 257.2968444824219
y: 346.5002746582031
z: -0.12082502990961075
visibility: 0.9812119007110596
","x: 227.3096466064453
y: 332.23980712890625
z: -0.29689502716064453
visibility: 0.9707857966423035
","x: 255.56150817871094
y: 361.9920654296875
z: -0.1565898209810257
visibility: 0.961584210395813
","x: 231.31716918945312
y: 342.00048828125
z: -0.33890166878700256
visibility: 0.9426562190055847
","x: 255.9412841796875
y: 362.464111328125
z: -0.19271264970302582
visibility: 0.9631038904190063
","x: 233.26803588867188
y: 336.2905578613281
z: -0.36039668321609497
visibility: 0.943053662776947
","x: 253.05047607421875
y: 356.88909912109375
z: -0.13937515020370483
visibility: 0.948416531085968
","x: 232.9782257080078
y: 332.7181396484375
z: -0.304187536239624
visibility: 0.9240617156028748
","x: 236.65438842773438
y: 362.0724792480469
z: 0.030673369765281677
visibility: 0.9997168183326721
","x: 212.00640869140625
y: 365.4974670410156
z: -0.03075437806546688
visibility: 0.9995518326759338
","x: 249.99830627441406
y: 452.2128601074219
z: -0.013265358284115791
visibility: 0.9951673150062561
","x: 212.4036865234375
y: 465.020751953125
z: -0.03369531407952309
visibility: 0.9906388521194458
","x: 256.2421875
y: 545.9779663085938
z: 0.07235800474882126
visibility: 0.9922263622283936
","x: 209.99940490722656
y: 542.740234375
z: 0.16021940112113953
visibility: 0.9857885837554932
","x: 252.65138244628906
y: 557.7513427734375
z: 0.07289895415306091
visibility: 0.8437395691871643
","x: 210.5954132080078
y: 552.3779907226562
z: 0.17110228538513184
visibility: 0.8099093437194824
","x: 266.9331970214844
y: 570.8729248046875
z: -0.07798720896244049
visibility: 0.9857574105262756
","x: 213.26783752441406
y: 570.808349609375
z: 0.02558315359055996
visibility: 0.9785380363464355
",,,,,,,,,,,,,,,,,,,,,,,,,,,,,,,,,,,,,,,,,,
13,"x: 230.6346435546875
y: 211.57090759277344
z: -0.305048406124115
visibility: 0.9999851584434509
","x: 232.71481323242188
y: 205.31883239746094
z: -0.28365153074264526
visibility: 0.9999609589576721
","x: 233.6767120361328
y: 206.07763671875
z: -0.28366905450820923
visibility: 0.9999580979347229
","x: 234.6986083984375
y: 206.7884521484375
z: -0.28367307782173157
visibility: 0.9999581575393677
","x: 229.28709411621094
y: 202.94268798828125
z: -0.29791051149368286
visibility: 0.9999550580978394
","x: 227.51779174804688
y: 201.58938598632812
z: -0.2979392409324646
visibility: 0.9999497532844543
","x: 225.67471313476562
y: 200.03370666503906
z: -0.2979626953601837
visibility: 0.9999497532844543
","x: 234.5922393798828
y: 210.3607177734375
z: -0.14191436767578125
visibility: 0.9999122619628906
","x: 219.93125915527344
y: 201.1604461669922
z: -0.20924684405326843
visibility: 0.9999011754989624
","x: 230.62022399902344
y: 220.64878845214844
z: -0.24918778240680695
visibility: 0.9999803304672241
","x: 225.4689483642578
y: 218.5642852783203
z: -0.2685590088367462
visibility: 0.9999772310256958
","x: 241.47222900390625
y: 250.20362854003906
z: -0.020563988015055656
visibility: 0.999967098236084
","x: 200.02853393554688
y: 250.20651245117188
z: -0.15652422606945038
visibility: 0.9998693466186523
","x: 254.17916870117188
y: 301.7264099121094
z: 0.0159311443567276
visibility: 0.9805974364280701
","x: 201.50100708007812
y: 306.43084716796875
z: -0.1673111468553543
visibility: 0.9728573560714722
","x: 256.2082214355469
y: 346.4317321777344
z: -0.15542441606521606
visibility: 0.9818940162658691
","x: 227.1290283203125
y: 337.017822265625
z: -0.28314080834388733
visibility: 0.9725990891456604
","x: 253.9509735107422
y: 363.38037109375
z: -0.1993705779314041
visibility: 0.9624422788619995
","x: 231.5015869140625
y: 348.358154296875
z: -0.32736650109291077
visibility: 0.9459431767463684
","x: 251.5970458984375
y: 360.7307434082031
z: -0.23014207184314728
visibility: 0.9640710949897766
","x: 233.88832092285156
y: 345.554931640625
z: -0.33624976873397827
visibility: 0.946291983127594
","x: 250.80010986328125
y: 355.1587219238281
z: -0.17196352779865265
visibility: 0.9498206973075867
","x: 232.97412109375
y: 340.91876220703125
z: -0.2960311472415924
visibility: 0.9275274276733398
","x: 236.61888122558594
y: 362.7362060546875
z: 0.036828894168138504
visibility: 0.9997113943099976
","x: 212.04136657714844
y: 363.9626770019531
z: -0.03683539479970932
visibility: 0.9995291233062744
","x: 238.05625915527344
y: 453.7196350097656
z: 0.007160499691963196
visibility: 0.9927780628204346
","x: 210.88534545898438
y: 464.29937744140625
z: -0.044840257614851
visibility: 0.9892922639846802
","x: 241.9787139892578
y: 550.5447998046875
z: 0.09601388871669769
visibility: 0.9908929467201233
","x: 206.258544921875
y: 543.4842529296875
z: 0.06544904410839081
visibility: 0.9847939014434814
","x: 238.4705810546875
y: 567.9417114257812
z: 0.09714002907276154
visibility: 0.8507078886032104
","x: 205.28082275390625
y: 555.7080078125
z: 0.06763742864131927
visibility: 0.8042236566543579
","x: 252.67396545410156
y: 570.3577880859375
z: -0.0386890210211277
visibility: 0.98471999168396
","x: 216.12948608398438
y: 571.3884887695312
z: -0.07821400463581085
visibility: 0.9772176742553711
",,,,,,,,,,,,,,,,,,,,,,"x: 255.6641845703125
y: 347.8707580566406
z: 0.0
","x: 251.3453369140625
y: 351.472412109375
z: -0.00032094045309349895
","x: 248.31494140625
y: 356.8807373046875
z: -0.0009225960238836706
","x: 246.4271697998047
y: 361.7940979003906
z: -0.0019763901364058256
","x: 244.6170654296875
y: 365.2479248046875
z: -0.0029790487606078386
","x: 249.35659790039062
y: 363.5422058105469
z: 0.0002084017323795706
","x: 247.29083251953125
y: 370.65374755859375
z: -0.0014825258404016495
","x: 246.20556640625
y: 375.00225830078125
z: -0.002473303582519293
","x: 245.30731201171875
y: 378.3798828125
z: -0.003121946705505252
","x: 251.21275329589844
y: 364.6424865722656
z: -0.0012671384029090405
","x: 249.1674346923828
y: 371.75592041015625
z: -0.0026029651053249836
","x: 248.00363159179688
y: 375.4675598144531
z: -0.00326893525198102
","x: 247.1793975830078
y: 378.4194641113281
z: -0.0038508931174874306
","x: 253.27700805664062
y: 364.27581787109375
z: -0.0030813005287200212
","x: 252.3115234375
y: 370.1973876953125
z: -0.0051099155098199844
","x: 251.62013244628906
y: 372.72003173828125
z: -0.00602164538577199
","x: 251.03268432617188
y: 374.46551513671875
z: -0.006519425194710493
","x: 255.52877807617188
y: 362.57159423828125
z: -0.005076705012470484
","x: 255.93824768066406
y: 366.7037658691406
z: -0.006929097231477499
","x: 255.99664306640625
y: 368.02197265625
z: -0.0075593264773488045
","x: 255.92364501953125
y: 368.6441650390625
z: -0.007829863578081131
"
14,"x: 230.6346435546875
y: 211.57090759277344
z: -0.305048406124115
visibility: 0.9999851584434509
","x: 232.71481323242188
y: 205.31883239746094
z: -0.28365153074264526
visibility: 0.9999609589576721
","x: 233.6767120361328
y: 206.07763671875
z: -0.28366905450820923
visibility: 0.9999580979347229
","x: 234.6986083984375
y: 206.7884521484375
z: -0.28367307782173157
visibility: 0.9999581575393677
","x: 229.28709411621094
y: 202.94268798828125
z: -0.29791051149368286
visibility: 0.9999550580978394
","x: 227.51779174804688
y: 201.58938598632812
z: -0.2979392409324646
visibility: 0.9999497532844543
","x: 225.67471313476562
y: 200.03370666503906
z: -0.2979626953601837
visibility: 0.9999497532844543
","x: 234.5922393798828
y: 210.3607177734375
z: -0.14191436767578125
visibility: 0.9999122619628906
","x: 219.93125915527344
y: 201.1604461669922
z: -0.20924684405326843
visibility: 0.9999011754989624
","x: 230.62022399902344
y: 220.64878845214844
z: -0.24918778240680695
visibility: 0.9999803304672241
","x: 225.4689483642578
y: 218.5642852783203
z: -0.2685590088367462
visibility: 0.9999772310256958
","x: 241.47222900390625
y: 250.20362854003906
z: -0.020563988015055656
visibility: 0.999967098236084
","x: 200.02853393554688
y: 250.20651245117188
z: -0.15652422606945038
visibility: 0.9998693466186523
","x: 254.17916870117188
y: 301.7264099121094
z: 0.0159311443567276
visibility: 0.9805974364280701
","x: 201.50100708007812
y: 306.43084716796875
z: -0.1673111468553543
visibility: 0.9728573560714722
","x: 256.2082214355469
y: 346.4317321777344
z: -0.15542441606521606
visibility: 0.9818940162658691
","x: 227.1290283203125
y: 337.017822265625
z: -0.28314080834388733
visibility: 0.9725990891456604
","x: 253.9509735107422
y: 363.38037109375
z: -0.1993705779314041
visibility: 0.9624422788619995
","x: 231.5015869140625
y: 348.358154296875
z: -0.32736650109291077
visibility: 0.9459431767463684
","x: 251.5970458984375
y: 360.7307434082031
z: -0.23014207184314728
visibility: 0.9640710949897766
","x: 233.88832092285156
y: 345.554931640625
z: -0.33624976873397827
visibility: 0.946291983127594
","x: 250.80010986328125
y: 355.1587219238281
z: -0.17196352779865265
visibility: 0.9498206973075867
","x: 232.97412109375
y: 340.91876220703125
z: -0.2960311472415924
visibility: 0.9275274276733398
","x: 236.61888122558594
y: 362.7362060546875
z: 0.036828894168138504
visibility: 0.9997113943099976
","x: 212.04136657714844
y: 363.9626770019531
z: -0.03683539479970932
visibility: 0.9995291233062744
","x: 238.05625915527344
y: 453.7196350097656
z: 0.007160499691963196
visibility: 0.9927780628204346
","x: 210.88534545898438
y: 464.29937744140625
z: -0.044840257614851
visibility: 0.9892922639846802
","x: 241.9787139892578
y: 550.5447998046875
z: 0.09601388871669769
visibility: 0.9908929467201233
","x: 206.258544921875
y: 543.4842529296875
z: 0.06544904410839081
visibility: 0.9847939014434814
","x: 238.4705810546875
y: 567.9417114257812
z: 0.09714002907276154
visibility: 0.8507078886032104
","x: 205.28082275390625
y: 555.7080078125
z: 0.06763742864131927
visibility: 0.8042236566543579
","x: 252.67396545410156
y: 570.3577880859375
z: -0.0386890210211277
visibility: 0.98471999168396
","x: 216.12948608398438
y: 571.3884887695312
z: -0.07821400463581085
visibility: 0.9772176742553711
",,,,,,,,,,,,,,,,,,,,,,"x: 255.6641845703125
y: 347.8707580566406
z: 0.0
","x: 251.3453369140625
y: 351.472412109375
z: -0.00032094045309349895
","x: 248.31494140625
y: 356.8807373046875
z: -0.0009225960238836706
","x: 246.4271697998047
y: 361.7940979003906
z: -0.0019763901364058256
","x: 244.6170654296875
y: 365.2479248046875
z: -0.0029790487606078386
","x: 249.35659790039062
y: 363.5422058105469
z: 0.0002084017323795706
","x: 247.29083251953125
y: 370.65374755859375
z: -0.0014825258404016495
","x: 246.20556640625
y: 375.00225830078125
z: -0.002473303582519293
","x: 245.30731201171875
y: 378.3798828125
z: -0.003121946705505252
","x: 251.21275329589844
y: 364.6424865722656
z: -0.0012671384029090405
","x: 249.1674346923828
y: 371.75592041015625
z: -0.0026029651053249836
","x: 248.00363159179688
y: 375.4675598144531
z: -0.00326893525198102
","x: 247.1793975830078
y: 378.4194641113281
z: -0.0038508931174874306
","x: 253.27700805664062
y: 364.27581787109375
z: -0.0030813005287200212
","x: 252.3115234375
y: 370.1973876953125
z: -0.0051099155098199844
","x: 251.62013244628906
y: 372.72003173828125
z: -0.00602164538577199
","x: 251.03268432617188
y: 374.46551513671875
z: -0.006519425194710493
","x: 255.52877807617188
y: 362.57159423828125
z: -0.005076705012470484
","x: 255.93824768066406
y: 366.7037658691406
z: -0.006929097231477499
","x: 255.99664306640625
y: 368.02197265625
z: -0.0075593264773488045
","x: 255.92364501953125
y: 368.6441650390625
z: -0.007829863578081131
"
15,"x: 229.94691467285156
y: 211.41412353515625
z: -0.30536705255508423
visibility: 0.999981164932251
","x: 231.89002990722656
y: 204.79312133789062
z: -0.284667044878006
visibility: 0.9999464750289917
","x: 232.8449249267578
y: 205.4398193359375
z: -0.28467217087745667
visibility: 0.9999404549598694
","x: 233.8042449951172
y: 206.08360290527344
z: -0.28466081619262695
visibility: 0.9999409914016724
","x: 228.46942138671875
y: 202.53594970703125
z: -0.3008582592010498
visibility: 0.9999421834945679
","x: 226.7526397705078
y: 201.28150939941406
z: -0.30089324712753296
visibility: 0.9999392628669739
","x: 224.92662048339844
y: 199.86041259765625
z: -0.3009558320045471
visibility: 0.9999398589134216
","x: 232.86868286132812
y: 209.7647705078125
z: -0.1456179916858673
visibility: 0.9998461008071899
","x: 218.65615844726562
y: 201.20278930664062
z: -0.22072696685791016
visibility: 0.9998890161514282
","x: 230.00234985351562
y: 220.15301513671875
z: -0.24986326694488525
visibility: 0.9999755024909973
","x: 225.4370880126953
y: 218.1625518798828
z: -0.2715372145175934
visibility: 0.9999746680259705
","x: 239.57797241210938
y: 249.03878784179688
z: -0.020807769149541855
visibility: 0.9999680519104004
","x: 201.1274871826172
y: 248.64488220214844
z: -0.1631144881248474
visibility: 0.9998716115951538
","x: 255.38818359375
y: 299.19488525390625
z: 0.023527193814516068
visibility: 0.9803836345672607
","x: 200.06610107421875
y: 306.5599365234375
z: -0.16003446280956268
visibility: 0.9751079678535461
","x: 255.61386108398438
y: 345.0857849121094
z: -0.14141061902046204
visibility: 0.9817003011703491
","x: 227.01475524902344
y: 338.7559509277344
z: -0.2573995888233185
visibility: 0.9742327332496643
","x: 254.15216064453125
y: 361.9268798828125
z: -0.18288294970989227
visibility: 0.9619152545928955
","x: 232.01702880859375
y: 354.18695068359375
z: -0.2980239689350128
visibility: 0.9488649368286133
","x: 251.6663360595703
y: 359.9563293457031
z: -0.21590574085712433
visibility: 0.963738203048706
","x: 235.10165405273438
y: 352.19659423828125
z: -0.3178078532218933
visibility: 0.9491464495658875
","x: 250.9267578125
y: 354.3011169433594
z: -0.15842634439468384
visibility: 0.9495420455932617
","x: 233.91033935546875
y: 346.17449951171875
z: -0.26431307196617126
visibility: 0.9304440021514893
","x: 237.27096557617188
y: 363.1293029785156
z: 0.030531708151102066
visibility: 0.9996800422668457
","x: 213.04364013671875
y: 363.42401123046875
z: -0.030517980456352234
visibility: 0.9994184970855713
","x: 234.01126098632812
y: 455.5008239746094
z: -0.01825184002518654
visibility: 0.9903784394264221
","x: 211.62864685058594
y: 464.1739501953125
z: -0.0458819717168808
visibility: 0.9852070808410645
","x: 231.8297119140625
y: 555.9588623046875
z: 0.0903320387005806
visibility: 0.988312304019928
","x: 205.85302734375
y: 543.4556884765625
z: 0.09790501743555069
visibility: 0.9806974530220032
","x: 229.37423706054688
y: 570.8714599609375
z: 0.09365010261535645
visibility: 0.8440380692481995
","x: 203.9692840576172
y: 555.6067504882812
z: 0.10406909137964249
visibility: 0.7878877520561218
","x: 232.53224182128906
y: 579.14892578125
z: -0.05001019313931465
visibility: 0.9822095632553101
","x: 216.0445098876953
y: 571.3994750976562
z: -0.042688626796007156
visibility: 0.9734510183334351
","x: 230.7851104736328
y: 338.96490478515625
z: 0.0
","x: 234.08038330078125
y: 345.4119873046875
z: 0.00251194229349494
","x: 235.92465209960938
y: 352.8934326171875
z: 0.002690704772248864
","x: 236.33230590820312
y: 358.8949890136719
z: 0.0018457091646268964
","x: 236.03143310546875
y: 363.1423645019531
z: 0.0011807151604443789
","x: 237.00711059570312
y: 358.1190185546875
z: 0.0014784439699724317
","x: 237.11407470703125
y: 367.0419006347656
z: -0.0001232534268638119
","x: 236.5947265625
y: 371.9479064941406
z: -0.000756108551286161
","x: 235.9243927001953
y: 374.89306640625
z: -0.0008999332785606384
","x: 235.38243103027344
y: 358.3352355957031
z: -0.00126782211009413
","x: 235.54473876953125
y: 367.2229309082031
z: -0.0025821104645729065
","x: 234.86907958984375
y: 372.1398620605469
z: -0.002488253405317664
","x: 234.11056518554688
y: 375.3887634277344
z: -0.0023975761141628027
","x: 233.1321563720703
y: 357.6820373535156
z: -0.004049484618008137
","x: 233.10389709472656
y: 365.753173828125
z: -0.005374526139348745
","x: 232.4393768310547
y: 369.48797607421875
z: -0.004826508462429047
","x: 231.77786254882812
y: 371.6621398925781
z: -0.004385804757475853
","x: 230.5009765625
y: 356.1513977050781
z: -0.00683831749483943
","x: 230.2467041015625
y: 361.9671325683594
z: -0.007872072979807854
","x: 229.90089416503906
y: 364.46820068359375
z: -0.007418980821967125
","x: 229.56027221679688
y: 365.958740234375
z: -0.0069152177311480045
",,,,,,,,,,,,,,,,,,,,,
16,"x: 229.94691467285156
y: 211.41412353515625
z: -0.30536705255508423
visibility: 0.999981164932251
","x: 231.89002990722656
y: 204.79312133789062
z: -0.284667044878006
visibility: 0.9999464750289917
","x: 232.8449249267578
y: 205.4398193359375
z: -0.28467217087745667
visibility: 0.9999404549598694
","x: 233.8042449951172
y: 206.08360290527344
z: -0.28466081619262695
visibility: 0.9999409914016724
","x: 228.46942138671875
y: 202.53594970703125
z: -0.3008582592010498
visibility: 0.9999421834945679
","x: 226.7526397705078
y: 201.28150939941406
z: -0.30089324712753296
visibility: 0.9999392628669739
","x: 224.92662048339844
y: 199.86041259765625
z: -0.3009558320045471
visibility: 0.9999398589134216
","x: 232.86868286132812
y: 209.7647705078125
z: -0.1456179916858673
visibility: 0.9998461008071899
","x: 218.65615844726562
y: 201.20278930664062
z: -0.22072696685791016
visibility: 0.9998890161514282
","x: 230.00234985351562
y: 220.15301513671875
z: -0.24986326694488525
visibility: 0.9999755024909973
","x: 225.4370880126953
y: 218.1625518798828
z: -0.2715372145175934
visibility: 0.9999746680259705
","x: 239.57797241210938
y: 249.03878784179688
z: -0.020807769149541855
visibility: 0.9999680519104004
","x: 201.1274871826172
y: 248.64488220214844
z: -0.1631144881248474
visibility: 0.9998716115951538
","x: 255.38818359375
y: 299.19488525390625
z: 0.023527193814516068
visibility: 0.9803836345672607
","x: 200.06610107421875
y: 306.5599365234375
z: -0.16003446280956268
visibility: 0.9751079678535461
","x: 255.61386108398438
y: 345.0857849121094
z: -0.14141061902046204
visibility: 0.9817003011703491
","x: 227.01475524902344
y: 338.7559509277344
z: -0.2573995888233185
visibility: 0.9742327332496643
","x: 254.15216064453125
y: 361.9268798828125
z: -0.18288294970989227
visibility: 0.9619152545928955
","x: 232.01702880859375
y: 354.18695068359375
z: -0.2980239689350128
visibility: 0.9488649368286133
","x: 251.6663360595703
y: 359.9563293457031
z: -0.21590574085712433
visibility: 0.963738203048706
","x: 235.10165405273438
y: 352.19659423828125
z: -0.3178078532218933
visibility: 0.9491464495658875
","x: 250.9267578125
y: 354.3011169433594
z: -0.15842634439468384
visibility: 0.9495420455932617
","x: 233.91033935546875
y: 346.17449951171875
z: -0.26431307196617126
visibility: 0.9304440021514893
","x: 237.27096557617188
y: 363.1293029785156
z: 0.030531708151102066
visibility: 0.9996800422668457
","x: 213.04364013671875
y: 363.42401123046875
z: -0.030517980456352234
visibility: 0.9994184970855713
","x: 234.01126098632812
y: 455.5008239746094
z: -0.01825184002518654
visibility: 0.9903784394264221
","x: 211.62864685058594
y: 464.1739501953125
z: -0.0458819717168808
visibility: 0.9852070808410645
","x: 231.8297119140625
y: 555.9588623046875
z: 0.0903320387005806
visibility: 0.988312304019928
","x: 205.85302734375
y: 543.4556884765625
z: 0.09790501743555069
visibility: 0.9806974530220032
","x: 229.37423706054688
y: 570.8714599609375
z: 0.09365010261535645
visibility: 0.8440380692481995
","x: 203.9692840576172
y: 555.6067504882812
z: 0.10406909137964249
visibility: 0.7878877520561218
","x: 232.53224182128906
y: 579.14892578125
z: -0.05001019313931465
visibility: 0.9822095632553101
","x: 216.0445098876953
y: 571.3994750976562
z: -0.042688626796007156
visibility: 0.9734510183334351
","x: 230.7851104736328
y: 338.96490478515625
z: 0.0
","x: 234.08038330078125
y: 345.4119873046875
z: 0.00251194229349494
","x: 235.92465209960938
y: 352.8934326171875
z: 0.002690704772248864
","x: 236.33230590820312
y: 358.8949890136719
z: 0.0018457091646268964
","x: 236.03143310546875
y: 363.1423645019531
z: 0.0011807151604443789
","x: 237.00711059570312
y: 358.1190185546875
z: 0.0014784439699724317
","x: 237.11407470703125
y: 367.0419006347656
z: -0.0001232534268638119
","x: 236.5947265625
y: 371.9479064941406
z: -0.000756108551286161
","x: 235.9243927001953
y: 374.89306640625
z: -0.0008999332785606384
","x: 235.38243103027344
y: 358.3352355957031
z: -0.00126782211009413
","x: 235.54473876953125
y: 367.2229309082031
z: -0.0025821104645729065
","x: 234.86907958984375
y: 372.1398620605469
z: -0.002488253405317664
","x: 234.11056518554688
y: 375.3887634277344
z: -0.0023975761141628027
","x: 233.1321563720703
y: 357.6820373535156
z: -0.004049484618008137
","x: 233.10389709472656
y: 365.753173828125
z: -0.005374526139348745
","x: 232.4393768310547
y: 369.48797607421875
z: -0.004826508462429047
","x: 231.77786254882812
y: 371.6621398925781
z: -0.004385804757475853
","x: 230.5009765625
y: 356.1513977050781
z: -0.00683831749483943
","x: 230.2467041015625
y: 361.9671325683594
z: -0.007872072979807854
","x: 229.90089416503906
y: 364.46820068359375
z: -0.007418980821967125
","x: 229.56027221679688
y: 365.958740234375
z: -0.0069152177311480045
",,,,,,,,,,,,,,,,,,,,,
17,"x: 231.4752960205078
y: 204.79444885253906
z: -0.2924686074256897
visibility: 0.9999813437461853
","x: 233.80722045898438
y: 199.38661193847656
z: -0.26994600892066956
visibility: 0.9999473690986633
","x: 235.11642456054688
y: 200.3193359375
z: -0.2699587941169739
visibility: 0.9999409317970276
","x: 236.3657684326172
y: 201.1797332763672
z: -0.2699567973613739
visibility: 0.9999412894248962
","x: 229.6733856201172
y: 196.78741455078125
z: -0.2818259596824646
visibility: 0.9999426603317261
","x: 228.0883331298828
y: 195.81015014648438
z: -0.28184524178504944
visibility: 0.9999402165412903
","x: 226.22817993164062
y: 194.7347869873047
z: -0.2818719744682312
visibility: 0.9999409317970276
","x: 236.6173858642578
y: 206.20574951171875
z: -0.13161955773830414
visibility: 0.999843180179596
","x: 221.67384338378906
y: 197.63006591796875
z: -0.18881872296333313
visibility: 0.9998927116394043
","x: 232.22450256347656
y: 214.05592346191406
z: -0.2377965748310089
visibility: 0.9999748468399048
","x: 227.2479248046875
y: 211.89871215820312
z: -0.2542056441307068
visibility: 0.9999751448631287
","x: 243.77688598632812
y: 247.0710906982422
z: 0.0010365444468334317
visibility: 0.9999668002128601
","x: 203.4290313720703
y: 244.79144287109375
z: -0.11910513788461685
visibility: 0.9998723864555359
","x: 255.3701934814453
y: 299.44989013671875
z: 0.07012411206960678
visibility: 0.979101300239563
","x: 199.3710479736328
y: 305.7223205566406
z: -0.15985873341560364
visibility: 0.9767076373100281
","x: 263.4873352050781
y: 345.63134765625
z: -0.05808543413877487
visibility: 0.9817957878112793
","x: 226.62318420410156
y: 327.02374267578125
z: -0.31305211782455444
visibility: 0.9755293726921082
","x: 270.3353271484375
y: 358.2513427734375
z: -0.08978165686130524
visibility: 0.9621962308883667
","x: 232.08242797851562
y: 337.47760009765625
z: -0.3575010895729065
visibility: 0.951312243938446
","x: 270.54022216796875
y: 358.8713073730469
z: -0.12858770787715912
visibility: 0.9642297625541687
","x: 234.6107177734375
y: 331.2469787597656
z: -0.3737236559391022
visibility: 0.9516023993492126
","x: 267.6697692871094
y: 355.0765686035156
z: -0.07686393707990646
visibility: 0.9506271481513977
","x: 233.39483642578125
y: 328.63995361328125
z: -0.3202400803565979
visibility: 0.9332655072212219
","x: 240.7156219482422
y: 362.29449462890625
z: 0.03134206309914589
visibility: 0.9996692538261414
","x: 215.32754516601562
y: 362.1643371582031
z: -0.03136144205927849
visibility: 0.9994038939476013
","x: 237.7705078125
y: 456.5882568359375
z: 0.004821536131203175
visibility: 0.989533007144928
","x: 213.64251708984375
y: 462.451904296875
z: -0.05079112574458122
visibility: 0.9848324656486511
","x: 235.0524139404297
y: 546.366943359375
z: 0.1925922930240631
visibility: 0.9877034425735474
","x: 208.48731994628906
y: 542.95166015625
z: 0.12506920099258423
visibility: 0.9808533191680908
","x: 232.27085876464844
y: 556.9483032226562
z: 0.20264537632465363
visibility: 0.8475118279457092
","x: 208.4222412109375
y: 555.0604858398438
z: 0.1343919187784195
visibility: 0.7856366634368896
","x: 239.5854949951172
y: 571.9440307617188
z: 0.05954964831471443
visibility: 0.9817392826080322
","x: 214.92974853515625
y: 570.0443115234375
z: -0.01836053654551506
visibility: 0.9736999273300171
",,,,,,,,,,,,,,,,,,,,,,,,,,,,,,,,,,,,,,,,,,
18,"x: 229.5659637451172
y: 204.38052368164062
z: -0.3840884566307068
visibility: 0.9999826550483704
","x: 231.450439453125
y: 198.13565063476562
z: -0.36309814453125
visibility: 0.9999511241912842
","x: 232.97885131835938
y: 198.44735717773438
z: -0.3630739152431488
visibility: 0.9999452829360962
","x: 234.6776123046875
y: 198.62408447265625
z: -0.3630704879760742
visibility: 0.9999455809593201
","x: 226.98207092285156
y: 196.70875549316406
z: -0.369166761636734
visibility: 0.9999462366104126
","x: 225.35092163085938
y: 195.91671752929688
z: -0.3692052662372589
visibility: 0.9999440908432007
","x: 223.35350036621094
y: 194.79519653320312
z: -0.36922693252563477
visibility: 0.9999445676803589
","x: 236.91912841796875
y: 203.23147583007812
z: -0.22274057567119598
visibility: 0.9998550415039062
","x: 220.26458740234375
y: 198.88406372070312
z: -0.25145092606544495
visibility: 0.9998984932899475
","x: 231.8131561279297
y: 213.42095947265625
z: -0.32973986864089966
visibility: 0.9999765753746033
","x: 226.4205322265625
y: 212.0771484375
z: -0.33827853202819824
visibility: 0.9999766945838928
","x: 247.20831298828125
y: 247.18646240234375
z: -0.1036241427063942
visibility: 0.9999678730964661
","x: 206.05911254882812
y: 247.86856079101562
z: -0.16050519049167633
visibility: 0.9998638033866882
","x: 258.194091796875
y: 306.28411865234375
z: 0.00657754298299551
visibility: 0.9798336029052734
","x: 202.06063842773438
y: 310.6567687988281
z: -0.15724071860313416
visibility: 0.9744099378585815
","x: 268.89520263671875
y: 368.8315124511719
z: -0.12791457772254944
visibility: 0.9817293286323547
","x: 227.7506561279297
y: 334.2997741699219
z: -0.29120969772338867
visibility: 0.9691089987754822
","x: 273.6322937011719
y: 386.97088623046875
z: -0.15922051668167114
visibility: 0.9619057178497314
","x: 234.18312072753906
y: 344.9243469238281
z: -0.3323252201080322
visibility: 0.9419066309928894
","x: 272.0177307128906
y: 387.02655029296875
z: -0.19711749255657196
visibility: 0.964186429977417
","x: 237.0928955078125
y: 337.8033142089844
z: -0.3537806570529938
visibility: 0.9427037239074707
","x: 269.8470764160156
y: 381.45184326171875
z: -0.1450095921754837
visibility: 0.9510312080383301
","x: 235.62391662597656
y: 334.76666259765625
z: -0.3006156384944916
visibility: 0.9220494627952576
","x: 241.08541870117188
y: 363.2580871582031
z: 0.017409605905413628
visibility: 0.9996805191040039
","x: 217.574462890625
y: 363.4524841308594
z: -0.017614716663956642
visibility: 0.9994173049926758
","x: 241.76222229003906
y: 464.4735412597656
z: -0.0006006091134622693
visibility: 0.990079939365387
","x: 215.17135620117188
y: 463.5096740722656
z: -0.045006610453128815
visibility: 0.985496997833252
","x: 253.48251342773438
y: 545.9481201171875
z: 0.21665851771831512
visibility: 0.9883332252502441
","x: 209.52040100097656
y: 542.970703125
z: 0.19232052564620972
visibility: 0.9814163446426392
","x: 254.67198181152344
y: 555.0628662109375
z: 0.23042304813861847
visibility: 0.8454403281211853
","x: 208.7805633544922
y: 554.4107666015625
z: 0.20874819159507751
visibility: 0.783909261226654
","x: 248.11346435546875
y: 571.9921264648438
z: 0.07677897065877914
visibility: 0.9822680950164795
","x: 215.4680633544922
y: 570.0228271484375
z: 0.061022549867630005
visibility: 0.9742931127548218
",,,,,,,,,,,,,,,,,,,,,,,,,,,,,,,,,,,,,,,,,,
19,"x: 225.96966552734375
y: 205.33775329589844
z: -0.3371375501155853
visibility: 0.9999841451644897
","x: 226.85105895996094
y: 198.1747283935547
z: -0.32004350423812866
visibility: 0.9999554753303528
","x: 228.4555206298828
y: 198.39926147460938
z: -0.32003673911094666
visibility: 0.9999502301216125
","x: 230.19595336914062
y: 197.87039184570312
z: -0.32001209259033203
visibility: 0.9999505281448364
","x: 222.1440887451172
y: 200.12295532226562
z: -0.31867414712905884
visibility: 0.9999508261680603
","x: 220.73414611816406
y: 201.18638610839844
z: -0.3187046945095062
visibility: 0.9999488592147827
","x: 219.26820373535156
y: 202.21835327148438
z: -0.3187186121940613
visibility: 0.9999492168426514
","x: 234.8009490966797
y: 201.5416717529297
z: -0.2047705352306366
visibility: 0.9998685717582703
","x: 218.828857421875
y: 207.30746459960938
z: -0.21978504955768585
visibility: 0.9999065399169922
","x: 230.89569091796875
y: 213.45523071289062
z: -0.2922719717025757
visibility: 0.99997878074646
","x: 225.31777954101562
y: 215.15664672851562
z: -0.289931982755661
visibility: 0.9999787211418152
","x: 254.12001037597656
y: 247.2884979248047
z: -0.11178982257843018
visibility: 0.9999706745147705
","x: 210.89273071289062
y: 254.61849975585938
z: -0.11067714542150497
visibility: 0.9998733401298523
","x: 265.56890869140625
y: 309.6048889160156
z: -0.06587216258049011
visibility: 0.9815211296081543
","x: 205.49281311035156
y: 313.25128173828125
z: -0.05856414511799812
visibility: 0.9727652668952942
","x: 267.1719970703125
y: 367.3930358886719
z: -0.14828817546367645
visibility: 0.9829729795455933
","x: 220.75096130371094
y: 358.3299255371094
z: -0.18015523254871368
visibility: 0.9651732444763184
","x: 268.36114501953125
y: 384.3453369140625
z: -0.1940149962902069
visibility: 0.9640709161758423
","x: 224.88101196289062
y: 373.2564697265625
z: -0.21785295009613037
visibility: 0.9351505637168884
","x: 261.9985046386719
y: 382.1357421875
z: -0.21797709167003632
visibility: 0.9662396907806396
","x: 228.1294708251953
y: 368.3888244628906
z: -0.24684786796569824
visibility: 0.9361135363578796
","x: 261.0228576660156
y: 377.54644775390625
z: -0.16876757144927979
visibility: 0.9536572098731995
","x: 227.09713745117188
y: 363.4830322265625
z: -0.19394907355308533
visibility: 0.9148353338241577
","x: 248.18833923339844
y: 372.47552490234375
z: 0.0080180112272501
visibility: 0.9997037053108215
","x: 223.05615234375
y: 370.34423828125
z: -0.008184605278074741
visibility: 0.9994621872901917
","x: 252.2079620361328
y: 469.87847900390625
z: -0.0007974166655912995
visibility: 0.9905731678009033
","x: 215.6849365234375
y: 464.74383544921875
z: -0.04342663288116455
visibility: 0.9866618514060974
","x: 260.67620849609375
y: 545.7587280273438
z: 0.23104317486286163
visibility: 0.98903489112854
","x: 209.09938049316406
y: 543.1433715820312
z: 0.1907137930393219
visibility: 0.9824942350387573
","x: 261.10662841796875
y: 554.698486328125
z: 0.2461797297000885
visibility: 0.8509088158607483
","x: 207.126708984375
y: 554.3433837890625
z: 0.2066897600889206
visibility: 0.7875189781188965
","x: 257.58343505859375
y: 572.0548095703125
z: 0.10244335234165192
visibility: 0.9830074310302734
","x: 215.37852478027344
y: 570.2352294921875
z: 0.07256083190441132
visibility: 0.975471556186676
",,,,,,,,,,,,,,,,,,,,,,,,,,,,,,,,,,,,,,,,,,
20,"x: 225.92559814453125
y: 210.30239868164062
z: -0.2242879420518875
visibility: 0.9999839663505554
","x: 227.3914031982422
y: 201.9820556640625
z: -0.2238398790359497
visibility: 0.999957263469696
","x: 229.08966064453125
y: 200.73753356933594
z: -0.2238854467868805
visibility: 0.999952495098114
","x: 230.76087951660156
y: 199.20884704589844
z: -0.2238885909318924
visibility: 0.999953031539917
","x: 223.43138122558594
y: 206.06515502929688
z: -0.2024269998073578
visibility: 0.9999504685401917
","x: 222.43157958984375
y: 207.19915771484375
z: -0.20246227085590363
visibility: 0.9999485015869141
","x: 221.39907836914062
y: 208.25685119628906
z: -0.20245757699012756
visibility: 0.9999486804008484
","x: 236.4697723388672
y: 201.65530395507812
z: -0.17342229187488556
visibility: 0.9998793005943298
","x: 221.34283447265625
y: 211.77981567382812
z: -0.07562322169542313
visibility: 0.9999032616615295
","x: 231.6335906982422
y: 216.29193115234375
z: -0.20491516590118408
visibility: 0.9999803304672241
","x: 226.5786895751953
y: 220.1610107421875
z: -0.17562630772590637
visibility: 0.9999781847000122
","x: 261.6254577636719
y: 247.44432067871094
z: -0.11602729558944702
visibility: 0.9999727606773376
","x: 221.11183166503906
y: 260.8157043457031
z: 0.013607542030513287
visibility: 0.9998677372932434
","x: 281.0103454589844
y: 308.2032470703125
z: -0.17058753967285156
visibility: 0.982987642288208
","x: 218.15972900390625
y: 323.1753845214844
z: 0.0314200259745121
visibility: 0.9575899839401245
","x: 264.0507507324219
y: 336.8690490722656
z: -0.31665700674057007
visibility: 0.9839298725128174
","x: 200.29823303222656
y: 348.6750793457031
z: -0.16531693935394287
visibility: 0.9630351066589355
","x: 257.5815124511719
y: 346.0577697753906
z: -0.3580690324306488
visibility: 0.9655315279960632
","x: 192.66224670410156
y: 357.57244873046875
z: -0.20338431000709534
visibility: 0.9341333508491516
","x: 254.43658447265625
y: 339.602783203125
z: -0.3653084337711334
visibility: 0.9674428105354309
","x: 191.18077087402344
y: 354.1634826660156
z: -0.23663285374641418
visibility: 0.935698390007019
","x: 255.4799346923828
y: 336.8912048339844
z: -0.3205926716327667
visibility: 0.9547327756881714
","x: 193.86122131347656
y: 361.05645751953125
z: -0.18529324233531952
visibility: 0.915032148361206
","x: 255.54885864257812
y: 375.8680419921875
z: -0.013866141438484192
visibility: 0.9997209310531616
","x: 230.09091186523438
y: 373.56890869140625
z: 0.0137196509167552
visibility: 0.9994873404502869
","x: 262.17779541015625
y: 472.255126953125
z: -0.058774612843990326
visibility: 0.9912737011909485
","x: 216.7543487548828
y: 466.4474792480469
z: -0.04162720963358879
visibility: 0.9877671003341675
","x: 262.7625427246094
y: 543.7400512695312
z: 0.20383688807487488
visibility: 0.9896531105041504
","x: 212.67672729492188
y: 535.4779663085938
z: 0.21220338344573975
visibility: 0.9832138419151306
","x: 261.3006896972656
y: 551.2477416992188
z: 0.20959854125976562
visibility: 0.8574638366699219
","x: 214.21096801757812
y: 540.7463989257812
z: 0.2321922481060028
visibility: 0.7927499413490295
","x: 261.610107421875
y: 572.019287109375
z: 0.07269059866666794
visibility: 0.983722448348999
","x: 215.79403686523438
y: 568.6973876953125
z: 0.12799963355064392
visibility: 0.9764314293861389
",,,,,,,,,,,,,,,,,,,,,,,,,,,,,,,,,,,,,,,,,,
21,"x: 227.0435791015625
y: 204.16400146484375
z: -0.16497033834457397
visibility: 0.9999831914901733
","x: 229.31307983398438
y: 196.8087615966797
z: -0.16856414079666138
visibility: 0.9999583959579468
","x: 230.8074493408203
y: 195.98365783691406
z: -0.16859188675880432
visibility: 0.9999539256095886
","x: 232.34706115722656
y: 195.07118225097656
z: -0.16859886050224304
visibility: 0.9999542832374573
","x: 226.23046875
y: 199.63909912109375
z: -0.143343985080719
visibility: 0.9999502301216125
","x: 225.1680450439453
y: 200.60227966308594
z: -0.14339032769203186
visibility: 0.9999486207962036
","x: 223.3294677734375
y: 201.58377075195312
z: -0.14341679215431213
visibility: 0.9999493360519409
","x: 237.7180938720703
y: 198.8975830078125
z: -0.13831155002117157
visibility: 0.9998886585235596
","x: 229.34512329101562
y: 207.0826873779297
z: -0.015624199993908405
visibility: 0.9999057054519653
","x: 231.3562774658203
y: 210.74993896484375
z: -0.14991755783557892
visibility: 0.9999814629554749
","x: 227.56224060058594
y: 212.97824096679688
z: -0.11617861688137054
visibility: 0.9999778866767883
","x: 263.0205383300781
y: 245.745361328125
z: -0.08965261280536652
visibility: 0.9999679327011108
","x: 225.454833984375
y: 259.8916931152344
z: 0.06887240707874298
visibility: 0.9998691082000732
","x: 282.5967102050781
y: 307.1217956542969
z: -0.22337022423744202
visibility: 0.9834911823272705
","x: 218.1284637451172
y: 321.85455322265625
z: 0.027155479416251183
visibility: 0.9546623826026917
","x: 270.3044738769531
y: 287.1338195800781
z: -0.44149166345596313
visibility: 0.9829871654510498
","x: 196.27391052246094
y: 296.44384765625
z: -0.20434284210205078
visibility: 0.9651103615760803
","x: 264.340087890625
y: 277.95440673828125
z: -0.4847026765346527
visibility: 0.9630314707756042
","x: 188.5137481689453
y: 290.9483642578125
z: -0.24398279190063477
visibility: 0.9377419948577881
","x: 262.62371826171875
y: 272.99945068359375
z: -0.478417307138443
visibility: 0.9642475247383118
","x: 187.91531372070312
y: 286.3529052734375
z: -0.27143290638923645
visibility: 0.9392921328544617
","x: 263.8103332519531
y: 276.1322937011719
z: -0.4421760141849518
visibility: 0.9490691423416138
","x: 190.1707305908203
y: 288.8839111328125
z: -0.21204526722431183
visibility: 0.9197307229042053
","x: 256.41693115234375
y: 375.01824951171875
z: -0.035761166363954544
visibility: 0.9996734857559204
","x: 231.51779174804688
y: 373.085205078125
z: 0.03561355918645859
visibility: 0.9994723796844482
","x: 260.8435363769531
y: 471.6380310058594
z: -0.08151258528232574
visibility: 0.9917953610420227
","x: 218.25039672851562
y: 466.89678955078125
z: -0.011824915185570717
visibility: 0.9885649681091309
","x: 265.89776611328125
y: 543.9131469726562
z: 0.19376741349697113
visibility: 0.9898657202720642
","x: 218.35540771484375
y: 542.4805297851562
z: 0.21744318306446075
visibility: 0.9839661717414856
","x: 267.45965576171875
y: 551.66552734375
z: 0.19890356063842773
visibility: 0.8534266352653503
","x: 221.2389678955078
y: 549.9085083007812
z: 0.23428837954998016
visibility: 0.8011897206306458
","x: 261.8389587402344
y: 572.358642578125
z: 0.059520043432712555
visibility: 0.9835504293441772
","x: 219.76510620117188
y: 573.6192626953125
z: 0.10532589256763458
visibility: 0.9771351218223572
","x: 192.7009735107422
y: 289.0372619628906
z: 0.0
","x: 187.0580291748047
y: 289.76654052734375
z: 0.0014313210267573595
","x: 183.45225524902344
y: 288.47784423828125
z: 0.001361160073429346
","x: 181.70599365234375
y: 285.29833984375
z: 6.840245623607188e-05
","x: 182.51278686523438
y: 282.1537170410156
z: -0.0006859751301817596
","x: 183.07901000976562
y: 280.68121337890625
z: 0.0033396263606846333
","x: 180.5478515625
y: 277.81884765625
z: 0.0013347120257094502
","x: 182.10403442382812
y: 281.0171813964844
z: 0.0005835711490362883
","x: 183.58767700195312
y: 283.3761291503906
z: 0.0004577231011353433
","x: 184.3196563720703
y: 277.9117126464844
z: 0.0009099064627662301
","x: 181.91403198242188
y: 275.8448486328125
z: -0.0009703119285404682
","x: 183.22618103027344
y: 279.39935302734375
z: -0.0013302761362865567
","x: 184.57989501953125
y: 281.958740234375
z: -0.001159800449386239
","x: 185.9870147705078
y: 275.8956298828125
z: -0.0019443825585767627
","x: 183.6600341796875
y: 274.68670654296875
z: -0.0035543579142540693
","x: 184.64971923828125
y: 278.2983703613281
z: -0.0029001832008361816
","x: 185.85491943359375
y: 281.02056884765625
z: -0.0020890601444989443
","x: 187.74856567382812
y: 274.56201171875
z: -0.004995047114789486
","x: 185.83721923828125
y: 274.39251708984375
z: -0.005416008643805981
","x: 186.11109924316406
y: 277.2366638183594
z: -0.004538261331617832
","x: 186.9263153076172
y: 279.7308654785156
z: -0.003631497034803033
",,,,,,,,,,,,,,,,,,,,,
22,"x: 227.0435791015625
y: 204.16400146484375
z: -0.16497033834457397
visibility: 0.9999831914901733
","x: 229.31307983398438
y: 196.8087615966797
z: -0.16856414079666138
visibility: 0.9999583959579468
","x: 230.8074493408203
y: 195.98365783691406
z: -0.16859188675880432
visibility: 0.9999539256095886
","x: 232.34706115722656
y: 195.07118225097656
z: -0.16859886050224304
visibility: 0.9999542832374573
","x: 226.23046875
y: 199.63909912109375
z: -0.143343985080719
visibility: 0.9999502301216125
","x: 225.1680450439453
y: 200.60227966308594
z: -0.14339032769203186
visibility: 0.9999486207962036
","x: 223.3294677734375
y: 201.58377075195312
z: -0.14341679215431213
visibility: 0.9999493360519409
","x: 237.7180938720703
y: 198.8975830078125
z: -0.13831155002117157
visibility: 0.9998886585235596
","x: 229.34512329101562
y: 207.0826873779297
z: -0.015624199993908405
visibility: 0.9999057054519653
","x: 231.3562774658203
y: 210.74993896484375
z: -0.14991755783557892
visibility: 0.9999814629554749
","x: 227.56224060058594
y: 212.97824096679688
z: -0.11617861688137054
visibility: 0.9999778866767883
","x: 263.0205383300781
y: 245.745361328125
z: -0.08965261280536652
visibility: 0.9999679327011108
","x: 225.454833984375
y: 259.8916931152344
z: 0.06887240707874298
visibility: 0.9998691082000732
","x: 282.5967102050781
y: 307.1217956542969
z: -0.22337022423744202
visibility: 0.9834911823272705
","x: 218.1284637451172
y: 321.85455322265625
z: 0.027155479416251183
visibility: 0.9546623826026917
","x: 270.3044738769531
y: 287.1338195800781
z: -0.44149166345596313
visibility: 0.9829871654510498
","x: 196.27391052246094
y: 296.44384765625
z: -0.20434284210205078
visibility: 0.9651103615760803
","x: 264.340087890625
y: 277.95440673828125
z: -0.4847026765346527
visibility: 0.9630314707756042
","x: 188.5137481689453
y: 290.9483642578125
z: -0.24398279190063477
visibility: 0.9377419948577881
","x: 262.62371826171875
y: 272.99945068359375
z: -0.478417307138443
visibility: 0.9642475247383118
","x: 187.91531372070312
y: 286.3529052734375
z: -0.27143290638923645
visibility: 0.9392921328544617
","x: 263.8103332519531
y: 276.1322937011719
z: -0.4421760141849518
visibility: 0.9490691423416138
","x: 190.1707305908203
y: 288.8839111328125
z: -0.21204526722431183
visibility: 0.9197307229042053
","x: 256.41693115234375
y: 375.01824951171875
z: -0.035761166363954544
visibility: 0.9996734857559204
","x: 231.51779174804688
y: 373.085205078125
z: 0.03561355918645859
visibility: 0.9994723796844482
","x: 260.8435363769531
y: 471.6380310058594
z: -0.08151258528232574
visibility: 0.9917953610420227
","x: 218.25039672851562
y: 466.89678955078125
z: -0.011824915185570717
visibility: 0.9885649681091309
","x: 265.89776611328125
y: 543.9131469726562
z: 0.19376741349697113
visibility: 0.9898657202720642
","x: 218.35540771484375
y: 542.4805297851562
z: 0.21744318306446075
visibility: 0.9839661717414856
","x: 267.45965576171875
y: 551.66552734375
z: 0.19890356063842773
visibility: 0.8534266352653503
","x: 221.2389678955078
y: 549.9085083007812
z: 0.23428837954998016
visibility: 0.8011897206306458
","x: 261.8389587402344
y: 572.358642578125
z: 0.059520043432712555
visibility: 0.9835504293441772
","x: 219.76510620117188
y: 573.6192626953125
z: 0.10532589256763458
visibility: 0.9771351218223572
","x: 192.7009735107422
y: 289.0372619628906
z: 0.0
","x: 187.0580291748047
y: 289.76654052734375
z: 0.0014313210267573595
","x: 183.45225524902344
y: 288.47784423828125
z: 0.001361160073429346
","x: 181.70599365234375
y: 285.29833984375
z: 6.840245623607188e-05
","x: 182.51278686523438
y: 282.1537170410156
z: -0.0006859751301817596
","x: 183.07901000976562
y: 280.68121337890625
z: 0.0033396263606846333
","x: 180.5478515625
y: 277.81884765625
z: 0.0013347120257094502
","x: 182.10403442382812
y: 281.0171813964844
z: 0.0005835711490362883
","x: 183.58767700195312
y: 283.3761291503906
z: 0.0004577231011353433
","x: 184.3196563720703
y: 277.9117126464844
z: 0.0009099064627662301
","x: 181.91403198242188
y: 275.8448486328125
z: -0.0009703119285404682
","x: 183.22618103027344
y: 279.39935302734375
z: -0.0013302761362865567
","x: 184.57989501953125
y: 281.958740234375
z: -0.001159800449386239
","x: 185.9870147705078
y: 275.8956298828125
z: -0.0019443825585767627
","x: 183.6600341796875
y: 274.68670654296875
z: -0.0035543579142540693
","x: 184.64971923828125
y: 278.2983703613281
z: -0.0029001832008361816
","x: 185.85491943359375
y: 281.02056884765625
z: -0.0020890601444989443
","x: 187.74856567382812
y: 274.56201171875
z: -0.004995047114789486
","x: 185.83721923828125
y: 274.39251708984375
z: -0.005416008643805981
","x: 186.11109924316406
y: 277.2366638183594
z: -0.004538261331617832
","x: 186.9263153076172
y: 279.7308654785156
z: -0.003631497034803033
",,,,,,,,,,,,,,,,,,,,,
23,"x: 228.32546997070312
y: 192.4159393310547
z: -0.1767738312482834
visibility: 0.9999836683273315
","x: 234.4110870361328
y: 187.6334228515625
z: -0.17316439747810364
visibility: 0.9999603629112244
","x: 236.1162109375
y: 187.86415100097656
z: -0.17321430146694183
visibility: 0.9999564290046692
","x: 237.92068481445312
y: 188.04010009765625
z: -0.17319563031196594
visibility: 0.9999564290046692
","x: 231.6177978515625
y: 188.10040283203125
z: -0.1578824818134308
visibility: 0.9999516606330872
","x: 231.27854919433594
y: 188.6289825439453
z: -0.15792503952980042
visibility: 0.9999502301216125
","x: 230.76156616210938
y: 189.167236328125
z: -0.1579778790473938
visibility: 0.9999510049819946
","x: 242.4945831298828
y: 195.21340942382812
z: -0.1150757223367691
visibility: 0.9998974800109863
","x: 234.3770294189453
y: 196.95123291015625
z: -0.04147883504629135
visibility: 0.9999096393585205
","x: 231.8752899169922
y: 201.87350463867188
z: -0.15260735154151917
visibility: 0.9999826550483704
","x: 228.79977416992188
y: 201.858154296875
z: -0.1324450969696045
visibility: 0.9999787211418152
","x: 262.6065979003906
y: 245.9122314453125
z: -0.08004753291606903
visibility: 0.9999681711196899
","x: 222.7826690673828
y: 253.6929931640625
z: 0.0490897111594677
visibility: 0.9998776316642761
","x: 279.1165771484375
y: 308.3963623046875
z: -0.1975555717945099
visibility: 0.9833958148956299
","x: 216.17422485351562
y: 315.3214416503906
z: 0.021494338288903236
visibility: 0.9555742740631104
","x: 270.08331298828125
y: 289.88275146484375
z: -0.4496827721595764
visibility: 0.9833727478981018
","x: 187.33016967773438
y: 290.7823791503906
z: -0.2105131894350052
visibility: 0.9679469466209412
","x: 268.24310302734375
y: 278.3182373046875
z: -0.4983653128147125
visibility: 0.9643539786338806
","x: 180.6642608642578
y: 285.76190185546875
z: -0.24922895431518555
visibility: 0.9428461790084839
