uscmakers/ReverseChoreography/data/8_woman_doja_cat.csv
,NOSE,LEFT_EYE_INNER,LEFT_EYE,LEFT_EYE_OUTER,RIGHT_EYE_INNER,RIGHT_EYE,RIGHT_EYE_OUTER,LEFT_EAR,RIGHT_EAR,MOUTH_LEFT,MOUTH_RIGHT,LEFT_SHOULDER,RIGHT_SHOULDER,LEFT_ELBOW,RIGHT_ELBOW,LEFT_WRIST,RIGHT_WRIST,LEFT_PINKY,RIGHT_PINKY,LEFT_INDEX,RIGHT_INDEX,LEFT_THUMB,RIGHT_THUMB,LEFT_HIP,RIGHT_HIP,LEFT_KNEE,RIGHT_KNEE,LEFT_ANKLE,RIGHT_ANKLE,LEFT_HEEL,RIGHT_HEEL,LEFT_FOOT_INDEX,RIGHT_FOOT_INDEX,WRIST,THUMB_CPC,THUMB_MCP,THUMB_IP,THUMB_TIP,INDEX_FINGER_MCP,INDEX_FINGER_PIP,INDEX_FINGER_DIP,INDEX_FINGER_TIP,MIDDLE_FINGER_MCP,MIDDLE_FINGER_PIP,MIDDLE_FINGER_DIP,MIDDLE_FINGER_TIP,RING_FINGER_PIP,RING_FINGER_DIP,RING_FINGER_TIP,RING_FINGER_MCP,PINKY_MCP,PINKY_PIP,PINKY_DIP,PINKY_TIP,WRIST2,THUMB_CPC2,THUMB_MCP2,THUMB_IP2,THUMB_TIP2,INDEX_FINGER_MCP2,INDEX_FINGER_PIP2,INDEX_FINGER_DIP2,INDEX_FINGER_TIP2,MIDDLE_FINGER_MCP2,MIDDLE_FINGER_PIP2,MIDDLE_FINGER_DIP2,MIDDLE_FINGER_TIP2,RING_FINGER_PIP2,RING_FINGER_DIP2,RING_FINGER_TIP2,RING_FINGER_MCP2,PINKY_MCP2,PINKY_PIP2,PINKY_DIP2,PINKY_TIP2
0,"x: 252.13279724121094
y: 203.2904052734375
z: -0.1892819106578827
visibility: 0.9999984502792358
","x: 254.30909729003906
y: 196.27407836914062
z: -0.1681266874074936
visibility: 0.999997615814209
","x: 256.1623229980469
y: 196.35987854003906
z: -0.1681976616382599
visibility: 0.9999973773956299
","x: 257.5533142089844
y: 196.52587890625
z: -0.16825267672538757
visibility: 0.9999973773956299
","x: 248.88653564453125
y: 196.52880859375
z: -0.17065471410751343
visibility: 0.9999960660934448
","x: 247.14117431640625
y: 196.8736114501953
z: -0.17063476145267487
visibility: 0.9999948740005493
","x: 245.3175048828125
y: 197.60641479492188
z: -0.17054419219493866
visibility: 0.9999940395355225
","x: 260.18902587890625
y: 201.70498657226562
z: -0.043164730072021484
visibility: 0.9999959468841553
","x: 243.30819702148438
y: 204.0499267578125
z: -0.055423952639102936
visibility: 0.9999926090240479
","x: 255.64263916015625
y: 212.52529907226562
z: -0.1433885395526886
visibility: 0.9999984502792358
","x: 248.69032287597656
y: 214.146240234375
z: -0.14666004478931427
visibility: 0.9999974966049194
","x: 273.10888671875
y: 255.36485290527344
z: 0.04049961641430855
visibility: 0.999995231628418
","x: 231.92880249023438
y: 252.01873779296875
z: 0.012604127638041973
visibility: 0.9999467134475708
","x: 283.0792236328125
y: 309.55255126953125
z: -0.023708118125796318
visibility: 0.9892292618751526
","x: 222.94422912597656
y: 313.58929443359375
z: -0.05721306800842285
visibility: 0.9612421989440918
","x: 300.131591796875
y: 297.04876708984375
z: -0.2453639954328537
visibility: 0.9962207674980164
","x: 213.07589721679688
y: 302.595458984375
z: -0.2882182002067566
visibility: 0.9869158267974854
","x: 306.82867431640625
y: 293.3896484375
z: -0.29153570532798767
visibility: 0.9910351634025574
","x: 209.37364196777344
y: 301.706298828125
z: -0.3336329162120819
visibility: 0.9759944677352905
","x: 306.9929504394531
y: 288.7167663574219
z: -0.30832624435424805
visibility: 0.9921063184738159
","x: 209.68492126464844
y: 295.1929016113281
z: -0.3561403751373291
visibility: 0.9777787327766418
","x: 304.4487609863281
y: 289.60595703125
z: -0.2586630880832672
visibility: 0.9888010025024414
","x: 211.24754333496094
y: 295.18975830078125
z: -0.30370649695396423
visibility: 0.971805989742279
","x: 261.5542907714844
y: 368.9321594238281
z: 0.013235228136181831
visibility: 0.9999456405639648
","x: 237.23439025878906
y: 365.63543701171875
z: -0.013177139684557915
visibility: 0.9998608827590942
","x: 261.16339111328125
y: 461.1953125
z: -0.017848294228315353
visibility: 0.9949871301651001
","x: 228.66879272460938
y: 456.76702880859375
z: -0.022647952660918236
visibility: 0.9923549890518188
","x: 259.0849914550781
y: 541.4791259765625
z: 0.13265077769756317
visibility: 0.9919710159301758
","x: 219.3439178466797
y: 524.532470703125
z: 0.192903071641922
visibility: 0.9821219444274902
","x: 255.21142578125
y: 550.5487670898438
z: 0.13980787992477417
visibility: 0.904189944267273
","x: 221.00575256347656
y: 533.0899658203125
z: 0.20731225609779358
visibility: 0.7815871834754944
","x: 263.6917724609375
y: 563.6640014648438
z: 0.010418965481221676
visibility: 0.9859365224838257
","x: 212.689697265625
y: 550.912353515625
z: 0.09224765002727509
visibility: 0.9768784046173096
","x: 213.3852996826172
y: 303.739501953125
z: 0.0
","x: 214.41697692871094
y: 299.7462463378906
z: -0.004325879272073507
","x: 214.40338134765625
y: 295.4549560546875
z: -0.007165963761508465
","x: 212.986083984375
y: 293.6794738769531
z: -0.009829286485910416
","x: 210.99172973632812
y: 293.6747741699219
z: -0.01199561357498169
","x: 210.32167053222656
y: 289.66595458984375
z: -0.004436809569597244
","x: 208.21568298339844
y: 287.54693603515625
z: -0.008359353058040142
","x: 209.113037109375
y: 290.18023681640625
z: -0.00996279064565897
","x: 210.52606201171875
y: 292.278076171875
z: -0.010488215833902359
","x: 208.53787231445312
y: 292.4701232910156
z: -0.004266634117811918
","x: 206.3426513671875
y: 291.2764892578125
z: -0.008398722857236862
","x: 208.0551300048828
y: 294.3641357421875
z: -0.008972864598035812
","x: 209.653076171875
y: 296.07855224609375
z: -0.00849649403244257
","x: 207.4639129638672
y: 295.97955322265625
z: -0.004827168770134449
","x: 206.01084899902344
y: 296.1962890625
z: -0.00837462767958641
","x: 208.06980895996094
y: 298.4765319824219
z: -0.008011825382709503
","x: 209.6542510986328
y: 299.41632080078125
z: -0.00699826143682003
","x: 206.95941162109375
y: 299.8934631347656
z: -0.005951779428869486
","x: 206.11129760742188
y: 300.47784423828125
z: -0.008086965419352055
","x: 207.75718688964844
y: 302.0648498535156
z: -0.008014218881726265
","x: 209.134033203125
y: 302.6208190917969
z: -0.007343315985053778
",,,,,,,,,,,,,,,,,,,,,
1,"x: 252.13279724121094
y: 203.2904052734375
z: -0.1892819106578827
visibility: 0.9999984502792358
","x: 254.30909729003906
y: 196.27407836914062
z: -0.1681266874074936
visibility: 0.999997615814209
","x: 256.1623229980469
y: 196.35987854003906
z: -0.1681976616382599
visibility: 0.9999973773956299
","x: 257.5533142089844
y: 196.52587890625
z: -0.16825267672538757
visibility: 0.9999973773956299
","x: 248.88653564453125
y: 196.52880859375
z: -0.17065471410751343
visibility: 0.9999960660934448
","x: 247.14117431640625
y: 196.8736114501953
z: -0.17063476145267487
visibility: 0.9999948740005493
","x: 245.3175048828125
y: 197.60641479492188
z: -0.17054419219493866
visibility: 0.9999940395355225
","x: 260.18902587890625
y: 201.70498657226562
z: -0.043164730072021484
visibility: 0.9999959468841553
","x: 243.30819702148438
y: 204.0499267578125
z: -0.055423952639102936
visibility: 0.9999926090240479
","x: 255.64263916015625
y: 212.52529907226562
z: -0.1433885395526886
visibility: 0.9999984502792358
","x: 248.69032287597656
y: 214.146240234375
z: -0.14666004478931427
visibility: 0.9999974966049194
","x: 273.10888671875
y: 255.36485290527344
z: 0.04049961641430855
visibility: 0.999995231628418
","x: 231.92880249023438
y: 252.01873779296875
z: 0.012604127638041973
visibility: 0.9999467134475708
","x: 283.0792236328125
y: 309.55255126953125
z: -0.023708118125796318
visibility: 0.9892292618751526
","x: 222.94422912597656
y: 313.58929443359375
z: -0.05721306800842285
visibility: 0.9612421989440918
","x: 300.131591796875
y: 297.04876708984375
z: -0.2453639954328537
visibility: 0.9962207674980164
","x: 213.07589721679688
y: 302.595458984375
z: -0.2882182002067566
visibility: 0.9869158267974854
","x: 306.82867431640625
y: 293.3896484375
z: -0.29153570532798767
visibility: 0.9910351634025574
","x: 209.37364196777344
y: 301.706298828125
z: -0.3336329162120819
visibility: 0.9759944677352905
","x: 306.9929504394531
y: 288.7167663574219
z: -0.30832624435424805
visibility: 0.9921063184738159
","x: 209.68492126464844
y: 295.1929016113281
z: -0.3561403751373291
visibility: 0.9777787327766418
","x: 304.4487609863281
y: 289.60595703125
z: -0.2586630880832672
visibility: 0.9888010025024414
","x: 211.24754333496094
y: 295.18975830078125
z: -0.30370649695396423
visibility: 0.971805989742279
","x: 261.5542907714844
y: 368.9321594238281
z: 0.013235228136181831
visibility: 0.9999456405639648
","x: 237.23439025878906
y: 365.63543701171875
z: -0.013177139684557915
visibility: 0.9998608827590942
","x: 261.16339111328125
y: 461.1953125
z: -0.017848294228315353
visibility: 0.9949871301651001
","x: 228.66879272460938
y: 456.76702880859375
z: -0.022647952660918236
visibility: 0.9923549890518188
","x: 259.0849914550781
y: 541.4791259765625
z: 0.13265077769756317
visibility: 0.9919710159301758
","x: 219.3439178466797
y: 524.532470703125
z: 0.192903071641922
visibility: 0.9821219444274902
","x: 255.21142578125
y: 550.5487670898438
z: 0.13980787992477417
visibility: 0.904189944267273
","x: 221.00575256347656
y: 533.0899658203125
z: 0.20731225609779358
visibility: 0.7815871834754944
","x: 263.6917724609375
y: 563.6640014648438
z: 0.010418965481221676
visibility: 0.9859365224838257
","x: 212.689697265625
y: 550.912353515625
z: 0.09224765002727509
visibility: 0.9768784046173096
","x: 213.3852996826172
y: 303.739501953125
z: 0.0
","x: 214.41697692871094
y: 299.7462463378906
z: -0.004325879272073507
","x: 214.40338134765625
y: 295.4549560546875
z: -0.007165963761508465
","x: 212.986083984375
y: 293.6794738769531
z: -0.009829286485910416
","x: 210.99172973632812
y: 293.6747741699219
z: -0.01199561357498169
","x: 210.32167053222656
y: 289.66595458984375
z: -0.004436809569597244
","x: 208.21568298339844
y: 287.54693603515625
z: -0.008359353058040142
","x: 209.113037109375
y: 290.18023681640625
z: -0.00996279064565897
","x: 210.52606201171875
y: 292.278076171875
z: -0.010488215833902359
","x: 208.53787231445312
y: 292.4701232910156
z: -0.004266634117811918
","x: 206.3426513671875
y: 291.2764892578125
z: -0.008398722857236862
","x: 208.0551300048828
y: 294.3641357421875
z: -0.008972864598035812
","x: 209.653076171875
y: 296.07855224609375
z: -0.00849649403244257
","x: 207.4639129638672
y: 295.97955322265625
z: -0.004827168770134449
","x: 206.01084899902344
y: 296.1962890625
z: -0.00837462767958641
","x: 208.06980895996094
y: 298.4765319824219
z: -0.008011825382709503
","x: 209.6542510986328
y: 299.41632080078125
z: -0.00699826143682003
","x: 206.95941162109375
y: 299.8934631347656
z: -0.005951779428869486
","x: 206.11129760742188
y: 300.47784423828125
z: -0.008086965419352055
","x: 207.75718688964844
y: 302.0648498535156
z: -0.008014218881726265
","x: 209.134033203125
y: 302.6208190917969
z: -0.007343315985053778
",,,,,,,,,,,,,,,,,,,,,
2,"x: 213.3983612060547
y: 202.95358276367188
z: -0.16761961579322815
visibility: 0.9999972581863403
","x: 216.49180603027344
y: 196.07485961914062
z: -0.151727095246315
visibility: 0.9999954700469971
","x: 218.54354858398438
y: 196.22705078125
z: -0.1517789363861084
visibility: 0.9999953508377075
","x: 220.4457550048828
y: 196.45216369628906
z: -0.15180078148841858
visibility: 0.9999949932098389
","x: 211.20565795898438
y: 195.85511779785156
z: -0.14573511481285095
visibility: 0.9999927878379822
","x: 209.87391662597656
y: 195.911865234375
z: -0.14571553468704224
visibility: 0.9999912977218628
","x: 207.88449096679688
y: 196.0480499267578
z: -0.14566466212272644
visibility: 0.9999903440475464
","x: 223.3421630859375
y: 201.71331787109375
z: -0.044703565537929535
visibility: 0.9999944567680359
","x: 205.49656677246094
y: 202.39718627929688
z: -0.02347114309668541
visibility: 0.9999849200248718
","x: 216.30233764648438
y: 212.59112548828125
z: -0.1293550282716751
visibility: 0.9999973773956299
","x: 210.02435302734375
y: 213.57420349121094
z: -0.12197134643793106
visibility: 0.9999955296516418
","x: 234.40164184570312
y: 249.96070861816406
z: -0.007543556392192841
visibility: 0.9999924302101135
","x: 194.0458221435547
y: 252.17344665527344
z: 0.07944618910551071
visibility: 0.9999295473098755
","x: 242.3347930908203
y: 309.5810852050781
z: -0.1251187026500702
visibility: 0.9895182251930237
","x: 185.33033752441406
y: 311.81536865234375
z: -0.010265546850860119
visibility: 0.9575133919715881
","x: 228.2655487060547
y: 271.5952453613281
z: -0.31338074803352356
visibility: 0.9958816766738892
","x: 182.55184936523438
y: 274.44549560546875
z: -0.26495814323425293
visibility: 0.9868921637535095
","x: 225.74378967285156
y: 261.4987487792969
z: -0.3533560037612915
visibility: 0.9901228547096252
","x: 182.63169860839844
y: 264.1009826660156
z: -0.3074529469013214
visibility: 0.9758340716362
","x: 226.42459106445312
y: 255.7115020751953
z: -0.3424190580844879
visibility: 0.9908984899520874
","x: 182.87359619140625
y: 258.74798583984375
z: -0.3103395104408264
visibility: 0.9772325158119202
","x: 226.42813110351562
y: 258.1872863769531
z: -0.3118707835674286
visibility: 0.9866662621498108
","x: 183.30747985839844
y: 261.00396728515625
z: -0.2730220556259155
visibility: 0.970696747303009
","x: 225.78578186035156
y: 366.0950927734375
z: -0.03471839427947998
visibility: 0.9999008774757385
","x: 202.1656494140625
y: 365.348388671875
z: 0.0346866250038147
visibility: 0.9997935891151428
","x: 217.03700256347656
y: 457.98480224609375
z: -0.022671321406960487
visibility: 0.9948217868804932
","x: 205.45849609375
y: 456.6015930175781
z: 0.04056522250175476
visibility: 0.9913099408149719
","x: 224.16287231445312
y: 535.715576171875
z: 0.12486396729946136
visibility: 0.9919583797454834
","x: 205.84197998046875
y: 534.130859375
z: 0.19294655323028564
visibility: 0.9823492765426636
","x: 225.9279327392578
y: 545.4590454101562
z: 0.13138402998447418
visibility: 0.8943219780921936
","x: 209.2449951171875
y: 547.276611328125
z: 0.20376987755298615
visibility: 0.7915781140327454
","x: 217.8812255859375
y: 562.80908203125
z: -0.006284255534410477
visibility: 0.9860308170318604
","x: 200.57803344726562
y: 558.9368896484375
z: 0.08229070156812668
visibility: 0.9773299694061279
","x: 182.48849487304688
y: 267.450927734375
z: 0.0
","x: 184.78367614746094
y: 261.0041198730469
z: 0.00040066608926281333
","x: 186.4686737060547
y: 254.61355590820312
z: 0.0001392624544678256
","x: 187.44859313964844
y: 249.7334442138672
z: -0.0010029602563008666
","x: 188.40213012695312
y: 246.24563598632812
z: -0.0015560407191514969
","x: 183.51248168945312
y: 249.6656494140625
z: 0.0025099499616771936
","x: 183.8976593017578
y: 245.72401428222656
z: 0.00039622592157684267
","x: 184.44419860839844
y: 249.7979736328125
z: -0.0002223229530500248
","x: 184.74118041992188
y: 253.28695678710938
z: -0.00014446793647948653
","x: 181.4869842529297
y: 250.40771484375
z: 0.0007919711642898619
","x: 181.90757751464844
y: 247.2228240966797
z: -0.001268630032427609
","x: 182.6317901611328
y: 251.9570770263672
z: -0.0012830969644710422
","x: 182.95602416992188
y: 255.33731079101562
z: -0.0006684073596261442
","x: 179.40731811523438
y: 251.8637237548828
z: -0.0014715146971866488
","x: 179.9310302734375
y: 249.5662841796875
z: -0.003401228692382574
","x: 180.844482421875
y: 253.73263549804688
z: -0.0025710398331284523
","x: 181.39035034179688
y: 256.5691833496094
z: -0.0014002653770148754
","x: 177.33831787109375
y: 253.9020538330078
z: -0.003984392620623112
","x: 177.72471618652344
y: 251.40963745117188
z: -0.004836526233702898
","x: 178.6546630859375
y: 254.05462646484375
z: -0.003987384494394064
","x: 179.2641143798828
y: 256.37664794921875
z: -0.0028592755552381277
","x: 224.66433715820312
y: 267.8658142089844
z: 0.0
","x: 221.12332153320312
y: 259.4742126464844
z: 0.00178348901681602
","x: 220.080322265625
y: 252.34170532226562
z: 0.0005897895898669958
","x: 218.93206787109375
y: 246.73675537109375
z: -0.001528492197394371
","x: 217.8280029296875
y: 242.49758911132812
z: -0.00288752862252295
","x: 225.73428344726562
y: 245.9305419921875
z: 0.000686957617290318
","x: 221.92303466796875
y: 240.73240661621094
z: -0.001153580262325704
","x: 220.73435974121094
y: 243.18121337890625
z: -0.001550922286696732
","x: 220.71499633789062
y: 245.0685272216797
z: -0.0017420839285477996
","x: 226.2313995361328
y: 247.78292846679688
z: -0.0021449888590723276
","x: 220.5531768798828
y: 243.74200439453125
z: -0.004023502580821514
","x: 219.48245239257812
y: 247.23670959472656
z: -0.0034845888148993254
","x: 219.76547241210938
y: 250.12786865234375
z: -0.0029750890098512173
","x: 226.0574951171875
y: 250.29522705078125
z: -0.005074464716017246
","x: 220.5179901123047
y: 247.11570739746094
z: -0.006525794975459576
","x: 219.470703125
y: 250.58599853515625
z: -0.005095717031508684
","x: 219.78863525390625
y: 253.42210388183594
z: -0.00405202666297555
","x: 225.30068969726562
y: 253.27938842773438
z: -0.008050531148910522
","x: 221.0909423828125
y: 250.5728759765625
z: -0.00852020364254713
","x: 220.0451202392578
y: 253.04312133789062
z: -0.007191612385213375
","x: 220.07716369628906
y: 255.60472106933594
z: -0.006182831712067127
"
3,"x: 213.3983612060547
y: 202.95358276367188
z: -0.16761961579322815
visibility: 0.9999972581863403
","x: 216.49180603027344
y: 196.07485961914062
z: -0.151727095246315
visibility: 0.9999954700469971
","x: 218.54354858398438
y: 196.22705078125
z: -0.1517789363861084
visibility: 0.9999953508377075
","x: 220.4457550048828
y: 196.45216369628906
z: -0.15180078148841858
visibility: 0.9999949932098389
","x: 211.20565795898438
y: 195.85511779785156
z: -0.14573511481285095
visibility: 0.9999927878379822
","x: 209.87391662597656
y: 195.911865234375
z: -0.14571553468704224
visibility: 0.9999912977218628
","x: 207.88449096679688
y: 196.0480499267578
z: -0.14566466212272644
visibility: 0.9999903440475464
","x: 223.3421630859375
y: 201.71331787109375
z: -0.044703565537929535
visibility: 0.9999944567680359
","x: 205.49656677246094
y: 202.39718627929688
z: -0.02347114309668541
visibility: 0.9999849200248718
","x: 216.30233764648438
y: 212.59112548828125
z: -0.1293550282716751
visibility: 0.9999973773956299
","x: 210.02435302734375
y: 213.57420349121094
z: -0.12197134643793106
visibility: 0.9999955296516418
","x: 234.40164184570312
y: 249.96070861816406
z: -0.007543556392192841
visibility: 0.9999924302101135
","x: 194.0458221435547
y: 252.17344665527344
z: 0.07944618910551071
visibility: 0.9999295473098755
","x: 242.3347930908203
y: 309.5810852050781
z: -0.1251187026500702
visibility: 0.9895182251930237
","x: 185.33033752441406
y: 311.81536865234375
z: -0.010265546850860119
visibility: 0.9575133919715881
","x: 228.2655487060547
y: 271.5952453613281
z: -0.31338074803352356
visibility: 0.9958816766738892
","x: 182.55184936523438
y: 274.44549560546875
z: -0.26495814323425293
visibility: 0.9868921637535095
","x: 225.74378967285156
y: 261.4987487792969
z: -0.3533560037612915
visibility: 0.9901228547096252
","x: 182.63169860839844
y: 264.1009826660156
z: -0.3074529469013214
visibility: 0.9758340716362
","x: 226.42459106445312
y: 255.7115020751953
z: -0.3424190580844879
visibility: 0.9908984899520874
","x: 182.87359619140625
y: 258.74798583984375
z: -0.3103395104408264
visibility: 0.9772325158119202
","x: 226.42813110351562
y: 258.1872863769531
z: -0.3118707835674286
visibility: 0.9866662621498108
","x: 183.30747985839844
y: 261.00396728515625
z: -0.2730220556259155
visibility: 0.970696747303009
","x: 225.78578186035156
y: 366.0950927734375
z: -0.03471839427947998
visibility: 0.9999008774757385
","x: 202.1656494140625
y: 365.348388671875
z: 0.0346866250038147
visibility: 0.9997935891151428
","x: 217.03700256347656
y: 457.98480224609375
z: -0.022671321406960487
visibility: 0.9948217868804932
","x: 205.45849609375
y: 456.6015930175781
z: 0.04056522250175476
visibility: 0.9913099408149719
","x: 224.16287231445312
y: 535.715576171875
z: 0.12486396729946136
visibility: 0.9919583797454834
","x: 205.84197998046875
y: 534.130859375
z: 0.19294655323028564
visibility: 0.9823492765426636
","x: 225.9279327392578
y: 545.4590454101562
z: 0.13138402998447418
visibility: 0.8943219780921936
","x: 209.2449951171875
y: 547.276611328125
z: 0.20376987755298615
visibility: 0.7915781140327454
","x: 217.8812255859375
y: 562.80908203125
z: -0.006284255534410477
visibility: 0.9860308170318604
","x: 200.57803344726562
y: 558.9368896484375
z: 0.08229070156812668
visibility: 0.9773299694061279
","x: 182.48849487304688
y: 267.450927734375
z: 0.0
","x: 184.78367614746094
y: 261.0041198730469
z: 0.00040066608926281333
","x: 186.4686737060547
y: 254.61355590820312
z: 0.0001392624544678256
","x: 187.44859313964844
y: 249.7334442138672
z: -0.0010029602563008666
","x: 188.40213012695312
y: 246.24563598632812
z: -0.0015560407191514969
","x: 183.51248168945312
y: 249.6656494140625
z: 0.0025099499616771936
","x: 183.8976593017578
y: 245.72401428222656
z: 0.00039622592157684267
","x: 184.44419860839844
y: 249.7979736328125
z: -0.0002223229530500248
","x: 184.74118041992188
y: 253.28695678710938
z: -0.00014446793647948653
","x: 181.4869842529297
y: 250.40771484375
z: 0.0007919711642898619
","x: 181.90757751464844
y: 247.2228240966797
z: -0.001268630032427609
","x: 182.6317901611328
y: 251.9570770263672
z: -0.0012830969644710422
","x: 182.95602416992188
y: 255.33731079101562
z: -0.0006684073596261442
","x: 179.40731811523438
y: 251.8637237548828
z: -0.0014715146971866488
","x: 179.9310302734375
y: 249.5662841796875
z: -0.003401228692382574
","x: 180.844482421875
y: 253.73263549804688
z: -0.0025710398331284523
","x: 181.39035034179688
y: 256.5691833496094
z: -0.0014002653770148754
","x: 177.33831787109375
y: 253.9020538330078
z: -0.003984392620623112
","x: 177.72471618652344
y: 251.40963745117188
z: -0.004836526233702898
","x: 178.6546630859375
y: 254.05462646484375
z: -0.003987384494394064
","x: 179.2641143798828
y: 256.37664794921875
z: -0.0028592755552381277
","x: 224.66433715820312
y: 267.8658142089844
z: 0.0
","x: 221.12332153320312
y: 259.4742126464844
z: 0.00178348901681602
","x: 220.080322265625
y: 252.34170532226562
z: 0.0005897895898669958
","x: 218.93206787109375
y: 246.73675537109375
z: -0.001528492197394371
","x: 217.8280029296875
y: 242.49758911132812
z: -0.00288752862252295
","x: 225.73428344726562
y: 245.9305419921875
z: 0.000686957617290318
","x: 221.92303466796875
y: 240.73240661621094
z: -0.001153580262325704
","x: 220.73435974121094
y: 243.18121337890625
z: -0.001550922286696732
","x: 220.71499633789062
y: 245.0685272216797
z: -0.0017420839285477996
","x: 226.2313995361328
y: 247.78292846679688
z: -0.0021449888590723276
","x: 220.5531768798828
y: 243.74200439453125
z: -0.004023502580821514
","x: 219.48245239257812
y: 247.23670959472656
z: -0.0034845888148993254
","x: 219.76547241210938
y: 250.12786865234375
z: -0.0029750890098512173
","x: 226.0574951171875
y: 250.29522705078125
z: -0.005074464716017246
","x: 220.5179901123047
y: 247.11570739746094
z: -0.006525794975459576
","x: 219.470703125
y: 250.58599853515625
z: -0.005095717031508684
","x: 219.78863525390625
y: 253.42210388183594
z: -0.00405202666297555
","x: 225.30068969726562
y: 253.27938842773438
z: -0.008050531148910522
","x: 221.0909423828125
y: 250.5728759765625
z: -0.00852020364254713
","x: 220.0451202392578
y: 253.04312133789062
z: -0.007191612385213375
","x: 220.07716369628906
y: 255.60472106933594
z: -0.006182831712067127
"
4,"x: 213.3983612060547
y: 202.95358276367188
z: -0.16761961579322815
visibility: 0.9999972581863403
","x: 216.49180603027344
y: 196.07485961914062
z: -0.151727095246315
visibility: 0.9999954700469971
","x: 218.54354858398438
y: 196.22705078125
z: -0.1517789363861084
visibility: 0.9999953508377075
","x: 220.4457550048828
y: 196.45216369628906
z: -0.15180078148841858
visibility: 0.9999949932098389
","x: 211.20565795898438
y: 195.85511779785156
z: -0.14573511481285095
visibility: 0.9999927878379822
","x: 209.87391662597656
y: 195.911865234375
z: -0.14571553468704224
visibility: 0.9999912977218628
","x: 207.88449096679688
y: 196.0480499267578
z: -0.14566466212272644
visibility: 0.9999903440475464
","x: 223.3421630859375
y: 201.71331787109375
z: -0.044703565537929535
visibility: 0.9999944567680359
","x: 205.49656677246094
y: 202.39718627929688
z: -0.02347114309668541
visibility: 0.9999849200248718
","x: 216.30233764648438
y: 212.59112548828125
z: -0.1293550282716751
visibility: 0.9999973773956299
","x: 210.02435302734375
y: 213.57420349121094
z: -0.12197134643793106
visibility: 0.9999955296516418
","x: 234.40164184570312
y: 249.96070861816406
z: -0.007543556392192841
visibility: 0.9999924302101135
","x: 194.0458221435547
y: 252.17344665527344
z: 0.07944618910551071
visibility: 0.9999295473098755
","x: 242.3347930908203
y: 309.5810852050781
z: -0.1251187026500702
visibility: 0.9895182251930237
","x: 185.33033752441406
y: 311.81536865234375
z: -0.010265546850860119
visibility: 0.9575133919715881
","x: 228.2655487060547
y: 271.5952453613281
z: -0.31338074803352356
visibility: 0.9958816766738892
","x: 182.55184936523438
y: 274.44549560546875
z: -0.26495814323425293
visibility: 0.9868921637535095
","x: 225.74378967285156
y: 261.4987487792969
z: -0.3533560037612915
visibility: 0.9901228547096252
","x: 182.63169860839844
y: 264.1009826660156
z: -0.3074529469013214
visibility: 0.9758340716362
","x: 226.42459106445312
y: 255.7115020751953
z: -0.3424190580844879
visibility: 0.9908984899520874
","x: 182.87359619140625
y: 258.74798583984375
z: -0.3103395104408264
visibility: 0.9772325158119202
","x: 226.42813110351562
y: 258.1872863769531
z: -0.3118707835674286
visibility: 0.9866662621498108
","x: 183.30747985839844
y: 261.00396728515625
z: -0.2730220556259155
visibility: 0.970696747303009
","x: 225.78578186035156
y: 366.0950927734375
z: -0.03471839427947998
visibility: 0.9999008774757385
","x: 202.1656494140625
y: 365.348388671875
z: 0.0346866250038147
visibility: 0.9997935891151428
","x: 217.03700256347656
y: 457.98480224609375
z: -0.022671321406960487
visibility: 0.9948217868804932
","x: 205.45849609375
y: 456.6015930175781
z: 0.04056522250175476
visibility: 0.9913099408149719
","x: 224.16287231445312
y: 535.715576171875
z: 0.12486396729946136
visibility: 0.9919583797454834
","x: 205.84197998046875
y: 534.130859375
z: 0.19294655323028564
visibility: 0.9823492765426636
","x: 225.9279327392578
y: 545.4590454101562
z: 0.13138402998447418
visibility: 0.8943219780921936
","x: 209.2449951171875
y: 547.276611328125
z: 0.20376987755298615
visibility: 0.7915781140327454
","x: 217.8812255859375
y: 562.80908203125
z: -0.006284255534410477
visibility: 0.9860308170318604
","x: 200.57803344726562
y: 558.9368896484375
z: 0.08229070156812668
visibility: 0.9773299694061279
","x: 182.48849487304688
y: 267.450927734375
z: 0.0
","x: 184.78367614746094
y: 261.0041198730469
z: 0.00040066608926281333
","x: 186.4686737060547
y: 254.61355590820312
z: 0.0001392624544678256
","x: 187.44859313964844
y: 249.7334442138672
z: -0.0010029602563008666
","x: 188.40213012695312
y: 246.24563598632812
z: -0.0015560407191514969
","x: 183.51248168945312
y: 249.6656494140625
z: 0.0025099499616771936
","x: 183.8976593017578
y: 245.72401428222656
z: 0.00039622592157684267
","x: 184.44419860839844
y: 249.7979736328125
z: -0.0002223229530500248
","x: 184.74118041992188
y: 253.28695678710938
z: -0.00014446793647948653
","x: 181.4869842529297
y: 250.40771484375
z: 0.0007919711642898619
","x: 181.90757751464844
y: 247.2228240966797
z: -0.001268630032427609
","x: 182.6317901611328
y: 251.9570770263672
z: -0.0012830969644710422
","x: 182.95602416992188
y: 255.33731079101562
z: -0.0006684073596261442
","x: 179.40731811523438
y: 251.8637237548828
z: -0.0014715146971866488
","x: 179.9310302734375
y: 249.5662841796875
z: -0.003401228692382574
","x: 180.844482421875
y: 253.73263549804688
z: -0.0025710398331284523
","x: 181.39035034179688
y: 256.5691833496094
z: -0.0014002653770148754
","x: 177.33831787109375
y: 253.9020538330078
z: -0.003984392620623112
","x: 177.72471618652344
y: 251.40963745117188
z: -0.004836526233702898
","x: 178.6546630859375
y: 254.05462646484375
z: -0.003987384494394064
","x: 179.2641143798828
y: 256.37664794921875
z: -0.0028592755552381277
","x: 224.66433715820312
y: 267.8658142089844
z: 0.0
","x: 221.12332153320312
y: 259.4742126464844
z: 0.00178348901681602
","x: 220.080322265625
y: 252.34170532226562
z: 0.0005897895898669958
","x: 218.93206787109375
y: 246.73675537109375
z: -0.001528492197394371
","x: 217.8280029296875
y: 242.49758911132812
z: -0.00288752862252295
","x: 225.73428344726562
y: 245.9305419921875
z: 0.000686957617290318
","x: 221.92303466796875
y: 240.73240661621094
z: -0.001153580262325704
","x: 220.73435974121094
y: 243.18121337890625
z: -0.001550922286696732
","x: 220.71499633789062
y: 245.0685272216797
z: -0.0017420839285477996
","x: 226.2313995361328
y: 247.78292846679688
z: -0.0021449888590723276
","x: 220.5531768798828
y: 243.74200439453125
z: -0.004023502580821514
","x: 219.48245239257812
y: 247.23670959472656
z: -0.0034845888148993254
","x: 219.76547241210938
y: 250.12786865234375
z: -0.0029750890098512173
","x: 226.0574951171875
y: 250.29522705078125
z: -0.005074464716017246
","x: 220.5179901123047
y: 247.11570739746094
z: -0.006525794975459576
","x: 219.470703125
y: 250.58599853515625
z: -0.005095717031508684
","x: 219.78863525390625
y: 253.42210388183594
z: -0.00405202666297555
","x: 225.30068969726562
y: 253.27938842773438
z: -0.008050531148910522
","x: 221.0909423828125
y: 250.5728759765625
z: -0.00852020364254713
","x: 220.0451202392578
y: 253.04312133789062
z: -0.007191612385213375
","x: 220.07716369628906
y: 255.60472106933594
z: -0.006182831712067127
"
5,"x: 211.22047424316406
y: 202.59584045410156
z: -0.22006316483020782
visibility: 0.9999971985816956
","x: 213.96237182617188
y: 195.04638671875
z: -0.20502761006355286
visibility: 0.9999953508377075
","x: 215.8701629638672
y: 195.1953887939453
z: -0.2050677239894867
visibility: 0.9999951720237732
","x: 217.51815795898438
y: 195.4551544189453
z: -0.2050759494304657
visibility: 0.9999947547912598
","x: 208.58901977539062
y: 194.83837890625
z: -0.19844236969947815
visibility: 0.9999926686286926
","x: 206.21871948242188
y: 194.88058471679688
z: -0.19844703376293182
visibility: 0.9999911785125732
","x: 203.9618377685547
y: 195.00997924804688
z: -0.19842299818992615
visibility: 0.9999903440475464
","x: 220.20855712890625
y: 201.04209899902344
z: -0.09919658303260803
visibility: 0.9999943971633911
","x: 201.582275390625
y: 201.0639190673828
z: -0.07014225423336029
visibility: 0.999984085559845
","x: 213.54873657226562
y: 212.5811004638672
z: -0.17984351515769958
visibility: 0.9999972581863403
","x: 207.13584899902344
y: 213.4497833251953
z: -0.17176379263401031
visibility: 0.9999954104423523
","x: 230.4718475341797
y: 248.8091278076172
z: -0.06778249144554138
visibility: 0.9999914765357971
","x: 191.36386108398438
y: 252.19668579101562
z: 0.05119758099317551
visibility: 0.9999226927757263
","x: 239.07711791992188
y: 309.6214599609375
z: -0.20457343757152557
visibility: 0.9901862144470215
","x: 183.9239044189453
y: 311.9420166015625
z: -0.043885938823223114
visibility: 0.9540859460830688
","x: 225.6530303955078
y: 267.910888671875
z: -0.42613211274147034
visibility: 0.9959837794303894
","x: 179.86105346679688
y: 268.94525146484375
z: -0.33910083770751953
visibility: 0.987095057964325
","x: 222.57774353027344
y: 257.45062255859375
z: -0.4719206690788269
visibility: 0.9903095960617065
","x: 179.00669860839844
y: 256.326171875
z: -0.3842502534389496
visibility: 0.9761502146720886
","x: 223.7952117919922
y: 251.3543701171875
z: -0.4605684280395508
visibility: 0.9909460544586182
","x: 179.50152587890625
y: 252.38818359375
z: -0.3846769332885742
visibility: 0.9772899746894836
","x: 223.76083374023438
y: 254.39178466796875
z: -0.4249831736087799
visibility: 0.9864212274551392
","x: 180.4265899658203
y: 255.27496337890625
z: -0.346404492855072
visibility: 0.9703871607780457
","x: 223.21664428710938
y: 363.9678649902344
z: -0.04599868506193161
visibility: 0.9998867511749268
","x: 200.1016845703125
y: 364.6681213378906
z: 0.04585791379213333
visibility: 0.999775230884552
","x: 213.3003387451172
y: 454.91522216796875
z: -0.065864697098732
visibility: 0.9949735403060913
","x: 201.35220336914062
y: 456.4896240234375
z: 0.031366802752017975
visibility: 0.9898240566253662
","x: 227.64816284179688
y: 528.94775390625
z: 0.13529294729232788
visibility: 0.992221474647522
","x: 202.43838500976562
y: 535.3873901367188
z: 0.21007493138313293
visibility: 0.9829944968223572
","x: 231.27774047851562
y: 535.328857421875
z: 0.14968989789485931
visibility: 0.8909814357757568
","x: 206.07861328125
y: 547.7461547851562
z: 0.22137287259101868
visibility: 0.8051609396934509
","x: 218.95465087890625
y: 561.983154296875
z: 0.026011798530817032
visibility: 0.9866414666175842
","x: 198.50863647460938
y: 561.481689453125
z: 0.10148392617702484
visibility: 0.9782609343528748
","x: 179.14089965820312
y: 267.0152282714844
z: 0.0
","x: 182.0762939453125
y: 263.42608642578125
z: -0.0016250319313257933
","x: 184.4573211669922
y: 258.5773010253906
z: -0.0030181927140802145
","x: 185.3478240966797
y: 253.947265625
z: -0.0048017725348472595
","x: 185.43084716796875
y: 249.938720703125
z: -0.006046785973012447
","x: 183.78147888183594
y: 251.36712646484375
z: -0.0004655846569221467
","x: 183.0022430419922
y: 247.19338989257812
z: -0.0032778552267700434
","x: 182.10426330566406
y: 249.77536010742188
z: -0.004308806266635656
","x: 181.8279571533203
y: 252.21096801757812
z: -0.004478404298424721
","x: 181.35240173339844
y: 250.57730102539062
z: -0.001248675980605185
","x: 180.27182006835938
y: 247.11631774902344
z: -0.0044256155379116535
","x: 179.67784118652344
y: 251.68707275390625
z: -0.004719850141555071
","x: 179.80258178710938
y: 254.93539428710938
z: -0.004026232752948999
","x: 178.97853088378906
y: 250.8953094482422
z: -0.0026041038800030947
","x: 177.7962188720703
y: 248.38699340820312
z: -0.0054684048518538475
","x: 177.70297241210938
y: 252.84661865234375
z: -0.0048735300078988075
","x: 178.127197265625
y: 255.67459106445312
z: -0.0036701352801173925
","x: 176.77615356445312
y: 252.17469787597656
z: -0.004309043753892183
","x: 175.85374450683594
y: 250.3303680419922
z: -0.005865131970494986
","x: 176.19174194335938
y: 253.54736328125
z: -0.005371680948883295
","x: 176.9396209716797
y: 255.71487426757812
z: -0.0043853032402694225
","x: 224.44219970703125
y: 268.0686340332031
z: 0.0
","x: 220.87527465820312
y: 259.0719299316406
z: 0.0029923617839813232
","x: 220.1638641357422
y: 251.7352294921875
z: 0.002442146185785532
","x: 219.53878784179688
y: 246.48077392578125
z: 0.000793576764408499
","x: 218.73870849609375
y: 242.34434509277344
z: -0.00018501949671190232
","x: 225.5636444091797
y: 244.41236877441406
z: 0.001554327318444848
","x: 220.93124389648438
y: 241.24716186523438
z: -0.0003149227995891124
","x: 219.4272003173828
y: 245.57525634765625
z: -0.0006747678853571415
","x: 219.6437225341797
y: 248.49520874023438
z: -0.0007067502592690289
","x: 226.3469696044922
y: 246.19911193847656
z: -0.0019134152680635452
","x: 220.95008850097656
y: 243.29547119140625
z: -0.003484804183244705
","x: 219.49786376953125
y: 247.1990203857422
z: -0.0027531301602721214
","x: 219.6358184814453
y: 250.2295684814453
z: -0.002240197965875268
","x: 226.44265747070312
y: 249.18301391601562
z: -0.005458648782223463
","x: 221.23837280273438
y: 246.5703582763672
z: -0.006579109467566013
","x: 219.89120483398438
y: 250.13888549804688
z: -0.0047811404801905155
","x: 220.01316833496094
y: 252.89309692382812
z: -0.0036258737090975046
","x: 225.87376403808594
y: 252.87228393554688
z: -0.008954694494605064
","x: 221.843505859375
y: 250.45223999023438
z: -0.009169372729957104
","x: 220.2926788330078
y: 252.59397888183594
z: -0.0075517031364142895
","x: 219.9054718017578
y: 254.66680908203125
z: -0.0063929189927875996
"
6,"x: 211.22047424316406
y: 202.59584045410156
z: -0.22006316483020782
visibility: 0.9999971985816956
","x: 213.96237182617188
y: 195.04638671875
z: -0.20502761006355286
visibility: 0.9999953508377075
","x: 215.8701629638672
y: 195.1953887939453
z: -0.2050677239894867
visibility: 0.9999951720237732
","x: 217.51815795898438
y: 195.4551544189453
z: -0.2050759494304657
visibility: 0.9999947547912598
","x: 208.58901977539062
y: 194.83837890625
z: -0.19844236969947815
visibility: 0.9999926686286926
","x: 206.21871948242188
y: 194.88058471679688
z: -0.19844703376293182
visibility: 0.9999911785125732
","x: 203.9618377685547
y: 195.00997924804688
z: -0.19842299818992615
visibility: 0.9999903440475464
","x: 220.20855712890625
y: 201.04209899902344
z: -0.09919658303260803
visibility: 0.9999943971633911
","x: 201.582275390625
y: 201.0639190673828
z: -0.07014225423336029
visibility: 0.999984085559845
","x: 213.54873657226562
y: 212.5811004638672
z: -0.17984351515769958
visibility: 0.9999972581863403
","x: 207.13584899902344
y: 213.4497833251953
z: -0.17176379263401031
visibility: 0.9999954104423523
","x: 230.4718475341797
y: 248.8091278076172
z: -0.06778249144554138
visibility: 0.9999914765357971
","x: 191.36386108398438
y: 252.19668579101562
z: 0.05119758099317551
visibility: 0.9999226927757263
","x: 239.07711791992188
y: 309.6214599609375
z: -0.20457343757152557
visibility: 0.9901862144470215
","x: 183.9239044189453
y: 311.9420166015625
z: -0.043885938823223114
visibility: 0.9540859460830688
","x: 225.6530303955078
y: 267.910888671875
z: -0.42613211274147034
visibility: 0.9959837794303894
","x: 179.86105346679688
y: 268.94525146484375
z: -0.33910083770751953
visibility: 0.987095057964325
","x: 222.57774353027344
y: 257.45062255859375
z: -0.4719206690788269
visibility: 0.9903095960617065
","x: 179.00669860839844
y: 256.326171875
z: -0.3842502534389496
visibility: 0.9761502146720886
","x: 223.7952117919922
y: 251.3543701171875
z: -0.4605684280395508
visibility: 0.9909460544586182
","x: 179.50152587890625
y: 252.38818359375
z: -0.3846769332885742
visibility: 0.9772899746894836
","x: 223.76083374023438
y: 254.39178466796875
z: -0.4249831736087799
visibility: 0.9864212274551392
","x: 180.4265899658203
y: 255.27496337890625
z: -0.346404492855072
visibility: 0.9703871607780457
","x: 223.21664428710938
y: 363.9678649902344
z: -0.04599868506193161
visibility: 0.9998867511749268
","x: 200.1016845703125
y: 364.6681213378906
z: 0.04585791379213333
visibility: 0.999775230884552
","x: 213.3003387451172
y: 454.91522216796875
z: -0.065864697098732
visibility: 0.9949735403060913
","x: 201.35220336914062
y: 456.4896240234375
z: 0.031366802752017975
visibility: 0.9898240566253662
","x: 227.64816284179688
y: 528.94775390625
z: 0.13529294729232788
visibility: 0.992221474647522
","x: 202.43838500976562
y: 535.3873901367188
z: 0.21007493138313293
visibility: 0.9829944968223572
","x: 231.27774047851562
y: 535.328857421875
z: 0.14968989789485931
visibility: 0.8909814357757568
","x: 206.07861328125
y: 547.7461547851562
z: 0.22137287259101868
visibility: 0.8051609396934509
","x: 218.95465087890625
y: 561.983154296875
z: 0.026011798530817032
visibility: 0.9866414666175842
","x: 198.50863647460938
y: 561.481689453125
z: 0.10148392617702484
visibility: 0.9782609343528748
","x: 179.14089965820312
y: 267.0152282714844
z: 0.0
","x: 182.0762939453125
y: 263.42608642578125
z: -0.0016250319313257933
","x: 184.4573211669922
y: 258.5773010253906
z: -0.0030181927140802145
","x: 185.3478240966797
y: 253.947265625
z: -0.0048017725348472595
","x: 185.43084716796875
y: 249.938720703125
z: -0.006046785973012447
","x: 183.78147888183594
y: 251.36712646484375
z: -0.0004655846569221467
","x: 183.0022430419922
y: 247.19338989257812
z: -0.0032778552267700434
","x: 182.10426330566406
y: 249.77536010742188
z: -0.004308806266635656
","x: 181.8279571533203
y: 252.21096801757812
z: -0.004478404298424721
","x: 181.35240173339844
y: 250.57730102539062
z: -0.001248675980605185
","x: 180.27182006835938
y: 247.11631774902344
z: -0.0044256155379116535
","x: 179.67784118652344
y: 251.68707275390625
z: -0.004719850141555071
","x: 179.80258178710938
y: 254.93539428710938
z: -0.004026232752948999
","x: 178.97853088378906
y: 250.8953094482422
z: -0.0026041038800030947
","x: 177.7962188720703
y: 248.38699340820312
z: -0.0054684048518538475
","x: 177.70297241210938
y: 252.84661865234375
z: -0.0048735300078988075
","x: 178.127197265625
y: 255.67459106445312
z: -0.0036701352801173925
","x: 176.77615356445312
y: 252.17469787597656
z: -0.004309043753892183
","x: 175.85374450683594
y: 250.3303680419922
z: -0.005865131970494986
","x: 176.19174194335938
y: 253.54736328125
z: -0.005371680948883295
","x: 176.9396209716797
y: 255.71487426757812
z: -0.0043853032402694225
","x: 224.44219970703125
y: 268.0686340332031
z: 0.0
","x: 220.87527465820312
y: 259.0719299316406
z: 0.0029923617839813232
","x: 220.1638641357422
y: 251.7352294921875
z: 0.002442146185785532
","x: 219.53878784179688
y: 246.48077392578125
z: 0.000793576764408499
","x: 218.73870849609375
y: 242.34434509277344
z: -0.00018501949671190232
","x: 225.5636444091797
y: 244.41236877441406
z: 0.001554327318444848
","x: 220.93124389648438
y: 241.24716186523438
z: -0.0003149227995891124
","x: 219.4272003173828
y: 245.57525634765625
z: -0.0006747678853571415
","x: 219.6437225341797
y: 248.49520874023438
z: -0.0007067502592690289
","x: 226.3469696044922
y: 246.19911193847656
z: -0.0019134152680635452
","x: 220.95008850097656
y: 243.29547119140625
z: -0.003484804183244705
","x: 219.49786376953125
y: 247.1990203857422
z: -0.0027531301602721214
","x: 219.6358184814453
y: 250.2295684814453
z: -0.002240197965875268
","x: 226.44265747070312
y: 249.18301391601562
z: -0.005458648782223463
","x: 221.23837280273438
y: 246.5703582763672
z: -0.006579109467566013
","x: 219.89120483398438
y: 250.13888549804688
z: -0.0047811404801905155
","x: 220.01316833496094
y: 252.89309692382812
z: -0.0036258737090975046
","x: 225.87376403808594
y: 252.87228393554688
z: -0.008954694494605064
","x: 221.843505859375
y: 250.45223999023438
z: -0.009169372729957104
","x: 220.2926788330078
y: 252.59397888183594
z: -0.0075517031364142895
","x: 219.9054718017578
y: 254.66680908203125
z: -0.0063929189927875996
"
7,"x: 211.22047424316406
y: 202.59584045410156
z: -0.22006316483020782
visibility: 0.9999971985816956
","x: 213.96237182617188
y: 195.04638671875
z: -0.20502761006355286
visibility: 0.9999953508377075
","x: 215.8701629638672
y: 195.1953887939453
z: -0.2050677239894867
visibility: 0.9999951720237732
","x: 217.51815795898438
y: 195.4551544189453
z: -0.2050759494304657
visibility: 0.9999947547912598
","x: 208.58901977539062
y: 194.83837890625
z: -0.19844236969947815
visibility: 0.9999926686286926
","x: 206.21871948242188
y: 194.88058471679688
z: -0.19844703376293182
visibility: 0.9999911785125732
","x: 203.9618377685547
y: 195.00997924804688
z: -0.19842299818992615
visibility: 0.9999903440475464
","x: 220.20855712890625
y: 201.04209899902344
z: -0.09919658303260803
visibility: 0.9999943971633911
","x: 201.582275390625
y: 201.0639190673828
z: -0.07014225423336029
visibility: 0.999984085559845
","x: 213.54873657226562
y: 212.5811004638672
z: -0.17984351515769958
visibility: 0.9999972581863403
","x: 207.13584899902344
y: 213.4497833251953
z: -0.17176379263401031
visibility: 0.9999954104423523
","x: 230.4718475341797
y: 248.8091278076172
z: -0.06778249144554138
visibility: 0.9999914765357971
","x: 191.36386108398438
y: 252.19668579101562
z: 0.05119758099317551
visibility: 0.9999226927757263
","x: 239.07711791992188
y: 309.6214599609375
z: -0.20457343757152557
visibility: 0.9901862144470215
","x: 183.9239044189453
y: 311.9420166015625
z: -0.043885938823223114
visibility: 0.9540859460830688
","x: 225.6530303955078
y: 267.910888671875
z: -0.42613211274147034
visibility: 0.9959837794303894
","x: 179.86105346679688
y: 268.94525146484375
z: -0.33910083770751953
visibility: 0.987095057964325
","x: 222.57774353027344
y: 257.45062255859375
z: -0.4719206690788269
visibility: 0.9903095960617065
","x: 179.00669860839844
y: 256.326171875
z: -0.3842502534389496
visibility: 0.9761502146720886
","x: 223.7952117919922
y: 251.3543701171875
z: -0.4605684280395508
visibility: 0.9909460544586182
","x: 179.50152587890625
y: 252.38818359375
z: -0.3846769332885742
visibility: 0.9772899746894836
","x: 223.76083374023438
y: 254.39178466796875
z: -0.4249831736087799
visibility: 0.9864212274551392
","x: 180.4265899658203
y: 255.27496337890625
z: -0.346404492855072
visibility: 0.9703871607780457
","x: 223.21664428710938
y: 363.9678649902344
z: -0.04599868506193161
visibility: 0.9998867511749268
","x: 200.1016845703125
y: 364.6681213378906
z: 0.04585791379213333
visibility: 0.999775230884552
","x: 213.3003387451172
y: 454.91522216796875
z: -0.065864697098732
visibility: 0.9949735403060913
","x: 201.35220336914062
y: 456.4896240234375
z: 0.031366802752017975
visibility: 0.9898240566253662
","x: 227.64816284179688
y: 528.94775390625
z: 0.13529294729232788
visibility: 0.992221474647522
","x: 202.43838500976562
y: 535.3873901367188
z: 0.21007493138313293
visibility: 0.9829944968223572
","x: 231.27774047851562
y: 535.328857421875
z: 0.14968989789485931
visibility: 0.8909814357757568
","x: 206.07861328125
y: 547.7461547851562
z: 0.22137287259101868
visibility: 0.8051609396934509
","x: 218.95465087890625
y: 561.983154296875
z: 0.026011798530817032
visibility: 0.9866414666175842
","x: 198.50863647460938
y: 561.481689453125
z: 0.10148392617702484
visibility: 0.9782609343528748
","x: 179.14089965820312
y: 267.0152282714844
z: 0.0
","x: 182.0762939453125
y: 263.42608642578125
z: -0.0016250319313257933
","x: 184.4573211669922
y: 258.5773010253906
z: -0.0030181927140802145
","x: 185.3478240966797
y: 253.947265625
z: -0.0048017725348472595
","x: 185.43084716796875
y: 249.938720703125
z: -0.006046785973012447
","x: 183.78147888183594
y: 251.36712646484375
z: -0.0004655846569221467
","x: 183.0022430419922
y: 247.19338989257812
z: -0.0032778552267700434
","x: 182.10426330566406
y: 249.77536010742188
z: -0.004308806266635656
","x: 181.8279571533203
y: 252.21096801757812
z: -0.004478404298424721
","x: 181.35240173339844
y: 250.57730102539062
z: -0.001248675980605185
","x: 180.27182006835938
y: 247.11631774902344
z: -0.0044256155379116535
","x: 179.67784118652344
y: 251.68707275390625
z: -0.004719850141555071
","x: 179.80258178710938
y: 254.93539428710938
z: -0.004026232752948999
","x: 178.97853088378906
y: 250.8953094482422
z: -0.0026041038800030947
","x: 177.7962188720703
y: 248.38699340820312
z: -0.0054684048518538475
","x: 177.70297241210938
y: 252.84661865234375
z: -0.0048735300078988075
","x: 178.127197265625
y: 255.67459106445312
z: -0.0036701352801173925
","x: 176.77615356445312
y: 252.17469787597656
z: -0.004309043753892183
","x: 175.85374450683594
y: 250.3303680419922
z: -0.005865131970494986
","x: 176.19174194335938
y: 253.54736328125
z: -0.005371680948883295
","x: 176.9396209716797
y: 255.71487426757812
z: -0.0043853032402694225
","x: 224.44219970703125
y: 268.0686340332031
z: 0.0
","x: 220.87527465820312
y: 259.0719299316406
z: 0.0029923617839813232
","x: 220.1638641357422
y: 251.7352294921875
z: 0.002442146185785532
","x: 219.53878784179688
y: 246.48077392578125
z: 0.000793576764408499
","x: 218.73870849609375
y: 242.34434509277344
z: -0.00018501949671190232
","x: 225.5636444091797
y: 244.41236877441406
z: 0.001554327318444848
","x: 220.93124389648438
y: 241.24716186523438
z: -0.0003149227995891124
","x: 219.4272003173828
y: 245.57525634765625
z: -0.0006747678853571415
","x: 219.6437225341797
y: 248.49520874023438
z: -0.0007067502592690289
","x: 226.3469696044922
y: 246.19911193847656
z: -0.0019134152680635452
","x: 220.95008850097656
y: 243.29547119140625
z: -0.003484804183244705
","x: 219.49786376953125
y: 247.1990203857422
z: -0.0027531301602721214
","x: 219.6358184814453
y: 250.2295684814453
z: -0.002240197965875268
","x: 226.44265747070312
y: 249.18301391601562
z: -0.005458648782223463
","x: 221.23837280273438
y: 246.5703582763672
z: -0.006579109467566013
","x: 219.89120483398438
y: 250.13888549804688
z: -0.0047811404801905155
","x: 220.01316833496094
y: 252.89309692382812
z: -0.0036258737090975046
","x: 225.87376403808594
y: 252.87228393554688
z: -0.008954694494605064
","x: 221.843505859375
y: 250.45223999023438
z: -0.009169372729957104
","x: 220.2926788330078
y: 252.59397888183594
z: -0.0075517031364142895
","x: 219.9054718017578
y: 254.66680908203125
z: -0.0063929189927875996
"
8,"x: 210.914306640625
y: 202.49830627441406
z: -0.21304574608802795
visibility: 0.9999973177909851
","x: 214.16844177246094
y: 194.78268432617188
z: -0.19679224491119385
visibility: 0.9999954104423523
","x: 216.32940673828125
y: 194.99484252929688
z: -0.19679978489875793
visibility: 0.999995231628418
","x: 218.2997589111328
y: 195.33364868164062
z: -0.1967964470386505
visibility: 0.9999948143959045
","x: 208.51258850097656
y: 194.35081481933594
z: -0.19080713391304016
visibility: 0.9999929666519165
","x: 207.07049560546875
y: 194.27137756347656
z: -0.1908213198184967
visibility: 0.9999915361404419
","x: 205.26385498046875
y: 194.19142150878906
z: -0.19078518450260162
visibility: 0.9999908208847046
","x: 221.14697265625
y: 201.0538330078125
z: -0.09213780611753464
visibility: 0.9999945759773254
","x: 203.0161590576172
y: 200.50738525390625
z: -0.06492149829864502
visibility: 0.9999844431877136
","x: 214.17552185058594
y: 212.7786407470703
z: -0.17371027171611786
visibility: 0.9999973177909851
","x: 207.47019958496094
y: 213.32379150390625
z: -0.16596509516239166
visibility: 0.9999955296516418
","x: 232.4962921142578
y: 247.8406524658203
z: -0.0629274994134903
visibility: 0.9999909996986389
","x: 193.10443115234375
y: 252.1378936767578
z: 0.048004671931266785
visibility: 0.9999226331710815
","x: 248.3018341064453
y: 301.4969177246094
z: -0.2209402322769165
visibility: 0.9910985827445984
","x: 179.7479705810547
y: 307.51092529296875
z: -0.06763170659542084
visibility: 0.9558884501457214
","x: 227.21890258789062
y: 256.73638916015625
z: -0.4312073290348053
visibility: 0.9962511658668518
","x: 178.83224487304688
y: 266.2521057128906
z: -0.3418254256248474
visibility: 0.9875275492668152
","x: 223.02804565429688
y: 245.4676513671875
z: -0.47661057114601135
visibility: 0.9907678961753845
","x: 179.38941955566406
y: 254.79490661621094
z: -0.3878615200519562
visibility: 0.9763301014900208
","x: 222.44325256347656
y: 241.8296661376953
z: -0.4562561511993408
visibility: 0.9912621974945068
","x: 180.76588439941406
y: 250.61720275878906
z: -0.384482204914093
visibility: 0.9771276116371155
","x: 222.67355346679688
y: 246.5358123779297
z: -0.4261780381202698
visibility: 0.9866934418678284
","x: 181.62001037597656
y: 253.8585662841797
z: -0.3477000594139099
visibility: 0.9700526595115662
","x: 225.19154357910156
y: 363.3193359375
z: -0.05267494171857834
visibility: 0.999882698059082
","x: 201.2504425048828
y: 364.48388671875
z: 0.052482783794403076
visibility: 0.9997761845588684
","x: 216.66134643554688
y: 454.49993896484375
z: -0.07461407780647278
visibility: 0.9952289462089539
","x: 199.7640380859375
y: 456.5084228515625
z: 0.04756685718894005
visibility: 0.9882662296295166
","x: 235.52157592773438
y: 527.3302001953125
z: 0.1090909093618393
visibility: 0.9926254153251648
","x: 201.84548950195312
y: 537.8722534179688
z: 0.20675745606422424
visibility: 0.9838296175003052
","x: 237.8673095703125
y: 533.4508056640625
z: 0.12190262973308563
visibility: 0.8899540305137634
","x: 205.80210876464844
y: 550.1824951171875
z: 0.21826469898223877
visibility: 0.8192348480224609
","x: 227.48081970214844
y: 561.1796875
z: 0.003152247052639723
visibility: 0.987435519695282
","x: 196.3341827392578
y: 562.10986328125
z: 0.09975259006023407
visibility: 0.979330837726593
","x: 178.39894104003906
y: 266.29656982421875
z: 0.0
","x: 180.22998046875
y: 262.12841796875
z: -0.0007798060541972518
","x: 181.39492797851562
y: 258.5633850097656
z: -0.002547834301367402
","x: 183.09085083007812
y: 256.20941162109375
z: -0.004789316561073065
","x: 184.74392700195312
y: 254.7512969970703
z: -0.00668100081384182
","x: 178.27627563476562
y: 251.103515625
z: -0.003098543966189027
","x: 181.87477111816406
y: 247.64398193359375
z: -0.006068207323551178
","x: 184.10633850097656
y: 249.7971954345703
z: -0.007603732869029045
","x: 185.01116943359375
y: 251.67889404296875
z: -0.00837787240743637
","x: 177.8831787109375
y: 251.72259521484375
z: -0.004501074552536011
","x: 181.73837280273438
y: 248.5262451171875
z: -0.007937977090477943
","x: 184.09762573242188
y: 251.23843383789062
z: -0.008784974925220013
","x: 184.80430603027344
y: 253.66339111328125
z: -0.008956843055784702
","x: 178.0665740966797
y: 253.15452575683594
z: -0.005994313396513462
","x: 181.7383575439453
y: 250.56436157226562
z: -0.008827376179397106
","x: 183.7834930419922
y: 252.87535095214844
z: -0.008536258712410927
","x: 184.27102661132812
y: 254.83670043945312
z: -0.008011365309357643
","x: 178.6876983642578
y: 255.20880126953125
z: -0.007658390328288078
","x: 181.5900115966797
y: 253.57032775878906
z: -0.009484236128628254
","x: 183.0052947998047
y: 254.8802490234375
z: -0.009073222987353802
","x: 183.2779998779297
y: 256.0400085449219
z: -0.00848198588937521
",,,,,,,,,,,,,,,,,,,,,
9,"x: 210.914306640625
y: 202.49830627441406
z: -0.21304574608802795
visibility: 0.9999973177909851
","x: 214.16844177246094
y: 194.78268432617188
z: -0.19679224491119385
visibility: 0.9999954104423523
","x: 216.32940673828125
y: 194.99484252929688
z: -0.19679978489875793
visibility: 0.999995231628418
","x: 218.2997589111328
y: 195.33364868164062
z: -0.1967964470386505
visibility: 0.9999948143959045
","x: 208.51258850097656
y: 194.35081481933594
z: -0.19080713391304016
visibility: 0.9999929666519165
","x: 207.07049560546875
y: 194.27137756347656
z: -0.1908213198184967
visibility: 0.9999915361404419
","x: 205.26385498046875
y: 194.19142150878906
z: -0.19078518450260162
visibility: 0.9999908208847046
","x: 221.14697265625
y: 201.0538330078125
z: -0.09213780611753464
visibility: 0.9999945759773254
","x: 203.0161590576172
y: 200.50738525390625
z: -0.06492149829864502
visibility: 0.9999844431877136
","x: 214.17552185058594
y: 212.7786407470703
z: -0.17371027171611786
visibility: 0.9999973177909851
","x: 207.47019958496094
y: 213.32379150390625
z: -0.16596509516239166
visibility: 0.9999955296516418
","x: 232.4962921142578
y: 247.8406524658203
z: -0.0629274994134903
visibility: 0.9999909996986389
","x: 193.10443115234375
y: 252.1378936767578
z: 0.048004671931266785
visibility: 0.9999226331710815
","x: 248.3018341064453
y: 301.4969177246094
z: -0.2209402322769165
visibility: 0.9910985827445984
","x: 179.7479705810547
y: 307.51092529296875
z: -0.06763170659542084
visibility: 0.9558884501457214
","x: 227.21890258789062
y: 256.73638916015625
z: -0.4312073290348053
visibility: 0.9962511658668518
","x: 178.83224487304688
y: 266.2521057128906
z: -0.3418254256248474
visibility: 0.9875275492668152
","x: 223.02804565429688
y: 245.4676513671875
z: -0.47661057114601135
visibility: 0.9907678961753845
","x: 179.38941955566406
y: 254.79490661621094
z: -0.3878615200519562
visibility: 0.9763301014900208
","x: 222.44325256347656
y: 241.8296661376953
z: -0.4562561511993408
visibility: 0.9912621974945068
","x: 180.76588439941406
y: 250.61720275878906
z: -0.384482204914093
visibility: 0.9771276116371155
","x: 222.67355346679688
y: 246.5358123779297
z: -0.4261780381202698
visibility: 0.9866934418678284
","x: 181.62001037597656
y: 253.8585662841797
z: -0.3477000594139099
visibility: 0.9700526595115662
","x: 225.19154357910156
y: 363.3193359375
z: -0.05267494171857834
visibility: 0.999882698059082
","x: 201.2504425048828
y: 364.48388671875
z: 0.052482783794403076
visibility: 0.9997761845588684
","x: 216.66134643554688
y: 454.49993896484375
z: -0.07461407780647278
visibility: 0.9952289462089539
","x: 199.7640380859375
y: 456.5084228515625
z: 0.04756685718894005
visibility: 0.9882662296295166
","x: 235.52157592773438
y: 527.3302001953125
z: 0.1090909093618393
visibility: 0.9926254153251648
","x: 201.84548950195312
y: 537.8722534179688
z: 0.20675745606422424
visibility: 0.9838296175003052
","x: 237.8673095703125
y: 533.4508056640625
z: 0.12190262973308563
visibility: 0.8899540305137634
","x: 205.80210876464844
y: 550.1824951171875
z: 0.21826469898223877
visibility: 0.8192348480224609
","x: 227.48081970214844
y: 561.1796875
z: 0.003152247052639723
visibility: 0.987435519695282
","x: 196.3341827392578
y: 562.10986328125
z: 0.09975259006023407
visibility: 0.979330837726593
","x: 178.39894104003906
y: 266.29656982421875
z: 0.0
","x: 180.22998046875
y: 262.12841796875
z: -0.0007798060541972518
","x: 181.39492797851562
y: 258.5633850097656
z: -0.002547834301367402
","x: 183.09085083007812
y: 256.20941162109375
z: -0.004789316561073065
","x: 184.74392700195312
y: 254.7512969970703
z: -0.00668100081384182
","x: 178.27627563476562
y: 251.103515625
z: -0.003098543966189027
","x: 181.87477111816406
y: 247.64398193359375
z: -0.006068207323551178
","x: 184.10633850097656
y: 249.7971954345703
z: -0.007603732869029045
","x: 185.01116943359375
y: 251.67889404296875
z: -0.00837787240743637
","x: 177.8831787109375
y: 251.72259521484375
z: -0.004501074552536011
","x: 181.73837280273438
y: 248.5262451171875
z: -0.007937977090477943
","x: 184.09762573242188
y: 251.23843383789062
z: -0.008784974925220013
","x: 184.80430603027344
y: 253.66339111328125
z: -0.008956843055784702
","x: 178.0665740966797
y: 253.15452575683594
z: -0.005994313396513462
","x: 181.7383575439453
y: 250.56436157226562
z: -0.008827376179397106
","x: 183.7834930419922
y: 252.87535095214844
z: -0.008536258712410927
","x: 184.27102661132812
y: 254.83670043945312
z: -0.008011365309357643
","x: 178.6876983642578
y: 255.20880126953125
z: -0.007658390328288078
","x: 181.5900115966797
y: 253.57032775878906
z: -0.009484236128628254
","x: 183.0052947998047
y: 254.8802490234375
z: -0.009073222987353802
","x: 183.2779998779297
y: 256.0400085449219
z: -0.00848198588937521
",,,,,,,,,,,,,,,,,,,,,
10,"x: 217.032958984375
y: 202.10243225097656
z: -0.13174429535865784
visibility: 0.9999975562095642
","x: 219.83851623535156
y: 194.4315948486328
z: -0.11536307632923126
visibility: 0.999995768070221
","x: 221.7109375
y: 194.50680541992188
z: -0.11538930237293243
visibility: 0.9999956488609314
","x: 223.51641845703125
y: 194.63467407226562
z: -0.11540251970291138
visibility: 0.999995231628418
","x: 214.8231964111328
y: 194.25086975097656
z: -0.10456247627735138
visibility: 0.9999935626983643
","x: 213.0694580078125
y: 194.26820373535156
z: -0.10455342382192612
visibility: 0.9999922513961792
","x: 211.16409301757812
y: 194.294677734375
z: -0.10443661361932755
visibility: 0.9999916553497314
","x: 226.90628051757812
y: 200.15554809570312
z: -0.01669277437031269
visibility: 0.9999950528144836
","x: 209.60964965820312
y: 200.6424560546875
z: 0.031592659652233124
visibility: 0.9999857544898987
","x: 219.97799682617188
y: 212.26895141601562
z: -0.09532397985458374
visibility: 0.9999975562095642
","x: 214.04998779296875
y: 212.97061157226562
z: -0.08185851573944092
visibility: 0.9999958872795105
","x: 237.89279174804688
y: 244.38026428222656
z: -0.03038630448281765
visibility: 0.9999917149543762
","x: 201.7206268310547
y: 250.09178161621094
z: 0.152210533618927
visibility: 0.9999246001243591
","x: 255.8824005126953
y: 289.49298095703125
z: -0.16947336494922638
visibility: 0.9919558763504028
","x: 184.64920043945312
y: 290.0265808105469
z: 0.034961167722940445
visibility: 0.9556156396865845
","x: 229.57484436035156
y: 267.7838439941406
z: -0.353362500667572
visibility: 0.9964845180511475
","x: 187.03334045410156
y: 273.53131103515625
z: -0.23006336390972137
visibility: 0.985970139503479
","x: 223.07342529296875
y: 256.3795166015625
z: -0.3977087438106537
visibility: 0.9910901784896851
","x: 186.71466064453125
y: 265.9752197265625
z: -0.2766454815864563
visibility: 0.9724452495574951
","x: 221.12261962890625
y: 251.86410522460938
z: -0.4297063946723938
visibility: 0.9914933443069458
","x: 188.15777587890625
y: 259.9502258300781
z: -0.27362239360809326
visibility: 0.9725915789604187
","x: 222.16114807128906
y: 257.62762451171875
z: -0.372968852519989
visibility: 0.9868054389953613
","x: 189.22860717773438
y: 263.17889404296875
z: -0.23595094680786133
visibility: 0.9639294743537903
","x: 227.6813507080078
y: 360.0111389160156
z: -0.07760883867740631
visibility: 0.9998910427093506
","x: 205.9485626220703
y: 361.31842041015625
z: 0.07756803184747696
visibility: 0.9997912049293518
","x: 224.72958374023438
y: 454.48748779296875
z: -0.09726977348327637
visibility: 0.9953024387359619
","x: 205.07339477539062
y: 455.6144714355469
z: 0.08074181526899338
visibility: 0.9853651523590088
","x: 245.5665283203125
y: 537.5308837890625
z: -0.02287212200462818
visibility: 0.9931192994117737
","x: 202.8328399658203
y: 537.6746215820312
z: 0.18884322047233582
visibility: 0.9842697381973267
","x: 255.3495635986328
y: 552.2626342773438
z: -0.022391345351934433
visibility: 0.8962002396583557
","x: 207.0984344482422
y: 551.2423095703125
z: 0.19025090336799622
visibility: 0.8318081498146057
","x: 233.25302124023438
y: 566.1768798828125
z: -0.1574409455060959
visibility: 0.9883577227592468
","x: 195.54782104492188
y: 561.1476440429688
z: 0.07685648649930954
visibility: 0.9800939559936523
",,,,,,,,,,,,,,,,,,,,,,,,,,,,,,,,,,,,,,,,,,
11,"x: 222.1678466796875
y: 202.9573974609375
z: -0.15358734130859375
visibility: 0.999997615814209
","x: 225.02171325683594
y: 195.36399841308594
z: -0.1385936141014099
visibility: 0.9999959468841553
","x: 226.82029724121094
y: 195.3228759765625
z: -0.13863085210323334
visibility: 0.9999958276748657
","x: 228.7126922607422
y: 195.3272705078125
z: -0.13865390419960022
visibility: 0.9999954104423523
","x: 220.2335662841797
y: 195.35440063476562
z: -0.13007403910160065
visibility: 0.9999939203262329
","x: 218.66500854492188
y: 195.3569793701172
z: -0.13006503880023956
visibility: 0.9999927282333374
","x: 216.8396453857422
y: 195.28695678710938
z: -0.1299741566181183
visibility: 0.9999921321868896
","x: 232.41014099121094
y: 200.61770629882812
z: -0.017455635592341423
visibility: 0.9999954104423523
","x: 215.30064392089844
y: 201.0914764404297
z: 0.0009318848024122417
visibility: 0.9999865293502808
","x: 225.1061248779297
y: 212.47235107421875
z: -0.11593323945999146
visibility: 0.9999976754188538
","x: 219.3553924560547
y: 212.97329711914062
z: -0.10464111715555191
visibility: 0.9999960660934448
","x: 243.82264709472656
y: 245.0220489501953
z: -0.041426632553339005
visibility: 0.9999920725822449
","x: 204.3878173828125
y: 249.29925537109375
z: 0.11979644000530243
visibility: 0.9999261498451233
","x: 257.16680908203125
y: 292.9635009765625
z: -0.16453278064727783
visibility: 0.9926897883415222
","x: 192.57327270507812
y: 294.3818359375
z: 0.03170366212725639
visibility: 0.9516677260398865
","x: 235.17147827148438
y: 279.1376037597656
z: -0.34003859758377075
visibility: 0.9965113997459412
","x: 188.18472290039062
y: 287.0235900878906
z: -0.22712373733520508
visibility: 0.9836737513542175
","x: 228.69503784179688
y: 282.70440673828125
z: -0.38716018199920654
visibility: 0.9909171462059021
","x: 192.41917419433594
y: 289.8360900878906
z: -0.27350860834121704
visibility: 0.9684656858444214
","x: 226.38258361816406
y: 278.2275695800781
z: -0.3893495500087738
visibility: 0.9912281036376953
","x: 195.12306213378906
y: 284.65576171875
z: -0.28063949942588806
visibility: 0.9683038592338562
","x: 227.51644897460938
y: 277.6949462890625
z: -0.3442381024360657
visibility: 0.9861663579940796
","x: 195.1880645751953
y: 284.6377868652344
z: -0.23699231445789337
visibility: 0.958421528339386
","x: 233.4339141845703
y: 363.4094543457031
z: -0.07230834662914276
visibility: 0.9998907446861267
","x: 211.06346130371094
y: 362.8675842285156
z: 0.07231265306472778
visibility: 0.9997918009757996
","x: 230.68267822265625
y: 457.5972900390625
z: -0.07790869474411011
visibility: 0.9952971339225769
","x: 207.3895263671875
y: 455.687744140625
z: 0.08045460283756256
visibility: 0.9839364886283875
","x: 249.237548828125
y: 546.7206420898438
z: 0.012856712564826012
visibility: 0.9933920502662659
","x: 203.94708251953125
y: 538.8402709960938
z: 0.18594051897525787
visibility: 0.9846081733703613
","x: 257.2313232421875
y: 561.3715209960938
z: 0.014222417958080769
visibility: 0.8992490768432617
","x: 208.14317321777344
y: 553.2791748046875
z: 0.18782100081443787
visibility: 0.8431311249732971
","x: 234.43783569335938
y: 571.8809814453125
z: -0.12052677571773529
visibility: 0.9888314604759216
","x: 194.87306213378906
y: 561.3579711914062
z: 0.0770043283700943
visibility: 0.9804888963699341
",,,,,,,,,,,,,,,,,,,,,,,,,,,,,,,,,,,,,,,,,,
12,"x: 226.31396484375
y: 203.09034729003906
z: -0.20819440484046936
visibility: 0.9999977350234985
","x: 230.03123474121094
y: 195.45884704589844
z: -0.19664812088012695
visibility: 0.9999961853027344
","x: 231.8735809326172
y: 195.41943359375
z: -0.19671660661697388
visibility: 0.9999960064888
","x: 234.09922790527344
y: 195.39340209960938
z: -0.19672872126102448
visibility: 0.9999956488609314
","x: 224.8912811279297
y: 195.66989135742188
z: -0.18555262684822083
visibility: 0.9999943375587463
","x: 223.24093627929688
y: 195.8604278564453
z: -0.18553487956523895
visibility: 0.9999932050704956
","x: 222.5171661376953
y: 195.9558868408203
z: -0.18547850847244263
visibility: 0.9999926686286926
","x: 237.6262664794922
y: 200.6859588623047
z: -0.0979536920785904
visibility: 0.9999957084655762
","x: 222.4823760986328
y: 201.89251708984375
z: -0.04739326238632202
visibility: 0.9999872446060181
","x: 230.05557250976562
y: 212.48953247070312
z: -0.170571431517601
visibility: 0.9999977946281433
","x: 223.9642791748047
y: 212.97299194335938
z: -0.15570621192455292
visibility: 0.9999961853027344
","x: 248.78860473632812
y: 245.52146911621094
z: -0.09109233319759369
visibility: 0.9999924302101135
","x: 218.94302368164062
y: 250.36302185058594
z: 0.09125056862831116
visibility: 0.9999235272407532
","x: 257.9123229980469
y: 302.5625305175781
z: -0.19006972014904022
visibility: 0.9933253526687622
","x: 208.38217163085938
y: 300.64630126953125
z: 0.011220837011933327
visibility: 0.9361892342567444
","x: 232.90267944335938
y: 287.8731384277344
z: -0.35110756754875183
visibility: 0.9965436458587646
","x: 208.3417205810547
y: 295.73834228515625
z: -0.2503557801246643
visibility: 0.9782139658927917
","x: 225.00267028808594
y: 290.63409423828125
z: -0.3963916301727295
visibility: 0.9907852411270142
","x: 210.38580322265625
y: 296.66302490234375
z: -0.2955675423145294
visibility: 0.9603416919708252
","x: 224.54830932617188
y: 285.09527587890625
z: -0.39047423005104065
visibility: 0.991016685962677
","x: 211.4922332763672
y: 291.355224609375
z: -0.3051123023033142
visibility: 0.9595948457717896
","x: 227.1280517578125
y: 283.81951904296875
z: -0.34998536109924316
visibility: 0.9855403900146484
","x: 212.266357421875
y: 291.00054931640625
z: -0.26124852895736694
visibility: 0.9473064541816711
","x: 239.59930419921875
y: 370.46575927734375
z: -0.07026734948158264
visibility: 0.9998871088027954
","x: 220.5293426513672
y: 368.7286376953125
z: 0.07023128867149353
visibility: 0.9997869729995728
","x: 236.5946044921875
y: 461.3949279785156
z: -0.06927666068077087
visibility: 0.9953846335411072
","x: 206.8511199951172
y: 454.03192138671875
z: 0.05935656279325485
visibility: 0.9844360947608948
","x: 251.58033752441406
y: 549.505859375
z: 0.019849175587296486
visibility: 0.993613600730896
","x: 205.29615783691406
y: 538.32275390625
z: 0.20710918307304382
visibility: 0.9852172136306763
","x: 257.9630432128906
y: 563.5090942382812
z: 0.018532808870077133
visibility: 0.8992676734924316
","x: 209.17361450195312
y: 552.6520385742188
z: 0.21409764885902405
visibility: 0.8548486232757568
","x: 234.32212829589844
y: 571.8472900390625
z: -0.09006887674331665
visibility: 0.9891680479049683
","x: 196.1916046142578
y: 560.7764892578125
z: 0.1155400276184082
visibility: 0.9811388850212097
",,,,,,,,,,,,,,,,,,,,,,"x: 231.87921142578125
y: 287.9963684082031
z: 0.0
","x: 228.97019958496094
y: 292.2977600097656
z: 0.001998492516577244
","x: 225.48878479003906
y: 293.1206970214844
z: 0.002047971822321415
","x: 223.0252227783203
y: 292.8573913574219
z: 0.0012047899654135108
","x: 221.2937469482422
y: 292.59454345703125
z: 0.0008573269587941468
","x: 222.547607421875
y: 287.7698974609375
z: 0.0007646845187991858
","x: 218.19236755371094
y: 291.51556396484375
z: -0.0005188289214856923
","x: 219.85964965820312
y: 294.0987548828125
z: -0.00011063453712267801
","x: 221.98321533203125
y: 294.21490478515625
z: 0.0005653917323797941
","x: 222.39378356933594
y: 285.03326416015625
z: -0.0012751312460750341
","x: 217.84341430664062
y: 288.9397888183594
z: -0.002112222369760275
","x: 219.37939453125
y: 291.3645324707031
z: -0.0011468027951195836
","x: 221.3804473876953
y: 291.49786376953125
z: -0.00016305669851135463
","x: 222.56187438964844
y: 283.1985168457031
z: -0.0033813351765275
","x: 218.40817260742188
y: 286.84161376953125
z: -0.0039053799118846655
","x: 219.76197814941406
y: 289.0528564453125
z: -0.002490900456905365
","x: 221.654052734375
y: 289.3207092285156
z: -0.0014217110583558679
","x: 223.0240936279297
y: 282.15643310546875
z: -0.005476637743413448
","x: 219.84408569335938
y: 285.1661376953125
z: -0.0052478197030723095
","x: 220.8514862060547
y: 287.27593994140625
z: -0.004099344834685326
","x: 222.62437438964844
y: 287.9542236328125
z: -0.003172033466398716
"
13,"x: 226.31396484375
y: 203.09034729003906
z: -0.20819440484046936
visibility: 0.9999977350234985
","x: 230.03123474121094
y: 195.45884704589844
z: -0.19664812088012695
visibility: 0.9999961853027344
","x: 231.8735809326172
y: 195.41943359375
z: -0.19671660661697388
visibility: 0.9999960064888
","x: 234.09922790527344
y: 195.39340209960938
z: -0.19672872126102448
visibility: 0.9999956488609314
","x: 224.8912811279297
y: 195.66989135742188
z: -0.18555262684822083
visibility: 0.9999943375587463
","x: 223.24093627929688
y: 195.8604278564453
z: -0.18553487956523895
visibility: 0.9999932050704956
","x: 222.5171661376953
y: 195.9558868408203
z: -0.18547850847244263
visibility: 0.9999926686286926
","x: 237.6262664794922
y: 200.6859588623047
z: -0.0979536920785904
visibility: 0.9999957084655762
","x: 222.4823760986328
y: 201.89251708984375
z: -0.04739326238632202
visibility: 0.9999872446060181
","x: 230.05557250976562
y: 212.48953247070312
z: -0.170571431517601
visibility: 0.9999977946281433
","x: 223.9642791748047
y: 212.97299194335938
z: -0.15570621192455292
visibility: 0.9999961853027344
","x: 248.78860473632812
y: 245.52146911621094
z: -0.09109233319759369
visibility: 0.9999924302101135
","x: 218.94302368164062
y: 250.36302185058594
z: 0.09125056862831116
visibility: 0.9999235272407532
","x: 257.9123229980469
y: 302.5625305175781
z: -0.19006972014904022
visibility: 0.9933253526687622
","x: 208.38217163085938
y: 300.64630126953125
z: 0.011220837011933327
visibility: 0.9361892342567444
","x: 232.90267944335938
y: 287.8731384277344
z: -0.35110756754875183
visibility: 0.9965436458587646
","x: 208.3417205810547
y: 295.73834228515625
z: -0.2503557801246643
visibility: 0.9782139658927917
","x: 225.00267028808594
y: 290.63409423828125
z: -0.3963916301727295
visibility: 0.9907852411270142
","x: 210.38580322265625
y: 296.66302490234375
z: -0.2955675423145294
visibility: 0.9603416919708252
","x: 224.54830932617188
y: 285.09527587890625
z: -0.39047423005104065
visibility: 0.991016685962677
","x: 211.4922332763672
y: 291.355224609375
z: -0.3051123023033142
visibility: 0.9595948457717896
","x: 227.1280517578125
y: 283.81951904296875
z: -0.34998536109924316
visibility: 0.9855403900146484
","x: 212.266357421875
y: 291.00054931640625
z: -0.26124852895736694
visibility: 0.9473064541816711
","x: 239.59930419921875
y: 370.46575927734375
z: -0.07026734948158264
visibility: 0.9998871088027954
","x: 220.5293426513672
y: 368.7286376953125
z: 0.07023128867149353
visibility: 0.9997869729995728
","x: 236.5946044921875
y: 461.3949279785156
z: -0.06927666068077087
visibility: 0.9953846335411072
","x: 206.8511199951172
y: 454.03192138671875
z: 0.05935656279325485
visibility: 0.9844360947608948
","x: 251.58033752441406
y: 549.505859375
z: 0.019849175587296486
visibility: 0.993613600730896
","x: 205.29615783691406
y: 538.32275390625
z: 0.20710918307304382
visibility: 0.9852172136306763
","x: 257.9630432128906
y: 563.5090942382812
z: 0.018532808870077133
visibility: 0.8992676734924316
","x: 209.17361450195312
y: 552.6520385742188
z: 0.21409764885902405
visibility: 0.8548486232757568
","x: 234.32212829589844
y: 571.8472900390625
z: -0.09006887674331665
visibility: 0.9891680479049683
","x: 196.1916046142578
y: 560.7764892578125
z: 0.1155400276184082
visibility: 0.9811388850212097
",,,,,,,,,,,,,,,,,,,,,,"x: 231.87921142578125
y: 287.9963684082031
z: 0.0
","x: 228.97019958496094
y: 292.2977600097656
z: 0.001998492516577244
","x: 225.48878479003906
y: 293.1206970214844
z: 0.002047971822321415
","x: 223.0252227783203
y: 292.8573913574219
z: 0.0012047899654135108
","x: 221.2937469482422
y: 292.59454345703125
z: 0.0008573269587941468
","x: 222.547607421875
y: 287.7698974609375
z: 0.0007646845187991858
","x: 218.19236755371094
y: 291.51556396484375
z: -0.0005188289214856923
","x: 219.85964965820312
y: 294.0987548828125
z: -0.00011063453712267801
","x: 221.98321533203125
y: 294.21490478515625
z: 0.0005653917323797941
","x: 222.39378356933594
y: 285.03326416015625
z: -0.0012751312460750341
","x: 217.84341430664062
y: 288.9397888183594
z: -0.002112222369760275
","x: 219.37939453125
y: 291.3645324707031
z: -0.0011468027951195836
","x: 221.3804473876953
y: 291.49786376953125
z: -0.00016305669851135463
","x: 222.56187438964844
y: 283.1985168457031
z: -0.0033813351765275
","x: 218.40817260742188
y: 286.84161376953125
z: -0.0039053799118846655
","x: 219.76197814941406
y: 289.0528564453125
z: -0.002490900456905365
","x: 221.654052734375
y: 289.3207092285156
z: -0.0014217110583558679
","x: 223.0240936279297
y: 282.15643310546875
z: -0.005476637743413448
","x: 219.84408569335938
y: 285.1661376953125
z: -0.0052478197030723095
","x: 220.8514862060547
y: 287.27593994140625
z: -0.004099344834685326
","x: 222.62437438964844
y: 287.9542236328125
z: -0.003172033466398716
"
14,"x: 236.02520751953125
y: 203.14340209960938
z: -0.2372373789548874
visibility: 0.9999978542327881
","x: 239.39419555664062
y: 195.664794921875
z: -0.2255174219608307
visibility: 0.9999963641166687
","x: 241.392578125
y: 195.59011840820312
z: -0.22558021545410156
visibility: 0.9999961256980896
","x: 243.1257781982422
y: 195.52438354492188
z: -0.2255970686674118
visibility: 0.9999958276748657
","x: 234.35714721679688
y: 196.0240478515625
z: -0.21090957522392273
visibility: 0.999994695186615
","x: 232.88319396972656
y: 196.30430603027344
z: -0.21089008450508118
visibility: 0.9999935626983643
","x: 231.5443115234375
y: 196.5081787109375
z: -0.21085724234580994
visibility: 0.9999930262565613
","x: 247.219482421875
y: 200.87869262695312
z: -0.13207891583442688
visibility: 0.9999959468841553
","x: 231.867919921875
y: 202.37063598632812
z: -0.06404076516628265
visibility: 0.9999877214431763
","x: 239.81976318359375
y: 212.5261688232422
z: -0.2013559639453888
visibility: 0.9999978542327881
","x: 233.50802612304688
y: 213.02450561523438
z: -0.18197987973690033
visibility: 0.9999960660934448
","x: 257.6617431640625
y: 245.67269897460938
z: -0.13618437945842743
visibility: 0.9999924302101135
","x: 230.32530212402344
y: 254.4302215576172
z: 0.08602770417928696
visibility: 0.9999145269393921
","x: 259.50323486328125
y: 306.6391296386719
z: -0.24267876148223877
visibility: 0.9938310384750366
","x: 223.3863067626953
y: 310.5433044433594
z: 0.017866242676973343
visibility: 0.9011838436126709
","x: 235.01724243164062
y: 284.0421142578125
z: -0.3763561248779297
visibility: 0.9965823888778687
","x: 215.8379364013672
y: 295.18914794921875
z: -0.2468891441822052
visibility: 0.9690296053886414
","x: 228.289306640625
y: 281.6347351074219
z: -0.4171571135520935
visibility: 0.9908686280250549
","x: 215.2556610107422
y: 294.9669189453125
z: -0.28885990381240845
visibility: 0.9489688277244568
","x: 228.6770782470703
y: 274.734130859375
z: -0.4107123911380768
visibility: 0.9910295009613037
","x: 215.7989959716797
y: 289.593017578125
z: -0.2984403669834137
visibility: 0.9475966691970825
","x: 230.4231719970703
y: 276.19122314453125
z: -0.37379148602485657
visibility: 0.9852057099342346
","x: 216.85012817382812
y: 290.0523986816406
z: -0.2590327262878418
visibility: 0.9330267310142517
","x: 250.3300323486328
y: 374.1850280761719
z: -0.07683450728654861
visibility: 0.9998895525932312
","x: 230.22433471679688
y: 371.57470703125
z: 0.07671906054019928
visibility: 0.9997924566268921
","x: 242.71401977539062
y: 463.84234619140625
z: -0.0820835530757904
visibility: 0.9956196546554565
","x: 208.1791534423828
y: 453.11175537109375
z: 0.06688109785318375
visibility: 0.985450804233551
","x: 253.5207977294922
y: 550.18017578125
z: 0.07284621894359589
visibility: 0.9940298795700073
","x: 218.47915649414062
y: 531.0869750976562
z: 0.29066184163093567
visibility: 0.9861380457878113
","x: 258.9341735839844
y: 564.2535400390625
z: 0.08297549188137054
visibility: 0.9015675783157349
","x: 224.7618865966797
y: 543.4935302734375
z: 0.3065594434738159
visibility: 0.8670061826705933
","x: 235.90740966796875
y: 572.8858642578125
z: -0.0515458770096302
visibility: 0.9898840188980103
","x: 203.84219360351562
y: 557.7103881835938
z: 0.2235393077135086
visibility: 0.9823567867279053
",,,,,,,,,,,,,,,,,,,,,,,,,,,,,,,,,,,,,,,,,,
15,"x: 242.37115478515625
y: 201.48316955566406
z: -0.23482675850391388
visibility: 0.9999977350234985
","x: 245.93408203125
y: 194.10154724121094
z: -0.22200140357017517
visibility: 0.9999963045120239
","x: 248.04937744140625
y: 194.171142578125
z: -0.22207316756248474
visibility: 0.9999961256980896
","x: 249.99131774902344
y: 194.2346954345703
z: -0.2221108227968216
visibility: 0.999995768070221
","x: 241.0531463623047
y: 194.28366088867188
z: -0.2080245316028595
visibility: 0.9999947547912598
","x: 239.77081298828125
y: 194.5321807861328
z: -0.20802529156208038
visibility: 0.999993622303009
","x: 238.68869018554688
y: 194.74404907226562
z: -0.20799891650676727
visibility: 0.9999929070472717
","x: 253.8394317626953
y: 200.4615936279297
z: -0.1271996647119522
visibility: 0.9999961256980896
","x: 239.10702514648438
y: 200.86788940429688
z: -0.06344195455312729
visibility: 0.9999875426292419
","x: 245.86074829101562
y: 211.8408203125
z: -0.1988678276538849
visibility: 0.999997615814209
","x: 239.9613494873047
y: 212.05931091308594
z: -0.18078096210956573
visibility: 0.9999948740005493
","x: 264.6112365722656
y: 245.8531951904297
z: -0.13838045299053192
visibility: 0.9999908804893494
","x: 233.74331665039062
y: 255.02610778808594
z: 0.0824955478310585
visibility: 0.9998694658279419
","x: 260.6090393066406
y: 309.2427978515625
z: -0.22107765078544617
visibility: 0.9942945241928101
","x: 228.93112182617188
y: 314.1763916015625
z: 0.0003548486274667084
visibility: 0.8638157248497009
","x: 239.2936248779297
y: 269.24114990234375
z: -0.2948983609676361
visibility: 0.9966434240341187
","x: 219.83518981933594
y: 284.155517578125
z: -0.28579282760620117
visibility: 0.9608749151229858
","x: 233.6294403076172
y: 261.2938232421875
z: -0.3225143253803253
visibility: 0.9909388422966003
","x: 219.01669311523438
y: 272.213134765625
z: -0.3269433379173279
visibility: 0.939303457736969
","x: 234.7639617919922
y: 256.1119384765625
z: -0.32098859548568726
visibility: 0.991044819355011
","x: 219.1625213623047
y: 269.80780029296875
z: -0.3294405937194824
visibility: 0.9374222159385681
","x: 236.4488525390625
y: 258.5311279296875
z: -0.2922031283378601
visibility: 0.9851661324501038
","x: 220.55628967285156
y: 273.2254333496094
z: -0.2971777319908142
visibility: 0.9217880964279175
","x: 255.71456909179688
y: 374.95794677734375
z: -0.08110365271568298
visibility: 0.999864935874939
","x: 235.7501678466797
y: 373.1016845703125
z: 0.0810316950082779
visibility: 0.9997698664665222
","x: 250.03463745117188
y: 464.487548828125
z: -0.09452865272760391
visibility: 0.9953715205192566
","x: 219.33132934570312
y: 455.3946533203125
z: 0.06633603572845459
visibility: 0.9840502142906189
","x: 255.13055419921875
y: 548.7421875
z: 0.05112208053469658
visibility: 0.993598222732544
","x: 238.32492065429688
y: 532.718505859375
z: 0.24841544032096863
visibility: 0.9849370121955872
","x: 260.12994384765625
y: 562.4698486328125
z: 0.05783858150243759
visibility: 0.8990839123725891
","x: 246.25242614746094
y: 545.8353271484375
z: 0.259774386882782
visibility: 0.875164270401001
","x: 235.5319061279297
y: 570.241943359375
z: -0.0633910745382309
visibility: 0.989573061466217
","x: 221.17660522460938
y: 557.3372192382812
z: 0.1788613349199295
visibility: 0.9814829230308533
","x: 223.17840576171875
y: 278.3865661621094
z: 0.0
","x: 225.23565673828125
y: 269.8754577636719
z: 0.0008295895531773567
","x: 225.59715270996094
y: 262.89068603515625
z: 0.0002632454561535269
","x: 224.8354034423828
y: 258.5162658691406
z: -0.001275968155823648
","x: 223.2444305419922
y: 256.6075134277344
z: -0.0021766526624560356
","x: 220.8330841064453
y: 257.68438720703125
z: 0.0017941072583198547
","x: 222.9309844970703
y: 254.18817138671875
z: -0.0005633889231830835
","x: 224.4087371826172
y: 258.6805114746094
z: -0.0015322574181482196
","x: 224.22491455078125
y: 262.06512451171875
z: -0.0019010084215551615
","x: 219.08091735839844
y: 258.93426513671875
z: -0.0004688227199949324
","x: 221.91873168945312
y: 256.015625
z: -0.0028776039835065603
","x: 223.44606018066406
y: 260.7015075683594
z: -0.002921054372563958
","x: 223.17135620117188
y: 263.93365478515625
z: -0.002603587694466114
","x: 217.7039031982422
y: 261.2040100097656
z: -0.003120493609458208
","x: 220.5825958251953
y: 258.5043029785156
z: -0.005263121332973242
","x: 222.03558349609375
y: 262.69091796875
z: -0.004206865094602108
","x: 221.84783935546875
y: 265.6596984863281
z: -0.0031647449359297752
","x: 216.74374389648438
y: 264.1695556640625
z: -0.005973973777145147
","x: 219.14675903320312
y: 261.7410888671875
z: -0.007041813340038061
","x: 220.502197265625
y: 264.58575439453125
z: -0.005993422586470842
","x: 220.44224548339844
y: 266.966064453125
z: -0.00490326713770628
",,,,,,,,,,,,,,,,,,,,,
16,"x: 242.37115478515625
y: 201.48316955566406
z: -0.23482675850391388
visibility: 0.9999977350234985
","x: 245.93408203125
y: 194.10154724121094
z: -0.22200140357017517
visibility: 0.9999963045120239
","x: 248.04937744140625
y: 194.171142578125
z: -0.22207316756248474
visibility: 0.9999961256980896
","x: 249.99131774902344
y: 194.2346954345703
z: -0.2221108227968216
visibility: 0.999995768070221
","x: 241.0531463623047
y: 194.28366088867188
z: -0.2080245316028595
visibility: 0.9999947547912598
","x: 239.77081298828125
y: 194.5321807861328
z: -0.20802529156208038
visibility: 0.999993622303009
","x: 238.68869018554688
y: 194.74404907226562
z: -0.20799891650676727
visibility: 0.9999929070472717
","x: 253.8394317626953
y: 200.4615936279297
z: -0.1271996647119522
visibility: 0.9999961256980896
","x: 239.10702514648438
y: 200.86788940429688
z: -0.06344195455312729
visibility: 0.9999875426292419
","x: 245.86074829101562
y: 211.8408203125
z: -0.1988678276538849
visibility: 0.999997615814209
","x: 239.9613494873047
y: 212.05931091308594
z: -0.18078096210956573
visibility: 0.9999948740005493
","x: 264.6112365722656
y: 245.8531951904297
z: -0.13838045299053192
visibility: 0.9999908804893494
","x: 233.74331665039062
y: 255.02610778808594
z: 0.0824955478310585
visibility: 0.9998694658279419
","x: 260.6090393066406
y: 309.2427978515625
z: -0.22107765078544617
visibility: 0.9942945241928101
","x: 228.93112182617188
y: 314.1763916015625
z: 0.0003548486274667084
visibility: 0.8638157248497009
","x: 239.2936248779297
y: 269.24114990234375
z: -0.2948983609676361
visibility: 0.9966434240341187
","x: 219.83518981933594
y: 284.155517578125
z: -0.28579282760620117
visibility: 0.9608749151229858
","x: 233.6294403076172
y: 261.2938232421875
z: -0.3225143253803253
visibility: 0.9909388422966003
","x: 219.01669311523438
y: 272.213134765625
z: -0.3269433379173279
visibility: 0.939303457736969
","x: 234.7639617919922
y: 256.1119384765625
z: -0.32098859548568726
visibility: 0.991044819355011
","x: 219.1625213623047
y: 269.80780029296875
z: -0.3294405937194824
visibility: 0.9374222159385681
","x: 236.4488525390625
y: 258.5311279296875
z: -0.2922031283378601
visibility: 0.9851661324501038
","x: 220.55628967285156
y: 273.2254333496094
z: -0.2971777319908142
visibility: 0.9217880964279175
","x: 255.71456909179688
y: 374.95794677734375
z: -0.08110365271568298
visibility: 0.999864935874939
","x: 235.7501678466797
y: 373.1016845703125
z: 0.0810316950082779
visibility: 0.9997698664665222
","x: 250.03463745117188
y: 464.487548828125
z: -0.09452865272760391
visibility: 0.9953715205192566
","x: 219.33132934570312
y: 455.3946533203125
z: 0.06633603572845459
visibility: 0.9840502142906189
","x: 255.13055419921875
y: 548.7421875
z: 0.05112208053469658
visibility: 0.993598222732544
","x: 238.32492065429688
y: 532.718505859375
z: 0.24841544032096863
visibility: 0.9849370121955872
","x: 260.12994384765625
y: 562.4698486328125
z: 0.05783858150243759
visibility: 0.8990839123725891
","x: 246.25242614746094
y: 545.8353271484375
z: 0.259774386882782
visibility: 0.875164270401001
","x: 235.5319061279297
y: 570.241943359375
z: -0.0633910745382309
visibility: 0.989573061466217
","x: 221.17660522460938
y: 557.3372192382812
z: 0.1788613349199295
visibility: 0.9814829230308533
","x: 223.17840576171875
y: 278.3865661621094
z: 0.0
","x: 225.23565673828125
y: 269.8754577636719
z: 0.0008295895531773567
","x: 225.59715270996094
y: 262.89068603515625
z: 0.0002632454561535269
","x: 224.8354034423828
y: 258.5162658691406
z: -0.001275968155823648
","x: 223.2444305419922
y: 256.6075134277344
z: -0.0021766526624560356
","x: 220.8330841064453
y: 257.68438720703125
z: 0.0017941072583198547
","x: 222.9309844970703
y: 254.18817138671875
z: -0.0005633889231830835
","x: 224.4087371826172
y: 258.6805114746094
z: -0.0015322574181482196
","x: 224.22491455078125
y: 262.06512451171875
z: -0.0019010084215551615
","x: 219.08091735839844
y: 258.93426513671875
z: -0.0004688227199949324
","x: 221.91873168945312
y: 256.015625
z: -0.0028776039835065603
","x: 223.44606018066406
y: 260.7015075683594
z: -0.002921054372563958
","x: 223.17135620117188
y: 263.93365478515625
z: -0.002603587694466114
","x: 217.7039031982422
y: 261.2040100097656
z: -0.003120493609458208
","x: 220.5825958251953
y: 258.5043029785156
z: -0.005263121332973242
","x: 222.03558349609375
y: 262.69091796875
z: -0.004206865094602108
","x: 221.84783935546875
y: 265.6596984863281
z: -0.0031647449359297752
","x: 216.74374389648438
y: 264.1695556640625
z: -0.005973973777145147
","x: 219.14675903320312
y: 261.7410888671875
z: -0.007041813340038061
","x: 220.502197265625
y: 264.58575439453125
z: -0.005993422586470842
","x: 220.44224548339844
y: 266.966064453125
z: -0.00490326713770628
",,,,,,,,,,,,,,,,,,,,,
17,"x: 246.78311157226562
y: 202.82818603515625
z: -0.16662830114364624
visibility: 0.999997615814209
","x: 250.2137908935547
y: 195.91017150878906
z: -0.15759706497192383
visibility: 0.9999961256980896
","x: 252.184814453125
y: 196.19363403320312
z: -0.1576426923274994
visibility: 0.9999959468841553
","x: 254.25653076171875
y: 196.5200958251953
z: -0.1576627790927887
visibility: 0.9999955892562866
","x: 246.1285400390625
y: 195.35906982421875
z: -0.14273427426815033
visibility: 0.999994695186615
","x: 244.7289581298828
y: 195.3129425048828
z: -0.14275307953357697
visibility: 0.9999935030937195
","x: 243.46490478515625
y: 195.20632934570312
z: -0.14274141192436218
visibility: 0.999992847442627
","x: 258.8682861328125
y: 202.89111328125
z: -0.08818837255239487
visibility: 0.9999961256980896
","x: 243.901611328125
y: 200.92803955078125
z: -0.015762770548462868
visibility: 0.9999873042106628
","x: 249.22605895996094
y: 213.30810546875
z: -0.13759499788284302
visibility: 0.9999974370002747
","x: 244.3221435546875
y: 212.71505737304688
z: -0.11867662519216537
visibility: 0.9999945163726807
","x: 267.92828369140625
y: 246.55322265625
z: -0.0982871875166893
visibility: 0.9999891519546509
","x: 236.88946533203125
y: 255.10235595703125
z: 0.10909876972436905
visibility: 0.9998699426651001
","x: 261.10955810546875
y: 312.666748046875
z: -0.18837779760360718
visibility: 0.9946117997169495
","x: 230.55848693847656
y: 313.5552978515625
z: 0.013835067860782146
visibility: 0.8574036359786987
","x: 241.59413146972656
y: 265.45660400390625
z: -0.24256141483783722
visibility: 0.9966908693313599
","x: 224.51454162597656
y: 280.8050537109375
z: -0.227024644613266
visibility: 0.9605987071990967
","x: 236.07449340820312
y: 255.35641479492188
z: -0.2712249755859375
visibility: 0.9911065697669983
","x: 223.93280029296875
y: 267.1059875488281
z: -0.2655305862426758
visibility: 0.9381779432296753
","x: 237.30738830566406
y: 250.63015747070312
z: -0.2662322521209717
visibility: 0.9911476373672485
","x: 224.7101593017578
y: 264.54736328125
z: -0.26610511541366577
visibility: 0.9359278678894043
","x: 238.84925842285156
y: 253.49179077148438
z: -0.239675372838974
visibility: 0.9853160977363586
","x: 225.9349822998047
y: 268.0477600097656
z: -0.2358550727367401
visibility: 0.9203361868858337
","x: 257.6099853515625
y: 376.1236572265625
z: -0.07682903110980988
visibility: 0.999858558177948
","x: 238.2627410888672
y: 374.50238037109375
z: 0.07672775536775589
visibility: 0.9997701644897461
","x: 251.6165313720703
y: 465.113037109375
z: -0.08448155969381332
visibility: 0.9952638149261475
","x: 227.06484985351562
y: 460.971923828125
z: 0.05828321725130081
visibility: 0.9833977222442627
","x: 256.20806884765625
y: 547.9478759765625
z: 0.0688510462641716
visibility: 0.9933687448501587
","x: 243.3569793701172
y: 536.0062866210938
z: 0.23587100207805634
visibility: 0.9839887022972107
","x: 261.990234375
y: 561.9251098632812
z: 0.08100663125514984
visibility: 0.8970316052436829
","x: 250.5146942138672
y: 549.7757568359375
z: 0.24577562510967255
visibility: 0.8817843794822693
","x: 235.9321746826172
y: 569.873779296875
z: -0.028937334194779396
visibility: 0.9894318580627441
","x: 228.96336364746094
y: 558.864013671875
z: 0.1585896611213684
visibility: 0.9809289574623108
","x: 225.26748657226562
y: 275.72406005859375
z: 0.0
","x: 226.9101104736328
y: 269.6487121582031
z: 0.00038324977504089475
","x: 227.45639038085938
y: 264.05816650390625
z: -5.706070805899799e-05
","x: 227.26901245117188
y: 260.0756530761719
z: -0.0014548803446814418
","x: 227.2209014892578
y: 256.9183044433594
z: -0.002316268626600504
","x: 224.3600616455078
y: 257.9659729003906
z: 0.0020971728954464197
","x: 224.485595703125
y: 253.1297149658203
z: -0.0005193319520913064
","x: 226.09642028808594
y: 255.8676300048828
z: -0.001417563995346427
","x: 226.97604370117188
y: 258.8648986816406
z: -0.0014686279464513063
","x: 222.5824432373047
y: 259.22686767578125
z: 0.0001801096514100209
","x: 222.9496612548828
y: 254.5369110107422
z: -0.00297632091678679
","x: 224.85276794433594
y: 258.89984130859375
z: -0.003079133341088891
","x: 225.49156188964844
y: 262.4231872558594
z: -0.002140703145414591
","x: 220.84402465820312
y: 261.3484802246094
z: -0.002302090637385845
","x: 221.2459259033203
y: 257.6272277832031
z: -0.0050868378020823
","x: 223.0380401611328
y: 261.5179443359375
z: -0.003899810602888465
","x: 223.680419921875
y: 264.3695068359375
z: -0.002208536956459284
","x: 219.21237182617188
y: 264.27239990234375
z: -0.005070572253316641
","x: 219.7763214111328
y: 261.20794677734375
z: -0.006431323941797018
","x: 221.29660034179688
y: 263.3212585449219
z: -0.005483319517225027
","x: 221.9482421875
y: 265.2832946777344
z: -0.004105675965547562
",,,,,,,,,,,,,,,,,,,,,
18,"x: 246.78311157226562
y: 202.82818603515625
z: -0.16662830114364624
visibility: 0.999997615814209
","x: 250.2137908935547
y: 195.91017150878906
z: -0.15759706497192383
visibility: 0.9999961256980896
","x: 252.184814453125
y: 196.19363403320312
z: -0.1576426923274994
visibility: 0.9999959468841553
","x: 254.25653076171875
y: 196.5200958251953
z: -0.1576627790927887
visibility: 0.9999955892562866
","x: 246.1285400390625
y: 195.35906982421875
z: -0.14273427426815033
visibility: 0.999994695186615
","x: 244.7289581298828
y: 195.3129425048828
z: -0.14275307953357697
visibility: 0.9999935030937195
","x: 243.46490478515625
y: 195.20632934570312
z: -0.14274141192436218
visibility: 0.999992847442627
","x: 258.8682861328125
y: 202.89111328125
z: -0.08818837255239487
visibility: 0.9999961256980896
","x: 243.901611328125
y: 200.92803955078125
z: -0.015762770548462868
visibility: 0.9999873042106628
","x: 249.22605895996094
y: 213.30810546875
z: -0.13759499788284302
visibility: 0.9999974370002747
","x: 244.3221435546875
y: 212.71505737304688
z: -0.11867662519216537
visibility: 0.9999945163726807
","x: 267.92828369140625
y: 246.55322265625
z: -0.0982871875166893
visibility: 0.9999891519546509
","x: 236.88946533203125
y: 255.10235595703125
z: 0.10909876972436905
visibility: 0.9998699426651001
","x: 261.10955810546875
y: 312.666748046875
z: -0.18837779760360718
visibility: 0.9946117997169495
","x: 230.55848693847656
y: 313.5552978515625
z: 0.013835067860782146
visibility: 0.8574036359786987
","x: 241.59413146972656
y: 265.45660400390625
z: -0.24256141483783722
visibility: 0.9966908693313599
","x: 224.51454162597656
y: 280.8050537109375
z: -0.227024644613266
visibility: 0.9605987071990967
","x: 236.07449340820312
y: 255.35641479492188
z: -0.2712249755859375
visibility: 0.9911065697669983
","x: 223.93280029296875
y: 267.1059875488281
z: -0.2655305862426758
visibility: 0.9381779432296753
","x: 237.30738830566406
y: 250.63015747070312
z: -0.2662322521209717
visibility: 0.9911476373672485
","x: 224.7101593017578
y: 264.54736328125
z: -0.26610511541366577
visibility: 0.9359278678894043
","x: 238.84925842285156
y: 253.49179077148438
z: -0.239675372838974
visibility: 0.9853160977363586
","x: 225.9349822998047
y: 268.0477600097656
z: -0.2358550727367401
visibility: 0.9203361868858337
","x: 257.6099853515625
y: 376.1236572265625
z: -0.07682903110980988
visibility: 0.999858558177948
","x: 238.2627410888672
y: 374.50238037109375
z: 0.07672775536775589
visibility: 0.9997701644897461
","x: 251.6165313720703
y: 465.113037109375
z: -0.08448155969381332
visibility: 0.9952638149261475
","x: 227.06484985351562
y: 460.971923828125
z: 0.05828321725130081
visibility: 0.9833977222442627
","x: 256.20806884765625
y: 547.9478759765625
z: 0.0688510462641716
visibility: 0.9933687448501587
","x: 243.3569793701172
y: 536.0062866210938
z: 0.23587100207805634
visibility: 0.9839887022972107
","x: 261.990234375
y: 561.9251098632812
z: 0.08100663125514984
visibility: 0.8970316052436829
","x: 250.5146942138672
y: 549.7757568359375
z: 0.24577562510967255
visibility: 0.8817843794822693
","x: 235.9321746826172
y: 569.873779296875
z: -0.028937334194779396
visibility: 0.9894318580627441
","x: 228.96336364746094
y: 558.864013671875
z: 0.1585896611213684
visibility: 0.9809289574623108
","x: 225.26748657226562
y: 275.72406005859375
z: 0.0
","x: 226.9101104736328
y: 269.6487121582031
z: 0.00038324977504089475
","x: 227.45639038085938
y: 264.05816650390625
z: -5.706070805899799e-05
","x: 227.26901245117188
y: 260.0756530761719
z: -0.0014548803446814418
","x: 227.2209014892578
y: 256.9183044433594
z: -0.002316268626600504
","x: 224.3600616455078
y: 257.9659729003906
z: 0.0020971728954464197
","x: 224.485595703125
y: 253.1297149658203
z: -0.0005193319520913064
","x: 226.09642028808594
y: 255.8676300048828
z: -0.001417563995346427
","x: 226.97604370117188
y: 258.8648986816406
z: -0.0014686279464513063
","x: 222.5824432373047
y: 259.22686767578125
z: 0.0001801096514100209
","x: 222.9496612548828
y: 254.5369110107422
z: -0.00297632091678679
","x: 224.85276794433594
y: 258.89984130859375
z: -0.003079133341088891
","x: 225.49156188964844
y: 262.4231872558594
z: -0.002140703145414591
","x: 220.84402465820312
y: 261.3484802246094
z: -0.002302090637385845
","x: 221.2459259033203
y: 257.6272277832031
z: -0.0050868378020823
","x: 223.0380401611328
y: 261.5179443359375
z: -0.003899810602888465
","x: 223.680419921875
y: 264.3695068359375
z: -0.002208536956459284
","x: 219.21237182617188
y: 264.27239990234375
z: -0.005070572253316641
","x: 219.7763214111328
y: 261.20794677734375
z: -0.006431323941797018
","x: 221.29660034179688
y: 263.3212585449219
z: -0.005483319517225027
","x: 221.9482421875
y: 265.2832946777344
z: -0.004105675965547562
",,,,,,,,,,,,,,,,,,,,,
19,"x: 248.07034301757812
y: 205.258056640625
z: -0.17781908810138702
visibility: 0.9999968409538269
","x: 251.6017303466797
y: 197.96884155273438
z: -0.16404059529304504
visibility: 0.9999950528144836
","x: 253.54153442382812
y: 198.290283203125
z: -0.16409355401992798
visibility: 0.9999948740005493
","x: 255.39822387695312
y: 198.737060546875
z: -0.16412702202796936
visibility: 0.9999944567680359
","x: 247.47344970703125
y: 197.046142578125
z: -0.15396727621555328
visibility: 0.9999936819076538
","x: 246.0043487548828
y: 196.85272216796875
z: -0.15397480130195618
visibility: 0.9999920725822449
","x: 244.587158203125
y: 196.58383178710938
z: -0.15394966304302216
visibility: 0.9999912977218628
","x: 260.25653076171875
y: 205.16879272460938
z: -0.09723442047834396
visibility: 0.999995231628418
","x: 244.84219360351562
y: 201.2973175048828
z: -0.022821808233857155
visibility: 0.9999837279319763
","x: 250.4275665283203
y: 215.31927490234375
z: -0.13929235935211182
visibility: 0.9999949932098389
","x: 245.31800842285156
y: 214.36643981933594
z: -0.12889209389686584
visibility: 0.9999893307685852
","x: 267.6471862792969
y: 246.46360778808594
z: -0.12923400104045868
visibility: 0.9999837279319763
","x: 241.4102020263672
y: 255.5923614501953
z: 0.10761713981628418
visibility: 0.9998263716697693
","x: 260.1732482910156
y: 302.63134765625
z: -0.2389405220746994
visibility: 0.9948642253875732
","x: 230.15451049804688
y: 308.13079833984375
z: 0.010417582467198372
visibility: 0.8403791189193726
","x: 242.57937622070312
y: 253.28671264648438
z: -0.2950204610824585
visibility: 0.9966529607772827
","x: 226.03103637695312
y: 269.28564453125
z: -0.2393290102481842
visibility: 0.9574829339981079
","x: 237.30831909179688
y: 243.70216369628906
z: -0.2879047989845276
visibility: 0.9911236763000488
","x: 226.1943817138672
y: 256.8680419921875
z: -0.2766438126564026
visibility: 0.9338825941085815
","x: 238.38999938964844
y: 239.8457489013672
z: -0.27865493297576904
visibility: 0.9910988211631775
","x: 227.22869873046875
y: 255.1431427001953
z: -0.2766379714012146
visibility: 0.9312082529067993
","x: 239.86669921875
y: 243.21678161621094
z: -0.2866883873939514
visibility: 0.9851902723312378
","x: 228.31430053710938
y: 258.48834228515625
z: -0.24818143248558044
visibility: 0.9153748750686646
","x: 259.2134704589844
y: 377.9627990722656
z: -0.08948473632335663
visibility: 0.9998414516448975
","x: 241.56263732910156
y: 375.1441955566406
z: 0.08931813389062881
visibility: 0.9997487664222717
","x: 249.7954559326172
y: 465.5699462890625
z: -0.09612216055393219
visibility: 0.9942742586135864
","x: 224.0254669189453
y: 458.0334777832031
z: 0.06345345079898834
visibility: 0.9765980839729309
","x: 256.31689453125
y: 548.7592163085938
z: 0.0028134214226156473
visibility: 0.9925436973571777
","x: 244.5558319091797
y: 536.7216186523438
z: 0.19362136721611023
visibility: 0.9775343537330627
","x: 261.938232421875
y: 562.897216796875
z: 0.006813014391809702
visibility: 0.8950623273849487
","x: 252.49668884277344
y: 551.4794311523438
z: 0.20007991790771484
visibility: 0.8837926983833313
","x: 236.59263610839844
y: 568.5125122070312
z: -0.09817162156105042
visibility: 0.9888081550598145
","x: 229.1272735595703
y: 558.1365356445312
z: 0.14731070399284363
visibility: 0.9763602018356323
",,,,,,,,,,,,,,,,,,,,,,"x: 243.35867309570312
y: 250.51394653320312
z: 0.0
","x: 240.7962188720703
y: 243.93603515625
z: 0.0035385785158723593
","x: 238.1305694580078
y: 238.67776489257812
z: 0.0032283817417919636
","x: 235.2476806640625
y: 236.7648162841797
