uscmakers/ReverseChoreography/data/8_ymca_village_people.csv
,NOSE,LEFT_EYE_INNER,LEFT_EYE,LEFT_EYE_OUTER,RIGHT_EYE_INNER,RIGHT_EYE,RIGHT_EYE_OUTER,LEFT_EAR,RIGHT_EAR,MOUTH_LEFT,MOUTH_RIGHT,LEFT_SHOULDER,RIGHT_SHOULDER,LEFT_ELBOW,RIGHT_ELBOW,LEFT_WRIST,RIGHT_WRIST,LEFT_PINKY,RIGHT_PINKY,LEFT_INDEX,RIGHT_INDEX,LEFT_THUMB,RIGHT_THUMB,LEFT_HIP,RIGHT_HIP,LEFT_KNEE,RIGHT_KNEE,LEFT_ANKLE,RIGHT_ANKLE,LEFT_HEEL,RIGHT_HEEL,LEFT_FOOT_INDEX,RIGHT_FOOT_INDEX,WRIST2,THUMB_CPC2,THUMB_MCP2,THUMB_IP2,THUMB_TIP2,INDEX_FINGER_MCP2,INDEX_FINGER_PIP2,INDEX_FINGER_DIP2,INDEX_FINGER_TIP2,MIDDLE_FINGER_MCP2,MIDDLE_FINGER_PIP2,MIDDLE_FINGER_DIP2,MIDDLE_FINGER_TIP2,RING_FINGER_PIP2,RING_FINGER_DIP2,RING_FINGER_TIP2,RING_FINGER_MCP2,PINKY_MCP2,PINKY_PIP2,PINKY_DIP2,PINKY_TIP2,WRIST,THUMB_CPC,THUMB_MCP,THUMB_IP,THUMB_TIP,INDEX_FINGER_MCP,INDEX_FINGER_PIP,INDEX_FINGER_DIP,INDEX_FINGER_TIP,MIDDLE_FINGER_MCP,MIDDLE_FINGER_PIP,MIDDLE_FINGER_DIP,MIDDLE_FINGER_TIP,RING_FINGER_PIP,RING_FINGER_DIP,RING_FINGER_TIP,RING_FINGER_MCP,PINKY_MCP,PINKY_PIP,PINKY_DIP,PINKY_TIP
0,"x: 262.82177734375
y: 217.3797607421875
z: -0.1962880790233612
visibility: 0.9999045133590698
","x: 265.3154296875
y: 211.626220703125
z: -0.18015025556087494
visibility: 0.9998682737350464
","x: 266.94696044921875
y: 211.91465759277344
z: -0.18015459179878235
visibility: 0.9998501539230347
","x: 268.2940673828125
y: 212.2246551513672
z: -0.18014679849147797
visibility: 0.9998692274093628
","x: 260.7940673828125
y: 211.45948791503906
z: -0.17161715030670166
visibility: 0.9998427629470825
","x: 259.24078369140625
y: 211.653076171875
z: -0.17161284387111664
visibility: 0.9997690320014954
","x: 257.7713623046875
y: 211.86209106445312
z: -0.17155462503433228
visibility: 0.9998040795326233
","x: 270.7029724121094
y: 218.22694396972656
z: -0.08953660726547241
visibility: 0.9999115467071533
","x: 255.81727600097656
y: 217.92828369140625
z: -0.04761592298746109
visibility: 0.999777615070343
","x: 265.53765869140625
y: 226.7546844482422
z: -0.16285821795463562
visibility: 0.9998958110809326
","x: 259.8902282714844
y: 226.03274536132812
z: -0.15104244649410248
visibility: 0.9998502731323242
","x: 281.57305908203125
y: 257.42852783203125
z: -0.1323321908712387
visibility: 0.9999181032180786
","x: 245.72959899902344
y: 259.3941650390625
z: 0.0032300434540957212
visibility: 0.9996242523193359
","x: 295.74114990234375
y: 247.29417419433594
z: -0.3959687352180481
visibility: 0.9980964064598083
","x: 219.6246795654297
y: 246.22781372070312
z: -0.22107799351215363
visibility: 0.9638747572898865
","x: 268.74267578125
y: 246.0657958984375
z: -0.5535656809806824
visibility: 0.9850351810455322
","x: 227.64544677734375
y: 251.25888061523438
z: -0.4942587912082672
visibility: 0.9277467131614685
","x: 263.975341796875
y: 248.7062225341797
z: -0.6062318086624146
visibility: 0.9583789110183716
","x: 229.01490783691406
y: 261.7459716796875
z: -0.5479925870895386
visibility: 0.8561872243881226
","x: 262.2826232910156
y: 251.7926025390625
z: -0.5838885307312012
visibility: 0.954411506652832
","x: 233.89010620117188
y: 264.2188720703125
z: -0.5392364859580994
visibility: 0.8488373756408691
","x: 262.88671875
y: 251.24244689941406
z: -0.5506308078765869
visibility: 0.9370008707046509
","x: 235.0670928955078
y: 262.22198486328125
z: -0.5007661581039429
visibility: 0.8453684449195862
","x: 267.4285583496094
y: 378.5673828125
z: -0.059293754398822784
visibility: 0.9999297857284546
","x: 246.432373046875
y: 375.1345520019531
z: 0.05915907770395279
visibility: 0.9999067783355713
","x: 263.7322082519531
y: 458.9898986816406
z: -0.04600391164422035
visibility: 0.9935680031776428
","x: 236.19369506835938
y: 453.4857177734375
z: 0.023756973445415497
visibility: 0.9809969663619995
","x: 280.45947265625
y: 532.7205810546875
z: 0.08502788841724396
visibility: 0.9946658611297607
","x: 242.06640625
y: 525.3553466796875
z: 0.18420909345149994
visibility: 0.9869066476821899
","x: 287.3114013671875
y: 543.6815185546875
z: 0.09074891358613968
visibility: 0.8817030787467957
","x: 247.12057495117188
y: 538.9912109375
z: 0.1934015154838562
visibility: 0.9477593898773193
","x: 270.2501525878906
y: 550.731689453125
z: -0.030992109328508377
visibility: 0.9905228018760681
","x: 229.5153045654297
y: 541.4935302734375
z: 0.09471551328897476
visibility: 0.98385089635849
",,,,,,,,,,,,,,,,,,,,,,,,,,,,,,,,,,,,,,,,,,
1,"x: 263.2518615722656
y: 214.41952514648438
z: -0.22343003749847412
visibility: 0.9999133348464966
","x: 264.9156494140625
y: 209.693359375
z: -0.19906888902187347
visibility: 0.9998791217803955
","x: 266.08416748046875
y: 210.077880859375
z: -0.19904088973999023
visibility: 0.9998615384101868
","x: 267.1092834472656
y: 210.5487823486328
z: -0.19907012581825256
visibility: 0.999878466129303
","x: 260.7940368652344
y: 209.37242126464844
z: -0.20998473465442657
visibility: 0.9998575448989868
","x: 259.2424011230469
y: 209.56092834472656
z: -0.2100517749786377
visibility: 0.999791145324707
","x: 257.7672424316406
y: 209.83123779296875
z: -0.21007394790649414
visibility: 0.999822735786438
","x: 266.5940246582031
y: 216.48431396484375
z: -0.08693640679121017
visibility: 0.9999120235443115
","x: 254.5507049560547
y: 216.67324829101562
z: -0.13133275508880615
visibility: 0.9997989535331726
","x: 265.5389404296875
y: 222.84669494628906
z: -0.18032735586166382
visibility: 0.9999006390571594
","x: 260.62701416015625
y: 222.47698974609375
z: -0.19507379829883575
visibility: 0.9998628497123718
","x: 278.6631164550781
y: 256.8319396972656
z: 0.0013463061768561602
visibility: 0.9998793601989746
","x: 241.58860778808594
y: 256.5658874511719
z: -0.13123634457588196
visibility: 0.9996532797813416
","x: 301.649658203125
y: 231.51995849609375
z: 0.05942797660827637
visibility: 0.9972272515296936
","x: 215.01031494140625
y: 232.4415283203125
z: -0.23510971665382385
visibility: 0.9674086570739746
","x: 319.63299560546875
y: 196.1318359375
z: 0.03922959417104721
visibility: 0.9856606721878052
","x: 204.36119079589844
y: 180.13632202148438
z: -0.3763808310031891
visibility: 0.9347681999206543
","x: 325.8150634765625
y: 189.31692504882812
z: 0.03232352435588837
visibility: 0.959617555141449
","x: 199.8023681640625
y: 169.94204711914062
z: -0.41542306542396545
visibility: 0.8696421980857849
","x: 325.5461730957031
y: 188.6314697265625
z: 0.011587763205170631
visibility: 0.9562814831733704
","x: 201.35922241210938
y: 166.50643920898438
z: -0.4218069911003113
visibility: 0.8630094528198242
","x: 323.0771789550781
y: 191.0857391357422
z: 0.02610882744193077
visibility: 0.9407850503921509
","x: 203.26641845703125
y: 170.12826538085938
z: -0.3853893280029297
visibility: 0.8596352934837341
","x: 269.5068054199219
y: 373.8653869628906
z: 0.05465012788772583
visibility: 0.999910295009613
","x: 247.69432067871094
y: 372.19287109375
z: -0.05482734367251396
visibility: 0.9999058842658997
","x: 273.08880615234375
y: 457.4827880859375
z: 0.09605423361063004
visibility: 0.9906077980995178
","x: 250.50538635253906
y: 455.52716064453125
z: -0.09696685522794724
visibility: 0.982292115688324
","x: 268.8407287597656
y: 525.6314697265625
z: 0.28476086258888245
visibility: 0.9918628931045532
","x: 234.5797576904297
y: 527.8851928710938
z: 0.0052711451426148415
visibility: 0.9876684546470642
","x: 263.5557861328125
y: 535.55322265625
z: 0.29726532101631165
visibility: 0.8862148523330688
","x: 230.90985107421875
y: 539.0452880859375
z: 0.008829355239868164
visibility: 0.9460983872413635
","x: 273.5722961425781
y: 548.951904296875
z: 0.2088358849287033
visibility: 0.9877916574478149
","x: 237.21963500976562
y: 547.8056640625
z: -0.11804081499576569
visibility: 0.9844611883163452
",,,,,,,,,,,,,,,,,,,,,,,,,,,,,,,,,,,,,,,,,,
2,"x: 262.0196228027344
y: 220.22422790527344
z: -0.15791109204292297
visibility: 0.9999217987060547
","x: 262.0517883300781
y: 215.20347595214844
z: -0.13083817064762115
visibility: 0.9998908042907715
","x: 262.8132019042969
y: 215.42372131347656
z: -0.13078249990940094
visibility: 0.9998746514320374
","x: 263.6358337402344
y: 215.69847106933594
z: -0.13082732260227203
visibility: 0.9998899698257446
","x: 258.86627197265625
y: 215.08465576171875
z: -0.1469917595386505
visibility: 0.9998714923858643
","x: 257.51580810546875
y: 215.21279907226562
z: -0.14702622592449188
visibility: 0.9998117089271545
","x: 256.1448974609375
y: 215.36944580078125
z: -0.14702335000038147
visibility: 0.9998401999473572
","x: 262.2039489746094
y: 220.595458984375
z: -0.012515786103904247
visibility: 0.9999197721481323
","x: 252.0170440673828
y: 220.5665283203125
z: -0.09505095332860947
visibility: 0.9998188614845276
","x: 263.4290771484375
y: 228.2664337158203
z: -0.11522670835256577
visibility: 0.9999099373817444
","x: 259.2760314941406
y: 228.92864990234375
z: -0.1373492330312729
visibility: 0.999876081943512
","x: 273.1097717285156
y: 264.93719482421875
z: 0.08438561111688614
visibility: 0.9998784065246582
","x: 238.7039337158203
y: 258.289306640625
z: -0.10999616235494614
visibility: 0.9996840953826904
","x: 299.73687744140625
y: 247.13914489746094
z: 0.162407785654068
visibility: 0.9963455200195312
","x: 219.93154907226562
y: 224.44700622558594
z: -0.2402016818523407
visibility: 0.9706307053565979
","x: 307.8061828613281
y: 214.0946807861328
z: 0.1748480498790741
visibility: 0.9862561225891113
","x: 208.2746124267578
y: 167.9849090576172
z: -0.3423849940299988
visibility: 0.9412168860435486
","x: 311.97076416015625
y: 208.2621612548828
z: 0.1767359972000122
visibility: 0.9607070088386536
","x: 211.85943603515625
y: 154.4387969970703
z: -0.37958696484565735
visibility: 0.8823073506355286
","x: 309.48138427734375
y: 207.1220245361328
z: 0.1659660041332245
visibility: 0.9577236175537109
","x: 215.98037719726562
y: 151.7704620361328
z: -0.37261873483657837
visibility: 0.8762856721878052
","x: 307.60797119140625
y: 209.5121612548828
z: 0.1681482493877411
visibility: 0.943623960018158
","x: 217.47056579589844
y: 156.93612670898438
z: -0.34508055448532104
visibility: 0.8731052875518799
","x: 268.6310729980469
y: 374.2536926269531
z: 0.06802485883235931
visibility: 0.999898374080658
","x: 247.337890625
y: 372.8268127441406
z: -0.0681266114115715
visibility: 0.999902606010437
","x: 274.7256164550781
y: 457.6349182128906
z: 0.07525132596492767
visibility: 0.984735906124115
","x: 252.21902465820312
y: 463.66412353515625
z: -0.09529796987771988
visibility: 0.9829005002975464
","x: 265.72869873046875
y: 524.1654052734375
z: 0.23431316018104553
visibility: 0.9862156510353088
","x: 233.5821075439453
y: 530.0352172851562
z: 0.015502406284213066
visibility: 0.9877145290374756
","x: 260.4347229003906
y: 533.5123291015625
z: 0.24468259513378143
visibility: 0.8868511915206909
","x: 227.88368225097656
y: 539.0555419921875
z: 0.02116762474179268
visibility: 0.941619336605072
","x: 273.41741943359375
y: 548.0902099609375
z: 0.16620662808418274
visibility: 0.9813957214355469
","x: 240.41342163085938
y: 551.7398681640625
z: -0.08874978125095367
visibility: 0.9836257696151733
",,,,,,,,,,,,,,,,,,,,,,,,,,,,,,,,,,,,,,,,,,
3,"x: 256.322998046875
y: 189.17422485351562
z: 0.06781782954931259
visibility: 0.9999174475669861
","x: 254.14796447753906
y: 184.45736694335938
z: 0.0787435844540596
visibility: 0.9998865127563477
","x: 253.89234924316406
y: 185.14503479003906
z: 0.07873685657978058
visibility: 0.999859094619751
","x: 253.60507202148438
y: 185.89175415039062
z: 0.07875324040651321
visibility: 0.999889075756073
","x: 253.62046813964844
y: 183.2733154296875
z: 0.05410345271229744
visibility: 0.9998661875724792
","x: 252.99058532714844
y: 183.03915405273438
z: 0.05409814789891243
visibility: 0.9998052716255188
","x: 252.30331420898438
y: 182.883544921875
z: 0.054069023579359055
visibility: 0.9998384714126587
","x: 250.6563720703125
y: 191.27915954589844
z: 0.1225300207734108
visibility: 0.9998975396156311
","x: 248.75466918945312
y: 187.492919921875
z: 0.009259426966309547
visibility: 0.9998074769973755
","x: 255.97764587402344
y: 197.06124877929688
z: 0.08580654114484787
visibility: 0.9998939633369446
","x: 255.4959259033203
y: 196.04946899414062
z: 0.05332566052675247
visibility: 0.9998496174812317
","x: 246.81146240234375
y: 241.2116241455078
z: 0.18704935908317566
visibility: 0.9998191595077515
","x: 240.57528686523438
y: 213.3511505126953
z: -0.0733356922864914
visibility: 0.9997063875198364
","x: 259.4408264160156
y: 278.2790832519531
z: 0.2642905116081238
visibility: 0.9106948375701904
","x: 255.98138427734375
y: 169.44581604003906
z: -0.11774434894323349
visibility: 0.9734007120132446
","x: 270.7790832519531
y: 306.5598449707031
z: 0.22064253687858582
visibility: 0.9051511883735657
","x: 257.31561279296875
y: 128.60995483398438
z: -0.011955492198467255
visibility: 0.9462215304374695
","x: 275.2685546875
y: 320.4765625
z: 0.2229764461517334
visibility: 0.8853459358215332
","x: 257.1145935058594
y: 129.53184509277344
z: -0.028947073966264725
visibility: 0.8915172219276428
","x: 274.83209228515625
y: 320.45147705078125
z: 0.1947624832391739
visibility: 0.8839808702468872
","x: 251.6146697998047
y: 110.51786804199219
z: -0.021724209189414978
visibility: 0.8852499127388
","x: 272.67694091796875
y: 316.0403747558594
z: 0.20618689060211182
visibility: 0.8719152808189392
","x: 255.12274169921875
y: 131.41641235351562
z: -0.009701656177639961
visibility: 0.8816271424293518
","x: 245.97848510742188
y: 339.23028564453125
z: 0.09282450377941132
visibility: 0.9998863339424133
","x: 244.65054321289062
y: 335.3214111328125
z: -0.09302177280187607
visibility: 0.9998968839645386
","x: 250.41787719726562
y: 426.20166015625
z: 0.055035047233104706
visibility: 0.9173644185066223
","x: 248.90138244628906
y: 428.9449768066406
z: -0.12062989175319672
visibility: 0.980270504951477
","x: 233.24249267578125
y: 508.7276611328125
z: 0.07653353363275528
visibility: 0.9498999118804932
","x: 234.9111328125
y: 517.966796875
z: -0.12541961669921875
visibility: 0.9847676753997803
","x: 224.3319854736328
y: 519.9849243164062
z: 0.0739385336637497
visibility: 0.8662071824073792
","x: 229.40394592285156
y: 531.2334594726562
z: -0.13075309991836548
visibility: 0.939289927482605
","x: 247.0943603515625
y: 534.9102172851562
z: 0.02646685764193535
visibility: 0.9655502438545227
","x: 250.48049926757812
y: 544.8333129882812
z: -0.21994037926197052
visibility: 0.9814096093177795
",,,,,,,,,,,,,,,,,,,,,,,,,,,,,,,,,,,,,,,,,,
4,"x: 247.07745361328125
y: 198.46109008789062
z: 0.11427877843379974
visibility: 0.9996537566184998
","x: 242.89755249023438
y: 193.42962646484375
z: 0.11208204925060272
visibility: 0.9996318817138672
","x: 242.25111389160156
y: 193.85313415527344
z: 0.11209225654602051
visibility: 0.9995332360267639
","x: 241.576904296875
y: 194.35430908203125
z: 0.11204364150762558
visibility: 0.9996851682662964
","x: 243.97691345214844
y: 192.9824676513672
z: 0.08632690459489822
visibility: 0.9996681213378906
","x: 244.05990600585938
y: 193.03793334960938
z: 0.08631767332553864
visibility: 0.9995882511138916
","x: 244.13478088378906
y: 193.16139221191406
z: 0.08624203503131866
visibility: 0.9996683597564697
","x: 238.9482879638672
y: 200.07408142089844
z: 0.11577461659908295
visibility: 0.999566912651062
","x: 242.51675415039062
y: 197.86521911621094
z: 0.0019617306534200907
visibility: 0.9995866417884827
","x: 246.8096923828125
y: 205.541015625
z: 0.1219073161482811
visibility: 0.9992830157279968
","x: 248.33702087402344
y: 205.38998413085938
z: 0.08822891116142273
visibility: 0.9992084503173828
","x: 230.11851501464844
y: 241.95619201660156
z: 0.19617684185504913
visibility: 0.9996040463447571
","x: 246.725341796875
y: 223.4181365966797
z: -0.08569872379302979
visibility: 0.9996911883354187
","x: 241.87677001953125
y: 266.25750732421875
z: 0.3443138897418976
visibility: 0.8310014009475708
","x: 275.11224365234375
y: 191.31704711914062
z: -0.08763620257377625
visibility: 0.9752559661865234
","x: 253.546142578125
y: 270.5166015625
z: 0.4433101713657379
visibility: 0.8246530890464783
","x: 288.9708557128906
y: 155.5820770263672
z: 0.011786511167883873
visibility: 0.9503651857376099
","x: 253.44302368164062
y: 279.478759765625
z: 0.47160205245018005
visibility: 0.8102759718894958
","x: 294.163818359375
y: 146.19505310058594
z: 0.0008179708383977413
visibility: 0.9002655148506165
","x: 255.44602966308594
y: 306.8273010253906
z: 0.4528486132621765
visibility: 0.8095142841339111
","x: 293.6302490234375
y: 142.38140869140625
z: 0.010430412366986275
visibility: 0.8943173289299011
","x: 256.6837158203125
y: 295.5368347167969
z: 0.4383948743343353
visibility: 0.8007515072822571
","x: 291.3682556152344
y: 148.43515014648438
z: 0.018366264179348946
visibility: 0.8894402980804443
","x: 232.0910186767578
y: 350.4089660644531
z: 0.09562158584594727
visibility: 0.999842643737793
","x: 241.5754852294922
y: 350.7708435058594
z: -0.09575977176427841
visibility: 0.9998487830162048
","x: 237.02740478515625
y: 434.2062683105469
z: 0.1325015425682068
visibility: 0.8739568591117859
","x: 247.88143920898438
y: 438.5533142089844
z: -0.11922764778137207
visibility: 0.9771950840950012
","x: 216.04367065429688
y: 511.3142395019531
z: 0.19402135908603668
visibility: 0.9310494661331177
","x: 223.56390380859375
y: 518.7006225585938
z: -0.11275909841060638
visibility: 0.9827329516410828
","x: 208.47755432128906
y: 521.2994384765625
z: 0.19803299009799957
visibility: 0.8549324870109558
","x: 215.00244140625
y: 531.3080444335938
z: -0.11357639729976654
visibility: 0.9395286440849304
","x: 230.11988830566406
y: 533.3278198242188
z: 0.18089956045150757
visibility: 0.9447426795959473
","x: 245.0021514892578
y: 545.41845703125
z: -0.166700080037117
visibility: 0.9778192043304443
",,,,,,,,,,,,,,,,,,,,,,,,,,,,,,,,,,,,,,,,,,
5,"x: 241.6908416748047
y: 209.5714569091797
z: -0.033088624477386475
visibility: 0.9992004632949829
","x: 237.39964294433594
y: 203.65216064453125
z: -0.03113345243036747
visibility: 0.9989497065544128
","x: 236.34483337402344
y: 203.97247314453125
z: -0.031115081161260605
visibility: 0.9987762570381165
","x: 235.2113800048828
y: 204.35240173339844
z: -0.031151140108704567
visibility: 0.9990587830543518
","x: 239.3138885498047
y: 203.57705688476562
z: -0.039651818573474884
visibility: 0.999315619468689
","x: 239.80670166015625
y: 203.9131317138672
z: -0.03967402130365372
visibility: 0.9992639422416687
","x: 240.12713623046875
y: 204.24560546875
z: -0.039611540734767914
visibility: 0.9993727803230286
","x: 231.56044006347656
y: 208.75384521484375
z: -0.012439070269465446
visibility: 0.9989489912986755
","x: 238.4359588623047
y: 207.61325073242188
z: -0.1595723181962967
visibility: 0.9990434646606445
","x: 240.25526428222656
y: 214.99966430664062
z: -0.016441693529486656
visibility: 0.9979932308197021
","x: 242.86557006835938
y: 214.6179962158203
z: -0.021210290491580963
visibility: 0.9979969263076782
","x: 222.13076782226562
y: 249.9745330810547
z: 0.07849320024251938
visibility: 0.9987413883209229
","x: 247.36924743652344
y: 234.90545654296875
z: -0.22644874453544617
visibility: 0.9996329545974731
","x: 226.9190673828125
y: 269.5629577636719
z: 0.256985604763031
visibility: 0.7556034922599792
","x: 280.1555480957031
y: 215.7393798828125
z: -0.24919357895851135
visibility: 0.97697913646698
","x: 228.94932556152344
y: 265.34967041015625
z: 0.39884090423583984
visibility: 0.7493594884872437
","x: 300.9208984375
y: 179.7813720703125
z: -0.22005555033683777
visibility: 0.954371988773346
","x: 224.87391662597656
y: 267.2936706542969
z: 0.43419933319091797
visibility: 0.738909900188446
","x: 306.40478515625
y: 176.25958251953125
z: -0.2462954968214035
visibility: 0.9089713096618652
","x: 227.68829345703125
y: 271.2481689453125
z: 0.4143664836883545
visibility: 0.7383315563201904
","x: 304.7277526855469
y: 173.439697265625
z: -0.2355106621980667
visibility: 0.9035620093345642
","x: 231.16458129882812
y: 268.5686950683594
z: 0.39610832929611206
visibility: 0.7311940789222717
","x: 302.4527893066406
y: 176.2569580078125
z: -0.21533656120300293
visibility: 0.8974241018295288
","x: 224.35939025878906
y: 363.5809326171875
z: 0.09392036497592926
visibility: 0.9997771978378296
","x: 238.59051513671875
y: 374.7166442871094
z: -0.09424899518489838
visibility: 0.9998005628585815
","x: 228.08746337890625
y: 441.4464111328125
z: 0.20619387924671173
visibility: 0.8664003610610962
","x: 247.4625244140625
y: 455.4541320800781
z: -0.0778682753443718
visibility: 0.9777957797050476
","x: 205.5732879638672
y: 515.1448364257812
z: 0.2900780141353607
visibility: 0.9311456680297852
","x: 222.22445678710938
y: 524.0665283203125
z: -0.02817663550376892
visibility: 0.983550488948822
","x: 199.12562561035156
y: 525.3455200195312
z: 0.2977810800075531
visibility: 0.8628194332122803
","x: 215.00523376464844
y: 536.438232421875
z: -0.024722939357161522
visibility: 0.9439829587936401
","x: 212.3967742919922
y: 534.7678833007812
z: 0.28429555892944336
visibility: 0.9359721541404724
","x: 241.36746215820312
y: 545.6348876953125
z: -0.077082060277462
visibility: 0.9772199988365173
",,,,,,,,,,,,,,,,,,,,,,,,,,,,,,,,,,,,,,,,,,
6,"x: 235.3545684814453
y: 257.4111633300781
z: -0.5292006134986877
visibility: 0.9992752075195312
","x: 235.80532836914062
y: 249.21026611328125
z: -0.5290667414665222
visibility: 0.9990372657775879
","x: 236.474609375
y: 248.38375854492188
z: -0.5290530920028687
visibility: 0.9988864660263062
","x: 237.13673400878906
y: 247.48963928222656
z: -0.5291790962219238
visibility: 0.9991413354873657
","x: 233.61331176757812
y: 249.42547607421875
z: -0.5329121351242065
visibility: 0.9993669390678406
","x: 232.96380615234375
y: 248.80654907226562
z: -0.5330248475074768
visibility: 0.9993216395378113
","x: 231.842041015625
y: 248.25772094726562
z: -0.5330069661140442
visibility: 0.9994144439697266
","x: 240.50726318359375
y: 241.56057739257812
z: -0.4227900505065918
visibility: 0.9990454912185669
","x: 230.0909881591797
y: 243.97268676757812
z: -0.4397130012512207
visibility: 0.9991250038146973
","x: 236.3238983154297
y: 258.5524597167969
z: -0.47858962416648865
visibility: 0.998185396194458
","x: 233.89144897460938
y: 259.33551025390625
z: -0.48320236802101135
visibility: 0.9981855750083923
","x: 227.97645568847656
y: 250.8928680419922
z: -0.2827709913253784
visibility: 0.9988662600517273
","x: 218.6459197998047
y: 258.8049011230469
z: -0.29853177070617676
visibility: 0.9996644854545593
","x: 275.2237548828125
y: 284.5028991699219
z: -0.3050305247306824
visibility: 0.7798163294792175
","x: 206.96351623535156
y: 286.89752197265625
z: -0.1743844449520111
visibility: 0.9763739109039307
","x: 301.3687438964844
y: 308.9449462890625
z: -0.482138067483902
visibility: 0.7735636830329895
","x: 197.15438842773438
y: 323.6259765625
z: -0.09984035789966583
visibility: 0.9456491470336914
","x: 309.64373779296875
y: 318.605224609375
z: -0.5190035104751587
visibility: 0.7625320553779602
","x: 193.2572021484375
y: 333.00665283203125
z: -0.09613268822431564
visibility: 0.8939193487167358
","x: 308.56475830078125
y: 319.3830261230469
z: -0.5485305786132812
visibility: 0.7624596357345581
","x: 193.44485473632812
y: 335.202880859375
z: -0.13252398371696472
visibility: 0.8913211822509766
","x: 305.6511535644531
y: 317.26080322265625
z: -0.49892884492874146
visibility: 0.7556652426719666
","x: 195.3953094482422
y: 332.4538879394531
z: -0.1100451722741127
visibility: 0.8848146200180054
","x: 235.0670928955078
y: 364.5263366699219
z: 0.023292792961001396
visibility: 0.9997475147247314
","x: 230.5023651123047
y: 366.86083984375
z: -0.023060675710439682
visibility: 0.9997620582580566
","x: 229.68814086914062
y: 441.9639587402344
z: -0.007167126052081585
visibility: 0.8752025365829468
","x: 234.6727294921875
y: 447.776611328125
z: -0.06624216586351395
visibility: 0.9789914488792419
","x: 212.62840270996094
y: 516.6817626953125
z: 0.06383753567934036
visibility: 0.9347808957099915
","x: 218.6905059814453
y: 522.6531372070312
z: 0.008590847253799438
visibility: 0.9830963015556335
","x: 209.02145385742188
y: 527.060302734375
z: 0.0663062185049057
visibility: 0.8716328144073486
","x: 215.09046936035156
y: 533.8643798828125
z: 0.012956102378666401
visibility: 0.9433783292770386
","x: 212.35984802246094
y: 535.140625
z: -0.03373965248465538
visibility: 0.9352315068244934
","x: 220.96392822265625
y: 542.0825805664062
z: -0.07002519071102142
visibility: 0.9738631248474121
",,,,,,,,,,,,,,,,,,,,,,,,,,,,,,,,,,,,,,,,,,
7,"x: 239.5258026123047
y: 205.89141845703125
z: 0.33337658643722534
visibility: 0.9992064237594604
","x: 238.7852325439453
y: 201.11024475097656
z: 0.30623653531074524
visibility: 0.998961865901947
","x: 237.91725158691406
y: 200.7808837890625
z: 0.306213915348053
visibility: 0.9988676905632019
","x: 236.90411376953125
y: 200.455078125
z: 0.30623042583465576
visibility: 0.9990720748901367
","x: 240.07821655273438
y: 201.37925720214844
z: 0.3187117278575897
visibility: 0.9992093443870544
","x: 239.60525512695312
y: 201.36399841308594
z: 0.31867796182632446
visibility: 0.9991862773895264
","x: 236.91387939453125
y: 201.53628540039062
z: 0.3186569809913635
visibility: 0.9992316365242004
","x: 235.85891723632812
y: 203.6859893798828
z: 0.18282896280288696
visibility: 0.9990245699882507
","x: 240.36566162109375
y: 207.6895294189453
z: 0.23942112922668457
visibility: 0.9989855289459229
","x: 237.90151977539062
y: 211.39112854003906
z: 0.2921673655509949
visibility: 0.9982102513313293
","x: 240.10031127929688
y: 211.2289276123047
z: 0.30771198868751526
visibility: 0.9981856346130371
","x: 221.31715393066406
y: 236.48611450195312
z: 0.032646387815475464
visibility: 0.9989736080169678
","x: 257.5997009277344
y: 246.16835021972656
z: 0.22640860080718994
visibility: 0.9995902180671692
","x: 204.77981567382812
y: 283.489501953125
z: -0.0183042511343956
visibility: 0.8016940355300903
","x: 259.3575134277344
y: 287.2873229980469
z: 0.2957150340080261
visibility: 0.9414743781089783
","x: 183.31690979003906
y: 314.14508056640625
z: 0.07463078200817108
visibility: 0.7941117882728577
","x: 247.5881805419922
y: 323.1895751953125
z: 0.39753514528274536
visibility: 0.8592859506607056
","x: 179.69847106933594
y: 325.01025390625
z: 0.06560250371694565
visibility: 0.7818177342414856
","x: 242.69223022460938
y: 331.0257263183594
z: 0.4134100079536438
visibility: 0.8123599290847778
","x: 179.62762451171875
y: 325.4539794921875
z: 0.07465680688619614
visibility: 0.7816630601882935
","x: 236.780517578125
y: 331.0999755859375
z: 0.4054719805717468
visibility: 0.8097823858261108
","x: 181.22943115234375
y: 322.80963134765625
z: 0.08140026777982712
visibility: 0.7718415260314941
","x: 236.63787841796875
y: 326.86309814453125
z: 0.3961271643638611
visibility: 0.8051658272743225
","x: 225.6937713623047
y: 345.900634765625
z: -0.06505365669727325
visibility: 0.9997668266296387
","x: 243.6424560546875
y: 350.0897521972656
z: 0.06479863077402115
visibility: 0.9997690320014954
","x: 217.2191162109375
y: 428.4208984375
z: -0.04924694448709488
visibility: 0.8875364065170288
","x: 235.36402893066406
y: 431.7039489746094
z: 0.0962705984711647
visibility: 0.9799562096595764
","x: 218.25132751464844
y: 513.5314331054688
z: -0.17746135592460632
visibility: 0.9411016702651978
","x: 236.4850311279297
y: 516.8843383789062
z: -0.01810722053050995
visibility: 0.9836173057556152
","x: 219.80091857910156
y: 526.1677856445312
z: -0.19182902574539185
visibility: 0.8843214511871338
","x: 239.41615295410156
y: 528.57470703125
z: -0.03316868096590042
visibility: 0.9483562111854553
","x: 208.1128692626953
y: 530.702392578125
z: -0.2437191754579544
visibility: 0.9397886395454407
","x: 224.19998168945312
y: 533.1133422851562
z: -0.08645884692668915
visibility: 0.9688156247138977
",,,,,,,,,,,,,,,,,,,,,,,,,,,,,,,,,,,,,,,,,,
8,"x: 243.10821533203125
y: 203.07037353515625
z: 0.05907438322901726
visibility: 0.999095618724823
","x: 242.48880004882812
y: 197.64524841308594
z: -0.011089126579463482
visibility: 0.9989306926727295
","x: 242.071044921875
y: 197.00677490234375
z: -0.011323979124426842
visibility: 0.9988601803779602
","x: 241.40475463867188
y: 196.2727508544922
z: -0.011083442717790604
visibility: 0.9990343451499939
","x: 241.61358642578125
y: 198.85926818847656
z: 0.07800040394067764
visibility: 0.999095618724823
","x: 243.66639709472656
y: 199.16659545898438
z: 0.07809416949748993
visibility: 0.999040424823761
","x: 244.24844360351562
y: 199.46490478515625
z: 0.07811139523983002
visibility: 0.999100387096405
","x: 240.42237854003906
y: 200.06414794921875
z: -0.169509619474411
visibility: 0.9989876747131348
","x: 248.58656311035156
y: 205.2476806640625
z: -0.011883208528161049
visibility: 0.9989150762557983
","x: 241.80270385742188
y: 208.7045135498047
z: -0.0384037122130394
visibility: 0.9982120990753174
","x: 243.03843688964844
y: 210.60299682617188
z: 0.1339256465435028
visibility: 0.9981261491775513
","x: 229.3122100830078
y: 240.33714294433594
z: -0.26707780361175537
visibility: 0.9990748763084412
","x: 259.45123291015625
y: 249.46534729003906
z: 0.026516994461417198
visibility: 0.9994478821754456
","x: 207.15713500976562
y: 279.550537109375
z: -0.32627466320991516
visibility: 0.8215055465698242
","x: 261.31781005859375
y: 291.2975769042969
z: 0.23431046307086945
visibility: 0.854572057723999
","x: 181.37240600585938
y: 301.89019775390625
z: -0.2944587767124176
visibility: 0.8145405054092407
","x: 247.6390380859375
y: 305.6093444824219
z: 0.4687296450138092
visibility: 0.7861843705177307
","x: 175.70912170410156
y: 310.669677734375
z: -0.31674039363861084
visibility: 0.8031323552131653
","x: 237.09494018554688
y: 305.75726318359375
z: 0.5175243020057678
visibility: 0.7482174634933472
","x: 174.8791046142578
y: 311.144287109375
z: -0.30430868268013
visibility: 0.8029686808586121
","x: 235.04275512695312
y: 305.6460876464844
z: 0.5005614757537842
visibility: 0.745992124080658
","x: 176.67111206054688
y: 308.9989013671875
z: -0.28708383440971375
visibility: 0.7933843731880188
","x: 234.6990966796875
y: 305.8288879394531
z: 0.46933460235595703
visibility: 0.7425729036331177
","x: 229.40078735351562
y: 351.3082580566406
z: -0.09825803339481354
visibility: 0.9997780919075012
","x: 245.1588592529297
y: 355.3177490234375
z: 0.09777453541755676
visibility: 0.9997554421424866
","x: 217.805419921875
y: 434.17962646484375
z: 0.007008337415754795
visibility: 0.8966550230979919
","x: 235.02603149414062
y: 435.52447509765625
z: 0.23666879534721375
visibility: 0.9248381853103638
","x: 222.47586059570312
y: 514.8402099609375
z: 0.021634066477417946
visibility: 0.9465025663375854
","x: 238.45095825195312
y: 513.652587890625
z: 0.26857367157936096
visibility: 0.9700998663902283
","x: 241.12864685058594
y: 526.709716796875
z: 0.0249960795044899
visibility: 0.8952267169952393
","x: 246.47154235839844
y: 528.0872802734375
z: 0.2715548872947693
visibility: 0.9403691291809082
","x: 221.8998260498047
y: 531.3298950195312
z: -0.028833743184804916
visibility: 0.9452040195465088
","x: 225.2825927734375
y: 530.2330932617188
z: 0.24592804908752441
visibility: 0.9624192118644714
","x: 179.5833740234375
y: 300.3968505859375
z: 0.0
","x: 176.14503479003906
y: 303.23870849609375
z: 0.0020273192785680294
","x: 173.30859375
y: 308.0621643066406
z: 0.0016181721584871411
","x: 171.95518493652344
y: 312.6958312988281
z: 0.000611001334618777
","x: 171.4770050048828
y: 316.7591552734375
z: -0.0004295390099287033
","x: 170.90090942382812
y: 308.55316162109375
z: -0.0013435701839625835
","x: 168.999267578125
y: 315.6416931152344
z: -0.0034648205619305372
","x: 168.82061767578125
y: 320.190185546875
z: -0.004348068498075008
","x: 169.1259002685547
y: 323.6910400390625
z: -0.0047970120795071125
","x: 171.8428192138672
y: 309.1871337890625
z: -0.0037314719520509243
","x: 170.32424926757812
y: 316.9671325683594
z: -0.005920610390603542
","x: 170.66769409179688
y: 322.27001953125
z: -0.006380468141287565
","x: 171.30984497070312
y: 326.37969970703125
z: -0.006783284712582827
","x: 173.47491455078125
y: 310.09228515625
z: -0.005981169641017914
","x: 172.1621856689453
y: 317.71417236328125
z: -0.008068956434726715
","x: 172.74114990234375
y: 322.51165771484375
z: -0.00827465858310461
","x: 173.5361328125
y: 326.1138610839844
z: -0.008455309085547924
","x: 175.52426147460938
y: 311.0190734863281
z: -0.008065552450716496
","x: 174.72511291503906
y: 317.1280212402344
z: -0.009831292554736137
","x: 174.89918518066406
y: 321.0647277832031
z: -0.010177209042012691
","x: 175.29525756835938
y: 324.089599609375
z: -0.01043468527495861
",,,,,,,,,,,,,,,,,,,,,
9,"x: 243.10821533203125
y: 203.07037353515625
z: 0.05907438322901726
visibility: 0.999095618724823
","x: 242.48880004882812
y: 197.64524841308594
z: -0.011089126579463482
visibility: 0.9989306926727295
","x: 242.071044921875
y: 197.00677490234375
z: -0.011323979124426842
visibility: 0.9988601803779602
","x: 241.40475463867188
y: 196.2727508544922
z: -0.011083442717790604
visibility: 0.9990343451499939
","x: 241.61358642578125
y: 198.85926818847656
z: 0.07800040394067764
visibility: 0.999095618724823
","x: 243.66639709472656
y: 199.16659545898438
z: 0.07809416949748993
visibility: 0.999040424823761
","x: 244.24844360351562
y: 199.46490478515625
z: 0.07811139523983002
visibility: 0.999100387096405
","x: 240.42237854003906
y: 200.06414794921875
z: -0.169509619474411
visibility: 0.9989876747131348
","x: 248.58656311035156
y: 205.2476806640625
z: -0.011883208528161049
visibility: 0.9989150762557983
","x: 241.80270385742188
y: 208.7045135498047
z: -0.0384037122130394
visibility: 0.9982120990753174
","x: 243.03843688964844
y: 210.60299682617188
z: 0.1339256465435028
visibility: 0.9981261491775513
","x: 229.3122100830078
y: 240.33714294433594
z: -0.26707780361175537
visibility: 0.9990748763084412
","x: 259.45123291015625
y: 249.46534729003906
z: 0.026516994461417198
visibility: 0.9994478821754456
","x: 207.15713500976562
y: 279.550537109375
z: -0.32627466320991516
visibility: 0.8215055465698242
","x: 261.31781005859375
y: 291.2975769042969
z: 0.23431046307086945
visibility: 0.854572057723999
","x: 181.37240600585938
y: 301.89019775390625
z: -0.2944587767124176
visibility: 0.8145405054092407
","x: 247.6390380859375
y: 305.6093444824219
z: 0.4687296450138092
visibility: 0.7861843705177307
","x: 175.70912170410156
y: 310.669677734375
z: -0.31674039363861084
visibility: 0.8031323552131653
","x: 237.09494018554688
y: 305.75726318359375
z: 0.5175243020057678
visibility: 0.7482174634933472
","x: 174.8791046142578
y: 311.144287109375
z: -0.30430868268013
visibility: 0.8029686808586121
","x: 235.04275512695312
y: 305.6460876464844
z: 0.5005614757537842
visibility: 0.745992124080658
","x: 176.67111206054688
y: 308.9989013671875
z: -0.28708383440971375
visibility: 0.7933843731880188
","x: 234.6990966796875
y: 305.8288879394531
z: 0.46933460235595703
visibility: 0.7425729036331177
","x: 229.40078735351562
y: 351.3082580566406
z: -0.09825803339481354
visibility: 0.9997780919075012
","x: 245.1588592529297
y: 355.3177490234375
z: 0.09777453541755676
visibility: 0.9997554421424866
","x: 217.805419921875
y: 434.17962646484375
z: 0.007008337415754795
visibility: 0.8966550230979919
","x: 235.02603149414062
y: 435.52447509765625
z: 0.23666879534721375
visibility: 0.9248381853103638
","x: 222.47586059570312
y: 514.8402099609375
z: 0.021634066477417946
visibility: 0.9465025663375854
","x: 238.45095825195312
y: 513.652587890625
z: 0.26857367157936096
visibility: 0.9700998663902283
","x: 241.12864685058594
y: 526.709716796875
z: 0.0249960795044899
visibility: 0.8952267169952393
","x: 246.47154235839844
y: 528.0872802734375
z: 0.2715548872947693
visibility: 0.9403691291809082
","x: 221.8998260498047
y: 531.3298950195312
z: -0.028833743184804916
visibility: 0.9452040195465088
","x: 225.2825927734375
y: 530.2330932617188
z: 0.24592804908752441
visibility: 0.9624192118644714
","x: 179.5833740234375
y: 300.3968505859375
z: 0.0
","x: 176.14503479003906
y: 303.23870849609375
z: 0.0020273192785680294
","x: 173.30859375
y: 308.0621643066406
z: 0.0016181721584871411
","x: 171.95518493652344
y: 312.6958312988281
z: 0.000611001334618777
","x: 171.4770050048828
y: 316.7591552734375
z: -0.0004295390099287033
","x: 170.90090942382812
y: 308.55316162109375
z: -0.0013435701839625835
","x: 168.999267578125
y: 315.6416931152344
z: -0.0034648205619305372
","x: 168.82061767578125
y: 320.190185546875
z: -0.004348068498075008
","x: 169.1259002685547
y: 323.6910400390625
z: -0.0047970120795071125
","x: 171.8428192138672
y: 309.1871337890625
z: -0.0037314719520509243
","x: 170.32424926757812
y: 316.9671325683594
z: -0.005920610390603542
","x: 170.66769409179688
y: 322.27001953125
z: -0.006380468141287565
","x: 171.30984497070312
y: 326.37969970703125
z: -0.006783284712582827
","x: 173.47491455078125
y: 310.09228515625
z: -0.005981169641017914
","x: 172.1621856689453
y: 317.71417236328125
z: -0.008068956434726715
","x: 172.74114990234375
y: 322.51165771484375
z: -0.00827465858310461
","x: 173.5361328125
y: 326.1138610839844
z: -0.008455309085547924
","x: 175.52426147460938
y: 311.0190734863281
z: -0.008065552450716496
","x: 174.72511291503906
y: 317.1280212402344
z: -0.009831292554736137
","x: 174.89918518066406
y: 321.0647277832031
z: -0.010177209042012691
","x: 175.29525756835938
y: 324.089599609375
z: -0.01043468527495861
",,,,,,,,,,,,,,,,,,,,,
10,"x: 234.9056854248047
y: 210.06451416015625
z: -0.019276026636362076
visibility: 0.9990969300270081
","x: 238.58212280273438
y: 205.77679443359375
z: -0.04028816893696785
visibility: 0.9989548325538635
","x: 238.99459838867188
y: 206.30845642089844
z: -0.04037389159202576
visibility: 0.9988976716995239
","x: 239.35650634765625
y: 206.8057098388672
z: -0.040380097925662994
visibility: 0.9990702271461487
","x: 238.15773010253906
y: 205.50733947753906
z: -0.004105510655790567
visibility: 0.9990671277046204
","x: 238.9226837158203
y: 205.8590850830078
z: -0.004083655774593353
visibility: 0.9989964962005615
","x: 239.41282653808594
y: 206.1498260498047
z: -0.004110964946448803
visibility: 0.9990651607513428
","x: 242.50328063964844
y: 215.5595245361328
z: -0.10556229203939438
visibility: 0.999031126499176
","x: 244.7622833251953
y: 213.76828002929688
z: 0.06250198930501938
visibility: 0.9988228678703308
","x: 235.13465881347656
y: 217.16310119628906
z: -0.04144713655114174
visibility: 0.9983392953872681
","x: 234.8367919921875
y: 217.07069396972656
z: 0.011460806243121624
visibility: 0.9981914758682251
","x: 243.4074249267578
y: 258.2399597167969
z: -0.19828550517559052
visibility: 0.9991661906242371
","x: 244.6572265625
y: 261.8288269042969
z: 0.16767191886901855
visibility: 0.9994533061981201
","x: 233.67855834960938
y: 310.29302978515625
z: -0.32044124603271484
visibility: 0.8390964865684509
","x: 236.81857299804688
y: 313.6214904785156
z: 0.24225282669067383
visibility: 0.7758023142814636
","x: 205.3076934814453
y: 308.7520751953125
z: -0.38500091433525085
visibility: 0.8325055241584778
","x: 216.4763641357422
y: 349.505126953125
z: 0.203276589512825
visibility: 0.7265985608100891
","x: 198.37623596191406
y: 314.5773010253906
z: -0.4287382960319519
visibility: 0.821788489818573
","x: 211.05088806152344
y: 358.1301574707031
z: 0.20477941632270813
visibility: 0.696005642414093
","x: 196.5270538330078
y: 314.32440185546875
z: -0.411712646484375
visibility: 0.8215705752372742
","x: 209.6014404296875
y: 349.3492126464844
z: 0.1766834855079651
visibility: 0.6946199536323547
","x: 198.94039916992188
y: 312.3709716796875
z: -0.3777134418487549
visibility: 0.8115746378898621
","x: 213.60818481445312
y: 354.32537841796875
z: 0.18921445310115814
visibility: 0.6914239525794983
","x: 233.26145935058594
y: 372.2460632324219
z: -0.11482659727334976
visibility: 0.9997771978378296
","x: 238.24679565429688
y: 372.09716796875
z: 0.11469131708145142
visibility: 0.9997038245201111
","x: 227.96505737304688
y: 456.43743896484375
z: -0.12230303138494492
visibility: 0.9050633907318115
","x: 229.21035766601562
y: 455.08343505859375
z: 0.15551944077014923
visibility: 0.8840112090110779
","x: 253.56640625
y: 532.9967041015625
z: -0.0294552743434906
visibility: 0.9502089619636536
","x: 249.39981079101562
y: 519.460693359375
z: 0.2554597556591034
visibility: 0.9405965209007263
","x: 264.9671630859375
y: 543.5156860351562
z: -0.02095484361052513
visibility: 0.9016510248184204
","x: 258.0424499511719
y: 531.422119140625
z: 0.2629958987236023
visibility: 0.9215007424354553
","x: 237.03128051757812
y: 551.0516357421875
z: -0.08730965852737427
visibility: 0.9485307335853577
","x: 234.81491088867188
y: 539.5816650390625
z: 0.22381560504436493
visibility: 0.946980357170105
",,,,,,,,,,,,,,,,,,,,,,,,,,,,,,,,,,,,,,,,,,
11,"x: 239.50863647460938
y: 187.76800537109375
z: -0.36174196004867554
visibility: 0.9991869926452637
","x: 239.17437744140625
y: 184.39520263671875
z: -0.34926924109458923
visibility: 0.9990586638450623
","x: 242.32955932617188
y: 184.91477966308594
z: -0.3492952883243561
visibility: 0.9990073442459106
","x: 244.95542907714844
y: 185.3489532470703
z: -0.34934255480766296
visibility: 0.9991626739501953
","x: 240.44923400878906
y: 184.13963317871094
z: -0.3430376648902893
visibility: 0.9991596341133118
","x: 239.849365234375
y: 184.37646484375
z: -0.3430672883987427
visibility: 0.9990959167480469
","x: 238.94581604003906
y: 184.67588806152344
z: -0.34302768111228943
visibility: 0.9991575479507446
","x: 249.82540893554688
y: 191.92727661132812
z: -0.25274458527565
visibility: 0.9991274476051331
","x: 239.55264282226562
y: 191.775634765625
z: -0.2206205427646637
visibility: 0.998938262462616
","x: 236.38421630859375
y: 196.8415985107422
z: -0.32358959317207336
visibility: 0.998505175113678
","x: 238.4066619873047
y: 195.34024047851562
z: -0.314804345369339
visibility: 0.9983718395233154
","x: 263.2220153808594
y: 238.5484161376953
z: -0.20965218544006348
visibility: 0.9992494583129883
","x: 228.28578186035156
y: 245.47300720214844
z: -0.07276736944913864
visibility: 0.9995036125183105
","x: 271.2505187988281
y: 294.1497497558594
z: -0.19041742384433746
visibility: 0.8550983667373657
","x: 219.8089599609375
y: 298.1035461425781
z: 0.13973157107830048
visibility: 0.7901415824890137
","x: 281.3824157714844
y: 337.4986572265625
z: -0.2799557149410248
visibility: 0.8486060500144958
","x: 207.32240295410156
y: 340.15130615234375
z: -0.09488651901483536
visibility: 0.7470408082008362
","x: 286.02923583984375
y: 352.5672912597656
z: -0.311336874961853
visibility: 0.8378884792327881
","x: 204.65895080566406
y: 355.149658203125
z: -0.11944018304347992
visibility: 0.7144705057144165
","x: 284.6217956542969
y: 353.786376953125
z: -0.34375762939453125
visibility: 0.8379093408584595
","x: 205.88108825683594
y: 354.7579345703125
z: -0.16399915516376495
visibility: 0.7143486142158508
","x: 282.5469665527344
y: 349.12310791015625
z: -0.29410678148269653
visibility: 0.8284736275672913
","x: 207.41519165039062
y: 350.3912658691406
z: -0.11644160747528076
visibility: 0.710421621799469
","x: 250.5220184326172
y: 346.801025390625
z: -0.06850896775722504
visibility: 0.9997906684875488
","x: 232.78688049316406
y: 347.439697265625
z: 0.06839451938867569
visibility: 0.9997020363807678
","x: 242.3538818359375
y: 440.461181640625
z: -0.09280470013618469
visibility: 0.9137024879455566
","x: 231.68704223632812
y: 441.2425231933594
z: 0.1086721196770668
visibility: 0.8858218193054199
","x: 251.99830627441406
y: 530.0792846679688
z: -0.023316359147429466
visibility: 0.9548613429069519
","x: 243.46209716796875
y: 514.8798217773438
z: 0.2582247257232666
visibility: 0.9419422149658203
","x: 258.0736083984375
y: 540.8453979492188
z: -0.024913251399993896
visibility: 0.9028179049491882
","x: 247.52557373046875
y: 523.8546142578125
z: 0.2655429244041443
visibility: 0.9183048605918884
","x: 241.27821350097656
y: 554.122802734375
z: -0.17285391688346863
visibility: 0.9531588554382324
","x: 234.598388671875
y: 538.869140625
z: 0.16342896223068237
visibility: 0.9497039914131165
",,,,,,,,,,,,,,,,,,,,,,,,,,,,,,,,,,,,,,,,,,
12,"x: 244.18370056152344
y: 189.36378479003906
z: -0.36378613114356995
visibility: 0.9992676973342896
","x: 246.48716735839844
y: 185.4613037109375
z: -0.34709376096725464
visibility: 0.9991496801376343
","x: 249.08847045898438
y: 186.04539489746094
z: -0.34711986780166626
visibility: 0.9991037249565125
","x: 251.31454467773438
y: 186.56927490234375
z: -0.3471759855747223
visibility: 0.9992434978485107
","x: 242.71920776367188
y: 184.66139221191406
z: -0.3500342071056366
visibility: 0.9992406964302063
","x: 240.25148010253906
y: 184.64378356933594
z: -0.35004138946533203
visibility: 0.9991834163665771
","x: 240.3782501220703
y: 184.63040161132812
z: -0.35002174973487854
visibility: 0.9992382526397705
","x: 254.4413299560547
y: 193.4077606201172
z: -0.2322573959827423
visibility: 0.9992082715034485
","x: 240.0381317138672
y: 191.3302764892578
z: -0.24425852298736572
visibility: 0.9990378022193909
","x: 245.0658416748047
y: 199.5651092529297
z: -0.31986886262893677
visibility: 0.9986533522605896
","x: 240.00990295410156
y: 197.8375244140625
z: -0.32344523072242737
visibility: 0.9985330700874329
","x: 266.9806213378906
y: 240.14523315429688
z: -0.14678731560707092
visibility: 0.999322772026062
","x: 225.6316680908203
y: 241.73936462402344
z: -0.15108206868171692
visibility: 0.9995476603507996
","x: 284.8755187988281
y: 288.6019287109375
z: -0.11550350487232208
visibility: 0.869092583656311
","x: 217.4596405029297
y: 297.8397521972656
z: -0.096730537712574
visibility: 0.8086997866630554
","x: 309.0826110839844
y: 318.5425109863281
z: -0.2367096245288849
visibility: 0.8626168966293335
","x: 209.50753784179688
y: 348.6787109375
z: -0.19021128118038177
visibility: 0.7682039141654968
","x: 314.9097900390625
y: 329.5325012207031
z: -0.26692792773246765
visibility: 0.8509509563446045
","x: 207.99192810058594
y: 364.70172119140625
z: -0.21426503360271454
visibility: 0.7346846461296082
","x: 314.864013671875
y: 329.5550231933594
z: -0.3058430850505829
visibility: 0.8515838384628296
","x: 209.0936737060547
y: 365.7794494628906
z: -0.2545422911643982
visibility: 0.7354668378829956
","x: 313.0667419433594
y: 326.4663391113281
z: -0.2557901442050934
visibility: 0.8427151441574097
","x: 210.15927124023438
y: 361.5447998046875
z: -0.20770201086997986
visibility: 0.7307942509651184
","x: 254.90357971191406
y: 349.63037109375
z: -0.006321723107248545
visibility: 0.9997497797012329
","x: 232.1466827392578
y: 346.9744567871094
z: 0.006235141772776842
visibility: 0.9996591210365295
","x: 253.1948699951172
y: 442.5409240722656
z: -0.049226365983486176
visibility: 0.9211913347244263
","x: 232.44793701171875
y: 442.06549072265625
z: 0.005430692341178656
visibility: 0.8957977890968323
","x: 251.2273712158203
y: 528.9874267578125
z: 0.11637641489505768
visibility: 0.9582080841064453
","x: 232.9656219482422
y: 516.7869873046875
z: 0.17058426141738892
visibility: 0.9457737803459167
","x: 252.40965270996094
y: 539.8467407226562
z: 0.12066935002803802
visibility: 0.8950933218002319
","x: 235.7392120361328
y: 526.9661865234375
z: 0.17361532151699066
visibility: 0.9019789695739746
","x: 250.92698669433594
y: 555.2098388671875
z: -0.10995352268218994
visibility: 0.955481231212616
","x: 229.52142333984375
y: 546.0267333984375
z: 0.028040748089551926
visibility: 0.9520191550254822
",,,,,,,,,,,,,,,,,,,,,,,,,,,,,,,,,,,,,,,,,,
13,"x: 252.54193115234375
y: 208.05209350585938
z: -0.2744741439819336
visibility: 0.9993407726287842
","x: 254.08132934570312
y: 202.06399536132812
z: -0.24902920424938202
visibility: 0.9992340207099915
","x: 255.81103515625
y: 202.53387451171875
z: -0.24904844164848328
visibility: 0.9991925358772278
","x: 257.426025390625
y: 203.02040100097656
z: -0.24907222390174866
visibility: 0.99931800365448
","x: 249.26824951171875
y: 201.28684997558594
z: -0.2575990557670593
visibility: 0.9993162155151367
","x: 247.0021514892578
y: 201.34356689453125
z: -0.25759729743003845
visibility: 0.999264657497406
","x: 245.14715576171875
y: 201.5650177001953
z: -0.2575916051864624
visibility: 0.9993139505386353
","x: 258.6541442871094
y: 209.74392700195312
z: -0.12272776663303375
visibility: 0.999284029006958
","x: 241.4139404296875
y: 209.9641571044922
z: -0.16161587834358215
visibility: 0.9991335868835449
","x: 254.9868621826172
y: 219.80245971679688
z: -0.22617769241333008
visibility: 0.9987872242927551
","x: 248.3585968017578
y: 219.21495056152344
z: -0.2371547967195511
visibility: 0.9986793398857117
","x: 267.7560119628906
y: 261.13494873046875
z: 0.014119046740233898
visibility: 0.9993876814842224
","x: 230.15518188476562
y: 261.5987548828125
z: -0.12126246839761734
visibility: 0.9995893239974976
","x: 285.87347412109375
y: 298.3242492675781
z: 0.09193537384271622
visibility: 0.8766646981239319
","x: 216.98001098632812
y: 317.2743835449219
z: -0.13432857394218445
visibility: 0.8274126052856445
","x: 311.836181640625
y: 317.66485595703125
z: 0.005008533596992493
visibility: 0.8752864003181458
","x: 197.17295837402344
y: 358.59307861328125
z: -0.23222605884075165
visibility: 0.7908348441123962
","x: 319.0951843261719
y: 308.19439697265625
z: -0.012538040988147259
visibility: 0.8632401823997498
","x: 190.60545349121094
y: 371.87701416015625
z: -0.2590007185935974
visibility: 0.7597336769104004
","x: 319.9017639160156
y: 304.2353515625
z: -0.04451856389641762
visibility: 0.8642947673797607
","x: 190.3878631591797
y: 371.6893005371094
z: -0.2934473752975464
visibility: 0.7605856657028198
","x: 317.7602844238281
y: 306.0263977050781
z: -0.01261353213340044
visibility: 0.8560705780982971
","x: 192.408447265625
y: 367.836181640625
z: -0.24820668995380402
visibility: 0.7560599446296692
","x: 258.0122375488281
y: 381.0872802734375
z: 0.05505989119410515
visibility: 0.9997608661651611
","x: 233.7097930908203
y: 378.2403564453125
z: -0.055228739976882935
visibility: 0.9996631741523743
","x: 262.7613220214844
y: 464.64971923828125
z: 0.04185936599969864
visibility: 0.9266279935836792
","x: 234.2491455078125
y: 467.6772766113281
z: -0.03649842366576195
visibility: 0.9055452942848206
","x: 250.7617645263672
y: 530.782958984375
z: 0.28138166666030884
visibility: 0.9594126343727112
","x: 227.26412963867188
y: 526.8582763671875
z: 0.2018890380859375
visibility: 0.949512243270874
","x: 250.739013671875
y: 540.6110229492188
z: 0.29941490292549133
visibility: 0.895548939704895
","x: 224.86058044433594
y: 532.8883056640625
z: 0.22142012417316437
visibility: 0.8926630616188049
","x: 257.9945983886719
y: 556.2254028320312
z: 0.21206125617027283
visibility: 0.9573572874069214
","x: 230.2833709716797
y: 556.67041015625
z: 0.11897324025630951
visibility: 0.9547837376594543
",,,,,,,,,,,,,,,,,,,,,,,,,,,,,,,,,,,,,,,,,,
14,"x: 259.8327941894531
y: 193.28158569335938
z: -0.25477272272109985
visibility: 0.9994066953659058
","x: 260.42071533203125
y: 188.8192138671875
z: -0.22609171271324158
visibility: 0.9993106126785278
","x: 261.4606018066406
y: 189.32376098632812
z: -0.22607484459877014
visibility: 0.9992732405662537
","x: 262.4301452636719
y: 189.90817260742188
z: -0.22611455619335175
visibility: 0.999386191368103
","x: 256.7624206542969
y: 188.20802307128906
z: -0.24169453978538513
visibility: 0.9993845820426941
","x: 254.89366149902344
y: 188.2362060546875
z: -0.24167108535766602
visibility: 0.9993381500244141
","x: 253.14588928222656
y: 188.42965698242188
z: -0.24164943397045135
visibility: 0.9993825554847717
","x: 262.0740051269531
y: 197.44448852539062
z: -0.07189880311489105
visibility: 0.9993555545806885
","x: 248.91065979003906
y: 196.47219848632812
z: -0.1479228436946869
visibility: 0.9992201924324036
","x: 261.0093078613281
y: 204.3095703125
z: -0.1995934695005417
visibility: 0.9989084005355835
","x: 256.2132263183594
y: 203.537841796875
z: -0.2193821668624878
visibility: 0.9988113641738892
","x: 264.2651062011719
y: 260.1772155761719
z: 0.09525538980960846
visibility: 0.9994471669197083
","x: 232.7869873046875
y: 245.15313720703125
z: -0.14443916082382202
visibility: 0.9996291399002075
","x: 275.35198974609375
y: 295.3741149902344
z: 0.3111476004123688
visibility: 0.8578212261199951
","x: 220.2404022216797
y: 307.23834228515625
z: -0.25730592012405396
visibility: 0.8444966077804565
","x: 294.52001953125
y: 307.8559265136719
z: 0.3887871205806732
visibility: 0.8864988684654236
","x: 196.23751831054688
y: 346.32452392578125
z: -0.45126110315322876
visibility: 0.8116649389266968
","x: 299.8796081542969
y: 306.2958984375
z: 0.41212230920791626
visibility: 0.8748837113380432
","x: 188.3128204345703
y: 362.1361999511719
z: -0.4920439124107361
visibility: 0.7835378050804138
","x: 300.7084655761719
y: 303.892822265625
z: 0.37788158655166626
visibility: 0.8762418627738953
","x: 188.0917205810547
y: 366.58563232421875
z: -0.5166309475898743
visibility: 0.7843385934829712
","x: 298.9266052246094
y: 304.30767822265625
z: 0.37676721811294556
visibility: 0.8684836030006409
","x: 190.67410278320312
y: 357.0755310058594
z: -0.4657596945762634
visibility: 0.7801716327667236
","x: 259.14715576171875
y: 374.1546936035156
z: 0.08309729397296906
visibility: 0.9997754693031311
","x: 240.3653564453125
y: 369.0167541503906
z: -0.08332427591085434
visibility: 0.9996798038482666
","x: 262.0411682128906
y: 457.4612121582031
z: 0.0449482798576355
visibility: 0.9311568737030029
","x: 242.59371948242188
y: 457.0730285644531
z: -0.07074973732233047
visibility: 0.9141050577163696
","x: 250.5814971923828
y: 529.7510986328125
z: 0.1767529398202896
visibility: 0.9617692828178406
","x: 226.84034729003906
y: 524.1254272460938
z: 0.09706421941518784
visibility: 0.9535124897956848
","x: 249.7816162109375
y: 539.8780517578125
z: 0.1833367645740509
visibility: 0.899137556552887
","x: 222.30152893066406
y: 528.7761840820312
z: 0.110337994992733
visibility: 0.8913191556930542
","x: 257.1526184082031
y: 555.7145385742188
z: 0.09602440893650055
visibility: 0.9601402878761292
","x: 231.0359344482422
y: 554.5381469726562
z: 0.00998107623308897
visibility: 0.9582647681236267
",,,,,,,,,,,,,,,,,,,,,,,,,,,,,,,,,,,,,,,,,,
15,"x: 263.04595947265625
y: 176.30526733398438
z: -0.225019171833992
visibility: 0.9994612336158752
","x: 263.18304443359375
y: 171.35711669921875
z: -0.21778178215026855
visibility: 0.9993724226951599
","x: 264.0603332519531
y: 171.7836151123047
z: -0.21791192889213562
visibility: 0.9993279576301575
","x: 264.9767761230469
y: 172.2368621826172
z: -0.21808823943138123
visibility: 0.9994297623634338
","x: 259.6241455078125
y: 170.97633361816406
z: -0.21864727139472961
visibility: 0.9994435906410217
","x: 257.9198303222656
y: 171.2498779296875
z: -0.21868515014648438
visibility: 0.9994020462036133
","x: 256.1700744628906
y: 171.64801025390625
z: -0.21873101592063904
visibility: 0.9994425177574158
","x: 264.0237121582031
y: 177.60794067382812
z: -0.04855290800333023
visibility: 0.9993869066238403
","x: 251.9922332763672
y: 177.5277557373047
z: -0.15560196340084076
visibility: 0.9992954730987549
","x: 264.13311767578125
y: 186.0261688232422
z: -0.1819550096988678
visibility: 0.998979389667511
","x: 259.5052490234375
y: 185.34463500976562
z: -0.19962039589881897
visibility: 0.9989069104194641
","x: 263.9801940917969
y: 229.63998413085938
z: 0.11286814510822296
visibility: 0.9976150989532471
","x: 240.749755859375
y: 220.5166778564453
z: -0.20878633856773376
visibility: 0.9996486306190491
","x: 265.542236328125
y: 280.4603271484375
z: 0.33913934230804443
visibility: 0.7730838656425476
","x: 223.63815307617188
y: 245.28451538085938
z: -0.4422474801540375
visibility: 0.8571729063987732
","x: 264.6219177246094
y: 304.0954895019531
z: 0.5057850480079651
visibility: 0.8041962385177612
","x: 199.49058532714844
y: 240.1651153564453
z: -0.7046676278114319
visibility: 0.8293458819389343
","x: 264.25482177734375
y: 311.01129150390625
z: 0.5497968792915344
visibility: 0.7973949909210205
","x: 192.40139770507812
y: 238.26620483398438
z: -0.7592256665229797
visibility: 0.8036871552467346
","x: 264.201171875
y: 307.91070556640625
z: 0.5243012309074402
visibility: 0.7992521524429321
","x: 192.2577362060547
y: 235.34197998046875
z: -0.764940619468689
visibility: 0.8044902682304382
","x: 264.3548278808594
y: 304.6064147949219
z: 0.49973511695861816
visibility: 0.7929940819740295
","x: 194.8492431640625
y: 236.8028106689453
z: -0.7141896486282349
visibility: 0.7999768853187561
","x: 259.0350341796875
y: 348.70916748046875
z: 0.10681279748678207
visibility: 0.9996196627616882
","x: 246.44015502929688
y: 344.3846435546875
z: -0.10716818273067474
visibility: 0.9996007084846497
","x: 259.6373291015625
y: 440.50799560546875
z: 0.12732568383216858
visibility: 0.9116923809051514
","x: 250.15977478027344
y: 439.7852783203125
z: -0.07545386254787445
visibility: 0.9172941446304321
","x: 248.71908569335938
y: 526.0665283203125
z: 0.2249179184436798
visibility: 0.9567199945449829
","x: 232.55726623535156
y: 524.151123046875
z: 0.009319165721535683
visibility: 0.9568464756011963
","x: 240.83604431152344
y: 535.0234375
z: 0.22903744876384735
visibility: 0.8924019932746887
","x: 225.39508056640625
y: 531.5980224609375
z: 0.013338993303477764
visibility: 0.8956639766693115
","x: 259.5986022949219
y: 554.9439697265625
z: 0.1671442687511444
visibility: 0.9585270881652832
","x: 251.10812377929688
y: 555.0664672851562
z: -0.07427653670310974
visibility: 0.9609168171882629
",,,,,,,,,,,,,,,,,,,,,,,,,,,,,,,,,,,,,,,,,,
16,"x: 268.6718444824219
y: 203.31427001953125
z: -0.2156786471605301
visibility: 0.9995117783546448
","x: 268.6031494140625
y: 197.49497985839844
z: -0.20464155077934265
visibility: 0.9994291067123413
","x: 269.2162780761719
y: 198.05242919921875
z: -0.20471298694610596
visibility: 0.9993833303451538
","x: 269.82061767578125
y: 198.77902221679688
z: -0.20489613711833954
visibility: 0.9994723200798035
","x: 266.1024169921875
y: 196.98631286621094
z: -0.2143177092075348
visibility: 0.999496340751648
","x: 264.9026794433594
y: 197.27642822265625
z: -0.214381605386734
visibility: 0.999459445476532
","x: 263.61053466796875
y: 197.7494659423828
z: -0.2144378423690796
visibility: 0.999495804309845
","x: 267.708740234375
y: 204.88006591796875
z: -0.05490172654390335
visibility: 0.9994392395019531
","x: 258.70819091796875
y: 203.2135772705078
z: -0.18406806886196136
visibility: 0.9993630051612854
","x: 268.6177978515625
y: 212.4121856689453
z: -0.17130932211875916
visibility: 0.9990583062171936
","x: 265.7193603515625
y: 212.7108154296875
z: -0.1997261345386505
visibility: 0.9990023374557495
","x: 263.2791748046875
y: 257.901123046875
z: 0.0913219228386879
visibility: 0.997196614742279
","x: 246.64097595214844
y: 239.28001403808594
z: -0.2510467767715454
visibility: 0.9996708035469055
","x: 254.2292938232422
y: 313.2398681640625
z: 0.2923976182937622
visibility: 0.698067843914032
","x: 234.9065399169922
y: 236.76885986328125
z: -0.5149224996566772
visibility: 0.8684593439102173
","x: 249.25677490234375
y: 360.8798522949219
z: 0.450852632522583
visibility: 0.7292502522468567
","x: 223.59461975097656
y: 190.9183349609375
z: -0.735554575920105
visibility: 0.8441740274429321
","x: 247.6493682861328
y: 375.932373046875
z: 0.4959131181240082
visibility: 0.7252832055091858
","x: 217.6533203125
y: 182.4950408935547
z: -0.7907375693321228
visibility: 0.8204151391983032
","x: 247.5467529296875
y: 374.2462463378906
z: 0.47821083664894104
visibility: 0.7265937328338623
","x: 218.12705993652344
y: 179.6873779296875
z: -0.7755971550941467
visibility: 0.8206645846366882
","x: 247.65554809570312
y: 367.73492431640625
z: 0.4482094347476959
visibility: 0.7214852571487427
","x: 220.69277954101562
y: 182.79449462890625
z: -0.7362235188484192
visibility: 0.8148779273033142
","x: 257.8299560546875
y: 379.0415954589844
z: 0.1125708669424057
visibility: 0.9996006488800049
","x: 249.2689666748047
y: 377.2147216796875
z: -0.11282913386821747
visibility: 0.9996247291564941
","x: 281.332763671875
y: 439.7933349609375
z: 0.19945946335792542
visibility: 0.864068329334259
","x: 264.4432373046875
y: 467.5484924316406
z: -0.07782599329948425
visibility: 0.9213351011276245
","x: 249.18191528320312
y: 468.9442443847656
z: 0.4107510447502136
visibility: 0.9125188589096069
","x: 237.66188049316406
y: 544.3662109375
z: 0.044812530279159546
visibility: 0.9591853022575378
","x: 241.44894409179688
y: 469.41754150390625
z: 0.4311498701572418
visibility: 0.8655732274055481
","x: 227.0843963623047
y: 553.7034912109375
z: 0.05501537770032883
visibility: 0.9021796584129333
","x: 255.78134155273438
y: 491.125
z: 0.429227739572525
visibility: 0.9288384318351746
","x: 254.81045532226562
y: 562.724609375
z: -0.012680411338806152
visibility: 0.9612777829170227
",,,,,,,,,,,,,,,,,,,,,,"x: 229.23550415039062
y: 183.77816772460938
z: 0.0
","x: 229.57534790039062
y: 176.15599060058594
z: -0.001619371585547924
","x: 227.87242126464844
y: 168.57281494140625
z: -0.003714621067047119
","x: 225.59429931640625
y: 165.2676544189453
z: -0.006673019845038652
","x: 223.21563720703125
y: 165.69924926757812
z: -0.008942930959165096
","x: 219.72947692871094
y: 168.00497436523438
z: -0.0007812226540409029
","x: 218.59767150878906
y: 163.4647216796875
z: -0.005100851878523827
","x: 221.5070037841797
y: 164.5763397216797
z: -0.006904093082994223
","x: 223.48263549804688
y: 166.8655548095703
z: -0.0074940514750778675
","x: 218.36105346679688
y: 172.37242126464844
z: -0.0027337810024619102
","x: 218.2990264892578
y: 167.20684814453125
z: -0.007093789521604776
","x: 221.97976684570312
y: 169.0760955810547
z: -0.007414352148771286
","x: 223.81483459472656
y: 171.71151733398438
z: -0.0067646559327840805
","x: 217.74911499023438
y: 177.3546142578125
z: -0.005465647671371698
","x: 218.872802734375
y: 172.62405395507812
z: -0.009624450467526913
","x: 222.4152069091797
y: 173.80087280273438
z: -0.008600289933383465
","x: 224.25921630859375
y: 175.65086364746094
z: -0.007001449819654226
","x: 217.95355224609375
y: 182.7005157470703
z: -0.008649993687868118
","x: 219.46212768554688
y: 178.24972534179688
z: -0.01135475654155016
","x: 222.46543884277344
y: 178.27613830566406
z: -0.01062302477657795
","x: 224.19461059570312
y: 179.26364135742188
z: -0.009280912578105927
"
17,"x: 268.6718444824219
y: 203.31427001953125
z: -0.2156786471605301
visibility: 0.9995117783546448
","x: 268.6031494140625
y: 197.49497985839844
z: -0.20464155077934265
visibility: 0.9994291067123413
","x: 269.2162780761719
y: 198.05242919921875
z: -0.20471298694610596
visibility: 0.9993833303451538
","x: 269.82061767578125
y: 198.77902221679688
z: -0.20489613711833954
visibility: 0.9994723200798035
","x: 266.1024169921875
y: 196.98631286621094
z: -0.2143177092075348
visibility: 0.999496340751648
","x: 264.9026794433594
y: 197.27642822265625
z: -0.214381605386734
visibility: 0.999459445476532
","x: 263.61053466796875
y: 197.7494659423828
z: -0.2144378423690796
visibility: 0.999495804309845
","x: 267.708740234375
y: 204.88006591796875
z: -0.05490172654390335
visibility: 0.9994392395019531
","x: 258.70819091796875
y: 203.2135772705078
z: -0.18406806886196136
visibility: 0.9993630051612854
","x: 268.6177978515625
y: 212.4121856689453
z: -0.17130932211875916
visibility: 0.9990583062171936
","x: 265.7193603515625
y: 212.7108154296875
z: -0.1997261345386505
visibility: 0.9990023374557495
","x: 263.2791748046875
y: 257.901123046875
z: 0.0913219228386879
visibility: 0.997196614742279
","x: 246.64097595214844
y: 239.28001403808594
z: -0.2510467767715454
visibility: 0.9996708035469055
","x: 254.2292938232422
y: 313.2398681640625
z: 0.2923976182937622
visibility: 0.698067843914032
","x: 234.9065399169922
y: 236.76885986328125
z: -0.5149224996566772
visibility: 0.8684593439102173
","x: 249.25677490234375
y: 360.8798522949219
z: 0.450852632522583
visibility: 0.7292502522468567
","x: 223.59461975097656
y: 190.9183349609375
z: -0.735554575920105
visibility: 0.8441740274429321
","x: 247.6493682861328
y: 375.932373046875
z: 0.4959131181240082
visibility: 0.7252832055091858
","x: 217.6533203125
y: 182.4950408935547
z: -0.7907375693321228
visibility: 0.8204151391983032
","x: 247.5467529296875
y: 374.2462463378906
z: 0.47821083664894104
visibility: 0.7265937328338623
","x: 218.12705993652344
y: 179.6873779296875
z: -0.7755971550941467
visibility: 0.8206645846366882
","x: 247.65554809570312
y: 367.73492431640625
z: 0.4482094347476959
visibility: 0.7214852571487427
","x: 220.69277954101562
y: 182.79449462890625
z: -0.7362235188484192
visibility: 0.8148779273033142
","x: 257.8299560546875
y: 379.0415954589844
z: 0.1125708669424057
visibility: 0.9996006488800049
","x: 249.2689666748047
y: 377.2147216796875
z: -0.11282913386821747
visibility: 0.9996247291564941
","x: 281.332763671875
y: 439.7933349609375
z: 0.19945946335792542
visibility: 0.864068329334259
","x: 264.4432373046875
y: 467.5484924316406
z: -0.07782599329948425
visibility: 0.9213351011276245
","x: 249.18191528320312
y: 468.9442443847656
z: 0.4107510447502136
visibility: 0.9125188589096069
","x: 237.66188049316406
y: 544.3662109375
z: 0.044812530279159546
visibility: 0.9591853022575378
","x: 241.44894409179688
y: 469.41754150390625
z: 0.4311498701572418
visibility: 0.8655732274055481
","x: 227.0843963623047
y: 553.7034912109375
z: 0.05501537770032883
visibility: 0.9021796584129333
","x: 255.78134155273438
y: 491.125
z: 0.429227739572525
visibility: 0.9288384318351746
","x: 254.81045532226562
y: 562.724609375
z: -0.012680411338806152
visibility: 0.9612777829170227
",,,,,,,,,,,,,,,,,,,,,,"x: 229.23550415039062
y: 183.77816772460938
z: 0.0
","x: 229.57534790039062
y: 176.15599060058594
z: -0.001619371585547924
","x: 227.87242126464844
y: 168.57281494140625
z: -0.003714621067047119
","x: 225.59429931640625
y: 165.2676544189453
z: -0.006673019845038652
","x: 223.21563720703125
y: 165.69924926757812
z: -0.008942930959165096
","x: 219.72947692871094
y: 168.00497436523438
z: -0.0007812226540409029
","x: 218.59767150878906
y: 163.4647216796875
z: -0.005100851878523827
","x: 221.5070037841797
y: 164.5763397216797
z: -0.006904093082994223
","x: 223.48263549804688
y: 166.8655548095703
z: -0.0074940514750778675
","x: 218.36105346679688
y: 172.37242126464844
z: -0.0027337810024619102
","x: 218.2990264892578
y: 167.20684814453125
z: -0.007093789521604776
","x: 221.97976684570312
y: 169.0760955810547
z: -0.007414352148771286
","x: 223.81483459472656
y: 171.71151733398438
z: -0.0067646559327840805
","x: 217.74911499023438
y: 177.3546142578125
z: -0.005465647671371698
","x: 218.872802734375
y: 172.62405395507812
z: -0.009624450467526913
","x: 222.4152069091797
y: 173.80087280273438
z: -0.008600289933383465
","x: 224.25921630859375
y: 175.65086364746094
z: -0.007001449819654226
","x: 217.95355224609375
y: 182.7005157470703
z: -0.008649993687868118
","x: 219.46212768554688
y: 178.24972534179688
z: -0.01135475654155016
","x: 222.46543884277344
y: 178.27613830566406
z: -0.01062302477657795
","x: 224.19461059570312
y: 179.26364135742188
z: -0.009280912578105927
"
18,"x: 268.7455749511719
y: 206.56277465820312
z: -0.15223661065101624
visibility: 0.9994845390319824
","x: 267.9521179199219
y: 199.835205078125
z: -0.129238098859787
visibility: 0.9993537068367004
","x: 268.3997497558594
y: 200.09413146972656
z: -0.1292826533317566
visibility: 0.9992557764053345
","x: 268.82330322265625
y: 200.44447326660156
z: -0.12932555377483368
visibility: 0.999330461025238
","x: 265.60943603515625
y: 199.8981475830078
z: -0.16075393557548523
visibility: 0.9994483590126038
","x: 264.3607177734375
y: 200.23802185058594
z: -0.16077259182929993
visibility: 0.9994208812713623
","x: 263.0364685058594
y: 200.65451049804688
z: -0.16077928245067596
visibility: 0.9994410872459412
","x: 265.9652099609375
y: 205.7555389404297
z: -0.01411175262182951
visibility: 0.9992717504501343
","x: 258.38824462890625
y: 206.24072265625
z: -0.16326843202114105
visibility: 0.9992324709892273
","x: 268.8405456542969
y: 214.81629943847656
z: -0.10786328464746475
visibility: 0.9986463785171509
","x: 266.3765869140625
y: 216.10971069335938
z: -0.1496984213590622
visibility: 0.9985648393630981
","x: 260.7817687988281
y: 258.3693542480469
z: 0.11196867376565933
visibility: 0.9954006671905518
","x: 251.50088500976562
y: 246.9197998046875
z: -0.22257289290428162
visibility: 0.9990900158882141
","x: 248.37701416015625
y: 308.6487121582031
z: 0.22180049121379852
visibility: 0.633967936038971
","x: 255.49681091308594
y: 248.63946533203125
z: -0.4207329750061035
visibility: 0.8709643483161926
","x: 245.93988037109375
y: 342.9654235839844
z: 0.2709101140499115
visibility: 0.6602681279182434
","x: 260.64349365234375
y: 221.13528442382812
z: -0.5491343140602112
visibility: 0.8360959887504578
","x: 245.45413208007812
y: 356.1513977050781
z: 0.28723078966140747
visibility: 0.6576366424560547
","x: 262.62286376953125
y: 213.65591430664062
z: -0.5915082693099976
visibility: 0.8118281364440918
","x: 245.93524169921875
y: 353.7890930175781
z: 0.2689283490180969
visibility: 0.6589507460594177
","x: 260.8310241699219
y: 207.0162811279297
z: -0.5737855434417725
visibility: 0.8094844222068787
","x: 246.08950805664062
y: 348.898681640625
z: 0.26319772005081177
visibility: 0.6544318795204163
","x: 263.1839599609375
y: 215.25634765625
z: -0.5451423525810242
visibility: 0.7964426279067993
","x: 256.43255615234375
y: 378.06353759765625
z: 0.11067966371774673
visibility: 0.9989889860153198
","x: 251.45513916015625
y: 378.6523742675781
z: -0.11086307466030121
visibility: 0.9991287589073181
","x: 268.7607116699219
y: 451.3831787109375
z: 0.13351240754127502
visibility: 0.8111076951026917
","x: 263.8702697753906
y: 467.2020263671875
z: -0.0856902152299881
visibility: 0.9175634980201721
","x: 242.63442993164062
y: 528.0542602539062
z: 0.25415724515914917
visibility: 0.8669853806495667
","x: 239.26052856445312
y: 551.5215454101562
z: -0.010419857688248158
visibility: 0.9565532803535461
","x: 232.6939697265625
y: 532.5523681640625
z: 0.26313215494155884
visibility: 0.828726589679718
","x: 227.28057861328125
y: 563.0526123046875
z: -0.005891838110983372
visibility: 0.902690052986145
","x: 254.4251708984375
y: 532.326171875
z: 0.22033290565013885
visibility: 0.892121434211731
","x: 257.38507080078125
y: 565.32958984375
z: -0.07330106198787689
visibility: 0.9560951590538025
",,,,,,,,,,,,,,,,,,,,,,,,,,,,,,,,,,,,,,,,,,
19,"x: 269.7586975097656
y: 208.55892944335938
z: -0.09494195878505707
visibility: 0.9993334412574768
","x: 268.6376647949219
y: 201.26197814941406
z: -0.07953835278749466
visibility: 0.9991388916969299
","x: 269.0002136230469
y: 201.315185546875
z: -0.07956385612487793
visibility: 0.9989190101623535
","x: 269.3529968261719
y: 201.4683837890625
z: -0.07958580553531647
visibility: 0.9990552067756653
","x: 266.50244140625
y: 201.56719970703125
z: -0.11024390161037445
visibility: 0.9993581175804138
","x: 265.3104248046875
y: 201.87478637695312
z: -0.11029895395040512
visibility: 0.9993643164634705
","x: 264.02447509765625
y: 202.29397583007812
z: -0.11041314899921417
visibility: 0.9994054436683655
","x: 266.81884765625
y: 205.71463012695312
z: 0.008064676076173782
visibility: 0.9991405010223389
","x: 259.6822509765625
y: 207.21534729003906
z: -0.13394583761692047
visibility: 0.9991865754127502
","x: 270.048583984375
y: 216.36732482910156
z: -0.059532277286052704
visibility: 0.9985066652297974
","x: 267.5710144042969
y: 217.18423461914062
z: -0.0997777059674263
visibility: 0.9985262155532837
","x: 261.6200866699219
y: 257.0735778808594
z: 0.12262878566980362
visibility: 0.9945161938667297
","x: 250.0748291015625
y: 246.26101684570312
z: -0.21566137671470642
visibility: 0.9991351962089539
","x: 259.6567687988281
y: 268.41436767578125
z: 0.3011018931865692
visibility: 0.5744527578353882
","x: 256.36968994140625
y: 253.92579650878906
z: -0.4361118674278259
visibility: 0.880423903465271
","x: 261.3688659667969
y: 263.15667724609375
z: 0.4532175660133362
visibility: 0.6015483736991882
","x: 269.943603515625
y: 229.8153076171875
z: -0.5799345374107361
visibility: 0.8484792709350586
","x: 261.777587890625
y: 266.1953125
z: 0.48750853538513184
visibility: 0.6025455594062805
","x: 273.3419189453125
y: 221.9119873046875
z: -0.6232944130897522
visibility: 0.8255431652069092
","x: 261.87567138671875
y: 262.56292724609375
z: 0.47152143716812134
visibility: 0.6037514209747314
","x: 270.5906066894531
y: 218.1210174560547
z: -0.6138612031936646
visibility: 0.822930097579956
","x: 262.6120910644531
y: 261.5381164550781
z: 0.4499286711215973
visibility: 0.6007586717605591
","x: 269.63427734375
y: 222.93418884277344
z: -0.5789960622787476
visibility: 0.8075453042984009
","x: 258.7154541015625
y: 375.00469970703125
z: 0.10837868601083755
visibility: 0.998729944229126
","x: 250.7700958251953
y: 374.841552734375
z: -0.1084335446357727
visibility: 0.9991354942321777
","x: 267.6048583984375
y: 450.3108215332031
z: 0.186252161860466
visibility: 0.7663431763648987
","x: 262.51812744140625
y: 463.883544921875
z: -0.14720813930034637
visibility: 0.9183223843574524
","x: 240.44180297851562
y: 493.2506103515625
z: 0.3476584553718567
visibility: 0.8184214234352112
","x: 239.55767822265625
y: 546.303955078125
z: -0.12647460401058197
visibility: 0.9560012221336365
","x: 231.97508239746094
y: 497.4925537109375
z: 0.35993462800979614
visibility: 0.7973994016647339
","x: 228.98178100585938
y: 559.7492065429688
z: -0.12917965650558472
visibility: 0.9051164388656616
","x: 253.06703186035156
y: 516.0803833007812
z: 0.32658806443214417
visibility: 0.855236828327179
","x: 258.079345703125
y: 564.3355102539062
z: -0.22689349949359894
visibility: 0.953737199306488
",,,,,,,,,,,,,,,,,,,,,,,,,,,,,,,,,,,,,,,,,,
20,"x: 266.2351379394531
y: 175.5003204345703
z: -0.26913556456565857
visibility: 0.9993966221809387
","x: 265.72015380859375
y: 169.84329223632812
z: -0.23943690955638885
visibility: 0.9992169737815857
","x: 266.25152587890625
y: 170.05728149414062
z: -0.2394423931837082
visibility: 0.9990136623382568
","x: 266.8214416503906
y: 170.31317138671875
z: -0.23945629596710205
visibility: 0.9991340637207031
","x: 263.6546936035156
y: 170.46383666992188
z: -0.2618357539176941
visibility: 0.9994181394577026
","x: 263.0151672363281
y: 170.983154296875
z: -0.26189568638801575
visibility: 0.9994239211082458
","x: 263.0652770996094
y: 171.58079528808594
z: -0.2619592845439911
visibility: 0.9994617104530334
","x: 265.0085754394531
y: 175.78855895996094
z: -0.08052852004766464
visibility: 0.9991289973258972
","x: 256.0318298339844
y: 178.205810546875
z: -0.18337666988372803
visibility: 0.9992634654045105
","x: 267.0481262207031
y: 185.52919006347656
z: -0.20908096432685852
visibility: 0.9986222386360168
","x: 263.9701843261719
y: 186.149658203125
z: -0.23725685477256775
visibility: 0.9986589550971985
","x: 265.41192626953125
y: 225.8283233642578
z: 0.09680420160293579
visibility: 0.9944961071014404
","x: 248.41061401367188
y: 224.10693359375
z: -0.21849334239959717
visibility: 0.9992120862007141
","x: 264.359375
y: 275.1163024902344
z: 0.19729073345661163
visibility: 0.5195298194885254
","x: 256.2566833496094
y: 273.2125549316406
z: -0.2410036027431488
visibility: 0.8912211656570435
","x: 264.9629821777344
y: 314.90472412109375
z: 0.06426651030778885
visibility: 0.5460041165351868
","x: 278.8914489746094
y: 313.2080078125
z: -0.24021804332733154
visibility: 0.8568015694618225
","x: 269.1561584472656
y: 329.3376159667969
z: 0.047075510025024414
visibility: 0.548191249370575
","x: 282.20556640625
y: 328.65582275390625
z: -0.2724207043647766
visibility: 0.8307772874832153
","x: 270.8539733886719
y: 325.4215087890625
z: 0.014523699879646301
visibility: 0.5497968792915344
","x: 285.54901123046875
y: 326.5829162597656
z: -0.27935734391212463
visibility: 0.8278969526290894
","x: 272.77203369140625
y: 320.1939697265625
z: 0.04467746615409851
visibility: 0.5468586683273315
","x: 284.75030517578125
y: 321.1455078125
z: -0.24055984616279602
visibility: 0.8084806799888611
","x: 263.9961853027344
y: 342.4327087402344
z: 0.09704381972551346
visibility: 0.9983611702919006
","x: 251.5501251220703
y: 340.54974365234375
z: -0.09710323065519333
visibility: 0.999016523361206
","x: 266.5779113769531
y: 435.55242919921875
z: 0.10520156472921371
visibility: 0.7644137144088745
","x: 259.4189453125
y: 436.1790771484375
z: -0.12008675187826157
visibility: 0.9234515428543091
","x: 249.11636352539062
y: 512.4022216796875
z: 0.18876494467258453
visibility: 0.8255412578582764
","x: 243.65916442871094
y: 535.6536254882812
z: -0.043906472623348236
visibility: 0.958924412727356
","x: 240.2911376953125
y: 521.3031616210938
z: 0.18940778076648712
visibility: 0.8002231121063232
","x: 235.92874145507812
y: 548.1138916015625
z: -0.043300580233335495
visibility: 0.9066323637962341
","x: 262.8522033691406
y: 543.19921875
z: 0.09625924378633499
visibility: 0.8634017109870911
","x: 259.36859130859375
y: 562.1934204101562
z: -0.1614016592502594
visibility: 0.9569270014762878
",,,,,,,,,,,,,,,,,,,,,,,,,,,,,,,,,,,,,,,,,,
21,"x: 266.3783874511719
y: 185.24893188476562
z: -0.2684917449951172
visibility: 0.9994568228721619
","x: 265.4960021972656
y: 178.5210418701172
z: -0.24228420853614807
visibility: 0.9992947578430176
","x: 266.0093688964844
y: 178.60169982910156
z: -0.2422313243150711
visibility: 0.999111533164978
","x: 266.5147399902344
y: 178.74830627441406
z: -0.24225953221321106
visibility: 0.9992197155952454
","x: 263.1460876464844
y: 179.092041015625
z: -0.26665687561035156
visibility: 0.9994760751724243
","x: 262.094482421875
y: 179.51124572753906
z: -0.26665061712265015
visibility: 0.9994813203811646
","x: 261.23358154296875
y: 180.092041015625
z: -0.26672956347465515
visibility: 0.9995152950286865
","x: 264.6184997558594
y: 182.583251953125
z: -0.10348763316869736
visibility: 0.9992143511772156
","x: 255.66107177734375
y: 184.23388671875
z: -0.21276068687438965
visibility: 0.9993369579315186
","x: 267.3152160644531
y: 194.28125
z: -0.21621575951576233
visibility: 0.9987591505050659
","x: 264.060546875
y: 194.86843872070312
z: -0.2475927621126175
visibility: 0.9987927079200745
","x: 270.85931396484375
y: 231.33358764648438
z: 0.07293199002742767
visibility: 0.9950181841850281
","x: 248.05409240722656
y: 241.55252075195312
z: -0.25154778361320496
visibility: 0.9992843866348267
","x: 279.4045715332031
y: 269.9554748535156
z: 0.2856375575065613
visibility: 0.5228369235992432
","x: 250.82179260253906
y: 317.70306396484375
z: -0.30034583806991577
visibility: 0.9016989469528198
","x: 296.9096984863281
y: 255.03379821777344
z: 0.4194483757019043
visibility: 0.5814024806022644
","x: 265.49920654296875
y: 372.2342224121094
z: -0.3191002607345581
visibility: 0.8699853420257568
","x: 303.4862060546875
y: 251.45082092285156
z: 0.4501360058784485
visibility: 0.5767550468444824
","x: 267.3502197265625
y: 388.80926513671875
z: -0.341160386800766
visibility: 0.8446529507637024
","x: 304.1707458496094
y: 248.9596710205078
z: 0.43119049072265625
visibility: 0.5793546438217163
","x: 270.7555847167969
y: 389.278076171875
z: -0.35594630241394043
visibility: 0.8420316576957703
","x: 301.07489013671875
y: 250.66497802734375
z: 0.41444462537765503
visibility: 0.5754519701004028
","x: 270.2242431640625
y: 384.403076171875
z: -0.3223811984062195
visibility: 0.8227569460868835
","x: 265.1847229003906
y: 363.025146484375
z: 0.09445187449455261
visibility: 0.9984927773475647
","x: 250.14175415039062
y: 361.4888916015625
z: -0.0947648286819458
visibility: 0.9990442395210266
","x: 273.1662902832031
y: 454.7615051269531
z: 0.04377173259854317
visibility: 0.7791458964347839
","x: 259.7763977050781
y: 459.5895080566406
z: -0.09332406520843506
visibility: 0.9276215434074402
","x: 256.2210693359375
y: 527.853759765625
z: 0.21192848682403564
visibility: 0.8359551429748535
","x: 241.81405639648438
y: 544.2206420898438
z: 0.08752864599227905
visibility: 0.9596050381660461
","x: 248.19131469726562
y: 537.4820556640625
z: 0.22429820895195007
visibility: 0.8081020712852478
","x: 235.3398895263672
y: 553.8360595703125
z: 0.10086126625537872
visibility: 0.8981958627700806
","x: 266.9573669433594
y: 560.0220947265625
z: 0.12982535362243652
visibility: 0.8722561597824097
","x: 255.5939483642578
y: 570.5175170898438
z: -0.011883527040481567
visibility: 0.9583746790885925
",,,,,,,,,,,,,,,,,,,,,,,,,,,,,,,,,,,,,,,,,,
22,"x: 265.400146484375
y: 216.58995056152344
z: -0.2729650139808655
visibility: 0.9995111227035522
","x: 264.6393127441406
y: 210.41012573242188
z: -0.2406570166349411
visibility: 0.9993652701377869
","x: 265.329345703125
y: 210.53053283691406
z: -0.24061346054077148
visibility: 0.9992003440856934
","x: 266.1173400878906
y: 210.6361541748047
z: -0.24060988426208496
visibility: 0.9992976784706116
","x: 262.5677795410156
y: 210.36012268066406
z: -0.25791192054748535
visibility: 0.9995284676551819
","x: 262.02099609375
y: 210.43923950195312
z: -0.25790905952453613
visibility: 0.9995331764221191
","x: 260.41607666015625
y: 210.4989776611328
z: -0.2579546868801117
visibility: 0.9995637536048889
","x: 265.27508544921875
y: 215.821533203125
z: -0.09492926299571991
visibility: 0.9992927312850952
","x: 254.95497131347656
y: 216.26564025878906
z: -0.176401749253273
visibility: 0.9994032382965088
","x: 266.173828125
y: 226.15670776367188
z: -0.2140316665172577
visibility: 0.9988831877708435
","x: 263.2434997558594
y: 226.22169494628906
z: -0.2362012416124344
visibility: 0.9989134073257446
","x: 272.814453125
y: 263.4993896484375
z: 0.08651549369096756
visibility: 0.9955150485038757
","x: 245.35760498046875
y: 270.1939697265625
z: -0.16858889162540436
visibility: 0.9993547797203064
","x: 292.57330322265625
y: 271.32672119140625
z: 0.21628892421722412
visibility: 0.5668988823890686
","x: 239.9462432861328
y: 338.2684631347656
z: -0.2007743865251541
visibility: 0.911307692527771
","x: 312.6869812011719
y: 241.6795654296875
z: 0.19509246945381165
visibility: 0.6228763461112976
","x: 242.56982421875
y: 400.5331115722656
z: -0.2757766842842102
visibility: 0.8826091885566711
","x: 319.2198791503906
y: 233.90475463867188
z: 0.1873406022787094
visibility: 0.6179521083831787
","x: 241.31289672851562
y: 419.19775390625
z: -0.29804694652557373
visibility: 0.859021008014679
","x: 318.7536926269531
y: 230.3514404296875
z: 0.17013594508171082
visibility: 0.6203774809837341
","x: 245.5714111328125
y: 419.8349304199219
z: -0.32855352759361267
visibility: 0.8566809296607971
","x: 316.2941589355469
y: 232.85977172851562
z: 0.18516989052295685
visibility: 0.6166210174560547
","x: 248.26475524902344
y: 413.5780334472656
z: -0.2861053943634033
visibility: 0.8389390707015991
","x: 266.0002136230469
y: 387.3193664550781
z: 0.09284800291061401
visibility: 0.9986358880996704
","x: 249.387451171875
y: 387.70391845703125
z: -0.09314478188753128
visibility: 0.9991216063499451
","x: 278.26922607421875
y: 470.1490783691406
z: 0.027767354622483253
visibility: 0.7949380874633789
","x: 264.3021545410156
y: 478.58013916015625
z: -0.12748833000659943
visibility: 0.9333880543708801
","x: 256.4656677246094
y: 531.87939453125
z: 0.21503286063671112
visibility: 0.8455897569656372
","x: 241.2242889404297
y: 546.8668823242188
z: 0.10144052654504776
visibility: 0.9595233201980591
","x: 247.4448699951172
y: 539.0967407226562
z: 0.23111169040203094
visibility: 0.8133581876754761
","x: 234.96742248535156
y: 555.180908203125
z: 0.12107187509536743
visibility: 0.890382707118988
","x: 266.1402893066406
y: 561.49755859375
z: 0.14457100629806519
visibility: 0.8795273303985596
","x: 254.5169677734375
y: 570.9019775390625
z: 0.03760883957147598
visibility: 0.958278477191925
",,,,,,,,,,,,,,,,,,,,,,,,,,,,,,,,,,,,,,,,,,
23,"x: 259.2688293457031
y: 194.11587524414062
z: -0.3424697518348694
visibility: 0.999559760093689
","x: 261.4666748046875
y: 188.3721160888672
z: -0.31810668110847473
visibility: 0.9994281530380249
","x: 263.03863525390625
y: 188.82012939453125
z: -0.3181062638759613
visibility: 0.9992797374725342
","x: 264.591064453125
y: 189.33001708984375
z: -0.3181207478046417
visibility: 0.9993671774864197
","x: 256.6314392089844
y: 188.38601684570312
z: -0.32452189922332764
visibility: 0.999575138092041
","x: 255.02163696289062
y: 188.8162078857422
z: -0.3246014714241028
visibility: 0.9995793104171753
","x: 253.2823028564453
y: 189.27389526367188
z: -0.3246443569660187
visibility: 0.999606728553772
","x: 264.98565673828125
y: 195.72137451171875
z: -0.17244264483451843
visibility: 0.999362051486969
","x: 250.3635711669922
y: 196.17262268066406
z: -0.20258677005767822
visibility: 0.9994626045227051
","x: 262.823486328125
y: 203.76895141601562
z: -0.2877959609031677
visibility: 0.9989941120147705
","x: 256.3138122558594
y: 203.20742797851562
z: -0.2963079810142517
visibility: 0.9990215301513672
","x: 276.8742980957031
y: 248.2550048828125
z: -0.04835342615842819
visibility: 0.9959401488304138
","x: 238.8980712890625
y: 248.03408813476562
z: -0.13593143224716187
visibility: 0.999405562877655
","x: 306.0378723144531
y: 250.72003173828125
z: -0.1523730307817459
visibility: 0.6097770929336548
","x: 212.11102294921875
y: 288.26312255859375
z: -0.10270807892084122
visibility: 0.9198299050331116
","x: 310.3845520019531
y: 194.45404052734375
z: -0.37583839893341064
visibility: 0.6598996520042419
","x: 180.9652557373047
y: 298.3367614746094
z: -0.1601741462945938
visibility: 0.8931870460510254
","x: 311.8702087402344
y: 179.42587280273438
z: -0.41139596700668335
visibility: 0.6534302830696106
","x: 168.88406372070312
y: 299.7121276855469
z: -0.17335821688175201
visibility: 0.8693139553070068
","x: 310.25579833984375
y: 175.66758728027344
z: -0.41401368379592896
visibility: 0.6556410789489746
","x: 168.68374633789062
y: 298.4635009765625
z: -0.20816783607006073
visibility: 0.8677260875701904
","x: 308.9580993652344
y: 181.0526885986328
z: -0.3843756318092346
visibility: 0.6520478129386902
","x: 172.57843017578125
y: 299.1024475097656
z: -0.17600595951080322
visibility: 0.8516712784767151
","x: 268.60137939453125
y: 365.39971923828125
z: 0.05117850750684738
visibility: 0.9986860156059265
","x: 249.22064208984375
y: 364.0232849121094
z: -0.05130888894200325
visibility: 0.9991289973258972
","x: 273.7669677734375
y: 464.3320007324219
z: 0.03316161781549454
visibility: 0.8098756074905396
","x: 253.47865295410156
y: 459.3310241699219
z: -0.07686039805412292
visibility: 0.9386327266693115
","x: 259.7779541015625
y: 530.4253540039062
z: 0.18953295052051544
visibility: 0.8562465906143188
","x: 241.99639892578125
y: 546.194580078125
z: 0.07979290187358856
visibility: 0.9620271325111389
","x: 254.51333618164062
y: 538.6821899414062
z: 0.1983458697795868
visibility: 0.8214927911758423
","x: 238.95462036132812
y: 553.7950439453125
z: 0.11437680572271347
visibility: 0.8847995400428772
","x: 267.95550537109375
y: 559.7858276367188
z: 0.08166500180959702
visibility: 0.8875767588615417
","x: 253.04537963867188
y: 568.2447509765625
z: -0.07047019898891449
visibility: 0.9601736664772034
",,,,,,,,,,,,,,,,,,,,,,,,,,,,,,,,,,,,,,,,,,
24,"x: 254.72988891601562
y: 178.718505859375
z: -0.15443040430545807
visibility: 0.9996033906936646
","x: 257.59814453125
y: 172.6211395263672
z: -0.12929868698120117
visibility: 0.9994843602180481
","x: 259.4735107421875
y: 172.8785400390625
z: -0.12930062413215637
visibility: 0.9993504881858826
","x: 261.3172302246094
y: 173.2000732421875
z: -0.12932023406028748
visibility: 0.9994294047355652
","x: 252.87306213378906
y: 173.09719848632812
z: -0.12716081738471985
visibility: 0.9996166825294495
","x: 251.5211181640625
y: 173.62643432617188
z: -0.12717567384243011
visibility: 0.999620258808136
","x: 250.1280517578125
y: 174.14344787597656
z: -0.12716495990753174
visibility: 0.9996452927589417
","x: 264.8785400390625
y: 180.63275146484375
z: -0.01380119752138853
visibility: 0.9994239807128906
","x: 247.97793579101562
y: 181.67686462402344
z: -0.006804247386753559
visibility: 0.9995152950286865
","x: 258.9242248535156
y: 187.8424072265625
z: -0.11466100066900253
visibility: 0.9990930557250977
","x: 252.50550842285156
y: 187.7132568359375
z: -0.11206202208995819
visibility: 0.9991181492805481
","x: 276.20574951171875
y: 229.54861450195312
z: -0.010356276296079159
visibility: 0.9963153004646301
","x: 234.31454467773438
y: 229.95730590820312
z: 0.059250932186841965
visibility: 0.9993891716003418
","x: 304.3556213378906
y: 204.9889373779297
z: -0.057852666825056076
visibility: 0.6484756469726562
","x: 200.1317901611328
y: 212.34414672851562
z: 0.06280994415283203
visibility: 0.9273881316184998
","x: 302.59429931640625
y: 147.65504455566406
z: -0.18851423263549805
visibility: 0.6921753287315369
","x: 176.89715576171875
y: 181.75677490234375
z: -0.025533786043524742
visibility: 0.9011831879615784
","x: 304.1092529296875
y: 127.71839904785156
z: -0.2250550240278244
visibility: 0.6809002757072449
","x: 168.65890502929688
y: 172.94094848632812
z: -0.05744605511426926
visibility: 0.8714103698730469
","x: 301.7626647949219
y: 127.59561157226562
z: -0.22449803352355957
visibility: 0.682378351688385
","x: 169.71424865722656
y: 170.34361267089844
z: -0.07374969869852066
visibility: 0.8704482913017273
","x: 300.35552978515625
y: 134.94203186035156
z: -0.19542568922042847
visibility: 0.6787670850753784
","x: 172.82102966308594
y: 173.50106811523438
z: -0.04015049338340759
visibility: 0.8571120500564575
","x: 266.81085205078125
y: 349.41607666015625
z: -0.006006066687405109
visibility: 0.9987756609916687
","x: 243.66543579101562
y: 346.78570556640625
z: 0.005938057787716389
visibility: 0.9991475939750671
","x: 268.50164794921875
y: 452.2854919433594
z: -0.01445200014859438
visibility: 0.8273439407348633
","x: 244.89208984375
y: 446.8225402832031
z: -0.013051958754658699
visibility: 0.9417697787284851
","x: 262.5456848144531
y: 531.1685791015625
z: 0.11947716772556305
visibility: 0.8689061999320984
","x: 241.04501342773438
y: 534.1278686523438
z: 0.12615789473056793
visibility: 0.9623326659202576
","x: 261.2438049316406
y: 541.2147216796875
z: 0.12437441200017929
visibility: 0.8146401643753052
","x: 238.8090362548828
y: 542.9253540039062
z: 0.13370318710803986
visibility: 0.8692969083786011
","x: 264.63836669921875
y: 559.7545166015625
z: -0.027003860101103783
visibility: 0.8963911533355713
","x: 241.55210876464844
y: 561.696044921875
z: -0.01255577988922596
visibility: 0.9601142406463623
","x: 301.1757507324219
y: 143.90484619140625
z: 0.0
","x: 297.9805908203125
y: 136.70669555664062
z: 0.0008716631564311683
","x: 296.4049987792969
y: 129.16632080078125
z: 0.000592007942032069
","x: 296.6503601074219
y: 123.33191680908203
z: -0.00039098289562389255
","x: 297.54705810546875
y: 119.72438049316406
z: -0.001389475422911346
","x: 298.40093994140625
y: 123.12313842773438
z: 4.406889638630673e-05
","x: 298.352783203125
y: 114.09454345703125
z: -0.0019299949053674936
","x: 298.4670104980469
y: 109.4815444946289
z: -0.0023854700848460197
","x: 298.53240966796875
y: 106.16001892089844
z: -0.002386758802458644
","x: 301.1277160644531
y: 123.30633544921875
z: -0.0023128297179937363
","x: 301.6108093261719
y: 113.07320404052734
z: -0.0038852798752486706
","x: 302.02850341796875
y: 108.16300964355469
z: -0.003792485920712352
","x: 302.30902099609375
y: 104.64385986328125
z: -0.003630307037383318
","x: 303.6341552734375
y: 124.9747085571289
z: -0.004921324551105499
","x: 304.92315673828125
y: 116.1149673461914
z: -0.006959888618439436
","x: 305.5617980957031
y: 111.39247131347656
z: -0.007253663614392281
","x: 305.9342041015625
y: 108.00606536865234
z: -0.007253746502101421
","x: 305.8824462890625
y: 127.9342041015625
z: -0.007644241210073233
","x: 307.6653137207031
y: 122.35054016113281
z: -0.009304869920015335
","x: 308.676513671875
y: 118.97256469726562
z: -0.009659424424171448
","x: 309.3017272949219
y: 116.29998016357422
z: -0.00971699133515358
",,,,,,,,,,,,,,,,,,,,,
25,"x: 254.72988891601562
y: 178.718505859375
z: -0.15443040430545807
visibility: 0.9996033906936646
","x: 257.59814453125
y: 172.6211395263672
z: -0.12929868698120117
visibility: 0.9994843602180481
","x: 259.4735107421875
y: 172.8785400390625
z: -0.12930062413215637
visibility: 0.9993504881858826
","x: 261.3172302246094
y: 173.2000732421875
z: -0.12932023406028748
visibility: 0.9994294047355652
","x: 252.87306213378906
y: 173.09719848632812
z: -0.12716081738471985
visibility: 0.9996166825294495
","x: 251.5211181640625
y: 173.62643432617188
z: -0.12717567384243011
visibility: 0.999620258808136
","x: 250.1280517578125
y: 174.14344787597656
z: -0.12716495990753174
visibility: 0.9996452927589417
","x: 264.8785400390625
y: 180.63275146484375
z: -0.01380119752138853
visibility: 0.9994239807128906
","x: 247.97793579101562
y: 181.67686462402344
z: -0.006804247386753559
visibility: 0.9995152950286865
","x: 258.9242248535156
y: 187.8424072265625
z: -0.11466100066900253
visibility: 0.9990930557250977
","x: 252.50550842285156
y: 187.7132568359375
z: -0.11206202208995819
visibility: 0.9991181492805481
","x: 276.20574951171875
y: 229.54861450195312
z: -0.010356276296079159
visibility: 0.9963153004646301
","x: 234.31454467773438
y: 229.95730590820312
z: 0.059250932186841965
visibility: 0.9993891716003418
","x: 304.3556213378906
y: 204.9889373779297
z: -0.057852666825056076
visibility: 0.6484756469726562
","x: 200.1317901611328
y: 212.34414672851562
z: 0.06280994415283203
visibility: 0.9273881316184998
","x: 302.59429931640625
y: 147.65504455566406
z: -0.18851423263549805
visibility: 0.6921753287315369
","x: 176.89715576171875
y: 181.75677490234375
z: -0.025533786043524742
visibility: 0.9011831879615784
","x: 304.1092529296875
y: 127.71839904785156
z: -0.2250550240278244
visibility: 0.6809002757072449
","x: 168.65890502929688
y: 172.94094848632812
z: -0.05744605511426926
visibility: 0.8714103698730469
","x: 301.7626647949219
y: 127.59561157226562
z: -0.22449803352355957
visibility: 0.682378351688385
","x: 169.71424865722656
y: 170.34361267089844
z: -0.07374969869852066
visibility: 0.8704482913017273
","x: 300.35552978515625
y: 134.94203186035156
z: -0.19542568922042847
visibility: 0.6787670850753784
","x: 172.82102966308594
y: 173.50106811523438
z: -0.04015049338340759
visibility: 0.8571120500564575
","x: 266.81085205078125
y: 349.41607666015625
z: -0.006006066687405109
visibility: 0.9987756609916687
","x: 243.66543579101562
y: 346.78570556640625
z: 0.005938057787716389
visibility: 0.9991475939750671
","x: 268.50164794921875
y: 452.2854919433594
z: -0.01445200014859438
visibility: 0.8273439407348633
","x: 244.89208984375
y: 446.8225402832031
z: -0.013051958754658699
visibility: 0.9417697787284851
","x: 262.5456848144531
y: 531.1685791015625
z: 0.11947716772556305
visibility: 0.8689061999320984
","x: 241.04501342773438
y: 534.1278686523438
z: 0.12615789473056793
visibility: 0.9623326659202576
","x: 261.2438049316406
y: 541.2147216796875
z: 0.12437441200017929
visibility: 0.8146401643753052
","x: 238.8090362548828
y: 542.9253540039062
z: 0.13370318710803986
visibility: 0.8692969083786011
","x: 264.63836669921875
y: 559.7545166015625
z: -0.027003860101103783
visibility: 0.8963911533355713
","x: 241.55210876464844
y: 561.696044921875
z: -0.01255577988922596
visibility: 0.9601142406463623
","x: 301.1757507324219
y: 143.90484619140625
z: 0.0
","x: 297.9805908203125
y: 136.70669555664062
z: 0.0008716631564311683
","x: 296.4049987792969
y: 129.16632080078125
z: 0.000592007942032069
","x: 296.6503601074219
y: 123.33191680908203
z: -0.00039098289562389255
","x: 297.54705810546875
y: 119.72438049316406
z: -0.001389475422911346
","x: 298.40093994140625
y: 123.12313842773438
z: 4.406889638630673e-05
","x: 298.352783203125
y: 114.09454345703125
z: -0.0019299949053674936
","x: 298.4670104980469
y: 109.4815444946289
z: -0.0023854700848460197
","x: 298.53240966796875
y: 106.16001892089844
z: -0.002386758802458644
","x: 301.1277160644531
y: 123.30633544921875
z: -0.0023128297179937363
","x: 301.6108093261719
y: 113.07320404052734
z: -0.0038852798752486706
","x: 302.02850341796875
y: 108.16300964355469
z: -0.003792485920712352
","x: 302.30902099609375
y: 104.64385986328125
z: -0.003630307037383318
","x: 303.6341552734375
y: 124.9747085571289
z: -0.004921324551105499
","x: 304.92315673828125
y: 116.1149673461914
z: -0.006959888618439436
","x: 305.5617980957031
y: 111.39247131347656
z: -0.007253663614392281
","x: 305.9342041015625
y: 108.00606536865234
z: -0.007253746502101421
","x: 305.8824462890625
y: 127.9342041015625
z: -0.007644241210073233
","x: 307.6653137207031
y: 122.35054016113281
z: -0.009304869920015335
","x: 308.676513671875
y: 118.97256469726562
z: -0.009659424424171448
","x: 309.3017272949219
y: 116.29998016357422
z: -0.00971699133515358
",,,,,,,,,,,,,,,,,,,,,
26,"x: 246.20184326171875
y: 215.16297912597656
z: -0.12444597482681274
visibility: 0.9996334910392761
","x: 248.93133544921875
y: 208.07485961914062
z: -0.11472372710704803
visibility: 0.9995230436325073
","x: 250.80116271972656
y: 207.58554077148438
z: -0.11476508527994156
visibility: 0.9993993639945984
","x: 252.75672912597656
y: 207.2904052734375
z: -0.11485858261585236
visibility: 0.9994757771492004
","x: 245.11285400390625
y: 209.5433807373047
z: -0.09552604705095291
visibility: 0.9996359348297119
","x: 243.92449951171875
y: 210.21826171875
z: -0.09549622982740402
visibility: 0.9996248483657837
","x: 242.8374481201172
y: 210.8061981201172
z: -0.09549535810947418
visibility: 0.9996589422225952
","x: 258.63616943359375
y: 213.70758056640625
z: -0.0517505519092083
visibility: 0.9994725584983826
","x: 244.00042724609375
y: 214.73326110839844
z: 0.026952873915433884
visibility: 0.9995413422584534
","x: 249.54273986816406
y: 222.5106964111328
z: -0.10660836845636368
visibility: 0.999167263507843
","x: 244.97186279296875
y: 222.5054168701172
z: -0.08091990649700165
visibility: 0.9991811513900757
","x: 274.6062927246094
y: 252.51412963867188
z: -0.10127758979797363
visibility: 0.9966598153114319
","x: 234.7652130126953
y: 251.4120330810547
z: 0.09161518514156342
visibility: 0.9993317723274231
","x: 273.91461181640625
y: 202.24588012695312
z: -0.20343787968158722
visibility: 0.6834115386009216
","x: 218.00143432617188
y: 207.04400634765625
z: 0.12599590420722961
visibility: 0.9292247295379639
","x: 273.19183349609375
y: 151.34548950195312
z: -0.22779974341392517
visibility: 0.7217248678207397
","x: 215.70388793945312
y: 159.26455688476562
z: 0.12772782146930695
visibility: 0.9051276445388794
","x: 274.0440673828125
y: 140.52857971191406
z: -0.2662806212902069
visibility: 0.709832489490509
","x: 220.71661376953125
y: 149.89988708496094
z: 0.1020163744688034
visibility: 0.8702022433280945
","x: 271.49993896484375
y: 140.5191192626953
z: -0.2681811451911926
visibility: 0.710783064365387
","x: 225.92750549316406
y: 150.35430908203125
z: 0.10734289884567261
visibility: 0.8680999279022217
","x: 270.10650634765625
y: 143.9412078857422
z: -0.23256519436836243
visibility: 0.7066537141799927
","x: 226.54293823242188
y: 153.677001953125
z: 0.12196823209524155
visibility: 0.8571661710739136
","x: 262.7498779296875
y: 371.9050598144531
z: -0.0609125979244709
visibility: 0.998887300491333
","x: 237.937744140625
y: 369.9046630859375
z: 0.06089437007904053
visibility: 0.9992133975028992
","x: 256.4147033691406
y: 468.8175964355469
z: -0.0656050592660904
visibility: 0.8432781100273132
","x: 228.03253173828125
y: 459.574951171875
z: 0.077183797955513
visibility: 0.9451147317886353
","x: 264.67431640625
y: 539.181640625
z: 0.13909181952476501
visibility: 0.8797049522399902
","x: 235.6699676513672
y: 529.5980224609375
z: 0.3188205659389496
visibility: 0.9626025557518005
","x: 269.22344970703125
y: 549.5750122070312
z: 0.15252676606178284
visibility: 0.805040717124939
","x: 238.1147003173828
y: 537.5931396484375
z: 0.3377881646156311
visibility: 0.8718314170837402
","x: 263.4664611816406
y: 565.3919677734375
z: 0.03150824084877968
visibility: 0.902600884437561
","x: 226.78610229492188
y: 554.6932373046875
z: 0.2584843933582306
visibility: 0.9597035646438599
",,,,,,,,,,,,,,,,,,,,,,,,,,,,,,,,,,,,,,,,,,
27,"x: 244.12945556640625
y: 196.3093719482422
z: 0.0007431678241118789
visibility: 0.9996505379676819
","x: 247.972412109375
y: 189.7400665283203
z: -0.015832683071494102
visibility: 0.999546229839325
","x: 248.9907684326172
y: 190.15966796875
