uscmakers/ReverseChoreography/data/9_all_i_wanna_do_jay_park.csv
,NOSE,LEFT_EYE_INNER,LEFT_EYE,LEFT_EYE_OUTER,RIGHT_EYE_INNER,RIGHT_EYE,RIGHT_EYE_OUTER,LEFT_EAR,RIGHT_EAR,MOUTH_LEFT,MOUTH_RIGHT,LEFT_SHOULDER,RIGHT_SHOULDER,LEFT_ELBOW,RIGHT_ELBOW,LEFT_WRIST,RIGHT_WRIST,LEFT_PINKY,RIGHT_PINKY,LEFT_INDEX,RIGHT_INDEX,LEFT_THUMB,RIGHT_THUMB,LEFT_HIP,RIGHT_HIP,LEFT_KNEE,RIGHT_KNEE,LEFT_ANKLE,RIGHT_ANKLE,LEFT_HEEL,RIGHT_HEEL,LEFT_FOOT_INDEX,RIGHT_FOOT_INDEX,WRIST,THUMB_CPC,THUMB_MCP,THUMB_IP,THUMB_TIP,INDEX_FINGER_MCP,INDEX_FINGER_PIP,INDEX_FINGER_DIP,INDEX_FINGER_TIP,MIDDLE_FINGER_MCP,MIDDLE_FINGER_PIP,MIDDLE_FINGER_DIP,MIDDLE_FINGER_TIP,RING_FINGER_PIP,RING_FINGER_DIP,RING_FINGER_TIP,RING_FINGER_MCP,PINKY_MCP,PINKY_PIP,PINKY_DIP,PINKY_TIP,WRIST2,THUMB_CPC2,THUMB_MCP2,THUMB_IP2,THUMB_TIP2,INDEX_FINGER_MCP2,INDEX_FINGER_PIP2,INDEX_FINGER_DIP2,INDEX_FINGER_TIP2,MIDDLE_FINGER_MCP2,MIDDLE_FINGER_PIP2,MIDDLE_FINGER_DIP2,MIDDLE_FINGER_TIP2,RING_FINGER_PIP2,RING_FINGER_DIP2,RING_FINGER_TIP2,RING_FINGER_MCP2,PINKY_MCP2,PINKY_PIP2,PINKY_DIP2,PINKY_TIP2
0,"x: 252.95803833007812
y: 231.49925231933594
z: -0.14289352297782898
visibility: 0.9998862743377686
","x: 256.15533447265625
y: 225.07061767578125
z: -0.14401061832904816
visibility: 0.9997641444206238
","x: 257.43572998046875
y: 225.31185913085938
z: -0.14403007924556732
visibility: 0.9997414946556091
","x: 258.8427734375
y: 225.66683959960938
z: -0.14408555626869202
visibility: 0.9997696280479431
","x: 253.7711944580078
y: 224.26556396484375
z: -0.12392139434814453
visibility: 0.9995700716972351
","x: 253.33108520507812
y: 223.92822265625
z: -0.12396445125341415
visibility: 0.9994100332260132
","x: 252.87852478027344
y: 223.6341094970703
z: -0.12399077415466309
visibility: 0.9994126558303833
","x: 263.7952575683594
y: 230.56027221679688
z: -0.12462141364812851
visibility: 0.9998493194580078
","x: 256.3255920410156
y: 226.88092041015625
z: -0.034467749297618866
visibility: 0.9989092350006104
","x: 255.5338897705078
y: 238.76792907714844
z: -0.13468460738658905
visibility: 0.9998890161514282
","x: 252.17625427246094
y: 237.5325927734375
z: -0.1088956743478775
visibility: 0.9997102618217468
","x: 274.3438415527344
y: 277.44488525390625
z: -0.14141805469989777
visibility: 0.9998613595962524
","x: 245.58180236816406
y: 256.14117431640625
z: 0.04057418182492256
visibility: 0.9997121691703796
","x: 275.2517395019531
y: 326.794921875
z: -0.17507895827293396
visibility: 0.9977922439575195
","x: 224.0113067626953
y: 229.93612670898438
z: 0.041493069380521774
visibility: 0.9893320798873901
","x: 270.3409118652344
y: 372.1232604980469
z: -0.1978510171175003
visibility: 0.985395610332489
","x: 208.5685272216797
y: 189.20372009277344
z: -0.034745413810014725
visibility: 0.9897128343582153
","x: 269.41290283203125
y: 388.1412353515625
z: -0.21774408221244812
visibility: 0.9569960236549377
","x: 207.1598358154297
y: 175.93701171875
z: -0.054525554180145264
visibility: 0.9661738276481628
","x: 266.7574462890625
y: 386.5902404785156
z: -0.2343284785747528
visibility: 0.9589841961860657
","x: 209.14561462402344
y: 174.4846954345703
z: -0.06818124651908875
visibility: 0.9682715535163879
","x: 266.282958984375
y: 381.7931823730469
z: -0.20419058203697205
visibility: 0.9472862482070923
","x: 209.77040100097656
y: 177.62554931640625
z: -0.04793067276477814
visibility: 0.970787763595581
","x: 260.04266357421875
y: 366.48297119140625
z: -0.058003365993499756
visibility: 0.9993208646774292
","x: 243.37583923339844
y: 364.0245056152344
z: 0.05794712156057358
visibility: 0.9997759461402893
","x: 254.42298889160156
y: 427.0416259765625
z: -0.10236179828643799
visibility: 0.9508069157600403
","x: 242.54124450683594
y: 431.480712890625
z: 0.06074205040931702
visibility: 0.913027286529541
","x: 256.975341796875
y: 475.8219909667969
z: 0.056399039924144745
visibility: 0.929039478302002
","x: 254.72364807128906
y: 502.1368408203125
z: 0.18726254999637604
visibility: 0.956028401851654
","x: 258.7335510253906
y: 489.74853515625
z: 0.06900648772716522
visibility: 0.878302276134491
","x: 259.8815002441406
y: 514.0950317382812
z: 0.19502952694892883
visibility: 0.9519847631454468
","x: 252.7722930908203
y: 499.6571350097656
z: -0.004619153682142496
visibility: 0.9357463121414185
","x: 245.08563232421875
y: 516.0411376953125
z: 0.12490121275186539
visibility: 0.9501387476921082
",,,,,,,,,,,,,,,,,,,,,,,,,,,,,,,,,,,,,,,,,,
1,"x: 253.10243225097656
y: 228.1025390625
z: -0.2408730536699295
visibility: 0.9998804330825806
","x: 256.3078308105469
y: 222.03033447265625
z: -0.23945705592632294
visibility: 0.9997547268867493
","x: 257.533203125
y: 222.39849853515625
z: -0.23946531116962433
visibility: 0.9997385144233704
","x: 258.89068603515625
y: 222.890625
z: -0.23951897025108337
visibility: 0.9997625350952148
","x: 254.09689331054688
y: 220.6886444091797
z: -0.2217521220445633
visibility: 0.9995530843734741
","x: 253.7129669189453
y: 220.1357421875
z: -0.2218233346939087
visibility: 0.9994034171104431
","x: 253.30198669433594
y: 219.608642578125
z: -0.22183410823345184
visibility: 0.9993988275527954
","x: 263.7864990234375
y: 226.82058715820312
z: -0.19676917791366577
visibility: 0.9998441338539124
","x: 256.3299865722656
y: 222.2793426513672
z: -0.11934526264667511
visibility: 0.9989288449287415
","x: 255.5266876220703
y: 234.46958923339844
z: -0.22335942089557648
visibility: 0.999881386756897
","x: 252.25685119628906
y: 233.14785766601562
z: -0.20129990577697754
visibility: 0.9996908903121948
","x: 273.5953674316406
y: 271.09954833984375
z: -0.20793776214122772
visibility: 0.9998680949211121
","x: 246.27261352539062
y: 250.56161499023438
z: -0.008506262674927711
visibility: 0.999702513217926
","x: 275.023193359375
y: 325.828125
z: -0.2488713562488556
visibility: 0.9977573156356812
","x: 224.7337188720703
y: 222.02813720703125
z: -0.01863515004515648
visibility: 0.9869145750999451
","x: 270.7796630859375
y: 372.1324462890625
z: -0.27538374066352844
visibility: 0.9849100708961487
","x: 211.99026489257812
y: 189.65170288085938
z: -0.11612769216299057
visibility: 0.9882369637489319
","x: 272.2288818359375
y: 387.78997802734375
z: -0.2936905324459076
visibility: 0.9557926058769226
","x: 208.79483032226562
y: 177.09384155273438
z: -0.13259515166282654
visibility: 0.9637686610221863
","x: 269.6084289550781
y: 386.6827087402344
z: -0.3108920156955719
visibility: 0.9581296443939209
","x: 210.71841430664062
y: 179.0972900390625
z: -0.14360234141349792
visibility: 0.9659172296524048
","x: 268.5299987792969
y: 381.8359375
z: -0.2820414900779724
visibility: 0.9457784295082092
","x: 211.80145263671875
y: 182.23687744140625
z: -0.12730105221271515
visibility: 0.9686312079429626
","x: 260.1324462890625
y: 361.75067138671875
z: -0.07428402453660965
visibility: 0.999353289604187
","x: 245.0726776123047
y: 358.99517822265625
z: 0.07409189641475677
visibility: 0.9997832775115967
","x: 250.14764404296875
y: 427.3265075683594
z: -0.08261702209711075
visibility: 0.9529174566268921
","x: 242.53953552246094
y: 431.3682556152344
z: 0.05163303017616272
visibility: 0.9053614139556885
","x: 259.7436218261719
y: 494.80975341796875
z: 0.014493132941424847
visibility: 0.9351202249526978
","x: 256.28662109375
y: 498.69085693359375
z: 0.16549751162528992
visibility: 0.9533386826515198
","x: 264.8856201171875
y: 506.52325439453125
z: 0.019606616348028183
visibility: 0.8878144025802612
","x: 262.081787109375
y: 510.76361083984375
z: 0.1715715229511261
visibility: 0.9491803646087646
","x: 248.94247436523438
y: 513.5487670898438
z: -0.06620018184185028
visibility: 0.9409845471382141
","x: 243.73797607421875
y: 515.4802856445312
z: 0.10280976444482803
visibility: 0.9496148824691772
",,,,,,,,,,,,,,,,,,,,,,,,,,,,,,,,,,,,,,,,,,
2,"x: 253.10972595214844
y: 227.11488342285156
z: -0.2951752841472626
visibility: 0.9998863935470581
","x: 256.4350891113281
y: 221.4747314453125
z: -0.29050689935684204
visibility: 0.9997698664665222
","x: 257.69464111328125
y: 222.0718536376953
z: -0.2905280888080597
visibility: 0.9997564554214478
","x: 259.0986328125
y: 222.73130798339844
z: -0.29060083627700806
visibility: 0.9997764825820923
","x: 254.25469970703125
y: 219.50094604492188
z: -0.27351927757263184
visibility: 0.9995799660682678
","x: 253.891357421875
y: 218.7863311767578
z: -0.2735847532749176
visibility: 0.9994443655014038
","x: 253.50302124023438
y: 218.07656860351562
z: -0.27355146408081055
visibility: 0.9994379878044128
","x: 263.7879638671875
y: 226.65731811523438
z: -0.23151199519634247
visibility: 0.9998540282249451
","x: 256.28887939453125
y: 220.40615844726562
z: -0.15696315467357635
visibility: 0.9990111589431763
","x: 255.3345947265625
y: 233.8274383544922
z: -0.27154356241226196
visibility: 0.9998871088027954
","x: 252.23216247558594
y: 231.96429443359375
z: -0.2502809166908264
visibility: 0.9997064471244812
","x: 271.4313049316406
y: 270.33563232421875
z: -0.236248180270195
visibility: 0.9998783469200134
","x: 246.5110626220703
y: 248.56021118164062
z: -0.02809617482125759
visibility: 0.9997027516365051
","x: 274.9229736328125
y: 324.39630126953125
z: -0.3039896786212921
visibility: 0.997853696346283
","x: 228.071044921875
y: 222.96600341796875
z: -0.008277703076601028
visibility: 0.9832897782325745
","x: 273.60321044921875
y: 372.3168640136719
z: -0.36662113666534424
visibility: 0.9855116605758667
","x: 215.7819366455078
y: 190.14453125
z: -0.08155698329210281
visibility: 0.9878461360931396
","x: 275.562255859375
y: 387.73028564453125
z: -0.3925398886203766
visibility: 0.9571390748023987
","x: 211.82272338867188
y: 177.23825073242188
z: -0.09610823541879654
visibility: 0.9639464616775513
","x: 272.0617370605469
y: 387.0160217285156
z: -0.4098573327064514
visibility: 0.9595532417297363
","x: 213.71871948242188
y: 178.21279907226562
z: -0.1091136708855629
visibility: 0.9660422205924988
","x: 270.88812255859375
y: 382.0565490722656
z: -0.3746849596500397
visibility: 0.9472069144248962
","x: 215.18312072753906
y: 181.74237060546875
z: -0.09272626787424088
visibility: 0.9685834050178528
","x: 259.15771484375
y: 361.2452392578125
z: -0.07848639786243439
visibility: 0.9993977546691895
","x: 245.3550567626953
y: 357.246337890625
z: 0.07828298956155777
visibility: 0.9997933506965637
","x: 250.40170288085938
y: 427.7206115722656
z: -0.08498424291610718
visibility: 0.9561065435409546
","x: 243.2589111328125
y: 431.1700134277344
z: 0.0527312271296978
visibility: 0.9033690094947815
","x: 261.3981018066406
y: 500.25384521484375
z: 0.0018004520097747445
visibility: 0.9410290122032166
","x: 256.8865051269531
y: 497.0428771972656
z: 0.16984803974628448
visibility: 0.953292191028595
","x: 266.1103820800781
y: 512.8643188476562
z: 0.005697074346244335
visibility: 0.8970732688903809
","x: 262.1759033203125
y: 510.4259033203125
z: 0.17562983930110931
visibility: 0.9486402273178101
","x: 248.0884246826172
y: 519.3718872070312
z: -0.08959043771028519
visibility: 0.9461362957954407
","x: 243.7435302734375
y: 515.4852294921875
z: 0.10218582302331924
visibility: 0.9511212706565857
",,,,,,,,,,,,,,,,,,,,,,,,,,,,,,,,,,,,,,,,,,
3,"x: 254.2557373046875
y: 223.13623046875
z: -0.2234857976436615
visibility: 0.999881386756897
","x: 257.6776428222656
y: 217.30865478515625
z: -0.2227919101715088
visibility: 0.9997612833976746
","x: 258.8983154296875
y: 217.75450134277344
z: -0.22280994057655334
visibility: 0.9997531771659851
","x: 260.1826171875
y: 218.29855346679688
z: -0.22286972403526306
visibility: 0.9997717142105103
","x: 255.59263610839844
y: 215.8299560546875
z: -0.20429591834545135
visibility: 0.9995633959770203
","x: 255.25823974609375
y: 215.2900390625
z: -0.20434927940368652
visibility: 0.9994379281997681
","x: 254.91969299316406
y: 214.7689666748047
z: -0.2043500691652298
visibility: 0.9994280934333801
","x: 264.577392578125
y: 222.29183959960938
z: -0.1869865208864212
visibility: 0.999851405620575
","x: 257.64971923828125
y: 217.18321228027344
z: -0.10513746738433838
visibility: 0.999011754989624
","x: 256.04833984375
y: 229.42898559570312
z: -0.20882263779640198
visibility: 0.9998858571052551
","x: 253.16168212890625
y: 228.10986328125
z: -0.18534649908542633
visibility: 0.9997020363807678
","x: 271.642333984375
y: 265.84075927734375
z: -0.19838406145572662
visibility: 0.9998835325241089
","x: 246.65090942382812
y: 248.24188232421875
z: -0.0018308305880054832
visibility: 0.9996828436851501
","x: 274.8463439941406
y: 321.921630859375
z: -0.24395129084587097
visibility: 0.9977900981903076
","x: 227.66937255859375
y: 232.09715270996094
z: 0.006846001837402582
visibility: 0.9826347231864929
","x: 273.8436279296875
y: 372.3048095703125
z: -0.2808532118797302
visibility: 0.9852337837219238
","x: 215.5214080810547
y: 194.1368408203125
z: -0.07213827967643738
visibility: 0.9876785278320312
","x: 275.23370361328125
y: 387.20819091796875
z: -0.3031254708766937
visibility: 0.9566546678543091
","x: 211.65496826171875
y: 179.9630584716797
z: -0.08852149546146393
visibility: 0.9638336300849915
","x: 272.2483825683594
y: 386.9775695800781
z: -0.3192712962627411
visibility: 0.9591494798660278
","x: 213.5248260498047
y: 179.2015838623047
z: -0.09968681633472443
visibility: 0.9658976197242737
","x: 271.3100280761719
y: 381.89678955078125
z: -0.28757020831108093
visibility: 0.9465956687927246
","x: 214.9121856689453
y: 184.19671630859375
z: -0.08326513320207596
visibility: 0.9681440591812134
","x: 260.67626953125
y: 361.3791198730469
z: -0.07402487844228745
visibility: 0.999390184879303
","x: 245.654296875
y: 357.865478515625
z: 0.07388173043727875
visibility: 0.9997794032096863
","x: 255.66847229003906
y: 428.5912780761719
z: -0.05583453178405762
visibility: 0.9589506983757019
","x: 243.87078857421875
y: 431.0046691894531
z: 0.08191503584384918
visibility: 0.9070749878883362
","x: 261.819091796875
y: 499.6148681640625
z: 0.047911662608385086
visibility: 0.9460123777389526
","x: 257.2155456542969
y: 497.49530029296875
z: 0.19893816113471985
visibility: 0.9545639157295227
","x: 266.13836669921875
y: 513.2027587890625
z: 0.05058950185775757
visibility: 0.9027577638626099
","x: 262.2928466796875
y: 510.8744812011719
z: 0.20488043129444122
visibility: 0.9485055208206177
","x: 248.6910400390625
y: 517.882080078125
z: -0.05569404363632202
visibility: 0.9504799246788025
","x: 244.03770446777344
y: 515.9157104492188
z: 0.1308213770389557
visibility: 0.9535829424858093
",,,,,,,,,,,,,,,,,,,,,,,,,,,,,,,,,,,,,,,,,,
4,"x: 256.7491149902344
y: 222.6962432861328
z: -0.12854836881160736
visibility: 0.9998858571052551
","x: 260.31353759765625
y: 216.5777587890625
z: -0.1245916485786438
visibility: 0.9997732043266296
","x: 261.68829345703125
y: 216.96963500976562
z: -0.12465200573205948
visibility: 0.999767541885376
","x: 263.10552978515625
y: 217.4700927734375
z: -0.12469673156738281
visibility: 0.9997836947441101
","x: 257.45196533203125
y: 215.25845336914062
z: -0.11013571918010712
visibility: 0.9995856881141663
","x: 256.8140869140625
y: 214.7513427734375
z: -0.11014507710933685
visibility: 0.9994692206382751
","x: 256.22412109375
y: 214.2692413330078
z: -0.11007098108530045
visibility: 0.9994573593139648
","x: 266.483642578125
y: 221.41070556640625
z: -0.06724707782268524
visibility: 0.9998620748519897
","x: 258.0025329589844
y: 216.79351806640625
z: -0.0014804453821852803
visibility: 0.9990513324737549
","x: 258.9521179199219
y: 229.307861328125
z: -0.10520152747631073
visibility: 0.9998930096626282
","x: 255.04067993164062
y: 228.06983947753906
z: -0.08642959594726562
visibility: 0.9997196793556213
","x: 274.7417907714844
y: 262.1627502441406
z: -0.08356151729822159
visibility: 0.9998942613601685
","x: 246.63381958007812
y: 248.99148559570312
z: 0.10803959518671036
visibility: 0.9996776580810547
","x: 277.4741516113281
y: 304.82525634765625
z: -0.15684892237186432
visibility: 0.9977623224258423
","x: 227.2646026611328
y: 262.19183349609375
z: 0.04057132452726364
visibility: 0.9802080392837524
","x: 273.6253356933594
y: 340.19903564453125
z: -0.26473069190979004
visibility: 0.9862493872642517
","x: 215.2318115234375
y: 234.071533203125
z: -0.17158541083335876
visibility: 0.9880396127700806
","x: 274.3046875
y: 355.29583740234375
z: -0.2960635721683502
visibility: 0.9597856402397156
","x: 211.28382873535156
y: 224.62673950195312
z: -0.2076549082994461
visibility: 0.9657305479049683
","x: 271.34954833984375
y: 352.0838623046875
z: -0.313230961561203
visibility: 0.9620406031608582
","x: 213.21798706054688
y: 221.92138671875
z: -0.2193714678287506
visibility: 0.9676841497421265
","x: 270.38726806640625
y: 346.9252014160156
z: -0.27217036485671997
visibility: 0.9500923156738281
","x: 214.77908325195312
y: 225.42726135253906
z: -0.18505683541297913
visibility: 0.9693769216537476
","x: 262.3863525390625
y: 360.844482421875
z: -0.06820794194936752
visibility: 0.9994150400161743
","x: 245.60357666015625
y: 358.2971496582031
z: 0.06822271645069122
visibility: 0.9997684359550476
","x: 260.3656311035156
y: 428.56927490234375
z: -0.06952009350061417
visibility: 0.9623590707778931
","x: 244.4583282470703
y: 430.928955078125
z: 0.08039139956235886
visibility: 0.9132578372955322
","x: 262.8408508300781
y: 500.529052734375
z: 0.0460003986954689
visibility: 0.9503942728042603
","x: 257.07659912109375
y: 497.74273681640625
z: 0.1873875856399536
visibility: 0.9571537971496582
","x: 266.4753723144531
y: 513.6560668945312
z: 0.04856044054031372
visibility: 0.905369758605957
","x: 262.2644958496094
y: 510.9825134277344
z: 0.19153329730033875
visibility: 0.9495488405227661
","x: 250.23190307617188
y: 516.585693359375
z: -0.060377638787031174
visibility: 0.9541314244270325
","x: 244.3258056640625
y: 516.2867431640625
z: 0.10743500292301178
visibility: 0.9563313722610474
",,,,,,,,,,,,,,,,,,,,,,,,,,,,,,,,,,,,,,,,,,
5,"x: 260.8905029296875
y: 223.1171875
z: -0.15265731513500214
visibility: 0.9998841285705566
","x: 264.2273254394531
y: 216.82797241210938
z: -0.14939089119434357
visibility: 0.9997731447219849
","x: 265.5852355957031
y: 217.14059448242188
z: -0.14936614036560059
visibility: 0.999767005443573
","x: 266.8987731933594
y: 217.55516052246094
z: -0.1494242399930954
visibility: 0.999780535697937
","x: 260.2956848144531
y: 215.64593505859375
z: -0.13235574960708618
visibility: 0.9996005296707153
","x: 259.2117919921875
y: 215.1544189453125
z: -0.1322736144065857
visibility: 0.999488115310669
","x: 258.255859375
y: 214.69818115234375
z: -0.1322336345911026
visibility: 0.9994809031486511
","x: 269.24371337890625
y: 220.71519470214844
z: -0.0802161768078804
visibility: 0.999856173992157
","x: 258.2375793457031
y: 216.7473602294922
z: -0.03185456246137619
visibility: 0.999092698097229
","x: 263.3095703125
y: 229.48333740234375
z: -0.1363581120967865
visibility: 0.999888002872467
","x: 258.50799560546875
y: 228.36050415039062
z: -0.10968446731567383
visibility: 0.9997231960296631
","x: 278.1889343261719
y: 260.1623229980469
z: -0.0701766088604927
visibility: 0.9998932480812073
","x: 246.61868286132812
y: 249.9552001953125
z: 0.07533582299947739
visibility: 0.999685525894165
","x: 273.15191650390625
y: 305.9090576171875
z: -0.17063960433006287
visibility: 0.9905465841293335
","x: 231.66404724121094
y: 291.3836364746094
z: 0.04692179709672928
visibility: 0.9687967896461487
","x: 268.2204895019531
y: 312.17156982421875
z: -0.3671223819255829
visibility: 0.9778450131416321
","x: 217.02517700195312
y: 279.62774658203125
z: -0.14901331067085266
visibility: 0.9867911338806152
","x: 266.21917724609375
y: 319.0151672363281
z: -0.41421347856521606
visibility: 0.9528157711029053
","x: 211.1717987060547
y: 275.4105224609375
z: -0.18424813449382782
visibility: 0.9659817218780518
","x: 265.3607482910156
y: 312.1478576660156
z: -0.4253305494785309
visibility: 0.9546995162963867
","x: 213.1273193359375
y: 270.41558837890625
z: -0.2072950303554535
visibility: 0.9680958986282349
","x: 264.5813293457031
y: 310.039306640625
z: -0.3762555420398712
visibility: 0.9390179514884949
","x: 214.61502075195312
y: 271.9521179199219
z: -0.16536998748779297
visibility: 0.9690381288528442
","x: 264.9940490722656
y: 355.7908630371094
z: -0.0553409643471241
visibility: 0.9993782639503479
","x: 246.21743774414062
y: 356.9132080078125
z: 0.05538477748632431
visibility: 0.9997096061706543
","x: 262.9039306640625
y: 428.70068359375
z: -0.09574660658836365
visibility: 0.965346097946167
","x: 241.20359802246094
y: 430.27362060546875
z: 0.01292736828327179
visibility: 0.9202574491500854
","x: 262.5578308105469
y: 500.62396240234375
z: 0.016381967812776566
visibility: 0.9546265006065369
","x: 253.5997314453125
y: 496.9840087890625
z: 0.14479470252990723
visibility: 0.9600399732589722
","x: 265.66790771484375
y: 512.7990112304688
z: 0.020160799846053123
visibility: 0.9042378067970276
","x: 258.6263427734375
y: 509.3191223144531
z: 0.1514909416437149
visibility: 0.9504961371421814
","x: 252.17648315429688
y: 518.14501953125
z: -0.09673165529966354
visibility: 0.9574961066246033
","x: 243.89471435546875
y: 516.9367065429688
z: 0.06316031515598297
visibility: 0.9587720632553101
","x: 216.82012939453125
y: 276.7381591796875
z: 0.0
","x: 216.01841735839844
y: 270.8675842285156
z: -0.0017370106652379036
","x: 213.75413513183594
y: 265.8047180175781
z: -0.0028170677833259106
","x: 211.48703002929688
y: 263.09765625
z: -0.004225427750498056
","x: 209.55918884277344
y: 261.2330322265625
z: -0.005379184614866972
","x: 208.83258056640625
y: 269.43768310546875
z: 0.00022580393124371767
","x: 205.8488006591797
y: 268.6363525390625
z: -0.0016617821529507637
","x: 204.00238037109375
y: 268.5499267578125
z: -0.003020581789314747
","x: 202.51980590820312
y: 268.4373779296875
z: -0.00378675595857203
","x: 208.54074096679688
y: 273.28570556640625
z: -0.0003151318524032831
","x: 206.93617248535156
y: 273.27825927734375
z: -0.002469920087605715
","x: 208.8285369873047
y: 273.5458068847656
z: -0.0027098616119474173
","x: 210.56861877441406
y: 273.42218017578125
z: -0.002193721942603588
","x: 208.80226135253906
y: 277.18609619140625
z: -0.0014018970541656017
","x: 207.5584259033203
y: 277.2933654785156
z: -0.0036770962178707123
","x: 209.5224151611328
y: 277.52752685546875
z: -0.0030187489464879036
","x: 211.23977661132812
y: 277.2333984375
z: -0.0019325596513226628
","x: 209.4844970703125
y: 281.1961975097656
z: -0.0028950355481356382
","x: 207.797119140625
y: 281.46185302734375
z: -0.004456704948097467
","x: 208.9275360107422
y: 281.5103454589844
z: -0.003975548781454563
","x: 210.13418579101562
y: 281.19488525390625
z: -0.003067294368520379
",,,,,,,,,,,,,,,,,,,,,
6,"x: 260.8905029296875
y: 223.1171875
z: -0.15265731513500214
visibility: 0.9998841285705566
","x: 264.2273254394531
y: 216.82797241210938
z: -0.14939089119434357
visibility: 0.9997731447219849
","x: 265.5852355957031
y: 217.14059448242188
z: -0.14936614036560059
visibility: 0.999767005443573
","x: 266.8987731933594
y: 217.55516052246094
z: -0.1494242399930954
visibility: 0.999780535697937
","x: 260.2956848144531
y: 215.64593505859375
z: -0.13235574960708618
visibility: 0.9996005296707153
","x: 259.2117919921875
y: 215.1544189453125
z: -0.1322736144065857
visibility: 0.999488115310669
","x: 258.255859375
y: 214.69818115234375
z: -0.1322336345911026
visibility: 0.9994809031486511
","x: 269.24371337890625
y: 220.71519470214844
z: -0.0802161768078804
visibility: 0.999856173992157
","x: 258.2375793457031
y: 216.7473602294922
z: -0.03185456246137619
visibility: 0.999092698097229
","x: 263.3095703125
y: 229.48333740234375
z: -0.1363581120967865
visibility: 0.999888002872467
","x: 258.50799560546875
y: 228.36050415039062
z: -0.10968446731567383
visibility: 0.9997231960296631
","x: 278.1889343261719
y: 260.1623229980469
z: -0.0701766088604927
visibility: 0.9998932480812073
","x: 246.61868286132812
y: 249.9552001953125
z: 0.07533582299947739
visibility: 0.999685525894165
","x: 273.15191650390625
y: 305.9090576171875
z: -0.17063960433006287
visibility: 0.9905465841293335
","x: 231.66404724121094
y: 291.3836364746094
z: 0.04692179709672928
visibility: 0.9687967896461487
","x: 268.2204895019531
y: 312.17156982421875
z: -0.3671223819255829
visibility: 0.9778450131416321
","x: 217.02517700195312
y: 279.62774658203125
z: -0.14901331067085266
visibility: 0.9867911338806152
","x: 266.21917724609375
y: 319.0151672363281
z: -0.41421347856521606
visibility: 0.9528157711029053
","x: 211.1717987060547
y: 275.4105224609375
z: -0.18424813449382782
visibility: 0.9659817218780518
","x: 265.3607482910156
y: 312.1478576660156
z: -0.4253305494785309
visibility: 0.9546995162963867
","x: 213.1273193359375
y: 270.41558837890625
z: -0.2072950303554535
visibility: 0.9680958986282349
","x: 264.5813293457031
y: 310.039306640625
z: -0.3762555420398712
visibility: 0.9390179514884949
","x: 214.61502075195312
y: 271.9521179199219
z: -0.16536998748779297
visibility: 0.9690381288528442
","x: 264.9940490722656
y: 355.7908630371094
z: -0.0553409643471241
visibility: 0.9993782639503479
","x: 246.21743774414062
y: 356.9132080078125
z: 0.05538477748632431
visibility: 0.9997096061706543
","x: 262.9039306640625
y: 428.70068359375
z: -0.09574660658836365
visibility: 0.965346097946167
","x: 241.20359802246094
y: 430.27362060546875
z: 0.01292736828327179
visibility: 0.9202574491500854
","x: 262.5578308105469
y: 500.62396240234375
z: 0.016381967812776566
visibility: 0.9546265006065369
","x: 253.5997314453125
y: 496.9840087890625
z: 0.14479470252990723
visibility: 0.9600399732589722
","x: 265.66790771484375
y: 512.7990112304688
z: 0.020160799846053123
visibility: 0.9042378067970276
","x: 258.6263427734375
y: 509.3191223144531
z: 0.1514909416437149
visibility: 0.9504961371421814
","x: 252.17648315429688
y: 518.14501953125
z: -0.09673165529966354
visibility: 0.9574961066246033
","x: 243.89471435546875
y: 516.9367065429688
z: 0.06316031515598297
visibility: 0.9587720632553101
","x: 216.82012939453125
y: 276.7381591796875
z: 0.0
","x: 216.01841735839844
y: 270.8675842285156
z: -0.0017370106652379036
","x: 213.75413513183594
y: 265.8047180175781
z: -0.0028170677833259106
","x: 211.48703002929688
y: 263.09765625
z: -0.004225427750498056
","x: 209.55918884277344
y: 261.2330322265625
z: -0.005379184614866972
","x: 208.83258056640625
y: 269.43768310546875
z: 0.00022580393124371767
","x: 205.8488006591797
y: 268.6363525390625
z: -0.0016617821529507637
","x: 204.00238037109375
y: 268.5499267578125
z: -0.003020581789314747
","x: 202.51980590820312
y: 268.4373779296875
z: -0.00378675595857203
","x: 208.54074096679688
y: 273.28570556640625
z: -0.0003151318524032831
","x: 206.93617248535156
y: 273.27825927734375
z: -0.002469920087605715
","x: 208.8285369873047
y: 273.5458068847656
z: -0.0027098616119474173
","x: 210.56861877441406
y: 273.42218017578125
z: -0.002193721942603588
","x: 208.80226135253906
y: 277.18609619140625
z: -0.0014018970541656017
","x: 207.5584259033203
y: 277.2933654785156
z: -0.0036770962178707123
","x: 209.5224151611328
y: 277.52752685546875
z: -0.0030187489464879036
","x: 211.23977661132812
y: 277.2333984375
z: -0.0019325596513226628
","x: 209.4844970703125
y: 281.1961975097656
z: -0.0028950355481356382
","x: 207.797119140625
y: 281.46185302734375
z: -0.004456704948097467
","x: 208.9275360107422
y: 281.5103454589844
z: -0.003975548781454563
","x: 210.13418579101562
y: 281.19488525390625
z: -0.003067294368520379
",,,,,,,,,,,,,,,,,,,,,
7,"x: 261.0644226074219
y: 219.18663024902344
z: -0.13439275324344635
visibility: 0.9998756051063538
","x: 264.24981689453125
y: 213.86831665039062
z: -0.11939387023448944
visibility: 0.9997544884681702
","x: 265.7156066894531
y: 214.55023193359375
z: -0.11943510919809341
visibility: 0.9997503757476807
","x: 266.9877624511719
y: 215.256591796875
z: -0.11946123838424683
visibility: 0.9997650980949402
","x: 260.1441650390625
y: 212.25787353515625
z: -0.11667245626449585
visibility: 0.9995966553688049
","x: 258.9515075683594
y: 211.9345703125
z: -0.11666686832904816
visibility: 0.9994899034500122
","x: 257.9145202636719
y: 211.71759033203125
z: -0.11664937436580658
visibility: 0.9994832277297974
","x: 268.7623596191406
y: 219.0687713623047
z: -0.027120936661958694
visibility: 0.9998417496681213
","x: 257.5426940917969
y: 215.00021362304688
z: -0.015875181183218956
visibility: 0.9990684390068054
","x: 263.3653564453125
y: 226.869873046875
z: -0.09999170899391174
visibility: 0.999871015548706
","x: 258.1793518066406
y: 225.6245574951172
z: -0.09597461670637131
visibility: 0.9997051954269409
","x: 277.69482421875
y: 258.7982482910156
z: -0.017772803083062172
visibility: 0.9998939037322998
","x: 243.79299926757812
y: 251.37376403808594
z: 0.060254208743572235
visibility: 0.9996413588523865
","x: 271.0311279296875
y: 304.9710693359375
z: -0.07345570623874664
visibility: 0.9886535406112671
","x: 241.4952850341797
y: 298.21612548828125
z: -0.01246395893394947
visibility: 0.9315971732139587
","x: 256.4285888671875
y: 320.86871337890625
z: -0.18005435168743134
visibility: 0.9742137789726257
","x: 247.80447387695312
y: 317.3183898925781
z: -0.18521395325660706
visibility: 0.95798259973526
","x: 251.958251953125
y: 329.84112548828125
z: -0.21900789439678192
visibility: 0.9484630227088928
","x: 245.66796875
y: 329.3211669921875
z: -0.22538261115550995
visibility: 0.936940610408783
","x: 250.249755859375
y: 320.7028503417969
z: -0.22825589776039124
visibility: 0.9500917196273804
","x: 248.2976531982422
y: 318.4259948730469
z: -0.2393844872713089
visibility: 0.9393667578697205
","x: 251.28924560546875
y: 318.0624694824219
z: -0.18573206663131714
visibility: 0.9324073195457458
","x: 247.5712432861328
y: 316.190673828125
z: -0.19604848325252533
visibility: 0.9361732006072998
","x: 265.7285461425781
y: 354.58819580078125
z: -0.03414427489042282
visibility: 0.9993319511413574
","x: 246.10556030273438
y: 354.28228759765625
z: 0.03430412709712982
visibility: 0.9996473789215088
","x: 263.5859375
y: 428.689697265625
z: -0.039986126124858856
visibility: 0.9684184193611145
","x: 240.63113403320312
y: 428.35931396484375
z: 0.027283554896712303
visibility: 0.9268507957458496
","x: 263.4050598144531
y: 499.840087890625
z: 0.06023747846484184
visibility: 0.9584941864013672
","x: 243.98085021972656
y: 497.0482177734375
z: 0.13120223581790924
visibility: 0.9632169604301453
","x: 265.2505187988281
y: 511.1653137207031
z: 0.06147734075784683
visibility: 0.8959601521492004
","x: 248.34251403808594
y: 509.4252014160156
z: 0.13350586593151093
visibility: 0.9484038352966309
","x: 252.69384765625
y: 517.9387817382812
z: -0.07512454688549042
visibility: 0.9604624509811401
","x: 237.54000854492188
y: 520.1688232421875
z: 0.028788750991225243
visibility: 0.961442768573761
","x: 252.10458374023438
y: 319.0450744628906
z: 0.0
","x: 250.71499633789062
y: 323.2096862792969
z: -2.864474845409859e-05
","x: 248.46971130371094
y: 326.77685546875
z: -0.0017341452185064554
","x: 246.4011688232422
y: 328.5674743652344
z: -0.0035931242164224386
","x: 244.73727416992188
y: 329.2690734863281
z: -0.005593398120254278
","x: 247.86752319335938
y: 327.23980712890625
z: -0.00602068891748786
","x: 244.2404022216797
y: 327.6277160644531
z: -0.009257236495614052
","x: 241.47225952148438
y: 327.35107421875
z: -0.010817144997417927
","x: 239.29104614257812
y: 326.80291748046875
z: -0.01168255228549242
","x: 247.73574829101562
y: 324.344970703125
z: -0.007723202928900719
","x: 243.45095825195312
y: 324.20220947265625
z: -0.011326887644827366
","x: 240.64230346679688
y: 323.7038879394531
z: -0.01212103571742773
","x: 238.47543334960938
y: 323.4878234863281
z: -0.012596186250448227
","x: 247.5968475341797
y: 320.8934020996094
z: -0.00913111213594675
","x: 243.57742309570312
y: 321.177490234375
z: -0.012120968662202358
","x: 240.95257568359375
y: 321.396484375
z: -0.012034585699439049
","x: 238.9169921875
y: 321.6572570800781
z: -0.01195326168090105
","x: 247.5880889892578
y: 317.3979797363281
z: -0.010449417866766453
","x: 244.68626403808594
y: 317.865234375
z: -0.012561534531414509
","x: 243.02618408203125
y: 318.5539855957031
z: -0.012402024120092392
","x: 241.6504364013672
y: 319.2382507324219
z: -0.012265441007912159
","x: 251.9401397705078
y: 319.4615478515625
z: 0.0
","x: 249.0230712890625
y: 324.9571228027344
z: -0.0007575278868898749
","x: 245.65675354003906
y: 329.00347900390625
z: -0.0034783529117703438
","x: 242.85964965820312
y: 330.7606201171875
z: -0.006238194648176432
","x: 240.77145385742188
y: 331.3042907714844
z: -0.009062481112778187
","x: 246.19708251953125
y: 328.84637451171875
z: -0.009859833866357803
","x: 242.2744903564453
y: 329.4205322265625
z: -0.014341745525598526
","x: 240.97274780273438
y: 330.48114013671875
z: -0.01590229757130146
","x: 240.9083251953125
y: 332.01202392578125
z: -0.01656658761203289
","x: 246.933349609375
y: 325.1658935546875
z: -0.011698625050485134
","x: 242.4434814453125
y: 324.7845458984375
z: -0.01661638543009758
","x: 239.9899139404297
y: 324.14105224609375
z: -0.017436662688851357
","x: 238.55093383789062
y: 323.923828125
z: -0.017890669405460358
","x: 247.73382568359375
y: 320.8686828613281
z: -0.013095109723508358
","x: 243.62245178222656
y: 319.87933349609375
z: -0.017467500641942024
","x: 240.96104431152344
y: 318.3760986328125
z: -0.017576931044459343
","x: 239.2415008544922
y: 317.4971008300781
z: -0.017483970150351524
","x: 248.4391326904297
y: 316.4525451660156
z: -0.0143458042293787
","x: 245.4878692626953
y: 314.2999572753906
z: -0.017728274688124657
","x: 243.5555877685547
y: 311.99664306640625
z: -0.017929526045918465
","x: 242.07150268554688
y: 310.2747497558594
z: -0.01786896213889122
"
8,"x: 261.0644226074219
y: 219.18663024902344
z: -0.13439275324344635
visibility: 0.9998756051063538
","x: 264.24981689453125
y: 213.86831665039062
z: -0.11939387023448944
visibility: 0.9997544884681702
","x: 265.7156066894531
y: 214.55023193359375
z: -0.11943510919809341
visibility: 0.9997503757476807
","x: 266.9877624511719
y: 215.256591796875
z: -0.11946123838424683
visibility: 0.9997650980949402
","x: 260.1441650390625
y: 212.25787353515625
z: -0.11667245626449585
visibility: 0.9995966553688049
","x: 258.9515075683594
y: 211.9345703125
z: -0.11666686832904816
visibility: 0.9994899034500122
","x: 257.9145202636719
y: 211.71759033203125
z: -0.11664937436580658
visibility: 0.9994832277297974
","x: 268.7623596191406
y: 219.0687713623047
z: -0.027120936661958694
visibility: 0.9998417496681213
","x: 257.5426940917969
y: 215.00021362304688
z: -0.015875181183218956
visibility: 0.9990684390068054
","x: 263.3653564453125
y: 226.869873046875
z: -0.09999170899391174
visibility: 0.999871015548706
","x: 258.1793518066406
y: 225.6245574951172
z: -0.09597461670637131
visibility: 0.9997051954269409
","x: 277.69482421875
y: 258.7982482910156
z: -0.017772803083062172
visibility: 0.9998939037322998
","x: 243.79299926757812
y: 251.37376403808594
z: 0.060254208743572235
visibility: 0.9996413588523865
","x: 271.0311279296875
y: 304.9710693359375
z: -0.07345570623874664
visibility: 0.9886535406112671
","x: 241.4952850341797
y: 298.21612548828125
z: -0.01246395893394947
visibility: 0.9315971732139587
","x: 256.4285888671875
y: 320.86871337890625
z: -0.18005435168743134
visibility: 0.9742137789726257
","x: 247.80447387695312
y: 317.3183898925781
z: -0.18521395325660706
visibility: 0.95798259973526
","x: 251.958251953125
y: 329.84112548828125
z: -0.21900789439678192
visibility: 0.9484630227088928
","x: 245.66796875
y: 329.3211669921875
z: -0.22538261115550995
visibility: 0.936940610408783
","x: 250.249755859375
y: 320.7028503417969
z: -0.22825589776039124
visibility: 0.9500917196273804
","x: 248.2976531982422
y: 318.4259948730469
z: -0.2393844872713089
visibility: 0.9393667578697205
","x: 251.28924560546875
y: 318.0624694824219
z: -0.18573206663131714
visibility: 0.9324073195457458
","x: 247.5712432861328
y: 316.190673828125
z: -0.19604848325252533
visibility: 0.9361732006072998
","x: 265.7285461425781
y: 354.58819580078125
z: -0.03414427489042282
visibility: 0.9993319511413574
","x: 246.10556030273438
y: 354.28228759765625
z: 0.03430412709712982
visibility: 0.9996473789215088
","x: 263.5859375
y: 428.689697265625
z: -0.039986126124858856
visibility: 0.9684184193611145
","x: 240.63113403320312
y: 428.35931396484375
z: 0.027283554896712303
visibility: 0.9268507957458496
","x: 263.4050598144531
y: 499.840087890625
z: 0.06023747846484184
visibility: 0.9584941864013672
","x: 243.98085021972656
y: 497.0482177734375
z: 0.13120223581790924
visibility: 0.9632169604301453
","x: 265.2505187988281
y: 511.1653137207031
z: 0.06147734075784683
visibility: 0.8959601521492004
","x: 248.34251403808594
y: 509.4252014160156
z: 0.13350586593151093
visibility: 0.9484038352966309
","x: 252.69384765625
y: 517.9387817382812
z: -0.07512454688549042
visibility: 0.9604624509811401
","x: 237.54000854492188
y: 520.1688232421875
z: 0.028788750991225243
visibility: 0.961442768573761
","x: 252.10458374023438
y: 319.0450744628906
z: 0.0
","x: 250.71499633789062
y: 323.2096862792969
z: -2.864474845409859e-05
","x: 248.46971130371094
y: 326.77685546875
z: -0.0017341452185064554
","x: 246.4011688232422
y: 328.5674743652344
z: -0.0035931242164224386
","x: 244.73727416992188
y: 329.2690734863281
z: -0.005593398120254278
","x: 247.86752319335938
y: 327.23980712890625
z: -0.00602068891748786
","x: 244.2404022216797
y: 327.6277160644531
z: -0.009257236495614052
","x: 241.47225952148438
y: 327.35107421875
z: -0.010817144997417927
","x: 239.29104614257812
y: 326.80291748046875
z: -0.01168255228549242
","x: 247.73574829101562
y: 324.344970703125
z: -0.007723202928900719
","x: 243.45095825195312
y: 324.20220947265625
z: -0.011326887644827366
","x: 240.64230346679688
y: 323.7038879394531
z: -0.01212103571742773
","x: 238.47543334960938
y: 323.4878234863281
z: -0.012596186250448227
","x: 247.5968475341797
y: 320.8934020996094
z: -0.00913111213594675
","x: 243.57742309570312
y: 321.177490234375
z: -0.012120968662202358
","x: 240.95257568359375
y: 321.396484375
z: -0.012034585699439049
","x: 238.9169921875
y: 321.6572570800781
z: -0.01195326168090105
","x: 247.5880889892578
y: 317.3979797363281
z: -0.010449417866766453
","x: 244.68626403808594
y: 317.865234375
z: -0.012561534531414509
","x: 243.02618408203125
y: 318.5539855957031
z: -0.012402024120092392
","x: 241.6504364013672
y: 319.2382507324219
z: -0.012265441007912159
","x: 251.9401397705078
y: 319.4615478515625
z: 0.0
","x: 249.0230712890625
y: 324.9571228027344
z: -0.0007575278868898749
","x: 245.65675354003906
y: 329.00347900390625
z: -0.0034783529117703438
","x: 242.85964965820312
y: 330.7606201171875
z: -0.006238194648176432
","x: 240.77145385742188
y: 331.3042907714844
z: -0.009062481112778187
","x: 246.19708251953125
y: 328.84637451171875
z: -0.009859833866357803
","x: 242.2744903564453
y: 329.4205322265625
z: -0.014341745525598526
","x: 240.97274780273438
y: 330.48114013671875
z: -0.01590229757130146
","x: 240.9083251953125
y: 332.01202392578125
z: -0.01656658761203289
","x: 246.933349609375
y: 325.1658935546875
z: -0.011698625050485134
","x: 242.4434814453125
y: 324.7845458984375
z: -0.01661638543009758
","x: 239.9899139404297
y: 324.14105224609375
z: -0.017436662688851357
","x: 238.55093383789062
y: 323.923828125
z: -0.017890669405460358
","x: 247.73382568359375
y: 320.8686828613281
z: -0.013095109723508358
","x: 243.62245178222656
y: 319.87933349609375
z: -0.017467500641942024
","x: 240.96104431152344
y: 318.3760986328125
z: -0.017576931044459343
","x: 239.2415008544922
y: 317.4971008300781
z: -0.017483970150351524
","x: 248.4391326904297
y: 316.4525451660156
z: -0.0143458042293787
","x: 245.4878692626953
y: 314.2999572753906
z: -0.017728274688124657
","x: 243.5555877685547
y: 311.99664306640625
z: -0.017929526045918465
","x: 242.07150268554688
y: 310.2747497558594
z: -0.01786896213889122
"
9,"x: 261.0644226074219
y: 219.18663024902344
z: -0.13439275324344635
visibility: 0.9998756051063538
","x: 264.24981689453125
y: 213.86831665039062
z: -0.11939387023448944
visibility: 0.9997544884681702
","x: 265.7156066894531
y: 214.55023193359375
z: -0.11943510919809341
visibility: 0.9997503757476807
","x: 266.9877624511719
y: 215.256591796875
z: -0.11946123838424683
visibility: 0.9997650980949402
","x: 260.1441650390625
y: 212.25787353515625
z: -0.11667245626449585
visibility: 0.9995966553688049
","x: 258.9515075683594
y: 211.9345703125
z: -0.11666686832904816
visibility: 0.9994899034500122
","x: 257.9145202636719
y: 211.71759033203125
z: -0.11664937436580658
visibility: 0.9994832277297974
","x: 268.7623596191406
y: 219.0687713623047
z: -0.027120936661958694
visibility: 0.9998417496681213
","x: 257.5426940917969
y: 215.00021362304688
z: -0.015875181183218956
visibility: 0.9990684390068054
","x: 263.3653564453125
y: 226.869873046875
z: -0.09999170899391174
visibility: 0.999871015548706
","x: 258.1793518066406
y: 225.6245574951172
z: -0.09597461670637131
visibility: 0.9997051954269409
","x: 277.69482421875
y: 258.7982482910156
z: -0.017772803083062172
visibility: 0.9998939037322998
","x: 243.79299926757812
y: 251.37376403808594
z: 0.060254208743572235
visibility: 0.9996413588523865
","x: 271.0311279296875
y: 304.9710693359375
z: -0.07345570623874664
visibility: 0.9886535406112671
","x: 241.4952850341797
y: 298.21612548828125
z: -0.01246395893394947
visibility: 0.9315971732139587
","x: 256.4285888671875
y: 320.86871337890625
z: -0.18005435168743134
visibility: 0.9742137789726257
","x: 247.80447387695312
y: 317.3183898925781
z: -0.18521395325660706
visibility: 0.95798259973526
","x: 251.958251953125
y: 329.84112548828125
z: -0.21900789439678192
visibility: 0.9484630227088928
","x: 245.66796875
y: 329.3211669921875
z: -0.22538261115550995
visibility: 0.936940610408783
","x: 250.249755859375
y: 320.7028503417969
z: -0.22825589776039124
visibility: 0.9500917196273804
","x: 248.2976531982422
y: 318.4259948730469
z: -0.2393844872713089
visibility: 0.9393667578697205
","x: 251.28924560546875
y: 318.0624694824219
z: -0.18573206663131714
visibility: 0.9324073195457458
","x: 247.5712432861328
y: 316.190673828125
z: -0.19604848325252533
visibility: 0.9361732006072998
","x: 265.7285461425781
y: 354.58819580078125
z: -0.03414427489042282
visibility: 0.9993319511413574
","x: 246.10556030273438
y: 354.28228759765625
z: 0.03430412709712982
visibility: 0.9996473789215088
","x: 263.5859375
y: 428.689697265625
z: -0.039986126124858856
visibility: 0.9684184193611145
","x: 240.63113403320312
y: 428.35931396484375
z: 0.027283554896712303
visibility: 0.9268507957458496
","x: 263.4050598144531
y: 499.840087890625
z: 0.06023747846484184
visibility: 0.9584941864013672
","x: 243.98085021972656
y: 497.0482177734375
z: 0.13120223581790924
visibility: 0.9632169604301453
","x: 265.2505187988281
y: 511.1653137207031
z: 0.06147734075784683
visibility: 0.8959601521492004
","x: 248.34251403808594
y: 509.4252014160156
z: 0.13350586593151093
visibility: 0.9484038352966309
","x: 252.69384765625
y: 517.9387817382812
z: -0.07512454688549042
visibility: 0.9604624509811401
","x: 237.54000854492188
y: 520.1688232421875
z: 0.028788750991225243
visibility: 0.961442768573761
","x: 252.10458374023438
y: 319.0450744628906
z: 0.0
","x: 250.71499633789062
y: 323.2096862792969
z: -2.864474845409859e-05
","x: 248.46971130371094
y: 326.77685546875
z: -0.0017341452185064554
","x: 246.4011688232422
y: 328.5674743652344
z: -0.0035931242164224386
","x: 244.73727416992188
y: 329.2690734863281
z: -0.005593398120254278
","x: 247.86752319335938
y: 327.23980712890625
z: -0.00602068891748786
","x: 244.2404022216797
y: 327.6277160644531
z: -0.009257236495614052
","x: 241.47225952148438
y: 327.35107421875
z: -0.010817144997417927
","x: 239.29104614257812
y: 326.80291748046875
z: -0.01168255228549242
","x: 247.73574829101562
y: 324.344970703125
z: -0.007723202928900719
","x: 243.45095825195312
y: 324.20220947265625
z: -0.011326887644827366
","x: 240.64230346679688
y: 323.7038879394531
z: -0.01212103571742773
","x: 238.47543334960938
y: 323.4878234863281
z: -0.012596186250448227
","x: 247.5968475341797
y: 320.8934020996094
z: -0.00913111213594675
","x: 243.57742309570312
y: 321.177490234375
z: -0.012120968662202358
","x: 240.95257568359375
y: 321.396484375
z: -0.012034585699439049
","x: 238.9169921875
y: 321.6572570800781
z: -0.01195326168090105
","x: 247.5880889892578
y: 317.3979797363281
z: -0.010449417866766453
","x: 244.68626403808594
y: 317.865234375
z: -0.012561534531414509
","x: 243.02618408203125
y: 318.5539855957031
z: -0.012402024120092392
","x: 241.6504364013672
y: 319.2382507324219
z: -0.012265441007912159
","x: 251.9401397705078
y: 319.4615478515625
z: 0.0
","x: 249.0230712890625
y: 324.9571228027344
z: -0.0007575278868898749
","x: 245.65675354003906
y: 329.00347900390625
z: -0.0034783529117703438
","x: 242.85964965820312
y: 330.7606201171875
z: -0.006238194648176432
","x: 240.77145385742188
y: 331.3042907714844
z: -0.009062481112778187
","x: 246.19708251953125
y: 328.84637451171875
z: -0.009859833866357803
","x: 242.2744903564453
y: 329.4205322265625
z: -0.014341745525598526
","x: 240.97274780273438
y: 330.48114013671875
z: -0.01590229757130146
","x: 240.9083251953125
y: 332.01202392578125
z: -0.01656658761203289
","x: 246.933349609375
y: 325.1658935546875
z: -0.011698625050485134
","x: 242.4434814453125
y: 324.7845458984375
z: -0.01661638543009758
","x: 239.9899139404297
y: 324.14105224609375
z: -0.017436662688851357
","x: 238.55093383789062
y: 323.923828125
z: -0.017890669405460358
","x: 247.73382568359375
y: 320.8686828613281
z: -0.013095109723508358
","x: 243.62245178222656
y: 319.87933349609375
z: -0.017467500641942024
","x: 240.96104431152344
y: 318.3760986328125
z: -0.017576931044459343
","x: 239.2415008544922
y: 317.4971008300781
z: -0.017483970150351524
","x: 248.4391326904297
y: 316.4525451660156
z: -0.0143458042293787
","x: 245.4878692626953
y: 314.2999572753906
z: -0.017728274688124657
","x: 243.5555877685547
y: 311.99664306640625
z: -0.017929526045918465
","x: 242.07150268554688
y: 310.2747497558594
z: -0.01786896213889122
"
10,"x: 259.9040832519531
y: 219.21893310546875
z: -0.22359251976013184
visibility: 0.9998806715011597
","x: 263.1821594238281
y: 213.38319396972656
z: -0.20838090777397156
visibility: 0.9997571110725403
","x: 264.58013916015625
y: 214.04034423828125
z: -0.2083893120288849
visibility: 0.9997542500495911
","x: 265.8768005371094
y: 214.75033569335938
z: -0.20840172469615936
visibility: 0.9997680187225342
","x: 260.0525207519531
y: 211.75367736816406
z: -0.2091863602399826
visibility: 0.999614953994751
","x: 258.2106628417969
y: 211.3841094970703
z: -0.20920607447624207
visibility: 0.9995173811912537
","x: 256.65277099609375
y: 211.0929718017578
z: -0.2092193067073822
visibility: 0.9995117783546448
","x: 268.3678894042969
y: 218.22543334960938
z: -0.09328875690698624
visibility: 0.9998281002044678
","x: 254.4332275390625
y: 214.03036499023438
z: -0.11052940785884857
visibility: 0.9991070628166199
","x: 262.1808776855469
y: 226.8867645263672
z: -0.1850486695766449
visibility: 0.999874472618103
","x: 258.0196533203125
y: 225.6302490234375
z: -0.18578678369522095
visibility: 0.9997236132621765
","x: 277.30474853515625
y: 260.3287048339844
z: -0.07253075391054153
visibility: 0.9998974800109863
","x: 238.8604278564453
y: 254.69073486328125
z: -0.04562796279788017
visibility: 0.9996604323387146
","x: 271.447265625
y: 308.2783203125
z: -0.11461339890956879
visibility: 0.9869778156280518
","x: 240.37985229492188
y: 309.2618713378906
z: -0.056053079664707184
visibility: 0.9291890263557434
","x: 259.5472717285156
y: 332.8016357421875
z: -0.23673835396766663
visibility: 0.9715971350669861
","x: 247.7401885986328
y: 346.0255126953125
z: -0.17073777318000793
visibility: 0.9527953267097473
","x: 255.382568359375
y: 330.642333984375
z: -0.2927529215812683
visibility: 0.9457975029945374
","x: 248.10365295410156
y: 361.2186279296875
z: -0.20721915364265442
visibility: 0.9301400780677795
","x: 250.72279357910156
y: 325.2623291015625
z: -0.3161054849624634
visibility: 0.9474186897277832
","x: 251.5046844482422
y: 359.00152587890625
z: -0.2291598618030548
visibility: 0.9328241944313049
","x: 252.22898864746094
y: 331.2170104980469
z: -0.2541576027870178
visibility: 0.9286962151527405
","x: 251.75282287597656
y: 353.045654296875
z: -0.18217340111732483
visibility: 0.9271493554115295
","x: 266.3603820800781
y: 355.7972412109375
z: -0.02153736725449562
visibility: 0.9993274211883545
","x: 246.0478057861328
y: 355.0665588378906
z: 0.021620966494083405
visibility: 0.9996379613876343
","x: 265.7652282714844
y: 430.97186279296875
z: -0.029249196872115135
visibility: 0.9712814092636108
","x: 240.77490234375
y: 428.76275634765625
z: 0.022122379392385483
visibility: 0.9335229396820068
","x: 263.1264343261719
y: 501.662109375
z: 0.09478139132261276
visibility: 0.9621425867080688
","x: 243.7187042236328
y: 498.7021179199219
z: 0.13911032676696777
visibility: 0.966377854347229
","x: 264.8408203125
y: 511.81341552734375
z: 0.09901048243045807
visibility: 0.8927998542785645
","x: 247.14634704589844
y: 509.7649841308594
z: 0.1431349217891693
visibility: 0.9474015235900879
","x: 253.19715881347656
y: 519.1155395507812
z: -0.028029169887304306
visibility: 0.9634542465209961
","x: 237.252197265625
y: 522.43212890625
z: 0.035410404205322266
visibility: 0.9643874764442444
",,,,,,,,,,,,,,,,,,,,,,,,,,,,,,,,,,,,,,,,,,
11,"x: 258.38262939453125
y: 223.8040771484375
z: -0.25018396973609924
visibility: 0.9998917579650879
","x: 261.9698486328125
y: 217.59666442871094
z: -0.23416347801685333
visibility: 0.9997785687446594
","x: 263.52728271484375
y: 218.0937957763672
z: -0.23419563472270966
visibility: 0.9997758865356445
","x: 264.835693359375
y: 218.6096954345703
z: -0.2342320680618286
visibility: 0.9997879266738892
","x: 257.8426513671875
y: 216.01779174804688
z: -0.23379512131214142
visibility: 0.9996503591537476
","x: 256.13897705078125
y: 215.47250366210938
z: -0.23381230235099792
visibility: 0.9995619654655457
","x: 254.75477600097656
y: 215.0045623779297
z: -0.23380053043365479
visibility: 0.9995561838150024
","x: 265.9838562011719
y: 220.91209411621094
z: -0.12066593021154404
visibility: 0.9998418092727661
","x: 252.45774841308594
y: 217.14524841308594
z: -0.12544532120227814
visibility: 0.9991884231567383
","x: 260.5810852050781
y: 230.2266082763672
z: -0.20923881232738495
visibility: 0.9998857378959656
","x: 255.60971069335938
y: 229.4920654296875
z: -0.20902006328105927
visibility: 0.9997494220733643
","x: 275.60589599609375
y: 261.8844299316406
z: -0.07088495045900345
visibility: 0.9999046325683594
","x: 236.20460510253906
y: 259.726318359375
z: -0.05110348016023636
visibility: 0.9996888041496277
","x: 277.4070129394531
y: 309.2991943359375
z: -0.12032411247491837
visibility: 0.986182689666748
","x: 232.17506408691406
y: 304.7622375488281
z: -0.11015628278255463
visibility: 0.9339069128036499
","x: 287.5713195800781
y: 335.3063659667969
z: -0.31207314133644104
visibility: 0.9726138114929199
","x: 225.8437042236328
y: 329.2655029296875
z: -0.30728963017463684
visibility: 0.9554380178451538
","x: 293.6271667480469
y: 341.3017578125
z: -0.3593035638332367
visibility: 0.9482319951057434
","x: 220.673095703125
y: 338.2066345214844
z: -0.3482913672924042
visibility: 0.9337638020515442
","x: 294.1692199707031
y: 337.47613525390625
z: -0.38917094469070435
visibility: 0.9502161145210266
","x: 221.5839080810547
y: 337.0473937988281
z: -0.3730345368385315
visibility: 0.9365661144256592
","x: 291.69647216796875
y: 336.1561584472656
z: -0.33041709661483765
visibility: 0.9325479865074158
","x: 224.0806121826172
y: 334.69610595703125
z: -0.3227413594722748
visibility: 0.9306449890136719
","x: 266.23907470703125
y: 360.10687255859375
z: -0.00851154513657093
visibility: 0.9993712306022644
","x: 246.0050048828125
y: 360.443115234375
z: 0.008589190430939198
visibility: 0.9996522068977356
","x: 263.88970947265625
y: 432.0345458984375
z: -0.1689419448375702
visibility: 0.9737813472747803
","x: 239.11537170410156
y: 433.73480224609375
z: -0.051559340208768845
visibility: 0.9394565224647522
","x: 257.0878601074219
y: 500.64312744140625
z: -0.02399573102593422
visibility: 0.9651367664337158
","x: 242.56158447265625
y: 500.576416015625
z: 0.08901184797286987
visibility: 0.9687824249267578
","x: 256.2505798339844
y: 510.7253723144531
z: -0.016426287591457367
visibility: 0.8976637125015259
","x: 246.1050567626953
y: 511.42022705078125
z: 0.09422221034765244
visibility: 0.9453607201576233
","x: 253.6992645263672
y: 519.52490234375
z: -0.14566290378570557
visibility: 0.9662716388702393
","x: 236.18765258789062
y: 524.1528930664062
z: -0.025215845555067062
visibility: 0.9662904739379883
","x: 221.0972900390625
y: 325.7875061035156
z: 0.0
","x: 217.34140014648438
y: 325.3070068359375
z: -0.00019636721117421985
","x: 213.74327087402344
y: 325.9924011230469
z: -0.0015413202345371246
","x: 211.26687622070312
y: 327.0025634765625
z: -0.0036336334887892008
","x: 209.07029724121094
y: 327.29266357421875
z: -0.005504300817847252
","x: 212.19540405273438
y: 333.0278015136719
z: -0.0005250739632174373
","x: 209.89459228515625
y: 337.50103759765625
z: -0.003089203732088208
","x: 209.25186157226562
y: 340.4226379394531
z: -0.004828044679015875
","x: 208.76766967773438
y: 342.9144592285156
z: -0.005886932369321585
","x: 213.865966796875
y: 335.0772399902344
z: -0.002456486225128174
","x: 212.90542602539062
y: 337.8341369628906
z: -0.005207514390349388
","x: 214.17425537109375
y: 335.7892150878906
z: -0.005475702229887247
","x: 215.12185668945312
y: 333.505615234375
z: -0.005121342372149229
","x: 216.0091552734375
y: 336.52276611328125
z: -0.0047555239871144295
","x: 215.0379638671875
y: 339.3559265136719
z: -0.007235902827233076
","x: 216.14840698242188
y: 337.0702819824219
z: -0.006261148490011692
","x: 216.8385467529297
y: 334.55535888671875
z: -0.005193857476115227
","x: 218.45828247070312
y: 337.655029296875
z: -0.0073545025661587715
","x: 217.56143188476562
y: 340.77044677734375
z: -0.008938329294323921
","x: 217.6872100830078
y: 338.88555908203125
z: -0.008174004964530468
","x: 217.57269287109375
y: 336.50994873046875
z: -0.007269613444805145
",,,,,,,,,,,,,,,,,,,,,
12,"x: 258.38262939453125
y: 223.8040771484375
z: -0.25018396973609924
visibility: 0.9998917579650879
","x: 261.9698486328125
y: 217.59666442871094
z: -0.23416347801685333
visibility: 0.9997785687446594
","x: 263.52728271484375
y: 218.0937957763672
z: -0.23419563472270966
visibility: 0.9997758865356445
","x: 264.835693359375
y: 218.6096954345703
z: -0.2342320680618286
visibility: 0.9997879266738892
","x: 257.8426513671875
y: 216.01779174804688
z: -0.23379512131214142
visibility: 0.9996503591537476
","x: 256.13897705078125
y: 215.47250366210938
z: -0.23381230235099792
visibility: 0.9995619654655457
","x: 254.75477600097656
y: 215.0045623779297
z: -0.23380053043365479
visibility: 0.9995561838150024
","x: 265.9838562011719
y: 220.91209411621094
z: -0.12066593021154404
visibility: 0.9998418092727661
","x: 252.45774841308594
y: 217.14524841308594
z: -0.12544532120227814
visibility: 0.9991884231567383
","x: 260.5810852050781
y: 230.2266082763672
z: -0.20923881232738495
visibility: 0.9998857378959656
","x: 255.60971069335938
y: 229.4920654296875
z: -0.20902006328105927
visibility: 0.9997494220733643
","x: 275.60589599609375
y: 261.8844299316406
z: -0.07088495045900345
visibility: 0.9999046325683594
","x: 236.20460510253906
y: 259.726318359375
z: -0.05110348016023636
visibility: 0.9996888041496277
","x: 277.4070129394531
y: 309.2991943359375
z: -0.12032411247491837
visibility: 0.986182689666748
","x: 232.17506408691406
y: 304.7622375488281
z: -0.11015628278255463
visibility: 0.9339069128036499
","x: 287.5713195800781
y: 335.3063659667969
z: -0.31207314133644104
visibility: 0.9726138114929199
","x: 225.8437042236328
y: 329.2655029296875
z: -0.30728963017463684
visibility: 0.9554380178451538
","x: 293.6271667480469
y: 341.3017578125
z: -0.3593035638332367
visibility: 0.9482319951057434
","x: 220.673095703125
y: 338.2066345214844
z: -0.3482913672924042
visibility: 0.9337638020515442
","x: 294.1692199707031
y: 337.47613525390625
z: -0.38917094469070435
visibility: 0.9502161145210266
","x: 221.5839080810547
y: 337.0473937988281
z: -0.3730345368385315
visibility: 0.9365661144256592
","x: 291.69647216796875
y: 336.1561584472656
z: -0.33041709661483765
visibility: 0.9325479865074158
","x: 224.0806121826172
y: 334.69610595703125
z: -0.3227413594722748
visibility: 0.9306449890136719
","x: 266.23907470703125
y: 360.10687255859375
z: -0.00851154513657093
visibility: 0.9993712306022644
","x: 246.0050048828125
y: 360.443115234375
z: 0.008589190430939198
visibility: 0.9996522068977356
","x: 263.88970947265625
y: 432.0345458984375
z: -0.1689419448375702
visibility: 0.9737813472747803
","x: 239.11537170410156
y: 433.73480224609375
z: -0.051559340208768845
visibility: 0.9394565224647522
","x: 257.0878601074219
y: 500.64312744140625
z: -0.02399573102593422
visibility: 0.9651367664337158
","x: 242.56158447265625
y: 500.576416015625
z: 0.08901184797286987
visibility: 0.9687824249267578
","x: 256.2505798339844
y: 510.7253723144531
z: -0.016426287591457367
visibility: 0.8976637125015259
","x: 246.1050567626953
y: 511.42022705078125
z: 0.09422221034765244
visibility: 0.9453607201576233
","x: 253.6992645263672
y: 519.52490234375
z: -0.14566290378570557
visibility: 0.9662716388702393
","x: 236.18765258789062
y: 524.1528930664062
z: -0.025215845555067062
visibility: 0.9662904739379883
","x: 221.0972900390625
y: 325.7875061035156
z: 0.0
","x: 217.34140014648438
y: 325.3070068359375
z: -0.00019636721117421985
","x: 213.74327087402344
y: 325.9924011230469
z: -0.0015413202345371246
","x: 211.26687622070312
y: 327.0025634765625
z: -0.0036336334887892008
","x: 209.07029724121094
y: 327.29266357421875
z: -0.005504300817847252
","x: 212.19540405273438
y: 333.0278015136719
z: -0.0005250739632174373
","x: 209.89459228515625
y: 337.50103759765625
z: -0.003089203732088208
","x: 209.25186157226562
y: 340.4226379394531
z: -0.004828044679015875
","x: 208.76766967773438
y: 342.9144592285156
z: -0.005886932369321585
","x: 213.865966796875
y: 335.0772399902344
z: -0.002456486225128174
","x: 212.90542602539062
y: 337.8341369628906
z: -0.005207514390349388
","x: 214.17425537109375
y: 335.7892150878906
z: -0.005475702229887247
","x: 215.12185668945312
y: 333.505615234375
z: -0.005121342372149229
","x: 216.0091552734375
y: 336.52276611328125
z: -0.0047555239871144295
","x: 215.0379638671875
y: 339.3559265136719
z: -0.007235902827233076
","x: 216.14840698242188
y: 337.0702819824219
z: -0.006261148490011692
","x: 216.8385467529297
y: 334.55535888671875
z: -0.005193857476115227
","x: 218.45828247070312
y: 337.655029296875
z: -0.0073545025661587715
","x: 217.56143188476562
y: 340.77044677734375
z: -0.008938329294323921
","x: 217.6872100830078
y: 338.88555908203125
z: -0.008174004964530468
","x: 217.57269287109375
y: 336.50994873046875
z: -0.007269613444805145
",,,,,,,,,,,,,,,,,,,,,
13,"x: 258.1878662109375
y: 223.84031677246094
z: -0.2774104177951813
visibility: 0.9998993873596191
","x: 261.6793518066406
y: 217.61294555664062
z: -0.26158326864242554
visibility: 0.9997929930686951
","x: 263.1854553222656
y: 218.15408325195312
z: -0.26161423325538635
visibility: 0.9997906684875488
","x: 264.5138244628906
y: 218.71336364746094
z: -0.2616528868675232
visibility: 0.9997991919517517
","x: 257.4744567871094
y: 216.0865478515625
z: -0.2590784728527069
visibility: 0.9996762871742249
","x: 255.6859893798828
y: 215.52633666992188
z: -0.25913453102111816
visibility: 0.999596357345581
","x: 254.24838256835938
y: 215.0196533203125
z: -0.2591441869735718
visibility: 0.9995903372764587
","x: 265.8775939941406
y: 221.6305389404297
z: -0.15494588017463684
visibility: 0.9998490810394287
","x: 252.3924102783203
y: 217.7071990966797
z: -0.14486543834209442
visibility: 0.9992494583129883
","x: 260.3878173828125
y: 230.24929809570312
z: -0.23753294348716736
visibility: 0.999894380569458
","x: 255.04263305664062
y: 229.50811767578125
z: -0.23445621132850647
visibility: 0.9997708201408386
","x: 275.6062927246094
y: 265.0129089355469
z: -0.08049680292606354
visibility: 0.9999062418937683
","x: 235.58323669433594
y: 262.3502197265625
z: -0.05735350772738457
visibility: 0.9997102618217468
","x: 284.8203430175781
y: 310.3399353027344
z: -0.19117893278598785
visibility: 0.9860969185829163
","x: 220.82254028320312
y: 304.48394775390625
z: -0.13219821453094482
visibility: 0.9398132562637329
","x: 290.5076904296875
y: 313.8034973144531
z: -0.42450612783432007
visibility: 0.9732980132102966
","x: 214.47610473632812
y: 296.90179443359375
z: -0.36060306429862976
visibility: 0.9595415592193604
","x: 293.9571228027344
y: 311.31640625
z: -0.47199544310569763
visibility: 0.9494947791099548
","x: 211.3095245361328
y: 294.2678527832031
z: -0.4021281599998474
visibility: 0.9395912885665894
","x: 292.02294921875
y: 304.8984375
z: -0.48353075981140137
visibility: 0.951522707939148
","x: 213.8793487548828
y: 290.2810363769531
z: -0.4147176742553711
visibility: 0.9421696662902832
","x: 290.35516357421875
y: 305.62884521484375
z: -0.43487483263015747
visibility: 0.9341849684715271
","x: 215.74322509765625
y: 291.0900573730469
z: -0.37158727645874023
visibility: 0.9365139007568359
","x: 265.31134033203125
y: 363.035888671875
z: -0.019092824310064316
visibility: 0.9993925094604492
","x: 243.8626708984375
y: 363.864013671875
z: 0.019104305654764175
visibility: 0.999648928642273
","x: 260.4772644042969
y: 431.9172668457031
z: -0.1431277096271515
visibility: 0.9758661985397339
","x: 237.66366577148438
y: 435.1788635253906
z: -0.0033747381530702114
visibility: 0.9441327452659607
","x: 257.0978088378906
y: 495.5267639160156
z: 0.04381454735994339
visibility: 0.9676460027694702
","x: 242.0481719970703
y: 501.433837890625
z: 0.1796530932188034
visibility: 0.970655620098114
","x: 256.861083984375
y: 501.4801330566406
z: 0.061203788965940475
visibility: 0.898655891418457
","x: 245.7891387939453
y: 511.49053955078125
z: 0.19195282459259033
visibility: 0.943595826625824
","x: 254.28765869140625
y: 518.8999633789062
z: -0.060743264853954315
visibility: 0.9686647057533264
","x: 236.80740356445312
y: 525.1590576171875
z: 0.07018431276082993
visibility: 0.9679768681526184
","x: 212.9779052734375
y: 294.0050048828125
z: 0.0
","x: 214.4380340576172
y: 290.1632995605469
z: -0.0015988056547939777
","x: 215.73138427734375
y: 286.76153564453125
z: -0.004772305488586426
","x: 216.8798370361328
y: 284.9975280761719
z: -0.00808683317154646
","x: 216.75059509277344
y: 285.0005798339844
z: -0.011176509782671928
","x: 212.2021026611328
y: 281.2273864746094
z: -0.0068555790930986404
","x: 212.81336975097656
y: 276.94183349609375
z: -0.011475238017737865
","x: 214.2993621826172
y: 274.681640625
z: -0.013802613131701946
","x: 215.9065399169922
y: 273.70111083984375
z: -0.015033720061182976
","x: 210.52166748046875
y: 284.33551025390625
z: -0.008561737835407257
","x: 212.3744354248047
y: 282.58856201171875
z: -0.012952186167240143
","x: 214.3260955810547
y: 283.45068359375
z: -0.012978149577975273
","x: 215.58900451660156
y: 284.3871154785156
z: -0.01269476767629385
","x: 209.87196350097656
y: 288.68670654296875
z: -0.010398722253739834
","x: 213.25057983398438
y: 288.26007080078125
z: -0.013745506294071674
","x: 214.8130340576172
y: 288.65289306640625
z: -0.01245502196252346
","x: 215.32461547851562
y: 288.6304016113281
z: -0.011431559920310974
","x: 209.97103881835938
y: 293.1004638671875
z: -0.012541868723928928
","x: 213.1044464111328
y: 292.68499755859375
z: -0.01481434516608715
","x: 214.48703002929688
y: 291.9195861816406
z: -0.014209844172000885
","x: 214.863037109375
y: 290.9948425292969
z: -0.013546655885875225
",,,,,,,,,,,,,,,,,,,,,
14,"x: 258.1878662109375
y: 223.84031677246094
z: -0.2774104177951813
visibility: 0.9998993873596191
","x: 261.6793518066406
y: 217.61294555664062
z: -0.26158326864242554
visibility: 0.9997929930686951
","x: 263.1854553222656
y: 218.15408325195312
z: -0.26161423325538635
visibility: 0.9997906684875488
","x: 264.5138244628906
y: 218.71336364746094
z: -0.2616528868675232
visibility: 0.9997991919517517
","x: 257.4744567871094
y: 216.0865478515625
z: -0.2590784728527069
visibility: 0.9996762871742249
","x: 255.6859893798828
y: 215.52633666992188
z: -0.25913453102111816
visibility: 0.999596357345581
","x: 254.24838256835938
y: 215.0196533203125
z: -0.2591441869735718
visibility: 0.9995903372764587
","x: 265.8775939941406
y: 221.6305389404297
z: -0.15494588017463684
visibility: 0.9998490810394287
","x: 252.3924102783203
y: 217.7071990966797
z: -0.14486543834209442
visibility: 0.9992494583129883
","x: 260.3878173828125
y: 230.24929809570312
z: -0.23753294348716736
visibility: 0.999894380569458
","x: 255.04263305664062
y: 229.50811767578125
z: -0.23445621132850647
visibility: 0.9997708201408386
","x: 275.6062927246094
y: 265.0129089355469
z: -0.08049680292606354
visibility: 0.9999062418937683
","x: 235.58323669433594
y: 262.3502197265625
z: -0.05735350772738457
visibility: 0.9997102618217468
","x: 284.8203430175781
y: 310.3399353027344
z: -0.19117893278598785
visibility: 0.9860969185829163
","x: 220.82254028320312
y: 304.48394775390625
z: -0.13219821453094482
visibility: 0.9398132562637329
","x: 290.5076904296875
y: 313.8034973144531
z: -0.42450612783432007
visibility: 0.9732980132102966
","x: 214.47610473632812
y: 296.90179443359375
z: -0.36060306429862976
visibility: 0.9595415592193604
","x: 293.9571228027344
y: 311.31640625
z: -0.47199544310569763
visibility: 0.9494947791099548
","x: 211.3095245361328
y: 294.2678527832031
z: -0.4021281599998474
visibility: 0.9395912885665894
","x: 292.02294921875
y: 304.8984375
z: -0.48353075981140137
visibility: 0.951522707939148
","x: 213.8793487548828
y: 290.2810363769531
z: -0.4147176742553711
visibility: 0.9421696662902832
","x: 290.35516357421875
y: 305.62884521484375
z: -0.43487483263015747
visibility: 0.9341849684715271
","x: 215.74322509765625
y: 291.0900573730469
z: -0.37158727645874023
visibility: 0.9365139007568359
","x: 265.31134033203125
y: 363.035888671875
z: -0.019092824310064316
visibility: 0.9993925094604492
","x: 243.8626708984375
y: 363.864013671875
z: 0.019104305654764175
visibility: 0.999648928642273
","x: 260.4772644042969
y: 431.9172668457031
z: -0.1431277096271515
visibility: 0.9758661985397339
","x: 237.66366577148438
y: 435.1788635253906
z: -0.0033747381530702114
visibility: 0.9441327452659607
","x: 257.0978088378906
y: 495.5267639160156
z: 0.04381454735994339
visibility: 0.9676460027694702
","x: 242.0481719970703
y: 501.433837890625
z: 0.1796530932188034
visibility: 0.970655620098114
","x: 256.861083984375
y: 501.4801330566406
z: 0.061203788965940475
visibility: 0.898655891418457
","x: 245.7891387939453
y: 511.49053955078125
z: 0.19195282459259033
visibility: 0.943595826625824
","x: 254.28765869140625
y: 518.8999633789062
z: -0.060743264853954315
visibility: 0.9686647057533264
","x: 236.80740356445312
y: 525.1590576171875
z: 0.07018431276082993
visibility: 0.9679768681526184
","x: 212.9779052734375
y: 294.0050048828125
z: 0.0
","x: 214.4380340576172
y: 290.1632995605469
z: -0.0015988056547939777
","x: 215.73138427734375
y: 286.76153564453125
z: -0.004772305488586426
","x: 216.8798370361328
y: 284.9975280761719
z: -0.00808683317154646
","x: 216.75059509277344
y: 285.0005798339844
z: -0.011176509782671928
","x: 212.2021026611328
y: 281.2273864746094
z: -0.0068555790930986404
","x: 212.81336975097656
y: 276.94183349609375
z: -0.011475238017737865
","x: 214.2993621826172
y: 274.681640625
z: -0.013802613131701946
","x: 215.9065399169922
y: 273.70111083984375
z: -0.015033720061182976
","x: 210.52166748046875
y: 284.33551025390625
z: -0.008561737835407257
","x: 212.3744354248047
y: 282.58856201171875
z: -0.012952186167240143
","x: 214.3260955810547
y: 283.45068359375
z: -0.012978149577975273
","x: 215.58900451660156
y: 284.3871154785156
z: -0.01269476767629385
","x: 209.87196350097656
y: 288.68670654296875
z: -0.010398722253739834
","x: 213.25057983398438
y: 288.26007080078125
z: -0.013745506294071674
","x: 214.8130340576172
y: 288.65289306640625
z: -0.01245502196252346
","x: 215.32461547851562
y: 288.6304016113281
z: -0.011431559920310974
","x: 209.97103881835938
y: 293.1004638671875
z: -0.012541868723928928
","x: 213.1044464111328
y: 292.68499755859375
z: -0.01481434516608715
","x: 214.48703002929688
y: 291.9195861816406
z: -0.014209844172000885
","x: 214.863037109375
y: 290.9948425292969
z: -0.013546655885875225
",,,,,,,,,,,,,,,,,,,,,
15,"x: 260.44793701171875
y: 223.33499145507812
z: -0.13553158938884735
visibility: 0.9999090433120728
","x: 263.4016418457031
y: 217.24905395507812
z: -0.12141726911067963
visibility: 0.9998127222061157
","x: 264.8258361816406
y: 217.74549865722656
z: -0.12142690271139145
visibility: 0.9998105764389038
","x: 266.22357177734375
y: 218.26168823242188
z: -0.12141772359609604
visibility: 0.9998180270195007
","x: 259.6081237792969
y: 215.64901733398438
z: -0.11568744480609894
visibility: 0.9997076988220215
","x: 258.1385498046875
y: 215.02235412597656
z: -0.11569766700267792
visibility: 0.9996355175971985
","x: 256.76470947265625
y: 214.4705352783203
z: -0.11563433706760406
visibility: 0.9996302723884583
","x: 267.9510803222656
y: 221.18768310546875
z: -0.026480678468942642
visibility: 0.9998635053634644
","x: 254.33912658691406
y: 216.77120971679688
z: -0.0011053051566705108
visibility: 0.9993227124214172
","x: 262.53070068359375
y: 229.7623291015625
z: -0.09954740852117538
visibility: 0.999904453754425
","x: 257.7197570800781
y: 228.83767700195312
z: -0.09250793606042862
visibility: 0.9997931718826294
","x: 276.8275146484375
y: 262.64990234375
z: -0.018775369971990585
visibility: 0.9999153017997742
","x: 238.9904022216797
y: 257.4834899902344
z: 0.09352482110261917
visibility: 0.999737024307251
","x: 289.8985900878906
y: 295.4269104003906
z: -0.12805405259132385
visibility: 0.9873856902122498
","x: 223.2967987060547
y: 297.5601806640625
z: -0.0055104587227106094
visibility: 0.9435413479804993
","x: 287.88250732421875
y: 307.99884033203125
z: -0.38325321674346924
visibility: 0.9757400155067444
","x: 224.09652709960938
y: 286.58148193359375
z: -0.23740729689598083
visibility: 0.9629518389701843
","x: 287.31866455078125
y: 317.203857421875
z: -0.3762769401073456
visibility: 0.9538561701774597
","x: 224.24522399902344
y: 292.2493896484375
z: -0.27636486291885376
visibility: 0.9443389773368835
","x: 283.7320556640625
y: 313.41046142578125
z: -0.4382871687412262
visibility: 0.9556924104690552
","x: 228.69277954101562
y: 289.9823913574219
z: -0.28617945313453674
visibility: 0.9467062950134277
","x: 282.6671447753906
y: 310.6957702636719
z: -0.40018415451049805
visibility: 0.9395797252655029
","x: 229.69805908203125
y: 288.2867736816406
z: -0.24768118560314178
visibility: 0.9412066340446472
","x: 265.06927490234375
y: 360.6007385253906
z: -0.04807672277092934
visibility: 0.9994432330131531
","x: 244.29827880859375
y: 362.15228271484375
z: 0.04810992628335953
visibility: 0.9996816515922546
","x: 256.5001525878906
y: 431.0366516113281
z: -0.0607561357319355
visibility: 0.9780295491218567
","x: 238.1104278564453
y: 431.65667724609375
z: 0.0011060576653108
visibility: 0.9485000371932983
","x: 271.7302551269531
y: 494.16754150390625
z: 0.07136094570159912
visibility: 0.9705755710601807
","x: 242.08248901367188
y: 502.4162292480469
z: 0.10256941616535187
visibility: 0.9732050895690918
","x: 278.734130859375
y: 499.56964111328125
z: 0.08065970242023468
visibility: 0.903481662273407
","x: 246.22781372070312
y: 514.0057373046875
z: 0.10485991090536118
visibility: 0.9476722478866577
","x: 263.89111328125
y: 519.43505859375
z: -0.009080706164240837
visibility: 0.9713411927223206
","x: 229.0655517578125
y: 525.0347290039062
z: 0.013555428013205528
visibility: 0.9704658389091492
","x: 227.86993408203125
y: 280.18768310546875
z: 0.0
","x: 231.90184020996094
y: 281.6006164550781
z: -0.0014955124352127314
","x: 234.97544860839844
y: 285.43743896484375
z: -0.0036983946338295937
","x: 236.88209533691406
y: 289.8770751953125
z: -0.005675557069480419
","x: 238.42037963867188
y: 292.99945068359375
z: -0.0076453229412436485
","x: 232.86212158203125
y: 289.709716796875
z: -0.007499996572732925
","x: 233.15196228027344
y: 298.96417236328125
z: -0.010507103055715561
","x: 232.89703369140625
y: 303.7843017578125
z: -0.011352652683854103
","x: 232.6616668701172
y: 307.3145751953125
z: -0.011810312047600746
","x: 230.16751098632812
y: 290.4100646972656
z: -0.008591708727180958
","x: 230.83604431152344
y: 299.69439697265625
z: -0.011928033083677292
","x: 231.1320343017578
y: 304.96478271484375
z: -0.01243514008820057
","x: 231.3907928466797
y: 308.676513671875
z: -0.012797696515917778
","x: 227.71604919433594
y: 290.5213623046875
z: -0.009426914155483246
","x: 228.22918701171875
y: 298.6304016113281
z: -0.012659038417041302
","x: 228.62240600585938
y: 303.7354431152344
z: -0.013113783672451973
","x: 228.9294891357422
y: 307.2303466796875
z: -0.013331636786460876
","x: 225.5130157470703
y: 290.2232360839844
z: -0.01025855541229248
","x: 225.4341583251953
y: 296.2865295410156
z: -0.013065689243376255
","x: 225.6348419189453
y: 299.96942138671875
z: -0.013748129829764366
","x: 225.85899353027344
y: 302.63812255859375
z: -0.014082632027566433
","x: 286.98028564453125
y: 306.199462890625
z: 0.0
","x: 283.2378845214844
y: 306.74578857421875
z: -0.0038608687464147806
","x: 280.0522766113281
y: 309.7970275878906
z: -0.006593727506697178
","x: 278.0608825683594
y: 313.24072265625
z: -0.008249467238783836
","x: 276.87677001953125
y: 316.12109375
z: -0.009813494980335236
","x: 282.5106506347656
y: 314.2289123535156
z: -0.01093636266887188
","x: 282.2342529296875
y: 323.9068603515625
z: -0.013439315371215343
","x: 282.1850891113281
y: 328.503662109375
z: -0.013476320542395115
","x: 282.5708312988281
y: 331.59893798828125
z: -0.01314230915158987
","x: 285.1503601074219
y: 315.4625244140625
z: -0.00995197705924511
","x: 284.5386962890625
y: 325.7322692871094
z: -0.01260906271636486
","x: 284.23846435546875
y: 331.1836242675781
z: -0.012178770266473293
","x: 284.3257141113281
y: 334.75164794921875
z: -0.011728336103260517
","x: 287.2419128417969
y: 316.39508056640625
z: -0.00866060983389616
","x: 286.5520935058594
y: 325.14141845703125
z: -0.011375928297638893
","x: 286.14703369140625
y: 330.4474182128906
z: -0.011536136269569397
","x: 285.9640808105469
y: 334.154541015625
z: -0.011411953717470169
","x: 288.9025573730469
y: 317.176025390625
z: -0.007440816145390272
","x: 288.41546630859375
y: 323.8168029785156
z: -0.009868022054433823
","x: 288.1563720703125
y: 327.9228210449219
z: -0.010443494655191898
","x: 287.94683837890625
y: 330.9012451171875
z: -0.01059732399880886
"
16,"x: 260.44793701171875
y: 223.33499145507812
z: -0.13553158938884735
visibility: 0.9999090433120728
","x: 263.4016418457031
y: 217.24905395507812
z: -0.12141726911067963
visibility: 0.9998127222061157
","x: 264.8258361816406
y: 217.74549865722656
z: -0.12142690271139145
visibility: 0.9998105764389038
","x: 266.22357177734375
y: 218.26168823242188
z: -0.12141772359609604
visibility: 0.9998180270195007
","x: 259.6081237792969
y: 215.64901733398438
z: -0.11568744480609894
visibility: 0.9997076988220215
","x: 258.1385498046875
y: 215.02235412597656
z: -0.11569766700267792
visibility: 0.9996355175971985
","x: 256.76470947265625
y: 214.4705352783203
z: -0.11563433706760406
visibility: 0.9996302723884583
","x: 267.9510803222656
y: 221.18768310546875
z: -0.026480678468942642
visibility: 0.9998635053634644
","x: 254.33912658691406
y: 216.77120971679688
z: -0.0011053051566705108
visibility: 0.9993227124214172
","x: 262.53070068359375
y: 229.7623291015625
z: -0.09954740852117538
visibility: 0.999904453754425
","x: 257.7197570800781
y: 228.83767700195312
z: -0.09250793606042862
visibility: 0.9997931718826294
","x: 276.8275146484375
y: 262.64990234375
z: -0.018775369971990585
visibility: 0.9999153017997742
","x: 238.9904022216797
y: 257.4834899902344
z: 0.09352482110261917
visibility: 0.999737024307251
","x: 289.8985900878906
y: 295.4269104003906
z: -0.12805405259132385
visibility: 0.9873856902122498
","x: 223.2967987060547
y: 297.5601806640625
z: -0.0055104587227106094
visibility: 0.9435413479804993
","x: 287.88250732421875
y: 307.99884033203125
z: -0.38325321674346924
visibility: 0.9757400155067444
","x: 224.09652709960938
y: 286.58148193359375
z: -0.23740729689598083
visibility: 0.9629518389701843
","x: 287.31866455078125
y: 317.203857421875
z: -0.3762769401073456
visibility: 0.9538561701774597
","x: 224.24522399902344
y: 292.2493896484375
z: -0.27636486291885376
visibility: 0.9443389773368835
","x: 283.7320556640625
y: 313.41046142578125
z: -0.4382871687412262
visibility: 0.9556924104690552
","x: 228.69277954101562
y: 289.9823913574219
z: -0.28617945313453674
visibility: 0.9467062950134277
","x: 282.6671447753906
y: 310.6957702636719
z: -0.40018415451049805
visibility: 0.9395797252655029
","x: 229.69805908203125
y: 288.2867736816406
z: -0.24768118560314178
visibility: 0.9412066340446472
","x: 265.06927490234375
y: 360.6007385253906
z: -0.04807672277092934
visibility: 0.9994432330131531
","x: 244.29827880859375
y: 362.15228271484375
z: 0.04810992628335953
visibility: 0.9996816515922546
","x: 256.5001525878906
y: 431.0366516113281
z: -0.0607561357319355
visibility: 0.9780295491218567
","x: 238.1104278564453
y: 431.65667724609375
z: 0.0011060576653108
visibility: 0.9485000371932983
","x: 271.7302551269531
y: 494.16754150390625
z: 0.07136094570159912
visibility: 0.9705755710601807
","x: 242.08248901367188
y: 502.4162292480469
z: 0.10256941616535187
visibility: 0.9732050895690918
","x: 278.734130859375
y: 499.56964111328125
z: 0.08065970242023468
visibility: 0.903481662273407
","x: 246.22781372070312
y: 514.0057373046875
z: 0.10485991090536118
visibility: 0.9476722478866577
","x: 263.89111328125
y: 519.43505859375
z: -0.009080706164240837
visibility: 0.9713411927223206
","x: 229.0655517578125
y: 525.0347290039062
z: 0.013555428013205528
visibility: 0.9704658389091492
","x: 227.86993408203125
y: 280.18768310546875
z: 0.0
","x: 231.90184020996094
y: 281.6006164550781
z: -0.0014955124352127314
","x: 234.97544860839844
y: 285.43743896484375
z: -0.0036983946338295937
","x: 236.88209533691406
y: 289.8770751953125
z: -0.005675557069480419
","x: 238.42037963867188
y: 292.99945068359375
z: -0.0076453229412436485
","x: 232.86212158203125
y: 289.709716796875
z: -0.007499996572732925
","x: 233.15196228027344
y: 298.96417236328125
z: -0.010507103055715561
","x: 232.89703369140625
y: 303.7843017578125
z: -0.011352652683854103
","x: 232.6616668701172
y: 307.3145751953125
z: -0.011810312047600746
","x: 230.16751098632812
y: 290.4100646972656
z: -0.008591708727180958
","x: 230.83604431152344
y: 299.69439697265625
z: -0.011928033083677292
","x: 231.1320343017578
y: 304.96478271484375
z: -0.01243514008820057
","x: 231.3907928466797
y: 308.676513671875
z: -0.012797696515917778
","x: 227.71604919433594
y: 290.5213623046875
z: -0.009426914155483246
","x: 228.22918701171875
y: 298.6304016113281
z: -0.012659038417041302
","x: 228.62240600585938
y: 303.7354431152344
z: -0.013113783672451973
","x: 228.9294891357422
y: 307.2303466796875
z: -0.013331636786460876
","x: 225.5130157470703
y: 290.2232360839844
z: -0.01025855541229248
","x: 225.4341583251953
y: 296.2865295410156
z: -0.013065689243376255
","x: 225.6348419189453
y: 299.96942138671875
z: -0.013748129829764366
","x: 225.85899353027344
y: 302.63812255859375
z: -0.014082632027566433
","x: 286.98028564453125
y: 306.199462890625
z: 0.0
","x: 283.2378845214844
y: 306.74578857421875
z: -0.0038608687464147806
","x: 280.0522766113281
y: 309.7970275878906
z: -0.006593727506697178
","x: 278.0608825683594
y: 313.24072265625
z: -0.008249467238783836
","x: 276.87677001953125
y: 316.12109375
z: -0.009813494980335236
","x: 282.5106506347656
y: 314.2289123535156
z: -0.01093636266887188
","x: 282.2342529296875
y: 323.9068603515625
z: -0.013439315371215343
","x: 282.1850891113281
y: 328.503662109375
z: -0.013476320542395115
","x: 282.5708312988281
y: 331.59893798828125
z: -0.01314230915158987
","x: 285.1503601074219
y: 315.4625244140625
z: -0.00995197705924511
","x: 284.5386962890625
y: 325.7322692871094
z: -0.01260906271636486
","x: 284.23846435546875
y: 331.1836242675781
z: -0.012178770266473293
","x: 284.3257141113281
y: 334.75164794921875
z: -0.011728336103260517
","x: 287.2419128417969
y: 316.39508056640625
z: -0.00866060983389616
","x: 286.5520935058594
y: 325.14141845703125
z: -0.011375928297638893
","x: 286.14703369140625
y: 330.4474182128906
z: -0.011536136269569397
","x: 285.9640808105469
y: 334.154541015625
z: -0.011411953717470169
","x: 288.9025573730469
y: 317.176025390625
z: -0.007440816145390272
","x: 288.41546630859375
y: 323.8168029785156
z: -0.009868022054433823
","x: 288.1563720703125
y: 327.9228210449219
z: -0.010443494655191898
","x: 287.94683837890625
y: 330.9012451171875
z: -0.01059732399880886
"
17,"x: 260.44793701171875
y: 223.33499145507812
z: -0.13553158938884735
visibility: 0.9999090433120728
","x: 263.4016418457031
y: 217.24905395507812
z: -0.12141726911067963
visibility: 0.9998127222061157
","x: 264.8258361816406
y: 217.74549865722656
z: -0.12142690271139145
visibility: 0.9998105764389038
","x: 266.22357177734375
y: 218.26168823242188
z: -0.12141772359609604
visibility: 0.9998180270195007
","x: 259.6081237792969
y: 215.64901733398438
z: -0.11568744480609894
visibility: 0.9997076988220215
","x: 258.1385498046875
y: 215.02235412597656
z: -0.11569766700267792
visibility: 0.9996355175971985
","x: 256.76470947265625
y: 214.4705352783203
z: -0.11563433706760406
visibility: 0.9996302723884583
","x: 267.9510803222656
y: 221.18768310546875
z: -0.026480678468942642
visibility: 0.9998635053634644
","x: 254.33912658691406
y: 216.77120971679688
z: -0.0011053051566705108
visibility: 0.9993227124214172
","x: 262.53070068359375
y: 229.7623291015625
z: -0.09954740852117538
visibility: 0.999904453754425
","x: 257.7197570800781
y: 228.83767700195312
z: -0.09250793606042862
visibility: 0.9997931718826294
","x: 276.8275146484375
y: 262.64990234375
z: -0.018775369971990585
visibility: 0.9999153017997742
","x: 238.9904022216797
y: 257.4834899902344
z: 0.09352482110261917
visibility: 0.999737024307251
","x: 289.8985900878906
y: 295.4269104003906
z: -0.12805405259132385
visibility: 0.9873856902122498
","x: 223.2967987060547
y: 297.5601806640625
z: -0.0055104587227106094
visibility: 0.9435413479804993
","x: 287.88250732421875
y: 307.99884033203125
z: -0.38325321674346924
visibility: 0.9757400155067444
","x: 224.09652709960938
y: 286.58148193359375
z: -0.23740729689598083
visibility: 0.9629518389701843
","x: 287.31866455078125
y: 317.203857421875
z: -0.3762769401073456
visibility: 0.9538561701774597
","x: 224.24522399902344
y: 292.2493896484375
z: -0.27636486291885376
visibility: 0.9443389773368835
","x: 283.7320556640625
y: 313.41046142578125
z: -0.4382871687412262
visibility: 0.9556924104690552
","x: 228.69277954101562
y: 289.9823913574219
z: -0.28617945313453674
visibility: 0.9467062950134277
","x: 282.6671447753906
y: 310.6957702636719
z: -0.40018415451049805
visibility: 0.9395797252655029
","x: 229.69805908203125
y: 288.2867736816406
z: -0.24768118560314178
visibility: 0.9412066340446472
","x: 265.06927490234375
y: 360.6007385253906
z: -0.04807672277092934
visibility: 0.9994432330131531
","x: 244.29827880859375
y: 362.15228271484375
z: 0.04810992628335953
visibility: 0.9996816515922546
","x: 256.5001525878906
y: 431.0366516113281
z: -0.0607561357319355
visibility: 0.9780295491218567
","x: 238.1104278564453
y: 431.65667724609375
z: 0.0011060576653108
visibility: 0.9485000371932983
","x: 271.7302551269531
y: 494.16754150390625
z: 0.07136094570159912
visibility: 0.9705755710601807
","x: 242.08248901367188
y: 502.4162292480469
z: 0.10256941616535187
visibility: 0.9732050895690918
","x: 278.734130859375
y: 499.56964111328125
z: 0.08065970242023468
visibility: 0.903481662273407
","x: 246.22781372070312
y: 514.0057373046875
z: 0.10485991090536118
visibility: 0.9476722478866577
","x: 263.89111328125
y: 519.43505859375
z: -0.009080706164240837
visibility: 0.9713411927223206
","x: 229.0655517578125
y: 525.0347290039062
z: 0.013555428013205528
visibility: 0.9704658389091492
","x: 227.86993408203125
y: 280.18768310546875
z: 0.0
","x: 231.90184020996094
y: 281.6006164550781
z: -0.0014955124352127314
","x: 234.97544860839844
y: 285.43743896484375
z: -0.0036983946338295937
","x: 236.88209533691406
y: 289.8770751953125
z: -0.005675557069480419
","x: 238.42037963867188
y: 292.99945068359375
z: -0.0076453229412436485
","x: 232.86212158203125
y: 289.709716796875
z: -0.007499996572732925
","x: 233.15196228027344
y: 298.96417236328125
z: -0.010507103055715561
","x: 232.89703369140625
y: 303.7843017578125
z: -0.011352652683854103
","x: 232.6616668701172
y: 307.3145751953125
z: -0.011810312047600746
","x: 230.16751098632812
y: 290.4100646972656
z: -0.008591708727180958
","x: 230.83604431152344
y: 299.69439697265625
z: -0.011928033083677292
","x: 231.1320343017578
y: 304.96478271484375
z: -0.01243514008820057
","x: 231.3907928466797
y: 308.676513671875
z: -0.012797696515917778
","x: 227.71604919433594
y: 290.5213623046875
z: -0.009426914155483246
","x: 228.22918701171875
y: 298.6304016113281
z: -0.012659038417041302
","x: 228.62240600585938
y: 303.7354431152344
z: -0.013113783672451973
","x: 228.9294891357422
y: 307.2303466796875
z: -0.013331636786460876
","x: 225.5130157470703
y: 290.2232360839844
z: -0.01025855541229248
","x: 225.4341583251953
y: 296.2865295410156
z: -0.013065689243376255
","x: 225.6348419189453
y: 299.96942138671875
z: -0.013748129829764366
","x: 225.85899353027344
y: 302.63812255859375
z: -0.014082632027566433
","x: 286.98028564453125
y: 306.199462890625
z: 0.0
","x: 283.2378845214844
y: 306.74578857421875
z: -0.0038608687464147806
","x: 280.0522766113281
y: 309.7970275878906
z: -0.006593727506697178
","x: 278.0608825683594
y: 313.24072265625
z: -0.008249467238783836
","x: 276.87677001953125
y: 316.12109375
z: -0.009813494980335236
","x: 282.5106506347656
y: 314.2289123535156
z: -0.01093636266887188
","x: 282.2342529296875
y: 323.9068603515625
z: -0.013439315371215343
","x: 282.1850891113281
y: 328.503662109375
z: -0.013476320542395115
","x: 282.5708312988281
y: 331.59893798828125
z: -0.01314230915158987
","x: 285.1503601074219
y: 315.4625244140625
z: -0.00995197705924511
","x: 284.5386962890625
y: 325.7322692871094
z: -0.01260906271636486
","x: 284.23846435546875
y: 331.1836242675781
z: -0.012178770266473293
","x: 284.3257141113281
y: 334.75164794921875
z: -0.011728336103260517
","x: 287.2419128417969
y: 316.39508056640625
z: -0.00866060983389616
","x: 286.5520935058594
y: 325.14141845703125
z: -0.011375928297638893
","x: 286.14703369140625
y: 330.4474182128906
z: -0.011536136269569397
","x: 285.9640808105469
y: 334.154541015625
z: -0.011411953717470169
","x: 288.9025573730469
y: 317.176025390625
z: -0.007440816145390272
","x: 288.41546630859375
y: 323.8168029785156
z: -0.009868022054433823
","x: 288.1563720703125
y: 327.9228210449219
z: -0.010443494655191898
","x: 287.94683837890625
y: 330.9012451171875
z: -0.01059732399880886
"
18,"x: 265.03973388671875
y: 228.1310272216797
z: -0.10769356787204742
visibility: 0.9999173283576965
","x: 268.34954833984375
y: 222.27093505859375
z: -0.09332481771707535
visibility: 0.9998297691345215
","x: 269.9261169433594
y: 222.96937561035156
z: -0.09333516657352448
visibility: 0.9998275637626648
","x: 271.3760070800781
y: 223.6941680908203
z: -0.09331947565078735
visibility: 0.9998340606689453
","x: 264.82110595703125
y: 220.424072265625
z: -0.08865790069103241
visibility: 0.9997355341911316
","x: 263.70989990234375
y: 219.8557891845703
z: -0.08866031467914581
visibility: 0.9996702075004578
","x: 262.60986328125
y: 219.37513732910156
z: -0.08863355219364166
visibility: 0.9996657371520996
","x: 273.7106018066406
y: 227.19744873046875
z: -0.004121461883187294
visibility: 0.999875545501709
","x: 262.02459716796875
y: 222.7265167236328
z: 0.018406441435217857
visibility: 0.9993878602981567
","x: 267.09521484375
y: 235.40892028808594
z: -0.07378433644771576
visibility: 0.9999127388000488
","x: 262.56463623046875
y: 233.72784423828125
z: -0.06751921772956848
visibility: 0.9998126029968262
","x: 282.04290771484375
y: 270.01324462890625
z: 0.0030409637838602066
visibility: 0.9999220371246338
","x: 246.49481201171875
y: 260.06640625
z: 0.08921746909618378
visibility: 0.9997594356536865
","x: 288.872802734375
y: 301.0068664550781
z: -0.08488106727600098
visibility: 0.9880990982055664
","x: 234.17385864257812
y: 298.1703796386719
z: 0.00935030821710825
visibility: 0.945178747177124
","x: 284.38861083984375
y: 319.4268493652344
z: -0.2549290657043457
visibility: 0.976988673210144
","x: 240.9248504638672
y: 307.2391052246094
z: -0.2002636194229126
visibility: 0.9654205441474915
","x: 283.40582275390625
y: 329.06439208984375
z: -0.2975761890411377
visibility: 0.9562063813209534
","x: 243.18136596679688
y: 315.2076416015625
z: -0.2653484344482422
visibility: 0.9476794600486755
","x: 280.56817626953125
y: 323.9743347167969
z: -0.311601459980011
visibility: 0.957893431186676
","x: 246.18582153320312
y: 311.37640380859375
z: -0.2557823061943054
visibility: 0.9498732089996338
","x: 279.8359375
y: 321.058349609375
z: -0.26319974660873413
visibility: 0.9421813488006592
","x: 246.07211303710938
y: 308.1436767578125
z: -0.20628583431243896
visibility: 0.9442580342292786
","x: 266.03631591796875
y: 367.9760437011719
z: -0.04835480824112892
visibility: 0.9994750618934631
","x: 245.89276123046875
y: 365.5162048339844
z: 0.04842441529035568
visibility: 0.9997027516365051
","x: 262.2118225097656
y: 441.5873718261719
z: -0.07180466502904892
visibility: 0.9800366759300232
","x: 237.40542602539062
y: 431.66632080078125
z: 0.016851196065545082
visibility: 0.9531390070915222
","x: 281.94146728515625
y: 503.0049133300781
z: 0.01594802364706993
visibility: 0.9732575416564941
","x: 241.29083251953125
y: 502.525390625
z: 0.12163947522640228
visibility: 0.9755649566650391
","x: 287.265869140625
y: 512.617431640625
z: 0.017557796090841293
visibility: 0.9063951969146729
","x: 245.32293701171875
y: 514.2694702148438
z: 0.12758925557136536
visibility: 0.951179563999176
","x: 268.8115539550781
y: 523.5774536132812
z: -0.08925710618495941
visibility: 0.9736506342887878
","x: 224.53945922851562
y: 521.9534912109375
z: 0.01640825718641281
visibility: 0.9727305173873901
","x: 244.49095153808594
y: 305.6752014160156
z: 0.0
","x: 248.07998657226562
y: 309.29681396484375
z: -0.0011594388633966446
","x: 250.83692932128906
y: 315.0330810546875
z: -0.0029310695827007294
","x: 252.75904846191406
y: 319.7885437011719
z: -0.0046843960881233215
","x: 254.2989959716797
y: 323.2197570800781
z: -0.006477660499513149
","x: 248.07827758789062
y: 313.8977355957031
z: -0.005376187153160572
","x: 247.4757080078125
y: 320.404052734375
z: -0.007984263822436333
","x: 246.90078735351562
y: 324.2547607421875
z: -0.00902315229177475
","x: 246.37586975097656
y: 327.0718994140625
z: -0.00961616262793541
","x: 245.78201293945312
y: 313.2024841308594
z: -0.006285638082772493
","x: 244.86288452148438
y: 320.50225830078125
z: -0.009251669049263
","x: 244.3740692138672
y: 324.6020812988281
z: -0.010082447901368141
","x: 243.92132568359375
y: 327.2179870605469
z: -0.010683621279895306
","x: 243.6028594970703
y: 312.565673828125
z: -0.007023698650300503
","x: 242.70872497558594
y: 319.2944030761719
z: -0.009683369658887386
","x: 242.27655029296875
y: 323.42193603515625
z: -0.009838028810918331
","x: 241.87826538085938
y: 326.1800842285156
z: -0.00995650328695774
","x: 241.66769409179688
y: 312.00384521484375
z: -0.007772513199597597
","x: 240.6297149658203
y: 317.22265625
z: -0.00992477498948574
","x: 240.060302734375
y: 320.3794860839844
z: -0.01015530340373516
","x: 239.58731079101562
y: 322.5140075683594
z: -0.010214296169579029
",,,,,,,,,,,,,,,,,,,,,
19,"x: 265.03973388671875
y: 228.1310272216797
z: -0.10769356787204742
visibility: 0.9999173283576965
","x: 268.34954833984375
y: 222.27093505859375
z: -0.09332481771707535
visibility: 0.9998297691345215
","x: 269.9261169433594
y: 222.96937561035156
z: -0.09333516657352448
visibility: 0.9998275637626648
","x: 271.3760070800781
y: 223.6941680908203
z: -0.09331947565078735
visibility: 0.9998340606689453
","x: 264.82110595703125
y: 220.424072265625
z: -0.08865790069103241
visibility: 0.9997355341911316
","x: 263.70989990234375
y: 219.8557891845703
z: -0.08866031467914581
visibility: 0.9996702075004578
","x: 262.60986328125
y: 219.37513732910156
z: -0.08863355219364166
visibility: 0.9996657371520996
","x: 273.7106018066406
y: 227.19744873046875
z: -0.004121461883187294
visibility: 0.999875545501709
","x: 262.02459716796875
y: 222.7265167236328
z: 0.018406441435217857
visibility: 0.9993878602981567
","x: 267.09521484375
y: 235.40892028808594
z: -0.07378433644771576
visibility: 0.9999127388000488
","x: 262.56463623046875
y: 233.72784423828125
z: -0.06751921772956848
visibility: 0.9998126029968262
","x: 282.04290771484375
y: 270.01324462890625
z: 0.0030409637838602066
visibility: 0.9999220371246338
","x: 246.49481201171875
y: 260.06640625
z: 0.08921746909618378
visibility: 0.9997594356536865
","x: 288.872802734375
y: 301.0068664550781
z: -0.08488106727600098
visibility: 0.9880990982055664
","x: 234.17385864257812
y: 298.1703796386719
z: 0.00935030821710825
visibility: 0.945178747177124
","x: 284.38861083984375
y: 319.4268493652344
z: -0.2549290657043457
visibility: 0.976988673210144
","x: 240.9248504638672
y: 307.2391052246094
z: -0.2002636194229126
visibility: 0.9654205441474915
","x: 283.40582275390625
y: 329.06439208984375
z: -0.2975761890411377
visibility: 0.9562063813209534
","x: 243.18136596679688
y: 315.2076416015625
z: -0.2653484344482422
visibility: 0.9476794600486755
","x: 280.56817626953125
y: 323.9743347167969
z: -0.311601459980011
visibility: 0.957893431186676
","x: 246.18582153320312
y: 311.37640380859375
z: -0.2557823061943054
visibility: 0.9498732089996338
","x: 279.8359375
y: 321.058349609375
z: -0.26319974660873413
visibility: 0.9421813488006592
","x: 246.07211303710938
y: 308.1436767578125
z: -0.20628583431243896
visibility: 0.9442580342292786
","x: 266.03631591796875
y: 367.9760437011719
z: -0.04835480824112892
visibility: 0.9994750618934631
","x: 245.89276123046875
y: 365.5162048339844
z: 0.04842441529035568
visibility: 0.9997027516365051
","x: 262.2118225097656
y: 441.5873718261719
z: -0.07180466502904892
visibility: 0.9800366759300232
","x: 237.40542602539062
y: 431.66632080078125
z: 0.016851196065545082
visibility: 0.9531390070915222
","x: 281.94146728515625
y: 503.0049133300781
z: 0.01594802364706993
visibility: 0.9732575416564941
","x: 241.29083251953125
y: 502.525390625
z: 0.12163947522640228
visibility: 0.9755649566650391
","x: 287.265869140625
y: 512.617431640625
z: 0.017557796090841293
visibility: 0.9063951969146729
","x: 245.32293701171875
y: 514.2694702148438
z: 0.12758925557136536
visibility: 0.951179563999176
","x: 268.8115539550781
y: 523.5774536132812
z: -0.08925710618495941
visibility: 0.9736506342887878
","x: 224.53945922851562
y: 521.9534912109375
z: 0.01640825718641281
visibility: 0.9727305173873901
","x: 244.49095153808594
y: 305.6752014160156
z: 0.0
","x: 248.07998657226562
y: 309.29681396484375
z: -0.0011594388633966446
","x: 250.83692932128906
y: 315.0330810546875
z: -0.0029310695827007294
","x: 252.75904846191406
y: 319.7885437011719
z: -0.0046843960881233215
","x: 254.2989959716797
y: 323.2197570800781
z: -0.006477660499513149
","x: 248.07827758789062
y: 313.8977355957031
z: -0.005376187153160572
","x: 247.4757080078125
y: 320.404052734375
z: -0.007984263822436333
","x: 246.90078735351562
y: 324.2547607421875
z: -0.00902315229177475
","x: 246.37586975097656
y: 327.0718994140625
z: -0.00961616262793541
","x: 245.78201293945312
y: 313.2024841308594
z: -0.006285638082772493
","x: 244.86288452148438
y: 320.50225830078125
z: -0.009251669049263
","x: 244.3740692138672
y: 324.6020812988281
z: -0.010082447901368141
","x: 243.92132568359375
y: 327.2179870605469
z: -0.010683621279895306
","x: 243.6028594970703
y: 312.565673828125
z: -0.007023698650300503
","x: 242.70872497558594
y: 319.2944030761719
z: -0.009683369658887386
","x: 242.27655029296875
y: 323.42193603515625
z: -0.009838028810918331
","x: 241.87826538085938
y: 326.1800842285156
z: -0.00995650328695774
","x: 241.66769409179688
y: 312.00384521484375
z: -0.007772513199597597
","x: 240.6297149658203
y: 317.22265625
z: -0.00992477498948574
","x: 240.060302734375
y: 320.3794860839844
z: -0.01015530340373516
","x: 239.58731079101562
y: 322.5140075683594
z: -0.010214296169579029
",,,,,,,,,,,,,,,,,,,,,
20,"x: 270.64031982421875
y: 231.92361450195312
z: -0.23641619086265564
visibility: 0.9999247789382935
","x: 274.0877990722656
y: 225.2144775390625
z: -0.22484755516052246
visibility: 0.9998440146446228
","x: 275.7691955566406
y: 225.79307556152344
z: -0.22487600147724152
visibility: 0.9998422861099243
","x: 277.2074279785156
y: 226.3675079345703
z: -0.22485658526420593
visibility: 0.9998469948768616
","x: 269.78436279296875
y: 223.5663604736328
z: -0.21970054507255554
visibility: 0.9997593760490417
","x: 268.5916442871094
y: 223.08799743652344
z: -0.21973958611488342
visibility: 0.9997005462646484
","x: 267.280517578125
y: 222.7377166748047
z: -0.21976809203624725
visibility: 0.9996960163116455
","x: 279.47064208984375
y: 229.92367553710938
z: -0.12883801758289337
visibility: 0.9998836517333984
","x: 266.6118469238281
y: 226.14991760253906
z: -0.1042589321732521
visibility: 0.9994431138038635
","x: 273.0484924316406
y: 239.0552978515625
z: -0.19880665838718414
visibility: 0.9999192357063293
","x: 268.146240234375
y: 237.83201599121094
z: -0.192132368683815
visibility: 0.9998288750648499
","x: 288.7855224609375
y: 275.5090026855469
z: -0.09128084778785706
visibility: 0.9999233484268188
","x: 252.08987426757812
y: 266.05267333984375
z: -0.00774307269603014
visibility: 0.9997794032096863
","x: 287.320068359375
y: 324.6611022949219
z: -0.21086151897907257
visibility: 0.9880008101463318
","x: 246.64761352539062
y: 312.2762451171875
z: -0.10017238557338715
visibility: 0.9405503273010254
","x: 285.3144836425781
y: 315.83282470703125
z: -0.41345930099487305
visibility: 0.97792649269104
","x: 252.4906005859375
y: 311.42193603515625
z: -0.3378821909427643
visibility: 0.9662238955497742
","x: 285.0514221191406
y: 312.33636474609375
z: -0.45873719453811646
visibility: 0.9581054449081421
","x: 253.34959411621094
y: 311.8337097167969
z: -0.381353497505188
visibility: 0.9489167928695679
","x: 284.77484130859375
y: 305.0369873046875
z: -0.46220946311950684
visibility: 0.9596208930015564
","x: 254.32473754882812
y: 306.1556701660156
z: -0.3900200128555298
visibility: 0.9508825540542603
","x: 283.9506530761719
y: 304.9913635253906
z: -0.4189193844795227
visibility: 0.9435135126113892
","x: 255.0521240234375
y: 305.63092041015625
z: -0.34741508960723877
visibility: 0.9443732500076294
","x: 274.7142333984375
y: 374.1987609863281
z: -0.048180170357227325
visibility: 0.9994649291038513
","x: 253.66590881347656
y: 370.40228271484375
z: 0.04820031300187111
visibility: 0.9997235536575317
","x: 270.38623046875
y: 446.1300048828125
z: -0.0005606245249509811
visibility: 0.981782078742981
","x: 238.23867797851562
y: 431.47650146484375
z: -0.0005068579339422286
visibility: 0.9575767517089844
","x: 283.2361755371094
y: 504.2016906738281
z: 0.1484478861093521
visibility: 0.9756110906600952
","x: 241.2852325439453
y: 502.3763732910156
z: 0.1300535500049591
visibility: 0.9777947664260864
","x: 287.5497131347656
y: 513.81494140625
z: 0.15551666915416718
visibility: 0.9049046635627747
","x: 245.26614379882812
y: 513.8836059570312
z: 0.13159991800785065
visibility: 0.9544818997383118
","x: 271.1024169921875
y: 522.7042846679688
z: 0.041218843311071396
visibility: 0.9757581353187561
","x: 225.27291870117188
y: 520.0951538085938
z: 0.03443562611937523
visibility: 0.9751346707344055
",,,,,,,,,,,,,,,,,,,,,,"x: 284.6336975097656
y: 315.2422790527344
z: 0.0
