uscmakers/ReverseChoreography/data/9_easily_bruno_major.csv
,NOSE,LEFT_EYE_INNER,LEFT_EYE,LEFT_EYE_OUTER,RIGHT_EYE_INNER,RIGHT_EYE,RIGHT_EYE_OUTER,LEFT_EAR,RIGHT_EAR,MOUTH_LEFT,MOUTH_RIGHT,LEFT_SHOULDER,RIGHT_SHOULDER,LEFT_ELBOW,RIGHT_ELBOW,LEFT_WRIST,RIGHT_WRIST,LEFT_PINKY,RIGHT_PINKY,LEFT_INDEX,RIGHT_INDEX,LEFT_THUMB,RIGHT_THUMB,LEFT_HIP,RIGHT_HIP,LEFT_KNEE,RIGHT_KNEE,LEFT_ANKLE,RIGHT_ANKLE,LEFT_HEEL,RIGHT_HEEL,LEFT_FOOT_INDEX,RIGHT_FOOT_INDEX,WRIST,THUMB_CPC,THUMB_MCP,THUMB_IP,THUMB_TIP,INDEX_FINGER_MCP,INDEX_FINGER_PIP,INDEX_FINGER_DIP,INDEX_FINGER_TIP,MIDDLE_FINGER_MCP,MIDDLE_FINGER_PIP,MIDDLE_FINGER_DIP,MIDDLE_FINGER_TIP,RING_FINGER_PIP,RING_FINGER_DIP,RING_FINGER_TIP,RING_FINGER_MCP,PINKY_MCP,PINKY_PIP,PINKY_DIP,PINKY_TIP,WRIST2,THUMB_CPC2,THUMB_MCP2,THUMB_IP2,THUMB_TIP2,INDEX_FINGER_MCP2,INDEX_FINGER_PIP2,INDEX_FINGER_DIP2,INDEX_FINGER_TIP2,MIDDLE_FINGER_MCP2,MIDDLE_FINGER_PIP2,MIDDLE_FINGER_DIP2,MIDDLE_FINGER_TIP2,RING_FINGER_PIP2,RING_FINGER_DIP2,RING_FINGER_TIP2,RING_FINGER_MCP2,PINKY_MCP2,PINKY_PIP2,PINKY_DIP2,PINKY_TIP2
0,"x: 233.65782165527344
y: 219.70541381835938
z: -0.27287420630455017
visibility: 0.9999988079071045
","x: 235.9764404296875
y: 212.62905883789062
z: -0.2581966817378998
visibility: 0.9999979734420776
","x: 237.322998046875
y: 212.71664428710938
z: -0.2581977844238281
visibility: 0.9999978542327881
","x: 238.7292022705078
y: 212.7962646484375
z: -0.25823426246643066
visibility: 0.9999973773956299
","x: 232.24282836914062
y: 212.36788940429688
z: -0.25608161091804504
visibility: 0.9999980926513672
","x: 231.00216674804688
y: 212.38497924804688
z: -0.25611478090286255
visibility: 0.9999977350234985
","x: 229.7747802734375
y: 212.47779846191406
z: -0.2561103105545044
visibility: 0.999997615814209
","x: 241.0274200439453
y: 215.6126251220703
z: -0.1512030065059662
visibility: 0.9999979734420776
","x: 227.8909149169922
y: 214.97169494628906
z: -0.14253056049346924
visibility: 0.9999984502792358
","x: 236.0940399169922
y: 226.51113891601562
z: -0.23101171851158142
visibility: 0.9999992847442627
","x: 231.50765991210938
y: 226.896240234375
z: -0.22888191044330597
visibility: 0.9999994039535522
","x: 252.10015869140625
y: 258.36004638671875
z: -0.10166670382022858
visibility: 0.9999955892562866
","x: 213.97830200195312
y: 250.83433532714844
z: -0.03469507768750191
visibility: 0.9999914169311523
","x: 259.9550476074219
y: 305.3417663574219
z: -0.20329549908638
visibility: 0.998969316482544
","x: 192.3497772216797
y: 280.7192077636719
z: -0.08106295764446259
visibility: 0.9974804520606995
","x: 247.76287841796875
y: 292.10711669921875
z: -0.4153636395931244
visibility: 0.9981594681739807
","x: 206.9410858154297
y: 294.65771484375
z: -0.2580529451370239
visibility: 0.9926589131355286
","x: 242.7083282470703
y: 290.8150329589844
z: -0.4643813967704773
visibility: 0.9947015643119812
","x: 212.88531494140625
y: 299.3949279785156
z: -0.2939850091934204
visibility: 0.9769319891929626
","x: 242.09344482421875
y: 282.1640625
z: -0.4648929536342621
visibility: 0.9946240186691284
","x: 215.0195770263672
y: 293.8895263671875
z: -0.2985192835330963
visibility: 0.9757260680198669
","x: 243.3250274658203
y: 281.54888916015625
z: -0.41938382387161255
visibility: 0.9887192845344543
","x: 213.41000366210938
y: 291.3810119628906
z: -0.26293087005615234
visibility: 0.9643233418464661
","x: 242.4222869873047
y: 348.0296630859375
z: -0.03894822672009468
visibility: 0.9995408058166504
","x: 221.2731475830078
y: 348.133544921875
z: 0.038913968950510025
visibility: 0.999724805355072
","x: 236.43109130859375
y: 421.9119567871094
z: -0.03842782601714134
visibility: 0.9902205467224121
","x: 220.86305236816406
y: 425.6357421875
z: 0.033606432378292084
visibility: 0.969439685344696
","x: 235.61688232421875
y: 496.28399658203125
z: 0.0714377611875534
visibility: 0.9910663962364197
","x: 230.1971435546875
y: 494.59918212890625
z: 0.15699388086795807
visibility: 0.9736604690551758
","x: 237.28091430664062
y: 508.2229919433594
z: 0.07564794272184372
visibility: 0.8830215930938721
","x: 233.4778289794922
y: 505.6718444824219
z: 0.1625668704509735
visibility: 0.9170811176300049
","x: 232.13653564453125
y: 516.9368896484375
z: -0.041446465998888016
visibility: 0.9863662719726562
","x: 224.20677185058594
y: 516.96533203125
z: 0.05710456892848015
visibility: 0.9699838161468506
","x: 206.9703826904297
y: 290.2909240722656
z: 0.0
","x: 210.2208251953125
y: 285.7601318359375
z: -0.0011358160991221666
","x: 214.04432678222656
y: 283.5055236816406
z: -0.0027727398555725813
","x: 217.22296142578125
y: 281.9857177734375
z: -0.0044842977076768875
","x: 219.50926208496094
y: 279.147216796875
z: -0.006216676905751228
","x: 216.39614868164062
y: 291.7837219238281
z: -0.002959422068670392
","x: 220.61021423339844
y: 295.4353942871094
z: -0.00481374841183424
","x: 222.91534423828125
y: 297.6757507324219
z: -0.005749356932938099
","x: 224.73828125
y: 299.6789245605469
z: -0.006432532798498869
","x: 215.4144287109375
y: 296.2446594238281
z: -0.004126673098653555
","x: 219.6566925048828
y: 300.8783264160156
z: -0.005744811613112688
","x: 222.1274871826172
y: 303.8760681152344
z: -0.006532197818160057
","x: 224.01988220214844
y: 306.28857421875
z: -0.007293250877410173
","x: 213.99954223632812
y: 299.7025146484375
z: -0.005356024485081434
","x: 217.76242065429688
y: 304.08551025390625
z: -0.007253606803715229
","x: 220.0966033935547
y: 306.732177734375
z: -0.00821374449878931
","x: 221.91590881347656
y: 308.6712951660156
z: -0.00895670335739851
","x: 212.23741149902344
y: 302.1996765136719
z: -0.006711989641189575
","x: 214.62973022460938
y: 306.5025939941406
z: -0.00851825438439846
","x: 216.10629272460938
y: 309.244873046875
z: -0.009312125854194164
","x: 217.39137268066406
y: 311.41583251953125
z: -0.009861302562057972
","x: 247.53662109375
y: 291.24835205078125
z: 0.0
","x: 246.7585906982422
y: 283.2905578613281
z: -0.001550203887745738
","x: 244.322265625
y: 276.8301696777344
z: -0.0028432602994143963
","x: 242.0799560546875
y: 272.2549743652344
z: -0.0038514984771609306
","x: 240.65634155273438
y: 268.5764465332031
z: -0.004841856192797422
","x: 240.11888122558594
y: 281.41650390625
z: -0.003960469737648964
","x: 235.44747924804688
y: 279.1565246582031
z: -0.005511918105185032
","x: 232.60409545898438
y: 278.20556640625
z: -0.006166082341223955
","x: 230.39781188964844
y: 277.79815673828125
z: -0.006611714605242014
","x: 239.26229858398438
y: 285.96734619140625
z: -0.004408006556332111
","x: 233.9699249267578
y: 284.77471923828125
z: -0.005719210486859083
","x: 230.78106689453125
y: 284.2424011230469
z: -0.006247422192245722
","x: 228.33425903320312
y: 284.2364807128906
z: -0.00686284527182579
","x: 239.03482055664062
y: 290.228515625
z: -0.004831764381378889
","x: 234.2396240234375
y: 289.5328063964844
z: -0.006616262253373861
","x: 231.36692810058594
y: 289.07861328125
z: -0.007671601139008999
","x: 229.08157348632812
y: 288.9162292480469
z: -0.008478406816720963
","x: 239.31536865234375
y: 294.0198974609375
z: -0.005336191970854998
","x: 235.77513122558594
y: 294.2613525390625
z: -0.007273030001670122
","x: 233.83323669433594
y: 294.4854431152344
z: -0.008165335282683372
","x: 232.19827270507812
y: 294.75994873046875
z: -0.008772237226366997
"
1,"x: 233.65782165527344
y: 219.70541381835938
z: -0.27287420630455017
visibility: 0.9999988079071045
","x: 235.9764404296875
y: 212.62905883789062
z: -0.2581966817378998
visibility: 0.9999979734420776
","x: 237.322998046875
y: 212.71664428710938
z: -0.2581977844238281
visibility: 0.9999978542327881
","x: 238.7292022705078
y: 212.7962646484375
z: -0.25823426246643066
visibility: 0.9999973773956299
","x: 232.24282836914062
y: 212.36788940429688
z: -0.25608161091804504
visibility: 0.9999980926513672
","x: 231.00216674804688
y: 212.38497924804688
z: -0.25611478090286255
visibility: 0.9999977350234985
","x: 229.7747802734375
y: 212.47779846191406
z: -0.2561103105545044
visibility: 0.999997615814209
","x: 241.0274200439453
y: 215.6126251220703
z: -0.1512030065059662
visibility: 0.9999979734420776
","x: 227.8909149169922
y: 214.97169494628906
z: -0.14253056049346924
visibility: 0.9999984502792358
","x: 236.0940399169922
y: 226.51113891601562
z: -0.23101171851158142
visibility: 0.9999992847442627
","x: 231.50765991210938
y: 226.896240234375
z: -0.22888191044330597
visibility: 0.9999994039535522
","x: 252.10015869140625
y: 258.36004638671875
z: -0.10166670382022858
visibility: 0.9999955892562866
","x: 213.97830200195312
y: 250.83433532714844
z: -0.03469507768750191
visibility: 0.9999914169311523
","x: 259.9550476074219
y: 305.3417663574219
z: -0.20329549908638
visibility: 0.998969316482544
","x: 192.3497772216797
y: 280.7192077636719
z: -0.08106295764446259
visibility: 0.9974804520606995
","x: 247.76287841796875
y: 292.10711669921875
z: -0.4153636395931244
visibility: 0.9981594681739807
","x: 206.9410858154297
y: 294.65771484375
z: -0.2580529451370239
visibility: 0.9926589131355286
","x: 242.7083282470703
y: 290.8150329589844
z: -0.4643813967704773
visibility: 0.9947015643119812
","x: 212.88531494140625
y: 299.3949279785156
z: -0.2939850091934204
visibility: 0.9769319891929626
","x: 242.09344482421875
y: 282.1640625
z: -0.4648929536342621
visibility: 0.9946240186691284
","x: 215.0195770263672
y: 293.8895263671875
z: -0.2985192835330963
visibility: 0.9757260680198669
","x: 243.3250274658203
y: 281.54888916015625
z: -0.41938382387161255
visibility: 0.9887192845344543
","x: 213.41000366210938
y: 291.3810119628906
z: -0.26293087005615234
visibility: 0.9643233418464661
","x: 242.4222869873047
y: 348.0296630859375
z: -0.03894822672009468
visibility: 0.9995408058166504
","x: 221.2731475830078
y: 348.133544921875
z: 0.038913968950510025
visibility: 0.999724805355072
","x: 236.43109130859375
y: 421.9119567871094
z: -0.03842782601714134
visibility: 0.9902205467224121
","x: 220.86305236816406
y: 425.6357421875
z: 0.033606432378292084
visibility: 0.969439685344696
","x: 235.61688232421875
y: 496.28399658203125
z: 0.0714377611875534
visibility: 0.9910663962364197
","x: 230.1971435546875
y: 494.59918212890625
z: 0.15699388086795807
visibility: 0.9736604690551758
","x: 237.28091430664062
y: 508.2229919433594
z: 0.07564794272184372
visibility: 0.8830215930938721
","x: 233.4778289794922
y: 505.6718444824219
z: 0.1625668704509735
visibility: 0.9170811176300049
","x: 232.13653564453125
y: 516.9368896484375
z: -0.041446465998888016
visibility: 0.9863662719726562
","x: 224.20677185058594
y: 516.96533203125
z: 0.05710456892848015
visibility: 0.9699838161468506
","x: 206.9703826904297
y: 290.2909240722656
z: 0.0
","x: 210.2208251953125
y: 285.7601318359375
z: -0.0011358160991221666
","x: 214.04432678222656
y: 283.5055236816406
z: -0.0027727398555725813
","x: 217.22296142578125
y: 281.9857177734375
z: -0.0044842977076768875
","x: 219.50926208496094
y: 279.147216796875
z: -0.006216676905751228
","x: 216.39614868164062
y: 291.7837219238281
z: -0.002959422068670392
","x: 220.61021423339844
y: 295.4353942871094
z: -0.00481374841183424
","x: 222.91534423828125
y: 297.6757507324219
z: -0.005749356932938099
","x: 224.73828125
y: 299.6789245605469
z: -0.006432532798498869
","x: 215.4144287109375
y: 296.2446594238281
z: -0.004126673098653555
","x: 219.6566925048828
y: 300.8783264160156
z: -0.005744811613112688
","x: 222.1274871826172
y: 303.8760681152344
z: -0.006532197818160057
","x: 224.01988220214844
y: 306.28857421875
z: -0.007293250877410173
","x: 213.99954223632812
y: 299.7025146484375
z: -0.005356024485081434
","x: 217.76242065429688
y: 304.08551025390625
z: -0.007253606803715229
","x: 220.0966033935547
y: 306.732177734375
z: -0.00821374449878931
","x: 221.91590881347656
y: 308.6712951660156
z: -0.00895670335739851
","x: 212.23741149902344
y: 302.1996765136719
z: -0.006711989641189575
","x: 214.62973022460938
y: 306.5025939941406
z: -0.00851825438439846
","x: 216.10629272460938
y: 309.244873046875
z: -0.009312125854194164
","x: 217.39137268066406
y: 311.41583251953125
z: -0.009861302562057972
","x: 247.53662109375
y: 291.24835205078125
z: 0.0
","x: 246.7585906982422
y: 283.2905578613281
z: -0.001550203887745738
","x: 244.322265625
y: 276.8301696777344
z: -0.0028432602994143963
","x: 242.0799560546875
y: 272.2549743652344
z: -0.0038514984771609306
","x: 240.65634155273438
y: 268.5764465332031
z: -0.004841856192797422
","x: 240.11888122558594
y: 281.41650390625
z: -0.003960469737648964
","x: 235.44747924804688
y: 279.1565246582031
z: -0.005511918105185032
","x: 232.60409545898438
y: 278.20556640625
z: -0.006166082341223955
","x: 230.39781188964844
y: 277.79815673828125
z: -0.006611714605242014
","x: 239.26229858398438
y: 285.96734619140625
z: -0.004408006556332111
","x: 233.9699249267578
y: 284.77471923828125
z: -0.005719210486859083
","x: 230.78106689453125
y: 284.2424011230469
z: -0.006247422192245722
","x: 228.33425903320312
y: 284.2364807128906
z: -0.00686284527182579
","x: 239.03482055664062
y: 290.228515625
z: -0.004831764381378889
","x: 234.2396240234375
y: 289.5328063964844
z: -0.006616262253373861
","x: 231.36692810058594
y: 289.07861328125
z: -0.007671601139008999
","x: 229.08157348632812
y: 288.9162292480469
z: -0.008478406816720963
","x: 239.31536865234375
y: 294.0198974609375
z: -0.005336191970854998
","x: 235.77513122558594
y: 294.2613525390625
z: -0.007273030001670122
","x: 233.83323669433594
y: 294.4854431152344
z: -0.008165335282683372
","x: 232.19827270507812
y: 294.75994873046875
z: -0.008772237226366997
"
2,"x: 233.65782165527344
y: 219.70541381835938
z: -0.27287420630455017
visibility: 0.9999988079071045
","x: 235.9764404296875
y: 212.62905883789062
z: -0.2581966817378998
visibility: 0.9999979734420776
","x: 237.322998046875
y: 212.71664428710938
z: -0.2581977844238281
visibility: 0.9999978542327881
","x: 238.7292022705078
y: 212.7962646484375
z: -0.25823426246643066
visibility: 0.9999973773956299
","x: 232.24282836914062
y: 212.36788940429688
z: -0.25608161091804504
visibility: 0.9999980926513672
","x: 231.00216674804688
y: 212.38497924804688
z: -0.25611478090286255
visibility: 0.9999977350234985
","x: 229.7747802734375
y: 212.47779846191406
z: -0.2561103105545044
visibility: 0.999997615814209
","x: 241.0274200439453
y: 215.6126251220703
z: -0.1512030065059662
visibility: 0.9999979734420776
","x: 227.8909149169922
y: 214.97169494628906
z: -0.14253056049346924
visibility: 0.9999984502792358
","x: 236.0940399169922
y: 226.51113891601562
z: -0.23101171851158142
visibility: 0.9999992847442627
","x: 231.50765991210938
y: 226.896240234375
z: -0.22888191044330597
visibility: 0.9999994039535522
","x: 252.10015869140625
y: 258.36004638671875
z: -0.10166670382022858
visibility: 0.9999955892562866
","x: 213.97830200195312
y: 250.83433532714844
z: -0.03469507768750191
visibility: 0.9999914169311523
","x: 259.9550476074219
y: 305.3417663574219
z: -0.20329549908638
visibility: 0.998969316482544
","x: 192.3497772216797
y: 280.7192077636719
z: -0.08106295764446259
visibility: 0.9974804520606995
","x: 247.76287841796875
y: 292.10711669921875
z: -0.4153636395931244
visibility: 0.9981594681739807
","x: 206.9410858154297
y: 294.65771484375
z: -0.2580529451370239
visibility: 0.9926589131355286
","x: 242.7083282470703
y: 290.8150329589844
z: -0.4643813967704773
visibility: 0.9947015643119812
","x: 212.88531494140625
y: 299.3949279785156
z: -0.2939850091934204
visibility: 0.9769319891929626
","x: 242.09344482421875
y: 282.1640625
z: -0.4648929536342621
visibility: 0.9946240186691284
","x: 215.0195770263672
y: 293.8895263671875
z: -0.2985192835330963
visibility: 0.9757260680198669
","x: 243.3250274658203
y: 281.54888916015625
z: -0.41938382387161255
visibility: 0.9887192845344543
","x: 213.41000366210938
y: 291.3810119628906
z: -0.26293087005615234
visibility: 0.9643233418464661
","x: 242.4222869873047
y: 348.0296630859375
z: -0.03894822672009468
visibility: 0.9995408058166504
","x: 221.2731475830078
y: 348.133544921875
z: 0.038913968950510025
visibility: 0.999724805355072
","x: 236.43109130859375
y: 421.9119567871094
z: -0.03842782601714134
visibility: 0.9902205467224121
","x: 220.86305236816406
y: 425.6357421875
z: 0.033606432378292084
visibility: 0.969439685344696
","x: 235.61688232421875
y: 496.28399658203125
z: 0.0714377611875534
visibility: 0.9910663962364197
","x: 230.1971435546875
y: 494.59918212890625
z: 0.15699388086795807
visibility: 0.9736604690551758
","x: 237.28091430664062
y: 508.2229919433594
z: 0.07564794272184372
visibility: 0.8830215930938721
","x: 233.4778289794922
y: 505.6718444824219
z: 0.1625668704509735
visibility: 0.9170811176300049
","x: 232.13653564453125
y: 516.9368896484375
z: -0.041446465998888016
visibility: 0.9863662719726562
","x: 224.20677185058594
y: 516.96533203125
z: 0.05710456892848015
visibility: 0.9699838161468506
","x: 206.9703826904297
y: 290.2909240722656
z: 0.0
","x: 210.2208251953125
y: 285.7601318359375
z: -0.0011358160991221666
","x: 214.04432678222656
y: 283.5055236816406
z: -0.0027727398555725813
","x: 217.22296142578125
y: 281.9857177734375
z: -0.0044842977076768875
","x: 219.50926208496094
y: 279.147216796875
z: -0.006216676905751228
","x: 216.39614868164062
y: 291.7837219238281
z: -0.002959422068670392
","x: 220.61021423339844
y: 295.4353942871094
z: -0.00481374841183424
","x: 222.91534423828125
y: 297.6757507324219
z: -0.005749356932938099
","x: 224.73828125
y: 299.6789245605469
z: -0.006432532798498869
","x: 215.4144287109375
y: 296.2446594238281
z: -0.004126673098653555
","x: 219.6566925048828
y: 300.8783264160156
z: -0.005744811613112688
","x: 222.1274871826172
y: 303.8760681152344
z: -0.006532197818160057
","x: 224.01988220214844
y: 306.28857421875
z: -0.007293250877410173
","x: 213.99954223632812
y: 299.7025146484375
z: -0.005356024485081434
","x: 217.76242065429688
y: 304.08551025390625
z: -0.007253606803715229
","x: 220.0966033935547
y: 306.732177734375
z: -0.00821374449878931
","x: 221.91590881347656
y: 308.6712951660156
z: -0.00895670335739851
","x: 212.23741149902344
y: 302.1996765136719
z: -0.006711989641189575
","x: 214.62973022460938
y: 306.5025939941406
z: -0.00851825438439846
","x: 216.10629272460938
y: 309.244873046875
z: -0.009312125854194164
","x: 217.39137268066406
y: 311.41583251953125
z: -0.009861302562057972
","x: 247.53662109375
y: 291.24835205078125
z: 0.0
","x: 246.7585906982422
y: 283.2905578613281
z: -0.001550203887745738
","x: 244.322265625
y: 276.8301696777344
z: -0.0028432602994143963
","x: 242.0799560546875
y: 272.2549743652344
z: -0.0038514984771609306
","x: 240.65634155273438
y: 268.5764465332031
z: -0.004841856192797422
","x: 240.11888122558594
y: 281.41650390625
z: -0.003960469737648964
","x: 235.44747924804688
y: 279.1565246582031
z: -0.005511918105185032
","x: 232.60409545898438
y: 278.20556640625
z: -0.006166082341223955
","x: 230.39781188964844
y: 277.79815673828125
z: -0.006611714605242014
","x: 239.26229858398438
y: 285.96734619140625
z: -0.004408006556332111
","x: 233.9699249267578
y: 284.77471923828125
z: -0.005719210486859083
","x: 230.78106689453125
y: 284.2424011230469
z: -0.006247422192245722
","x: 228.33425903320312
y: 284.2364807128906
z: -0.00686284527182579
","x: 239.03482055664062
y: 290.228515625
z: -0.004831764381378889
","x: 234.2396240234375
y: 289.5328063964844
z: -0.006616262253373861
","x: 231.36692810058594
y: 289.07861328125
z: -0.007671601139008999
","x: 229.08157348632812
y: 288.9162292480469
z: -0.008478406816720963
","x: 239.31536865234375
y: 294.0198974609375
z: -0.005336191970854998
","x: 235.77513122558594
y: 294.2613525390625
z: -0.007273030001670122
","x: 233.83323669433594
y: 294.4854431152344
z: -0.008165335282683372
","x: 232.19827270507812
y: 294.75994873046875
z: -0.008772237226366997
"
3,"x: 240.0694122314453
y: 213.74916076660156
z: -0.23933951556682587
visibility: 0.999998152256012
","x: 242.04766845703125
y: 206.92453002929688
z: -0.2231673300266266
visibility: 0.9999943971633911
","x: 243.41978454589844
y: 207.21824645996094
z: -0.2232099324464798
visibility: 0.9999945759773254
","x: 244.7064666748047
y: 207.58226013183594
z: -0.22323444485664368
visibility: 0.9999929666519165
","x: 237.65469360351562
y: 206.13523864746094
z: -0.22539305686950684
visibility: 0.9999937415122986
","x: 236.07957458496094
y: 205.9287872314453
z: -0.2253899872303009
visibility: 0.999993085861206
","x: 234.50892639160156
y: 205.8235321044922
z: -0.22539575397968292
visibility: 0.9999910593032837
","x: 245.6395263671875
y: 210.7884521484375
z: -0.12303527444601059
visibility: 0.9999913573265076
","x: 231.86846923828125
y: 208.58934020996094
z: -0.13246574997901917
visibility: 0.9999942183494568
","x: 242.13792419433594
y: 221.27732849121094
z: -0.20190265774726868
visibility: 0.999997615814209
","x: 236.9745635986328
y: 220.55636596679688
z: -0.20455555617809296
visibility: 0.9999975562095642
","x: 257.12249755859375
y: 256.0370178222656
z: -0.05727078393101692
visibility: 0.9999915957450867
","x: 217.4684600830078
y: 249.95155334472656
z: -0.05648446083068848
visibility: 0.9999844431877136
","x: 275.76251220703125
y: 283.33575439453125
z: -0.1411398947238922
visibility: 0.998323917388916
","x: 196.2685546875
y: 279.38623046875
z: -0.05384988710284233
visibility: 0.997307538986206
","x: 296.6421203613281
y: 264.7204895019531
z: -0.3453514873981476
visibility: 0.9978839755058289
","x: 177.55735778808594
y: 290.5473937988281
z: -0.12944918870925903
visibility: 0.9927780032157898
","x: 303.8956298828125
y: 259.96533203125
z: -0.3785756826400757
visibility: 0.9939891695976257
","x: 169.22853088378906
y: 292.5277404785156
z: -0.14108438789844513
visibility: 0.9773598909378052
","x: 303.6234130859375
y: 254.3743133544922
z: -0.3960922956466675
visibility: 0.9941046237945557
","x: 170.34494018554688
y: 289.3558349609375
z: -0.17262831330299377
visibility: 0.9765490889549255
","x: 300.70977783203125
y: 256.4696960449219
z: -0.3589193522930145
visibility: 0.9887008666992188
","x: 173.62301635742188
y: 289.0943298339844
z: -0.14431264996528625
visibility: 0.9661852717399597
","x: 249.03814697265625
y: 350.30621337890625
z: -0.00010358446888858452
visibility: 0.9995459914207458
","x: 228.45936584472656
y: 350.4126281738281
z: 0.00012498736032284796
visibility: 0.9996930956840515
","x: 247.0895538330078
y: 426.4969482421875
z: -0.02086472138762474
visibility: 0.9896932244300842
","x: 225.36447143554688
y: 425.51702880859375
z: 0.005801303777843714
visibility: 0.9714260101318359
","x: 236.427001953125
y: 496.86334228515625
z: 0.11534875631332397
visibility: 0.9902855753898621
","x: 229.1944580078125
y: 494.4544982910156
z: 0.13575688004493713
visibility: 0.9750791788101196
","x: 235.46539306640625
y: 508.3450622558594
z: 0.12215937674045563
visibility: 0.8855953812599182
","x: 229.8679962158203
y: 505.26239013671875
z: 0.14197684824466705
visibility: 0.9138861298561096
","x: 239.81297302246094
y: 522.053466796875
z: 0.018130403012037277
visibility: 0.9857600331306458
","x: 225.445556640625
y: 516.929443359375
z: 0.038941673934459686
visibility: 0.9714685678482056
",,,,,,,,,,,,,,,,,,,,,,,,,,,,,,,,,,,,,,,,,,
4,"x: 242.34054565429688
y: 211.67474365234375
z: -0.23035737872123718
visibility: 0.9999905824661255
","x: 244.28555297851562
y: 204.778076171875
z: -0.2111952006816864
visibility: 0.9999767541885376
","x: 245.63180541992188
y: 204.99227905273438
z: -0.2112206518650055
visibility: 0.9999693632125854
","x: 246.84510803222656
y: 205.2928466796875
z: -0.2112627923488617
visibility: 0.9999674558639526
","x: 239.87709045410156
y: 204.18092346191406
z: -0.21524517238140106
visibility: 0.9999756217002869
","x: 238.30303955078125
y: 203.97926330566406
z: -0.21527378261089325
visibility: 0.9999691843986511
","x: 236.71951293945312
y: 203.84149169921875
z: -0.21532368659973145
visibility: 0.9999703764915466
","x: 247.53541564941406
y: 208.75714111328125
z: -0.10326801240444183
visibility: 0.9999303817749023
","x: 234.09645080566406
y: 206.48043823242188
z: -0.12070609629154205
visibility: 0.9999780058860779
","x: 244.22303771972656
y: 218.9250946044922
z: -0.19046202301979065
visibility: 0.9999891519546509
","x: 239.27471923828125
y: 218.08152770996094
z: -0.19533659517765045
visibility: 0.9999904036521912
","x: 258.89141845703125
y: 252.77822875976562
z: -0.029240017756819725
visibility: 0.9999542832374573
","x: 219.38723754882812
y: 247.953369140625
z: -0.06255924701690674
visibility: 0.9999614357948303
","x: 280.9366455078125
y: 266.39202880859375
z: -0.12015274912118912
visibility: 0.9975648522377014
","x: 196.69708251953125
y: 262.4035339355469
z: -0.06271323561668396
visibility: 0.9974949955940247
","x: 287.85504150390625
y: 230.01947021484375
z: -0.3143279552459717
visibility: 0.9969180822372437
","x: 182.18896484375
y: 220.5194091796875
z: -0.13062389194965363
visibility: 0.9933019876480103
","x: 289.6436462402344
y: 217.92208862304688
z: -0.3502267003059387
visibility: 0.9909458160400391
","x: 177.85098266601562
y: 205.4678497314453
z: -0.15341421961784363
visibility: 0.9786592125892639
","x: 287.1910095214844
y: 214.27972412109375
z: -0.35184380412101746
visibility: 0.9908991456031799
","x: 180.03424072265625
y: 201.51400756835938
z: -0.16526728868484497
visibility: 0.977889358997345
","x: 285.9165954589844
y: 218.87022399902344
z: -0.321658194065094
visibility: 0.9854292273521423
","x: 181.430419921875
y: 206.23948669433594
z: -0.13849735260009766
visibility: 0.9682905673980713
","x: 252.75254821777344
y: 351.02117919921875
z: 0.016315367072820663
visibility: 0.9995616674423218
","x: 232.03330993652344
y: 351.0572814941406
z: -0.01628435030579567
visibility: 0.9996909499168396
","x: 248.73622131347656
y: 427.016845703125
z: -0.02505752071738243
visibility: 0.9878625273704529
","x: 227.61111450195312
y: 425.5422668457031
z: 0.0004435162991285324
visibility: 0.972062349319458
","x: 236.5355224609375
y: 497.8007507324219
z: 0.12368480116128922
visibility: 0.9871634244918823
","x: 227.7581024169922
y: 493.833740234375
z: 0.18812020123004913
visibility: 0.9739797115325928
","x: 233.43399047851562
y: 508.6323547363281
z: 0.13395759463310242
visibility: 0.8855194449424744
","x: 227.7098388671875
y: 502.653564453125
z: 0.20211729407310486
visibility: 0.8993898034095764
","x: 241.6499481201172
y: 523.1436767578125
z: 0.03147010877728462
visibility: 0.9834298491477966
","x: 227.5466766357422
y: 514.72216796875
z: 0.10278646647930145
visibility: 0.9704331755638123
",,,,,,,,,,,,,,,,,,,,,,,,,,,,,,,,,,,,,,,,,,
5,"x: 245.09176635742188
y: 212.7542266845703
z: -0.2440851926803589
visibility: 0.9999887943267822
","x: 247.03131103515625
y: 205.73646545410156
z: -0.22598664462566376
visibility: 0.999975323677063
","x: 248.2389678955078
y: 205.91146850585938
z: -0.22597141563892365
visibility: 0.9999637007713318
","x: 249.3411865234375
y: 206.14837646484375
z: -0.22600623965263367
visibility: 0.9999637007713318
","x: 242.6585235595703
y: 205.17172241210938
z: -0.22681701183319092
visibility: 0.9999759197235107
","x: 240.93824768066406
y: 204.95065307617188
z: -0.22685721516609192
visibility: 0.9999690055847168
","x: 239.2101287841797
y: 204.7563018798828
z: -0.2268504798412323
visibility: 0.9999711513519287
","x: 250.09042358398438
y: 209.30258178710938
z: -0.10323403030633926
visibility: 0.9999192357063293
","x: 236.14456176757812
y: 206.8739013671875
z: -0.13599933683872223
visibility: 0.9999789595603943
","x: 246.9546661376953
y: 219.8680419921875
z: -0.20151245594024658
visibility: 0.999988853931427
","x: 242.1204833984375
y: 219.09088134765625
z: -0.20117220282554626
visibility: 0.9999905228614807
","x: 258.22216796875
y: 250.3775634765625
z: -0.011958752758800983
visibility: 0.9999457597732544
","x: 221.43150329589844
y: 242.49513244628906
z: -0.10493643581867218
visibility: 0.9999592304229736
","x: 279.0101013183594
y: 267.7157897949219
z: -0.10164663940668106
visibility: 0.9958414435386658
","x: 202.04910278320312
y: 258.97216796875
z: -0.2533355951309204
visibility: 0.9977126121520996
","x: 274.4188537597656
y: 229.3824920654297
z: -0.2518940567970276
visibility: 0.9944861531257629
","x: 213.11705017089844
y: 216.8693389892578
z: -0.4087183475494385
visibility: 0.9937212467193604
","x: 274.57403564453125
y: 216.79258728027344
z: -0.2774406373500824
visibility: 0.9829480648040771
","x: 212.3914337158203
y: 200.69749450683594
z: -0.44311556220054626
visibility: 0.9791187047958374
","x: 272.1053771972656
y: 214.78028869628906
z: -0.2581864893436432
visibility: 0.9814336895942688
","x: 218.1324920654297
y: 202.17864990234375
z: -0.4227522313594818
visibility: 0.9779196381568909
","x: 270.9737243652344
y: 220.38461303710938
z: -0.24799413979053497
visibility: 0.9720608592033386
","x: 219.342041015625
y: 207.34194946289062
z: -0.4034798741340637
visibility: 0.9679129719734192
","x: 254.99765014648438
y: 350.27667236328125
z: 0.02228144183754921
visibility: 0.9996042251586914
","x: 233.6518096923828
y: 350.9556579589844
z: -0.02231995388865471
visibility: 0.9997166991233826
","x: 250.90396118164062
y: 428.15234375
z: -0.09322545677423477
visibility: 0.9885865449905396
","x: 231.0901641845703
y: 425.0276184082031
z: 0.02939090132713318
visibility: 0.9731519818305969
","x: 237.38699340820312
y: 498.78607177734375
z: 0.05764942243695259
visibility: 0.9871485829353333
","x: 226.92588806152344
y: 462.68756103515625
z: 0.392476886510849
visibility: 0.9573930501937866
","x: 233.53797912597656
y: 508.7158203125
z: 0.06900040060281754
visibility: 0.8846044540405273
","x: 225.42173767089844
y: 464.1982727050781
z: 0.42590922117233276
visibility: 0.8652366399765015
","x: 242.7919921875
y: 524.8333740234375
z: -0.03962353989481926
visibility: 0.9830514788627625
","x: 226.71206665039062
y: 492.4436950683594
z: 0.36253562569618225
visibility: 0.9611952304840088
",,,,,,,,,,,,,,,,,,,,,,,,,,,,,,,,,,,,,,,,,,
6,"x: 247.2315216064453
y: 213.28050231933594
z: -0.1260743886232376
visibility: 0.9999839067459106
","x: 248.93116760253906
y: 206.15591430664062
z: -0.10638934373855591
visibility: 0.9999696612358093
","x: 249.7944793701172
y: 206.3340606689453
z: -0.10639934241771698
visibility: 0.9999557137489319
","x: 250.57073974609375
y: 206.55641174316406
z: -0.10641101747751236
visibility: 0.9999587535858154
","x: 245.52442932128906
y: 205.33872985839844
z: -0.12689004838466644
visibility: 0.9999703168869019
","x: 244.00997924804688
y: 204.8719482421875
z: -0.12689423561096191
visibility: 0.9999622106552124
","x: 242.3723602294922
y: 204.3608856201172
z: -0.12695838510990143
visibility: 0.9999644160270691
","x: 250.23324584960938
y: 209.05906677246094
z: 0.0060155028477311134
visibility: 0.9998981952667236
","x: 238.1981964111328
y: 205.0436553955078
z: -0.0884389877319336
visibility: 0.9999749064445496
","x: 247.86366271972656
y: 220.0311279296875
z: -0.08260206133127213
visibility: 0.9999846816062927
","x: 244.08181762695312
y: 219.1787109375
z: -0.10967390239238739
visibility: 0.999986469745636
","x: 256.537109375
y: 251.20370483398438
z: 0.09576694667339325
visibility: 0.9999473094940186
","x: 221.19090270996094
y: 242.0419464111328
z: -0.0990137904882431
visibility: 0.9999552965164185
","x: 271.2535400390625
y: 276.16070556640625
z: 0.018131518736481667
visibility: 0.9816323518753052
","x: 218.58619689941406
y: 277.74456787109375
z: -0.2462856024503708
visibility: 0.9976001977920532
","x: 273.6183776855469
y: 249.9429168701172
z: -0.16333821415901184
visibility: 0.9927923679351807
","x: 234.030029296875
y: 238.55587768554688
z: -0.3708944320678711
visibility: 0.994013249874115
","x: 275.908203125
y: 239.85482788085938
z: -0.18946202099323273
visibility: 0.980412483215332
","x: 237.14279174804688
y: 226.88229370117188
z: -0.4027833044528961
visibility: 0.9802641868591309
","x: 274.8476257324219
y: 234.5669708251953
z: -0.18411079049110413
visibility: 0.9789982438087463
","x: 237.25486755371094
y: 223.01104736328125
z: -0.3906329274177551
visibility: 0.9790139198303223
","x: 273.59033203125
y: 237.98707580566406
z: -0.16666141152381897
visibility: 0.9692245721817017
","x: 236.94204711914062
y: 227.13934326171875
z: -0.36703577637672424
visibility: 0.9691429138183594
","x: 254.42047119140625
y: 350.31207275390625
z: 0.0648479089140892
visibility: 0.9996374249458313
","x: 235.40206909179688
y: 350.6416320800781
z: -0.06493350863456726
visibility: 0.9997238516807556
","x: 251.42340087890625
y: 429.4735412597656
z: 0.012378497049212456
visibility: 0.9850464463233948
","x: 243.5240020751953
y: 422.8430480957031
z: -0.09617897123098373
visibility: 0.9745059609413147
","x: 237.70538330078125
y: 499.94091796875
z: 0.1550125926733017
visibility: 0.984464168548584
","x: 222.85855102539062
y: 465.9296875
z: 0.16508615016937256
visibility: 0.9515364766120911
","x: 233.13815307617188
y: 508.714111328125
z: 0.16595734655857086
visibility: 0.883694589138031
","x: 218.40914916992188
y: 466.01397705078125
z: 0.1938471496105194
visibility: 0.8463513851165771
","x: 242.28074645996094
y: 525.6353759765625
z: 0.09830942749977112
visibility: 0.981181800365448
","x: 225.714111328125
y: 499.6258850097656
z: 0.21006803214550018
visibility: 0.9571789503097534
",,,,,,,,,,,,,,,,,,,,,,,,,,,,,,,,,,,,,,,,,,
7,"x: 250.80792236328125
y: 215.53042602539062
z: -0.16879582405090332
visibility: 0.9998874664306641
","x: 252.4247589111328
y: 208.42861938476562
z: -0.1506570279598236
visibility: 0.9996567368507385
","x: 252.9832305908203
y: 208.7229766845703
z: -0.15068677067756653
visibility: 0.9995364546775818
","x: 253.48532104492188
y: 208.9781951904297
z: -0.15067487955093384
visibility: 0.9995842576026917
","x: 249.61630249023438
y: 206.28973388671875
z: -0.17677724361419678
visibility: 0.999764621257782
","x: 248.1511688232422
y: 204.98748779296875
z: -0.17679020762443542
visibility: 0.9997662305831909
","x: 246.49847412109375
y: 204.90652465820312
z: -0.17685796320438385
visibility: 0.9997737407684326
","x: 251.26856994628906
y: 209.3631591796875
z: -0.04581809416413307
visibility: 0.9980021715164185
","x: 241.41851806640625
y: 205.8521270751953
z: -0.1734056919813156
visibility: 0.9997644424438477
","x: 249.5578155517578
y: 222.09320068359375
z: -0.12681114673614502
visibility: 0.9997513890266418
","x: 246.5425262451172
y: 220.38392639160156
z: -0.16027280688285828
visibility: 0.9998732805252075
","x: 247.3310546875
y: 249.5376434326172
z: 0.07328735291957855
visibility: 0.9998790621757507
","x: 222.8953857421875
y: 242.4310302734375
z: -0.21077890694141388
visibility: 0.9999546408653259
","x: 251.07473754882812
y: 291.3855895996094
z: 0.11755073070526123
visibility: 0.8962542414665222
","x: 233.97935485839844
y: 297.81591796875
z: -0.23807278275489807
visibility: 0.9966166019439697
","x: 266.609375
y: 332.88580322265625
z: 0.016509229317307472
visibility: 0.9137997627258301
","x: 254.94094848632812
y: 326.2637939453125
z: -0.28352633118629456
visibility: 0.9918476939201355
","x: 274.1460266113281
y: 340.1723937988281
z: 0.0018617712194100022
visibility: 0.9037413001060486
","x: 258.4281921386719
y: 338.4837341308594
z: -0.31809988617897034
visibility: 0.9777648448944092
","x: 269.4320983886719
y: 343.5574645996094
z: -0.02603110298514366
visibility: 0.9043334126472473
","x: 261.51007080078125
y: 333.8131408691406
z: -0.32234621047973633
visibility: 0.9765692949295044
","x: 269.43756103515625
y: 338.5771484375
z: 0.0004670369380619377
visibility: 0.8956902027130127
","x: 259.9393615722656
y: 329.405517578125
z: -0.27946728467941284
visibility: 0.9637738466262817
","x: 250.88052368164062
y: 354.3775634765625
z: 0.08797477930784225
visibility: 0.9994549751281738
","x: 233.06903076171875
y: 354.498046875
z: -0.08802266418933868
visibility: 0.9994962215423584
","x: 249.02320861816406
y: 431.843017578125
z: 0.1099431961774826
visibility: 0.9520012140274048
","x: 239.3535614013672
y: 426.4831848144531
z: -0.07074187695980072
visibility: 0.9731539487838745
","x: 235.68031311035156
y: 502.11602783203125
z: 0.22346708178520203
visibility: 0.9713659286499023
","x: 223.5567169189453
y: 500.337158203125
z: 0.055654238909482956
visibility: 0.9543848633766174
","x: 229.84652709960938
y: 513.0202026367188
z: 0.22919921576976776
visibility: 0.8815494179725647
","x: 218.43836975097656
y: 511.20068359375
z: 0.06327410787343979
visibility: 0.854254424571991
","x: 244.850830078125
y: 525.885986328125
z: 0.1543893963098526
visibility: 0.9749960899353027
","x: 232.1630401611328
y: 524.3674926757812
z: -0.027715865522623062
visibility: 0.9596537947654724
",,,,,,,,,,,,,,,,,,,,,,,,,,,,,,,,,,,,,,,,,,
8,"x: 258.1342468261719
y: 228.4881591796875
z: -0.1923590749502182
visibility: 0.9997262954711914
","x: 259.7074890136719
y: 220.16522216796875
z: -0.17718425393104553
visibility: 0.9992761611938477
","x: 259.7254943847656
y: 219.9054718017578
z: -0.17720961570739746
visibility: 0.9991728663444519
","x: 259.65203857421875
y: 219.4947967529297
z: -0.17720699310302734
visibility: 0.9992704391479492
","x: 258.20703125
y: 218.7645263671875
z: -0.18974097073078156
visibility: 0.9994454979896545
","x: 257.24755859375
y: 217.48931884765625
z: -0.18987970054149628
visibility: 0.9994980692863464
","x: 256.15972900390625
y: 216.3141632080078
z: -0.19016684591770172
visibility: 0.9994772672653198
","x: 254.5200958251953
y: 215.2749481201172
z: -0.0730564147233963
visibility: 0.9967895150184631
","x: 250.17108154296875
y: 212.72117614746094
z: -0.25805169343948364
visibility: 0.9994474053382874
","x: 255.2335205078125
y: 233.59402465820312
z: -0.1551894098520279
visibility: 0.9993895888328552
","x: 253.46340942382812
y: 232.3336639404297
z: -0.19714337587356567
visibility: 0.9996773600578308
","x: 246.73602294921875
y: 250.20376586914062
z: 0.023242879658937454
visibility: 0.9998135566711426
","x: 229.51609802246094
y: 250.92315673828125
z: -0.29521387815475464
visibility: 0.9999495148658752
","x: 246.7292938232422
y: 305.31591796875
z: 0.08653567731380463
visibility: 0.8168356418609619
","x: 233.82244873046875
y: 313.1124267578125
z: -0.3145555853843689
visibility: 0.9950438141822815
","x: 259.49200439453125
y: 340.410888671875
z: 0.03679900988936424
visibility: 0.8358852863311768
","x: 256.9789733886719
y: 348.3348083496094
z: -0.31074419617652893
visibility: 0.9876471757888794
","x: 266.66973876953125
y: 349.7900085449219
z: 0.03367578983306885
visibility: 0.8281009197235107
","x: 263.25250244140625
y: 360.37896728515625
z: -0.344646155834198
visibility: 0.9719535708427429
","x: 268.1225280761719
y: 347.34979248046875
z: 0.005124304909259081
visibility: 0.8300563097000122
","x: 265.78997802734375
y: 355.0895690917969
z: -0.3442957103252411
visibility: 0.9707592129707336
","x: 267.175537109375
y: 345.4875183105469
z: 0.021982723847031593
visibility: 0.8220816254615784
","x: 263.3793029785156
y: 350.4188232421875
z: -0.3087596595287323
visibility: 0.9518665671348572
","x: 244.61119079589844
y: 357.6718444824219
z: 0.09501265734434128
visibility: 0.9993743896484375
","x: 232.83847045898438
y: 358.1990051269531
z: -0.09503386914730072
visibility: 0.9993954300880432
","x: 248.0696258544922
y: 430.9730224609375
z: 0.14914408326148987
visibility: 0.922537624835968
","x: 235.77857971191406
y: 428.9100646972656
z: -0.08610986918210983
visibility: 0.9713728427886963
","x: 235.49107360839844
y: 501.91668701171875
z: 0.27402791380882263
visibility: 0.9589190483093262
","x: 220.65765380859375
y: 507.78216552734375
z: 0.02650940790772438
visibility: 0.9560136198997498
","x: 230.6008758544922
y: 513.9493408203125
z: 0.28092601895332336
visibility: 0.8753754496574402
","x: 215.24172973632812
y: 520.5139770507812
z: 0.03203781694173813
visibility: 0.8575063347816467
","x: 252.1998291015625
y: 521.7340698242188
z: 0.21539869904518127
visibility: 0.9685258269309998
","x: 231.7467041015625
y: 533.6171875
z: -0.06202995777130127
visibility: 0.9610702395439148
",,,,,,,,,,,,,,,,,,,,,,,,,,,,,,,,,,,,,,,,,,
9,"x: 262.42919921875
y: 246.06568908691406
z: -0.2107459306716919
visibility: 0.999436616897583
","x: 263.91998291015625
y: 238.74166870117188
z: -0.2019614726305008
visibility: 0.9985661506652832
","x: 263.6985168457031
y: 238.1254425048828
z: -0.20201373100280762
visibility: 0.9985420107841492
","x: 263.3382568359375
y: 237.34011840820312
z: -0.20200121402740479
visibility: 0.9987052083015442
","x: 262.9983825683594
y: 237.96128845214844
z: -0.2416626214981079
visibility: 0.9988610744476318
","x: 262.2334899902344
y: 236.90122985839844
z: -0.24173220992088318
visibility: 0.9990555047988892
","x: 261.3665771484375
y: 235.84970092773438
z: -0.2418549358844757
visibility: 0.9989497065544128
","x: 256.625
y: 231.62901306152344
z: -0.13352195918560028
visibility: 0.9949825406074524
","x: 255.35874938964844
y: 232.14596557617188
z: -0.3048073351383209
visibility: 0.9988350868225098
","x: 258.5404052734375
y: 250.2291717529297
z: -0.18444058299064636
visibility: 0.998735249042511
","x: 257.4604187011719
y: 249.3804168701172
z: -0.2373754233121872
visibility: 0.9992324709892273
","x: 247.84756469726562
y: 254.38699340820312
z: -0.010975535027682781
visibility: 0.9997661113739014
","x: 233.1048583984375
y: 266.53131103515625
z: -0.3358451724052429
visibility: 0.9999372363090515
","x: 250.65939331054688
y: 308.0669860839844
z: 0.052407823503017426
visibility: 0.7536272406578064
","x: 238.92718505859375
y: 326.06048583984375
z: -0.35258322954177856
visibility: 0.9928042888641357
","x: 263.0580749511719
y: 346.0033874511719
z: 0.022554103285074234
visibility: 0.7681918144226074
","x: 254.9247589111328
y: 367.1902770996094
z: -0.3423357903957367
visibility: 0.9821335673332214
","x: 267.73931884765625
y: 356.50494384765625
z: 0.02515086531639099
visibility: 0.7589560747146606
","x: 259.22613525390625
y: 381.5443420410156
z: -0.3766339123249054
visibility: 0.9641239643096924
","x: 268.9739074707031
y: 356.6345520019531
z: -0.0030243350192904472
visibility: 0.7622121572494507
","x: 261.6859436035156
y: 378.44415283203125
z: -0.37768709659576416
visibility: 0.9633283019065857
","x: 270.8724365234375
y: 356.8307189941406
z: 0.008932957425713539
visibility: 0.7553669214248657
","x: 259.72064208984375
y: 372.55267333984375
z: -0.3420073390007019
visibility: 0.9376790523529053
","x: 241.3668212890625
y: 360.58575439453125
z: 0.09406061470508575
visibility: 0.9993506669998169
","x: 229.4976806640625
y: 362.54986572265625
z: -0.09412328898906708
visibility: 0.9993396401405334
","x: 247.5839385986328
y: 430.7965087890625
z: 0.16527703404426575
visibility: 0.8988812565803528
","x: 234.2860107421875
y: 429.33001708984375
z: -0.09330570697784424
visibility: 0.969066321849823
","x: 235.9252471923828
y: 501.99298095703125
z: 0.30016839504241943
visibility: 0.9493858218193054
","x: 220.91998291015625
y: 508.90667724609375
z: 0.030102455988526344
visibility: 0.9572733044624329
","x: 231.05995178222656
y: 514.0517578125
z: 0.30804580450057983
visibility: 0.8684899806976318
","x: 215.81533813476562
y: 521.319091796875
z: 0.03638562187552452
visibility: 0.8573875427246094
","x: 255.21017456054688
y: 520.9008178710938
z: 0.24531424045562744
visibility: 0.9635270237922668
","x: 231.2766571044922
y: 534.7349853515625
z: -0.05577752739191055
visibility: 0.9620685577392578
",,,,,,,,,,,,,,,,,,,,,,,,,,,,,,,,,,,,,,,,,,
10,"x: 264.1127624511719
y: 265.1343994140625
z: -0.26372143626213074
visibility: 0.9991897344589233
","x: 265.9697570800781
y: 257.0485534667969
z: -0.25450587272644043
visibility: 0.9979507327079773
","x: 265.8883361816406
y: 256.30352783203125
z: -0.2545532286167145
visibility: 0.9978929162025452
","x: 265.66815185546875
y: 255.42459106445312
z: -0.25456422567367554
visibility: 0.9982210993766785
","x: 264.9325866699219
y: 256.7761535644531
z: -0.29071637988090515
visibility: 0.9984279870986938
","x: 264.1855773925781
y: 255.94285583496094
z: -0.2907918095588684
visibility: 0.9986941814422607
","x: 263.31097412109375
y: 255.0623321533203
z: -0.29089927673339844
visibility: 0.9986021518707275
","x: 259.1763916015625
y: 248.73440551757812
z: -0.18640877306461334
visibility: 0.9936537146568298
","x: 257.2877197265625
y: 250.81724548339844
z: -0.3468695878982544
visibility: 0.9983515739440918
","x: 260.185791015625
y: 268.2478942871094
z: -0.2331596314907074
visibility: 0.9982035756111145
","x: 259.09429931640625
y: 267.5692138671875
z: -0.2808833718299866
visibility: 0.9989299774169922
","x: 248.55116271972656
y: 261.3626403808594
z: -0.06506017595529556
visibility: 0.9997415542602539
","x: 234.62066650390625
y: 283.93017578125
z: -0.3593659996986389
visibility: 0.9999151229858398
","x: 253.0128173828125
y: 310.744873046875
z: 0.034898363053798676
visibility: 0.712743878364563
","x: 237.68252563476562
y: 349.4291687011719
z: -0.3713361918926239
visibility: 0.9925220012664795
","x: 266.6458435058594
y: 345.80078125
z: 0.02985880710184574
visibility: 0.7341548204421997
","x: 259.3211364746094
y: 382.55712890625
z: -0.36420342326164246
visibility: 0.9817097783088684
","x: 271.8887634277344
y: 353.48504638671875
z: 0.03530570864677429
visibility: 0.7213783860206604
","x: 264.78875732421875
y: 393.330810546875
z: -0.39908367395401
visibility: 0.9632176160812378
","x: 273.3616027832031
y: 354.6187744140625
z: 0.006108105648308992
visibility: 0.727435827255249
","x: 266.8072204589844
y: 388.2134704589844
z: -0.39976993203163147
visibility: 0.9626405239105225
","x: 270.9473876953125
y: 352.71533203125
z: 0.017440060153603554
visibility: 0.7205820083618164
","x: 264.59375
y: 383.0636901855469
z: -0.3635398745536804
visibility: 0.9352689385414124
","x: 240.3659210205078
y: 361.99053955078125
z: 0.08827446401119232
visibility: 0.9993575811386108
","x: 227.62655639648438
y: 367.87896728515625
z: -0.08832968771457672
visibility: 0.999312162399292
","x: 248.3209991455078
y: 427.7636413574219
z: 0.11056089401245117
visibility: 0.8786845207214355
","x: 235.09060668945312
y: 429.1921691894531
z: -0.13451100885868073
visibility: 0.9657301902770996
","x: 236.03793334960938
y: 501.86602783203125
z: 0.23629339039325714
visibility: 0.9362605810165405
","x: 221.4766387939453
y: 508.15264892578125
z: -0.010092425160109997
visibility: 0.9568349719047546
","x: 231.3423614501953
y: 516.2181396484375
z: 0.24340596795082092
visibility: 0.8547462224960327
","x: 215.6978759765625
y: 520.770751953125
z: -0.003237952245399356
visibility: 0.8533127307891846
","x: 256.1379699707031
y: 520.2234497070312
z: 0.1838187873363495
visibility: 0.9558148980140686
","x: 231.05699157714844
y: 534.1723022460938
z: -0.08548144996166229
visibility: 0.9618027210235596
",,,,,,,,,,,,,,,,,,,,,,,,,,,,,,,,,,,,,,,,,,
11,"x: 264.2881164550781
y: 281.3975830078125
z: -0.39642104506492615
visibility: 0.9990509152412415
","x: 265.13067626953125
y: 272.5149230957031
z: -0.3865814805030823
visibility: 0.9975546598434448
","x: 265.0687561035156
y: 271.5682067871094
z: -0.38660746812820435
visibility: 0.9972988963127136
","x: 264.92974853515625
y: 270.59979248046875
z: -0.38667064905166626
visibility: 0.9977784752845764
","x: 263.8561706542969
y: 273.250244140625
z: -0.4162350296974182
visibility: 0.9983181357383728
","x: 262.85308837890625
y: 272.94927978515625
z: -0.4163411557674408
visibility: 0.9985775351524353
","x: 261.6953125
y: 272.7120056152344
z: -0.4164615571498871
visibility: 0.9985499978065491
","x: 258.8190612792969
y: 267.26611328125
z: -0.30325847864151
visibility: 0.9927856922149658
","x: 255.1457061767578
y: 270.6474609375
z: -0.43719515204429626
visibility: 0.9982020258903503
","x: 261.6415100097656
y: 284.7550048828125
z: -0.3594735860824585
visibility: 0.997995913028717
","x: 260.0494079589844
y: 284.8957214355469
z: -0.39865612983703613
visibility: 0.9988868832588196
","x: 251.53802490234375
y: 283.1192321777344
z: -0.1697807013988495
visibility: 0.9996995329856873
","x: 231.1923065185547
y: 301.9298095703125
z: -0.4143369793891907
visibility: 0.999903678894043
","x: 262.5432434082031
y: 321.9010009765625
z: -0.021076740697026253
visibility: 0.702078640460968
","x: 231.91717529296875
y: 365.23614501953125
z: -0.4398574233055115
visibility: 0.9926961660385132
","x: 272.1294250488281
y: 346.18756103515625
z: -0.023274552077054977
visibility: 0.7178217172622681
","x: 254.38027954101562
y: 405.3432922363281
z: -0.46620407700538635
visibility: 0.982041597366333
","x: 276.9114074707031
y: 353.326416015625
z: -0.021488312631845474
visibility: 0.6993789672851562
","x: 258.4973449707031
y: 416.6395568847656
z: -0.504522442817688
visibility: 0.9633976221084595
","x: 276.9881591796875
y: 355.22119140625
z: -0.04985252767801285
visibility: 0.7082830667495728
","x: 261.1287841796875
y: 411.4117126464844
z: -0.5092124938964844
visibility: 0.9628792405128479
","x: 278.70733642578125
y: 354.936767578125
z: -0.03422870859503746
visibility: 0.6996899247169495
","x: 259.8160705566406
y: 406.39697265625
z: -0.4669547975063324
visibility: 0.9344073534011841
","x: 239.95448303222656
y: 363.06622314453125
z: 0.07450135052204132
visibility: 0.9993265271186829
","x: 223.1281280517578
y: 369.8067626953125
z: -0.07449588924646378
visibility: 0.9992820024490356
","x: 250.16177368164062
y: 423.32562255859375
z: 0.011258873157203197
visibility: 0.8637562394142151
","x: 234.38076782226562
y: 427.20361328125
z: -0.2176620066165924
visibility: 0.962273120880127
","x: 236.66099548339844
y: 501.694580078125
z: 0.1567012220621109
visibility: 0.9251571893692017
","x: 222.0054473876953
y: 506.9143981933594
z: -0.08196593821048737
visibility: 0.955425500869751
","x: 234.35430908203125
y: 510.9356994628906
z: 0.16592703759670258
visibility: 0.8427280187606812
","x: 217.36045837402344
y: 518.7267456054688
z: -0.07369495928287506
visibility: 0.8476207256317139
","x: 255.98281860351562
y: 519.550048828125
z: 0.0930803120136261
visibility: 0.945565938949585
","x: 230.64041137695312
y: 532.6937255859375
z: -0.17429949343204498
visibility: 0.9592971205711365
",,,,,,,,,,,,,,,,,,,,,,,,,,,,,,,,,,,,,,,,,,
12,"x: 260.2585144042969
y: 277.4109802246094
z: -0.4486888349056244
visibility: 0.998953640460968
","x: 261.75140380859375
y: 269.52679443359375
z: -0.4339292645454407
visibility: 0.9973503947257996
","x: 262.1990661621094
y: 268.5811462402344
z: -0.4340003430843353
visibility: 0.9969189763069153
","x: 262.6138610839844
y: 267.58514404296875
z: -0.43413442373275757
visibility: 0.9975354671478271
","x: 259.85986328125
y: 271.08740234375
z: -0.45789021253585815
visibility: 0.9982516765594482
","x: 259.1707458496094
y: 271.3988342285156
z: -0.45797935128211975
visibility: 0.9984715580940247
","x: 258.9539489746094
y: 271.7435302734375
z: -0.4580838084220886
visibility: 0.9985163807868958
","x: 258.2771301269531
y: 267.4843444824219
z: -0.32172349095344543
visibility: 0.9922529458999634
","x: 252.02806091308594
y: 272.84063720703125
z: -0.4291231036186218
visibility: 0.9980545043945312
","x: 258.97705078125
y: 282.2486267089844
z: -0.40177613496780396
visibility: 0.997884213924408
","x: 256.623291015625
y: 283.9869079589844
z: -0.4329923987388611
visibility: 0.9988691806793213
","x: 255.7202911376953
y: 291.8502502441406
z: -0.17350786924362183
visibility: 0.9996343851089478
","x: 229.95510864257812
y: 311.6021423339844
z: -0.376975953578949
visibility: 0.9998418092727661
","x: 268.0361022949219
y: 329.13568115234375
z: -0.05143003910779953
visibility: 0.6953529715538025
","x: 228.32797241210938
y: 367.3554992675781
z: -0.4008118212223053
visibility: 0.9902768731117249
","x: 277.28521728515625
y: 346.4325256347656
z: -0.06722797453403473
visibility: 0.6913642287254333
","x: 249.49990844726562
y: 406.496826171875
z: -0.43490877747535706
visibility: 0.9723038077354431
","x: 279.55792236328125
y: 353.3843994140625
z: -0.07285421341657639
visibility: 0.6700137257575989
","x: 253.65980529785156
y: 417.94415283203125
z: -0.46851596236228943
visibility: 0.9478358626365662
","x: 283.107666015625
y: 359.2906188964844
z: -0.09921012818813324
visibility: 0.680864155292511
","x: 255.85069274902344
y: 413.284912109375
z: -0.47970128059387207
visibility: 0.9470853805541992
","x: 281.2627868652344
y: 358.0083923339844
z: -0.07859112322330475
visibility: 0.6729862093925476
","x: 254.38436889648438
y: 408.5361328125
z: -0.43819817900657654
visibility: 0.9111238121986389
","x: 240.8206024169922
y: 374.7309875488281
z: 0.07263906300067902
visibility: 0.9993067383766174
","x: 222.72503662109375
y: 376.0671691894531
z: -0.07220661640167236
visibility: 0.9992396235466003
","x: 252.95960998535156
y: 424.60748291015625
z: -0.12368132174015045
visibility: 0.8643703460693359
","x: 231.8756103515625
y: 423.65924072265625
z: -0.3297111392021179
visibility: 0.9636250138282776
","x: 237.17539978027344
y: 501.6190185546875
z: 0.034332096576690674
visibility: 0.9231534600257874
","x: 222.18289184570312
y: 507.02264404296875
z: -0.20979955792427063
visibility: 0.9576066732406616
","x: 234.02064514160156
y: 510.4815368652344
z: 0.04415581002831459
visibility: 0.8434281945228577
","x: 218.21282958984375
y: 518.3766479492188
z: -0.2037816047668457
visibility: 0.8496466279029846
","x: 255.19729614257812
y: 519.3890991210938
z: -0.054165296256542206
visibility: 0.9427450299263
","x: 230.52886962890625
y: 532.5720825195312
z: -0.33088022470474243
visibility: 0.9601889252662659
",,,,,,,,,,,,,,,,,,,,,,,,,,,,,,,,,,,,,,,,,,
13,"x: 249.31552124023438
y: 278.4471435546875
z: -0.5325247049331665
visibility: 0.999031126499176
","x: 250.14627075195312
y: 270.2782287597656
z: -0.5180068016052246
visibility: 0.9975482225418091
","x: 251.12290954589844
y: 269.46240234375
z: -0.5181195139884949
visibility: 0.9971436262130737
","x: 252.0005340576172
y: 268.67279052734375
z: -0.5182960629463196
visibility: 0.9977005124092102
","x: 246.04872131347656
y: 271.4927978515625
z: -0.5278608202934265
visibility: 0.9983698725700378
","x: 244.06614685058594
y: 271.6329650878906
z: -0.5279353857040405
visibility: 0.9985672831535339
","x: 242.0833740234375
y: 271.82012939453125
z: -0.5279953479766846
visibility: 0.9986177086830139
","x: 252.32110595703125
y: 267.8221435546875
z: -0.3863201141357422
visibility: 0.9928916692733765
","x: 237.27328491210938
y: 272.5533752441406
z: -0.4266720414161682
visibility: 0.998220682144165
","x: 251.0081329345703
y: 283.971435546875
z: -0.4774043560028076
visibility: 0.9980758428573608
","x: 245.83837890625
y: 286.2490539550781
z: -0.48902854323387146
visibility: 0.9989739060401917
","x: 259.0079040527344
y: 291.25933837890625
z: -0.22687995433807373
visibility: 0.9996502995491028
","x: 223.8754119873047
y: 308.68682861328125
z: -0.36449867486953735
visibility: 0.9998506903648376
","x: 272.3059997558594
y: 335.532470703125
z: -0.25487226247787476
visibility: 0.7043794393539429
","x: 227.16552734375
y: 366.6103515625
z: -0.42817798256874084
visibility: 0.9904933571815491
","x: 281.3533020019531
y: 353.4253234863281
z: -0.4339905381202698
visibility: 0.6677369475364685
","x: 247.90708923339844
y: 403.43463134765625
z: -0.513778030872345
visibility: 0.971255898475647
","x: 284.96405029296875
y: 356.1383361816406
z: -0.4739210605621338
visibility: 0.6515741348266602
","x: 252.05191040039062
y: 415.5868225097656
z: -0.5563539266586304
visibility: 0.9448204040527344
","x: 284.1726379394531
y: 356.89031982421875
z: -0.49818485975265503
visibility: 0.663848340511322
","x: 254.55545043945312
y: 409.6109619140625
z: -0.5649789571762085
visibility: 0.9438337683677673
","x: 282.2843017578125
y: 356.4953918457031
z: -0.44961148500442505
visibility: 0.6543283462524414
","x: 253.3600616455078
y: 405.9958190917969
z: -0.5175621509552002
visibility: 0.9059693813323975
","x: 241.2906036376953
y: 379.4497985839844
z: 0.046920500695705414
visibility: 0.9993370175361633
","x: 221.43017578125
y: 374.2712707519531
z: -0.04660261422395706
visibility: 0.9992701411247253
","x: 254.8350372314453
y: 434.615234375
z: -0.2018090933561325
visibility: 0.8671566843986511
","x: 229.24932861328125
y: 420.760498046875
z: -0.3634788691997528
visibility: 0.9659715294837952
","x: 237.1864471435547
y: 501.3205261230469
z: -0.002759945811703801
visibility: 0.9200361371040344
","x: 222.0662841796875
y: 506.5816650390625
z: -0.23086576163768768
visibility: 0.9604999423027039
","x: 233.64678955078125
y: 509.2399597167969
z: 0.009767482057213783
visibility: 0.8424254655838013
","x: 218.63525390625
y: 517.493408203125
z: -0.22371533513069153
visibility: 0.8557915091514587
","x: 253.44297790527344
y: 519.4193725585938
z: -0.10793961584568024
visibility: 0.9361234307289124
","x: 230.45956420898438
y: 531.9463500976562
z: -0.3686628043651581
visibility: 0.9620231986045837
",,,,,,,,,,,,,,,,,,,,,,,,,,,,,,,,,,,,,,,,,,
14,"x: 232.5442657470703
y: 268.1036682128906
z: -0.43971794843673706
visibility: 0.9991186261177063
","x: 234.59573364257812
y: 260.0555725097656
z: -0.4264816641807556
visibility: 0.9977629780769348
","x: 236.14059448242188
y: 259.52630615234375
z: -0.4265595078468323
visibility: 0.9973962903022766
","x: 237.47955322265625
y: 258.9868469238281
z: -0.42669597268104553
visibility: 0.9978950619697571
","x: 229.5720977783203
y: 260.572021484375
z: -0.4287000596523285
visibility: 0.9985007047653198
","x: 227.53866577148438
y: 260.4700927734375
z: -0.4287726879119873
visibility: 0.9986792206764221
","x: 225.68142700195312
y: 260.37286376953125
z: -0.4288073182106018
visibility: 0.9987268447875977
","x: 240.71054077148438
y: 258.4432373046875
z: -0.3105432391166687
visibility: 0.9935478568077087
","x: 224.26437377929688
y: 261.0812072753906
z: -0.34380730986595154
visibility: 0.9983780980110168
","x: 235.6541748046875
y: 273.67724609375
z: -0.3922048807144165
visibility: 0.9982620477676392
","x: 229.9785919189453
y: 274.8595886230469
z: -0.39402133226394653
visibility: 0.9990729689598083
","x: 257.39678955078125
y: 289.2843322753906
z: -0.17369426786899567
visibility: 0.9996626973152161
","x: 214.64523315429688
y: 302.9556884765625
z: -0.26588505506515503
visibility: 0.9998582005500793
","x: 269.1114501953125
y: 330.2549743652344
z: -0.21973899006843567
visibility: 0.7200673222541809
","x: 220.26951599121094
y: 360.2984924316406
z: -0.322844922542572
visibility: 0.9908525347709656
","x: 279.7774353027344
y: 355.3872375488281
z: -0.4132898449897766
visibility: 0.6673463582992554
","x: 242.8829345703125
y: 390.67547607421875
z: -0.4230557084083557
visibility: 0.9723073840141296
","x: 283.6531982421875
y: 360.45404052734375
z: -0.45777925848960876
visibility: 0.6511667966842651
","x: 248.36622619628906
y: 402.46539306640625
z: -0.45909398794174194
visibility: 0.9461178183555603
","x: 282.26629638671875
y: 361.385498046875
z: -0.47888103127479553
visibility: 0.6657217144966125
","x: 253.08242797851562
y: 397.9983825683594
z: -0.4642608165740967
visibility: 0.9451438784599304
","x: 280.3459167480469
y: 360.5311279296875
z: -0.4274877607822418
visibility: 0.6524268984794617
","x: 252.66598510742188
y: 393.88385009765625
z: -0.42454662919044495
visibility: 0.9084474444389343
","x: 242.17813110351562
y: 379.9508972167969
z: 0.028842225670814514
visibility: 0.9993389248847961
","x: 222.1820831298828
y: 375.5673522949219
z: -0.02855704165995121
visibility: 0.9992839097976685
","x: 258.9698791503906
y: 440.9369201660156
z: -0.23174437880516052
visibility: 0.8733686208724976
","x: 227.537353515625
y: 422.8139953613281
z: -0.32072895765304565
visibility: 0.9684291481971741
","x: 237.31564331054688
y: 501.67486572265625
z: -0.0234437994658947
visibility: 0.9194400310516357
","x: 222.20611572265625
y: 506.6278076171875
z: -0.16115495562553406
visibility: 0.9634560942649841
","x: 233.5206298828125
y: 509.3080139160156
z: -0.009537109173834324
visibility: 0.8468075394630432
","x: 219.8876190185547
y: 516.953857421875
z: -0.1505841761827469
visibility: 0.8638117909431458
","x: 254.03225708007812
y: 519.44091796875
z: -0.12579776346683502
visibility: 0.932212233543396
","x: 229.07928466796875
y: 532.1409912109375
z: -0.2875356674194336
visibility: 0.9639103412628174
",,,,,,,,,,,,,,,,,,,,,,,,,,,,,,,,,,,,,,,,,,
15,"x: 225.9573211669922
y: 251.28323364257812
z: -0.3312889337539673
visibility: 0.9992066025733948
","x: 228.9840545654297
y: 244.5824432373047
z: -0.31105342507362366
visibility: 0.9979860782623291
","x: 230.63702392578125
y: 245.35147094726562
z: -0.3110789656639099
visibility: 0.9976560473442078
","x: 232.14747619628906
y: 246.2034454345703
z: -0.31113699078559875
visibility: 0.9981048107147217
","x: 224.4019012451172
y: 243.7477264404297
z: -0.30715978145599365
visibility: 0.9986500144004822
","x: 222.9768829345703
y: 243.9305419921875
z: -0.30718794465065
visibility: 0.9988107085227966
","x: 221.7061309814453
y: 244.2007598876953
z: -0.30716317892074585
visibility: 0.9988533854484558
","x: 235.0594482421875
y: 254.8470916748047
z: -0.20254571735858917
visibility: 0.9941920042037964
","x: 221.50225830078125
y: 250.4475555419922
z: -0.19414719939231873
visibility: 0.9985394477844238
","x: 229.00311279296875
y: 260.3973388671875
z: -0.2928027808666229
visibility: 0.9984356760978699
","x: 222.98358154296875
y: 260.3320617675781
z: -0.28647810220718384
visibility: 0.9991655349731445
","x: 251.7372283935547
y: 286.7017517089844
z: -0.13232651352882385
visibility: 0.9996943473815918
","x: 209.63442993164062
y: 295.2173767089844
z: -0.1500752866268158
visibility: 0.9998701810836792
","x: 267.5328063964844
y: 326.29913330078125
z: -0.13381870090961456
visibility: 0.7466408014297485
","x: 209.09060668945312
y: 349.7744140625
z: -0.1901351511478424
visibility: 0.9905300736427307
","x: 278.9415588378906
y: 359.7053527832031
z: -0.27258455753326416
visibility: 0.6979833245277405
","x: 220.3972625732422
y: 380.21795654296875
z: -0.31729787588119507
visibility: 0.9711055159568787
","x: 283.5412902832031
y: 366.3891296386719
z: -0.30649763345718384
visibility: 0.6809019446372986
","x: 223.29579162597656
y: 393.9566345214844
z: -0.3524180054664612
visibility: 0.9438453316688538
","x: 281.294189453125
y: 368.6258544921875
z: -0.3299844563007355
visibility: 0.6946972012519836
","x: 227.06272888183594
y: 390.6594543457031
z: -0.3672422766685486
visibility: 0.9429193735122681
","x: 279.1988525390625
y: 367.0861511230469
z: -0.2855086922645569
visibility: 0.6815927028656006
","x: 227.36856079101562
y: 386.021484375
z: -0.32498282194137573
visibility: 0.9067524075508118
","x: 242.32635498046875
y: 380.80218505859375
z: 0.02408909611403942
visibility: 0.9993913769721985
","x: 222.39718627929688
y: 378.19873046875
z: -0.02402748167514801
visibility: 0.9993475079536438
","x: 259.2476501464844
y: 449.0472717285156
z: -0.11976435035467148
visibility: 0.8839190006256104
","x: 224.2725372314453
y: 438.27459716796875
z: -0.23395760357379913
visibility: 0.9713201522827148
","x: 238.96444702148438
y: 501.602783203125
z: 0.0829722136259079
visibility: 0.925132691860199
","x: 222.22471618652344
y: 507.9241943359375
z: -0.10678718239068985
visibility: 0.9667402505874634
","x: 233.900146484375
y: 509.2105712890625
z: 0.10798047482967377
visibility: 0.8561338186264038
","x: 220.4851531982422
y: 518.4398193359375
z: -0.08812784403562546
visibility: 0.8721854090690613
","x: 254.9342498779297
y: 519.3984375
z: 0.0061596715822815895
visibility: 0.9360796213150024
","x: 227.87216186523438
y: 532.8650512695312
z: -0.23535975813865662
visibility: 0.9668135046958923
",,,,,,,,,,,,,,,,,,,,,,,,,,,,,,,,,,,,,,,,,,
16,"x: 225.47366333007812
y: 236.7790985107422
z: -0.3538961112499237
visibility: 0.9992848634719849
","x: 228.66856384277344
y: 230.3284912109375
z: -0.3326038122177124
visibility: 0.9981842041015625
","x: 230.28587341308594
y: 231.3072509765625
z: -0.33269232511520386
visibility: 0.9978877902030945
","x: 231.97764587402344
y: 232.4755859375
z: -0.33284422755241394
visibility: 0.9982916116714478
","x: 224.75157165527344
y: 228.66336059570312
z: -0.3265286087989807
visibility: 0.9987790584564209
","x: 223.51231384277344
y: 228.4249725341797
z: -0.32659879326820374
visibility: 0.9989234209060669
","x: 222.30282592773438
y: 228.29083251953125
z: -0.32665756344795227
visibility: 0.9989581108093262
","x: 234.84791564941406
y: 240.1410675048828
z: -0.21787384152412415
visibility: 0.9947686195373535
","x: 221.37860107421875
y: 232.8868408203125
z: -0.22291186451911926
visibility: 0.9986705780029297
","x: 227.7568359375
y: 246.1746826171875
z: -0.314939022064209
visibility: 0.9985915422439575
","x: 222.80819702148438
y: 244.6047821044922
z: -0.3027079701423645
visibility: 0.9992482662200928
","x: 248.65029907226562
y: 283.55731201171875
z: -0.15443214774131775
visibility: 0.9997240304946899
","x: 209.29588317871094
y: 284.90582275390625
z: -0.1431589126586914
visibility: 0.9998750686645508
","x: 265.5252990722656
y: 327.7994384765625
z: -0.16168592870235443
visibility: 0.7711586952209473
","x: 206.25587463378906
y: 338.101318359375
z: -0.11428315937519073
visibility: 0.9706568717956543
","x: 277.6366271972656
y: 368.32989501953125
z: -0.27643734216690063
visibility: 0.7253849506378174
","x: 203.94776916503906
y: 374.75750732421875
z: -0.2193130999803543
visibility: 0.9248559474945068
","x: 282.3896179199219
y: 379.2498779296875
z: -0.3088782727718353
visibility: 0.7075980305671692
","x: 202.1371307373047
y: 386.7735290527344
z: -0.24774642288684845
visibility: 0.8996756672859192
","x: 280.3802185058594
y: 381.23675537109375
z: -0.3377443552017212
visibility: 0.7203847765922546
","x: 202.63087463378906
y: 385.2125549316406
z: -0.279051274061203
visibility: 0.9002431035041809
","x: 278.3895263671875
y: 378.7599182128906
z: -0.289855420589447
visibility: 0.7066404819488525
","x: 204.59144592285156
y: 380.8218688964844
z: -0.2342483252286911
visibility: 0.8638911247253418
","x: 243.00050354003906
y: 377.17138671875
z: 0.02114691212773323
visibility: 0.999442458152771
","x: 222.69786071777344
y: 375.7086181640625
z: -0.021042853593826294
visibility: 0.9994017481803894
","x: 257.7536926269531
y: 448.91668701171875
z: -0.09070945531129837
visibility: 0.893454372882843
","x: 223.3391876220703
y: 437.3743896484375
z: -0.2217492163181305
visibility: 0.9737411141395569
","x: 240.9587860107422
y: 501.58831787109375
z: 0.1716712862253189
visibility: 0.9304732084274292
","x: 222.2841796875
y: 508.6324768066406
z: -0.04710577800869942
visibility: 0.9696797132492065
","x: 235.97337341308594
y: 509.1463928222656
z: 0.1912918984889984
visibility: 0.8622179627418518
","x: 221.48211669921875
y: 518.4542236328125
z: -0.03377927467226982
visibility: 0.8784872889518738
","x: 254.61407470703125
y: 519.953125
z: 0.08007456362247467
visibility: 0.9394353628158569
","x: 227.4121856689453
y: 533.14306640625
z: -0.1870293915271759
visibility: 0.9694706797599792
",,,,,,,,,,,,,,,,,,,,,,,,,,,,,,,,,,,,,,,,,,
17,"x: 226.68580627441406
y: 224.5663299560547
z: -0.38870054483413696
visibility: 0.9993556141853333
","x: 230.66627502441406
y: 218.2437744140625
z: -0.36845189332962036
visibility: 0.9983631372451782
","x: 232.45770263671875
y: 219.3173828125
z: -0.3685232996940613
visibility: 0.998096764087677
","x: 234.07757568359375
y: 220.51992797851562
z: -0.36864009499549866
visibility: 0.9984601736068726
","x: 225.95974731445312
y: 216.44015502929688
z: -0.36239802837371826
visibility: 0.9988957047462463
","x: 224.68515014648438
y: 216.28570556640625
z: -0.36244216561317444
visibility: 0.9990253448486328
","x: 223.63023376464844
y: 216.20135498046875
z: -0.3624875545501709
visibility: 0.9990547895431519
","x: 236.7528076171875
y: 226.6016845703125
z: -0.25289854407310486
visibility: 0.9952868223190308
","x: 223.2312469482422
y: 220.9285125732422
z: -0.24310755729675293
visibility: 0.9987865686416626
","x: 229.86907958984375
y: 234.08822631835938
z: -0.3471747040748596
visibility: 0.9987317323684692
","x: 223.93075561523438
y: 232.23696899414062
z: -0.3399812579154968
visibility: 0.9993225932121277
","x: 248.83123779296875
y: 281.886474609375
z: -0.17646029591560364
visibility: 0.9997502565383911
","x: 210.56549072265625
y: 273.9422912597656
z: -0.1479838341474533
visibility: 0.9998743534088135
","x: 262.61279296875
y: 332.6374816894531
z: -0.15593478083610535
visibility: 0.7927044034004211
","x: 204.3244171142578
y: 327.9132385253906
z: -0.10046476125717163
visibility: 0.9520769119262695
","x: 274.8899230957031
y: 378.297119140625
z: -0.24580900371074677
visibility: 0.7489733695983887
","x: 198.0589599609375
y: 372.3155212402344
z: -0.18817546963691711
visibility: 0.890163242816925
","x: 281.1004943847656
y: 393.78033447265625
z: -0.27297183871269226
visibility: 0.7300606966018677
","x: 193.5277557373047
y: 383.621337890625
z: -0.2123708724975586
visibility: 0.864606499671936
","x: 280.18402099609375
y: 396.2255859375
z: -0.29855602979660034
visibility: 0.7419793009757996
","x: 193.67388916015625
y: 382.5140686035156
z: -0.2472575157880783
visibility: 0.8675182461738586
","x: 276.6702575683594
y: 390.5403137207031
z: -0.25836631655693054
visibility: 0.727611243724823
","x: 196.06214904785156
y: 378.4420166015625
z: -0.2045302838087082
visibility: 0.8326751589775085
","x: 242.98037719726562
y: 375.6824951171875
z: 0.010264095850288868
visibility: 0.9994907379150391
","x: 220.93624877929688
y: 373.93609619140625
z: -0.010236029513180256
visibility: 0.9994544386863708
","x: 256.59625244140625
y: 446.88885498046875
z: -0.08229772001504898
visibility: 0.9029964804649353
","x: 222.7631378173828
y: 439.3647766113281
z: -0.22310176491737366
visibility: 0.9760982990264893
","x: 244.63917541503906
y: 501.10205078125
z: 0.22661936283111572
visibility: 0.9364761710166931
","x: 222.2978515625
y: 508.3241271972656
z: -0.02109469287097454
visibility: 0.972427487373352
","x: 241.2370147705078
y: 507.94232177734375
z: 0.24840128421783447
visibility: 0.86470627784729
","x: 222.0274658203125
y: 517.9556884765625
z: -0.007450747303664684
visibility: 0.8829928040504456
","x: 251.78564453125
y: 521.5277709960938
z: 0.1278403103351593
visibility: 0.9436801075935364
","x: 227.53211975097656
y: 533.2648315429688
z: -0.17082032561302185
visibility: 0.9720919728279114
",,,,,,,,,,,,,,,,,,,,,,,,,,,,,,,,,,,,,,,,,,
18,"x: 230.1160888671875
y: 223.8768768310547
z: -0.348121702671051
visibility: 0.9994193315505981
","x: 233.3148651123047
y: 216.6153564453125
z: -0.3339477479457855
visibility: 0.9985241889953613
","x: 234.87411499023438
y: 217.31988525390625
z: -0.3339616656303406
visibility: 0.9982842803001404
","x: 236.36207580566406
y: 218.18576049804688
z: -0.3339492380619049
visibility: 0.9986114501953125
","x: 228.8364715576172
y: 215.61093139648438
z: -0.3261929154396057
visibility: 0.9990036487579346
","x: 227.44322204589844
y: 215.52667236328125
z: -0.3262295424938202
visibility: 0.9991199374198914
","x: 226.16111755371094
y: 215.4775390625
z: -0.3262701630592346
visibility: 0.9991467595100403
","x: 238.85342407226562
y: 222.89071655273438
z: -0.23911888897418976
visibility: 0.99575275182724
","x: 224.8194580078125
y: 219.34625244140625
z: -0.2160615175962448
visibility: 0.9989013075828552
","x: 232.93186950683594
y: 232.77235412597656
z: -0.3132818043231964
visibility: 0.9988577365875244
","x: 227.3133544921875
y: 231.63632202148438
z: -0.3032579720020294
visibility: 0.9993897676467896
","x: 249.41954040527344
y: 281.02862548828125
z: -0.18171334266662598
visibility: 0.9997719526290894
","x: 212.45860290527344
y: 269.7500915527344
z: -0.11394180357456207
visibility: 0.999884307384491
","x: 247.03533935546875
y: 332.0799255371094
z: -0.17514295876026154
visibility: 0.812799870967865
","x: 202.72494506835938
y: 317.5435485839844
z: -0.061532098799943924
visibility: 0.9525676965713501
","x: 233.87367248535156
y: 370.5642395019531
z: -0.2636655271053314
visibility: 0.7727939486503601
","x: 196.5740203857422
y: 364.1706848144531
z: -0.16050931811332703
visibility: 0.8919198513031006
","x: 231.59417724609375
y: 383.1840515136719
z: -0.2980658710002899
visibility: 0.7542418837547302
","x: 194.10443115234375
y: 377.8747253417969
z: -0.18969595432281494
visibility: 0.863204836845398
","x: 228.46646118164062
y: 380.6048889160156
z: -0.31791165471076965
visibility: 0.765156090259552
","x: 195.4318084716797
y: 379.9974060058594
z: -0.21813854575157166
visibility: 0.8670446872711182
","x: 228.60560607910156
y: 376.440185546875
z: -0.271997332572937
visibility: 0.750562310218811
","x: 196.80551147460938
y: 375.4207763671875
z: -0.1742888242006302
visibility: 0.8336616158485413
","x: 243.38670349121094
y: 374.711669921875
z: -0.0039030860643833876
visibility: 0.9995211958885193
","x: 221.26751708984375
y: 373.0233154296875
z: 0.003811518894508481
visibility: 0.999503493309021
","x: 248.44688415527344
y: 444.716796875
z: 0.0289093516767025
visibility: 0.9117322564125061
","x: 220.62640380859375
y: 441.1964111328125
z: -0.09229409694671631
visibility: 0.978137195110321
","x: 249.85107421875
y: 499.4222717285156
z: 0.27016735076904297
visibility: 0.9419432282447815
","x: 222.7188262939453
y: 508.7437438964844
z: 0.08440957963466644
visibility: 0.9747096300125122
","x: 248.602783203125
y: 505.72607421875
z: 0.28784486651420593
visibility: 0.8643023371696472
","x: 224.33819580078125
y: 517.665283203125
z: 0.09549452364444733
visibility: 0.8837950229644775
","x: 251.03030395507812
y: 521.8819580078125
z: 0.17454713582992554
visibility: 0.9482560753822327
","x: 227.1765899658203
y: 533.5745849609375
z: -0.030295196920633316
visibility: 0.974165141582489
",,,,,,,,,,,,,,,,,,,,,,,,,,,,,,,,,,,,,,,,,,
19,"x: 230.08746337890625
y: 214.5069580078125
z: -0.17290213704109192
visibility: 0.9994394779205322
","x: 233.4789581298828
y: 208.2227783203125
z: -0.15996375679969788
visibility: 0.9986111521720886
","x: 235.0355224609375
y: 209.18423461914062
z: -0.16005617380142212
visibility: 0.9983935356140137
","x: 236.63905334472656
y: 210.33409118652344
z: -0.16010013222694397
visibility: 0.9986898303031921
","x: 229.03831481933594
y: 206.68536376953125
z: -0.15139898657798767
visibility: 0.999021053314209
","x: 227.6539764404297
y: 206.62393188476562
z: -0.1513744443655014
visibility: 0.9990952610969543
","x: 226.326904296875
y: 206.72959899902344
z: -0.15139761567115784
visibility: 0.9991050362586975
","x: 239.63177490234375
y: 215.91920471191406
z: -0.08029679954051971
visibility: 0.9961142539978027
","x: 225.27479553222656
y: 210.23033142089844
z: -0.04173038899898529
visibility: 0.9988324642181396
","x: 233.18638610839844
y: 223.388671875
z: -0.14300969243049622
visibility: 0.9989307522773743
","x: 227.05792236328125
y: 222.45419311523438
z: -0.1322079300880432
visibility: 0.9994019865989685
","x: 249.65283203125
y: 263.7674255371094
z: -0.09294117987155914
visibility: 0.999654233455658
","x: 213.60479736328125
y: 255.210205078125
z: 0.024477025493979454
visibility: 0.9997515082359314
","x: 238.37147521972656
y: 300.265625
z: -0.22939911484718323
visibility: 0.8274045586585999
","x: 204.60980224609375
y: 286.0749206542969
z: 0.006379010621458292
visibility: 0.9064193964004517
","x: 215.9279022216797
y: 268.9364318847656
z: -0.36515212059020996
visibility: 0.7922195196151733
","x: 207.4843292236328
y: 264.5687561035156
z: -0.08520857989788055
visibility: 0.8517759442329407
","x: 210.09780883789062
y: 259.5373840332031
z: -0.40307244658470154
visibility: 0.7738125920295715
","x: 204.5829620361328
y: 256.0778503417969
z: -0.10819335281848907
visibility: 0.8216444253921509
","x: 210.34664916992188
y: 253.4248046875
z: -0.3987954556941986
visibility: 0.783388078212738
","x: 207.3979949951172
y: 262.53961181640625
z: -0.1142536848783493
visibility: 0.8248259425163269
","x: 212.51132202148438
y: 257.11651611328125
z: -0.3664546608924866
visibility: 0.7665051817893982
","x: 208.6263427734375
y: 264.2586669921875
z: -0.09214711934328079
visibility: 0.7923824191093445
","x: 243.819580078125
y: 367.89300537109375
z: -0.013538658618927002
visibility: 0.9995365738868713
","x: 221.45367431640625
y: 366.73077392578125
z: 0.01357298530638218
visibility: 0.9995329976081848
","x: 247.95086669921875
y: 443.95654296875
z: -0.011894247494637966
visibility: 0.9196910858154297
","x: 221.759765625
y: 439.0909423828125
z: -0.061982959508895874
visibility: 0.9799941778182983
","x: 251.14585876464844
y: 496.5301513671875
z: 0.22707147896289825
visibility: 0.9454602003097534
","x: 223.68092346191406
y: 508.3773498535156
z: 0.09933830797672272
visibility: 0.9766144156455994
","x: 250.47288513183594
y: 501.70965576171875
z: 0.24570026993751526
visibility: 0.8497031927108765
","x: 225.9748077392578
y: 517.4779663085938
z: 0.10917334258556366
visibility: 0.8820840120315552
","x: 250.45977783203125
y: 521.8927612304688
z: 0.1406777799129486
visibility: 0.950368344783783
","x: 227.146484375
y: 533.3824462890625
z: -0.011150706559419632
visibility: 0.9757046699523926
",,,,,,,,,,,,,,,,,,,,,,"x: 211.86610412597656
y: 262.3652038574219
z: 0.0
","x: 208.29010009765625
y: 253.7134552001953
z: 0.0015425916062667966
","x: 206.45626831054688
y: 244.614013671875
z: -0.0005090886261314154
","x: 205.976806640625
y: 237.62017822265625
z: -0.0034772520884871483
","x: 206.32798767089844
y: 231.93946838378906
z: -0.005809801630675793
","x: 207.62451171875
y: 240.58343505859375
z: -0.002986605977639556
","x: 203.3009796142578
y: 238.7561798095703
z: -0.006749055348336697
","x: 201.76275634765625
y: 241.37452697753906
z: -0.007943280972540379
","x: 201.4691619873047
y: 243.22384643554688
z: -0.008520199917256832
","x: 209.59466552734375
y: 243.37661743164062
z: -0.0065772091038525105
","x: 204.82449340820312
y: 245.34271240234375
z: -0.010359374806284904
","x: 203.79075622558594
y: 248.86473083496094
z: -0.009708814322948456
","x: 203.9794464111328
y: 250.95350646972656
z: -0.009169667027890682
","x: 211.41061401367188
y: 247.5341033935547
z: -0.010176158510148525
","x: 206.8334503173828
y: 250.44589233398438
z: -0.013195059262216091
","x: 205.6838836669922
y: 253.85577392578125
z: -0.010764367878437042
","x: 205.56854248046875
y: 256.20233154296875
z: -0.009043174795806408
","x: 212.87692260742188
y: 252.50856018066406
z: -0.013839776627719402
","x: 209.0200958251953
y: 254.53610229492188
z: -0.015771042555570602
","x: 207.52426147460938
y: 257.1231689453125
z: -0.014106998220086098
","x: 206.9823455810547
y: 259.4466857910156
z: -0.012670149095356464
"
20,"x: 230.08746337890625
y: 214.5069580078125
z: -0.17290213704109192
visibility: 0.9994394779205322
","x: 233.4789581298828
y: 208.2227783203125
z: -0.15996375679969788
visibility: 0.9986111521720886
","x: 235.0355224609375
y: 209.18423461914062
z: -0.16005617380142212
visibility: 0.9983935356140137
","x: 236.63905334472656
y: 210.33409118652344
z: -0.16010013222694397
visibility: 0.9986898303031921
","x: 229.03831481933594
y: 206.68536376953125
z: -0.15139898657798767
visibility: 0.999021053314209
","x: 227.6539764404297
y: 206.62393188476562
z: -0.1513744443655014
visibility: 0.9990952610969543
","x: 226.326904296875
y: 206.72959899902344
z: -0.15139761567115784
visibility: 0.9991050362586975
","x: 239.63177490234375
y: 215.91920471191406
z: -0.08029679954051971
visibility: 0.9961142539978027
","x: 225.27479553222656
y: 210.23033142089844
z: -0.04173038899898529
visibility: 0.9988324642181396
","x: 233.18638610839844
y: 223.388671875
z: -0.14300969243049622
visibility: 0.9989307522773743
","x: 227.05792236328125
y: 222.45419311523438
z: -0.1322079300880432
visibility: 0.9994019865989685
","x: 249.65283203125
y: 263.7674255371094
z: -0.09294117987155914
visibility: 0.999654233455658
","x: 213.60479736328125
y: 255.210205078125
z: 0.024477025493979454
visibility: 0.9997515082359314
","x: 238.37147521972656
y: 300.265625
z: -0.22939911484718323
visibility: 0.8274045586585999
","x: 204.60980224609375
y: 286.0749206542969
z: 0.006379010621458292
visibility: 0.9064193964004517
","x: 215.9279022216797
y: 268.9364318847656
z: -0.36515212059020996
visibility: 0.7922195196151733
","x: 207.4843292236328
y: 264.5687561035156
z: -0.08520857989788055
visibility: 0.8517759442329407
","x: 210.09780883789062
y: 259.5373840332031
z: -0.40307244658470154
visibility: 0.7738125920295715
","x: 204.5829620361328
y: 256.0778503417969
z: -0.10819335281848907
visibility: 0.8216444253921509
","x: 210.34664916992188
y: 253.4248046875
z: -0.3987954556941986
visibility: 0.783388078212738
","x: 207.3979949951172
y: 262.53961181640625
z: -0.1142536848783493
visibility: 0.8248259425163269
","x: 212.51132202148438
y: 257.11651611328125
z: -0.3664546608924866
visibility: 0.7665051817893982
","x: 208.6263427734375
y: 264.2586669921875
z: -0.09214711934328079
visibility: 0.7923824191093445
","x: 243.819580078125
y: 367.89300537109375
z: -0.013538658618927002
visibility: 0.9995365738868713
","x: 221.45367431640625
y: 366.73077392578125
z: 0.01357298530638218
visibility: 0.9995329976081848
","x: 247.95086669921875
y: 443.95654296875
z: -0.011894247494637966
visibility: 0.9196910858154297
","x: 221.759765625
y: 439.0909423828125
z: -0.061982959508895874
visibility: 0.9799941778182983
","x: 251.14585876464844
y: 496.5301513671875
z: 0.22707147896289825
visibility: 0.9454602003097534
","x: 223.68092346191406
y: 508.3773498535156
z: 0.09933830797672272
visibility: 0.9766144156455994
","x: 250.47288513183594
y: 501.70965576171875
z: 0.24570026993751526
visibility: 0.8497031927108765
","x: 225.9748077392578
y: 517.4779663085938
z: 0.10917334258556366
visibility: 0.8820840120315552
","x: 250.45977783203125
y: 521.8927612304688
z: 0.1406777799129486
visibility: 0.950368344783783
","x: 227.146484375
y: 533.3824462890625
z: -0.011150706559419632
visibility: 0.9757046699523926
",,,,,,,,,,,,,,,,,,,,,,"x: 211.86610412597656
y: 262.3652038574219
z: 0.0
","x: 208.29010009765625
y: 253.7134552001953
z: 0.0015425916062667966
","x: 206.45626831054688
y: 244.614013671875
z: -0.0005090886261314154
","x: 205.976806640625
y: 237.62017822265625
z: -0.0034772520884871483
","x: 206.32798767089844
y: 231.93946838378906
z: -0.005809801630675793
","x: 207.62451171875
y: 240.58343505859375
z: -0.002986605977639556
","x: 203.3009796142578
y: 238.7561798095703
z: -0.006749055348336697
","x: 201.76275634765625
y: 241.37452697753906
z: -0.007943280972540379
","x: 201.4691619873047
y: 243.22384643554688
z: -0.008520199917256832
","x: 209.59466552734375
y: 243.37661743164062
z: -0.0065772091038525105
","x: 204.82449340820312
y: 245.34271240234375
z: -0.010359374806284904
","x: 203.79075622558594
y: 248.86473083496094
z: -0.009708814322948456
","x: 203.9794464111328
y: 250.95350646972656
z: -0.009169667027890682
","x: 211.41061401367188
y: 247.5341033935547
z: -0.010176158510148525
","x: 206.8334503173828
y: 250.44589233398438
z: -0.013195059262216091
","x: 205.6838836669922
y: 253.85577392578125
z: -0.010764367878437042
","x: 205.56854248046875
y: 256.20233154296875
z: -0.009043174795806408
","x: 212.87692260742188
y: 252.50856018066406
z: -0.013839776627719402
","x: 209.0200958251953
y: 254.53610229492188
z: -0.015771042555570602
","x: 207.52426147460938
y: 257.1231689453125
z: -0.014106998220086098
","x: 206.9823455810547
y: 259.4466857910156
z: -0.012670149095356464
"
21,"x: 230.0370330810547
y: 206.6902313232422
z: -0.15319983661174774
visibility: 0.9994565844535828
","x: 232.88552856445312
y: 198.4355010986328
z: -0.13911812007427216
visibility: 0.9986961483955383
","x: 234.35243225097656
y: 199.210693359375
z: -0.13917367160320282
visibility: 0.998493492603302
","x: 235.8692169189453
y: 200.12489318847656
z: -0.1391822248697281
visibility: 0.9987574815750122
","x: 228.78273010253906
y: 196.97314453125
z: -0.13178092241287231
visibility: 0.9990476369857788
","x: 227.4004669189453
y: 196.84698486328125
z: -0.13176612555980682
visibility: 0.9990877509117126
","x: 226.0334930419922
y: 196.80589294433594
z: -0.13180717825889587
visibility: 0.9990915656089783
","x: 238.73031616210938
y: 204.19253540039062
z: -0.060975443571805954
visibility: 0.9964317083358765
","x: 224.75994873046875
y: 199.98046875
z: -0.026536891236901283
visibility: 0.9988038539886475
","x: 232.9821014404297
y: 213.95843505859375
z: -0.12429147958755493
visibility: 0.998974621295929
","x: 227.12826538085938
y: 212.95620727539062
z: -0.11482954025268555
visibility: 0.9993965029716492
","x: 249.16184997558594
y: 247.82476806640625
z: -0.07879964262247086
visibility: 0.9993777275085449
","x: 214.28704833984375
y: 241.9051513671875
z: -0.003409154014661908
visibility: 0.9996045231819153
","x: 232.99911499023438
y: 253.37060546875
z: -0.24527139961719513
visibility: 0.842110276222229
","x: 206.21449279785156
y: 245.48861694335938
z: -0.12630273401737213
visibility: 0.9110470414161682
","x: 221.050048828125
y: 199.34730529785156
z: -0.3522478938102722
visibility: 0.8111507296562195
","x: 209.0503387451172
y: 197.7034912109375
z: -0.31590771675109863
visibility: 0.8614469170570374
","x: 217.3011474609375
y: 185.32650756835938
z: -0.38714373111724854
visibility: 0.7925352454185486
","x: 208.05636596679688
y: 183.66807556152344
z: -0.3565792441368103
visibility: 0.8279330134391785
","x: 219.25634765625
y: 184.40863037109375
z: -0.3780292272567749
visibility: 0.8007709383964539
","x: 209.08799743652344
y: 183.90020751953125
z: -0.3369385898113251
visibility: 0.8290303945541382
","x: 220.21929931640625
y: 188.5728302001953
z: -0.3523238003253937
visibility: 0.7837562561035156
","x: 210.6598358154297
y: 188.4416046142578
z: -0.3172888159751892
visibility: 0.7980198264122009
","x: 243.83131408691406
y: 358.55572509765625
z: -0.006418862380087376
visibility: 0.9995567202568054
","x: 221.5103759765625
y: 357.2637634277344
z: 0.006296583916991949
visibility: 0.9995600581169128
","x: 248.14332580566406
y: 436.1535339355469
z: -0.022874902933835983
visibility: 0.9266217947006226
","x: 222.63629150390625
y: 438.1910400390625
z: -0.03141176328063011
visibility: 0.9811782240867615
","x: 251.31192016601562
y: 495.7217102050781
z: 0.19843406975269318
visibility: 0.9484941959381104
","x: 223.98678588867188
y: 508.1857604980469
z: 0.12432755529880524
visibility: 0.9775086641311646
","x: 249.98886108398438
y: 501.9813537597656
z: 0.21591314673423767
visibility: 0.8399366140365601
","x: 226.1504364013672
y: 516.2686767578125
z: 0.13405197858810425
visibility: 0.8706986308097839
","x: 251.1707763671875
y: 521.65283203125
z: 0.1266586184501648
visibility: 0.9518963098526001
","x: 226.90518188476562
y: 533.85546875
z: 0.015792949125170708
visibility: 0.9758089780807495
","x: 209.71786499023438
y: 191.00796508789062
z: 0.0
","x: 208.7510986328125
y: 184.49209594726562
z: 0.000829344498924911
","x: 208.87098693847656
y: 177.3459014892578
z: -0.0005614975816570222
","x: 209.4650421142578
y: 172.15211486816406
z: -0.0023787901736795902
","x: 209.955810546875
y: 168.84939575195312
z: -0.004115000832825899
","x: 208.20419311523438
y: 175.3204345703125
z: -0.005358979105949402
","x: 210.13223266601562
y: 167.60382080078125
z: -0.008592898957431316
","x: 212.36468505859375
y: 164.09051513671875
z: -0.00971190631389618
","x: 214.1970977783203
y: 162.24356079101562
z: -0.010186491534113884
","x: 209.62548828125
y: 177.88316345214844
z: -0.007614392787218094
","x: 212.56954956054688
y: 170.28286743164062
z: -0.01106012798845768
","x: 215.3505096435547
y: 166.7646484375
z: -0.011306890286505222
","x: 217.49021911621094
y: 164.9571533203125
z: -0.011327115818858147
","x: 211.39511108398438
y: 181.07931518554688
z: -0.009526627138257027
","x: 214.71397399902344
y: 174.9501953125
z: -0.01250314712524414
","x: 217.1521453857422
y: 172.33474731445312
z: -0.011816423386335373
","x: 218.82691955566406
y: 171.0711669921875
z: -0.011174442246556282
","x: 213.3125762939453
y: 184.536865234375
z: -0.011366358958184719
","x: 215.96104431152344
y: 180.42733764648438
z: -0.01349639892578125
","x: 217.32284545898438
y: 178.92189025878906
z: -0.01295862253755331
","x: 218.20474243164062
y: 178.27108764648438
z: -0.012357567436993122
",,,,,,,,,,,,,,,,,,,,,
22,"x: 230.0370330810547
y: 206.6902313232422
z: -0.15319983661174774
visibility: 0.9994565844535828
","x: 232.88552856445312
y: 198.4355010986328
z: -0.13911812007427216
visibility: 0.9986961483955383
","x: 234.35243225097656
y: 199.210693359375
z: -0.13917367160320282
visibility: 0.998493492603302
","x: 235.8692169189453
y: 200.12489318847656
z: -0.1391822248697281
visibility: 0.9987574815750122
","x: 228.78273010253906
y: 196.97314453125
z: -0.13178092241287231
visibility: 0.9990476369857788
","x: 227.4004669189453
y: 196.84698486328125
z: -0.13176612555980682
visibility: 0.9990877509117126
","x: 226.0334930419922
y: 196.80589294433594
z: -0.13180717825889587
visibility: 0.9990915656089783
","x: 238.73031616210938
y: 204.19253540039062
z: -0.060975443571805954
visibility: 0.9964317083358765
","x: 224.75994873046875
y: 199.98046875
z: -0.026536891236901283
visibility: 0.9988038539886475
","x: 232.9821014404297
y: 213.95843505859375
z: -0.12429147958755493
visibility: 0.998974621295929
","x: 227.12826538085938
y: 212.95620727539062
z: -0.11482954025268555
visibility: 0.9993965029716492
","x: 249.16184997558594
y: 247.82476806640625
z: -0.07879964262247086
visibility: 0.9993777275085449
","x: 214.28704833984375
y: 241.9051513671875
z: -0.003409154014661908
visibility: 0.9996045231819153
","x: 232.99911499023438
y: 253.37060546875
z: -0.24527139961719513
visibility: 0.842110276222229
","x: 206.21449279785156
y: 245.48861694335938
z: -0.12630273401737213
visibility: 0.9110470414161682
","x: 221.050048828125
y: 199.34730529785156
z: -0.3522478938102722
visibility: 0.8111507296562195
","x: 209.0503387451172
y: 197.7034912109375
z: -0.31590771675109863
visibility: 0.8614469170570374
","x: 217.3011474609375
y: 185.32650756835938
z: -0.38714373111724854
visibility: 0.7925352454185486
","x: 208.05636596679688
y: 183.66807556152344
z: -0.3565792441368103
visibility: 0.8279330134391785
","x: 219.25634765625
y: 184.40863037109375
z: -0.3780292272567749
visibility: 0.8007709383964539
","x: 209.08799743652344
y: 183.90020751953125
z: -0.3369385898113251
visibility: 0.8290303945541382
","x: 220.21929931640625
y: 188.5728302001953
z: -0.3523238003253937
visibility: 0.7837562561035156
","x: 210.6598358154297
y: 188.4416046142578
z: -0.3172888159751892
visibility: 0.7980198264122009
","x: 243.83131408691406
y: 358.55572509765625
z: -0.006418862380087376
visibility: 0.9995567202568054
","x: 221.5103759765625
y: 357.2637634277344
z: 0.006296583916991949
visibility: 0.9995600581169128
","x: 248.14332580566406
y: 436.1535339355469
z: -0.022874902933835983
visibility: 0.9266217947006226
","x: 222.63629150390625
y: 438.1910400390625
z: -0.03141176328063011
visibility: 0.9811782240867615
","x: 251.31192016601562
y: 495.7217102050781
z: 0.19843406975269318
visibility: 0.9484941959381104
","x: 223.98678588867188
y: 508.1857604980469
z: 0.12432755529880524
visibility: 0.9775086641311646
","x: 249.98886108398438
y: 501.9813537597656
z: 0.21591314673423767
visibility: 0.8399366140365601
","x: 226.1504364013672
y: 516.2686767578125
z: 0.13405197858810425
visibility: 0.8706986308097839
","x: 251.1707763671875
y: 521.65283203125
z: 0.1266586184501648
visibility: 0.9518963098526001
","x: 226.90518188476562
y: 533.85546875
z: 0.015792949125170708
visibility: 0.9758089780807495
","x: 209.71786499023438
y: 191.00796508789062
z: 0.0
","x: 208.7510986328125
y: 184.49209594726562
z: 0.000829344498924911
","x: 208.87098693847656
y: 177.3459014892578
z: -0.0005614975816570222
","x: 209.4650421142578
y: 172.15211486816406
z: -0.0023787901736795902
","x: 209.955810546875
y: 168.84939575195312
z: -0.004115000832825899
","x: 208.20419311523438
y: 175.3204345703125
z: -0.005358979105949402
","x: 210.13223266601562
y: 167.60382080078125
z: -0.008592898957431316
","x: 212.36468505859375
y: 164.09051513671875
z: -0.00971190631389618
","x: 214.1970977783203
y: 162.24356079101562
z: -0.010186491534113884
","x: 209.62548828125
y: 177.88316345214844
z: -0.007614392787218094
","x: 212.56954956054688
y: 170.28286743164062
z: -0.01106012798845768
","x: 215.3505096435547
y: 166.7646484375
z: -0.011306890286505222
","x: 217.49021911621094
y: 164.9571533203125
z: -0.011327115818858147
","x: 211.39511108398438
y: 181.07931518554688
z: -0.009526627138257027
","x: 214.71397399902344
y: 174.9501953125
z: -0.01250314712524414
","x: 217.1521453857422
y: 172.33474731445312
z: -0.011816423386335373
","x: 218.82691955566406
y: 171.0711669921875
z: -0.011174442246556282
","x: 213.3125762939453
y: 184.536865234375
z: -0.011366358958184719
","x: 215.96104431152344
y: 180.42733764648438
z: -0.01349639892578125
","x: 217.32284545898438
y: 178.92189025878906
z: -0.01295862253755331
","x: 218.20474243164062
y: 178.27108764648438
z: -0.012357567436993122
",,,,,,,,,,,,,,,,,,,,,
23,"x: 230.28857421875
y: 205.74301147460938
z: -0.1387316882610321
visibility: 0.9994757771492004
","x: 232.66293334960938
y: 198.02651977539062
z: -0.12592193484306335
visibility: 0.9987793564796448
","x: 234.04811096191406
y: 197.82745361328125
z: -0.12596382200717926
visibility: 0.9985916614532471
","x: 235.45269775390625
y: 197.74671936035156
z: -0.12597668170928955
visibility: 0.9988305568695068
","x: 228.91319274902344
y: 197.97645568847656
z: -0.11578407138586044
visibility: 0.9990689754486084
","x: 227.66725158691406
y: 197.74514770507812
z: -0.11575950682163239
visibility: 0.9990643858909607
","x: 226.42990112304688
y: 197.5703125
z: -0.11579910665750504
visibility: 0.9990707635879517
","x: 238.00360107421875
y: 199.91493225097656
z: -0.054402731359004974
visibility: 0.9967471957206726
","x: 225.02755737304688
y: 202.0452880859375
z: -0.006140029523521662
visibility: 0.9987831115722656
","x: 232.8397979736328
y: 211.473388671875
z: -0.11231736093759537
visibility: 0.9990288615226746
","x: 228.12362670898438
y: 211.56344604492188
z: -0.09891819208860397
visibility: 0.9994012713432312
","x: 248.90676879882812
y: 240.24981689453125
z: -0.07795190811157227
visibility: 0.9993408918380737
","x: 214.9774932861328
y: 240.64556884765625
z: 0.01583210565149784
visibility: 0.9995173215866089
","x: 234.89552307128906
y: 223.38157653808594
z: -0.24772104620933533
visibility: 0.8572550415992737
","x: 206.24847412109375
y: 222.9383087158203
z: -0.13541404902935028
visibility: 0.916433572769165
","x: 222.8269500732422
y: 168.18362426757812
z: -0.34522101283073425
visibility: 0.8295411467552185
","x: 211.48439025878906
y: 174.97804260253906
z: -0.30494481325149536
visibility: 0.8716524243354797
","x: 219.49063110351562
y: 157.89544677734375
z: -0.3829500079154968
visibility: 0.8120561838150024
","x: 211.69627380371094
y: 161.48916625976562
z: -0.347228467464447
visibility: 0.8363022208213806
","x: 220.59341430664062
y: 157.31375122070312
z: -0.3750942349433899
visibility: 0.8193135857582092
","x: 212.47344970703125
y: 161.25547790527344
z: -0.33197176456451416
visibility: 0.8357126116752625
","x: 221.45632934570312
y: 160.62026977539062
z: -0.346040278673172
visibility: 0.8033204078674316
","x: 213.18798828125
y: 165.05178833007812
z: -0.30740272998809814
visibility: 0.8067560195922852
","x: 243.65773010253906
y: 351.739013671875
z: -0.010828942060470581
visibility: 0.9995789527893066
","x: 221.03347778320312
y: 349.748779296875
z: 0.010737624019384384
visibility: 0.9995879530906677
","x: 247.62091064453125
y: 427.8218078613281
z: -0.02810288593173027
visibility: 0.9327824711799622
","x: 222.85877990722656
y: 434.0247802734375
z: -0.03352948650717735
visibility: 0.9822123646736145
","x: 251.09030151367188
y: 491.763916015625
z: 0.19091545045375824
visibility: 0.949899435043335
","x: 224.31326293945312
y: 507.98089599609375
z: 0.10958738625049591
visibility: 0.9781467318534851
","x: 250.0213623046875
y: 497.1150207519531
z: 0.2076398879289627
visibility: 0.8199337720870972
","x: 226.25193786621094
y: 516.237060546875
z: 0.117886483669281
visibility: 0.8586617112159729
","x: 251.21160888671875
y: 519.602783203125
z: 0.10416907072067261
visibility: 0.9508681297302246
","x: 226.94850158691406
y: 534.1076049804688
z: -0.004618019796907902
visibility: 0.9752285480499268
",,,,,,,,,,,,,,,,,,,,,,,,,,,,,,,,,,,,,,,,,,
24,"x: 227.99322509765625
y: 182.8801727294922
z: -0.09285009652376175
visibility: 0.9993928670883179
","x: 230.31707763671875
y: 176.76759338378906
z: -0.07384772598743439
visibility: 0.9987475872039795
","x: 231.94256591796875
y: 176.59173583984375
z: -0.07389024645090103
visibility: 0.9985541105270386
","x: 233.5634307861328
y: 176.45071411132812
z: -0.07391157001256943
visibility: 0.9987868070602417
","x: 225.58001708984375
y: 177.4849853515625
z: -0.07209278643131256
visibility: 0.9989013671875
","x: 224.04403686523438
y: 177.7816162109375
z: -0.07208320498466492
visibility: 0.9988338947296143
","x: 222.5225372314453
y: 178.092529296875
z: -0.07214723527431488
visibility: 0.9988543391227722
","x: 236.4281463623047
y: 181.79583740234375
z: 0.02023196406662464
visibility: 0.9969348311424255
","x: 221.089599609375
y: 184.19287109375
z: 0.031162161380052567
visibility: 0.9984769821166992
","x: 231.41209411621094
y: 191.15139770507812
z: -0.058361440896987915
visibility: 0.998893678188324
","x: 225.6982879638672
y: 192.00685119628906
z: -0.055752694606781006
visibility: 0.9990869760513306
","x: 246.875244140625
y: 228.29501342773438
z: 0.011803830042481422
visibility: 0.9988455772399902
","x: 212.87574768066406
y: 224.43875122070312
z: 0.020658791065216064
visibility: 0.9988137483596802
","x: 241.71063232421875
y: 229.5791473388672
z: -0.21616463363170624
visibility: 0.8646230697631836
","x: 208.88827514648438
y: 219.29913330078125
z: -0.16606505215168
visibility: 0.9141411185264587
","x: 228.5596160888672
y: 179.10760498046875
z: -0.30857473611831665
visibility: 0.8394047617912292
","x: 212.6055145263672
y: 165.70143127441406
z: -0.3331793546676636
visibility: 0.8755307793617249
","x: 224.48733520507812
y: 159.05523681640625
z: -0.34231987595558167
visibility: 0.8166046738624573
","x: 213.2452392578125
y: 153.6044464111328
z: -0.3745684027671814
visibility: 0.8360682725906372
","x: 225.21385192871094
y: 159.98065185546875
z: -0.3472987115383148
visibility: 0.8216662406921387
","x: 214.68299865722656
y: 153.4192352294922
z: -0.35944443941116333
visibility: 0.833728551864624
","x: 226.0608673095703
y: 164.7056427001953
z: -0.3132789433002472
visibility: 0.8055820465087891
","x: 215.19126892089844
y: 159.30149841308594
z: -0.3351115584373474
visibility: 0.8058355450630188
","x: 242.5778350830078
y: 338.6625671386719
z: -0.0016367161879315972
visibility: 0.9995790123939514
","x: 219.18362426757812
y: 337.466796875
z: 0.0015501885209232569
visibility: 0.9995933771133423
","x: 247.35231018066406
y: 420.2630310058594
z: -0.029652943834662437
visibility: 0.9378575086593628
","x: 221.7835693359375
y: 428.69390869140625
z: -0.028281033039093018
visibility: 0.9818350076675415
","x: 251.28053283691406
y: 489.7607116699219
z: 0.16601470112800598
visibility: 0.9487344026565552
","x: 224.63412475585938
y: 507.79913330078125
z: 0.10516134649515152
visibility: 0.9764879941940308
","x: 250.01358032226562
y: 495.4922180175781
z: 0.1809583306312561
visibility: 0.7945168614387512
","x: 226.58432006835938
y: 515.2246704101562
z: 0.11221221834421158
visibility: 0.8337916731834412
","x: 251.32444763183594
y: 518.933349609375
z: 0.07335484772920609
visibility: 0.9472413659095764
","x: 226.96475219726562
y: 534.4813842773438
z: -0.009603314101696014
visibility: 0.9715497493743896
","x: 217.2653045654297
y: 159.33999633789062
z: 0.0
","x: 218.81887817382812
y: 157.94638061523438
z: -0.0001594529312569648
","x: 220.08677673339844
y: 154.72592163085938
z: -0.001564765814691782
","x: 221.92800903320312
y: 152.08782958984375
z: -0.003811138216406107
","x: 223.48951721191406
y: 149.3626251220703
z: -0.005743346177041531
","x: 217.0980987548828
y: 141.43063354492188
z: 0.0006228805286809802
","x: 220.0550994873047
y: 134.30311584472656
z: -0.0017026382265612483
","x: 223.33538818359375
y: 132.81051635742188
z: -0.003583599580451846
","x: 225.8043212890625
y: 133.5008544921875
z: -0.004600157495588064
","x: 217.2557830810547
y: 140.57005310058594
z: -0.0012068308424204588
","x: 220.4151611328125
y: 133.13821411132812
z: -0.003645828692242503
","x: 223.93946838378906
y: 132.13613891601562
z: -0.005253015086054802
","x: 226.42477416992188
y: 133.11984252929688
z: -0.006124223582446575
","x: 218.2730712890625
y: 141.2167510986328
z: -0.0033241556957364082
","x: 221.46730041503906
y: 134.6687774658203
z: -0.00563259981572628
","x: 224.7647705078125
y: 133.54920959472656
z: -0.006683879066258669
","x: 227.16893005371094
