uscmakers/ReverseChoreography/data/9_feed_the_fire_lucky_daye.csv
,NOSE,LEFT_EYE_INNER,LEFT_EYE,LEFT_EYE_OUTER,RIGHT_EYE_INNER,RIGHT_EYE,RIGHT_EYE_OUTER,LEFT_EAR,RIGHT_EAR,MOUTH_LEFT,MOUTH_RIGHT,LEFT_SHOULDER,RIGHT_SHOULDER,LEFT_ELBOW,RIGHT_ELBOW,LEFT_WRIST,RIGHT_WRIST,LEFT_PINKY,RIGHT_PINKY,LEFT_INDEX,RIGHT_INDEX,LEFT_THUMB,RIGHT_THUMB,LEFT_HIP,RIGHT_HIP,LEFT_KNEE,RIGHT_KNEE,LEFT_ANKLE,RIGHT_ANKLE,LEFT_HEEL,RIGHT_HEEL,LEFT_FOOT_INDEX,RIGHT_FOOT_INDEX,WRIST,THUMB_CPC,THUMB_MCP,THUMB_IP,THUMB_TIP,INDEX_FINGER_MCP,INDEX_FINGER_PIP,INDEX_FINGER_DIP,INDEX_FINGER_TIP,MIDDLE_FINGER_MCP,MIDDLE_FINGER_PIP,MIDDLE_FINGER_DIP,MIDDLE_FINGER_TIP,RING_FINGER_PIP,RING_FINGER_DIP,RING_FINGER_TIP,RING_FINGER_MCP,PINKY_MCP,PINKY_PIP,PINKY_DIP,PINKY_TIP,WRIST2,THUMB_CPC2,THUMB_MCP2,THUMB_IP2,THUMB_TIP2,INDEX_FINGER_MCP2,INDEX_FINGER_PIP2,INDEX_FINGER_DIP2,INDEX_FINGER_TIP2,MIDDLE_FINGER_MCP2,MIDDLE_FINGER_PIP2,MIDDLE_FINGER_DIP2,MIDDLE_FINGER_TIP2,RING_FINGER_PIP2,RING_FINGER_DIP2,RING_FINGER_TIP2,RING_FINGER_MCP2,PINKY_MCP2,PINKY_PIP2,PINKY_DIP2,PINKY_TIP2
0,"x: 238.31007385253906
y: 224.79713439941406
z: -0.16543060541152954
visibility: 0.9998506307601929
","x: 240.7796630859375
y: 216.74151611328125
z: -0.15383487939834595
visibility: 0.9994970560073853
","x: 241.8803253173828
y: 216.2599334716797
z: -0.1538248062133789
visibility: 0.9995216131210327
","x: 242.94122314453125
y: 215.7945556640625
z: -0.15384498238563538
visibility: 0.9994359612464905
","x: 237.69822692871094
y: 217.2203369140625
z: -0.14987505972385406
visibility: 0.9994325041770935
","x: 236.76434326171875
y: 216.95346069335938
z: -0.14990858733654022
visibility: 0.9994686245918274
","x: 235.886962890625
y: 216.64039611816406
z: -0.1499202847480774
visibility: 0.9994670748710632
","x: 244.95114135742188
y: 216.2328338623047
z: -0.0662577897310257
visibility: 0.9996902942657471
","x: 235.3271942138672
y: 216.55764770507812
z: -0.04484303668141365
visibility: 0.9982695579528809
","x: 240.8644256591797
y: 230.0163116455078
z: -0.12964510917663574
visibility: 0.9997113347053528
","x: 237.0167999267578
y: 230.8848876953125
z: -0.1240069717168808
visibility: 0.9994223117828369
","x: 259.02215576171875
y: 255.34393310546875
z: -0.020897971466183662
visibility: 0.999805748462677
","x: 224.01759338378906
y: 251.98114013671875
z: 0.026911478489637375
visibility: 0.999595582485199
","x: 262.84613037109375
y: 309.97747802734375
z: 0.012734373100101948
visibility: 0.9626519680023193
","x: 219.97653198242188
y: 291.57635498046875
z: -0.07988938689231873
visibility: 0.9273729920387268
","x: 266.7969055175781
y: 350.96661376953125
z: -0.011412715539336205
visibility: 0.8341829776763916
","x: 233.7646026611328
y: 247.4250946044922
z: -0.2761583626270294
visibility: 0.9728977084159851
","x: 269.388916015625
y: 366.06024169921875
z: -0.01747109182178974
visibility: 0.7343754172325134
","x: 237.2536163330078
y: 232.91796875
z: -0.31229454278945923
visibility: 0.9449631571769714
","x: 268.27191162109375
y: 366.6491394042969
z: -0.041103292256593704
visibility: 0.7456030249595642
","x: 236.93646240234375
y: 231.17205810546875
z: -0.3112694025039673
visibility: 0.9425962567329407
","x: 266.10101318359375
y: 362.1844177246094
z: -0.01984907127916813
visibility: 0.7349608540534973
","x: 236.10989379882812
y: 236.09951782226562
z: -0.2810605764389038
visibility: 0.9186641573905945
","x: 252.9691619873047
y: 348.25823974609375
z: -0.03781367093324661
visibility: 0.9996205568313599
","x: 232.52291870117188
y: 353.779052734375
z: 0.03780963271856308
visibility: 0.9998013377189636
","x: 247.1463165283203
y: 418.43072509765625
z: -0.15398652851581573
visibility: 0.9958726763725281
","x: 231.95767211914062
y: 430.7180480957031
z: -0.0027767536230385303
visibility: 0.9747276902198792
","x: 260.3706359863281
y: 468.86181640625
z: 0.07930680364370346
visibility: 0.981212317943573
","x: 240.8115234375
y: 501.3722229003906
z: 0.10758443921804428
visibility: 0.9925837516784668
","x: 263.601318359375
y: 469.64678955078125
z: 0.09909646958112717
visibility: 0.7914279699325562
","x: 245.71380615234375
y: 510.5834655761719
z: 0.11290617287158966
visibility: 0.9635578989982605
","x: 254.8500213623047
y: 499.5445251464844
z: 0.02838895656168461
visibility: 0.978139340877533
","x: 234.3684539794922
y: 520.2484741210938
z: 0.02097589150071144
visibility: 0.9889020919799805
",,,,,,,,,,,,,,,,,,,,,,,,,,,,,,,,,,,,,,,,,,
1,"x: 244.17584228515625
y: 218.92332458496094
z: -0.22609198093414307
visibility: 0.9998615980148315
","x: 246.79052734375
y: 210.91482543945312
z: -0.2112218141555786
visibility: 0.9995368123054504
","x: 248.17025756835938
y: 210.87258911132812
z: -0.21121108531951904
visibility: 0.9995591044425964
","x: 249.43846130371094
y: 210.89463806152344
z: -0.21121899783611298
visibility: 0.9994807243347168
","x: 242.890380859375
y: 210.1173095703125
z: -0.21222403645515442
visibility: 0.9994768500328064
","x: 241.4683074951172
y: 209.51490783691406
z: -0.2122718095779419
visibility: 0.9995110630989075
","x: 240.08782958984375
y: 209.0152587890625
z: -0.2122841775417328
visibility: 0.9995089173316956
","x: 251.8256072998047
y: 213.5580291748047
z: -0.10882756859064102
visibility: 0.9997110366821289
","x: 238.282958984375
y: 211.1016082763672
z: -0.113253653049469
visibility: 0.9984201192855835
","x: 246.67361450195312
y: 225.6387939453125
z: -0.18583226203918457
visibility: 0.999729335308075
","x: 242.19720458984375
y: 225.73944091796875
z: -0.18745258450508118
visibility: 0.9994615316390991
","x: 263.6317138671875
y: 253.63067626953125
z: -0.03945617005228996
visibility: 0.9998115301132202
","x: 226.58363342285156
y: 249.57716369628906
z: -0.059425659477710724
visibility: 0.9995952844619751
","x: 268.3276672363281
y: 308.9785461425781
z: 0.0029791516717523336
visibility: 0.9639047384262085
","x: 225.1048583984375
y: 292.11871337890625
z: -0.17904092371463776
visibility: 0.9332879781723022
","x: 272.335205078125
y: 354.556884765625
z: -0.017382612451910973
visibility: 0.8470550179481506
","x: 239.50706481933594
y: 248.89617919921875
z: -0.3569484353065491
visibility: 0.975059449672699
","x: 274.5625915527344
y: 369.3224792480469
z: -0.02419368363916874
visibility: 0.7524144053459167
","x: 242.60064697265625
y: 235.0349578857422
z: -0.3933617174625397
visibility: 0.9491002559661865
","x: 272.85107421875
y: 371.07904052734375
z: -0.04815647006034851
visibility: 0.7627126574516296
","x: 241.645263671875
y: 232.02890014648438
z: -0.390933632850647
visibility: 0.9468377232551575
","x: 271.41522216796875
y: 365.43206787109375
z: -0.026042774319648743
visibility: 0.7520498037338257
","x: 241.0195770263672
y: 236.94186401367188
z: -0.35976871848106384
visibility: 0.9242901802062988
","x: 256.67364501953125
y: 348.90673828125
z: -0.011415383778512478
visibility: 0.9996201992034912
","x: 235.5369873046875
y: 351.70001220703125
z: 0.011381576769053936
visibility: 0.9997873306274414
","x: 256.3740234375
y: 427.0391845703125
z: -0.019620317965745926
visibility: 0.9950894713401794
","x: 234.85693359375
y: 430.5495910644531
z: 0.004059405066072941
visibility: 0.9757922887802124
","x: 255.6934814453125
y: 498.47052001953125
z: 0.10471262037754059
visibility: 0.9816327691078186
","x: 240.99305725097656
y: 501.3729248046875
z: 0.11729805171489716
visibility: 0.9921234846115112
","x: 255.610107421875
y: 510.1950378417969
z: 0.11000552028417587
visibility: 0.7981347441673279
","x: 245.60911560058594
y: 511.1725158691406
z: 0.12219808250665665
visibility: 0.955869734287262
","x: 252.0939483642578
y: 516.9486083984375
z: 0.007705760188400745
visibility: 0.9782747030258179
","x: 234.4313507080078
y: 520.353515625
z: 0.01983681134879589
visibility: 0.9883852601051331
","x: 241.24070739746094
y: 242.2091827392578
z: 0.0
","x: 241.56405639648438
y: 235.04275512695312
z: 0.0010696182725951076
","x: 243.3480224609375
y: 228.49725341796875
z: -0.0007203336572274566
","x: 245.84901428222656
y: 224.81423950195312
z: -0.003187782596796751
","x: 247.9189453125
y: 222.82034301757812
z: -0.005619910079985857
","x: 241.80368041992188
y: 225.74005126953125
z: -0.005713350139558315
","x: 246.4986114501953
y: 220.54330444335938
z: -0.009063293226063251
","x: 249.25460815429688
y: 219.53024291992188
z: -0.010158423334360123
","x: 251.15011596679688
y: 218.83477783203125
z: -0.01066307071596384
","x: 242.03302001953125
y: 228.89382934570312
z: -0.008639332838356495
","x: 247.41334533691406
y: 224.5952606201172
z: -0.012402242049574852
","x: 249.82701110839844
y: 225.97108459472656
z: -0.011994984932243824
","x: 250.78817749023438
y: 227.3323974609375
z: -0.011340913362801075
","x: 242.779541015625
y: 232.85081481933594
z: -0.011202972382307053
","x: 248.0989227294922
y: 228.83538818359375
z: -0.013836287893354893
","x: 249.68385314941406
y: 230.44137573242188
z: -0.01143733598291874
","x: 249.6870574951172
y: 232.12950134277344
z: -0.009755030274391174
","x: 243.78086853027344
y: 236.90147399902344
z: -0.013781368732452393
","x: 248.11572265625
y: 233.7792205810547
z: -0.015162584371864796
","x: 249.05032348632812
y: 234.77828979492188
z: -0.013179074972867966
","x: 248.67001342773438
y: 236.2033233642578
z: -0.011645710095763206
",,,,,,,,,,,,,,,,,,,,,
2,"x: 244.17584228515625
y: 218.92332458496094
z: -0.22609198093414307
visibility: 0.9998615980148315
","x: 246.79052734375
y: 210.91482543945312
z: -0.2112218141555786
visibility: 0.9995368123054504
","x: 248.17025756835938
y: 210.87258911132812
z: -0.21121108531951904
visibility: 0.9995591044425964
","x: 249.43846130371094
y: 210.89463806152344
z: -0.21121899783611298
visibility: 0.9994807243347168
","x: 242.890380859375
y: 210.1173095703125
z: -0.21222403645515442
visibility: 0.9994768500328064
","x: 241.4683074951172
y: 209.51490783691406
z: -0.2122718095779419
visibility: 0.9995110630989075
","x: 240.08782958984375
y: 209.0152587890625
z: -0.2122841775417328
visibility: 0.9995089173316956
","x: 251.8256072998047
y: 213.5580291748047
z: -0.10882756859064102
visibility: 0.9997110366821289
","x: 238.282958984375
y: 211.1016082763672
z: -0.113253653049469
visibility: 0.9984201192855835
","x: 246.67361450195312
y: 225.6387939453125
z: -0.18583226203918457
visibility: 0.999729335308075
","x: 242.19720458984375
y: 225.73944091796875
z: -0.18745258450508118
visibility: 0.9994615316390991
","x: 263.6317138671875
y: 253.63067626953125
z: -0.03945617005228996
visibility: 0.9998115301132202
","x: 226.58363342285156
y: 249.57716369628906
z: -0.059425659477710724
visibility: 0.9995952844619751
","x: 268.3276672363281
y: 308.9785461425781
z: 0.0029791516717523336
visibility: 0.9639047384262085
","x: 225.1048583984375
y: 292.11871337890625
z: -0.17904092371463776
visibility: 0.9332879781723022
","x: 272.335205078125
y: 354.556884765625
z: -0.017382612451910973
visibility: 0.8470550179481506
","x: 239.50706481933594
y: 248.89617919921875
z: -0.3569484353065491
visibility: 0.975059449672699
","x: 274.5625915527344
y: 369.3224792480469
z: -0.02419368363916874
visibility: 0.7524144053459167
","x: 242.60064697265625
y: 235.0349578857422
z: -0.3933617174625397
visibility: 0.9491002559661865
","x: 272.85107421875
y: 371.07904052734375
z: -0.04815647006034851
visibility: 0.7627126574516296
","x: 241.645263671875
y: 232.02890014648438
z: -0.390933632850647
visibility: 0.9468377232551575
","x: 271.41522216796875
y: 365.43206787109375
z: -0.026042774319648743
visibility: 0.7520498037338257
","x: 241.0195770263672
y: 236.94186401367188
z: -0.35976871848106384
visibility: 0.9242901802062988
","x: 256.67364501953125
y: 348.90673828125
z: -0.011415383778512478
visibility: 0.9996201992034912
","x: 235.5369873046875
y: 351.70001220703125
z: 0.011381576769053936
visibility: 0.9997873306274414
","x: 256.3740234375
y: 427.0391845703125
z: -0.019620317965745926
visibility: 0.9950894713401794
","x: 234.85693359375
y: 430.5495910644531
z: 0.004059405066072941
visibility: 0.9757922887802124
","x: 255.6934814453125
y: 498.47052001953125
z: 0.10471262037754059
visibility: 0.9816327691078186
","x: 240.99305725097656
y: 501.3729248046875
z: 0.11729805171489716
visibility: 0.9921234846115112
","x: 255.610107421875
y: 510.1950378417969
z: 0.11000552028417587
visibility: 0.7981347441673279
","x: 245.60911560058594
y: 511.1725158691406
z: 0.12219808250665665
visibility: 0.955869734287262
","x: 252.0939483642578
y: 516.9486083984375
z: 0.007705760188400745
visibility: 0.9782747030258179
","x: 234.4313507080078
y: 520.353515625
z: 0.01983681134879589
visibility: 0.9883852601051331
","x: 241.24070739746094
y: 242.2091827392578
z: 0.0
","x: 241.56405639648438
y: 235.04275512695312
z: 0.0010696182725951076
","x: 243.3480224609375
y: 228.49725341796875
z: -0.0007203336572274566
","x: 245.84901428222656
y: 224.81423950195312
z: -0.003187782596796751
","x: 247.9189453125
y: 222.82034301757812
z: -0.005619910079985857
","x: 241.80368041992188
y: 225.74005126953125
z: -0.005713350139558315
","x: 246.4986114501953
y: 220.54330444335938
z: -0.009063293226063251
","x: 249.25460815429688
y: 219.53024291992188
z: -0.010158423334360123
","x: 251.15011596679688
y: 218.83477783203125
z: -0.01066307071596384
","x: 242.03302001953125
y: 228.89382934570312
z: -0.008639332838356495
","x: 247.41334533691406
y: 224.5952606201172
z: -0.012402242049574852
","x: 249.82701110839844
y: 225.97108459472656
z: -0.011994984932243824
","x: 250.78817749023438
y: 227.3323974609375
z: -0.011340913362801075
","x: 242.779541015625
y: 232.85081481933594
z: -0.011202972382307053
","x: 248.0989227294922
y: 228.83538818359375
z: -0.013836287893354893
","x: 249.68385314941406
y: 230.44137573242188
z: -0.01143733598291874
","x: 249.6870574951172
y: 232.12950134277344
z: -0.009755030274391174
","x: 243.78086853027344
y: 236.90147399902344
z: -0.013781368732452393
","x: 248.11572265625
y: 233.7792205810547
z: -0.015162584371864796
","x: 249.05032348632812
y: 234.77828979492188
z: -0.013179074972867966
","x: 248.67001342773438
y: 236.2033233642578
z: -0.011645710095763206
",,,,,,,,,,,,,,,,,,,,,
3,"x: 248.09780883789062
y: 217.25059509277344
z: -0.24070875346660614
visibility: 0.9998726844787598
","x: 250.55239868164062
y: 209.35935974121094
z: -0.22533711791038513
visibility: 0.999575138092041
","x: 251.91029357910156
y: 209.342529296875
z: -0.22533278167247772
visibility: 0.9995953440666199
","x: 253.23858642578125
y: 209.37049865722656
z: -0.22532768547534943
visibility: 0.9995235204696655
","x: 246.62295532226562
y: 208.56520080566406
z: -0.22886566817760468
visibility: 0.9995192885398865
","x: 245.2611083984375
y: 207.95706176757812
z: -0.22890181839466095
visibility: 0.9995513558387756
","x: 243.8615264892578
y: 207.41168212890625
z: -0.22891905903816223
visibility: 0.9995476007461548
","x: 255.4226531982422
y: 212.1636962890625
z: -0.11821738630533218
visibility: 0.9997304677963257
","x: 241.98031616210938
y: 209.12750244140625
z: -0.13533896207809448
visibility: 0.9985588192939758
","x: 250.52647399902344
y: 224.07757568359375
z: -0.19844534993171692
visibility: 0.999748170375824
","x: 246.1781463623047
y: 224.15235900878906
z: -0.2036844938993454
visibility: 0.9995008707046509
","x: 265.37744140625
y: 252.56033325195312
z: -0.04066416621208191
visibility: 0.9998247623443604
","x: 228.79493713378906
y: 246.62783813476562
z: -0.08085072040557861
visibility: 0.9996042251586914
","x: 272.0046081542969
y: 306.73876953125
z: 0.003845886792987585
visibility: 0.9661545753479004
","x: 228.01171875
y: 291.8807678222656
z: -0.20068395137786865
visibility: 0.9388018846511841
","x: 283.9739990234375
y: 346.2586669921875
z: -0.02177177555859089
visibility: 0.8613734245300293
","x: 242.84921264648438
y: 250.12338256835938
z: -0.3874066472053528
visibility: 0.9772074222564697
","x: 289.6585998535156
y: 359.88995361328125
z: -0.02913832664489746
visibility: 0.7745854258537292
","x: 245.51072692871094
y: 237.16000366210938
z: -0.42536401748657227
visibility: 0.9533032178878784
","x: 289.529296875
y: 361.15301513671875
z: -0.05799859017133713
visibility: 0.7840424180030823
","x: 244.42623901367188
y: 233.68838500976562
z: -0.4257153868675232
visibility: 0.9511916041374207
","x: 287.2596740722656
y: 357.0556335449219
z: -0.0328187495470047
visibility: 0.7739436030387878
","x: 243.935791015625
y: 238.29811096191406
z: -0.3914004862308502
visibility: 0.9302042126655579
","x: 258.68792724609375
y: 349.11138916015625
z: -0.0037592356093227863
visibility: 0.9996257424354553
","x: 237.81536865234375
y: 350.6817626953125
z: 0.003716111881658435
visibility: 0.9997737407684326
","x: 258.1095886230469
y: 427.24749755859375
z: 0.0007171100587584078
visibility: 0.9945487380027771
","x: 236.275146484375
y: 430.3367614746094
z: 0.007603917270898819
visibility: 0.9766749143600464
","x: 254.16006469726562
y: 502.18328857421875
z: 0.1133163720369339
visibility: 0.9823447465896606
","x: 240.98934936523438
y: 501.6264343261719
z: 0.12118665874004364
visibility: 0.9918925166130066
","x: 253.84814453125
y: 514.2769775390625
z: 0.11626710742712021
visibility: 0.8076575398445129
","x: 244.97039794921875
y: 512.4208984375
z: 0.1255720853805542
visibility: 0.9507107734680176
","x: 251.50714111328125
y: 519.4906005859375
z: 0.0064170085825026035
visibility: 0.9789711236953735
","x: 234.47561645507812
y: 520.4594116210938
z: 0.018627623096108437
visibility: 0.9883145689964294
","x: 244.0752716064453
y: 245.16897583007812
z: 0.0
","x: 243.31320190429688
y: 239.056640625
z: 0.0013186393771320581
","x: 243.7265625
y: 232.36895751953125
z: 0.0003684468101710081
","x: 245.0845489501953
y: 228.18617248535156
z: -0.0012618841137737036
","x: 246.66673278808594
y: 226.3349609375
z: -0.0027451820205897093
","x: 243.4986572265625
y: 229.39230346679688
z: -0.0027403051499277353
","x: 245.6320037841797
y: 222.7886199951172
z: -0.005287974141538143
","x: 247.0690460205078
y: 219.55401611328125
z: -0.006144980899989605
","x: 248.15408325195312
y: 217.59283447265625
z: -0.006484547629952431
","x: 244.6342315673828
y: 231.4606475830078
z: -0.005153995472937822
","x: 248.2683563232422
y: 225.96060180664062
z: -0.00794860441237688
","x: 250.30975341796875
y: 225.0963134765625
z: -0.007565721403807402
","x: 251.55703735351562
y: 225.11878967285156
z: -0.00696408748626709
","x: 246.03208923339844
y: 234.54771423339844
z: -0.007383958902209997
","x: 249.76141357421875
y: 230.30189514160156
z: -0.009586399421095848
","x: 251.28172302246094
y: 230.64439392089844
z: -0.007832321338355541
","x: 251.78289794921875
y: 231.577392578125
z: -0.006363233085721731
","x: 247.47714233398438
y: 238.11532592773438
z: -0.009670146740972996
","x: 250.30368041992188
y: 234.94728088378906
z: -0.010999788530170918
","x: 251.2291717529297
y: 235.074462890625
z: -0.009749985300004482
","x: 251.45083618164062
y: 235.79257202148438
z: -0.008540253154933453
",,,,,,,,,,,,,,,,,,,,,
4,"x: 248.09780883789062
y: 217.25059509277344
z: -0.24070875346660614
visibility: 0.9998726844787598
","x: 250.55239868164062
y: 209.35935974121094
z: -0.22533711791038513
visibility: 0.999575138092041
","x: 251.91029357910156
y: 209.342529296875
z: -0.22533278167247772
visibility: 0.9995953440666199
","x: 253.23858642578125
y: 209.37049865722656
z: -0.22532768547534943
visibility: 0.9995235204696655
","x: 246.62295532226562
y: 208.56520080566406
z: -0.22886566817760468
visibility: 0.9995192885398865
","x: 245.2611083984375
y: 207.95706176757812
z: -0.22890181839466095
visibility: 0.9995513558387756
","x: 243.8615264892578
y: 207.41168212890625
z: -0.22891905903816223
visibility: 0.9995476007461548
","x: 255.4226531982422
y: 212.1636962890625
z: -0.11821738630533218
visibility: 0.9997304677963257
","x: 241.98031616210938
y: 209.12750244140625
z: -0.13533896207809448
visibility: 0.9985588192939758
","x: 250.52647399902344
y: 224.07757568359375
z: -0.19844534993171692
visibility: 0.999748170375824
","x: 246.1781463623047
y: 224.15235900878906
z: -0.2036844938993454
visibility: 0.9995008707046509
","x: 265.37744140625
y: 252.56033325195312
z: -0.04066416621208191
visibility: 0.9998247623443604
","x: 228.79493713378906
y: 246.62783813476562
z: -0.08085072040557861
visibility: 0.9996042251586914
","x: 272.0046081542969
y: 306.73876953125
z: 0.003845886792987585
visibility: 0.9661545753479004
","x: 228.01171875
y: 291.8807678222656
z: -0.20068395137786865
visibility: 0.9388018846511841
","x: 283.9739990234375
y: 346.2586669921875
z: -0.02177177555859089
visibility: 0.8613734245300293
","x: 242.84921264648438
y: 250.12338256835938
z: -0.3874066472053528
visibility: 0.9772074222564697
","x: 289.6585998535156
y: 359.88995361328125
z: -0.02913832664489746
visibility: 0.7745854258537292
","x: 245.51072692871094
y: 237.16000366210938
z: -0.42536401748657227
visibility: 0.9533032178878784
","x: 289.529296875
y: 361.15301513671875
z: -0.05799859017133713
visibility: 0.7840424180030823
","x: 244.42623901367188
y: 233.68838500976562
z: -0.4257153868675232
visibility: 0.9511916041374207
","x: 287.2596740722656
y: 357.0556335449219
z: -0.0328187495470047
visibility: 0.7739436030387878
","x: 243.935791015625
y: 238.29811096191406
z: -0.3914004862308502
visibility: 0.9302042126655579
","x: 258.68792724609375
y: 349.11138916015625
z: -0.0037592356093227863
visibility: 0.9996257424354553
","x: 237.81536865234375
y: 350.6817626953125
z: 0.003716111881658435
visibility: 0.9997737407684326
","x: 258.1095886230469
y: 427.24749755859375
z: 0.0007171100587584078
visibility: 0.9945487380027771
","x: 236.275146484375
y: 430.3367614746094
z: 0.007603917270898819
visibility: 0.9766749143600464
","x: 254.16006469726562
y: 502.18328857421875
z: 0.1133163720369339
visibility: 0.9823447465896606
","x: 240.98934936523438
y: 501.6264343261719
z: 0.12118665874004364
visibility: 0.9918925166130066
","x: 253.84814453125
y: 514.2769775390625
z: 0.11626710742712021
visibility: 0.8076575398445129
","x: 244.97039794921875
y: 512.4208984375
z: 0.1255720853805542
visibility: 0.9507107734680176
","x: 251.50714111328125
y: 519.4906005859375
z: 0.0064170085825026035
visibility: 0.9789711236953735
","x: 234.47561645507812
y: 520.4594116210938
z: 0.018627623096108437
visibility: 0.9883145689964294
","x: 244.0752716064453
y: 245.16897583007812
z: 0.0
","x: 243.31320190429688
y: 239.056640625
z: 0.0013186393771320581
","x: 243.7265625
y: 232.36895751953125
z: 0.0003684468101710081
","x: 245.0845489501953
y: 228.18617248535156
z: -0.0012618841137737036
","x: 246.66673278808594
y: 226.3349609375
z: -0.0027451820205897093
","x: 243.4986572265625
y: 229.39230346679688
z: -0.0027403051499277353
","x: 245.6320037841797
y: 222.7886199951172
z: -0.005287974141538143
","x: 247.0690460205078
y: 219.55401611328125
z: -0.006144980899989605
","x: 248.15408325195312
y: 217.59283447265625
z: -0.006484547629952431
","x: 244.6342315673828
y: 231.4606475830078
z: -0.005153995472937822
","x: 248.2683563232422
y: 225.96060180664062
z: -0.00794860441237688
","x: 250.30975341796875
y: 225.0963134765625
z: -0.007565721403807402
","x: 251.55703735351562
y: 225.11878967285156
z: -0.00696408748626709
","x: 246.03208923339844
y: 234.54771423339844
z: -0.007383958902209997
","x: 249.76141357421875
y: 230.30189514160156
z: -0.009586399421095848
","x: 251.28172302246094
y: 230.64439392089844
z: -0.007832321338355541
","x: 251.78289794921875
y: 231.577392578125
z: -0.006363233085721731
","x: 247.47714233398438
y: 238.11532592773438
z: -0.009670146740972996
","x: 250.30368041992188
y: 234.94728088378906
z: -0.010999788530170918
","x: 251.2291717529297
y: 235.074462890625
z: -0.009749985300004482
","x: 251.45083618164062
y: 235.79257202148438
z: -0.008540253154933453
",,,,,,,,,,,,,,,,,,,,,
5,"x: 251.61294555664062
y: 217.6177215576172
z: -0.24333424866199493
visibility: 0.9998809099197388
","x: 254.176513671875
y: 209.75587463378906
z: -0.22680792212486267
visibility: 0.9996038675308228
","x: 255.6420135498047
y: 209.66726684570312
z: -0.2267974615097046
visibility: 0.9996207356452942
","x: 256.92919921875
y: 209.59774780273438
z: -0.22679850459098816
visibility: 0.9995524883270264
","x: 249.8312530517578
y: 209.00213623046875
z: -0.23116648197174072
visibility: 0.999553382396698
","x: 248.2583465576172
y: 208.29510498046875
z: -0.23120224475860596
visibility: 0.9995845556259155
","x: 246.69256591796875
y: 207.62437438964844
z: -0.23122498393058777
visibility: 0.9995791912078857
","x: 258.4002380371094
y: 211.9464874267578
z: -0.1181555762887001
visibility: 0.9997422099113464
","x: 244.18255615234375
y: 208.779052734375
z: -0.1383935511112213
visibility: 0.9986826777458191
","x: 253.66175842285156
y: 224.19705200195312
z: -0.20069940388202667
visibility: 0.9997613430023193
","x: 249.09622192382812
y: 224.33441162109375
z: -0.20687921345233917
visibility: 0.9995306134223938
","x: 267.75091552734375
y: 252.67478942871094
z: -0.03661897033452988
visibility: 0.9998301267623901
","x: 230.1602325439453
y: 246.16915893554688
z: -0.09557756781578064
visibility: 0.9996220469474792
","x: 276.9209899902344
y: 305.02227783203125
z: 0.025767851620912552
visibility: 0.9601802825927734
","x: 230.78396606445312
y: 292.340087890625
z: -0.2226535528898239
visibility: 0.9432621002197266
","x: 295.1426086425781
y: 337.5552673339844
z: -0.020181404426693916
visibility: 0.8641364574432373
","x: 245.61521911621094
y: 252.889404296875
z: -0.4126585125923157
visibility: 0.9786288142204285
","x: 301.55450439453125
y: 348.1826171875
z: -0.023539725691080093
visibility: 0.7797005772590637
","x: 247.48426818847656
y: 239.38905334472656
z: -0.44985517859458923
visibility: 0.9559948444366455
","x: 302.8139343261719
y: 348.1495666503906
z: -0.05541383475065231
visibility: 0.7897292375564575
","x: 246.1383819580078
y: 234.94607543945312
z: -0.4507555067539215
visibility: 0.9539914727210999
","x: 300.6187438964844
y: 345.4127502441406
z: -0.030560722574591637
visibility: 0.7797632813453674
","x: 245.85682678222656
y: 239.693359375
z: -0.4170757830142975
visibility: 0.9336128830909729
","x: 263.3180847167969
y: 350.34661865234375
z: -0.0010308022610843182
visibility: 0.9996503591537476
","x: 241.49073791503906
y: 350.84228515625
z: 0.0010140609228983521
visibility: 0.9997696876525879
","x: 260.94097900390625
y: 426.6133117675781
z: -0.10414648056030273
visibility: 0.9943206310272217
","x: 236.08204650878906
y: 429.4494323730469
z: 0.005082038231194019
visibility: 0.9771012663841248
","x: 254.18008422851562
y: 503.16168212890625
z: -0.02589411661028862
visibility: 0.983153223991394
","x: 241.05062866210938
y: 500.8804626464844
z: 0.1226470023393631
visibility: 0.9910900592803955
","x: 253.63465881347656
y: 514.8777465820312
z: -0.02421645075082779
visibility: 0.8172179460525513
","x: 244.98452758789062
y: 511.87567138671875
z: 0.12764769792556763
visibility: 0.9444513916969299
","x: 251.402099609375
y: 523.0318603515625
z: -0.1534779965877533
visibility: 0.9800126552581787
","x: 234.8174591064453
y: 520.7590942382812
z: 0.01847880706191063
visibility: 0.9878119230270386
","x: 247.0420379638672
y: 248.1267547607422
z: 0.0
","x: 245.99267578125
y: 242.57997131347656
z: 0.0011108979815617204
","x: 245.69915771484375
y: 235.98110961914062
z: 5.938560934737325e-05
","x: 246.05172729492188
y: 231.6922607421875
z: -0.0016386513598263264
","x: 246.72637939453125
y: 229.31753540039062
z: -0.003196784295141697
","x: 246.40145874023438
y: 232.6967010498047
z: -0.003386326599866152
","x: 249.27206420898438
y: 226.22596740722656
z: -0.006291130091995001
","x: 251.76541137695312
y: 224.49395751953125
z: -0.007183311507105827
","x: 253.57835388183594
y: 224.04991149902344
z: -0.0074604772962629795
","x: 247.72462463378906
y: 234.61463928222656
z: -0.005839112214744091
","x: 251.24176025390625
y: 228.11227416992188
z: -0.009097347967326641
","x: 253.71885681152344
y: 227.31121826171875
z: -0.008980799466371536
","x: 255.2332000732422
y: 228.02236938476562
z: -0.008503885939717293
","x: 249.21572875976562
y: 237.6393280029297
z: -0.008080863393843174
","x: 253.03187561035156
y: 233.01181030273438
z: -0.010541069321334362
","x: 254.70494079589844
y: 233.13613891601562
z: -0.008941919542849064
","x: 255.26747131347656
y: 234.05731201171875
z: -0.007535708136856556
","x: 250.8406219482422
y: 241.22354125976562
z: -0.010398943908512592
","x: 253.77462768554688
y: 237.89190673828125
z: -0.012118220329284668
","x: 254.96775817871094
y: 237.58834838867188
z: -0.011100892908871174
","x: 255.4245147705078
y: 238.05303955078125
z: -0.010001060552895069
",,,,,,,,,,,,,,,,,,,,,
6,"x: 251.61294555664062
y: 217.6177215576172
z: -0.24333424866199493
visibility: 0.9998809099197388
","x: 254.176513671875
y: 209.75587463378906
z: -0.22680792212486267
visibility: 0.9996038675308228
","x: 255.6420135498047
y: 209.66726684570312
z: -0.2267974615097046
visibility: 0.9996207356452942
","x: 256.92919921875
y: 209.59774780273438
z: -0.22679850459098816
visibility: 0.9995524883270264
","x: 249.8312530517578
y: 209.00213623046875
z: -0.23116648197174072
visibility: 0.999553382396698
","x: 248.2583465576172
y: 208.29510498046875
z: -0.23120224475860596
visibility: 0.9995845556259155
","x: 246.69256591796875
y: 207.62437438964844
z: -0.23122498393058777
visibility: 0.9995791912078857
","x: 258.4002380371094
y: 211.9464874267578
z: -0.1181555762887001
visibility: 0.9997422099113464
","x: 244.18255615234375
y: 208.779052734375
z: -0.1383935511112213
visibility: 0.9986826777458191
","x: 253.66175842285156
y: 224.19705200195312
z: -0.20069940388202667
visibility: 0.9997613430023193
","x: 249.09622192382812
y: 224.33441162109375
z: -0.20687921345233917
visibility: 0.9995306134223938
","x: 267.75091552734375
y: 252.67478942871094
z: -0.03661897033452988
visibility: 0.9998301267623901
","x: 230.1602325439453
y: 246.16915893554688
z: -0.09557756781578064
visibility: 0.9996220469474792
","x: 276.9209899902344
y: 305.02227783203125
z: 0.025767851620912552
visibility: 0.9601802825927734
","x: 230.78396606445312
y: 292.340087890625
z: -0.2226535528898239
visibility: 0.9432621002197266
","x: 295.1426086425781
y: 337.5552673339844
z: -0.020181404426693916
visibility: 0.8641364574432373
","x: 245.61521911621094
y: 252.889404296875
z: -0.4126585125923157
visibility: 0.9786288142204285
","x: 301.55450439453125
y: 348.1826171875
z: -0.023539725691080093
visibility: 0.7797005772590637
","x: 247.48426818847656
y: 239.38905334472656
z: -0.44985517859458923
visibility: 0.9559948444366455
","x: 302.8139343261719
y: 348.1495666503906
z: -0.05541383475065231
visibility: 0.7897292375564575
","x: 246.1383819580078
y: 234.94607543945312
z: -0.4507555067539215
visibility: 0.9539914727210999
","x: 300.6187438964844
y: 345.4127502441406
z: -0.030560722574591637
visibility: 0.7797632813453674
","x: 245.85682678222656
y: 239.693359375
z: -0.4170757830142975
visibility: 0.9336128830909729
","x: 263.3180847167969
y: 350.34661865234375
z: -0.0010308022610843182
visibility: 0.9996503591537476
","x: 241.49073791503906
y: 350.84228515625
z: 0.0010140609228983521
visibility: 0.9997696876525879
","x: 260.94097900390625
y: 426.6133117675781
z: -0.10414648056030273
visibility: 0.9943206310272217
","x: 236.08204650878906
y: 429.4494323730469
z: 0.005082038231194019
visibility: 0.9771012663841248
","x: 254.18008422851562
y: 503.16168212890625
z: -0.02589411661028862
visibility: 0.983153223991394
","x: 241.05062866210938
y: 500.8804626464844
z: 0.1226470023393631
visibility: 0.9910900592803955
","x: 253.63465881347656
y: 514.8777465820312
z: -0.02421645075082779
visibility: 0.8172179460525513
","x: 244.98452758789062
y: 511.87567138671875
z: 0.12764769792556763
visibility: 0.9444513916969299
","x: 251.402099609375
y: 523.0318603515625
z: -0.1534779965877533
visibility: 0.9800126552581787
","x: 234.8174591064453
y: 520.7590942382812
z: 0.01847880706191063
visibility: 0.9878119230270386
","x: 247.0420379638672
y: 248.1267547607422
z: 0.0
","x: 245.99267578125
y: 242.57997131347656
z: 0.0011108979815617204
","x: 245.69915771484375
y: 235.98110961914062
z: 5.938560934737325e-05
","x: 246.05172729492188
y: 231.6922607421875
z: -0.0016386513598263264
","x: 246.72637939453125
y: 229.31753540039062
z: -0.003196784295141697
","x: 246.40145874023438
y: 232.6967010498047
z: -0.003386326599866152
","x: 249.27206420898438
y: 226.22596740722656
z: -0.006291130091995001
","x: 251.76541137695312
y: 224.49395751953125
z: -0.007183311507105827
","x: 253.57835388183594
y: 224.04991149902344
z: -0.0074604772962629795
","x: 247.72462463378906
y: 234.61463928222656
z: -0.005839112214744091
","x: 251.24176025390625
y: 228.11227416992188
z: -0.009097347967326641
","x: 253.71885681152344
y: 227.31121826171875
z: -0.008980799466371536
","x: 255.2332000732422
y: 228.02236938476562
z: -0.008503885939717293
","x: 249.21572875976562
y: 237.6393280029297
z: -0.008080863393843174
","x: 253.03187561035156
y: 233.01181030273438
z: -0.010541069321334362
","x: 254.70494079589844
y: 233.13613891601562
z: -0.008941919542849064
","x: 255.26747131347656
y: 234.05731201171875
z: -0.007535708136856556
","x: 250.8406219482422
y: 241.22354125976562
z: -0.010398943908512592
","x: 253.77462768554688
y: 237.89190673828125
z: -0.012118220329284668
","x: 254.96775817871094
y: 237.58834838867188
z: -0.011100892908871174
","x: 255.4245147705078
y: 238.05303955078125
z: -0.010001060552895069
",,,,,,,,,,,,,,,,,,,,,
7,"x: 254.66065979003906
y: 218.05406188964844
z: -0.21846911311149597
visibility: 0.9998785853385925
","x: 256.70849609375
y: 210.12850952148438
z: -0.1945863515138626
visibility: 0.9996054768562317
","x: 258.0101318359375
y: 209.96978759765625
z: -0.19461198151111603
visibility: 0.9996095299720764
","x: 259.1058654785156
y: 209.82440185546875
z: -0.19463413953781128
visibility: 0.9995407462120056
","x: 252.47811889648438
y: 209.5487060546875
z: -0.2218025177717209
visibility: 0.9995691180229187
","x: 250.97402954101562
y: 208.89950561523438
z: -0.22185254096984863
visibility: 0.9995993375778198
","x: 249.32814025878906
y: 208.25482177734375
z: -0.22209081053733826
visibility: 0.9995954036712646
","x: 259.96221923828125
y: 211.8332061767578
z: -0.07827300578355789
visibility: 0.9997142553329468
","x: 246.31468200683594
y: 209.21217346191406
z: -0.10702477395534515
visibility: 0.9987797737121582
","x: 256.6351318359375
y: 224.45970153808594
z: -0.1690085083246231
visibility: 0.9997464418411255
","x: 252.08192443847656
y: 224.59805297851562
z: -0.19676457345485687
visibility: 0.999533474445343
","x: 268.44110107421875
y: 252.3684539794922
z: 0.00877729244530201
visibility: 0.999794065952301
","x: 231.21658325195312
y: 245.802490234375
z: -0.06814631074666977
visibility: 0.9996340870857239
","x: 276.80938720703125
y: 302.74041748046875
z: 0.07461579144001007
visibility: 0.9350888133049011
","x: 233.8633575439453
y: 292.841064453125
z: -0.19092413783073425
visibility: 0.9477076530456543
","x: 291.22802734375
y: 320.8096618652344
z: 0.02798672951757908
visibility: 0.8430918455123901
","x: 248.9639892578125
y: 252.43516540527344
z: -0.36517584323883057
visibility: 0.9798526167869568
","x: 299.12725830078125
y: 328.7027587890625
z: 0.02416366897523403
visibility: 0.759851336479187
","x: 251.4365997314453
y: 238.91537475585938
z: -0.4001851975917816
visibility: 0.9582408666610718
","x: 300.03668212890625
y: 327.2861328125
z: -0.002531996462494135
visibility: 0.7709303498268127
","x: 249.68186950683594
y: 234.7353973388672
z: -0.3997717499732971
visibility: 0.9562717080116272
","x: 296.4764404296875
y: 325.225830078125
z: 0.01647300459444523
visibility: 0.7605394721031189
","x: 249.10494995117188
y: 239.5191192626953
z: -0.3685934245586395
visibility: 0.9362010955810547
","x: 264.6299133300781
y: 351.97222900390625
z: 0.0030536269769072533
visibility: 0.9996580481529236
","x: 242.67648315429688
y: 350.9887390136719
z: -0.0029786177910864353
visibility: 0.9997527599334717
","x: 262.4183349609375
y: 426.68743896484375
z: -0.1426916867494583
visibility: 0.9937135577201843
","x: 236.19583129882812
y: 429.3160400390625
z: -0.02527988888323307
visibility: 0.9773169159889221
","x: 253.85427856445312
y: 502.8688049316406
z: -0.05257131904363632
visibility: 0.9831057190895081
","x: 241.04676818847656
y: 499.96380615234375
z: 0.10268531739711761
visibility: 0.9896721839904785
","x: 253.3739013671875
y: 515.0177612304688
z: -0.05039917677640915
visibility: 0.8264477252960205
","x: 244.92112731933594
y: 511.0552978515625
z: 0.10825750976800919
visibility: 0.9374852180480957
","x: 251.55453491210938
y: 521.7390747070312
z: -0.1730920970439911
visibility: 0.9800739288330078
","x: 234.84234619140625
y: 520.5245361328125
z: -0.004946124739944935
visibility: 0.9862924218177795
","x: 249.37692260742188
y: 250.7605743408203
z: 0.0
","x: 248.3434295654297
y: 245.21090698242188
z: 0.0010776739800348878
","x: 248.651611328125
y: 239.0108642578125
z: 0.00023863124079070985
","x: 250.31776428222656
y: 235.19619750976562
z: -0.0011347000254318118
","x: 252.14292907714844
y: 233.6687469482422
z: -0.002263507107272744
","x: 248.81813049316406
y: 236.05018615722656
z: -0.0036965610925108194
","x: 251.47816467285156
y: 228.89779663085938
z: -0.006132687907665968
","x: 253.36264038085938
y: 228.8684844970703
z: -0.0062647671438753605
","x: 254.22640991210938
y: 230.0262451171875
z: -0.005973066668957472
","x: 250.2767333984375
y: 237.75552368164062
z: -0.0058926730416715145
","x: 253.6099090576172
y: 230.7637176513672
z: -0.008562044240534306
","x: 255.90670776367188
y: 230.06027221679688
z: -0.007797376252710819
","x: 257.211181640625
y: 230.778564453125
z: -0.006917289923876524
","x: 251.8073272705078
y: 240.5018310546875
z: -0.007892138324677944
","x: 255.5762939453125
y: 235.39224243164062
z: -0.010004452429711819
","x: 257.21990966796875
y: 235.8697509765625
z: -0.008099468424916267
","x: 257.6774597167969
y: 237.1195068359375
z: -0.00646677752956748
","x: 253.41868591308594
y: 243.60150146484375
z: -0.009944959543645382
","x: 256.4736022949219
y: 239.54566955566406
z: -0.0117200231179595
","x: 258.23583984375
y: 238.37538146972656
z: -0.010809444822371006
","x: 259.2522888183594
y: 238.051025390625
z: -0.009660240262746811
",,,,,,,,,,,,,,,,,,,,,
8,"x: 254.66065979003906
y: 218.05406188964844
z: -0.21846911311149597
visibility: 0.9998785853385925
","x: 256.70849609375
y: 210.12850952148438
z: -0.1945863515138626
visibility: 0.9996054768562317
","x: 258.0101318359375
y: 209.96978759765625
z: -0.19461198151111603
visibility: 0.9996095299720764
","x: 259.1058654785156
y: 209.82440185546875
z: -0.19463413953781128
visibility: 0.9995407462120056
","x: 252.47811889648438
y: 209.5487060546875
z: -0.2218025177717209
visibility: 0.9995691180229187
","x: 250.97402954101562
y: 208.89950561523438
z: -0.22185254096984863
visibility: 0.9995993375778198
","x: 249.32814025878906
y: 208.25482177734375
z: -0.22209081053733826
visibility: 0.9995954036712646
","x: 259.96221923828125
y: 211.8332061767578
z: -0.07827300578355789
visibility: 0.9997142553329468
","x: 246.31468200683594
y: 209.21217346191406
z: -0.10702477395534515
visibility: 0.9987797737121582
","x: 256.6351318359375
y: 224.45970153808594
z: -0.1690085083246231
visibility: 0.9997464418411255
","x: 252.08192443847656
y: 224.59805297851562
z: -0.19676457345485687
visibility: 0.999533474445343
","x: 268.44110107421875
y: 252.3684539794922
z: 0.00877729244530201
visibility: 0.999794065952301
","x: 231.21658325195312
y: 245.802490234375
z: -0.06814631074666977
visibility: 0.9996340870857239
","x: 276.80938720703125
y: 302.74041748046875
z: 0.07461579144001007
visibility: 0.9350888133049011
","x: 233.8633575439453
y: 292.841064453125
z: -0.19092413783073425
visibility: 0.9477076530456543
","x: 291.22802734375
y: 320.8096618652344
z: 0.02798672951757908
visibility: 0.8430918455123901
","x: 248.9639892578125
y: 252.43516540527344
z: -0.36517584323883057
visibility: 0.9798526167869568
","x: 299.12725830078125
y: 328.7027587890625
z: 0.02416366897523403
visibility: 0.759851336479187
","x: 251.4365997314453
y: 238.91537475585938
z: -0.4001851975917816
visibility: 0.9582408666610718
","x: 300.03668212890625
y: 327.2861328125
z: -0.002531996462494135
visibility: 0.7709303498268127
","x: 249.68186950683594
y: 234.7353973388672
z: -0.3997717499732971
visibility: 0.9562717080116272
","x: 296.4764404296875
y: 325.225830078125
z: 0.01647300459444523
visibility: 0.7605394721031189
","x: 249.10494995117188
y: 239.5191192626953
z: -0.3685934245586395
visibility: 0.9362010955810547
","x: 264.6299133300781
y: 351.97222900390625
z: 0.0030536269769072533
visibility: 0.9996580481529236
","x: 242.67648315429688
y: 350.9887390136719
z: -0.0029786177910864353
visibility: 0.9997527599334717
","x: 262.4183349609375
y: 426.68743896484375
z: -0.1426916867494583
visibility: 0.9937135577201843
","x: 236.19583129882812
y: 429.3160400390625
z: -0.02527988888323307
visibility: 0.9773169159889221
","x: 253.85427856445312
y: 502.8688049316406
z: -0.05257131904363632
visibility: 0.9831057190895081
","x: 241.04676818847656
y: 499.96380615234375
z: 0.10268531739711761
visibility: 0.9896721839904785
","x: 253.3739013671875
y: 515.0177612304688
z: -0.05039917677640915
visibility: 0.8264477252960205
","x: 244.92112731933594
y: 511.0552978515625
z: 0.10825750976800919
visibility: 0.9374852180480957
","x: 251.55453491210938
y: 521.7390747070312
z: -0.1730920970439911
visibility: 0.9800739288330078
","x: 234.84234619140625
y: 520.5245361328125
z: -0.004946124739944935
visibility: 0.9862924218177795
","x: 249.37692260742188
y: 250.7605743408203
z: 0.0
","x: 248.3434295654297
y: 245.21090698242188
z: 0.0010776739800348878
","x: 248.651611328125
y: 239.0108642578125
z: 0.00023863124079070985
","x: 250.31776428222656
y: 235.19619750976562
z: -0.0011347000254318118
","x: 252.14292907714844
y: 233.6687469482422
z: -0.002263507107272744
","x: 248.81813049316406
y: 236.05018615722656
z: -0.0036965610925108194
","x: 251.47816467285156
y: 228.89779663085938
z: -0.006132687907665968
","x: 253.36264038085938
y: 228.8684844970703
z: -0.0062647671438753605
","x: 254.22640991210938
y: 230.0262451171875
z: -0.005973066668957472
","x: 250.2767333984375
y: 237.75552368164062
z: -0.0058926730416715145
","x: 253.6099090576172
y: 230.7637176513672
z: -0.008562044240534306
","x: 255.90670776367188
y: 230.06027221679688
z: -0.007797376252710819
","x: 257.211181640625
y: 230.778564453125
z: -0.006917289923876524
","x: 251.8073272705078
y: 240.5018310546875
z: -0.007892138324677944
","x: 255.5762939453125
y: 235.39224243164062
z: -0.010004452429711819
","x: 257.21990966796875
y: 235.8697509765625
z: -0.008099468424916267
","x: 257.6774597167969
y: 237.1195068359375
z: -0.00646677752956748
","x: 253.41868591308594
y: 243.60150146484375
z: -0.009944959543645382
","x: 256.4736022949219
y: 239.54566955566406
z: -0.0117200231179595
","x: 258.23583984375
y: 238.37538146972656
z: -0.010809444822371006
","x: 259.2522888183594
y: 238.051025390625
z: -0.009660240262746811
",,,,,,,,,,,,,,,,,,,,,
9,"x: 256.3943176269531
y: 218.41615295410156
z: -0.2173396348953247
visibility: 0.9998507499694824
","x: 258.4365539550781
y: 210.42807006835938
z: -0.19960080087184906
visibility: 0.9995275735855103
","x: 259.5977783203125
y: 210.22604370117188
z: -0.19960741698741913
visibility: 0.9994890093803406
","x: 260.5666809082031
y: 210.04376220703125
z: -0.19961854815483093
visibility: 0.9994094967842102
","x: 254.2955322265625
y: 210.00271606445312
z: -0.21095752716064453
visibility: 0.9995236396789551
","x: 252.72210693359375
y: 209.41259765625
z: -0.21100477874279022
visibility: 0.9995579123497009
","x: 251.05734252929688
y: 208.82174682617188
z: -0.21111254394054413
visibility: 0.999564528465271
","x: 261.1360778808594
y: 211.91831970214844
z: -0.08325394988059998
visibility: 0.9994986653327942
","x: 247.77459716796875
y: 209.68344116210938
z: -0.12272348254919052
visibility: 0.9988126158714294
","x: 258.1123962402344
y: 224.6793212890625
z: -0.17164470255374908
visibility: 0.999684751033783
","x: 253.65771484375
y: 224.8493194580078
z: -0.185263529419899
visibility: 0.9994986653327942
","x: 269.0026550292969
y: 252.4112548828125
z: 0.006373517215251923
visibility: 0.9997274875640869
","x: 232.09742736816406
y: 245.35116577148438
z: -0.08986616879701614
visibility: 0.9996410608291626
","x: 276.53314208984375
y: 301.93438720703125
z: 0.07405392825603485
visibility: 0.8997523188591003
","x: 235.19943237304688
y: 292.792724609375
z: -0.20882686972618103
visibility: 0.9517296552658081
","x: 289.5066223144531
y: 315.30682373046875
z: 0.0187428817152977
visibility: 0.8118934035301208
","x: 250.67556762695312
y: 252.15782165527344
z: -0.376943439245224
visibility: 0.9807813167572021
","x: 296.0915832519531
y: 324.88214111328125
z: 0.012409457936882973
visibility: 0.7298110127449036
","x: 253.32945251464844
y: 238.55027770996094
z: -0.41292595863342285
visibility: 0.959861159324646
","x: 296.78057861328125
y: 323.02197265625
z: -0.013347106985747814
visibility: 0.741827130317688
","x: 251.6968994140625
y: 234.58639526367188
z: -0.4130946695804596
visibility: 0.9578773975372314
","x: 293.35247802734375
y: 320.5531311035156
z: 0.007231397088617086
visibility: 0.7312548160552979
","x: 250.93539428710938
y: 239.4810791015625
z: -0.3798908591270447
visibility: 0.9378105401992798
","x: 264.9880676269531
y: 353.40997314453125
z: 0.011225758120417595
visibility: 0.9996544718742371
","x: 243.2694091796875
y: 352.0469665527344
z: -0.011171126738190651
visibility: 0.9997354745864868
","x: 263.0521240234375
y: 426.56719970703125
z: -0.10728887468576431
visibility: 0.9928818941116333
","x: 235.90933227539062
y: 429.3270568847656
z: -0.02993827685713768
visibility: 0.9778212904930115
","x: 253.39837646484375
y: 501.54742431640625
z: 0.0026889571454375982
visibility: 0.9828680753707886
","x: 240.41738891601562
y: 497.7811279296875
z: 0.148196280002594
visibility: 0.9882940053939819
","x: 252.37689208984375
y: 512.842529296875
z: 0.01783641055226326
visibility: 0.8336169123649597
","x: 243.5963592529297
y: 505.7012634277344
z: 0.16022440791130066
visibility: 0.9278504252433777
","x: 251.76805114746094
y: 522.8590087890625
z: -0.08563105762004852
visibility: 0.9800397753715515
","x: 235.36056518554688
y: 520.3034057617188
z: 0.04441247135400772
visibility: 0.9851114153862
","x: 250.02992248535156
y: 251.23065185546875
z: 0.0
","x: 249.2690887451172
y: 244.93943786621094
z: 0.001891705091111362
","x: 250.29086303710938
y: 239.0436553955078
z: 0.0017092289635911584
","x: 252.42410278320312
y: 235.74440002441406
z: 0.0008635786944068968
","x: 254.24789428710938
y: 234.4178466796875
z: 0.0003175335004925728
","x: 250.1748504638672
y: 235.23512268066406
z: -0.000875669124070555
","x: 252.99130249023438
y: 229.6526336669922
z: -0.002523240866139531
","x: 254.8994140625
y: 230.29808044433594
z: -0.0025250783655792475
","x: 255.78123474121094
y: 231.7685089111328
z: -0.0021740517113357782
","x: 251.59613037109375
y: 236.85443115234375
z: -0.0030925520695745945
","x: 254.95729064941406
y: 230.9685516357422
z: -0.004697407130151987
","x: 257.1891174316406
y: 231.0645751953125
z: -0.004023210611194372
","x: 258.21875
y: 232.134033203125
z: -0.003328031161800027
","x: 253.149169921875
y: 239.5048370361328
z: -0.005178172141313553
","x: 256.9872131347656
y: 235.14390563964844
z: -0.0064314743503928185
","x: 258.7677917480469
y: 236.00999450683594
z: -0.004986364860087633
","x: 259.1802978515625
y: 237.16688537597656
z: -0.0037853543180972338
","x: 254.69705200195312
y: 242.617431640625
z: -0.00727479625493288
","x: 257.84765625
y: 239.54061889648438
z: -0.008272183127701283
","x: 259.4029541015625
y: 239.16165161132812
z: -0.007443381007760763
","x: 260.05419921875
y: 239.01153564453125
z: -0.006496575195342302
",,,,,,,,,,,,,,,,,,,,,
10,"x: 256.3943176269531
y: 218.41615295410156
z: -0.2173396348953247
visibility: 0.9998507499694824
","x: 258.4365539550781
y: 210.42807006835938
z: -0.19960080087184906
visibility: 0.9995275735855103
","x: 259.5977783203125
y: 210.22604370117188
z: -0.19960741698741913
visibility: 0.9994890093803406
","x: 260.5666809082031
y: 210.04376220703125
z: -0.19961854815483093
visibility: 0.9994094967842102
","x: 254.2955322265625
y: 210.00271606445312
z: -0.21095752716064453
visibility: 0.9995236396789551
","x: 252.72210693359375
y: 209.41259765625
z: -0.21100477874279022
visibility: 0.9995579123497009
","x: 251.05734252929688
y: 208.82174682617188
z: -0.21111254394054413
visibility: 0.999564528465271
","x: 261.1360778808594
y: 211.91831970214844
z: -0.08325394988059998
visibility: 0.9994986653327942
","x: 247.77459716796875
y: 209.68344116210938
z: -0.12272348254919052
visibility: 0.9988126158714294
","x: 258.1123962402344
y: 224.6793212890625
z: -0.17164470255374908
visibility: 0.999684751033783
","x: 253.65771484375
y: 224.8493194580078
z: -0.185263529419899
visibility: 0.9994986653327942
","x: 269.0026550292969
y: 252.4112548828125
z: 0.006373517215251923
visibility: 0.9997274875640869
","x: 232.09742736816406
y: 245.35116577148438
z: -0.08986616879701614
visibility: 0.9996410608291626
","x: 276.53314208984375
y: 301.93438720703125
z: 0.07405392825603485
visibility: 0.8997523188591003
","x: 235.19943237304688
y: 292.792724609375
z: -0.20882686972618103
visibility: 0.9517296552658081
","x: 289.5066223144531
y: 315.30682373046875
z: 0.0187428817152977
visibility: 0.8118934035301208
","x: 250.67556762695312
y: 252.15782165527344
z: -0.376943439245224
visibility: 0.9807813167572021
","x: 296.0915832519531
y: 324.88214111328125
z: 0.012409457936882973
visibility: 0.7298110127449036
","x: 253.32945251464844
y: 238.55027770996094
z: -0.41292595863342285
visibility: 0.959861159324646
","x: 296.78057861328125
y: 323.02197265625
z: -0.013347106985747814
visibility: 0.741827130317688
","x: 251.6968994140625
y: 234.58639526367188
z: -0.4130946695804596
visibility: 0.9578773975372314
","x: 293.35247802734375
y: 320.5531311035156
z: 0.007231397088617086
visibility: 0.7312548160552979
","x: 250.93539428710938
y: 239.4810791015625
z: -0.3798908591270447
visibility: 0.9378105401992798
","x: 264.9880676269531
y: 353.40997314453125
z: 0.011225758120417595
visibility: 0.9996544718742371
","x: 243.2694091796875
y: 352.0469665527344
z: -0.011171126738190651
visibility: 0.9997354745864868
","x: 263.0521240234375
y: 426.56719970703125
z: -0.10728887468576431
visibility: 0.9928818941116333
","x: 235.90933227539062
y: 429.3270568847656
z: -0.02993827685713768
visibility: 0.9778212904930115
","x: 253.39837646484375
y: 501.54742431640625
z: 0.0026889571454375982
visibility: 0.9828680753707886
","x: 240.41738891601562
y: 497.7811279296875
z: 0.148196280002594
visibility: 0.9882940053939819
","x: 252.37689208984375
y: 512.842529296875
z: 0.01783641055226326
visibility: 0.8336169123649597
","x: 243.5963592529297
y: 505.7012634277344
z: 0.16022440791130066
visibility: 0.9278504252433777
","x: 251.76805114746094
y: 522.8590087890625
z: -0.08563105762004852
visibility: 0.9800397753715515
","x: 235.36056518554688
y: 520.3034057617188
z: 0.04441247135400772
visibility: 0.9851114153862
","x: 250.02992248535156
y: 251.23065185546875
z: 0.0
","x: 249.2690887451172
y: 244.93943786621094
z: 0.001891705091111362
","x: 250.29086303710938
y: 239.0436553955078
z: 0.0017092289635911584
","x: 252.42410278320312
y: 235.74440002441406
z: 0.0008635786944068968
","x: 254.24789428710938
y: 234.4178466796875
z: 0.0003175335004925728
","x: 250.1748504638672
y: 235.23512268066406
z: -0.000875669124070555
","x: 252.99130249023438
y: 229.6526336669922
z: -0.002523240866139531
","x: 254.8994140625
y: 230.29808044433594
z: -0.0025250783655792475
","x: 255.78123474121094
y: 231.7685089111328
z: -0.0021740517113357782
","x: 251.59613037109375
y: 236.85443115234375
z: -0.0030925520695745945
","x: 254.95729064941406
y: 230.9685516357422
z: -0.004697407130151987
","x: 257.1891174316406
y: 231.0645751953125
z: -0.004023210611194372
","x: 258.21875
y: 232.134033203125
z: -0.003328031161800027
","x: 253.149169921875
y: 239.5048370361328
z: -0.005178172141313553
","x: 256.9872131347656
y: 235.14390563964844
z: -0.0064314743503928185
","x: 258.7677917480469
y: 236.00999450683594
z: -0.004986364860087633
","x: 259.1802978515625
y: 237.16688537597656
z: -0.0037853543180972338
","x: 254.69705200195312
y: 242.617431640625
z: -0.00727479625493288
","x: 257.84765625
y: 239.54061889648438
z: -0.008272183127701283
","x: 259.4029541015625
y: 239.16165161132812
z: -0.007443381007760763
","x: 260.05419921875
y: 239.01153564453125
z: -0.006496575195342302
",,,,,,,,,,,,,,,,,,,,,
11,"x: 258.7510986328125
y: 218.65394592285156
z: -0.20031924545764923
visibility: 0.9998291730880737
","x: 260.7359619140625
y: 210.6533966064453
z: -0.18210574984550476
visibility: 0.9994715452194214
","x: 261.6894226074219
y: 210.4013671875
z: -0.18211740255355835
visibility: 0.999396562576294
","x: 262.4886779785156
y: 210.14544677734375
z: -0.18212050199508667
visibility: 0.9993121027946472
","x: 256.7987976074219
y: 210.296630859375
z: -0.19941577315330505
visibility: 0.999496340751648
","x: 255.1026611328125
y: 209.7222900390625
z: -0.1994456797838211
visibility: 0.9995294809341431
","x: 253.39064025878906
y: 209.1495361328125
z: -0.19961564242839813
visibility: 0.9995443820953369
","x: 262.3697204589844
y: 212.08680725097656
z: -0.06643781810998917
visibility: 0.9993107318878174
","x: 249.75514221191406
y: 209.9910125732422
z: -0.10985243320465088
visibility: 0.9988400936126709
","x: 259.74334716796875
y: 224.86032104492188
z: -0.15351669490337372
visibility: 0.9996191263198853
","x: 255.35665893554688
y: 225.02012634277344
z: -0.1753477156162262
visibility: 0.9994763135910034
","x: 269.300537109375
y: 252.55862426757812
z: 0.024979103356599808
visibility: 0.9996813535690308
","x: 232.87960815429688
y: 245.46263122558594
z: -0.07183332741260529
visibility: 0.9996498823165894
","x: 276.71441650390625
y: 302.4038391113281
z: 0.08713406324386597
visibility: 0.8730288147926331
","x: 233.67454528808594
y: 292.77825927734375
z: -0.18753355741500854
visibility: 0.9554601907730103
","x: 293.7637939453125
y: 312.5613098144531
z: 0.013032658025622368
visibility: 0.7952191233634949
","x: 250.7535858154297
y: 252.34458923339844
z: -0.3589741587638855
visibility: 0.981674075126648
","x: 300.1138000488281
y: 319.741455078125
z: 0.00448865070939064
visibility: 0.7126083970069885
","x: 254.47122192382812
y: 239.12167358398438
z: -0.3945951461791992
visibility: 0.9612188935279846
","x: 301.288818359375
y: 317.1830139160156
z: -0.02132129855453968
visibility: 0.7264766097068787
","x: 253.13487243652344
y: 234.913330078125
z: -0.3942640423774719
visibility: 0.9592487215995789
","x: 297.67303466796875
y: 315.25836181640625
z: 0.0008774961461313069
visibility: 0.7152665853500366
","x: 252.19508361816406
y: 239.5880889892578
z: -0.36212894320487976
visibility: 0.9390945434570312
","x: 265.830810546875
y: 353.4576721191406
z: 0.014586962759494781
visibility: 0.9996399879455566
","x: 243.6239776611328
y: 352.316162109375
z: -0.014509009197354317
visibility: 0.9997041821479797
","x: 263.5368957519531
y: 426.665771484375
z: -0.1074288934469223
visibility: 0.9920992851257324
","x: 236.66134643554688
y: 429.23968505859375
z: -0.04207465425133705
visibility: 0.9780851602554321
","x: 253.21641540527344
y: 501.28662109375
z: 0.01215917058289051
visibility: 0.9827243089675903
","x: 240.20230102539062
y: 497.01104736328125
z: 0.13229742646217346
visibility: 0.9871624708175659
","x: 251.54888916015625
y: 511.88665771484375
z: 0.019486773759126663
visibility: 0.843063235282898
","x: 242.80880737304688
y: 504.7388916015625
z: 0.15079618990421295
visibility: 0.9205557107925415
","x: 251.9068603515625
y: 521.7938842773438
z: -0.10006479918956757
visibility: 0.9802046418190002
","x: 235.51612854003906
y: 519.8137817382812
z: 0.01719035767018795
visibility: 0.9841650128364563
","x: 249.8985137939453
y: 253.15184020996094
z: 0.0
","x: 250.6643829345703
y: 247.14974975585938
z: 0.0019208969315513968
","x: 252.55612182617188
y: 242.0921173095703
z: 0.0012837974354624748
","x: 255.0477294921875
y: 239.449951171875
z: -0.00019965323735959828
","x: 257.063720703125
y: 238.804931640625
z: -0.0014407163253054023
","x: 252.7751007080078
y: 237.57057189941406
z: -0.0017359990160912275
","x: 257.6158752441406
y: 234.09376525878906
z: -0.0037845454644411802
","x: 259.9402770996094
y: 235.78248596191406
z: -0.004284081049263477
","x: 260.9874572753906
y: 237.42437744140625
z: -0.00443393737077713
","x: 253.50938415527344
y: 239.29954528808594
z: -0.004323101602494717
","x: 258.6041564941406
y: 236.19366455078125
z: -0.006425938103348017
","x: 260.330322265625
y: 238.73309326171875
z: -0.005964703392237425
","x: 260.57635498046875
y: 241.35113525390625
z: -0.005420098081231117
","x: 254.30502319335938
y: 242.12144470214844
z: -0.006693913135677576
","x: 258.9181213378906
y: 241.14691162109375
z: -0.008188566192984581
","x: 259.5518798828125
y: 244.53738403320312
z: -0.0067070298828184605
","x: 258.97015380859375
y: 247.05007934570312
z: -0.005514875054359436
","x: 255.0565948486328
y: 245.42352294921875
z: -0.009113098494708538
","x: 258.6100769042969
y: 245.49050903320312
z: -0.009951071813702583
","x: 259.21978759765625
y: 247.80014038085938
z: -0.008804688230156898
","x: 258.85150146484375
y: 249.5720672607422
z: -0.0077385674230754375
",,,,,,,,,,,,,,,,,,,,,
12,"x: 258.7510986328125
y: 218.65394592285156
z: -0.20031924545764923
visibility: 0.9998291730880737
","x: 260.7359619140625
y: 210.6533966064453
z: -0.18210574984550476
visibility: 0.9994715452194214
","x: 261.6894226074219
y: 210.4013671875
z: -0.18211740255355835
visibility: 0.999396562576294
","x: 262.4886779785156
y: 210.14544677734375
z: -0.18212050199508667
visibility: 0.9993121027946472
","x: 256.7987976074219
y: 210.296630859375
z: -0.19941577315330505
visibility: 0.999496340751648
","x: 255.1026611328125
y: 209.7222900390625
z: -0.1994456797838211
visibility: 0.9995294809341431
","x: 253.39064025878906
y: 209.1495361328125
z: -0.19961564242839813
visibility: 0.9995443820953369
","x: 262.3697204589844
y: 212.08680725097656
z: -0.06643781810998917
visibility: 0.9993107318878174
","x: 249.75514221191406
y: 209.9910125732422
z: -0.10985243320465088
visibility: 0.9988400936126709
","x: 259.74334716796875
y: 224.86032104492188
z: -0.15351669490337372
visibility: 0.9996191263198853
","x: 255.35665893554688
y: 225.02012634277344
z: -0.1753477156162262
visibility: 0.9994763135910034
","x: 269.300537109375
y: 252.55862426757812
z: 0.024979103356599808
visibility: 0.9996813535690308
","x: 232.87960815429688
y: 245.46263122558594
z: -0.07183332741260529
visibility: 0.9996498823165894
","x: 276.71441650390625
y: 302.4038391113281
z: 0.08713406324386597
visibility: 0.8730288147926331
","x: 233.67454528808594
y: 292.77825927734375
z: -0.18753355741500854
visibility: 0.9554601907730103
","x: 293.7637939453125
y: 312.5613098144531
z: 0.013032658025622368
visibility: 0.7952191233634949
","x: 250.7535858154297
y: 252.34458923339844
z: -0.3589741587638855
visibility: 0.981674075126648
","x: 300.1138000488281
y: 319.741455078125
z: 0.00448865070939064
visibility: 0.7126083970069885
","x: 254.47122192382812
y: 239.12167358398438
z: -0.3945951461791992
visibility: 0.9612188935279846
","x: 301.288818359375
y: 317.1830139160156
z: -0.02132129855453968
visibility: 0.7264766097068787
","x: 253.13487243652344
y: 234.913330078125
z: -0.3942640423774719
visibility: 0.9592487215995789
","x: 297.67303466796875
y: 315.25836181640625
z: 0.0008774961461313069
visibility: 0.7152665853500366
","x: 252.19508361816406
y: 239.5880889892578
z: -0.36212894320487976
visibility: 0.9390945434570312
","x: 265.830810546875
y: 353.4576721191406
z: 0.014586962759494781
visibility: 0.9996399879455566
","x: 243.6239776611328
y: 352.316162109375
z: -0.014509009197354317
visibility: 0.9997041821479797
","x: 263.5368957519531
y: 426.665771484375
z: -0.1074288934469223
visibility: 0.9920992851257324
","x: 236.66134643554688
y: 429.23968505859375
z: -0.04207465425133705
visibility: 0.9780851602554321
","x: 253.21641540527344
y: 501.28662109375
z: 0.01215917058289051
visibility: 0.9827243089675903
","x: 240.20230102539062
y: 497.01104736328125
z: 0.13229742646217346
visibility: 0.9871624708175659
","x: 251.54888916015625
y: 511.88665771484375
z: 0.019486773759126663
visibility: 0.843063235282898
","x: 242.80880737304688
y: 504.7388916015625
z: 0.15079618990421295
visibility: 0.9205557107925415
","x: 251.9068603515625
y: 521.7938842773438
z: -0.10006479918956757
visibility: 0.9802046418190002
","x: 235.51612854003906
y: 519.8137817382812
z: 0.01719035767018795
visibility: 0.9841650128364563
","x: 249.8985137939453
y: 253.15184020996094
z: 0.0
","x: 250.6643829345703
y: 247.14974975585938
z: 0.0019208969315513968
","x: 252.55612182617188
y: 242.0921173095703
z: 0.0012837974354624748
","x: 255.0477294921875
y: 239.449951171875
z: -0.00019965323735959828
","x: 257.063720703125
y: 238.804931640625
z: -0.0014407163253054023
","x: 252.7751007080078
y: 237.57057189941406
z: -0.0017359990160912275
","x: 257.6158752441406
y: 234.09376525878906
z: -0.0037845454644411802
","x: 259.9402770996094
y: 235.78248596191406
z: -0.004284081049263477
","x: 260.9874572753906
y: 237.42437744140625
z: -0.00443393737077713
","x: 253.50938415527344
y: 239.29954528808594
z: -0.004323101602494717
","x: 258.6041564941406
y: 236.19366455078125
z: -0.006425938103348017
","x: 260.330322265625
y: 238.73309326171875
z: -0.005964703392237425
","x: 260.57635498046875
y: 241.35113525390625
z: -0.005420098081231117
","x: 254.30502319335938
y: 242.12144470214844
z: -0.006693913135677576
","x: 258.9181213378906
y: 241.14691162109375
z: -0.008188566192984581
","x: 259.5518798828125
y: 244.53738403320312
z: -0.0067070298828184605
","x: 258.97015380859375
y: 247.05007934570312
z: -0.005514875054359436
","x: 255.0565948486328
y: 245.42352294921875
z: -0.009113098494708538
","x: 258.6100769042969
y: 245.49050903320312
z: -0.009951071813702583
","x: 259.21978759765625
y: 247.80014038085938
z: -0.008804688230156898
","x: 258.85150146484375
y: 249.5720672607422
z: -0.0077385674230754375
",,,,,,,,,,,,,,,,,,,,,
13,"x: 260.63421630859375
y: 218.80096435546875
z: -0.22976085543632507
visibility: 0.9998378157615662
","x: 262.0870361328125
y: 210.8842315673828
z: -0.21388959884643555
visibility: 0.9995013475418091
","x: 262.9364318847656
y: 210.68325805664062
z: -0.21390116214752197
visibility: 0.9994252324104309
","x: 263.6585388183594
y: 210.46022033691406
z: -0.21390095353126526
visibility: 0.999340832233429
","x: 258.5371398925781
y: 210.33306884765625
z: -0.22579924762248993
visibility: 0.9995315074920654
","x: 256.926025390625
y: 209.76356506347656
z: -0.2258312702178955
visibility: 0.999560534954071
","x: 255.3215789794922
y: 209.2308807373047
z: -0.22591128945350647
visibility: 0.999575674533844
","x: 263.1917419433594
y: 212.22023010253906
z: -0.09303878247737885
visibility: 0.9993155002593994
","x: 251.52880859375
y: 210.17327880859375
z: -0.14686273038387299
visibility: 0.9989442229270935
","x: 261.2937316894531
y: 224.97561645507812
z: -0.18130798637866974
visibility: 0.9996370673179626
","x: 257.0857849121094
y: 225.16091918945312
z: -0.19771413505077362
visibility: 0.9995209574699402
","x: 269.8322448730469
y: 252.2195587158203
z: 0.00958265271037817
visibility: 0.9996963143348694
","x: 234.7972412109375
y: 245.16653442382812
z: -0.0832761824131012
visibility: 0.9996811151504517
","x: 277.087646484375
y: 300.65765380859375
z: 0.07151628285646439
visibility: 0.868831992149353
","x: 229.08265686035156
y: 289.1109619140625
z: -0.17549876868724823
visibility: 0.9593726992607117
","x: 297.6081237792969
y: 307.9261474609375
z: -0.09701327234506607
visibility: 0.8093699812889099
","x: 246.33802795410156
y: 294.0377502441406
z: -0.3418033719062805
visibility: 0.9829879999160767
","x: 302.98370361328125
y: 311.03436279296875
z: -0.1251431256532669
visibility: 0.7325981259346008
","x: 253.9259490966797
y: 299.1673889160156
z: -0.37827762961387634
visibility: 0.9638224840164185
","x: 304.04962158203125
y: 307.52508544921875
z: -0.15497800707817078
visibility: 0.7462729811668396
","x: 250.71656799316406
y: 290.12139892578125
z: -0.3887123167514801
visibility: 0.9620599150657654
","x: 302.1339111328125
y: 306.7970886230469
z: -0.11338686943054199
visibility: 0.7343637943267822
","x: 249.75523376464844
y: 287.3599853515625
z: -0.3486105799674988
visibility: 0.9431319236755371
","x: 267.3921813964844
y: 352.897216796875
z: 0.012545937672257423
visibility: 0.9995364546775818
","x: 245.73927307128906
y: 352.1484375
z: -0.012412475422024727
visibility: 0.9996479153633118
","x: 264.28106689453125
y: 426.3873596191406
z: -0.010802855715155602
visibility: 0.991549551486969
","x: 241.89251708984375
y: 428.98095703125
z: -0.03725717216730118
visibility: 0.9783895015716553
","x: 253.52725219726562
y: 500.7252197265625
z: 0.10755548626184464
visibility: 0.9827033877372742
","x: 241.25848388671875
y: 497.6778869628906
z: 0.12193332612514496
visibility: 0.9868894219398499
","x: 251.95025634765625
y: 511.5401916503906
z: 0.11183258146047592
visibility: 0.8504149317741394
","x: 243.0946807861328
y: 505.8269958496094
z: 0.13079890608787537
visibility: 0.9176280498504639
","x: 252.18321228027344
y: 521.5379638671875
z: -0.0017893633339554071
visibility: 0.9803945422172546
","x: 236.56832885742188
y: 519.81689453125
z: 0.002568201394751668
visibility: 0.9840540885925293
",,,,,,,,,,,,,,,,,,,,,,,,,,,,,,,,,,,,,,,,,,
14,"x: 261.52618408203125
y: 218.92173767089844
z: -0.30572378635406494
visibility: 0.9998491406440735
","x: 263.14556884765625
y: 211.6922149658203
z: -0.2904976010322571
visibility: 0.9995264410972595
","x: 264.06048583984375
y: 211.5421142578125
z: -0.2905150055885315
visibility: 0.9994597434997559
","x: 264.87310791015625
y: 211.33358764648438
z: -0.2905155420303345
visibility: 0.9993721842765808
","x: 259.4757995605469
y: 211.1007537841797
z: -0.2994609475135803
visibility: 0.9995549321174622
","x: 257.8494873046875
y: 210.53688049316406
z: -0.2994702458381653
visibility: 0.9995812773704529
","x: 256.2142333984375
y: 209.9392852783203
z: -0.2995218336582184
visibility: 0.999585747718811
","x: 264.6824035644531
y: 212.5950927734375
z: -0.16971835494041443
visibility: 0.9992927312850952
","x: 252.3342742919922
y: 210.2883758544922
z: -0.21262535452842712
visibility: 0.9990217685699463
","x: 262.2599182128906
y: 225.01779174804688
z: -0.2573458254337311
visibility: 0.9996538758277893
","x: 257.919677734375
y: 225.21267700195312
z: -0.26966965198516846
visibility: 0.9995577931404114
","x: 271.1540222167969
y: 253.15838623046875
z: -0.06634336709976196
visibility: 0.9997212290763855
","x: 234.84068298339844
y: 245.4649200439453
z: -0.11476953327655792
visibility: 0.9997095465660095
","x: 277.5860290527344
y: 301.00823974609375
z: -0.059879153966903687
visibility: 0.8729231953620911
","x: 228.12632751464844
y: 299.91168212890625
z: -0.07295753061771393
visibility: 0.9624518752098083
","x: 298.8941955566406
y: 298.9490661621094
z: -0.25553709268569946
visibility: 0.8260973691940308
","x: 226.5754852294922
y: 343.4474182128906
z: -0.13138744235038757
visibility: 0.9834065437316895
","x: 305.7254333496094
y: 300.1119384765625
z: -0.2897343039512634
visibility: 0.7557306289672852
","x: 224.86605834960938
y: 359.0733337402344
z: -0.14373573660850525
visibility: 0.9644396901130676
","x: 306.0030517578125
y: 293.83685302734375
z: -0.3180851638317108
visibility: 0.768695056438446
","x: 226.15684509277344
y: 358.6349792480469
z: -0.17800047993659973
visibility: 0.9632032513618469
","x: 303.05364990234375
y: 293.15362548828125
z: -0.27233314514160156
visibility: 0.7569323778152466
","x: 227.65365600585938
y: 353.50091552734375
z: -0.1440638154745102
visibility: 0.9453770518302917
","x: 266.52752685546875
y: 352.27117919921875
z: 0.012373385950922966
visibility: 0.9994305968284607
","x: 245.59078979492188
y: 350.64642333984375
z: -0.012327895499765873
visibility: 0.9995327591896057
","x: 263.5585632324219
y: 427.1648864746094
z: -0.030602509155869484
visibility: 0.9878512620925903
","x: 243.85528564453125
y: 428.48614501953125
z: -0.029952052980661392
visibility: 0.9762753844261169
","x: 253.6666717529297
y: 502.3551025390625
z: 0.08836892992258072
visibility: 0.9811086058616638
","x: 241.62454223632812
y: 497.79498291015625
z: 0.11402014642953873
visibility: 0.9840055108070374
","x: 252.11854553222656
y: 512.8638916015625
z: 0.09313926845788956
visibility: 0.8508244156837463
","x: 243.17465209960938
y: 506.1600341796875
z: 0.1201203241944313
visibility: 0.9014030694961548
","x: 252.24514770507812
y: 521.841552734375
z: -0.019313272088766098
visibility: 0.9789474606513977
","x: 237.63478088378906
y: 519.4808349609375
z: -0.0010663486318662763
visibility: 0.9816429615020752
",,,,,,,,,,,,,,,,,,,,,,,,,,,,,,,,,,,,,,,,,,
15,"x: 260.474365234375
y: 214.04547119140625
z: -0.3365846276283264
visibility: 0.9998553991317749
","x: 262.43701171875
y: 207.15431213378906
z: -0.323292076587677
visibility: 0.9995375275611877
","x: 263.582763671875
y: 207.33712768554688
z: -0.3233305811882019
visibility: 0.999477744102478
","x: 264.6183166503906
y: 207.45851135253906
z: -0.32334864139556885
visibility: 0.9993835687637329
","x: 258.4236145019531
y: 206.11260986328125
z: -0.32577764987945557
visibility: 0.9995644092559814
","x: 256.8910827636719
y: 205.67091369628906
z: -0.3258189260959625
visibility: 0.9995865821838379
","x: 255.32540893554688
y: 205.28099060058594
z: -0.3258993625640869
visibility: 0.9995856881141663
","x: 265.3674011230469
y: 209.24574279785156
z: -0.21107327938079834
visibility: 0.9992682933807373
","x: 252.5509033203125
y: 206.34751892089844
z: -0.22369089722633362
visibility: 0.9990853667259216
","x: 262.0102233886719
y: 220.729736328125
z: -0.29174962639808655
visibility: 0.9996657371520996
","x: 257.2516784667969
y: 220.322998046875
z: -0.295280396938324
visibility: 0.9995878338813782
","x: 274.4412841796875
y: 253.86244201660156
z: -0.11414735019207001
visibility: 0.9997295141220093
","x: 235.1667022705078
y: 243.69459533691406
z: -0.12614579498767853
visibility: 0.9997344017028809
","x: 280.73321533203125
y: 301.1032409667969
z: -0.1469537317752838
visibility: 0.872094452381134
","x: 217.6421661376953
y: 289.11761474609375
z: -0.09596256911754608
visibility: 0.9649830460548401
","x: 301.982177734375
y: 299.7100524902344
z: -0.35572487115859985
visibility: 0.8365268707275391
","x: 200.20147705078125
y: 317.1313171386719
z: -0.18560390174388885
visibility: 0.9837518930435181
","x: 308.6710205078125
y: 302.1471862792969
z: -0.3903034031391144
visibility: 0.7712901830673218
","x: 193.3850860595703
y: 328.9383239746094
z: -0.20346322655677795
visibility: 0.9649067521095276
","x: 308.97607421875
y: 296.267822265625
z: -0.41620540618896484
visibility: 0.7843007445335388
","x: 194.88375854492188
y: 329.3825988769531
z: -0.23806095123291016
visibility: 0.9642824530601501
","x: 305.9061279296875
y: 295.3403015136719
z: -0.3718734383583069
visibility: 0.771939218044281
","x: 197.7141571044922
y: 325.9846496582031
z: -0.2012021243572235
visibility: 0.9479938745498657
","x: 265.9079895019531
y: 352.594970703125
z: 0.008845249190926552
visibility: 0.9992333054542542
","x: 244.47853088378906
y: 350.69378662109375
z: -0.008795438334345818
visibility: 0.9994129538536072
","x: 263.73651123046875
y: 430.78717041015625
z: -0.028210416436195374
visibility: 0.9852412939071655
","x: 243.26605224609375
y: 427.3448181152344
z: -0.052513789385557175
visibility: 0.9761505722999573
","x: 253.31765747070312
y: 503.8571472167969
z: 0.09333580732345581
visibility: 0.9801613688468933
","x: 239.08889770507812
y: 500.7720947265625
z: 0.08398403227329254
visibility: 0.983167827129364
","x: 251.4698486328125
y: 516.9259033203125
z: 0.09753748029470444
visibility: 0.8466067910194397
","x: 241.52200317382812
y: 512.6659545898438
z: 0.08998048305511475
visibility: 0.8961361646652222
","x: 250.64369201660156
y: 521.5623779296875
z: -0.016142411157488823
visibility: 0.9775875806808472
","x: 234.0935516357422
y: 519.782470703125
z: -0.0269827451556921
visibility: 0.9812039136886597
",,,,,,,,,,,,,,,,,,,,,,,,,,,,,,,,,,,,,,,,,,
16,"x: 258.9005126953125
y: 205.38125610351562
z: -0.30927470326423645
visibility: 0.9998673796653748
","x: 260.555419921875
y: 198.55496215820312
z: -0.2971460223197937
visibility: 0.9995731711387634
","x: 261.6464538574219
y: 198.74961853027344
z: -0.2971767485141754
visibility: 0.999519944190979
","x: 262.7022705078125
y: 199.00271606445312
z: -0.29718196392059326
visibility: 0.999433159828186
","x: 256.8899841308594
y: 197.66807556152344
z: -0.29532256722450256
visibility: 0.999593198299408
","x: 255.41453552246094
y: 197.32968139648438
z: -0.29535603523254395
visibility: 0.9996114373207092
","x: 253.86866760253906
y: 197.03350830078125
z: -0.2954214811325073
visibility: 0.9996083974838257
","x: 263.80059814453125
y: 201.61492919921875
z: -0.19565732777118683
visibility: 0.9993219375610352
","x: 250.9190673828125
y: 199.33279418945312
z: -0.1885300874710083
visibility: 0.999142587184906
","x: 260.1163330078125
y: 212.872314453125
z: -0.26887744665145874
visibility: 0.9996908903121948
","x: 255.88339233398438
y: 212.4070587158203
z: -0.2667228579521179
visibility: 0.9996181130409241
","x: 273.96063232421875
y: 251.40277099609375
z: -0.11968742311000824
visibility: 0.9997457265853882
","x: 234.68739318847656
y: 240.9733428955078
z: -0.09886305034160614
visibility: 0.9997440576553345
","x: 279.63116455078125
y: 300.78558349609375
z: -0.12190673500299454
visibility: 0.8760388493537903
","x: 215.38601684570312
y: 278.0679626464844
z: -0.07428823411464691
visibility: 0.9648639559745789
","x: 297.79705810546875
y: 319.4775695800781
z: -0.27121222019195557
visibility: 0.8456913232803345
","x: 192.30892944335938
y: 300.3952331542969
z: -0.18192562460899353
visibility: 0.9825020432472229
","x: 304.09600830078125
y: 328.6285400390625
z: -0.2979639172554016
visibility: 0.7843862175941467
","x: 184.61346435546875
y: 306.0081787109375
z: -0.20329789817333221
visibility: 0.9629292488098145
","x: 304.69207763671875
y: 321.03509521484375
z: -0.3314790725708008
visibility: 0.7976377606391907
","x: 185.31932067871094
y: 305.0513916015625
z: -0.24005374312400818
visibility: 0.9633825421333313
","x: 302.2840881347656
y: 318.1898193359375
z: -0.28857412934303284
visibility: 0.7856205701828003
","x: 188.3106689453125
y: 304.2054443359375
z: -0.2005569487810135
visibility: 0.9487282633781433
","x: 265.2012634277344
y: 352.310546875
z: -0.005974709056317806
visibility: 0.99920654296875
","x: 242.72604370117188
y: 349.9646301269531
z: 0.005863902624696493
visibility: 0.9993563890457153
","x: 263.09759521484375
y: 430.02783203125
z: -0.023743461817502975
visibility: 0.9848890900611877
","x: 240.42637634277344
y: 427.39581298828125
z: -0.01309078186750412
visibility: 0.9766140580177307
","x: 253.44053649902344
y: 502.302001953125
z: 0.11999305337667465
visibility: 0.981131374835968
","x: 238.36463928222656
y: 501.3749694824219
z: 0.14034916460514069
visibility: 0.9835338592529297
","x: 251.90846252441406
y: 513.5416259765625
z: 0.12669095396995544
visibility: 0.845939040184021
","x: 241.2637176513672
y: 512.3427734375
z: 0.14863577485084534
visibility: 0.8954030871391296
","x: 250.3360137939453
y: 524.304443359375
z: 0.008404020220041275
visibility: 0.9784733057022095
","x: 233.90536499023438
y: 524.6048583984375
z: 0.03714204579591751
visibility: 0.9817189574241638
",,,,,,,,,,,,,,,,,,,,,,,,,,,,,,,,,,,,,,,,,,
17,"x: 255.3018341064453
y: 203.75872802734375
z: -0.2795557379722595
visibility: 0.9998774528503418
","x: 258.59539794921875
y: 196.39817810058594
z: -0.28681594133377075
visibility: 0.9996063113212585
","x: 260.2816162109375
y: 196.53868103027344
z: -0.287342369556427
visibility: 0.9995586276054382
","x: 261.9271240234375
y: 196.76058959960938
z: -0.28754428029060364
visibility: 0.9994800686836243
","x: 253.7618865966797
y: 195.56845092773438
z: -0.2554594874382019
visibility: 0.9996203780174255
","x: 252.2825469970703
y: 195.20184326171875
z: -0.2554841637611389
visibility: 0.9996335506439209
","x: 250.9367218017578
y: 194.8518524169922
z: -0.25551900267601013
visibility: 0.9996302723884583
","x: 262.905029296875
y: 198.9514923095703
z: -0.15754808485507965
visibility: 0.9993785619735718
","x: 249.7384033203125
y: 196.47291564941406
z: -0.1409776508808136
visibility: 0.9991944432258606
","x: 258.756591796875
y: 211.32177734375
z: -0.252044677734375
visibility: 0.9997142553329468
","x: 252.5203857421875
y: 210.74676513671875
z: -0.23011238873004913
visibility: 0.9996455907821655
","x: 273.21112060546875
y: 249.43983459472656
z: -0.09360378980636597
visibility: 0.9997580051422119
","x: 234.30889892578125
y: 240.5369873046875
z: -0.04833636432886124
visibility: 0.9997472167015076
","x: 279.014404296875
y: 301.81463623046875
z: -0.10002665221691132
visibility: 0.883639395236969
","x: 216.1084747314453
y: 278.20294189453125
z: -0.07527842372655869
visibility: 0.9606587290763855
","x: 294.767822265625
y: 330.26959228515625
z: -0.22224195301532745
visibility: 0.8554768562316895
","x: 191.70945739746094
y: 293.0475158691406
z: -0.23537543416023254
visibility: 0.9814810752868652
","x: 301.27301025390625
y: 341.2891845703125
z: -0.24962976574897766
visibility: 0.7976045608520508
","x: 184.28546142578125
y: 304.3804626464844
z: -0.25554460287094116
visibility: 0.9625118970870972
","x: 303.9684143066406
y: 338.91290283203125
z: -0.2791678309440613
visibility: 0.8106783628463745
","x: 184.5115203857422
y: 298.9261169433594
z: -0.2911013066768646
visibility: 0.9636821150779724
","x: 301.58892822265625
y: 334.98980712890625
z: -0.23712500929832458
visibility: 0.7992202043533325
","x: 186.86737060546875
y: 296.924072265625
z: -0.21488913893699646
visibility: 0.9502766132354736
","x: 261.1526184082031
y: 352.12969970703125
z: -0.015227735042572021
visibility: 0.9991892576217651
","x: 239.07447814941406
y: 349.3103332519531
z: 0.015146823599934578
visibility: 0.9993285536766052
","x: 258.33929443359375
y: 428.3021240234375
z: -0.03922710940241814
visibility: 0.9839997887611389
","x: 236.6865692138672
y: 427.6167297363281
z: -0.014139448292553425
visibility: 0.9764630794525146
","x: 253.3890380859375
y: 501.5603332519531
z: 0.1001589447259903
visibility: 0.981775164604187
","x: 238.50672912597656
y: 501.7478942871094
z: 0.1188872903585434
visibility: 0.9838269948959351
","x: 252.2848358154297
y: 513.2603759765625
z: 0.09749230742454529
visibility: 0.8484454154968262
","x: 241.37388610839844
y: 513.71142578125
z: 0.12426762282848358
visibility: 0.8973752856254578
","x: 250.39149475097656
y: 523.5502319335938
z: -0.020271148532629013
visibility: 0.9793130159378052
","x: 233.66012573242188
y: 525.50732421875
z: 0.017329026013612747
visibility: 0.9820841550827026
",,,,,,,,,,,,,,,,,,,,,,,,,,,,,,,,,,,,,,,,,,
18,"x: 252.07449340820312
y: 201.93328857421875
z: -0.2737121880054474
visibility: 0.9998878240585327
","x: 255.69894409179688
y: 194.75469970703125
z: -0.2721373438835144
visibility: 0.9996387958526611
","x: 257.6361083984375
y: 195.02279663085938
z: -0.2723361849784851
visibility: 0.9995965361595154
","x: 259.2498779296875
y: 195.33990478515625
z: -0.27246004343032837
visibility: 0.9995250105857849
","x: 250.27142333984375
y: 193.72923278808594
z: -0.24927620589733124
visibility: 0.9996470808982849
","x: 248.64724731445312
y: 193.31129455566406
z: -0.24928343296051025
visibility: 0.9996577501296997
","x: 247.28897094726562
y: 192.952880859375
z: -0.24924008548259735
visibility: 0.9996542930603027
","x: 260.62274169921875
y: 198.07176208496094
z: -0.14862093329429626
visibility: 0.9994332790374756
","x: 245.8830108642578
y: 194.70053100585938
z: -0.13655851781368256
visibility: 0.9992412328720093
","x: 255.44508361816406
y: 210.17958068847656
z: -0.23106034100055695
visibility: 0.9997387528419495
","x: 248.756591796875
y: 209.4812774658203
z: -0.22876639664173126
visibility: 0.9996742010116577
","x: 272.8529357910156
y: 247.4694061279297
z: -0.09213848412036896
visibility: 0.9997760057449341
","x: 231.38626098632812
y: 240.823974609375
z: -0.041985731571912766
visibility: 0.9997410178184509
","x: 278.32098388671875
y: 300.327880859375
z: -0.10427556931972504
visibility: 0.8927242159843445
","x: 217.09393310546875
y: 283.6099853515625
z: -0.05276068300008774
visibility: 0.9614994525909424
","x: 293.61761474609375
y: 328.871826171875
z: -0.25231677293777466
visibility: 0.8675716519355774
","x: 193.0146026611328
y: 288.24151611328125
z: -0.22515146434307098
visibility: 0.982628345489502
","x: 300.6715087890625
y: 339.2881774902344
z: -0.28261977434158325
visibility: 0.8136847019195557
","x: 186.7640380859375
y: 285.96807861328125
z: -0.2563426196575165
visibility: 0.9649695754051208
","x: 303.4217224121094
y: 336.593505859375
z: -0.31486955285072327
visibility: 0.825987696647644
","x: 186.8098907470703
y: 278.8321228027344
z: -0.2842831015586853
visibility: 0.9662327170372009
","x: 301.25567626953125
y: 332.97222900390625
z: -0.26885631680488586
visibility: 0.8154780864715576
","x: 188.99514770507812
y: 279.9378356933594
z: -0.23763899505138397
visibility: 0.9539754390716553
","x: 258.2821044921875
y: 352.11383056640625
z: -0.016187693923711777
visibility: 0.9991695284843445
","x: 236.17295837402344
y: 349.427001953125
z: 0.016098786145448685
visibility: 0.9992908835411072
","x: 255.07444763183594
y: 430.9277038574219
z: -0.023326609283685684
visibility: 0.9846803545951843
","x: 234.85446166992188
y: 429.5799560546875
z: 0.011290831491351128
visibility: 0.977686882019043
","x: 253.49630737304688
y: 499.3345947265625
z: 0.15933947265148163
visibility: 0.9825761318206787
","x: 238.18463134765625
y: 501.8119812011719
z: 0.17329180240631104
visibility: 0.9845461845397949
","x: 252.49368286132812
y: 505.4220886230469
z: 0.17018675804138184
visibility: 0.8464066982269287
","x: 241.5250701904297
y: 513.3561401367188
z: 0.18277700245380402
visibility: 0.8981195092201233
","x: 250.48550415039062
y: 523.36767578125
z: 0.05517325922846794
visibility: 0.9801110029220581
","x: 234.81333923339844
y: 527.4788208007812
z: 0.06899777054786682
visibility: 0.9827625751495361
",,,,,,,,,,,,,,,,,,,,,,,,,,,,,,,,,,,,,,,,,,
19,"x: 251.80990600585938
y: 202.2916259765625
z: -0.2804664075374603
visibility: 0.9998986124992371
","x: 255.27731323242188
y: 195.2974853515625
z: -0.266473650932312
visibility: 0.9996738433837891
","x: 257.0193786621094
y: 195.591064453125
z: -0.2665573060512543
visibility: 0.9996357560157776
","x: 258.4869689941406
y: 195.90155029296875
z: -0.26661649346351624
visibility: 0.9995712041854858
","x: 249.96456909179688
y: 193.94911193847656
z: -0.2623530328273773
visibility: 0.9996808767318726
","x: 248.2655029296875
y: 193.42721557617188
z: -0.26236972212791443
visibility: 0.9996902942657471
","x: 246.77947998046875
y: 192.99508666992188
z: -0.2623627781867981
visibility: 0.9996868968009949
","x: 259.705810546875
y: 198.1326141357422
z: -0.14946560561656952
visibility: 0.9994884133338928
","x: 244.55331420898438
y: 194.38931274414062
z: -0.1439322531223297
visibility: 0.9993138313293457
","x: 254.85308837890625
y: 210.02439880371094
z: -0.23601357638835907
visibility: 0.9997644424438477
","x: 248.1949462890625
y: 208.80484008789062
z: -0.23543107509613037
visibility: 0.9997060894966125
","x: 272.26605224609375
y: 247.75991821289062
z: -0.07843488454818726
visibility: 0.9997968077659607
","x: 229.26852416992188
y: 240.63841247558594
z: -0.060060035437345505
visibility: 0.9997606873512268
","x: 281.44366455078125
y: 299.73382568359375
z: -0.07697560638189316
visibility: 0.8998240232467651
","x: 218.30917358398438
y: 285.44586181640625
z: -0.11922015994787216
visibility: 0.9604099988937378
","x: 300.610107421875
y: 328.3717346191406
z: -0.24704042077064514
visibility: 0.8755334615707397
","x: 203.39755249023438
y: 300.0796813964844
z: -0.35389840602874756
visibility: 0.9799981713294983
","x: 309.0062255859375
y: 337.9443359375
z: -0.2837820053100586
visibility: 0.8244844675064087
","x: 201.1193084716797
y: 305.19110107421875
z: -0.3991539776325226
visibility: 0.9627748727798462
","x: 309.62774658203125
y: 335.8546142578125
z: -0.31969088315963745
visibility: 0.8368222713470459
","x: 200.33779907226562
y: 299.20635986328125
z: -0.42470335960388184
visibility: 0.9645974040031433
","x: 306.3872375488281
y: 331.8930358886719
z: -0.2660673260688782
visibility: 0.8262650966644287
","x: 199.1699676513672
y: 297.34820556640625
z: -0.3701292872428894
visibility: 0.9519205689430237
","x: 258.88848876953125
y: 352.359619140625
z: -0.007474719081073999
visibility: 0.9992458820343018
","x: 236.2354736328125
y: 350.22265625
z: 0.007424377836287022
visibility: 0.9993442296981812
","x: 255.76223754882812
y: 430.5892639160156
z: -0.14367304742336273
visibility: 0.9857173562049866
","x: 234.35440063476562
y: 430.4345397949219
z: 0.00214838283136487
visibility: 0.9788700938224792
","x: 253.31236267089844
y: 504.2119140625
z: -0.0013671763008460402
visibility: 0.9837649464607239
","x: 237.91717529296875
y: 502.1883544921875
z: 0.1668129712343216
visibility: 0.9848881363868713
","x: 252.28787231445312
y: 511.6844482421875
z: 0.005665484815835953
visibility: 0.8553659319877625
","x: 241.04026794433594
y: 513.2789306640625
z: 0.17677932977676392
visibility: 0.8959659337997437
","x: 250.2665557861328
y: 532.3750610351562
z: -0.1376153975725174
visibility: 0.9815287590026855
","x: 235.3302001953125
y: 529.5703735351562
z: 0.05352925509214401
visibility: 0.9831045269966125
",,,,,,,,,,,,,,,,,,,,,,,,,,,,,,,,,,,,,,,,,,
20,"x: 251.97813415527344
y: 203.82867431640625
z: -0.3182453513145447
visibility: 0.9999082088470459
","x: 255.3018341064453
y: 196.84640502929688
z: -0.3021475672721863
visibility: 0.9997047781944275
","x: 257.01800537109375
y: 197.1111297607422
z: -0.30217868089675903
visibility: 0.9996704459190369
","x: 258.474365234375
y: 197.37069702148438
z: -0.3022204637527466
visibility: 0.9996120929718018
","x: 250.1931915283203
y: 195.58265686035156
z: -0.3023076057434082
visibility: 0.999710738658905
","x: 248.57492065429688
y: 195.08563232421875
z: -0.30233997106552124
visibility: 0.9997191429138184
","x: 247.10145568847656
y: 194.65557861328125
z: -0.302360475063324
visibility: 0.9997157454490662
","x: 259.68682861328125
y: 199.51409912109375
z: -0.18437489867210388
visibility: 0.9995368123054504
","x: 244.7024688720703
y: 196.0977783203125
z: -0.18748560547828674
visibility: 0.9993788599967957
","x: 254.91940307617188
y: 211.27267456054688
z: -0.2726365923881531
visibility: 0.9997873902320862
","x: 248.29608154296875
y: 210.11688232421875
z: -0.2738245725631714
visibility: 0.9997347593307495
","x: 271.9140625
y: 247.84056091308594
z: -0.09905186295509338
visibility: 0.9998162388801575
","x: 228.3603057861328
y: 240.964599609375
z: -0.10354801267385483
visibility: 0.9997814297676086
","x: 281.4066162109375
y: 300.0173034667969
z: -0.09773292392492294
visibility: 0.9078346490859985
","x: 218.3014678955078
y: 286.0415344238281
z: -0.15126605331897736
visibility: 0.9618301391601562
","x: 300.493408203125
y: 330.7911682128906
z: -0.27326810359954834
visibility: 0.8851802349090576
","x: 210.3587646484375
y: 317.8941650390625
z: -0.3506101965904236
visibility: 0.9779740571975708
","x: 307.52032470703125
y: 340.65301513671875
z: -0.31267958879470825
visibility: 0.8375072479248047
","x: 210.8135223388672
y: 329.38665771484375
z: -0.3933965265750885
visibility: 0.9599180817604065
","x: 307.70916748046875
y: 336.491943359375
z: -0.3498879075050354
visibility: 0.8493732213973999
","x: 214.1891326904297
y: 324.1363830566406
z: -0.41781339049339294
visibility: 0.9621360301971436
","x: 304.93072509765625
y: 333.4103698730469
z: -0.292750746011734
visibility: 0.8388665914535522
","x: 214.57371520996094
y: 318.6487121582031
z: -0.36493369936943054
visibility: 0.948866069316864
","x: 259.02215576171875
y: 352.6156311035156
z: -0.005951412487775087
visibility: 0.999314546585083
","x: 236.74880981445312
y: 350.6343078613281
z: 0.005908286198973656
visibility: 0.9993953704833984
","x: 256.8506164550781
y: 431.32989501953125
z: -0.13380728662014008
visibility: 0.986569344997406
","x: 234.59378051757812
y: 430.8476257324219
z: -0.0010272605577483773
visibility: 0.9795006513595581
","x: 253.35101318359375
y: 507.0645751953125
z: 0.015333831310272217
visibility: 0.984761655330658
","x: 238.03358459472656
y: 502.1151428222656
z: 0.18310871720314026
visibility: 0.9848271012306213
","x: 252.3085479736328
y: 515.8624877929688
z: 0.022495020180940628
visibility: 0.8590216040611267
","x: 241.1537322998047
y: 512.0179443359375
z: 0.19398732483386993
visibility: 0.8924005031585693
","x: 249.484375
y: 533.673583984375
z: -0.1223209947347641
visibility: 0.9826083183288574
","x: 235.44081115722656
y: 529.1080322265625
z: 0.06877510249614716
visibility: 0.9831355214118958
",,,,,,,,,,,,,,,,,,,,,,,,,,,,,,,,,,,,,,,,,,
21,"x: 253.40646362304688
y: 203.35702514648438
z: -0.2947307527065277
visibility: 0.9999169707298279
","x: 256.558349609375
y: 196.48580932617188
z: -0.28725332021713257
visibility: 0.999733030796051
","x: 258.1582336425781
y: 196.8499755859375
z: -0.28729248046875
visibility: 0.9997020959854126
","x: 259.6048278808594
y: 197.19918823242188
z: -0.28741753101348877
visibility: 0.9996492862701416
","x: 251.5866241455078
y: 195.05093383789062
z: -0.2851787209510803
visibility: 0.9997381567955017
","x: 249.76805114746094
y: 194.53240966796875
z: -0.2853131890296936
visibility: 0.9997455477714539
","x: 248.0601043701172
y: 194.14437866210938
z: -0.285424143075943
visibility: 0.9997424483299255
","x: 261.0406188964844
y: 199.74996948242188
z: -0.1633283644914627
visibility: 0.9995802044868469
","x: 245.1139678955078
y: 196.42164611816406
z: -0.18008407950401306
visibility: 0.9994389414787292
","x: 256.3497619628906
y: 211.14190673828125
z: -0.25274181365966797
visibility: 0.999808132648468
","x: 249.63014221191406
y: 210.09585571289062
z: -0.2525678873062134
visibility: 0.9997609257698059
","x: 272.0538330078125
y: 248.14825439453125
z: -0.09503127634525299
visibility: 0.9998335838317871
","x: 228.52816772460938
y: 241.07440185546875
z: -0.07746291160583496
visibility: 0.9998016953468323
","x: 280.54571533203125
y: 301.5984191894531
z: -0.0992191806435585
visibility: 0.9136980175971985
","x: 216.26040649414062
y: 287.05426025390625
z: -0.07589641213417053
visibility: 0.9648204445838928
","x: 295.3971252441406
y: 311.62030029296875
z: -0.32323405146598816
visibility: 0.894751250743866
","x: 221.96090698242188
y: 321.5335693359375
z: -0.2162889689207077
visibility: 0.9786303639411926
","x: 302.1947021484375
y: 313.8501281738281
z: -0.37157994508743286
visibility: 0.8511115312576294
","x: 223.45655822753906
y: 335.7662658691406
z: -0.2503927946090698
visibility: 0.9603588581085205
","x: 302.4840393066406
y: 305.4382629394531
z: -0.4040088653564453
visibility: 0.8621787428855896
","x: 227.2864990234375
y: 331.08148193359375
z: -0.2727983891963959
visibility: 0.9625452756881714
","x: 299.5653991699219
y: 303.7784729003906
z: -0.34196677803993225
visibility: 0.8517331480979919
","x: 227.6084747314453
y: 326.0194091796875
z: -0.22706623375415802
visibility: 0.9495589137077332
","x: 260.0867614746094
y: 352.7984619140625
z: -0.005876924842596054
visibility: 0.9993593096733093
","x: 238.00357055664062
y: 351.3763122558594
z: 0.005847346968948841
visibility: 0.9994275569915771
","x: 257.75225830078125
y: 432.2021179199219
z: -0.06264521181583405
visibility: 0.9871391654014587
","x: 235.6583709716797
y: 432.66986083984375
z: 0.0038888242561370134
visibility: 0.980522096157074
","x: 253.47378540039062
y: 508.7121887207031
z: 0.09117428958415985
visibility: 0.9856106638908386
","x: 238.34767150878906
y: 502.96002197265625
z: 0.16838844120502472
visibility: 0.9853006601333618
","x: 252.45156860351562
y: 518.0700073242188
z: 0.0978395864367485
visibility: 0.8614834547042847
","x: 241.1674346923828
y: 512.2345581054688
z: 0.17673638463020325
visibility: 0.8935899138450623
","x: 249.2911376953125
y: 534.3464965820312
z: -0.042641282081604004
visibility: 0.9833590984344482
","x: 235.6544952392578
y: 529.2216186523438
z: 0.0541231706738472
visibility: 0.9836649298667908
",,,,,,,,,,,,,,,,,,,,,,,,,,,,,,,,,,,,,,,,,,
22,"x: 254.03097534179688
y: 212.07350158691406
z: -0.2699301242828369
visibility: 0.9999235272407532
","x: 256.99578857421875
y: 204.19918823242188
z: -0.2529517710208893
visibility: 0.9997549057006836
","x: 258.5442810058594
y: 204.57949829101562
z: -0.25294944643974304
visibility: 0.9997264742851257
","x: 259.98248291015625
y: 204.95791625976562
z: -0.2529853284358978
visibility: 0.9996782541275024
","x: 252.1791229248047
y: 202.8821563720703
z: -0.25766974687576294
visibility: 0.9997581243515015
","x: 250.30282592773438
y: 202.36184692382812
z: -0.25777050852775574
visibility: 0.9997654557228088
","x: 248.5458221435547
y: 201.92312622070312
z: -0.25783759355545044
visibility: 0.9997633099555969
","x: 261.3660583496094
y: 207.66726684570312
z: -0.13456767797470093
visibility: 0.9996113181114197
","x: 245.12486267089844
y: 204.56045532226562
z: -0.16414345800876617
visibility: 0.9994866251945496
","x: 256.62750244140625
y: 220.41883850097656
z: -0.22596916556358337
visibility: 0.9998252391815186
","x: 249.87147521972656
y: 219.904296875
z: -0.23314130306243896
visibility: 0.9997830390930176
","x: 272.36029052734375
y: 254.99346923828125
z: -0.060838717967271805
visibility: 0.999842643737793
","x: 228.6204071044922
y: 249.5556640625
z: -0.08656749874353409
visibility: 0.9998167753219604
","x: 272.3756103515625
y: 314.53155517578125
z: -0.0915161594748497
visibility: 0.8974851369857788
","x: 223.32839965820312
y: 301.6935119628906
z: -0.133848175406456
visibility: 0.9669111371040344
","x: 266.64508056640625
y: 350.421142578125
z: -0.25917476415634155
visibility: 0.8671829104423523
","x: 238.84085083007812
y: 337.9984130859375
z: -0.28730326890945435
visibility: 0.9751197099685669
","x: 266.39898681640625
y: 364.9609069824219
z: -0.29135096073150635
visibility: 0.8263270258903503
","x: 241.97796630859375
y: 353.3428955078125
z: -0.32948482036590576
visibility: 0.9555982351303101
","x: 264.462646484375
y: 362.4676208496094
z: -0.32559019327163696
visibility: 0.8384658694267273
","x: 245.8335418701172
y: 348.469482421875
z: -0.33730554580688477
visibility: 0.9577578902244568
","x: 264.13739013671875
y: 355.9322814941406
z: -0.2796269655227661
visibility: 0.8237817883491516
","x: 245.79672241210938
y: 343.75347900390625
z: -0.29096585512161255
visibility: 0.94242262840271
","x: 260.3329162597656
y: 359.42791748046875
z: 0.0027184230275452137
visibility: 0.9994168877601624
","x: 238.056884765625
y: 358.054931640625
z: -0.0026464532129466534
visibility: 0.9994724988937378
","x: 261.2937927246094
y: 427.6689147949219
z: -0.2792435884475708
visibility: 0.9877802729606628
","x: 238.02536010742188
y: 430.6082458496094
z: -0.15158839523792267
visibility: 0.9814433455467224
","x: 253.50680541992188
y: 508.32275390625
z: -0.13768528401851654
visibility: 0.9860353469848633
","x: 238.38720703125
y: 502.7072448730469
z: 0.008955612778663635
visibility: 0.9843143224716187
","x: 252.28640747070312
y: 516.8548583984375
z: -0.12992767989635468
visibility: 0.8675063252449036
","x: 240.4453125
y: 510.0032958984375
z: 0.018045492470264435
visibility: 0.8842703104019165
","x: 249.41407775878906
y: 534.8963012695312
z: -0.27514874935150146
visibility: 0.9838709235191345
","x: 236.9293212890625
y: 530.397216796875
z: -0.11153217405080795
visibility: 0.9822010397911072
","x: 243.5707550048828
y: 346.02264404296875
z: 0.0
","x: 248.31210327148438
y: 346.1980895996094
z: -0.00037041972973383963
","x: 252.48556518554688
y: 347.20147705078125
z: -0.0020181492436677217
","x: 255.21249389648438
y: 349.2602844238281
z: -0.0037551538553088903
","x: 256.9739990234375
y: 350.93988037109375
z: -0.0054891170002520084
","x: 249.5966796875
y: 347.8044128417969
z: -0.00601144740357995
","x: 251.51919555664062
y: 349.8953552246094
z: -0.00823199562728405
","x: 252.93820190429688
y: 352.2738342285156
z: -0.008366063237190247
","x: 254.4144287109375
y: 354.03778076171875
z: -0.00825333222746849
","x: 247.04998779296875
y: 350.8992004394531
z: -0.007302037440240383
","x: 248.50210571289062
y: 355.72625732421875
z: -0.009599081240594387
","x: 249.7583770751953
y: 359.199951171875
z: -0.008986209519207478
","x: 251.00546264648438
y: 361.69500732421875
z: -0.008665531873703003
","x: 244.60516357421875
y: 353.83795166015625
z: -0.008134259842336178
","x: 245.56405639648438
y: 359.39385986328125
z: -0.010663880966603756
","x: 246.710693359375
y: 363.7091369628906
z: -0.010070258751511574
","x: 247.80140686035156
y: 366.999755859375
z: -0.009610607288777828
","x: 242.45086669921875
y: 356.20361328125
z: -0.008882994763553143
","x: 242.4689483642578
y: 361.03265380859375
z: -0.010753335431218147
","x: 242.7963409423828
y: 363.9502258300781
z: -0.010546816512942314
","x: 243.34957885742188
y: 366.13934326171875
z: -0.010269698686897755
",,,,,,,,,,,,,,,,,,,,,
23,"x: 254.03097534179688
y: 212.07350158691406
z: -0.2699301242828369
visibility: 0.9999235272407532
","x: 256.99578857421875
y: 204.19918823242188
z: -0.2529517710208893
visibility: 0.9997549057006836
","x: 258.5442810058594
y: 204.57949829101562
z: -0.25294944643974304
visibility: 0.9997264742851257
","x: 259.98248291015625
y: 204.95791625976562
z: -0.2529853284358978
visibility: 0.9996782541275024
","x: 252.1791229248047
y: 202.8821563720703
z: -0.25766974687576294
visibility: 0.9997581243515015
","x: 250.30282592773438
y: 202.36184692382812
z: -0.25777050852775574
visibility: 0.9997654557228088
","x: 248.5458221435547
y: 201.92312622070312
z: -0.25783759355545044
visibility: 0.9997633099555969
","x: 261.3660583496094
y: 207.66726684570312
z: -0.13456767797470093
visibility: 0.9996113181114197
","x: 245.12486267089844
y: 204.56045532226562
z: -0.16414345800876617
visibility: 0.9994866251945496
","x: 256.62750244140625
y: 220.41883850097656
z: -0.22596916556358337
visibility: 0.9998252391815186
","x: 249.87147521972656
y: 219.904296875
z: -0.23314130306243896
visibility: 0.9997830390930176
","x: 272.36029052734375
y: 254.99346923828125
z: -0.060838717967271805
visibility: 0.999842643737793
","x: 228.6204071044922
y: 249.5556640625
z: -0.08656749874353409
visibility: 0.9998167753219604
","x: 272.3756103515625
y: 314.53155517578125
z: -0.0915161594748497
visibility: 0.8974851369857788
","x: 223.32839965820312
y: 301.6935119628906
z: -0.133848175406456
visibility: 0.9669111371040344
","x: 266.64508056640625
y: 350.421142578125
z: -0.25917476415634155
visibility: 0.8671829104423523
","x: 238.84085083007812
y: 337.9984130859375
z: -0.28730326890945435
visibility: 0.9751197099685669
","x: 266.39898681640625
y: 364.9609069824219
z: -0.29135096073150635
visibility: 0.8263270258903503
","x: 241.97796630859375
y: 353.3428955078125
z: -0.32948482036590576
visibility: 0.9555982351303101
","x: 264.462646484375
y: 362.4676208496094
z: -0.32559019327163696
visibility: 0.8384658694267273
","x: 245.8335418701172
y: 348.469482421875
z: -0.33730554580688477
visibility: 0.9577578902244568
","x: 264.13739013671875
y: 355.9322814941406
z: -0.2796269655227661
visibility: 0.8237817883491516
","x: 245.79672241210938
y: 343.75347900390625
z: -0.29096585512161255
visibility: 0.94242262840271
","x: 260.3329162597656
y: 359.42791748046875
z: 0.0027184230275452137
visibility: 0.9994168877601624
","x: 238.056884765625
y: 358.054931640625
z: -0.0026464532129466534
visibility: 0.9994724988937378
","x: 261.2937927246094
y: 427.6689147949219
z: -0.2792435884475708
visibility: 0.9877802729606628
","x: 238.02536010742188
y: 430.6082458496094
z: -0.15158839523792267
visibility: 0.9814433455467224
","x: 253.50680541992188
y: 508.32275390625
z: -0.13768528401851654
visibility: 0.9860353469848633
","x: 238.38720703125
y: 502.7072448730469
z: 0.008955612778663635
visibility: 0.9843143224716187
","x: 252.28640747070312
y: 516.8548583984375
z: -0.12992767989635468
visibility: 0.8675063252449036
","x: 240.4453125
y: 510.0032958984375
z: 0.018045492470264435
visibility: 0.8842703104019165
