uscmakers/ReverseChoreography/data/9_fool_around_yas.csv
,NOSE,LEFT_EYE_INNER,LEFT_EYE,LEFT_EYE_OUTER,RIGHT_EYE_INNER,RIGHT_EYE,RIGHT_EYE_OUTER,LEFT_EAR,RIGHT_EAR,MOUTH_LEFT,MOUTH_RIGHT,LEFT_SHOULDER,RIGHT_SHOULDER,LEFT_ELBOW,RIGHT_ELBOW,LEFT_WRIST,RIGHT_WRIST,LEFT_PINKY,RIGHT_PINKY,LEFT_INDEX,RIGHT_INDEX,LEFT_THUMB,RIGHT_THUMB,LEFT_HIP,RIGHT_HIP,LEFT_KNEE,RIGHT_KNEE,LEFT_ANKLE,RIGHT_ANKLE,LEFT_HEEL,RIGHT_HEEL,LEFT_FOOT_INDEX,RIGHT_FOOT_INDEX,WRIST2,THUMB_CPC2,THUMB_MCP2,THUMB_IP2,THUMB_TIP2,INDEX_FINGER_MCP2,INDEX_FINGER_PIP2,INDEX_FINGER_DIP2,INDEX_FINGER_TIP2,MIDDLE_FINGER_MCP2,MIDDLE_FINGER_PIP2,MIDDLE_FINGER_DIP2,MIDDLE_FINGER_TIP2,RING_FINGER_PIP2,RING_FINGER_DIP2,RING_FINGER_TIP2,RING_FINGER_MCP2,PINKY_MCP2,PINKY_PIP2,PINKY_DIP2,PINKY_TIP2,WRIST,THUMB_CPC,THUMB_MCP,THUMB_IP,THUMB_TIP,INDEX_FINGER_MCP,INDEX_FINGER_PIP,INDEX_FINGER_DIP,INDEX_FINGER_TIP,MIDDLE_FINGER_MCP,MIDDLE_FINGER_PIP,MIDDLE_FINGER_DIP,MIDDLE_FINGER_TIP,RING_FINGER_PIP,RING_FINGER_DIP,RING_FINGER_TIP,RING_FINGER_MCP,PINKY_MCP,PINKY_PIP,PINKY_DIP,PINKY_TIP
0,"x: 214.7826385498047
y: 212.25120544433594
z: -0.2558721601963043
visibility: 0.9991520643234253
","x: 217.15475463867188
y: 203.9525146484375
z: -0.24242126941680908
visibility: 0.9976008534431458
","x: 218.38906860351562
y: 203.56849670410156
z: -0.24239614605903625
visibility: 0.9975394010543823
","x: 219.65945434570312
y: 203.1486358642578
z: -0.24238672852516174
visibility: 0.9975472092628479
","x: 213.68069458007812
y: 204.10311889648438
z: -0.23954617977142334
visibility: 0.9967235922813416
","x: 212.58621215820312
y: 203.80690002441406
z: -0.23958632349967957
visibility: 0.9968084692955017
","x: 211.5294189453125
y: 203.40985107421875
z: -0.23964396119117737
visibility: 0.9965227842330933
","x: 221.96484375
y: 204.0765380859375
z: -0.1415436863899231
visibility: 0.996793806552887
","x: 211.439208984375
y: 203.4032440185547
z: -0.12872838973999023
visibility: 0.9895786643028259
","x: 217.81573486328125
y: 218.9605712890625
z: -0.216068297624588
visibility: 0.9985859394073486
","x: 213.28688049316406
y: 219.1868896484375
z: -0.2127392590045929
visibility: 0.9969990253448486
","x: 236.18548583984375
y: 246.34783935546875
z: -0.06893874704837799
visibility: 0.9994729161262512
","x: 198.34500122070312
y: 241.92115783691406
z: -0.09183506667613983
visibility: 0.9984865188598633
","x: 239.74276733398438
y: 302.88079833984375
z: -0.0391312800347805
visibility: 0.9593604803085327
","x: 195.39431762695312
y: 277.5686950683594
z: -0.232278972864151
visibility: 0.9818974137306213
","x: 239.9839324951172
y: 350.3536682128906
z: -0.0759933739900589
visibility: 0.920373797416687
","x: 212.78793334960938
y: 233.9305419921875
z: -0.42456763982772827
visibility: 0.9737055897712708
","x: 240.4779052734375
y: 366.00872802734375
z: -0.08701659739017487
visibility: 0.8382728099822998
","x: 217.29039001464844
y: 222.31954956054688
z: -0.4677940011024475
visibility: 0.9386285543441772
","x: 237.7111358642578
y: 365.2847900390625
z: -0.10937175899744034
visibility: 0.8397481441497803
","x: 216.40396118164062
y: 219.31053161621094
z: -0.46231311559677124
visibility: 0.9316194653511047
","x: 236.4748077392578
y: 359.92437744140625
z: -0.08377888053655624
visibility: 0.8124118447303772
","x: 215.4346923828125
y: 222.9894256591797
z: -0.42754316329956055
visibility: 0.899543046951294
","x: 225.8416290283203
y: 353.9894104003906
z: 0.0020745014771819115
visibility: 0.9995706677436829
","x: 203.04318237304688
y: 352.143310546875
z: -0.00214940938167274
visibility: 0.9994702935218811
","x: 223.36111450195312
y: 429.8432922363281
z: -0.04751139134168625
visibility: 0.9824399948120117
","x: 200.88917541503906
y: 427.2699279785156
z: -0.020003827288746834
visibility: 0.9871850609779358
","x: 218.84678649902344
y: 502.42041015625
z: 0.13093329966068268
visibility: 0.9765734672546387
","x: 204.7725372314453
y: 501.40185546875
z: 0.13434413075447083
visibility: 0.981662929058075
","x: 217.14047241210938
y: 511.7823791503906
z: 0.14246322214603424
visibility: 0.8759555816650391
","x: 207.4507598876953
y: 511.7974853515625
z: 0.14392119646072388
visibility: 0.8247541189193726
","x: 220.386962890625
y: 523.4148559570312
z: 0.025607282295823097
visibility: 0.9742001891136169
","x: 200.9853057861328
y: 522.994873046875
z: 0.025624385103583336
visibility: 0.977168083190918
",,,,,,,,,,,,,,,,,,,,,,,,,,,,,,,,,,,,,,,,,,
1,"x: 214.2183380126953
y: 204.84854125976562
z: -0.3244093060493469
visibility: 0.999233603477478
","x: 216.5388946533203
y: 197.73275756835938
z: -0.3128397762775421
visibility: 0.9978269338607788
","x: 217.91702270507812
y: 197.81881713867188
z: -0.3128507733345032
visibility: 0.997772753238678
","x: 219.3146514892578
y: 197.96331787109375
z: -0.3128611445426941
visibility: 0.9977805614471436
","x: 212.7590789794922
y: 197.55999755859375
z: -0.31160634756088257
visibility: 0.997037947177887
","x: 211.5357208251953
y: 197.55828857421875
z: -0.31163710355758667
visibility: 0.997113049030304
","x: 210.272705078125
y: 197.53785705566406
z: -0.3116613030433655
visibility: 0.9968535900115967
","x: 221.68409729003906
y: 200.76193237304688
z: -0.21633347868919373
visibility: 0.9970897436141968
","x: 209.10316467285156
y: 199.72760009765625
z: -0.21053847670555115
visibility: 0.9905747175216675
","x: 217.06585693359375
y: 212.02731323242188
z: -0.28632310032844543
visibility: 0.9987214803695679
","x: 212.07969665527344
y: 212.2189178466797
z: -0.28473204374313354
visibility: 0.9972904324531555
","x: 235.3545684814453
y: 245.04037475585938
z: -0.14033256471157074
visibility: 0.9995210766792297
","x: 196.02684020996094
y: 243.26223754882812
z: -0.11311222612857819
visibility: 0.9986237287521362
","x: 242.7334442138672
y: 295.6392822265625
z: -0.09422919899225235
visibility: 0.9628958702087402
","x: 186.98887634277344
y: 296.9637451171875
z: -0.05632827803492546
visibility: 0.9799361228942871
","x: 243.17628479003906
y: 334.2642822265625
z: -0.1806364506483078
visibility: 0.9270870685577393
","x: 183.28091430664062
y: 342.50909423828125
z: -0.1230478435754776
visibility: 0.9702174663543701
","x: 243.4956512451172
y: 348.909912109375
z: -0.20538759231567383
visibility: 0.8512483239173889
","x: 180.79441833496094
y: 358.0159912109375
z: -0.14410048723220825
visibility: 0.9337403774261475
","x: 241.22857666015625
y: 347.9690856933594
z: -0.2376106232404709
visibility: 0.8528422117233276
","x: 182.64405822753906
y: 357.96630859375
z: -0.17809760570526123
visibility: 0.9281240701675415
","x: 240.1479949951172
y: 342.8030700683594
z: -0.19381649792194366
visibility: 0.8273868560791016
","x: 184.35357666015625
y: 353.33050537109375
z: -0.13771653175354004
visibility: 0.89779132604599
","x: 225.86788940429688
y: 351.36865234375
z: -0.0027088101487606764
visibility: 0.9994862675666809
","x: 203.6763153076172
y: 349.22979736328125
z: 0.002668820321559906
visibility: 0.9994210004806519
","x: 223.5377197265625
y: 429.0480041503906
z: -0.011978073976933956
visibility: 0.9830654263496399
","x: 201.1022491455078
y: 426.5937805175781
z: -0.0016677926760166883
visibility: 0.9874639511108398
","x: 218.708984375
y: 502.1619873046875
z: 0.10886628925800323
visibility: 0.9778063893318176
","x: 204.91937255859375
y: 501.5623779296875
z: 0.11845548450946808
visibility: 0.9824529886245728
","x: 216.94241333007812
y: 511.63336181640625
z: 0.11229336261749268
visibility: 0.8789319396018982
","x: 207.41915893554688
y: 512.3277587890625
z: 0.12157843261957169
visibility: 0.8300338983535767
","x: 221.0191650390625
y: 523.3723754882812
z: -0.0076297251507639885
visibility: 0.9752455353736877
","x: 200.8750762939453
y: 523.2911376953125
z: 0.003947025630623102
visibility: 0.9779039621353149
",,,,,,,,,,,,,,,,,,,,,,,,,,,,,,,,,,,,,,,,,,
2,"x: 213.30722045898438
y: 203.8038787841797
z: -0.4269196093082428
visibility: 0.9993078708648682
","x: 215.73069763183594
y: 196.62387084960938
z: -0.4136987626552582
visibility: 0.9980343580245972
","x: 217.2267608642578
y: 196.65853881835938
z: -0.4137027859687805
visibility: 0.9979875087738037
","x: 218.74562072753906
y: 196.7690887451172
z: -0.4137251377105713
visibility: 0.9979937672615051
","x: 211.8035888671875
y: 196.59742736816406
z: -0.4112016558647156
visibility: 0.9973216652870178
","x: 210.56903076171875
y: 196.62332153320312
z: -0.41125354170799255
visibility: 0.9973894953727722
","x: 209.28387451171875
y: 196.6251983642578
z: -0.4112643301486969
visibility: 0.9971533417701721
","x: 221.1456298828125
y: 199.76495361328125
z: -0.301434189081192
visibility: 0.9973646998405457
","x: 207.922119140625
y: 199.03607177734375
z: -0.2911139130592346
visibility: 0.991483747959137
","x: 215.96051025390625
y: 210.59898376464844
z: -0.3832032382488251
visibility: 0.9988454580307007
","x: 210.85098266601562
y: 210.79946899414062
z: -0.38025349378585815
visibility: 0.9975550770759583
","x: 234.6531219482422
y: 244.9392852783203
z: -0.20622198283672333
visibility: 0.9995663166046143
","x: 195.08407592773438
y: 243.86053466796875
z: -0.16959089040756226
visibility: 0.9987504482269287
","x: 242.53915405273438
y: 296.16937255859375
z: -0.14665810763835907
visibility: 0.9662190079689026
","x: 184.75491333007812
y: 295.8359069824219
z: -0.09077188372612
visibility: 0.9796594977378845
","x: 244.0760955810547
y: 338.43011474609375
z: -0.2233552634716034
visibility: 0.9333321452140808
","x: 178.90817260742188
y: 341.8565673828125
z: -0.1602187305688858
visibility: 0.9689686298370361
","x: 245.2769317626953
y: 352.4880676269531
z: -0.2468167245388031
visibility: 0.8627826571464539
","x: 175.4988250732422
y: 356.02740478515625
z: -0.18188264966011047
visibility: 0.9317033290863037
","x: 243.12930297851562
y: 350.1976318359375
z: -0.28538236021995544
visibility: 0.8645248413085938
","x: 176.4119415283203
y: 355.8288269042969
z: -0.2187807559967041
visibility: 0.9272183179855347
","x: 241.91812133789062
y: 344.52947998046875
z: -0.23919907212257385
visibility: 0.8407264351844788
","x: 178.44229125976562
y: 351.6351623535156
z: -0.17638374865055084
visibility: 0.8985128402709961
","x: 226.07296752929688
y: 349.59423828125
z: -0.0032144871074706316
visibility: 0.9994750022888184
","x: 204.03500366210938
y: 348.2420349121094
z: 0.003171125426888466
visibility: 0.9994287490844727
","x: 224.20033264160156
y: 428.45831298828125
z: -0.010007726028561592
visibility: 0.9840346574783325
","x: 201.2417449951172
y: 426.211181640625
z: -0.0025273056235164404
visibility: 0.9880059361457825
","x: 218.72024536132812
y: 501.5342712402344
z: 0.13991223275661469
visibility: 0.9792476296424866
","x: 204.99575805664062
y: 501.47149658203125
z: 0.14307434856891632
visibility: 0.9835591316223145
","x: 216.94305419921875
y: 510.8163757324219
z: 0.14553096890449524
visibility: 0.8830433487892151
","x: 207.41729736328125
y: 512.0687255859375
z: 0.14769309759140015
visibility: 0.8373439908027649
","x: 221.088134765625
y: 523.24267578125
z: 0.0050485460087656975
visibility: 0.9767249822616577
","x: 200.8935546875
y: 523.3423461914062
z: 0.009438032284379005
visibility: 0.9792152047157288
",,,,,,,,,,,,,,,,,,,,,,,,,,,,,,,,,,,,,,,,,,
3,"x: 212.0359344482422
y: 204.84613037109375
z: -0.39670270681381226
visibility: 0.9993746280670166
","x: 214.73690795898438
y: 197.41006469726562
z: -0.3842260241508484
visibility: 0.9982205033302307
","x: 216.37245178222656
y: 197.38211059570312
z: -0.384227454662323
visibility: 0.9981806874275208
","x: 218.0138702392578
y: 197.40728759765625
z: -0.38424232602119446
visibility: 0.9981856942176819
","x: 210.564453125
y: 197.37057495117188
z: -0.3811848759651184
visibility: 0.9975748062133789
","x: 209.3153839111328
y: 197.32150268554688
z: -0.38122496008872986
visibility: 0.9976357221603394
","x: 208.01177978515625
y: 197.25146484375
z: -0.3812296390533447
visibility: 0.9974192976951599
","x: 220.67611694335938
y: 200.06126403808594
z: -0.27685922384262085
visibility: 0.9976145029067993
","x: 206.84909057617188
y: 199.32315063476562
z: -0.26421961188316345
visibility: 0.992294192314148
","x: 214.86862182617188
y: 211.5166473388672
z: -0.3546660542488098
visibility: 0.9989572167396545
","x: 209.53958129882812
y: 211.69223022460938
z: -0.3511090874671936
visibility: 0.9977926015853882
","x: 233.95823669433594
y: 245.0630340576172
z: -0.18933627009391785
visibility: 0.9996072053909302
","x: 194.5206756591797
y: 244.62252807617188
z: -0.1479356288909912
visibility: 0.9988633990287781
","x: 241.76779174804688
y: 299.477783203125
z: -0.1302545815706253
visibility: 0.9692699313163757
","x: 184.16842651367188
y: 292.626220703125
z: -0.05887921527028084
visibility: 0.9781113266944885
","x: 244.02151489257812
y: 345.66363525390625
z: -0.19882512092590332
visibility: 0.9392406344413757
","x: 177.63198852539062
y: 332.4278259277344
z: -0.12359915673732758
visibility: 0.9671910405158997
","x: 245.8357696533203
y: 362.4677734375
z: -0.22035038471221924
visibility: 0.8740886449813843
","x: 174.08377075195312
y: 343.9294128417969
z: -0.14376461505889893
visibility: 0.929469108581543
","x: 243.4416046142578
y: 362.478759765625
z: -0.2588168978691101
visibility: 0.8758747577667236
","x: 175.1125946044922
y: 343.0378723144531
z: -0.18196506798267365
visibility: 0.9261713624000549
","x: 241.92869567871094
y: 357.756103515625
z: -0.214364692568779
visibility: 0.853714108467102
","x: 176.96923828125
y: 339.50738525390625
z: -0.1405147910118103
visibility: 0.8990818858146667
","x: 226.3408660888672
y: 349.9221496582031
z: -0.004616773221641779
visibility: 0.9994651675224304
","x: 204.3277130126953
y: 348.5696716308594
z: 0.004585566930472851
visibility: 0.9994413256645203
","x: 225.2112274169922
y: 427.57952880859375
z: 0.0019479093607515097
visibility: 0.9850613474845886
","x: 201.39427185058594
y: 426.2069396972656
z: -0.005352803505957127
visibility: 0.9886787533760071
","x: 218.96099853515625
y: 500.6537170410156
z: 0.1585433930158615
visibility: 0.980680525302887
","x: 205.30091857910156
y: 501.3729553222656
z: 0.14110620319843292
visibility: 0.9847384095191956
","x: 217.37403869628906
y: 509.99127197265625
z: 0.16547806560993195
visibility: 0.8871845006942749
","x: 207.60975646972656
y: 511.81011962890625
z: 0.14660893380641937
visibility: 0.8461719751358032
","x: 221.07774353027344
y: 522.884521484375
z: 0.03198806568980217
visibility: 0.9782249927520752
","x: 200.9013671875
y: 523.3243408203125
z: 0.012153291143476963
visibility: 0.9806302785873413
",,,,,,,,,,,,,,,,,,,,,,,,,,,,,,,,,,,,,,,,,,
4,"x: 211.3857879638672
y: 205.16842651367188
z: -0.35783180594444275
visibility: 0.9994297623634338
","x: 214.2152862548828
y: 197.80030822753906
z: -0.34824854135513306
visibility: 0.9983747005462646
","x: 215.85305786132812
y: 197.75555419921875
z: -0.34823355078697205
visibility: 0.998336911201477
","x: 217.44712829589844
y: 197.74783325195312
z: -0.3483069837093353
visibility: 0.9983385801315308
","x: 209.88990783691406
y: 197.7308349609375
z: -0.36419677734375
visibility: 0.9977930784225464
","x: 208.61053466796875
y: 197.66294860839844
z: -0.36440518498420715
visibility: 0.9978479743003845
","x: 207.36732482910156
y: 197.56802368164062
z: -0.36425551772117615
visibility: 0.9976514577865601
","x: 219.90859985351562
y: 200.274169921875
z: -0.23168818652629852
visibility: 0.9978029727935791
","x: 206.20111083984375
y: 199.4623565673828
z: -0.22271308302879333
visibility: 0.9929926991462708
","x: 214.19668579101562
y: 211.771728515625
z: -0.3108639121055603
visibility: 0.9990435838699341
","x: 208.5990447998047
y: 211.877685546875
z: -0.33178335428237915
visibility: 0.9979943037033081
","x: 232.53155517578125
y: 244.99722290039062
z: -0.1173684373497963
visibility: 0.9996265172958374
","x: 192.44113159179688
y: 244.57949829101562
z: -0.13628903031349182
visibility: 0.9989503622055054
","x: 239.130126953125
y: 299.6402893066406
z: -0.06363610178232193
visibility: 0.9696196913719177
","x: 183.6039581298828
y: 293.3634033203125
z: -0.19869449734687805
visibility: 0.9779738783836365
","x: 243.0498809814453
y: 346.4527893066406
z: -0.13323542475700378
visibility: 0.9415929317474365
","x: 185.0873260498047
y: 329.7676086425781
z: -0.41683635115623474
visibility: 0.96857750415802
","x: 245.2751007080078
y: 364.0420227050781
z: -0.1496620774269104
visibility: 0.8782567381858826
","x: 185.49331665039062
y: 302.9061584472656
z: -0.45759350061416626
visibility: 0.9330000281333923
","x: 242.76609802246094
y: 364.6777038574219
z: -0.17787402868270874
visibility: 0.8803092837333679
","x: 185.90675354003906
y: 288.4530029296875
z: -0.4653046727180481
visibility: 0.9299741983413696
","x: 241.40573120117188
y: 360.2247619628906
z: -0.144871786236763
visibility: 0.8585209846496582
","x: 186.5175018310547
y: 290.3278503417969
z: -0.4242156445980072
visibility: 0.9035682678222656
","x: 223.42803955078125
y: 348.7353210449219
z: 0.004378261510282755
visibility: 0.9994687438011169
","x: 201.2847900390625
y: 346.7627258300781
z: -0.004514426924288273
visibility: 0.9994466304779053
","x: 225.8858642578125
y: 422.6781005859375
z: -0.04628434032201767
visibility: 0.9844629168510437
","x: 201.0755615234375
y: 425.60528564453125
z: -0.04479624330997467
visibility: 0.9880421757698059
","x: 219.01670837402344
y: 498.6630554199219
z: 0.0866851806640625
visibility: 0.9806588292121887
","x: 205.4864501953125
y: 501.30389404296875
z: 0.08320302516222
visibility: 0.9847633242607117
","x: 217.36660766601562
y: 508.41180419921875
z: 0.09292145818471909
visibility: 0.8901640772819519
","x: 207.6055908203125
y: 511.6768798828125
z: 0.08924805372953415
visibility: 0.8473508358001709
","x: 222.58836364746094
y: 522.7013549804688
z: -0.027756353840231895
visibility: 0.9783459305763245
","x: 201.8554229736328
y: 523.3777465820312
z: -0.03482630476355553
visibility: 0.9805216789245605
",,,,,,,,,,,,,,,,,,,,,,,,,,,,,,,,,,,,,,,,,,
5,"x: 210.69122314453125
y: 205.435791015625
z: -0.28782570362091064
visibility: 0.999469518661499
","x: 213.46971130371094
y: 198.05874633789062
z: -0.27473682165145874
visibility: 0.998481273651123
","x: 214.85023498535156
y: 197.98696899414062
z: -0.2747035622596741
visibility: 0.998436689376831
","x: 216.19070434570312
y: 197.95118713378906
z: -0.2747133672237396
visibility: 0.9984340667724609
","x: 209.4738006591797
y: 197.949462890625
z: -0.2791191041469574
visibility: 0.9979568719863892
","x: 208.21949768066406
y: 197.80923461914062
z: -0.27919021248817444
visibility: 0.998008668422699
","x: 206.97708129882812
y: 197.6494140625
z: -0.27920669317245483
visibility: 0.9978328347206116
","x: 218.31239318847656
y: 200.38229370117188
z: -0.16572102904319763
visibility: 0.9979155659675598
","x: 205.69107055664062
y: 199.50662231445312
z: -0.17571814358234406
visibility: 0.9935690760612488
","x: 213.19281005859375
y: 212.05322265625
z: -0.24417582154273987
visibility: 0.9991005659103394
","x: 207.9165802001953
y: 212.2802734375
z: -0.2505231201648712
visibility: 0.9981547594070435
","x: 230.2646942138672
y: 243.87088012695312
z: -0.06768536567687988
visibility: 0.9996342062950134
","x: 191.10792541503906
y: 240.65887451171875
z: -0.1289854794740677
visibility: 0.9990225434303284
","x: 235.77842712402344
y: 299.81256103515625
z: -0.015250571072101593
visibility: 0.9681519269943237
","x: 183.64163208007812
y: 284.3570556640625
z: -0.23788443207740784
visibility: 0.9793476462364197
","x: 241.19126892089844
y: 346.6448669433594
z: -0.06328029930591583
visibility: 0.9396633505821228
","x: 190.58872985839844
y: 250.37652587890625
z: -0.43220844864845276
visibility: 0.9706645607948303
","x: 244.6809539794922
y: 364.19781494140625
z: -0.07328268140554428
visibility: 0.8738091588020325
","x: 196.71231079101562
y: 238.8588104248047
z: -0.47204461693763733
visibility: 0.9369834065437317
","x: 242.58836364746094
y: 365.2069396972656
z: -0.0983794778585434
visibility: 0.8762789368629456
","x: 197.86293029785156
y: 232.69911193847656
z: -0.4700866639614105
visibility: 0.9340319037437439
","x: 240.85218811035156
y: 360.8048095703125
z: -0.07325948774814606
visibility: 0.8544701337814331
","x: 196.7758026123047
y: 235.4530029296875
z: -0.4351122975349426
visibility: 0.9083290100097656
","x: 221.5706329345703
y: 347.0748291015625
z: 0.008730322122573853
visibility: 0.9994807243347168
","x: 199.2785186767578
y: 345.0006408691406
z: -0.008869883604347706
visibility: 0.9994571208953857
","x: 226.03526306152344
y: 420.4039001464844
z: -0.06782463937997818
visibility: 0.9840049743652344
","x: 200.32154846191406
y: 424.6299743652344
z: -0.05857961252331734
visibility: 0.9875119924545288
","x: 219.07078552246094
y: 497.7740173339844
z: 0.07012424618005753
visibility: 0.980479896068573
","x: 205.76011657714844
y: 501.1687927246094
z: 0.06473582237958908
visibility: 0.9845582842826843
","x: 217.48573303222656
y: 507.221435546875
z: 0.07709912955760956
visibility: 0.8899953365325928
","x: 207.7477264404297
y: 511.30194091796875
z: 0.07093491405248642
visibility: 0.8468007445335388
","x: 222.4453125
y: 522.6753540039062
z: -0.04669401794672012
visibility: 0.978181004524231
","x: 202.7332305908203
y: 523.4305419921875
z: -0.054039888083934784
visibility: 0.980215847492218
",,,,,,,,,,,,,,,,,,,,,,,,,,,,,,,,,,,,,,,,,,
6,"x: 210.6827850341797
y: 205.5232391357422
z: -0.24626319110393524
visibility: 0.9994850754737854
","x: 212.77122497558594
y: 198.1513671875
z: -0.23096409440040588
visibility: 0.9985455274581909
","x: 213.93569946289062
y: 198.09393310546875
z: -0.23094668984413147
visibility: 0.9984849095344543
","x: 215.10357666015625
y: 198.0565185546875
z: -0.23096545040607452
visibility: 0.9984877109527588
","x: 209.26084899902344
y: 198.1193389892578
z: -0.23521916568279266
visibility: 0.9980624914169312
","x: 208.06869506835938
y: 198.01080322265625
z: -0.23524758219718933
visibility: 0.998113214969635
","x: 206.84925842285156
y: 197.84716796875
z: -0.23530402779579163
visibility: 0.9979585409164429
","x: 216.68795776367188
y: 200.44229125976562
z: -0.1177811399102211
visibility: 0.9980113506317139
","x: 204.58680725097656
y: 199.59774780273438
z: -0.13523134589195251
visibility: 0.9940090179443359
","x: 212.81390380859375
y: 212.27947998046875
z: -0.2007874697446823
visibility: 0.9991390705108643
","x: 208.17898559570312
y: 212.55567932128906
z: -0.20657768845558167
visibility: 0.9982634782791138
","x: 228.1409149169922
y: 241.58897399902344
z: -0.023219488561153412
visibility: 0.9996194243431091
","x: 191.32156372070312
y: 237.08143615722656
z: -0.11330199241638184
visibility: 0.9990463852882385
","x: 232.32666015625
y: 297.8319091796875
z: 0.023205287754535675
visibility: 0.9533661603927612
","x: 183.85865783691406
y: 271.3493957519531
z: -0.2642572522163391
visibility: 0.9798866510391235
","x: 237.8726348876953
y: 346.52880859375
z: -0.014720621518790722
visibility: 0.9101136922836304
","x: 204.48468017578125
y: 232.9008331298828
z: -0.45763182640075684
visibility: 0.9714052677154541
","x: 241.3088836669922
y: 363.5870666503906
z: -0.02133939415216446
visibility: 0.8371150493621826
","x: 210.18283081054688
y: 222.8305206298828
z: -0.5021530389785767
visibility: 0.938289225101471
","x: 239.8614959716797
y: 364.81951904296875
z: -0.045829832553863525
visibility: 0.8397685885429382
","x: 209.34036254882812
y: 219.6433868408203
z: -0.49345117807388306
visibility: 0.9349683523178101
","x: 238.01556396484375
y: 360.37884521484375
z: -0.024413859471678734
visibility: 0.8178608417510986
","x: 207.4549560546875
y: 223.5476531982422
z: -0.4586537480354309
visibility: 0.907898485660553
","x: 220.82611083984375
y: 345.6824951171875
z: 0.013099679723381996
visibility: 0.9995168447494507
","x: 197.51876831054688
y: 344.2391357421875
z: -0.013227234594523907
visibility: 0.9994920492172241
","x: 226.39398193359375
y: 419.5387268066406
z: -0.09286941587924957
visibility: 0.9849446415901184
","x: 200.06317138671875
y: 424.145751953125
z: -0.061361946165561676
visibility: 0.9880093932151794
","x: 219.19720458984375
y: 495.95391845703125
z: 0.08955074846744537
visibility: 0.9816038012504578
","x: 205.9332275390625
y: 500.7940368652344
z: 0.08525143563747406
visibility: 0.9855480194091797
","x: 217.55250549316406
y: 504.2379150390625
z: 0.10037436336278915
visibility: 0.8936875462532043
","x: 207.93006896972656
y: 510.7391662597656
z: 0.09349672496318817
visibility: 0.8535048961639404
","x: 222.35446166992188
y: 522.5926513671875
z: -0.02434428595006466
visibility: 0.9793622493743896
","x: 202.6871337890625
y: 523.583251953125
z: -0.03474912419915199
visibility: 0.9813926219940186
",,,,,,,,,,,,,,,,,,,,,,,,,,,,,,,,,,,,,,,,,,
7,"x: 210.71044921875
y: 205.76254272460938
z: -0.24282321333885193
visibility: 0.9994768500328064
","x: 212.57862854003906
y: 198.33021545410156
z: -0.22711125016212463
visibility: 0.9985656142234802
","x: 213.67149353027344
y: 198.24130249023438
z: -0.2270980328321457
visibility: 0.9984889626502991
","x: 214.75184631347656
y: 198.17465209960938
z: -0.2271224707365036
visibility: 0.998499870300293
","x: 209.27940368652344
y: 198.2583465576172
z: -0.23339733481407166
visibility: 0.998107373714447
","x: 208.12655639648438
y: 198.0679931640625
z: -0.233425110578537
visibility: 0.9981628656387329
","x: 206.95892333984375
y: 197.83460998535156
z: -0.23348501324653625
visibility: 0.998018205165863
","x: 215.76377868652344
y: 200.45301818847656
z: -0.11246131360530853
visibility: 0.9980669021606445
","x: 204.71893310546875
y: 199.32496643066406
z: -0.13949617743492126
visibility: 0.9943318963050842
","x: 212.73068237304688
y: 212.37013244628906
z: -0.19661542773246765
visibility: 0.9991583824157715
","x: 208.3345184326172
y: 212.42103576660156
z: -0.20508742332458496
visibility: 0.998332142829895
","x: 226.64602661132812
y: 241.30455017089844
z: -0.017403729259967804
visibility: 0.9996203780174255
","x: 191.43150329589844
y: 235.20315551757812
z: -0.11824716627597809
visibility: 0.999058723449707
","x: 230.48419189453125
y: 297.45281982421875
z: 0.027696797624230385
visibility: 0.9425662159919739
","x: 184.85595703125
y: 265.40118408203125
z: -0.2894328236579895
visibility: 0.9805485010147095
","x: 236.9231719970703
y: 346.28460693359375
z: -0.009984527714550495
visibility: 0.8924031257629395
","x: 208.9814453125
y: 230.3729248046875
z: -0.4784802794456482
visibility: 0.9721159338951111
","x: 240.13746643066406
y: 362.319091796875
z: -0.016860347241163254
visibility: 0.8137480020523071
","x: 215.34255981445312
y: 220.23443603515625
z: -0.5245063900947571
visibility: 0.9394804835319519
","x: 238.95962524414062
y: 363.37286376953125
z: -0.04322173073887825
visibility: 0.8169108033180237
","x: 214.08741760253906
y: 216.58189392089844
z: -0.5153758525848389
visibility: 0.9358581900596619
","x: 237.12745666503906
y: 359.19635009765625
z: -0.02057170309126377
visibility: 0.7944132685661316
","x: 211.81832885742188
y: 219.90499877929688
z: -0.4793984293937683
visibility: 0.9075106978416443
","x: 219.98448181152344
y: 344.3264465332031
z: 0.0171075277030468
visibility: 0.999546229839325
","x: 196.76426696777344
y: 343.36932373046875
z: -0.017199117690324783
visibility: 0.9995160698890686
","x: 226.53228759765625
y: 419.4876403808594
z: -0.07953254133462906
visibility: 0.98582524061203
","x: 199.8271942138672
y: 423.74688720703125
z: -0.05336141586303711
visibility: 0.9881935119628906
","x: 219.82530212402344
y: 495.3669738769531
z: 0.09798606485128403
visibility: 0.9825969934463501
","x: 205.92239379882812
y: 500.4657287597656
z: 0.09027775377035141
visibility: 0.9863177537918091
","x: 217.70187377929688
y: 503.1457824707031
z: 0.10861005634069443
visibility: 0.8954739570617676
","x: 207.93997192382812
y: 510.1492614746094
z: 0.09798843413591385
visibility: 0.8571437001228333
","x: 222.30374145507812
y: 522.6307983398438
z: -0.01772412471473217
visibility: 0.9803234338760376
","x: 202.62904357910156
y: 523.6986083984375
z: -0.03421477973461151
visibility: 0.9823205471038818
",,,,,,,,,,,,,,,,,,,,,,,,,,,,,,,,,,,,,,,,,,
8,"x: 211.32896423339844
y: 205.81236267089844
z: -0.26345452666282654
visibility: 0.9994878768920898
","x: 212.6566619873047
y: 198.4580841064453
z: -0.24829843640327454
visibility: 0.9986132979393005
","x: 213.85169982910156
y: 198.3502960205078
z: -0.24827507138252258
visibility: 0.9985300302505493
","x: 215.07464599609375
y: 198.25341796875
z: -0.24829299747943878
visibility: 0.9985445141792297
","x: 209.64511108398438
y: 198.36553955078125
z: -0.2527068257331848
visibility: 0.9981746077537537
","x: 208.4632110595703
y: 198.1748809814453
z: -0.25274208188056946
visibility: 0.9982315301895142
","x: 207.2334747314453
y: 197.93577575683594
z: -0.2528001666069031
visibility: 0.9980940222740173
","x: 216.19483947753906
y: 200.516357421875
z: -0.13563105463981628
visibility: 0.9981772899627686
","x: 205.09152221679688
y: 199.38458251953125
z: -0.14749540388584137
visibility: 0.9946752190589905
","x: 212.93820190429688
y: 212.4232177734375
z: -0.21827730536460876
visibility: 0.999207079410553
","x: 208.88800048828125
y: 212.570556640625
z: -0.22448723018169403
visibility: 0.998431384563446
","x: 227.49591064453125
y: 241.1754150390625
z: -0.042726896703243256
visibility: 0.9996365904808044
","x: 191.79348754882812
y: 233.9132537841797
z: -0.14500948786735535
visibility: 0.999101996421814
","x: 231.8104248046875
y: 297.60394287109375
z: 0.00693174684420228
visibility: 0.9399447441101074
","x: 190.13235473632812
y: 259.55450439453125
z: -0.3146189749240875
visibility: 0.9817852973937988
","x: 237.469970703125
y: 346.1136169433594
z: -0.02400605008006096
visibility: 0.8885810375213623
","x: 212.49270629882812
y: 227.8846435546875
z: -0.49028801918029785
visibility: 0.9738029837608337
","x: 240.1884765625
y: 362.4090270996094
z: -0.030096670612692833
visibility: 0.8085806369781494
","x: 217.60308837890625
y: 217.54629516601562
z: -0.5353044271469116
visibility: 0.9426841735839844
","x: 239.39849853515625
y: 363.5427551269531
z: -0.05721134692430496
visibility: 0.8120489120483398
","x: 216.74713134765625
y: 214.64134216308594
z: -0.5269030332565308
visibility: 0.9390427470207214
","x: 237.35557556152344
y: 359.167236328125
z: -0.034322433173656464
visibility: 0.7895463109016418
","x: 214.88397216796875
y: 218.10060119628906
z: -0.49140816926956177
visibility: 0.9111200571060181
","x: 219.97909545898438
y: 344.11566162109375
z: 0.016507666558027267
visibility: 0.9995800256729126
","x: 196.61175537109375
y: 343.35107421875
z: -0.016615064814686775
visibility: 0.9995495676994324
","x: 226.43051147460938
y: 417.5793762207031
z: -0.1135614886879921
visibility: 0.9868877530097961
","x: 199.09616088867188
y: 423.735107421875
z: -0.06375233083963394
visibility: 0.9886482357978821
","x: 221.19155883789062
y: 491.244384765625
z: 0.09632683545351028
visibility: 0.9837250113487244
","x: 205.9132080078125
y: 500.3146667480469
z: 0.09643913805484772
visibility: 0.987175703048706
","x: 218.275146484375
y: 498.3734130859375
z: 0.11038269847631454
visibility: 0.8986639380455017
","x: 207.97335815429688
y: 509.841064453125
z: 0.10291732847690582
visibility: 0.8629351854324341
","x: 222.92279052734375
y: 521.5634765625
z: -0.014775894582271576
visibility: 0.9815148711204529
","x: 202.56703186035156
y: 524.2194213867188
z: -0.024631772190332413
visibility: 0.9833495020866394
",,,,,,,,,,,,,,,,,,,,,,,,,,,,,,,,,,,,,,,,,,
9,"x: 211.42559814453125
y: 205.92428588867188
z: -0.2692117989063263
visibility: 0.9995281100273132
","x: 213.2969512939453
y: 198.5304412841797
z: -0.25306686758995056
visibility: 0.9987287521362305
","x: 214.44247436523438
y: 198.4286651611328
z: -0.2530386447906494
visibility: 0.9986533522605896
","x: 215.54498291015625
y: 198.32200622558594
z: -0.25304538011550903
visibility: 0.9986659288406372
","x: 209.88192749023438
y: 198.28184509277344
z: -0.25661516189575195
visibility: 0.9983229041099548
","x: 208.53656005859375
y: 198.01063537597656
z: -0.25664642453193665
visibility: 0.9983745217323303
","x: 207.29835510253906
y: 197.71157836914062
z: -0.2566816806793213
visibility: 0.99824458360672
","x: 216.64161682128906
y: 200.54507446289062
z: -0.13610082864761353
visibility: 0.9983396530151367
","x: 205.31338500976562
y: 199.35621643066406
z: -0.1517876237630844
visibility: 0.9951368570327759
","x: 213.0045623779297
y: 212.55072021484375
z: -0.22342455387115479
visibility: 0.9992768168449402
","x: 208.85586547851562
y: 212.6597442626953
z: -0.22875185310840607
visibility: 0.9985700249671936
","x: 228.02830505371094
y: 242.30978393554688
z: -0.04680853337049484
visibility: 0.9996650815010071
","x: 191.8965606689453
y: 234.26771545410156
z: -0.14164277911186218
visibility: 0.9991627335548401
","x: 232.0880889892578
y: 303.12432861328125
z: -0.006293486803770065
visibility: 0.9431499242782593
","x: 191.28526306152344
y: 265.2602844238281
z: -0.27919307351112366
visibility: 0.9821680188179016
","x: 237.34934997558594
y: 353.15777587890625
z: -0.07194062322378159
visibility: 0.894997239112854
","x: 215.63812255859375
y: 239.7781982421875
z: -0.46807679533958435
visibility: 0.9744001030921936
","x: 239.82980346679688
y: 367.74072265625
z: -0.08865992724895477
visibility: 0.8176451921463013
","x: 222.45509338378906
y: 232.10182189941406
z: -0.5133671760559082
visibility: 0.9441041350364685
","x: 238.55567932128906
y: 368.8998107910156
z: -0.11676031351089478
visibility: 0.8211466670036316
","x: 223.1239013671875
y: 229.17970275878906
z: -0.5070192813873291
visibility: 0.9404975771903992
","x: 236.68846130371094
y: 363.5738830566406
z: -0.0835537314414978
visibility: 0.7990562319755554
","x: 220.8600616455078
y: 231.67672729492188
z: -0.4698798656463623
visibility: 0.9123463034629822
","x: 218.82192993164062
y: 343.4976806640625
z: 0.016686582937836647
visibility: 0.999614417552948
","x: 195.96298217773438
y: 342.14239501953125
z: -0.016782011836767197
visibility: 0.9995838403701782
","x: 225.80299377441406
y: 416.11871337890625
z: -0.10640348494052887
visibility: 0.987909734249115
","x: 198.55787658691406
y: 423.4091491699219
z: -0.05464770272374153
visibility: 0.9892776012420654
","x: 223.48849487304688
y: 491.60272216796875
z: 0.06714747846126556
visibility: 0.9849095344543457
","x: 205.6702880859375
y: 500.4000549316406
z: 0.09432815760374069
visibility: 0.988061249256134
","x: 219.76524353027344
y: 499.8884582519531
z: 0.0779024288058281
visibility: 0.9039509296417236
","x: 207.97366333007812
y: 510.0426025390625
z: 0.10104242712259293
visibility: 0.868952751159668
","x: 228.68136596679688
y: 521.4514770507812
z: -0.05248098820447922
visibility: 0.9828323721885681
","x: 202.05352783203125
y: 524.76171875
z: -0.03164149075746536
visibility: 0.9844234585762024
",,,,,,,,,,,,,,,,,,,,,,,,,,,,,,,,,,,,,,,,,,
10,"x: 215.49929809570312
y: 205.80259704589844
z: -0.2881714403629303
visibility: 0.9995582699775696
","x: 218.3551483154297
y: 198.33595275878906
z: -0.2749099135398865
visibility: 0.9988097548484802
","x: 219.8712921142578
y: 198.3404541015625
z: -0.27497392892837524
visibility: 0.9987437129020691
","x: 221.31617736816406
y: 198.31512451171875
z: -0.27503350377082825
visibility: 0.9987521171569824
","x: 214.29110717773438
y: 197.85650634765625
z: -0.27296823263168335
visibility: 0.9984375238418579
","x: 212.8003692626953
y: 197.5625762939453
z: -0.2729648947715759
visibility: 0.9984733462333679
","x: 211.38253784179688
y: 197.25608825683594
z: -0.2729773223400116
visibility: 0.9983578324317932
","x: 223.38351440429688
y: 200.57696533203125
z: -0.16730281710624695
visibility: 0.9984296560287476
","x: 209.13720703125
y: 198.71971130371094
z: -0.1545765995979309
visibility: 0.9955186247825623
","x: 217.3350830078125
y: 212.6381072998047
z: -0.2452683448791504
visibility: 0.99932861328125
","x: 212.2791748046875
y: 212.71310424804688
z: -0.2420731782913208
visibility: 0.9986920356750488
","x: 232.07138061523438
y: 245.08816528320312
z: -0.09864974021911621
visibility: 0.9996803402900696
","x: 194.4598846435547
y: 234.8267822265625
z: -0.07306374609470367
visibility: 0.9992321729660034
","x: 230.36204528808594
y: 299.0268249511719
z: -0.1342640221118927
visibility: 0.9403653144836426
","x: 191.45025634765625
y: 281.85992431640625
z: -0.015238821506500244
visibility: 0.9743273258209229
","x: 224.9530487060547
y: 313.7671203613281
z: -0.32054394483566284
visibility: 0.8861140608787537
","x: 200.8788299560547
y: 325.27880859375
z: -0.10797370970249176
visibility: 0.9584475755691528
","x: 224.03366088867188
y: 322.41143798828125
z: -0.3648311197757721
visibility: 0.8112436532974243
","x: 199.77015686035156
y: 338.3178405761719
z: -0.13871464133262634
visibility: 0.924420952796936
","x: 222.41566467285156
y: 311.4891357421875
z: -0.38765832781791687
visibility: 0.8151991367340088
","x: 203.29490661621094
y: 335.89324951171875
z: -0.16671432554721832
visibility: 0.9222196936607361
","x: 221.74961853027344
y: 309.4383544921875
z: -0.33366626501083374
visibility: 0.7881934642791748
","x: 204.13258361816406
y: 331.0374755859375
z: -0.12106651067733765
visibility: 0.8924074172973633
","x: 218.45065307617188
y: 344.84783935546875
z: -0.0018079590518027544
visibility: 0.9995793104171753
","x: 195.9707794189453
y: 342.8118896484375
z: 0.0017827708506956697
visibility: 0.9995633959770203
","x: 225.6415557861328
y: 421.56146240234375
z: -0.025614628568291664
visibility: 0.9886474609375
","x: 197.59739685058594
y: 424.76641845703125
z: 0.0016399991000071168
visibility: 0.990067720413208
","x: 229.2061309814453
y: 497.9288330078125
z: 0.1166234239935875
visibility: 0.9861211776733398
","x: 205.4686279296875
y: 500.40692138671875
z: 0.15836025774478912
visibility: 0.9889179468154907
","x: 226.94400024414062
y: 506.9053955078125
z: 0.12241101264953613
visibility: 0.9068180918693542
","x: 208.54344177246094
y: 510.07098388671875
z: 0.16587284207344055
visibility: 0.8760722875595093
","x: 234.01986694335938
y: 524.33251953125
z: -0.022178107872605324
visibility: 0.9839218258857727
","x: 201.23471069335938
y: 524.751220703125
z: 0.039148569107055664
visibility: 0.9853538870811462
",,,,,,,,,,,,,,,,,,,,,,,,,,,,,,,,,,,,,,,,,,
11,"x: 222.1958770751953
y: 204.68017578125
z: -0.2451520711183548
visibility: 0.9995995163917542
","x: 224.71054077148438
y: 197.41441345214844
z: -0.23068663477897644
visibility: 0.9989199042320251
","x: 226.17144775390625
y: 197.62384033203125
z: -0.23074862360954285
visibility: 0.9988618493080139
","x: 227.54896545410156
y: 197.7999725341797
z: -0.23078027367591858
visibility: 0.9988678097724915
","x: 220.72142028808594
y: 196.69007873535156
z: -0.22756615281105042
visibility: 0.9985793232917786
","x: 219.289306640625
y: 196.4582061767578
z: -0.22755169868469238
visibility: 0.9986081123352051
","x: 217.8331756591797
y: 196.272705078125
z: -0.22757358849048615
visibility: 0.9985009431838989
","x: 229.47467041015625
y: 200.56886291503906
z: -0.1279125213623047
visibility: 0.9985728859901428
","x: 215.9626922607422
y: 198.4658966064453
z: -0.11262558400630951
visibility: 0.9959436655044556
","x: 224.36404418945312
y: 212.01190185546875
z: -0.20543532073497772
visibility: 0.9993905425071716
","x: 219.12844848632812
y: 212.00196838378906
z: -0.20129013061523438
visibility: 0.9988170862197876
","x: 237.56336975097656
y: 245.1278839111328
z: -0.09140459448099136
visibility: 0.9997074604034424
","x: 200.19268798828125
y: 234.8646240234375
z: -0.01215661782771349
visibility: 0.9992977380752563
","x: 231.22836303710938
y: 293.7607116699219
z: -0.18755367398262024
visibility: 0.9437829256057739
","x: 186.10690307617188
y: 280.985107421875
z: 0.043571069836616516
visibility: 0.9712371826171875
","x: 229.47317504882812
y: 263.7213134765625
z: -0.40317845344543457
visibility: 0.8958829641342163
","x: 168.45960998535156
y: 313.1508483886719
z: -0.020773116499185562
visibility: 0.9564288854598999
","x: 229.09901428222656
y: 249.68170166015625
z: -0.44677263498306274
visibility: 0.826897382736206
","x: 162.7938690185547
y: 322.5018615722656
z: -0.03647778928279877
visibility: 0.9211494326591492
","x: 228.24246215820312
y: 245.5537109375
z: -0.4521750807762146
visibility: 0.8304933905601501
","x: 163.53341674804688
y: 323.1747131347656
z: -0.06830163300037384
visibility: 0.9202359914779663
","x: 226.822509765625
y: 248.3828887939453
z: -0.41071099042892456
visibility: 0.8042311072349548
","x: 165.88015747070312
y: 320.52386474609375
z: -0.03604651242494583
visibility: 0.8925257325172424
","x: 218.692138671875
y: 345.0321044921875
z: -0.012946737930178642
visibility: 0.9995947480201721
","x: 196.4117431640625
y: 343.16455078125
z: 0.012855475768446922
visibility: 0.9995775818824768
","x: 225.48870849609375
y: 424.5362854003906
z: -0.04047264903783798
visibility: 0.9894274473190308
","x: 197.03221130371094
y: 424.8651428222656
z: -0.009645822457969189
visibility: 0.9907706379890442
","x: 231.5407257080078
y: 499.383056640625
z: 0.11344877630472183
visibility: 0.987259566783905
","x: 204.99948120117188
y: 500.3385009765625
z: 0.15721280872821808
visibility: 0.9896510243415833
","x: 229.56752014160156
y: 508.85797119140625
z: 0.12094229459762573
visibility: 0.909282386302948
","x: 208.5956573486328
y: 510.0791931152344
z: 0.16704963147640228
visibility: 0.8819114565849304
","x: 234.646728515625
y: 525.189208984375
z: -0.02021130733191967
visibility: 0.9850586652755737
","x: 200.68482971191406
y: 524.5494384765625
z: 0.049983441829681396
visibility: 0.9861321449279785
","x: 234.27200317382812
y: 259.0100402832031
z: 0.0
","x: 237.1453857421875
y: 252.34210205078125
z: 0.0017521242843940854
","x: 238.81790161132812
y: 244.4626007080078
z: 0.00034136889735236764
","x: 238.71902465820312
y: 238.08677673339844
z: -0.001564559992402792
","x: 237.61767578125
y: 234.09613037109375
z: -0.0030689798295497894
","x: 239.25820922851562
y: 241.6957244873047
z: -0.005599061027169228
","x: 237.87258911132812
y: 230.5206298828125
z: -0.007808090187609196
","x: 236.0101318359375
y: 229.5276641845703
z: -0.006662415340542793
","x: 234.99697875976562
y: 231.09510803222656
z: -0.005414038430899382
","x: 236.6592254638672
y: 242.50204467773438
z: -0.008342992514371872
","x: 234.22525024414062
y: 231.1029815673828
z: -0.009832249023020267
","x: 233.30335998535156
y: 233.13131713867188
z: -0.006639162544161081
","x: 233.54507446289062
y: 236.59132385253906
z: -0.004133554641157389
","x: 233.70257568359375
y: 243.6836395263672
z: -0.010841193608939648
","x: 231.44944763183594
y: 233.63099670410156
z: -0.011708901263773441
","x: 231.01446533203125
y: 235.91806030273438
z: -0.007965330965816975
","x: 231.45904541015625
y: 239.37010192871094
z: -0.00546316197142005
","x: 230.69915771484375
y: 245.16334533691406
z: -0.013275979086756706
","x: 229.01414489746094
y: 236.52084350585938
z: -0.013861214742064476
","x: 228.93585205078125
y: 237.267822265625
z: -0.011589212343096733
","x: 229.47280883789062
y: 239.69815063476562
z: -0.009762583300471306
",,,,,,,,,,,,,,,,,,,,,
12,"x: 222.1958770751953
y: 204.68017578125
z: -0.2451520711183548
visibility: 0.9995995163917542
","x: 224.71054077148438
y: 197.41441345214844
z: -0.23068663477897644
visibility: 0.9989199042320251
","x: 226.17144775390625
y: 197.62384033203125
z: -0.23074862360954285
visibility: 0.9988618493080139
","x: 227.54896545410156
y: 197.7999725341797
z: -0.23078027367591858
visibility: 0.9988678097724915
","x: 220.72142028808594
y: 196.69007873535156
z: -0.22756615281105042
visibility: 0.9985793232917786
","x: 219.289306640625
y: 196.4582061767578
z: -0.22755169868469238
visibility: 0.9986081123352051
","x: 217.8331756591797
y: 196.272705078125
z: -0.22757358849048615
visibility: 0.9985009431838989
","x: 229.47467041015625
y: 200.56886291503906
z: -0.1279125213623047
visibility: 0.9985728859901428
","x: 215.9626922607422
y: 198.4658966064453
z: -0.11262558400630951
visibility: 0.9959436655044556
","x: 224.36404418945312
y: 212.01190185546875
z: -0.20543532073497772
visibility: 0.9993905425071716
","x: 219.12844848632812
y: 212.00196838378906
z: -0.20129013061523438
visibility: 0.9988170862197876
","x: 237.56336975097656
y: 245.1278839111328
z: -0.09140459448099136
visibility: 0.9997074604034424
","x: 200.19268798828125
y: 234.8646240234375
z: -0.01215661782771349
visibility: 0.9992977380752563
","x: 231.22836303710938
y: 293.7607116699219
z: -0.18755367398262024
visibility: 0.9437829256057739
","x: 186.10690307617188
y: 280.985107421875
z: 0.043571069836616516
visibility: 0.9712371826171875
","x: 229.47317504882812
y: 263.7213134765625
z: -0.40317845344543457
visibility: 0.8958829641342163
","x: 168.45960998535156
y: 313.1508483886719
z: -0.020773116499185562
visibility: 0.9564288854598999
","x: 229.09901428222656
y: 249.68170166015625
z: -0.44677263498306274
visibility: 0.826897382736206
","x: 162.7938690185547
y: 322.5018615722656
z: -0.03647778928279877
visibility: 0.9211494326591492
","x: 228.24246215820312
y: 245.5537109375
z: -0.4521750807762146
visibility: 0.8304933905601501
","x: 163.53341674804688
y: 323.1747131347656
z: -0.06830163300037384
visibility: 0.9202359914779663
","x: 226.822509765625
y: 248.3828887939453
z: -0.41071099042892456
visibility: 0.8042311072349548
","x: 165.88015747070312
y: 320.52386474609375
z: -0.03604651242494583
visibility: 0.8925257325172424
","x: 218.692138671875
y: 345.0321044921875
z: -0.012946737930178642
visibility: 0.9995947480201721
","x: 196.4117431640625
y: 343.16455078125
z: 0.012855475768446922
visibility: 0.9995775818824768
","x: 225.48870849609375
y: 424.5362854003906
z: -0.04047264903783798
visibility: 0.9894274473190308
","x: 197.03221130371094
y: 424.8651428222656
z: -0.009645822457969189
visibility: 0.9907706379890442
","x: 231.5407257080078
y: 499.383056640625
z: 0.11344877630472183
visibility: 0.987259566783905
","x: 204.99948120117188
y: 500.3385009765625
z: 0.15721280872821808
visibility: 0.9896510243415833
","x: 229.56752014160156
y: 508.85797119140625
z: 0.12094229459762573
visibility: 0.909282386302948
","x: 208.5956573486328
y: 510.0791931152344
z: 0.16704963147640228
visibility: 0.8819114565849304
","x: 234.646728515625
y: 525.189208984375
z: -0.02021130733191967
visibility: 0.9850586652755737
","x: 200.68482971191406
y: 524.5494384765625
z: 0.049983441829681396
visibility: 0.9861321449279785
","x: 234.27200317382812
y: 259.0100402832031
z: 0.0
","x: 237.1453857421875
y: 252.34210205078125
z: 0.0017521242843940854
","x: 238.81790161132812
y: 244.4626007080078
z: 0.00034136889735236764
","x: 238.71902465820312
y: 238.08677673339844
z: -0.001564559992402792
","x: 237.61767578125
y: 234.09613037109375
z: -0.0030689798295497894
","x: 239.25820922851562
y: 241.6957244873047
z: -0.005599061027169228
","x: 237.87258911132812
y: 230.5206298828125
z: -0.007808090187609196
","x: 236.0101318359375
y: 229.5276641845703
z: -0.006662415340542793
","x: 234.99697875976562
y: 231.09510803222656
z: -0.005414038430899382
","x: 236.6592254638672
y: 242.50204467773438
z: -0.008342992514371872
","x: 234.22525024414062
y: 231.1029815673828
z: -0.009832249023020267
","x: 233.30335998535156
y: 233.13131713867188
z: -0.006639162544161081
","x: 233.54507446289062
y: 236.59132385253906
z: -0.004133554641157389
","x: 233.70257568359375
y: 243.6836395263672
z: -0.010841193608939648
","x: 231.44944763183594
y: 233.63099670410156
z: -0.011708901263773441
","x: 231.01446533203125
y: 235.91806030273438
z: -0.007965330965816975
","x: 231.45904541015625
y: 239.37010192871094
z: -0.00546316197142005
","x: 230.69915771484375
y: 245.16334533691406
z: -0.013275979086756706
","x: 229.01414489746094
y: 236.52084350585938
z: -0.013861214742064476
","x: 228.93585205078125
y: 237.267822265625
z: -0.011589212343096733
","x: 229.47280883789062
y: 239.69815063476562
z: -0.009762583300471306
",,,,,,,,,,,,,,,,,,,,,
13,"x: 223.85687255859375
y: 204.82333374023438
z: -0.16674183309078217
visibility: 0.9996390342712402
","x: 227.07913208007812
y: 197.46194458007812
z: -0.15213030576705933
visibility: 0.999026358127594
","x: 228.668701171875
y: 197.6673126220703
z: -0.15218570828437805
visibility: 0.9989743232727051
","x: 230.2788543701172
y: 197.84542846679688
z: -0.15219981968402863
visibility: 0.9989795088768005
","x: 223.0345458984375
y: 196.7262420654297
z: -0.1476985514163971
visibility: 0.9987183213233948
","x: 221.75775146484375
y: 196.46307373046875
z: -0.14764785766601562
visibility: 0.9987429976463318
","x: 220.49075317382812
y: 196.24566650390625
z: -0.14762690663337708
visibility: 0.9986456036567688
","x: 233.42262268066406
y: 200.68101501464844
z: -0.055865783244371414
visibility: 0.9987137913703918
","x: 220.03700256347656
y: 198.43336486816406
z: -0.035249240696430206
visibility: 0.9963440895080566
","x: 226.5179901123047
y: 212.0545196533203
z: -0.13025161623954773
visibility: 0.9994505643844604
","x: 221.691650390625
y: 211.9857177734375
z: -0.12457019090652466
visibility: 0.9989342093467712
","x: 239.47262573242188
y: 243.88563537597656
z: -0.024642664939165115
visibility: 0.9997358918190002
","x: 206.40309143066406
y: 235.18008422851562
z: 0.0565185472369194
visibility: 0.9993619322776794
","x: 239.4033966064453
y: 288.60223388671875
z: -0.14501269161701202
visibility: 0.9488836526870728
","x: 186.69680786132812
y: 279.72552490234375
z: 0.11654907464981079
visibility: 0.9678694009780884
","x: 238.02113342285156
y: 243.22882080078125
z: -0.3469576835632324
visibility: 0.9060500264167786
","x: 165.3474578857422
y: 298.78955078125
z: 0.06206128001213074
visibility: 0.9570754170417786
","x: 237.8214111328125
y: 231.61807250976562
z: -0.38779979944229126
visibility: 0.8434695601463318
","x: 158.24647521972656
y: 304.59490966796875
z: 0.05038757249712944
visibility: 0.9221056699752808
","x: 238.64566040039062
y: 228.48773193359375
z: -0.3888300061225891
visibility: 0.8466890454292297
","x: 157.98526000976562
y: 304.46917724609375
z: 0.018018517643213272
visibility: 0.9221011400222778
","x: 237.81715393066406
y: 232.4998321533203
z: -0.3529071509838104
visibility: 0.8225705027580261
","x: 160.78184509277344
y: 303.5479431152344
z: 0.04603491351008415
visibility: 0.8969281315803528
","x: 219.02920532226562
y: 345.13018798828125
z: -0.015166329219937325
visibility: 0.9996198415756226
","x: 196.55609130859375
y: 342.950927734375
z: 0.015117228031158447
visibility: 0.9995958805084229
","x: 225.4819793701172
y: 426.61846923828125
z: -0.04015133157372475
visibility: 0.990168035030365
","x: 196.71054077148438
y: 424.57763671875
z: -0.015988292172551155
visibility: 0.9914259314537048
","x: 231.88534545898438
y: 500.1080017089844
z: 0.1095932349562645
visibility: 0.9881752729415894
","x: 204.64883422851562
y: 499.9915771484375
z: 0.1407264918088913
visibility: 0.9902252554893494
","x: 230.1781463623047
y: 509.7396240234375
z: 0.11665333807468414
visibility: 0.9088337421417236
","x: 208.0357666015625
y: 509.3060302734375
z: 0.1494896113872528
visibility: 0.8858975768089294
","x: 234.65020751953125
y: 526.4154052734375
z: -0.01861080341041088
visibility: 0.9859423637390137
","x: 200.7008056640625
y: 524.7420043945312
z: 0.02929781936109066
visibility: 0.9867088794708252
","x: 242.0166778564453
y: 237.9495086669922
z: 0.0
","x: 244.18885803222656
y: 232.20443725585938
z: 0.00042767683044075966
","x: 245.6123046875
y: 226.52345275878906
z: -0.0008149734348990023
","x: 245.81723022460938
y: 221.77456665039062
z: -0.002333111362531781
","x: 245.16635131835938
y: 218.32762145996094
z: -0.0032756044529378414
","x: 244.33004760742188
y: 221.75270080566406
z: -0.0028415992856025696
","x: 241.98587036132812
y: 215.19854736328125
z: -0.004395897034555674
","x: 241.69970703125
y: 217.49978637695312
z: -0.004004497081041336
","x: 242.35891723632812
y: 220.3724365234375
z: -0.0034540228080004454
","x: 242.1713104248047
y: 222.70339965820312
z: -0.004332305863499641
","x: 239.66758728027344
y: 217.26446533203125
z: -0.004944198299199343
","x: 239.67987060546875
y: 219.19601440429688
z: -0.0034599776845425367
","x: 240.4226531982422
y: 221.37071228027344
z: -0.0025727679021656513
","x: 240.09103393554688
y: 224.29678344726562
z: -0.005766507238149643
","x: 237.7284393310547
y: 219.7313690185547
z: -0.006085910834372044
","x: 237.79100036621094
y: 221.6006317138672
z: -0.004281629808247089
","x: 238.49105834960938
y: 223.64076232910156
z: -0.003300259355455637
","x: 238.1619415283203
y: 226.20285034179688
z: -0.007235421799123287
","x: 235.9483184814453
y: 222.4748077392578
z: -0.007435115985572338
","x: 235.88827514648438
y: 223.80929565429688
z: -0.006198148708790541
","x: 236.37818908691406
y: 225.45632934570312
z: -0.005299232434481382
",,,,,,,,,,,,,,,,,,,,,
14,"x: 223.85687255859375
y: 204.82333374023438
z: -0.16674183309078217
visibility: 0.9996390342712402
","x: 227.07913208007812
y: 197.46194458007812
z: -0.15213030576705933
visibility: 0.999026358127594
","x: 228.668701171875
y: 197.6673126220703
z: -0.15218570828437805
visibility: 0.9989743232727051
","x: 230.2788543701172
y: 197.84542846679688
z: -0.15219981968402863
visibility: 0.9989795088768005
","x: 223.0345458984375
y: 196.7262420654297
z: -0.1476985514163971
visibility: 0.9987183213233948
","x: 221.75775146484375
y: 196.46307373046875
z: -0.14764785766601562
visibility: 0.9987429976463318
","x: 220.49075317382812
y: 196.24566650390625
z: -0.14762690663337708
visibility: 0.9986456036567688
","x: 233.42262268066406
y: 200.68101501464844
z: -0.055865783244371414
visibility: 0.9987137913703918
","x: 220.03700256347656
y: 198.43336486816406
z: -0.035249240696430206
visibility: 0.9963440895080566
","x: 226.5179901123047
y: 212.0545196533203
z: -0.13025161623954773
visibility: 0.9994505643844604
","x: 221.691650390625
y: 211.9857177734375
z: -0.12457019090652466
visibility: 0.9989342093467712
","x: 239.47262573242188
y: 243.88563537597656
z: -0.024642664939165115
visibility: 0.9997358918190002
","x: 206.40309143066406
y: 235.18008422851562
z: 0.0565185472369194
visibility: 0.9993619322776794
","x: 239.4033966064453
y: 288.60223388671875
z: -0.14501269161701202
visibility: 0.9488836526870728
","x: 186.69680786132812
y: 279.72552490234375
z: 0.11654907464981079
visibility: 0.9678694009780884
","x: 238.02113342285156
y: 243.22882080078125
z: -0.3469576835632324
visibility: 0.9060500264167786
","x: 165.3474578857422
y: 298.78955078125
z: 0.06206128001213074
visibility: 0.9570754170417786
","x: 237.8214111328125
y: 231.61807250976562
z: -0.38779979944229126
visibility: 0.8434695601463318
","x: 158.24647521972656
y: 304.59490966796875
z: 0.05038757249712944
visibility: 0.9221056699752808
","x: 238.64566040039062
y: 228.48773193359375
z: -0.3888300061225891
visibility: 0.8466890454292297
","x: 157.98526000976562
y: 304.46917724609375
z: 0.018018517643213272
visibility: 0.9221011400222778
","x: 237.81715393066406
y: 232.4998321533203
z: -0.3529071509838104
visibility: 0.8225705027580261
","x: 160.78184509277344
y: 303.5479431152344
z: 0.04603491351008415
visibility: 0.8969281315803528
","x: 219.02920532226562
y: 345.13018798828125
z: -0.015166329219937325
visibility: 0.9996198415756226
","x: 196.55609130859375
y: 342.950927734375
z: 0.015117228031158447
visibility: 0.9995958805084229
","x: 225.4819793701172
y: 426.61846923828125
z: -0.04015133157372475
visibility: 0.990168035030365
","x: 196.71054077148438
y: 424.57763671875
z: -0.015988292172551155
visibility: 0.9914259314537048
","x: 231.88534545898438
y: 500.1080017089844
z: 0.1095932349562645
visibility: 0.9881752729415894
","x: 204.64883422851562
y: 499.9915771484375
z: 0.1407264918088913
visibility: 0.9902252554893494
","x: 230.1781463623047
y: 509.7396240234375
z: 0.11665333807468414
visibility: 0.9088337421417236
","x: 208.0357666015625
y: 509.3060302734375
z: 0.1494896113872528
visibility: 0.8858975768089294
","x: 234.65020751953125
y: 526.4154052734375
z: -0.01861080341041088
visibility: 0.9859423637390137
","x: 200.7008056640625
y: 524.7420043945312
z: 0.02929781936109066
visibility: 0.9867088794708252
","x: 242.0166778564453
y: 237.9495086669922
z: 0.0
","x: 244.18885803222656
y: 232.20443725585938
z: 0.00042767683044075966
","x: 245.6123046875
y: 226.52345275878906
z: -0.0008149734348990023
","x: 245.81723022460938
y: 221.77456665039062
z: -0.002333111362531781
","x: 245.16635131835938
y: 218.32762145996094
z: -0.0032756044529378414
","x: 244.33004760742188
y: 221.75270080566406
z: -0.0028415992856025696
","x: 241.98587036132812
y: 215.19854736328125
z: -0.004395897034555674
","x: 241.69970703125
y: 217.49978637695312
z: -0.004004497081041336
","x: 242.35891723632812
y: 220.3724365234375
z: -0.0034540228080004454
","x: 242.1713104248047
y: 222.70339965820312
z: -0.004332305863499641
","x: 239.66758728027344
y: 217.26446533203125
z: -0.004944198299199343
","x: 239.67987060546875
y: 219.19601440429688
z: -0.0034599776845425367
","x: 240.4226531982422
y: 221.37071228027344
z: -0.0025727679021656513
","x: 240.09103393554688
y: 224.29678344726562
z: -0.005766507238149643
","x: 237.7284393310547
y: 219.7313690185547
z: -0.006085910834372044
","x: 237.79100036621094
y: 221.6006317138672
z: -0.004281629808247089
","x: 238.49105834960938
y: 223.64076232910156
z: -0.003300259355455637
","x: 238.1619415283203
y: 226.20285034179688
z: -0.007235421799123287
","x: 235.9483184814453
y: 222.4748077392578
z: -0.007435115985572338
","x: 235.88827514648438
y: 223.80929565429688
z: -0.006198148708790541
","x: 236.37818908691406
y: 225.45632934570312
z: -0.005299232434481382
",,,,,,,,,,,,,,,,,,,,,
15,"x: 224.66590881347656
y: 204.93116760253906
z: -0.14084577560424805
visibility: 0.9996724128723145
","x: 227.8473663330078
y: 197.5155487060547
z: -0.13926124572753906
visibility: 0.9991179704666138
","x: 229.45777893066406
y: 197.6385498046875
z: -0.1393338441848755
visibility: 0.9990719556808472
","x: 231.2315673828125
y: 197.73150634765625
z: -0.1393507868051529
visibility: 0.9990764856338501
","x: 224.222412109375
y: 196.77879333496094
z: -0.12262672185897827
visibility: 0.99883633852005
","x: 223.36520385742188
y: 196.50360107421875
z: -0.12256479263305664
visibility: 0.99885493516922
","x: 222.57760620117188
y: 196.34568786621094
z: -0.12253959476947784
visibility: 0.9987649321556091
","x: 236.1365966796875
y: 200.56039428710938
z: -0.08787684142589569
visibility: 0.9988387823104858
","x: 224.59593200683594
y: 198.44154357910156
z: -0.009069384075701237
visibility: 0.996690571308136
","x: 228.15914916992188
y: 212.13345336914062
z: -0.12002848088741302
visibility: 0.9995036721229553
","x: 223.9383544921875
y: 212.03753662109375
z: -0.09685716032981873
visibility: 0.9990345239639282
","x: 249.006591796875
y: 241.54661560058594
z: -0.07301412522792816
visibility: 0.9997614026069641
","x: 215.0627899169922
y: 238.46844482421875
z: 0.08623193949460983
visibility: 0.9994148015975952
","x: 254.95751953125
y: 283.9661865234375
z: -0.24066562950611115
visibility: 0.9536016583442688
","x: 197.3572235107422
y: 285.4681396484375
z: 0.16157208383083344
visibility: 0.9448699951171875
","x: 235.599365234375
y: 266.3656921386719
z: -0.43370383977890015
visibility: 0.9149740934371948
","x: 173.392578125
y: 296.1883850097656
z: 0.09525232762098312
visibility: 0.9535499811172485
","x: 228.113525390625
y: 261.7101745605469
z: -0.47734540700912476
visibility: 0.8579531908035278
","x: 166.40220642089844
y: 300.6835632324219
z: 0.08274151384830475
visibility: 0.9184665679931641
","x: 227.28456115722656
y: 256.75311279296875
z: -0.4700849652290344
visibility: 0.8607609272003174
","x: 165.6772003173828
y: 297.9602355957031
z: 0.045244000852108
visibility: 0.9195564389228821
","x: 229.83924865722656
y: 257.529541015625
z: -0.433891236782074
visibility: 0.8378482460975647
","x: 168.1968231201172
y: 297.2978515625
z: 0.0763527899980545
visibility: 0.8957048654556274
","x: 223.2691192626953
y: 347.1999816894531
z: -0.04295326769351959
visibility: 0.9996449947357178
","x: 202.2822265625
y: 343.1485595703125
z: 0.042940784245729446
visibility: 0.9996195435523987
","x: 226.60855102539062
y: 428.5668640136719
z: -0.05853532999753952
visibility: 0.9909204244613647
","x: 193.12625122070312
y: 420.17132568359375
z: -0.009454314596951008
visibility: 0.992163360118866
","x: 232.05271911621094
y: 500.6344299316406
z: 0.07617287337779999
visibility: 0.9891669750213623
","x: 199.01206970214844
y: 496.7826843261719
z: 0.13486608862876892
visibility: 0.9910708665847778
","x: 230.16810607910156
y: 510.6289367675781
z: 0.08266390115022659
visibility: 0.9123731255531311
","x: 203.97190856933594
y: 507.4787902832031
z: 0.14335857331752777
visibility: 0.8955506086349487
","x: 235.06370544433594
y: 529.0804443359375
z: -0.04216926544904709
visibility: 0.98691725730896
","x: 184.59637451171875
y: 522.148193359375
z: 0.036143578588962555
visibility: 0.9877824187278748
",,,,,,,,,,,,,,,,,,,,,,,,,,,,,,,,,,,,,,,,,,
16,"x: 223.07540893554688
y: 205.19395446777344
z: -0.2036304920911789
visibility: 0.9996969699859619
","x: 225.96969604492188
y: 197.75765991210938
z: -0.18884621560573578
visibility: 0.999188244342804
","x: 227.7397918701172
y: 197.74192810058594
z: -0.18872597813606262
visibility: 0.9991492629051208
","x: 229.64752197265625
y: 197.76702880859375
z: -0.18867537379264832
visibility: 0.9991549849510193
","x: 222.0872802734375
y: 197.57073974609375
z: -0.18855103850364685
visibility: 0.9989194273948669
","x: 221.08055114746094
y: 197.42251586914062
z: -0.18853452801704407
visibility: 0.9989203214645386
","x: 220.11843872070312
y: 197.33831787109375
z: -0.1885412037372589
visibility: 0.9988248348236084
","x: 234.434326171875
y: 200.4925537109375
z: -0.13501077890396118
visibility: 0.9989446401596069
","x: 221.4319610595703
y: 198.76242065429688
z: -0.06701008975505829
visibility: 0.9969040155410767
","x: 227.0960235595703
y: 212.77273559570312
z: -0.15712738037109375
visibility: 0.9995492696762085
","x: 221.82479858398438
y: 212.72955322265625
z: -0.1612595170736313
visibility: 0.9991132616996765
","x: 249.57455444335938
y: 240.98143005371094
z: -0.1220315471291542
visibility: 0.9997847080230713
","x: 214.9375762939453
y: 240.6992950439453
z: 0.041718609631061554
visibility: 0.9994392991065979
","x: 247.40444946289062
y: 286.7074279785156
z: -0.20419517159461975
visibility: 0.9578431844711304
","x: 206.01719665527344
y: 297.97900390625
z: 0.11457587778568268
visibility: 0.8900094032287598
","x: 219.33224487304688
y: 288.176025390625
z: -0.3524058759212494
visibility: 0.9231887459754944
","x: 180.9552001953125
y: 318.5234375
z: 0.01744476705789566
visibility: 0.9232854843139648
","x: 211.81370544433594
y: 289.61181640625
z: -0.3971094787120819
visibility: 0.8713822960853577
","x: 175.3265380859375
y: 325.7991027832031
z: -0.006138641387224197
visibility: 0.8882056474685669
","x: 210.1720733642578
y: 287.02691650390625
z: -0.40389570593833923
visibility: 0.8738937377929688
","x: 174.3033905029297
y: 322.47613525390625
z: -0.045727793127298355
visibility: 0.8909807801246643
","x: 211.5319366455078
y: 285.9775390625
z: -0.3565727472305298
visibility: 0.8524019718170166
","x: 176.87860107421875
y: 320.6882019042969
z: -0.0031606510747224092
visibility: 0.8673017621040344
","x: 226.56466674804688
y: 353.24774169921875
z: -0.02810479700565338
visibility: 0.9996606707572937
","x: 204.26625061035156
y: 346.66802978515625
z: 0.028115948662161827
visibility: 0.9996235966682434
","x: 228.81678771972656
y: 431.82379150390625
z: -0.06323035061359406
visibility: 0.9916314482688904
","x: 189.7257080078125
y: 419.6566162109375
z: -0.03989090770483017
visibility: 0.9928191900253296
","x: 232.11085510253906
y: 503.19482421875
z: 0.0876912772655487
visibility: 0.989975094795227
","x: 188.78167724609375
y: 495.9677429199219
z: 0.12108220160007477
visibility: 0.9917362928390503
","x: 229.74583435058594
y: 514.1226806640625
z: 0.09638427197933197
visibility: 0.9160999655723572
","x: 193.62925720214844
y: 505.63946533203125
z: 0.13080191612243652
visibility: 0.9012259840965271
","x: 235.59298706054688
y: 529.3194580078125
z: -0.03915666788816452
visibility: 0.9876211285591125
","x: 176.99429321289062
y: 521.4671630859375
z: 0.013230366632342339
visibility: 0.9885731339454651
","x: 216.13827514648438
y: 293.6221008300781
z: 0.0
","x: 212.32412719726562
y: 290.14849853515625
z: 0.0004417015879880637
","x: 208.12832641601562
y: 289.4940490722656
z: -0.000606404326390475
","x: 205.0146026611328
y: 289.447509765625
z: -0.0018676805775612593
","x: 202.6262664794922
y: 288.9334411621094
z: -0.002963975304737687
","x: 205.71385192871094
y: 293.6394958496094
z: -0.0027569469530135393
","x: 201.27435302734375
y: 297.7474060058594
z: -0.004765473771840334
","x: 199.4134521484375
y: 301.0981140136719
z: -0.005308426450937986
","x: 198.25735473632812
y: 303.99755859375
z: -0.0055333650670945644
","x: 206.7698211669922
y: 297.38427734375
z: -0.00450577586889267
","x: 202.2324981689453
y: 303.17816162109375
z: -0.006298315245658159
","x: 200.08433532714844
y: 307.3525390625
z: -0.006405545398592949
","x: 198.591796875
y: 310.99658203125
z: -0.006616234313696623
","x: 208.3270721435547
y: 300.9879150390625
z: -0.006131040398031473
","x: 204.41085815429688
y: 307.065673828125
z: -0.008071409538388252
","x: 202.4279022216797
y: 311.1935119628906
z: -0.00805559940636158
","x: 200.9580841064453
y: 314.5821533203125
z: -0.00808544922620058
","x: 210.24774169921875
y: 304.26324462890625
z: -0.0077236066572368145
","x: 207.68736267089844
y: 308.92266845703125
z: -0.009584954008460045
","x: 206.48016357421875
y: 311.621337890625
z: -0.009578944183886051
","x: 205.56002807617188
y: 313.89654541015625
z: -0.009418548084795475
",,,,,,,,,,,,,,,,,,,,,
17,"x: 223.07540893554688
y: 205.19395446777344
z: -0.2036304920911789
visibility: 0.9996969699859619
","x: 225.96969604492188
y: 197.75765991210938
z: -0.18884621560573578
visibility: 0.999188244342804
","x: 227.7397918701172
y: 197.74192810058594
z: -0.18872597813606262
visibility: 0.9991492629051208
","x: 229.64752197265625
y: 197.76702880859375
z: -0.18867537379264832
visibility: 0.9991549849510193
","x: 222.0872802734375
y: 197.57073974609375
z: -0.18855103850364685
visibility: 0.9989194273948669
","x: 221.08055114746094
y: 197.42251586914062
z: -0.18853452801704407
visibility: 0.9989203214645386
","x: 220.11843872070312
y: 197.33831787109375
z: -0.1885412037372589
visibility: 0.9988248348236084
","x: 234.434326171875
y: 200.4925537109375
z: -0.13501077890396118
visibility: 0.9989446401596069
","x: 221.4319610595703
y: 198.76242065429688
z: -0.06701008975505829
visibility: 0.9969040155410767
","x: 227.0960235595703
y: 212.77273559570312
z: -0.15712738037109375
visibility: 0.9995492696762085
","x: 221.82479858398438
y: 212.72955322265625
z: -0.1612595170736313
visibility: 0.9991132616996765
","x: 249.57455444335938
y: 240.98143005371094
z: -0.1220315471291542
visibility: 0.9997847080230713
","x: 214.9375762939453
y: 240.6992950439453
z: 0.041718609631061554
visibility: 0.9994392991065979
","x: 247.40444946289062
y: 286.7074279785156
z: -0.20419517159461975
visibility: 0.9578431844711304
","x: 206.01719665527344
y: 297.97900390625
z: 0.11457587778568268
visibility: 0.8900094032287598
","x: 219.33224487304688
y: 288.176025390625
z: -0.3524058759212494
visibility: 0.9231887459754944
","x: 180.9552001953125
y: 318.5234375
z: 0.01744476705789566
visibility: 0.9232854843139648
","x: 211.81370544433594
y: 289.61181640625
z: -0.3971094787120819
visibility: 0.8713822960853577
","x: 175.3265380859375
y: 325.7991027832031
z: -0.006138641387224197
visibility: 0.8882056474685669
","x: 210.1720733642578
y: 287.02691650390625
z: -0.40389570593833923
visibility: 0.8738937377929688
","x: 174.3033905029297
y: 322.47613525390625
z: -0.045727793127298355
visibility: 0.8909807801246643
","x: 211.5319366455078
y: 285.9775390625
z: -0.3565727472305298
visibility: 0.8524019718170166
","x: 176.87860107421875
y: 320.6882019042969
z: -0.0031606510747224092
visibility: 0.8673017621040344
","x: 226.56466674804688
y: 353.24774169921875
z: -0.02810479700565338
visibility: 0.9996606707572937
","x: 204.26625061035156
y: 346.66802978515625
z: 0.028115948662161827
visibility: 0.9996235966682434
","x: 228.81678771972656
y: 431.82379150390625
z: -0.06323035061359406
visibility: 0.9916314482688904
","x: 189.7257080078125
y: 419.6566162109375
z: -0.03989090770483017
visibility: 0.9928191900253296
","x: 232.11085510253906
y: 503.19482421875
z: 0.0876912772655487
visibility: 0.989975094795227
","x: 188.78167724609375
y: 495.9677429199219
z: 0.12108220160007477
visibility: 0.9917362928390503
","x: 229.74583435058594
y: 514.1226806640625
z: 0.09638427197933197
visibility: 0.9160999655723572
","x: 193.62925720214844
y: 505.63946533203125
z: 0.13080191612243652
visibility: 0.9012259840965271
","x: 235.59298706054688
y: 529.3194580078125
z: -0.03915666788816452
visibility: 0.9876211285591125
","x: 176.99429321289062
y: 521.4671630859375
z: 0.013230366632342339
visibility: 0.9885731339454651
","x: 216.13827514648438
y: 293.6221008300781
z: 0.0
","x: 212.32412719726562
y: 290.14849853515625
z: 0.0004417015879880637
","x: 208.12832641601562
y: 289.4940490722656
z: -0.000606404326390475
","x: 205.0146026611328
y: 289.447509765625
z: -0.0018676805775612593
","x: 202.6262664794922
y: 288.9334411621094
z: -0.002963975304737687
","x: 205.71385192871094
y: 293.6394958496094
z: -0.0027569469530135393
","x: 201.27435302734375
y: 297.7474060058594
z: -0.004765473771840334
","x: 199.4134521484375
y: 301.0981140136719
z: -0.005308426450937986
","x: 198.25735473632812
y: 303.99755859375
z: -0.0055333650670945644
","x: 206.7698211669922
y: 297.38427734375
z: -0.00450577586889267
","x: 202.2324981689453
y: 303.17816162109375
z: -0.006298315245658159
","x: 200.08433532714844
y: 307.3525390625
z: -0.006405545398592949
","x: 198.591796875
y: 310.99658203125
z: -0.006616234313696623
","x: 208.3270721435547
y: 300.9879150390625
z: -0.006131040398031473
","x: 204.41085815429688
y: 307.065673828125
z: -0.008071409538388252
","x: 202.4279022216797
y: 311.1935119628906
z: -0.00805559940636158
","x: 200.9580841064453
y: 314.5821533203125
z: -0.00808544922620058
","x: 210.24774169921875
y: 304.26324462890625
z: -0.0077236066572368145
","x: 207.68736267089844
y: 308.92266845703125
z: -0.009584954008460045
","x: 206.48016357421875
y: 311.621337890625
z: -0.009578944183886051
","x: 205.56002807617188
y: 313.89654541015625
z: -0.009418548084795475
",,,,,,,,,,,,,,,,,,,,,
18,"x: 217.82025146484375
y: 205.92974853515625
z: -0.2020471841096878
visibility: 0.9996793866157532
","x: 221.40240478515625
y: 198.52865600585938
z: -0.19721397757530212
visibility: 0.9991533756256104
","x: 223.33140563964844
y: 198.36465454101562
z: -0.19727358222007751
visibility: 0.999137818813324
","x: 225.3772735595703
y: 198.19664001464844
z: -0.19732728600502014
visibility: 0.9991603493690491
","x: 217.16282653808594
y: 198.28848266601562
z: -0.18289698660373688
visibility: 0.9988261461257935
","x: 216.26217651367188
y: 197.999267578125
z: -0.18284203112125397
visibility: 0.9987341165542603
","x: 215.44381713867188
y: 197.73794555664062
z: -0.18285086750984192
visibility: 0.9985893368721008
","x: 233.20645141601562
y: 200.50177001953125
z: -0.1386229693889618
visibility: 0.998995840549469
","x: 220.21823120117188
y: 198.74253845214844
z: -0.06189018487930298
visibility: 0.9965087175369263
","x: 222.7701873779297
y: 213.55963134765625
z: -0.17378458380699158
visibility: 0.9995715618133545
","x: 218.08056640625
y: 213.68463134765625
z: -0.1552031934261322
visibility: 0.9991024732589722
","x: 245.40744018554688
y: 240.44615173339844
z: -0.12564556300640106
visibility: 0.9998054504394531
","x: 213.8652801513672
y: 242.90225219726562
z: 0.04413890838623047
visibility: 0.999409019947052
","x: 238.7566680908203
y: 288.2265930175781
z: -0.168974369764328
visibility: 0.9612452387809753
","x: 213.07763671875
y: 298.78509521484375
z: 0.09621739387512207
visibility: 0.8091968894004822
","x: 206.5314483642578
y: 289.1400451660156
z: -0.2525014281272888
visibility: 0.929479718208313
","x: 201.73814392089844
y: 340.1986083984375
z: 0.010672922246158123
visibility: 0.8402361273765564
","x: 198.72779846191406
y: 293.0359191894531
z: -0.29378992319107056
visibility: 0.8802708387374878
","x: 198.67572021484375
y: 353.3576965332031
z: -0.010313139297068119
visibility: 0.8093720078468323
","x: 197.53231811523438
y: 292.72332763671875
z: -0.28258663415908813
visibility: 0.8822760581970215
","x: 197.17987060546875
y: 349.4276123046875
z: -0.03945516049861908
visibility: 0.8117718696594238
","x: 199.92965698242188
y: 291.88458251953125
z: -0.2469026744365692
visibility: 0.8593435883522034
","x: 199.3550262451172
y: 343.6749267578125
z: -0.005098388995975256
visibility: 0.7901787757873535
","x: 228.0688934326172
y: 353.3000183105469
z: -0.027353648096323013
visibility: 0.9996688365936279
","x: 205.79006958007812
y: 348.64825439453125
z: 0.027403393760323524
visibility: 0.9996122717857361
","x: 230.18679809570312
y: 432.28277587890625
z: -0.06332958489656448
visibility: 0.9922769665718079
","x: 188.15090942382812
y: 421.23944091796875
z: -0.02692107856273651
visibility: 0.9933496117591858
","x: 232.30517578125
y: 503.46795654296875
z: 0.11586572974920273
visibility: 0.9906246662139893
","x: 187.0840606689453
y: 495.33026123046875
z: 0.13405132293701172
visibility: 0.9922511577606201
","x: 229.95944213867188
y: 514.7698364257812
z: 0.12804260849952698
visibility: 0.9163728356361389
","x: 191.61378479003906
y: 504.29339599609375
z: 0.14452800154685974
visibility: 0.904734194278717
","x: 235.02310180664062
y: 529.1731567382812
z: -0.001939241774380207
visibility: 0.98819500207901
","x: 175.98074340820312
y: 521.5074462890625
z: 0.029443880543112755
visibility: 0.9891844391822815
","x: 204.93795776367188
y: 304.4022216796875
z: 0.0
","x: 200.58084106445312
y: 298.787841796875
z: -0.0001776537683326751
","x: 195.9390411376953
y: 296.2762451171875
z: -0.0010207112645730376
","x: 192.33673095703125
y: 295.67578125
z: -0.001959164161235094
","x: 189.81524658203125
y: 296.7452697753906
z: -0.002705206163227558
","x: 193.04380798339844
y: 302.6875915527344
z: -0.002386856824159622
","x: 187.7963104248047
y: 306.6236572265625
z: -0.0038935733027756214
","x: 185.46075439453125
y: 309.4943542480469
z: -0.004139747936278582
","x: 183.75155639648438
y: 312.172607421875
z: -0.004130663815885782
","x: 194.03518676757812
y: 307.41900634765625
z: -0.0035613635554909706
","x: 188.9688720703125
y: 312.68719482421875
z: -0.004595412872731686
","x: 186.37989807128906
y: 316.50592041015625
z: -0.004387701395899057
","x: 184.39891052246094
y: 320.40533447265625
z: -0.004427776206284761
","x: 195.38690185546875
y: 311.59930419921875
z: -0.0046899886801838875
","x: 191.10650634765625
y: 316.5956726074219
z: -0.006143155042082071
","x: 188.66351318359375
y: 320.42413330078125
z: -0.006294730119407177
","x: 186.7483673095703
y: 323.91741943359375
z: -0.006461210083216429
","x: 196.94430541992188
y: 314.84527587890625
z: -0.005880593787878752
","x: 193.85610961914062
y: 318.97515869140625
z: -0.007503058295696974
","x: 192.0434112548828
y: 321.9755554199219
z: -0.007737204432487488
","x: 190.57644653320312
y: 324.7725830078125
z: -0.007777392864227295
",,,,,,,,,,,,,,,,,,,,,
19,"x: 217.82025146484375
y: 205.92974853515625
z: -0.2020471841096878
visibility: 0.9996793866157532
","x: 221.40240478515625
y: 198.52865600585938
z: -0.19721397757530212
visibility: 0.9991533756256104
","x: 223.33140563964844
y: 198.36465454101562
z: -0.19727358222007751
visibility: 0.999137818813324
","x: 225.3772735595703
y: 198.19664001464844
z: -0.19732728600502014
visibility: 0.9991603493690491
","x: 217.16282653808594
y: 198.28848266601562
z: -0.18289698660373688
visibility: 0.9988261461257935
","x: 216.26217651367188
y: 197.999267578125
z: -0.18284203112125397
visibility: 0.9987341165542603
","x: 215.44381713867188
y: 197.73794555664062
z: -0.18285086750984192
visibility: 0.9985893368721008
","x: 233.20645141601562
y: 200.50177001953125
z: -0.1386229693889618
visibility: 0.998995840549469
","x: 220.21823120117188
y: 198.74253845214844
z: -0.06189018487930298
visibility: 0.9965087175369263
","x: 222.7701873779297
y: 213.55963134765625
z: -0.17378458380699158
visibility: 0.9995715618133545
","x: 218.08056640625
y: 213.68463134765625
z: -0.1552031934261322
visibility: 0.9991024732589722
","x: 245.40744018554688
y: 240.44615173339844
z: -0.12564556300640106
visibility: 0.9998054504394531
","x: 213.8652801513672
y: 242.90225219726562
z: 0.04413890838623047
visibility: 0.999409019947052
","x: 238.7566680908203
y: 288.2265930175781
z: -0.168974369764328
visibility: 0.9612452387809753
","x: 213.07763671875
y: 298.78509521484375
z: 0.09621739387512207
visibility: 0.8091968894004822
","x: 206.5314483642578
y: 289.1400451660156
z: -0.2525014281272888
visibility: 0.929479718208313
","x: 201.73814392089844
y: 340.1986083984375
z: 0.010672922246158123
visibility: 0.8402361273765564
","x: 198.72779846191406
y: 293.0359191894531
z: -0.29378992319107056
visibility: 0.8802708387374878
","x: 198.67572021484375
y: 353.3576965332031
z: -0.010313139297068119
visibility: 0.8093720078468323
","x: 197.53231811523438
y: 292.72332763671875
z: -0.28258663415908813
visibility: 0.8822760581970215
","x: 197.17987060546875
y: 349.4276123046875
z: -0.03945516049861908
visibility: 0.8117718696594238
","x: 199.92965698242188
y: 291.88458251953125
z: -0.2469026744365692
visibility: 0.8593435883522034
","x: 199.3550262451172
y: 343.6749267578125
z: -0.005098388995975256
visibility: 0.7901787757873535
","x: 228.0688934326172
y: 353.3000183105469
z: -0.027353648096323013
visibility: 0.9996688365936279
","x: 205.79006958007812
y: 348.64825439453125
z: 0.027403393760323524
visibility: 0.9996122717857361
","x: 230.18679809570312
y: 432.28277587890625
z: -0.06332958489656448
visibility: 0.9922769665718079
","x: 188.15090942382812
y: 421.23944091796875
z: -0.02692107856273651
visibility: 0.9933496117591858
","x: 232.30517578125
y: 503.46795654296875
z: 0.11586572974920273
visibility: 0.9906246662139893
","x: 187.0840606689453
y: 495.33026123046875
z: 0.13405132293701172
visibility: 0.9922511577606201
","x: 229.95944213867188
y: 514.7698364257812
z: 0.12804260849952698
visibility: 0.9163728356361389
","x: 191.61378479003906
y: 504.29339599609375
z: 0.14452800154685974
visibility: 0.904734194278717
","x: 235.02310180664062
y: 529.1731567382812
z: -0.001939241774380207
visibility: 0.98819500207901
","x: 175.98074340820312
y: 521.5074462890625
z: 0.029443880543112755
visibility: 0.9891844391822815
","x: 204.93795776367188
y: 304.4022216796875
z: 0.0
","x: 200.58084106445312
y: 298.787841796875
z: -0.0001776537683326751
","x: 195.9390411376953
y: 296.2762451171875
z: -0.0010207112645730376
","x: 192.33673095703125
y: 295.67578125
z: -0.001959164161235094
","x: 189.81524658203125
y: 296.7452697753906
z: -0.002705206163227558
","x: 193.04380798339844
y: 302.6875915527344
z: -0.002386856824159622
","x: 187.7963104248047
y: 306.6236572265625
z: -0.0038935733027756214
","x: 185.46075439453125
y: 309.4943542480469
z: -0.004139747936278582
","x: 183.75155639648438
y: 312.172607421875
z: -0.004130663815885782
","x: 194.03518676757812
y: 307.41900634765625
z: -0.0035613635554909706
","x: 188.9688720703125
y: 312.68719482421875
z: -0.004595412872731686
","x: 186.37989807128906
y: 316.50592041015625
z: -0.004387701395899057
","x: 184.39891052246094
y: 320.40533447265625
z: -0.004427776206284761
","x: 195.38690185546875
y: 311.59930419921875
z: -0.0046899886801838875
","x: 191.10650634765625
y: 316.5956726074219
z: -0.006143155042082071
","x: 188.66351318359375
y: 320.42413330078125
z: -0.006294730119407177
","x: 186.7483673095703
y: 323.91741943359375
z: -0.006461210083216429
","x: 196.94430541992188
y: 314.84527587890625
z: -0.005880593787878752
","x: 193.85610961914062
y: 318.97515869140625
z: -0.007503058295696974
","x: 192.0434112548828
y: 321.9755554199219
z: -0.007737204432487488
","x: 190.57644653320312
y: 324.7725830078125
z: -0.007777392864227295
",,,,,,,,,,,,,,,,,,,,,
20,"x: 209.30519104003906
y: 208.5703125
z: -0.17892639338970184
visibility: 0.9996561408042908
","x: 212.14187622070312
y: 201.373779296875
z: -0.17909248173236847
visibility: 0.9991019368171692
","x: 213.7036895751953
y: 201.06015014648438
z: -0.17917956411838531
visibility: 0.9991094470024109
","x: 215.27975463867188
y: 200.61489868164062
z: -0.17922933399677277
visibility: 0.9991523027420044
","x: 208.97544860839844
y: 201.31422424316406
z: -0.15962839126586914
visibility: 0.9987505674362183
","x: 208.29605102539062
y: 201.07872009277344
z: -0.15958553552627563
visibility: 0.9985885620117188
","x: 207.69729614257812
y: 200.7643280029297
z: -0.15960565209388733
visibility: 0.9984260201454163
","x: 221.02703857421875
y: 201.26742553710938
z: -0.13850028812885284
visibility: 0.9990220069885254
","x: 212.83364868164062
y: 201.011474609375
z: -0.0451999194920063
visibility: 0.9962801337242126
","x: 213.44485473632812
y: 215.76483154296875
z: -0.16064932942390442
visibility: 0.9995718598365784
","x: 209.9908905029297
y: 216.51644897460938
z: -0.13421469926834106
visibility: 0.9990634322166443
","x: 237.4365692138672
y: 240.5847930908203
z: -0.13787850737571716
visibility: 0.9998224973678589
","x: 210.77947998046875
y: 247.24517822265625
z: 0.0625179260969162
visibility: 0.9993708729743958
","x: 228.11477661132812
y: 289.24578857421875
z: -0.18072126805782318
visibility: 0.9640421867370605
","x: 207.20111083984375
y: 305.2666931152344
z: 0.11922808736562729
visibility: 0.738010048866272
","x: 196.4330596923828
y: 289.612548828125
z: -0.24182045459747314
visibility: 0.9349433183670044
","x: 200.19210815429688
y: 340.3370666503906
z: 0.03453563153743744
visibility: 0.7681126594543457
","x: 187.26878356933594
y: 295.0531311035156
z: -0.2792816162109375
visibility: 0.8885167837142944
","x: 197.49179077148438
y: 353.12054443359375
z: 0.015190492384135723
visibility: 0.7405564785003662
","x: 185.8485565185547
y: 297.53955078125
z: -0.2749249339103699
visibility: 0.8901334404945374
","x: 196.52259826660156
y: 349.01739501953125
z: -0.014428354799747467
visibility: 0.7429481744766235
","x: 188.83688354492188
y: 296.0000305175781
z: -0.23911818861961365
visibility: 0.8654493093490601
","x: 198.38946533203125
y: 343.4299011230469
z: 0.01830725558102131
visibility: 0.7232277989387512
","x: 227.7480926513672
y: 355.635009765625
z: -0.0352480486035347
visibility: 0.9996338486671448
","x: 205.6459503173828
y: 352.7432861328125
z: 0.035359952598810196
visibility: 0.9995908141136169
","x: 231.5979766845703
y: 432.27496337890625
z: -0.07326387614011765
visibility: 0.9928922653198242
","x: 188.97291564941406
y: 421.01025390625
z: -0.05642903968691826
visibility: 0.9938941597938538
","x: 233.3264617919922
y: 504.0852355957031
z: 0.08280263841152191
visibility: 0.9913367033004761
","x: 187.53201293945312
y: 495.4729919433594
z: 0.08659552037715912
visibility: 0.9928228855133057
","x: 231.32412719726562
y: 515.6632080078125
z: 0.0906316488981247
visibility: 0.917622983455658
","x: 191.65745544433594
y: 504.7331237792969
z: 0.09466604143381119
visibility: 0.9107779860496521
","x: 234.95208740234375
y: 529.2073974609375
z: -0.0429474338889122
visibility: 0.9888530969619751
","x: 176.7203369140625
y: 521.2412109375
z: -0.015001830644905567
visibility: 0.9898543357849121
","x: 192.60365295410156
y: 306.4425964355469
z: 0.0
","x: 188.4508056640625
y: 300.42279052734375
z: -0.0006680201622657478
","x: 184.0271453857422
y: 296.822998046875
z: -0.001416285871528089
","x: 180.1975860595703
y: 295.7171630859375
z: -0.002290573203936219
","x: 177.10116577148438
y: 295.57867431640625
z: -0.00294167036190629
","x: 181.05767822265625
y: 304.3628845214844
z: -0.0014722051564604044
","x: 176.2911376953125
y: 307.2301330566406
z: -0.0025513318832963705
","x: 173.6669158935547
y: 309.127685546875
z: -0.002540766494348645
","x: 171.6894989013672
y: 310.8092041015625
z: -0.0023784127552062273
","x: 181.7204132080078
y: 309.6324768066406
z: -0.002554540988057852
","x: 176.60618591308594
y: 313.75262451171875
z: -0.0029938470106571913
","x: 173.87734985351562
y: 315.8196105957031
z: -0.0025162845849990845
","x: 171.774169921875
y: 317.576171875
z: -0.0024396441876888275
","x: 182.99603271484375
y: 313.9517822265625
z: -0.003743122098967433
","x: 178.78736877441406
y: 318.3189697265625
z: -0.004911084193736315
","x: 176.285888671875
y: 320.5472412109375
z: -0.005068641621619463
","x: 174.4121856689453
y: 322.20526123046875
z: -0.0052333096973598
","x: 184.839599609375
y: 317.27880859375
z: -0.005091415718197823
","x: 182.12387084960938
y: 321.06744384765625
z: -0.00641038129106164
","x: 180.77503967285156
y: 323.0540466308594
z: -0.006581587251275778
","x: 179.86709594726562
y: 324.58294677734375
z: -0.00657564215362072
",,,,,,,,,,,,,,,,,,,,,
21,"x: 209.30519104003906
y: 208.5703125
z: -0.17892639338970184
visibility: 0.9996561408042908
","x: 212.14187622070312
y: 201.373779296875
z: -0.17909248173236847
visibility: 0.9991019368171692
","x: 213.7036895751953
y: 201.06015014648438
z: -0.17917956411838531
visibility: 0.9991094470024109
","x: 215.27975463867188
y: 200.61489868164062
z: -0.17922933399677277
visibility: 0.9991523027420044
","x: 208.97544860839844
y: 201.31422424316406
z: -0.15962839126586914
visibility: 0.9987505674362183
","x: 208.29605102539062
y: 201.07872009277344
z: -0.15958553552627563
visibility: 0.9985885620117188
","x: 207.69729614257812
y: 200.7643280029297
z: -0.15960565209388733
visibility: 0.9984260201454163
","x: 221.02703857421875
y: 201.26742553710938
z: -0.13850028812885284
visibility: 0.9990220069885254
","x: 212.83364868164062
y: 201.011474609375
z: -0.0451999194920063
visibility: 0.9962801337242126
","x: 213.44485473632812
y: 215.76483154296875
z: -0.16064932942390442
visibility: 0.9995718598365784
","x: 209.9908905029297
y: 216.51644897460938
z: -0.13421469926834106
visibility: 0.9990634322166443
","x: 237.4365692138672
y: 240.5847930908203
z: -0.13787850737571716
visibility: 0.9998224973678589
","x: 210.77947998046875
y: 247.24517822265625
z: 0.0625179260969162
visibility: 0.9993708729743958
","x: 228.11477661132812
y: 289.24578857421875
z: -0.18072126805782318
visibility: 0.9640421867370605
","x: 207.20111083984375
y: 305.2666931152344
z: 0.11922808736562729
visibility: 0.738010048866272
","x: 196.4330596923828
y: 289.612548828125
z: -0.24182045459747314
visibility: 0.9349433183670044
","x: 200.19210815429688
y: 340.3370666503906
z: 0.03453563153743744
visibility: 0.7681126594543457
","x: 187.26878356933594
y: 295.0531311035156
z: -0.2792816162109375
visibility: 0.8885167837142944
","x: 197.49179077148438
y: 353.12054443359375
z: 0.015190492384135723
visibility: 0.7405564785003662
","x: 185.8485565185547
y: 297.53955078125
z: -0.2749249339103699
visibility: 0.8901334404945374
","x: 196.52259826660156
y: 349.01739501953125
z: -0.014428354799747467
visibility: 0.7429481744766235
","x: 188.83688354492188
y: 296.0000305175781
z: -0.23911818861961365
visibility: 0.8654493093490601
","x: 198.38946533203125
y: 343.4299011230469
z: 0.01830725558102131
visibility: 0.7232277989387512
","x: 227.7480926513672
y: 355.635009765625
z: -0.0352480486035347
visibility: 0.9996338486671448
","x: 205.6459503173828
y: 352.7432861328125
z: 0.035359952598810196
visibility: 0.9995908141136169
","x: 231.5979766845703
y: 432.27496337890625
z: -0.07326387614011765
visibility: 0.9928922653198242
","x: 188.97291564941406
y: 421.01025390625
z: -0.05642903968691826
visibility: 0.9938941597938538
","x: 233.3264617919922
y: 504.0852355957031
z: 0.08280263841152191
visibility: 0.9913367033004761
","x: 187.53201293945312
y: 495.4729919433594
z: 0.08659552037715912
visibility: 0.9928228855133057
","x: 231.32412719726562
y: 515.6632080078125
z: 0.0906316488981247
visibility: 0.917622983455658
","x: 191.65745544433594
y: 504.7331237792969
z: 0.09466604143381119
visibility: 0.9107779860496521
","x: 234.95208740234375
y: 529.2073974609375
z: -0.0429474338889122
visibility: 0.9888530969619751
","x: 176.7203369140625
y: 521.2412109375
z: -0.015001830644905567
visibility: 0.9898543357849121
","x: 192.60365295410156
y: 306.4425964355469
z: 0.0
","x: 188.4508056640625
y: 300.42279052734375
z: -0.0006680201622657478
","x: 184.0271453857422
y: 296.822998046875
z: -0.001416285871528089
","x: 180.1975860595703
y: 295.7171630859375
z: -0.002290573203936219
","x: 177.10116577148438
y: 295.57867431640625
z: -0.00294167036190629
","x: 181.05767822265625
y: 304.3628845214844
z: -0.0014722051564604044
","x: 176.2911376953125
y: 307.2301330566406
z: -0.0025513318832963705
","x: 173.6669158935547
y: 309.127685546875
z: -0.002540766494348645
","x: 171.6894989013672
y: 310.8092041015625
z: -0.0023784127552062273
","x: 181.7204132080078
y: 309.6324768066406
z: -0.002554540988057852
","x: 176.60618591308594
y: 313.75262451171875
z: -0.0029938470106571913
","x: 173.87734985351562
y: 315.8196105957031
z: -0.0025162845849990845
","x: 171.774169921875
y: 317.576171875
z: -0.0024396441876888275
","x: 182.99603271484375
y: 313.9517822265625
z: -0.003743122098967433
","x: 178.78736877441406
y: 318.3189697265625
z: -0.004911084193736315
","x: 176.285888671875
y: 320.5472412109375
z: -0.005068641621619463
","x: 174.4121856689453
y: 322.20526123046875
z: -0.0052333096973598
","x: 184.839599609375
y: 317.27880859375
z: -0.005091415718197823
","x: 182.12387084960938
y: 321.06744384765625
z: -0.00641038129106164
","x: 180.77503967285156
y: 323.0540466308594
z: -0.006581587251275778
","x: 179.86709594726562
y: 324.58294677734375
z: -0.00657564215362072
",,,,,,,,,,,,,,,,,,,,,
22,"x: 201.32199096679688
y: 209.48565673828125
z: -0.0915963277220726
visibility: 0.9996396899223328
","x: 203.99794006347656
y: 202.6136474609375
z: -0.10064879804849625
visibility: 0.9990794062614441
","x: 205.24346923828125
y: 202.3603973388672
z: -0.10072614997625351
visibility: 0.9990934729576111
","x: 206.63621520996094
y: 201.97940063476562
z: -0.10073979198932648
visibility: 0.999157190322876
","x: 202.08053588867188
y: 202.4976806640625
z: -0.07580031454563141
visibility: 0.9987223148345947
","x: 201.8712921142578
y: 202.25083923339844
z: -0.07575245946645737
visibility: 0.9985220432281494
","x: 201.69601440429688
y: 201.88876342773438
z: -0.07578045129776001
visibility: 0.9983816742897034
","x: 213.08079528808594
y: 202.36634826660156
z: -0.10577775537967682
visibility: 0.999047040939331
","x: 207.35191345214844
y: 202.02696228027344
z: 0.01179409958422184
visibility: 0.9962267875671387
","x: 205.3124237060547
y: 216.6411590576172
z: -0.09029773622751236
visibility: 0.9995635747909546
","x: 202.98193359375
y: 216.87318420410156
z: -0.056768160313367844
visibility: 0.9990174770355225
","x: 229.7136688232422
y: 239.6339111328125
z: -0.1348131000995636
visibility: 0.9998380541801453
","x: 209.4122772216797
y: 247.8065185546875
z: 0.09987746924161911
visibility: 0.9993597269058228
","x: 220.83493041992188
y: 285.57623291015625
z: -0.19755002856254578
visibility: 0.9669622182846069
","x: 205.68939208984375
y: 300.3014831542969
z: 0.1586906462907791
visibility: 0.6721326112747192
","x: 189.8094024658203
y: 295.3534851074219
z: -0.2422454059123993
visibility: 0.940817654132843
","x: 193.5721893310547
y: 331.05523681640625
z: 0.07433594763278961
visibility: 0.7163107991218567
","x: 181.46063232421875
y: 301.0616455078125
z: -0.27934563159942627
visibility: 0.8983418345451355
","x: 187.82102966308594
y: 340.23712158203125
z: 0.05723193287849426
visibility: 0.6926299333572388
","x: 180.3850555419922
y: 298.5085754394531
z: -0.2768094539642334
visibility: 0.8996845483779907
","x: 186.07366943359375
y: 336.0269470214844
z: 0.02497553452849388
visibility: 0.695878803730011
","x: 182.9674835205078
y: 296.88067626953125
z: -0.24228744208812714
visibility: 0.8755283951759338
","x: 189.1344757080078
y: 332.016845703125
z: 0.056504517793655396
visibility: 0.6766471266746521
","x: 227.47032165527344
y: 354.9268798828125
z: -0.046445898711681366
visibility: 0.9995936155319214
","x: 207.3113250732422
y: 352.6446838378906
z: 0.04652506858110428
visibility: 0.9995816349983215
","x: 232.92800903320312
y: 430.4398193359375
z: -0.07241588830947876
visibility: 0.9934697151184082
","x: 190.0403289794922
y: 418.9456481933594
z: -0.06625117361545563
visibility: 0.9943474531173706
","x: 234.71188354492188
y: 503.7533264160156
z: 0.07193800806999207
visibility: 0.9920021891593933
","x: 187.1280517578125
y: 495.342041015625
z: 0.04927010089159012
visibility: 0.9933777451515198
","x: 233.78921508789062
y: 515.05419921875
z: 0.07883448898792267
visibility: 0.9175833463668823
","x: 192.3131866455078
y: 504.918701171875
z: 0.05461597442626953
visibility: 0.9174831509590149
","x: 234.54620361328125
y: 529.1332397460938
z: -0.03916531428694725
visibility: 0.9894877076148987
","x: 176.28916931152344
y: 520.92333984375
z: -0.03711339086294174
visibility: 0.9905393719673157
","x: 185.9288330078125
y: 300.31671142578125
z: 0.0
","x: 181.96966552734375
y: 294.4388122558594
z: -0.0018511709058657289
","x: 177.2955780029297
y: 291.9443054199219
z: -0.0031263430137187243
","x: 173.31961059570312
y: 291.8655700683594
z: -0.0038205585442483425
","x: 170.39852905273438
y: 293.01092529296875
z: -0.004404537379741669
","x: 176.04440307617188
y: 300.26739501953125
z: -0.005906422156840563
","x: 170.789794921875
y: 302.9650573730469
z: -0.0073542725294828415
","x: 167.98553466796875
y: 304.8080749511719
z: -0.007301499135792255
","x: 165.9627685546875
y: 306.5733642578125
z: -0.0070760236121714115
","x: 177.05462646484375
y: 305.75909423828125
z: -0.0057023572735488415
","x: 172.00439453125
y: 309.9947814941406
z: -0.007042629644274712
","x: 169.22023010253906
y: 312.5831604003906
z: -0.00655692582949996
","x: 167.29615783691406
y: 314.76312255859375
z: -0.006275927647948265
","x: 178.2795867919922
y: 309.77001953125
z: -0.00527561130002141
","x: 174.1668701171875
y: 314.3085021972656
z: -0.006873925216495991
","x: 171.76327514648438
y: 316.9345397949219
z: -0.006838412489742041
","x: 170.07826232910156
y: 319.0646057128906
z: -0.006797042675316334
","x: 179.62445068359375
y: 312.4834899902344
z: -0.004920348525047302
","x: 176.75588989257812
y: 316.0732116699219
z: -0.006548694800585508
","x: 175.0331268310547
y: 318.2799377441406
z: -0.006758702918887138
","x: 173.7184600830078
y: 320.16033935546875
z: -0.0067427270114421844
",,,,,,,,,,,,,,,,,,,,,
23,"x: 201.32199096679688
y: 209.48565673828125
z: -0.0915963277220726
visibility: 0.9996396899223328
","x: 203.99794006347656
y: 202.6136474609375
z: -0.10064879804849625
visibility: 0.9990794062614441
","x: 205.24346923828125
y: 202.3603973388672
z: -0.10072614997625351
visibility: 0.9990934729576111
","x: 206.63621520996094
y: 201.97940063476562
z: -0.10073979198932648
visibility: 0.999157190322876
","x: 202.08053588867188
y: 202.4976806640625
z: -0.07580031454563141
visibility: 0.9987223148345947
","x: 201.8712921142578
y: 202.25083923339844
z: -0.07575245946645737
visibility: 0.9985220432281494
","x: 201.69601440429688
y: 201.88876342773438
z: -0.07578045129776001
visibility: 0.9983816742897034
","x: 213.08079528808594
y: 202.36634826660156
z: -0.10577775537967682
visibility: 0.999047040939331
","x: 207.35191345214844
y: 202.02696228027344
z: 0.01179409958422184
visibility: 0.9962267875671387
","x: 205.3124237060547
y: 216.6411590576172
z: -0.09029773622751236
visibility: 0.9995635747909546
","x: 202.98193359375
y: 216.87318420410156
z: -0.056768160313367844
visibility: 0.9990174770355225
","x: 229.7136688232422
y: 239.6339111328125
z: -0.1348131000995636
visibility: 0.9998380541801453
","x: 209.4122772216797
y: 247.8065185546875
z: 0.09987746924161911
visibility: 0.9993597269058228
","x: 220.83493041992188
y: 285.57623291015625
z: -0.19755002856254578
visibility: 0.9669622182846069
","x: 205.68939208984375
y: 300.3014831542969
z: 0.1586906462907791
visibility: 0.6721326112747192
","x: 189.8094024658203
y: 295.3534851074219
z: -0.2422454059123993
visibility: 0.940817654132843
","x: 193.5721893310547
y: 331.05523681640625
z: 0.07433594763278961
visibility: 0.7163107991218567
","x: 181.46063232421875
y: 301.0616455078125
z: -0.27934563159942627
visibility: 0.8983418345451355
","x: 187.82102966308594
y: 340.23712158203125
z: 0.05723193287849426
visibility: 0.6926299333572388
","x: 180.3850555419922
y: 298.5085754394531
z: -0.2768094539642334
visibility: 0.8996845483779907
","x: 186.07366943359375
y: 336.0269470214844
z: 0.02497553452849388
visibility: 0.695878803730011
","x: 182.9674835205078
y: 296.88067626953125
z: -0.24228744208812714
visibility: 0.8755283951759338
","x: 189.1344757080078
y: 332.016845703125
z: 0.056504517793655396
visibility: 0.6766471266746521
","x: 227.47032165527344
y: 354.9268798828125
z: -0.046445898711681366
visibility: 0.9995936155319214
","x: 207.3113250732422
y: 352.6446838378906
z: 0.04652506858110428
visibility: 0.9995816349983215
","x: 232.92800903320312
y: 430.4398193359375
z: -0.07241588830947876
visibility: 0.9934697151184082
","x: 190.0403289794922
y: 418.9456481933594
z: -0.06625117361545563
visibility: 0.9943474531173706
","x: 234.71188354492188
y: 503.7533264160156
z: 0.07193800806999207
visibility: 0.9920021891593933
","x: 187.1280517578125
y: 495.342041015625
z: 0.04927010089159012
visibility: 0.9933777451515198
","x: 233.78921508789062
y: 515.05419921875
z: 0.07883448898792267
visibility: 0.9175833463668823
","x: 192.3131866455078
y: 504.918701171875
z: 0.05461597442626953
visibility: 0.9174831509590149
","x: 234.54620361328125
y: 529.1332397460938
z: -0.03916531428694725
visibility: 0.9894877076148987
","x: 176.28916931152344
y: 520.92333984375
z: -0.03711339086294174
visibility: 0.9905393719673157
","x: 185.9288330078125
y: 300.31671142578125
z: 0.0
","x: 181.96966552734375
y: 294.4388122558594
z: -0.0018511709058657289
","x: 177.2955780029297
y: 291.9443054199219
z: -0.0031263430137187243
","x: 173.31961059570312
y: 291.8655700683594
z: -0.0038205585442483425
","x: 170.39852905273438
y: 293.01092529296875
z: -0.004404537379741669
","x: 176.04440307617188
y: 300.26739501953125
z: -0.005906422156840563
","x: 170.789794921875
y: 302.9650573730469
z: -0.0073542725294828415
","x: 167.98553466796875
y: 304.8080749511719
z: -0.007301499135792255
","x: 165.9627685546875
y: 306.5733642578125
z: -0.0070760236121714115
","x: 177.05462646484375
y: 305.75909423828125
z: -0.0057023572735488415
","x: 172.00439453125
y: 309.9947814941406
z: -0.007042629644274712
","x: 169.22023010253906
y: 312.5831604003906
z: -0.00655692582949996
","x: 167.29615783691406
y: 314.76312255859375
z: -0.006275927647948265
","x: 178.2795867919922
y: 309.77001953125
z: -0.00527561130002141
","x: 174.1668701171875
y: 314.3085021972656
z: -0.006873925216495991
","x: 171.76327514648438
y: 316.9345397949219
z: -0.006838412489742041
","x: 170.07826232910156
y: 319.0646057128906
z: -0.006797042675316334
","x: 179.62445068359375
y: 312.4834899902344
z: -0.004920348525047302
","x: 176.75588989257812
y: 316.0732116699219
z: -0.006548694800585508
","x: 175.0331268310547
y: 318.2799377441406
z: -0.006758702918887138
","x: 173.7184600830078
y: 320.16033935546875
z: -0.0067427270114421844
",,,,,,,,,,,,,,,,,,,,,
24,"x: 196.1339111328125
y: 209.47975158691406
z: -0.16162168979644775
visibility: 0.9996644258499146
","x: 199.64488220214844
y: 202.42617797851562
z: -0.16024412214756012
visibility: 0.9991415143013
","x: 201.0669403076172
y: 202.1754608154297
z: -0.16030900180339813
visibility: 0.9991589784622192
","x: 202.6613311767578
y: 201.8260955810547
z: -0.16033890843391418
visibility: 0.9992191195487976
","x: 196.9474639892578
y: 202.36544799804688
z: -0.14398343861103058
visibility: 0.9988118410110474
","x: 196.50973510742188
y: 202.14585876464844
z: -0.1439453512430191
visibility: 0.9986168146133423
","x: 196.12460327148438
y: 201.8278350830078
z: -0.14396032691001892
visibility: 0.9984838962554932
","x: 208.21823120117188
y: 202.5867919921875
z: -0.11155523359775543
visibility: 0.9991269111633301
","x: 200.26820373535156
y: 202.29879760742188
z: -0.0319802388548851
visibility: 0.9964786767959595
","x: 200.0965118408203
y: 216.6375732421875
z: -0.14132048189640045
visibility: 0.9995960593223572
","x: 196.70188903808594
y: 216.82806396484375
z: -0.11848367750644684
visibility: 0.9990823864936829
","x: 224.3466796875
