uscmakers/ReverseChoreography/data/9_get_up_ciara.csv
,NOSE,LEFT_EYE_INNER,LEFT_EYE,LEFT_EYE_OUTER,RIGHT_EYE_INNER,RIGHT_EYE,RIGHT_EYE_OUTER,LEFT_EAR,RIGHT_EAR,MOUTH_LEFT,MOUTH_RIGHT,LEFT_SHOULDER,RIGHT_SHOULDER,LEFT_ELBOW,RIGHT_ELBOW,LEFT_WRIST,RIGHT_WRIST,LEFT_PINKY,RIGHT_PINKY,LEFT_INDEX,RIGHT_INDEX,LEFT_THUMB,RIGHT_THUMB,LEFT_HIP,RIGHT_HIP,LEFT_KNEE,RIGHT_KNEE,LEFT_ANKLE,RIGHT_ANKLE,LEFT_HEEL,RIGHT_HEEL,LEFT_FOOT_INDEX,RIGHT_FOOT_INDEX,WRIST2,THUMB_CPC2,THUMB_MCP2,THUMB_IP2,THUMB_TIP2,INDEX_FINGER_MCP2,INDEX_FINGER_PIP2,INDEX_FINGER_DIP2,INDEX_FINGER_TIP2,MIDDLE_FINGER_MCP2,MIDDLE_FINGER_PIP2,MIDDLE_FINGER_DIP2,MIDDLE_FINGER_TIP2,RING_FINGER_PIP2,RING_FINGER_DIP2,RING_FINGER_TIP2,RING_FINGER_MCP2,PINKY_MCP2,PINKY_PIP2,PINKY_DIP2,PINKY_TIP2,WRIST,THUMB_CPC,THUMB_MCP,THUMB_IP,THUMB_TIP,INDEX_FINGER_MCP,INDEX_FINGER_PIP,INDEX_FINGER_DIP,INDEX_FINGER_TIP,MIDDLE_FINGER_MCP,MIDDLE_FINGER_PIP,MIDDLE_FINGER_DIP,MIDDLE_FINGER_TIP,RING_FINGER_PIP,RING_FINGER_DIP,RING_FINGER_TIP,RING_FINGER_MCP,PINKY_MCP,PINKY_PIP,PINKY_DIP,PINKY_TIP
0,"x: 321.210205078125
y: 211.49192810058594
z: -0.29122811555862427
visibility: 0.9998397827148438
","x: 323.69049072265625
y: 204.59510803222656
z: -0.2797456681728363
visibility: 0.9993045330047607
","x: 325.25042724609375
y: 204.5700225830078
z: -0.2797488272190094
visibility: 0.9993267059326172
","x: 326.827392578125
y: 204.66574096679688
z: -0.2797480523586273
visibility: 0.9992920160293579
","x: 319.4569396972656
y: 205.01345825195312
z: -0.27722910046577454
visibility: 0.9993759989738464
","x: 318.1678466796875
y: 205.19805908203125
z: -0.2772611677646637
visibility: 0.9993715882301331
","x: 316.9886474609375
y: 205.40269470214844
z: -0.2773016095161438
visibility: 0.9993832111358643
","x: 329.41015625
y: 208.3779754638672
z: -0.1831585019826889
visibility: 0.9986069798469543
","x: 315.9154357910156
y: 208.10401916503906
z: -0.17032484710216522
visibility: 0.9983868598937988
","x: 324.3443908691406
y: 218.7220916748047
z: -0.2528652846813202
visibility: 0.9995597004890442
","x: 319.3681945800781
y: 219.53976440429688
z: -0.24935102462768555
visibility: 0.9994986057281494
","x: 342.9232177734375
y: 256.59075927734375
z: -0.10194377601146698
visibility: 0.9996331930160522
","x: 303.918701171875
y: 253.80047607421875
z: -0.07985520362854004
visibility: 0.9997573494911194
","x: 345.3883056640625
y: 306.74310302734375
z: -0.03960942104458809
visibility: 0.941430926322937
","x: 299.43463134765625
y: 302.49896240234375
z: -0.041814420372247696
visibility: 0.9035155773162842
","x: 346.3804626464844
y: 338.7012939453125
z: -0.11097592115402222
visibility: 0.8477117419242859
","x: 300.3133850097656
y: 332.67889404296875
z: -0.1420525163412094
visibility: 0.8306708931922913
","x: 348.433349609375
y: 353.5525817871094
z: -0.13109049201011658
visibility: 0.7693000435829163
","x: 299.1006774902344
y: 345.4117126464844
z: -0.17013892531394958
visibility: 0.7460660934448242
","x: 348.40594482421875
y: 354.3274230957031
z: -0.165093332529068
visibility: 0.7831845283508301
","x: 300.91802978515625
y: 343.4328918457031
z: -0.1977088749408722
visibility: 0.7580482363700867
","x: 346.1337890625
y: 347.92071533203125
z: -0.12573018670082092
visibility: 0.7506400346755981
","x: 302.2200927734375
y: 339.5509033203125
z: -0.15570835769176483
visibility: 0.7353248000144958
","x: 332.8852233886719
y: 358.451171875
z: -0.010895732790231705
visibility: 0.9987645149230957
","x: 309.85711669921875
y: 358.20538330078125
z: 0.010850752703845501
visibility: 0.9995254278182983
","x: 335.7058410644531
y: 437.9819030761719
z: 0.013458536937832832
visibility: 0.9963510036468506
","x: 298.71820068359375
y: 433.42144775390625
z: -0.003041668329387903
visibility: 0.9979680180549622
","x: 336.464599609375
y: 505.2413330078125
z: 0.17814520001411438
visibility: 0.9962785840034485
","x: 297.3321228027344
y: 505.06634521484375
z: 0.12930068373680115
visibility: 0.998050332069397
","x: 334.4501647949219
y: 513.7447509765625
z: 0.18611665070056915
visibility: 0.8936363458633423
","x: 301.72894287109375
y: 516.3594970703125
z: 0.13417626917362213
visibility: 0.9599132537841797
","x: 335.1737976074219
y: 527.3211059570312
z: 0.058145590126514435
visibility: 0.9927934408187866
","x: 284.8125305175781
y: 527.78369140625
z: 0.012215661816298962
visibility: 0.996117353439331
",,,,,,,,,,,,,,,,,,,,,,,,,,,,,,,,,,,,,,,,,,
1,"x: 318.9023742675781
y: 210.2860870361328
z: -0.3944235146045685
visibility: 0.9998522996902466
","x: 321.9051513671875
y: 203.80877685546875
z: -0.380087286233902
visibility: 0.9993570446968079
","x: 323.6518859863281
y: 204.27886962890625
z: -0.38009530305862427
visibility: 0.9993779063224792
","x: 325.3249816894531
y: 204.6326446533203
z: -0.3801437020301819
visibility: 0.9993475079536438
","x: 317.42962646484375
y: 202.61746215820312
z: -0.37831777334213257
visibility: 0.9994202256202698
","x: 316.09405517578125
y: 202.41162109375
z: -0.3783589005470276
visibility: 0.9994145035743713
","x: 314.7726745605469
y: 202.27679443359375
z: -0.37838536500930786
visibility: 0.999423623085022
","x: 327.4608459472656
y: 208.4385986328125
z: -0.2747264504432678
visibility: 0.9987173676490784
","x: 313.2117919921875
y: 205.41444396972656
z: -0.26528191566467285
visibility: 0.9984878301620483
","x: 321.44329833984375
y: 218.43431091308594
z: -0.3535275161266327
visibility: 0.9995975494384766
","x: 316.13323974609375
y: 217.54275512695312
z: -0.3510904014110565
visibility: 0.9995406270027161
","x: 337.9368896484375
y: 258.4142761230469
z: -0.19407197833061218
visibility: 0.9996643662452698
","x: 297.1404113769531
y: 253.67453002929688
z: -0.1570429652929306
visibility: 0.9997709393501282
","x: 344.3690185546875
y: 312.254150390625
z: -0.1515185385942459
visibility: 0.946135938167572
","x: 290.9756164550781
y: 304.9722900390625
z: -0.09701010584831238
visibility: 0.903066873550415
","x: 349.8822326660156
y: 353.85076904296875
z: -0.23153474926948547
visibility: 0.8573768734931946
","x: 285.45263671875
y: 348.5506896972656
z: -0.17625872790813446
visibility: 0.8296476006507874
","x: 352.59515380859375
y: 367.7314758300781
z: -0.25619253516197205
visibility: 0.7815468311309814
","x: 283.232177734375
y: 363.859619140625
z: -0.20181377232074738
visibility: 0.7442801594734192
","x: 351.9762878417969
y: 368.19158935546875
z: -0.2913053631782532
visibility: 0.7948512434959412
","x: 284.0621643066406
y: 363.8913269042969
z: -0.2392311841249466
visibility: 0.7570967674255371
","x: 350.58795166015625
y: 363.3338623046875
z: -0.2467193305492401
visibility: 0.7633229494094849
","x: 286.0075378417969
y: 359.268310546875
z: -0.19344544410705566
visibility: 0.7347246408462524
","x: 328.2610168457031
y: 358.5076599121094
z: -0.01172764040529728
visibility: 0.9988527894020081
","x: 304.6312561035156
y: 358.2432861328125
z: 0.011673221364617348
visibility: 0.9995536208152771
","x: 333.1973571777344
y: 438.10675048828125
z: -0.011602749116718769
visibility: 0.9964447617530823
","x: 296.2857971191406
y: 433.31866455078125
z: -0.03364863246679306
visibility: 0.997966468334198
","x: 335.8874206542969
y: 505.1851806640625
z: 0.17915362119674683
visibility: 0.9964362978935242
","x: 297.2855529785156
y: 505.44012451171875
z: 0.13206836581230164
visibility: 0.9981018900871277
","x: 334.457763671875
y: 513.669921875
z: 0.1886283904314041
visibility: 0.8917078375816345
","x: 301.7124328613281
y: 516.3643798828125
z: 0.13932083547115326
visibility: 0.9610993266105652
","x: 334.3894958496094
y: 527.967041015625
z: 0.05445706099271774
visibility: 0.9930261373519897
","x: 284.8257751464844
y: 528.6217651367188
z: 0.01181822456419468
visibility: 0.9962565302848816
",,,,,,,,,,,,,,,,,,,,,,,,,,,,,,,,,,,,,,,,,,
2,"x: 314.97705078125
y: 211.1636505126953
z: -0.35775771737098694
visibility: 0.9998667240142822
","x: 318.21051025390625
y: 204.85696411132812
z: -0.34448114037513733
visibility: 0.9994192123413086
","x: 319.93768310546875
y: 205.5694580078125
z: -0.3444976210594177
visibility: 0.9994382262229919
","x: 321.56671142578125
y: 206.22117614746094
z: -0.3445182144641876
visibility: 0.9994106292724609
","x: 313.8259582519531
y: 202.94155883789062
z: -0.34390634298324585
visibility: 0.9994760155677795
","x: 312.5006408691406
y: 202.4564208984375
z: -0.3439365327358246
visibility: 0.9994707107543945
","x: 311.05712890625
y: 202.46385192871094
z: -0.34394213557243347
visibility: 0.999478280544281
","x: 323.15948486328125
y: 209.91644287109375
z: -0.24526970088481903
visibility: 0.9988425970077515
","x: 308.92510986328125
y: 205.53292846679688
z: -0.24221555888652802
visibility: 0.9986319541931152
","x: 316.8193664550781
y: 219.17047119140625
z: -0.31907862424850464
visibility: 0.999636709690094
","x: 311.97991943359375
y: 217.72337341308594
z: -0.3183566927909851
visibility: 0.9995852112770081
","x: 331.94964599609375
y: 259.2642517089844
z: -0.1768873929977417
visibility: 0.9996963739395142
","x: 290.9577941894531
y: 253.71031188964844
z: -0.13787499070167542
visibility: 0.9997913241386414
","x: 342.3930969238281
y: 312.0982666015625
z: -0.15754090249538422
visibility: 0.9512239694595337
","x: 280.5691223144531
y: 305.1329345703125
z: -0.0842343419790268
visibility: 0.9090421199798584
","x: 354.97119140625
y: 350.29364013671875
z: -0.27160757780075073
visibility: 0.870847761631012
","x: 270.79119873046875
y: 345.18731689453125
z: -0.1688520461320877
visibility: 0.8436907529830933
","x: 358.8858947753906
y: 364.3021240234375
z: -0.3003399968147278
visibility: 0.8013910055160522
","x: 266.5447692871094
y: 359.03302001953125
z: -0.19378674030303955
visibility: 0.7639327645301819
","x: 358.73577880859375
y: 364.9710693359375
z: -0.33739709854125977
visibility: 0.8136340379714966
","x: 266.77301025390625
y: 357.9850769042969
z: -0.2323528230190277
visibility: 0.7763506770133972
","x: 357.4878845214844
y: 359.4737548828125
z: -0.2889614999294281
visibility: 0.7848431468009949
","x: 269.00457763671875
y: 353.757080078125
z: -0.18701045215129852
visibility: 0.75578773021698
","x: 321.2061767578125
y: 358.91888427734375
z: -0.015698306262493134
visibility: 0.9989246129989624
","x: 299.02899169921875
y: 358.8172912597656
z: 0.015662426128983498
visibility: 0.9995877742767334
","x: 329.33746337890625
y: 438.28692626953125
z: 0.025994230061769485
visibility: 0.9965308308601379
","x: 293.6716003417969
y: 433.5514831542969
z: -0.02618178352713585
visibility: 0.9979960918426514
","x: 335.24078369140625
y: 503.71075439453125
z: 0.19184380769729614
visibility: 0.9965547323226929
","x: 297.2083435058594
y: 506.78271484375
z: 0.10462029278278351
visibility: 0.9981647729873657
","x: 334.4422302246094
y: 511.62847900390625
z: 0.1994917243719101
visibility: 0.8920354247093201
","x: 301.7957458496094
y: 516.6619262695312
z: 0.10781334340572357
visibility: 0.9627765417098999
","x: 333.9141540527344
y: 527.9826049804688
z: 0.07422824203968048
visibility: 0.9932470321655273
","x: 284.36932373046875
y: 529.142578125
z: -0.011539590544998646
visibility: 0.9963820576667786
",,,,,,,,,,,,,,,,,,,,,,,,,,,,,,,,,,,,,,,,,,
3,"x: 311.84515380859375
y: 215.46560668945312
z: -0.36326009035110474
visibility: 0.9998791813850403
","x: 314.7550964355469
y: 208.6158905029297
z: -0.3512379229068756
visibility: 0.9994727373123169
","x: 316.3670654296875
y: 209.26333618164062
z: -0.35124364495277405
visibility: 0.9994902014732361
","x: 317.866455078125
y: 209.80078125
z: -0.3512766659259796
visibility: 0.9994649887084961
","x: 310.4845275878906
y: 206.38116455078125
z: -0.3513401448726654
visibility: 0.9995242357254028
","x: 309.132080078125
y: 205.5667724609375
z: -0.3513851761817932
visibility: 0.9995190501213074
","x: 307.70477294921875
y: 205.04031372070312
z: -0.3513944149017334
visibility: 0.9995249509811401
","x: 319.35601806640625
y: 212.07093811035156
z: -0.25151774287223816
visibility: 0.9989516735076904
","x: 305.4875183105469
y: 206.88906860351562
z: -0.2511206567287445
visibility: 0.9987568855285645
","x: 313.58056640625
y: 222.11874389648438
z: -0.32345300912857056
visibility: 0.9996708035469055
","x: 308.8184814453125
y: 220.73622131347656
z: -0.3235750198364258
visibility: 0.9996241927146912
","x: 329.16058349609375
y: 259.7998352050781
z: -0.1736508309841156
visibility: 0.9997239112854004
","x: 287.75531005859375
y: 254.87535095214844
z: -0.14752225577831268
visibility: 0.9998099207878113
","x: 338.4855651855469
y: 315.2502136230469
z: -0.13350048661231995
visibility: 0.9556095600128174
","x: 277.6210632324219
y: 309.1319885253906
z: -0.09275155514478683
visibility: 0.9152692556381226
","x: 353.0802001953125
y: 354.7970275878906
z: -0.22194990515708923
visibility: 0.8822019696235657
","x: 267.3056335449219
y: 349.6117858886719
z: -0.17052526772022247
visibility: 0.8561037182807922
","x: 356.33209228515625
y: 367.9198913574219
z: -0.24549086391925812
visibility: 0.8174183368682861
","x: 263.42559814453125
y: 363.18621826171875
z: -0.19347208738327026
visibility: 0.7811737656593323
","x: 356.1710510253906
y: 367.8792724609375
z: -0.2832340598106384
visibility: 0.8289199471473694
","x: 264.46636962890625
y: 361.7584228515625
z: -0.2330566942691803
visibility: 0.7932316064834595
","x: 354.6480712890625
y: 363.33355712890625
z: -0.23895923793315887
visibility: 0.8024473190307617
","x: 266.36944580078125
y: 357.6585388183594
z: -0.18895994126796722
visibility: 0.7742018103599548
","x: 317.9159240722656
y: 359.7547912597656
z: -0.015279268845915794
visibility: 0.9989738464355469
","x: 295.2354736328125
y: 360.18353271484375
z: 0.015240343287587166
visibility: 0.999611496925354
","x: 326.63446044921875
y: 436.59979248046875
z: 0.012747526168823242
visibility: 0.996679961681366
","x: 292.9158020019531
y: 434.88140869140625
z: -0.016977792605757713
visibility: 0.998020589351654
","x: 334.66729736328125
y: 503.05841064453125
z: 0.14367839694023132
visibility: 0.9966956973075867
","x: 297.13739013671875
y: 507.5797119140625
z: 0.10771411657333374
visibility: 0.9982141256332397
","x: 333.8677673339844
y: 511.19610595703125
z: 0.14835266768932343
visibility: 0.896002471446991
","x: 301.8066711425781
y: 517.5360107421875
z: 0.11019273847341537
visibility: 0.9640234112739563
","x: 334.12774658203125
y: 527.6525268554688
z: 0.027057427912950516
visibility: 0.9935054779052734
","x: 284.37017822265625
y: 529.123779296875
z: -0.008732867427170277
visibility: 0.9964677095413208
",,,,,,,,,,,,,,,,,,,,,,,,,,,,,,,,,,,,,,,,,,
4,"x: 309.6963195800781
y: 215.06622314453125
z: -0.372849702835083
visibility: 0.9998874664306641
","x: 312.5818176269531
y: 208.28477478027344
z: -0.35947373509407043
visibility: 0.9995104074478149
","x: 314.2013244628906
y: 208.9365234375
z: -0.3594871163368225
visibility: 0.9995256662368774
","x: 315.6910705566406
y: 209.55111694335938
z: -0.35953617095947266
visibility: 0.9995023012161255
","x: 308.1028137207031
y: 206.3179931640625
z: -0.3596748113632202
visibility: 0.999559760093689
","x: 306.6697082519531
y: 205.5469970703125
z: -0.35972797870635986
visibility: 0.9995535016059875
","x: 305.2388610839844
y: 204.9912109375
z: -0.35975345969200134
visibility: 0.9995582103729248
","x: 317.17706298828125
y: 212.17123413085938
z: -0.25603625178337097
visibility: 0.9990264773368835
","x: 303.10986328125
y: 206.89291381835938
z: -0.25623422861099243
visibility: 0.9988520741462708
","x: 311.7438659667969
y: 222.0449981689453
z: -0.33218687772750854
visibility: 0.999693751335144
","x: 306.4189758300781
y: 220.6796417236328
z: -0.3325289785861969
visibility: 0.9996531009674072
","x: 326.4763488769531
y: 259.86395263671875
z: -0.174093097448349
visibility: 0.9997237324714661
","x: 285.94073486328125
y: 254.92816162109375
z: -0.15618811547756195
visibility: 0.9998228549957275
","x: 332.8816833496094
y: 315.8289489746094
z: -0.13029710948467255
visibility: 0.9560890197753906
","x: 278.6070556640625
y: 308.546875
z: -0.10480477660894394
visibility: 0.9169189929962158
","x: 341.9830322265625
y: 356.8258972167969
z: -0.20458273589611053
visibility: 0.8745496869087219
","x: 272.5119934082031
y: 348.7435302734375
z: -0.18032203614711761
visibility: 0.8576602339744568
","x: 345.47796630859375
y: 371.3396911621094
z: -0.22621047496795654
visibility: 0.804694652557373
","x: 269.762939453125
y: 363.21044921875
z: -0.20282292366027832
visibility: 0.7827068567276001
","x: 344.9457092285156
y: 372.05987548828125
z: -0.261429101228714
visibility: 0.8168877959251404
","x: 270.7398986816406
y: 361.7596740722656
z: -0.24035923182964325
visibility: 0.7954456806182861
","x: 343.5035400390625
y: 367.368408203125
z: -0.22037382423877716
visibility: 0.7910468578338623
","x: 272.84161376953125
y: 357.3001403808594
z: -0.1975650042295456
visibility: 0.7772524952888489
","x: 317.9375915527344
y: 359.7424011230469
z: -0.011012127622961998
visibility: 0.9989777207374573
","x: 294.60302734375
y: 360.1284484863281
z: 0.010970035567879677
visibility: 0.9996214509010315
","x: 326.1019287109375
y: 433.8589782714844
z: 0.01014277059584856
visibility: 0.9967401027679443
","x: 293.0799560546875
y: 436.377685546875
z: -0.008465493097901344
visibility: 0.9979920983314514
","x: 333.5357360839844
y: 503.1210632324219
z: 0.14191587269306183
visibility: 0.9968053698539734
","x: 297.1440734863281
y: 507.99542236328125
z: 0.11131636798381805
visibility: 0.9982394576072693
","x: 331.63861083984375
y: 511.2625427246094
z: 0.1464979350566864
visibility: 0.8998950123786926
","x: 301.80902099609375
y: 518.044189453125
z: 0.11570696532726288
visibility: 0.9645702242851257
","x: 335.6375427246094
y: 527.519775390625
z: 0.02121312916278839
visibility: 0.9936907887458801
","x: 284.6082763671875
y: 529.1136474609375
z: -0.004859537817537785
visibility: 0.9964887499809265
",,,,,,,,,,,,,,,,,,,,,,,,,,,,,,,,,,,,,,,,,,
5,"x: 310.0382080078125
y: 214.84275817871094
z: -0.2980363965034485
visibility: 0.999897301197052
","x: 312.9869689941406
y: 208.163818359375
z: -0.2831166684627533
visibility: 0.9995542764663696
","x: 314.4772644042969
y: 208.7071990966797
z: -0.2831602692604065
visibility: 0.9995676875114441
","x: 315.75146484375
y: 209.25596618652344
z: -0.2832081913948059
visibility: 0.9995465278625488
","x: 308.2691955566406
y: 206.0324249267578
z: -0.2846442461013794
visibility: 0.9995982646942139
","x: 306.5853271484375
y: 205.2177734375
z: -0.28465044498443604
visibility: 0.9995909929275513
","x: 304.997314453125
y: 204.6465301513672
z: -0.28465473651885986
visibility: 0.9995931386947632
","x: 317.03387451171875
y: 212.03228759765625
z: -0.18035171926021576
visibility: 0.9991163015365601
","x: 302.1700439453125
y: 206.61257934570312
z: -0.18938104808330536
visibility: 0.9989492893218994
","x: 312.14453125
y: 221.91091918945312
z: -0.2584642767906189
visibility: 0.9997217059135437
","x: 306.2397766113281
y: 220.4128875732422
z: -0.26121029257774353
visibility: 0.9996839165687561
","x: 325.8719482421875
y: 259.80157470703125
z: -0.11380361020565033
visibility: 0.9997475147247314
","x: 285.55645751953125
y: 254.66421508789062
z: -0.10766403377056122
visibility: 0.9998321533203125
","x: 335.3152770996094
y: 312.59991455078125
z: -0.08847902715206146
visibility: 0.9589073061943054
","x: 278.48492431640625
y: 307.3380432128906
z: -0.09143741428852081
visibility: 0.9118734002113342
","x: 346.0390625
y: 349.0054016113281
z: -0.19178840517997742
visibility: 0.884566068649292
","x: 272.9454345703125
y: 347.2405700683594
z: -0.2082841694355011
visibility: 0.859501302242279
","x: 351.955078125
y: 363.7857666015625
z: -0.2128828763961792
visibility: 0.8195931911468506
","x: 270.18804931640625
y: 362.5372314453125
z: -0.23386964201927185
visibility: 0.7880243062973022
","x: 351.80706787109375
y: 361.8255920410156
z: -0.24766817688941956
visibility: 0.831130862236023
","x: 271.38861083984375
y: 359.49713134765625
z: -0.26859304308891296
visibility: 0.8011250495910645
","x: 349.5899963378906
y: 355.9622802734375
z: -0.20671048760414124
visibility: 0.8069773316383362
","x: 273.8628234863281
y: 353.5946960449219
z: -0.22557151317596436
visibility: 0.7833670973777771
","x: 318.0699462890625
y: 360.497314453125
z: -0.004631491843611002
visibility: 0.9990578293800354
","x: 295.18218994140625
y: 361.62335205078125
z: 0.004629550501704216
visibility: 0.9996365904808044
","x: 324.4840087890625
y: 434.0328674316406
z: -0.06743167340755463
visibility: 0.9967527389526367
","x: 293.5688171386719
y: 437.63507080078125
z: 0.007790345698595047
visibility: 0.9976364374160767
","x: 321.2804870605469
y: 503.26312255859375
z: 0.04783814772963524
visibility: 0.9966619610786438
","x: 297.448974609375
y: 507.9278869628906
z: 0.14694951474666595
visibility: 0.9980229735374451
","x: 317.270751953125
y: 512.07666015625
z: 0.05132567882537842
visibility: 0.9038712978363037
","x: 301.86602783203125
y: 517.9586181640625
z: 0.15183348953723907
visibility: 0.9634594917297363
","x: 324.0477600097656
y: 527.276611328125
z: -0.06964263319969177
visibility: 0.9936546683311462
","x: 284.78076171875
y: 529.0016479492188
z: 0.03758776932954788
visibility: 0.9962339997291565
",,,,,,,,,,,,,,,,,,,,,,,,,,,,,,,,,,,,,,,,,,
6,"x: 310.4554443359375
y: 212.14688110351562
z: -0.3100503385066986
visibility: 0.9999033212661743
","x: 313.39410400390625
y: 205.82156372070312
z: -0.29614630341529846
visibility: 0.9995810985565186
","x: 314.8795471191406
y: 206.4346923828125
z: -0.2961769700050354
visibility: 0.9995917677879333
","x: 316.2685852050781
y: 207.05838012695312
z: -0.2962149381637573
visibility: 0.9995697736740112
","x: 308.726806640625
y: 204.1447296142578
z: -0.2966993749141693
visibility: 0.9996227622032166
","x: 306.97479248046875
y: 203.65597534179688
z: -0.29672157764434814
visibility: 0.9996148347854614
","x: 305.3825378417969
y: 203.35235595703125
z: -0.2967386543750763
visibility: 0.9996128678321838
","x: 317.8009948730469
y: 210.56546020507812
z: -0.19504772126674652
visibility: 0.9991639852523804
","x: 302.44512939453125
y: 206.1593017578125
z: -0.19965054094791412
visibility: 0.9990231394767761
","x: 312.80859375
y: 219.9964141845703
z: -0.2707928717136383
visibility: 0.999738335609436
","x: 306.99334716796875
y: 218.74386596679688
z: -0.27066653966903687
visibility: 0.999704897403717
","x: 326.7800598144531
y: 259.4925842285156
z: -0.12208914756774902
visibility: 0.9997576475143433
","x: 286.68829345703125
y: 254.65280151367188
z: -0.12623660266399384
visibility: 0.9998390674591064
","x: 336.4306640625
y: 309.18597412109375
z: -0.08026745170354843
visibility: 0.9570325613021851
","x: 278.4491271972656
y: 308.10845947265625
z: -0.10481361299753189
visibility: 0.9092329740524292
","x: 353.96875
y: 335.0650329589844
z: -0.17277055978775024
visibility: 0.8889943361282349
","x: 273.52191162109375
y: 348.31866455078125
z: -0.1966078281402588
visibility: 0.8564974665641785
","x: 360.811767578125
y: 342.5128173828125
z: -0.19081708788871765
visibility: 0.826494038105011
","x: 271.1180114746094
y: 363.00732421875
z: -0.2183171510696411
visibility: 0.7849655747413635
","x: 361.5497131347656
y: 339.3188781738281
z: -0.2282063513994217
visibility: 0.8383495211601257
","x: 272.5356140136719
y: 361.1778564453125
z: -0.2527332305908203
visibility: 0.798753559589386
","x: 358.6829528808594
y: 337.20196533203125
z: -0.19021166861057281
visibility: 0.8154672384262085
","x: 274.8187255859375
y: 355.45721435546875
z: -0.21301934123039246
visibility: 0.7820857763290405
","x: 319.8277587890625
y: 361.1194152832031
z: -0.0006713334005326033
visibility: 0.9990708827972412
","x: 296.83343505859375
y: 362.2816162109375
z: 0.0006432932568714023
visibility: 0.9996164441108704
","x: 322.6394958496094
y: 435.8660888671875
z: -0.03406647592782974
visibility: 0.9964067935943604
","x: 293.84381103515625
y: 438.4957580566406
z: 0.009266900829970837
visibility: 0.9972871541976929
","x: 317.41436767578125
y: 504.338623046875
z: 0.11031200736761093
visibility: 0.9963027238845825
","x: 297.4477233886719
y: 507.9940185546875
z: 0.15655046701431274
visibility: 0.9977536797523499
","x: 313.8423767089844
y: 513.53466796875
z: 0.11604322493076324
visibility: 0.905182421207428
","x: 301.62310791015625
y: 517.9459228515625
z: 0.1625557243824005
visibility: 0.9610302448272705
","x: 321.81988525390625
y: 527.3595581054688
z: -0.039647284895181656
visibility: 0.9931526184082031
","x: 285.1778564453125
y: 528.9874877929688
z: 0.05079052597284317
visibility: 0.9958814978599548
",,,,,,,,,,,,,,,,,,,,,,,,,,,,,,,,,,,,,,,,,,
7,"x: 311.38482666015625
y: 211.06422424316406
z: -0.30885058641433716
visibility: 0.9999122023582458
","x: 314.1618957519531
y: 204.6898193359375
z: -0.2920597195625305
visibility: 0.9996205568313599
","x: 315.6586608886719
y: 205.22683715820312
z: -0.2920856177806854
visibility: 0.9996297955513
","x: 317.07659912109375
y: 205.74993896484375
z: -0.2921157479286194
visibility: 0.9996097087860107
","x: 309.6333923339844
y: 203.0604248046875
z: -0.29524505138397217
visibility: 0.9996579885482788
","x: 307.97515869140625
y: 202.5645751953125
z: -0.2952721118927002
visibility: 0.9996505975723267
","x: 306.3917236328125
y: 202.21168518066406
z: -0.2952914237976074
visibility: 0.9996484518051147
","x: 318.40582275390625
y: 208.7928009033203
z: -0.18022175133228302
visibility: 0.9992425441741943
","x: 303.31781005859375
y: 205.09298706054688
z: -0.1981620043516159
visibility: 0.9991164803504944
","x: 313.6578369140625
y: 218.92446899414062
z: -0.26649150252342224
visibility: 0.9997631311416626
","x: 308.109619140625
y: 217.5650177001953
z: -0.2710133492946625
visibility: 0.9997330904006958
","x: 327.9549560546875
y: 258.70892333984375
z: -0.10168905556201935
visibility: 0.9997772574424744
","x: 288.01617431640625
y: 254.07373046875
z: -0.12584728002548218
visibility: 0.9998480081558228
","x: 336.5369567871094
y: 308.5469970703125
z: -0.06201665475964546
visibility: 0.9579735398292542
","x: 278.1624755859375
y: 306.3235168457031
z: -0.12309424579143524
visibility: 0.913581371307373
","x: 353.46435546875
y: 337.28082275390625
z: -0.17110773921012878
visibility: 0.89549320936203
","x: 274.4588928222656
y: 337.78106689453125
z: -0.25353339314460754
visibility: 0.8613793253898621
","x: 358.90667724609375
y: 345.77984619140625
z: -0.19148191809654236
visibility: 0.8361675143241882
","x: 274.6539001464844
y: 351.3796691894531
z: -0.2835155129432678
visibility: 0.7917448282241821
","x: 358.8077392578125
y: 343.7164306640625
z: -0.22889098525047302
visibility: 0.8476703763008118
","x: 278.9803161621094
y: 347.9415283203125
z: -0.31182047724723816
visibility: 0.8051409125328064
","x: 356.3895568847656
y: 340.5788879394531
z: -0.18873311579227448
visibility: 0.8258520364761353
","x: 279.0153503417969
y: 342.14984130859375
z: -0.2676740288734436
visibility: 0.7882646322250366
","x: 320.7909851074219
y: 361.0958557128906
z: 0.0012053432874381542
visibility: 0.9991397261619568
","x: 297.67236328125
y: 362.12158203125
z: -0.0012243447126820683
visibility: 0.9996280670166016
","x: 323.4363098144531
y: 435.8963317871094
z: -0.05109453201293945
visibility: 0.9964525699615479
","x: 294.0532531738281
y: 438.2814025878906
z: 0.006898948457092047
visibility: 0.9971106648445129
","x: 316.6457214355469
y: 505.3677673339844
z: 0.10423175990581512
visibility: 0.9962478280067444
","x: 297.8095703125
y: 506.9848937988281
z: 0.1572185456752777
visibility: 0.9975610971450806
","x: 313.53125
y: 514.133056640625
z: 0.11141911894083023
visibility: 0.9087553024291992
","x: 301.6167907714844
y: 516.06884765625
z: 0.16437526047229767
visibility: 0.9586751461029053
","x: 321.2101745605469
y: 527.7354736328125
z: -0.014337526634335518
visibility: 0.9931851029396057
","x: 288.9361877441406
y: 528.6815795898438
z: 0.04659724235534668
visibility: 0.9956365823745728
",,,,,,,,,,,,,,,,,,,,,,,,,,,,,,,,,,,,,,,,,,
8,"x: 311.2110290527344
y: 210.9230194091797
z: -0.26858508586883545
visibility: 0.9999131560325623
","x: 313.96356201171875
y: 204.24322509765625
z: -0.2541036009788513
visibility: 0.9996357560157776
","x: 315.5260009765625
y: 204.6636962890625
z: -0.2541433274745941
visibility: 0.9996411204338074
","x: 317.01171875
y: 205.10195922851562
z: -0.2541694641113281
visibility: 0.9996200799942017
","x: 309.5166015625
y: 202.90835571289062
z: -0.25618958473205566
visibility: 0.9996663928031921
","x: 307.97052001953125
y: 202.4845733642578
z: -0.25622084736824036
visibility: 0.9996554255485535
","x: 306.4550476074219
y: 202.20437622070312
z: -0.25628167390823364
visibility: 0.9996513724327087
","x: 318.6556396484375
y: 208.16403198242188
z: -0.14712002873420715
visibility: 0.9992591738700867
","x: 303.8788146972656
y: 205.1381072998047
z: -0.1584225744009018
visibility: 0.999161422252655
","x: 313.8097229003906
y: 218.72201538085938
z: -0.22671234607696533
visibility: 0.999776303768158
","x: 308.30084228515625
y: 217.47344970703125
z: -0.22998234629631042
visibility: 0.999748706817627
","x: 328.924072265625
y: 256.7696838378906
z: -0.0650729089975357
visibility: 0.9997873306274414
","x: 288.9195861816406
y: 253.25379943847656
z: -0.09114694595336914
visibility: 0.9998494982719421
","x: 331.47113037109375
y: 307.9486389160156
z: -0.02988332509994507
visibility: 0.9450027346611023
","x: 278.9124450683594
y: 305.0244140625
z: -0.106714628636837
visibility: 0.9146016240119934
","x: 338.5630798339844
y: 338.1954345703125
z: -0.1441570222377777
visibility: 0.8837257027626038
","x: 276.0755310058594
y: 329.0964050292969
z: -0.2397793084383011
visibility: 0.8588314056396484
","x: 343.66192626953125
y: 351.3024597167969
z: -0.1681051254272461
visibility: 0.8261147737503052
","x: 275.2826843261719
y: 340.0503234863281
z: -0.27060043811798096
visibility: 0.7903203964233398
","x: 343.44317626953125
y: 344.1244812011719
z: -0.1997995376586914
visibility: 0.8382982611656189
","x: 278.6789855957031
y: 336.2098388671875
z: -0.29609036445617676
visibility: 0.80357825756073
","x: 342.2877197265625
y: 345.3710632324219
z: -0.15934470295906067
visibility: 0.8157860636711121
","x: 279.2571716308594
y: 330.70611572265625
z: -0.25332674384117126
visibility: 0.7860418558120728
","x: 321.35321044921875
y: 361.4321594238281
z: 0.008005930110812187
visibility: 0.9992138743400574
","x: 298.23223876953125
y: 362.84375
z: -0.00802977941930294
visibility: 0.9996465444564819
","x: 324.5254211425781
y: 436.03155517578125
z: -0.05573131516575813
visibility: 0.9962369203567505
","x: 296.33587646484375
y: 438.2052307128906
z: 0.016001226380467415
visibility: 0.9966087937355042
","x: 317.0875244140625
y: 505.5398254394531
z: 0.10625563561916351
visibility: 0.9958332180976868
","x: 304.6625061035156
y: 499.1269226074219
z: 0.26619523763656616
visibility: 0.9960897564888
","x: 314.15777587890625
y: 514.1859130859375
z: 0.11546529829502106
visibility: 0.9104217886924744
","x: 306.1570739746094
y: 506.7685546875
z: 0.28519853949546814
visibility: 0.947382390499115
","x: 321.5830383300781
y: 528.0449829101562
z: -0.0063364035449922085
visibility: 0.9928564429283142
","x: 302.8116455078125
y: 521.7314453125
z: 0.18226143717765808
visibility: 0.9941085577011108
",,,,,,,,,,,,,,,,,,,,,,,,,,,,,,,,,,,,,,,,,,
9,"x: 311.55712890625
y: 211.4298095703125
z: -0.2853405475616455
visibility: 0.9999198913574219
","x: 314.0596923828125
y: 204.49563598632812
z: -0.2668725252151489
visibility: 0.9996681809425354
","x: 315.52484130859375
y: 204.83694458007812
z: -0.2669496238231659
visibility: 0.9996731281280518
","x: 316.8961181640625
y: 205.19793701171875
z: -0.2669990062713623
visibility: 0.9996538162231445
","x: 309.75927734375
y: 203.2266082763672
z: -0.26788920164108276
visibility: 0.999694287776947
","x: 308.16302490234375
y: 202.72621154785156
z: -0.2678830325603485
visibility: 0.999682605266571
","x: 306.5495300292969
y: 202.39654541015625
z: -0.2678804099559784
visibility: 0.999677300453186
","x: 318.25543212890625
y: 208.198486328125
z: -0.14887920022010803
visibility: 0.9993265271186829
","x: 303.72552490234375
y: 205.1629638671875
z: -0.15186455845832825
visibility: 0.9992315769195557
","x: 313.9569396972656
y: 219.04478454589844
z: -0.2414059191942215
visibility: 0.9997966885566711
","x: 308.6112060546875
y: 218.020751953125
z: -0.24249665439128876
visibility: 0.9997702240943909
","x: 328.09619140625
y: 254.70521545410156
z: -0.0869949460029602
visibility: 0.9998056888580322
","x: 289.4801940917969
y: 254.19549560546875
z: -0.056142114102840424
visibility: 0.999849259853363
","x: 332.8905029296875
y: 302.49151611328125
z: -0.16089458763599396
visibility: 0.9486169219017029
","x: 281.4646911621094
y: 310.8485107421875
z: 0.01111882459372282
visibility: 0.9169053435325623
","x: 326.5117492675781
y: 307.7694091796875
z: -0.3912893235683441
visibility: 0.8934265971183777
","x: 274.535888671875
y: 349.6519470214844
z: -0.06601302325725555
visibility: 0.8652508854866028
","x: 322.298828125
y: 311.5665588378906
z: -0.4419638216495514
visibility: 0.8397725224494934
","x: 271.322021484375
y: 361.20892333984375
z: -0.0878107100725174
visibility: 0.7992057204246521
","x: 320.09124755859375
y: 303.0712585449219
z: -0.45316728949546814
visibility: 0.851006031036377
","x: 271.3753967285156
y: 360.34490966796875
z: -0.12342987209558487
visibility: 0.8121498823165894
","x: 321.04254150390625
y: 300.9286193847656
z: -0.4003906846046448
visibility: 0.8285542726516724
","x: 273.05218505859375
y: 356.4654235839844
z: -0.08165691792964935
visibility: 0.794211745262146
","x: 319.24664306640625
y: 358.9064025878906
z: 0.005721055902540684
visibility: 0.9992598295211792
","x: 297.84613037109375
y: 361.49969482421875
z: -0.0057236612774431705
visibility: 0.9996256828308105
","x: 318.33660888671875
y: 430.37371826171875
z: -0.03938932716846466
visibility: 0.9946509599685669
","x: 298.78912353515625
y: 438.0999755859375
z: 0.01126285269856453
visibility: 0.9947392344474792
","x: 314.3674011230469
y: 499.5544128417969
z: 0.15750618278980255
visibility: 0.9941399097442627
","x: 307.3822021484375
y: 500.1892395019531
z: 0.21975740790367126
visibility: 0.993149995803833
","x: 312.26348876953125
y: 507.84228515625
z: 0.17187032103538513
visibility: 0.9093058705329895
","x: 308.25506591796875
y: 508.5757141113281
z: 0.23344683647155762
visibility: 0.931649923324585
","x: 320.15875244140625
y: 524.6069946289062
z: 0.057739220559597015
visibility: 0.9909852743148804
","x: 307.0291748046875
y: 521.7597045898438
z: 0.12133277952671051
visibility: 0.9904119968414307
","x: 325.3412780761719
y: 302.30743408203125
z: 0.0
","x: 323.6648254394531
y: 307.0253601074219
z: -0.00012717963545583189
","x: 320.7515563964844
y: 310.205810546875
z: -0.0008699589525349438
","x: 318.1933898925781
y: 312.02435302734375
z: -0.001878455514088273
","x: 316.43914794921875
y: 313.92822265625
z: -0.0029273268301039934
","x: 317.610107421875
y: 306.9902038574219
z: -0.0015148126985877752
","x: 313.6578063964844
y: 307.85791015625
z: -0.0031040457542985678
","x: 311.480712890625
y: 308.0335693359375
z: -0.003708195872604847
","x: 309.8677062988281
y: 308.21734619140625
z: -0.004008189775049686
","x: 317.2708435058594
y: 303.2724304199219
z: -0.002883791457861662
","x: 313.04168701171875
y: 303.0444030761719
z: -0.004231947939842939
","x: 310.5756530761719
y: 302.79345703125
z: -0.004562907852232456
","x: 308.5863952636719
y: 302.794921875
z: -0.004918355494737625
","x: 317.6040954589844
y: 299.70758056640625
z: -0.004360378719866276
","x: 313.8370056152344
y: 297.9881591796875
z: -0.006128676235675812
","x: 311.3666076660156
y: 296.8344421386719
z: -0.006921244319528341
","x: 309.4312438964844
y: 296.1951599121094
z: -0.007481588516384363
","x: 318.5657958984375
y: 296.47967529296875
z: -0.005863824859261513
","x: 316.1244201660156
y: 293.8744812011719
z: -0.007456769235432148
","x: 314.6953430175781
y: 292.1014709472656
z: -0.008058832958340645
","x: 313.65594482421875
y: 290.8714599609375
z: -0.008449327200651169
",,,,,,,,,,,,,,,,,,,,,
10,"x: 311.55712890625
y: 211.4298095703125
z: -0.2853405475616455
visibility: 0.9999198913574219
","x: 314.0596923828125
y: 204.49563598632812
z: -0.2668725252151489
visibility: 0.9996681809425354
","x: 315.52484130859375
y: 204.83694458007812
z: -0.2669496238231659
visibility: 0.9996731281280518
","x: 316.8961181640625
y: 205.19793701171875
z: -0.2669990062713623
visibility: 0.9996538162231445
","x: 309.75927734375
y: 203.2266082763672
z: -0.26788920164108276
visibility: 0.999694287776947
","x: 308.16302490234375
y: 202.72621154785156
z: -0.2678830325603485
visibility: 0.999682605266571
","x: 306.5495300292969
y: 202.39654541015625
z: -0.2678804099559784
visibility: 0.999677300453186
","x: 318.25543212890625
y: 208.198486328125
z: -0.14887920022010803
visibility: 0.9993265271186829
","x: 303.72552490234375
y: 205.1629638671875
z: -0.15186455845832825
visibility: 0.9992315769195557
","x: 313.9569396972656
y: 219.04478454589844
z: -0.2414059191942215
visibility: 0.9997966885566711
","x: 308.6112060546875
y: 218.020751953125
z: -0.24249665439128876
visibility: 0.9997702240943909
","x: 328.09619140625
y: 254.70521545410156
z: -0.0869949460029602
visibility: 0.9998056888580322
","x: 289.4801940917969
y: 254.19549560546875
z: -0.056142114102840424
visibility: 0.999849259853363
","x: 332.8905029296875
y: 302.49151611328125
z: -0.16089458763599396
visibility: 0.9486169219017029
","x: 281.4646911621094
y: 310.8485107421875
z: 0.01111882459372282
visibility: 0.9169053435325623
","x: 326.5117492675781
y: 307.7694091796875
z: -0.3912893235683441
visibility: 0.8934265971183777
","x: 274.535888671875
y: 349.6519470214844
z: -0.06601302325725555
visibility: 0.8652508854866028
","x: 322.298828125
y: 311.5665588378906
z: -0.4419638216495514
visibility: 0.8397725224494934
","x: 271.322021484375
y: 361.20892333984375
z: -0.0878107100725174
visibility: 0.7992057204246521
","x: 320.09124755859375
y: 303.0712585449219
z: -0.45316728949546814
visibility: 0.851006031036377
","x: 271.3753967285156
y: 360.34490966796875
z: -0.12342987209558487
visibility: 0.8121498823165894
","x: 321.04254150390625
y: 300.9286193847656
z: -0.4003906846046448
visibility: 0.8285542726516724
","x: 273.05218505859375
y: 356.4654235839844
z: -0.08165691792964935
visibility: 0.794211745262146
","x: 319.24664306640625
y: 358.9064025878906
z: 0.005721055902540684
visibility: 0.9992598295211792
","x: 297.84613037109375
y: 361.49969482421875
z: -0.0057236612774431705
visibility: 0.9996256828308105
","x: 318.33660888671875
y: 430.37371826171875
z: -0.03938932716846466
visibility: 0.9946509599685669
","x: 298.78912353515625
y: 438.0999755859375
z: 0.01126285269856453
visibility: 0.9947392344474792
","x: 314.3674011230469
y: 499.5544128417969
z: 0.15750618278980255
visibility: 0.9941399097442627
","x: 307.3822021484375
y: 500.1892395019531
z: 0.21975740790367126
visibility: 0.993149995803833
","x: 312.26348876953125
y: 507.84228515625
z: 0.17187032103538513
visibility: 0.9093058705329895
","x: 308.25506591796875
y: 508.5757141113281
z: 0.23344683647155762
visibility: 0.931649923324585
","x: 320.15875244140625
y: 524.6069946289062
z: 0.057739220559597015
visibility: 0.9909852743148804
","x: 307.0291748046875
y: 521.7597045898438
z: 0.12133277952671051
visibility: 0.9904119968414307
","x: 325.3412780761719
y: 302.30743408203125
z: 0.0
","x: 323.6648254394531
y: 307.0253601074219
z: -0.00012717963545583189
","x: 320.7515563964844
y: 310.205810546875
z: -0.0008699589525349438
","x: 318.1933898925781
y: 312.02435302734375
z: -0.001878455514088273
","x: 316.43914794921875
y: 313.92822265625
z: -0.0029273268301039934
","x: 317.610107421875
y: 306.9902038574219
z: -0.0015148126985877752
","x: 313.6578063964844
y: 307.85791015625
z: -0.0031040457542985678
","x: 311.480712890625
y: 308.0335693359375
z: -0.003708195872604847
","x: 309.8677062988281
y: 308.21734619140625
z: -0.004008189775049686
","x: 317.2708435058594
y: 303.2724304199219
z: -0.002883791457861662
","x: 313.04168701171875
y: 303.0444030761719
z: -0.004231947939842939
","x: 310.5756530761719
y: 302.79345703125
z: -0.004562907852232456
","x: 308.5863952636719
y: 302.794921875
z: -0.004918355494737625
","x: 317.6040954589844
y: 299.70758056640625
z: -0.004360378719866276
","x: 313.8370056152344
y: 297.9881591796875
z: -0.006128676235675812
","x: 311.3666076660156
y: 296.8344421386719
z: -0.006921244319528341
","x: 309.4312438964844
y: 296.1951599121094
z: -0.007481588516384363
","x: 318.5657958984375
y: 296.47967529296875
z: -0.005863824859261513
","x: 316.1244201660156
y: 293.8744812011719
z: -0.007456769235432148
","x: 314.6953430175781
y: 292.1014709472656
z: -0.008058832958340645
","x: 313.65594482421875
y: 290.8714599609375
z: -0.008449327200651169
",,,,,,,,,,,,,,,,,,,,,
11,"x: 311.2835998535156
y: 212.1890869140625
z: -0.37948355078697205
visibility: 0.9999246001243591
","x: 313.2804870605469
y: 205.04373168945312
z: -0.3581414222717285
visibility: 0.9996801614761353
","x: 314.47760009765625
y: 205.22848510742188
z: -0.35815751552581787
visibility: 0.9996845722198486
","x: 315.61236572265625
y: 205.47579956054688
z: -0.3582608699798584
visibility: 0.9996641278266907
","x: 309.34619140625
y: 204.35064697265625
z: -0.3696519136428833
visibility: 0.9997111558914185
","x: 307.7644348144531
y: 204.06649780273438
z: -0.3696762025356293
visibility: 0.9997028708457947
","x: 306.2306823730469
y: 203.9110107421875
z: -0.3697413206100464
visibility: 0.9996954202651978
","x: 316.4181213378906
y: 208.3290252685547
z: -0.2307901382446289
visibility: 0.9993581175804138
","x: 303.2369384765625
y: 206.6256866455078
z: -0.2830514907836914
visibility: 0.9992843866348267
","x: 313.5644226074219
y: 219.46826171875
z: -0.33151933550834656
visibility: 0.9998067021369934
","x: 308.6103210449219
y: 218.9757080078125
z: -0.3466947674751282
visibility: 0.99978107213974
","x: 325.108154296875
y: 253.41714477539062
z: -0.09946776926517487
visibility: 0.9998108744621277
","x: 289.7953796386719
y: 256.402587890625
z: -0.22489158809185028
visibility: 0.9998173713684082
","x: 333.36846923828125
y: 287.41552734375
z: 0.04940382391214371
visibility: 0.9466369152069092
","x: 292.27392578125
y: 312.2877197265625
z: -0.240957573056221
visibility: 0.9226244688034058
","x: 345.59893798828125
y: 303.05029296875
z: 0.0818018689751625
visibility: 0.8923911452293396
","x: 297.1499328613281
y: 354.7442932128906
z: -0.31474924087524414
visibility: 0.8667610883712769
","x: 349.4489440917969
y: 309.37518310546875
z: 0.08800528198480606
visibility: 0.8386812806129456
","x: 297.1615295410156
y: 367.2512512207031
z: -0.3419725298881531
visibility: 0.7988430857658386
","x: 349.6937561035156
y: 307.0236511230469
z: 0.0531131736934185
visibility: 0.8512693047523499
","x: 299.5316467285156
y: 367.5477294921875
z: -0.36320024728775024
visibility: 0.8115090131759644
","x: 347.8237609863281
y: 305.608154296875
z: 0.06978701800107956
visibility: 0.8291274309158325
","x: 300.30926513671875
y: 363.47265625
z: -0.322992742061615
visibility: 0.787771999835968
","x: 316.3561096191406
y: 351.987060546875
z: 0.012154041789472103
visibility: 0.9993229508399963
","x: 296.4783630371094
y: 351.63397216796875
z: -0.012198137119412422
visibility: 0.9996203184127808
","x: 313.5299072265625
y: 417.887451171875
z: -0.21800820529460907
visibility: 0.9931929111480713
","x: 298.51422119140625
y: 428.3951110839844
z: 0.003352465108036995
visibility: 0.9884452223777771
","x: 298.5454406738281
y: 487.9000244140625
z: -0.07795721292495728
visibility: 0.9919494986534119
","x: 307.026123046875
y: 496.4244384765625
z: 0.2171180546283722
visibility: 0.987611711025238
","x: 293.9751892089844
y: 496.049072265625
z: -0.07047606259584427
visibility: 0.9049550294876099
","x: 309.4014892578125
y: 505.2369689941406
z: 0.23111248016357422
visibility: 0.9132402539253235
","x: 297.8089599609375
y: 521.8585205078125
z: -0.21582257747650146
visibility: 0.9894921183586121
","x: 306.0270080566406
y: 521.2987060546875
z: 0.10623027384281158
visibility: 0.9852001070976257
",,,,,,,,,,,,,,,,,,,,,,"x: 303.33819580078125
y: 350.70257568359375
z: 0.0
","x: 299.17718505859375
y: 356.2232971191406
z: -0.0005555268144235015
","x: 296.413818359375
y: 364.17095947265625
z: -0.0017028122674673796
","x: 295.8544006347656
y: 371.055908203125
z: -0.0037057981826364994
","x: 296.23895263671875
y: 376.66217041015625
z: -0.004848606884479523
","x: 299.5333557128906
y: 374.37030029296875
z: 0.0012891388032585382
","x: 298.04522705078125
y: 378.87322998046875
z: -0.0017864982364699244
","x: 297.6747131347656
y: 372.9327392578125
z: -0.002547858515754342
","x: 298.4268798828125
y: 369.4499206542969
z: -0.0025402409955859184
","x: 301.97735595703125
y: 374.21728515625
z: -0.0005770475254394114
","x: 300.16448974609375
y: 376.20135498046875
z: -0.0038340853061527014
","x: 299.5617370605469
y: 369.5897216796875
z: -0.003299206495285034
","x: 300.0943603515625
y: 367.2955017089844
z: -0.0021248941775411367
","x: 304.5876159667969
y: 372.7171630859375
z: -0.0031327565666288137
","x: 302.86334228515625
y: 374.3375244140625
z: -0.006477741524577141
","x: 301.93096923828125
y: 368.4048156738281
z: -0.00484562898054719
","x: 302.05352783203125
y: 366.1736755371094
z: -0.002931557595729828
","x: 307.2189636230469
y: 370.26617431640625
z: -0.006019177380949259
","x: 305.6234130859375
y: 372.07049560546875
z: -0.007696878165006638
","x: 304.4512023925781
y: 368.11578369140625
z: -0.006397453602403402
","x: 304.2526550292969
y: 366.28155517578125
z: -0.0047652930952608585
"
12,"x: 311.2835998535156
y: 212.1890869140625
z: -0.37948355078697205
visibility: 0.9999246001243591
","x: 313.2804870605469
y: 205.04373168945312
z: -0.3581414222717285
visibility: 0.9996801614761353
","x: 314.47760009765625
y: 205.22848510742188
z: -0.35815751552581787
visibility: 0.9996845722198486
","x: 315.61236572265625
y: 205.47579956054688
z: -0.3582608699798584
visibility: 0.9996641278266907
","x: 309.34619140625
y: 204.35064697265625
z: -0.3696519136428833
visibility: 0.9997111558914185
","x: 307.7644348144531
y: 204.06649780273438
z: -0.3696762025356293
visibility: 0.9997028708457947
","x: 306.2306823730469
y: 203.9110107421875
z: -0.3697413206100464
visibility: 0.9996954202651978
","x: 316.4181213378906
y: 208.3290252685547
z: -0.2307901382446289
visibility: 0.9993581175804138
","x: 303.2369384765625
y: 206.6256866455078
z: -0.2830514907836914
visibility: 0.9992843866348267
","x: 313.5644226074219
y: 219.46826171875
z: -0.33151933550834656
visibility: 0.9998067021369934
","x: 308.6103210449219
y: 218.9757080078125
z: -0.3466947674751282
visibility: 0.99978107213974
","x: 325.108154296875
y: 253.41714477539062
z: -0.09946776926517487
visibility: 0.9998108744621277
","x: 289.7953796386719
y: 256.402587890625
z: -0.22489158809185028
visibility: 0.9998173713684082
","x: 333.36846923828125
y: 287.41552734375
z: 0.04940382391214371
visibility: 0.9466369152069092
","x: 292.27392578125
y: 312.2877197265625
z: -0.240957573056221
visibility: 0.9226244688034058
","x: 345.59893798828125
y: 303.05029296875
z: 0.0818018689751625
visibility: 0.8923911452293396
","x: 297.1499328613281
y: 354.7442932128906
z: -0.31474924087524414
visibility: 0.8667610883712769
","x: 349.4489440917969
y: 309.37518310546875
z: 0.08800528198480606
visibility: 0.8386812806129456
","x: 297.1615295410156
y: 367.2512512207031
z: -0.3419725298881531
visibility: 0.7988430857658386
","x: 349.6937561035156
y: 307.0236511230469
z: 0.0531131736934185
visibility: 0.8512693047523499
","x: 299.5316467285156
y: 367.5477294921875
z: -0.36320024728775024
visibility: 0.8115090131759644
","x: 347.8237609863281
y: 305.608154296875
z: 0.06978701800107956
visibility: 0.8291274309158325
","x: 300.30926513671875
y: 363.47265625
z: -0.322992742061615
visibility: 0.787771999835968
","x: 316.3561096191406
y: 351.987060546875
z: 0.012154041789472103
visibility: 0.9993229508399963
","x: 296.4783630371094
y: 351.63397216796875
z: -0.012198137119412422
visibility: 0.9996203184127808
","x: 313.5299072265625
y: 417.887451171875
z: -0.21800820529460907
visibility: 0.9931929111480713
","x: 298.51422119140625
y: 428.3951110839844
z: 0.003352465108036995
visibility: 0.9884452223777771
","x: 298.5454406738281
y: 487.9000244140625
z: -0.07795721292495728
visibility: 0.9919494986534119
","x: 307.026123046875
y: 496.4244384765625
z: 0.2171180546283722
visibility: 0.987611711025238
","x: 293.9751892089844
y: 496.049072265625
z: -0.07047606259584427
visibility: 0.9049550294876099
","x: 309.4014892578125
y: 505.2369689941406
z: 0.23111248016357422
visibility: 0.9132402539253235
","x: 297.8089599609375
y: 521.8585205078125
z: -0.21582257747650146
visibility: 0.9894921183586121
","x: 306.0270080566406
y: 521.2987060546875
z: 0.10623027384281158
visibility: 0.9852001070976257
",,,,,,,,,,,,,,,,,,,,,,"x: 303.33819580078125
y: 350.70257568359375
z: 0.0
","x: 299.17718505859375
y: 356.2232971191406
z: -0.0005555268144235015
","x: 296.413818359375
y: 364.17095947265625
z: -0.0017028122674673796
","x: 295.8544006347656
y: 371.055908203125
z: -0.0037057981826364994
","x: 296.23895263671875
y: 376.66217041015625
z: -0.004848606884479523
","x: 299.5333557128906
y: 374.37030029296875
z: 0.0012891388032585382
","x: 298.04522705078125
y: 378.87322998046875
z: -0.0017864982364699244
","x: 297.6747131347656
y: 372.9327392578125
z: -0.002547858515754342
","x: 298.4268798828125
y: 369.4499206542969
z: -0.0025402409955859184
","x: 301.97735595703125
y: 374.21728515625
z: -0.0005770475254394114
","x: 300.16448974609375
y: 376.20135498046875
z: -0.0038340853061527014
","x: 299.5617370605469
y: 369.5897216796875
z: -0.003299206495285034
","x: 300.0943603515625
y: 367.2955017089844
z: -0.0021248941775411367
","x: 304.5876159667969
y: 372.7171630859375
z: -0.0031327565666288137
","x: 302.86334228515625
y: 374.3375244140625
z: -0.006477741524577141
","x: 301.93096923828125
y: 368.4048156738281
z: -0.00484562898054719
","x: 302.05352783203125
y: 366.1736755371094
z: -0.002931557595729828
","x: 307.2189636230469
y: 370.26617431640625
z: -0.006019177380949259
","x: 305.6234130859375
y: 372.07049560546875
z: -0.007696878165006638
","x: 304.4512023925781
y: 368.11578369140625
z: -0.006397453602403402
","x: 304.2526550292969
y: 366.28155517578125
z: -0.0047652930952608585
"
13,"x: 311.48638916015625
y: 212.06520080566406
z: -0.19466902315616608
visibility: 0.9999303221702576
","x: 313.5350646972656
y: 204.88792419433594
z: -0.17258334159851074
visibility: 0.9997098445892334
","x: 314.7130126953125
y: 205.07244873046875
z: -0.1726287305355072
visibility: 0.9997134208679199
","x: 315.8262023925781
y: 205.29055786132812
z: -0.1726650893688202
visibility: 0.9996949434280396
","x: 309.5691223144531
y: 204.12332153320312
z: -0.18118193745613098
visibility: 0.9997369647026062
","x: 307.9528503417969
y: 203.80801391601562
z: -0.18117395043373108
visibility: 0.9997283816337585
","x: 306.32623291015625
y: 203.6082763671875
z: -0.1812024861574173
visibility: 0.9997221231460571
","x: 316.1716003417969
y: 207.94686889648438
z: -0.0450662225484848
visibility: 0.9994169473648071
","x: 302.5562744140625
y: 206.3420867919922
z: -0.08460094034671783
visibility: 0.9993532299995422
","x: 313.5169677734375
y: 219.3612060546875
z: -0.14589263498783112
visibility: 0.999824047088623
","x: 308.57659912109375
y: 218.90626525878906
z: -0.15731044113636017
visibility: 0.999801516532898
","x: 321.82159423828125
y: 251.61587524414062
z: 0.030471522361040115
visibility: 0.9998236298561096
","x: 289.3466491699219
y: 251.7263946533203
z: -0.04122384637594223
visibility: 0.9998213052749634
","x: 329.4301452636719
y: 293.7228698730469
z: -0.028720661997795105
visibility: 0.9296194314956665
","x: 286.56890869140625
y: 300.1142272949219
z: -0.11316034942865372
visibility: 0.9272074699401855
","x: 342.9350891113281
y: 285.5994567871094
z: -0.24820737540721893
visibility: 0.894173800945282
","x: 305.15313720703125
y: 313.01025390625
z: -0.18788298964500427
visibility: 0.8736518025398254
","x: 349.3299560546875
y: 280.0247802734375
z: -0.29465457797050476
visibility: 0.8448795676231384
","x: 312.8645324707031
y: 315.1413879394531
z: -0.22063429653644562
visibility: 0.8067801594734192
","x: 349.3315734863281
y: 275.8172607421875
z: -0.3067489266395569
visibility: 0.8568031787872314
","x: 314.6715087890625
y: 309.5160827636719
z: -0.2160399705171585
visibility: 0.818303108215332
","x: 346.31597900390625
y: 277.54107666015625
z: -0.2607256770133972
visibility: 0.8345233201980591
","x: 313.6685791015625
y: 308.27349853515625
z: -0.18508191406726837
visibility: 0.7933731079101562
","x: 314.8401794433594
y: 352.2220458984375
z: 0.008052392862737179
visibility: 0.999372661113739
","x: 295.49560546875
y: 353.0906982421875
z: -0.008070492185652256
visibility: 0.9996248483657837
","x: 306.51739501953125
y: 425.900634765625
z: -0.1321166306734085
visibility: 0.9913973212242126
","x: 299.455810546875
y: 435.4640197753906
z: -0.01156263891607523
visibility: 0.9869161248207092
","x: 292.6650390625
y: 500.5655517578125
z: 0.05816732719540596
visibility: 0.9914412498474121
","x: 308.2425537109375
y: 496.4848327636719
z: 0.19951412081718445
visibility: 0.9859781861305237
","x: 287.69732666015625
y: 511.2249755859375
z: 0.06660851091146469
visibility: 0.9058305621147156
","x: 311.6816101074219
y: 502.5527648925781
z: 0.20985877513885498
visibility: 0.9104146361351013
","x: 296.1653747558594
y: 530.88916015625
z: -0.06373012810945511
visibility: 0.9887605905532837
","x: 305.484619140625
y: 521.7550048828125
z: 0.10211522877216339
visibility: 0.9837315678596497
",,,,,,,,,,,,,,,,,,,,,,,,,,,,,,,,,,,,,,,,,,
14,"x: 310.7598876953125
y: 210.45579528808594
z: -0.2516787648200989
visibility: 0.9999357461929321
","x: 312.69000244140625
y: 203.0702362060547
z: -0.2314111739397049
visibility: 0.999735414981842
","x: 313.7936096191406
y: 203.34353637695312
z: -0.23137608170509338
visibility: 0.999737560749054
","x: 314.8727722167969
y: 203.6112060546875
z: -0.23138770461082458
visibility: 0.999721348285675
","x: 308.8893737792969
y: 201.8120574951172
z: -0.237784743309021
visibility: 0.9997597336769104
","x: 307.2461853027344
y: 201.27645874023438
z: -0.23782892525196075
visibility: 0.9997519850730896
","x: 305.6603698730469
y: 200.85348510742188
z: -0.2378891408443451
visibility: 0.9997466206550598
","x: 315.12567138671875
y: 206.12542724609375
z: -0.10661745071411133
visibility: 0.999468207359314
","x: 301.427490234375
y: 203.56590270996094
z: -0.14005836844444275
visibility: 0.9994139075279236
","x: 312.3795471191406
y: 218.17160034179688
z: -0.20453444123268127
visibility: 0.9998393058776855
","x: 307.88970947265625
y: 217.12786865234375
z: -0.21432478725910187
visibility: 0.9998193979263306
","x: 321.4333190917969
y: 252.71768188476562
z: -0.023883605375885963
visibility: 0.9998270869255066
","x: 286.4638366699219
y: 244.1132354736328
z: -0.08885326236486435
visibility: 0.9998315572738647
","x: 328.62493896484375
y: 307.8335876464844
z: 0.012087158858776093
visibility: 0.9240145087242126
","x: 264.57562255859375
y: 233.10635375976562
z: -0.2728613615036011
visibility: 0.934156060218811
","x: 335.33599853515625
y: 347.07525634765625
z: -0.040737491101026535
visibility: 0.8909168243408203
","x: 296.63134765625
y: 247.1158447265625
z: -0.4578845500946045
visibility: 0.8837335705757141
","x: 339.1883239746094
y: 364.0821838378906
z: -0.054784975945949554
visibility: 0.8394073843955994
","x: 298.1687316894531
y: 253.3932647705078
z: -0.5030304193496704
visibility: 0.8177422881126404
","x: 338.1860656738281
y: 365.8374328613281
z: -0.08258352428674698
visibility: 0.85125333070755
","x: 300.2607116699219
y: 253.28585815429688
z: -0.4875735342502594
visibility: 0.8271211981773376
","x: 336.69952392578125
y: 360.07757568359375
z: -0.05275716632604599
visibility: 0.8276636004447937
","x: 299.8196105957031
y: 251.798828125
z: -0.4563625752925873
visibility: 0.8012955784797668
","x: 313.8000183105469
y: 353.3375244140625
z: 0.007677546236664057
visibility: 0.9994268417358398
","x: 293.4389953613281
y: 353.8710021972656
z: -0.0077033378183841705
visibility: 0.9996524453163147
","x: 307.50006103515625
y: 427.5576477050781
z: -0.08151973783969879
visibility: 0.990407407283783
","x: 295.4989929199219
y: 434.7766418457031
z: 0.004157420713454485
visibility: 0.9828963279724121
","x: 291.8612060546875
y: 505.4720458984375
z: 0.07486765086650848
visibility: 0.9906631708145142
","x: 305.9486083984375
y: 495.9362487792969
z: 0.20593670010566711
visibility: 0.9837397336959839
","x: 288.0839538574219
y: 515.609619140625
z: 0.0831700935959816
visibility: 0.9057583808898926
","x: 310.099365234375
y: 503.5362243652344
z: 0.21991005539894104
visibility: 0.9022663831710815
","x: 293.9563903808594
y: 534.0674438476562
z: -0.041540008038282394
visibility: 0.9882953763008118
","x: 302.1448669433594
y: 521.9710083007812
z: 0.11014074087142944
visibility: 0.9821673035621643
",,,,,,,,,,,,,,,,,,,,,,"x: 293.5108337402344
y: 245.08416748046875
z: 0.0
","x: 296.5124816894531
y: 245.14239501953125
z: 0.0027938957791775465
","x: 299.0186767578125
y: 248.02947998046875
z: 0.0032105445861816406
","x: 300.0638427734375
y: 251.97918701171875
z: 0.002635813085362315
","x: 300.0973205566406
y: 255.14968872070312
z: 0.0022085076197981834
","x: 301.2731018066406
y: 249.44842529296875
z: 0.001061669085174799
","x: 303.6138000488281
y: 255.2926788330078
z: -9.759776730788872e-05
","x: 303.09039306640625
y: 258.84649658203125
z: -0.0001210259142681025
","x: 302.3404541015625
y: 260.66314697265625
z: 0.0001086679840227589
","x: 300.57452392578125
y: 251.18991088867188
z: -0.0013597359647974372
","x: 302.1436462402344
y: 257.78582763671875
z: -0.002132861642166972
","x: 300.8340148925781
y: 260.2276916503906
z: -0.0013008449459448457
","x: 299.8134765625
y: 260.5421142578125
z: -0.0005820944206789136
","x: 299.2585754394531
y: 252.70162963867188
z: -0.0036830343306064606
","x: 299.531005859375
y: 258.9965515136719
z: -0.0045839701779186726
","x: 297.7509765625
y: 259.9929504394531
z: -0.003441142151132226
","x: 296.52838134765625
y: 259.1615295410156
z: -0.0024337575305253267
","x: 297.56744384765625
y: 253.91275024414062
z: -0.005955283064395189
","x: 297.0505065917969
y: 258.9643859863281
z: -0.006673278287053108
","x: 295.6410827636719
y: 259.793212890625
z: -0.005878469906747341
","x: 294.5867004394531
y: 259.0852355957031
z: -0.004963787738233805
"
15,"x: 310.7598876953125
y: 210.45579528808594
z: -0.2516787648200989
visibility: 0.9999357461929321
","x: 312.69000244140625
y: 203.0702362060547
z: -0.2314111739397049
visibility: 0.999735414981842
","x: 313.7936096191406
y: 203.34353637695312
z: -0.23137608170509338
visibility: 0.999737560749054
","x: 314.8727722167969
y: 203.6112060546875
z: -0.23138770461082458
visibility: 0.999721348285675
","x: 308.8893737792969
y: 201.8120574951172
z: -0.237784743309021
visibility: 0.9997597336769104
","x: 307.2461853027344
y: 201.27645874023438
z: -0.23782892525196075
visibility: 0.9997519850730896
","x: 305.6603698730469
y: 200.85348510742188
z: -0.2378891408443451
visibility: 0.9997466206550598
","x: 315.12567138671875
y: 206.12542724609375
z: -0.10661745071411133
visibility: 0.999468207359314
","x: 301.427490234375
y: 203.56590270996094
z: -0.14005836844444275
visibility: 0.9994139075279236
","x: 312.3795471191406
y: 218.17160034179688
z: -0.20453444123268127
visibility: 0.9998393058776855
","x: 307.88970947265625
y: 217.12786865234375
z: -0.21432478725910187
visibility: 0.9998193979263306
","x: 321.4333190917969
y: 252.71768188476562
z: -0.023883605375885963
visibility: 0.9998270869255066
","x: 286.4638366699219
y: 244.1132354736328
z: -0.08885326236486435
visibility: 0.9998315572738647
","x: 328.62493896484375
y: 307.8335876464844
z: 0.012087158858776093
visibility: 0.9240145087242126
","x: 264.57562255859375
y: 233.10635375976562
z: -0.2728613615036011
visibility: 0.934156060218811
","x: 335.33599853515625
y: 347.07525634765625
z: -0.040737491101026535
visibility: 0.8909168243408203
","x: 296.63134765625
y: 247.1158447265625
z: -0.4578845500946045
visibility: 0.8837335705757141
","x: 339.1883239746094
y: 364.0821838378906
z: -0.054784975945949554
visibility: 0.8394073843955994
","x: 298.1687316894531
y: 253.3932647705078
z: -0.5030304193496704
visibility: 0.8177422881126404
","x: 338.1860656738281
y: 365.8374328613281
z: -0.08258352428674698
visibility: 0.85125333070755
","x: 300.2607116699219
y: 253.28585815429688
z: -0.4875735342502594
visibility: 0.8271211981773376
","x: 336.69952392578125
y: 360.07757568359375
z: -0.05275716632604599
visibility: 0.8276636004447937
","x: 299.8196105957031
y: 251.798828125
z: -0.4563625752925873
visibility: 0.8012955784797668
","x: 313.8000183105469
y: 353.3375244140625
z: 0.007677546236664057
visibility: 0.9994268417358398
","x: 293.4389953613281
y: 353.8710021972656
z: -0.0077033378183841705
visibility: 0.9996524453163147
","x: 307.50006103515625
y: 427.5576477050781
z: -0.08151973783969879
visibility: 0.990407407283783
","x: 295.4989929199219
y: 434.7766418457031
z: 0.004157420713454485
visibility: 0.9828963279724121
","x: 291.8612060546875
y: 505.4720458984375
z: 0.07486765086650848
visibility: 0.9906631708145142
","x: 305.9486083984375
y: 495.9362487792969
z: 0.20593670010566711
visibility: 0.9837397336959839
","x: 288.0839538574219
y: 515.609619140625
z: 0.0831700935959816
visibility: 0.9057583808898926
","x: 310.099365234375
y: 503.5362243652344
z: 0.21991005539894104
visibility: 0.9022663831710815
","x: 293.9563903808594
y: 534.0674438476562
z: -0.041540008038282394
visibility: 0.9882953763008118
","x: 302.1448669433594
y: 521.9710083007812
z: 0.11014074087142944
visibility: 0.9821673035621643
",,,,,,,,,,,,,,,,,,,,,,"x: 293.5108337402344
y: 245.08416748046875
z: 0.0
","x: 296.5124816894531
y: 245.14239501953125
z: 0.0027938957791775465
","x: 299.0186767578125
y: 248.02947998046875
z: 0.0032105445861816406
","x: 300.0638427734375
y: 251.97918701171875
z: 0.002635813085362315
","x: 300.0973205566406
y: 255.14968872070312
z: 0.0022085076197981834
","x: 301.2731018066406
y: 249.44842529296875
z: 0.001061669085174799
","x: 303.6138000488281
y: 255.2926788330078
z: -9.759776730788872e-05
","x: 303.09039306640625
y: 258.84649658203125
z: -0.0001210259142681025
","x: 302.3404541015625
y: 260.66314697265625
z: 0.0001086679840227589
","x: 300.57452392578125
y: 251.18991088867188
z: -0.0013597359647974372
","x: 302.1436462402344
y: 257.78582763671875
z: -0.002132861642166972
","x: 300.8340148925781
y: 260.2276916503906
z: -0.0013008449459448457
","x: 299.8134765625
y: 260.5421142578125
z: -0.0005820944206789136
","x: 299.2585754394531
y: 252.70162963867188
z: -0.0036830343306064606
","x: 299.531005859375
y: 258.9965515136719
z: -0.0045839701779186726
","x: 297.7509765625
y: 259.9929504394531
z: -0.003441142151132226
","x: 296.52838134765625
y: 259.1615295410156
z: -0.0024337575305253267
","x: 297.56744384765625
y: 253.91275024414062
z: -0.005955283064395189
","x: 297.0505065917969
y: 258.9643859863281
z: -0.006673278287053108
","x: 295.6410827636719
y: 259.793212890625
z: -0.005878469906747341
","x: 294.5867004394531
y: 259.0852355957031
z: -0.004963787738233805
"
16,"x: 308.5677795410156
y: 207.37954711914062
z: -0.2481374442577362
visibility: 0.9999251961708069
","x: 311.1277160644531
y: 200.76632690429688
z: -0.22762396931648254
visibility: 0.9997130036354065
","x: 312.4325866699219
y: 201.27249145507812
z: -0.22760185599327087
visibility: 0.9996910095214844
","x: 313.6687927246094
y: 201.79586791992188
z: -0.2275806963443756
visibility: 0.9996618032455444
","x: 306.699462890625
y: 199.19589233398438
z: -0.2310667783021927
visibility: 0.9997512102127075
","x: 304.9374084472656
y: 198.7143096923828
z: -0.23112520575523376
visibility: 0.9997454881668091
","x: 303.1446228027344
y: 198.35287475585938
z: -0.23118460178375244
visibility: 0.9997475743293762
","x: 314.59014892578125
y: 204.97784423828125
z: -0.10318905115127563
visibility: 0.9992220401763916
","x: 299.339599609375
y: 201.41970825195312
z: -0.12101615965366364
visibility: 0.9994529485702515
","x: 310.69476318359375
y: 216.08750915527344
z: -0.2007579356431961
visibility: 0.9998146295547485
","x: 305.21160888671875
y: 214.55430603027344
z: -0.20610694587230682
visibility: 0.999824583530426
","x: 322.3009948730469
y: 252.88754272460938
z: -0.010351328179240227
visibility: 0.9998078346252441
","x: 282.9412536621094
y: 240.01121520996094
z: -0.09334132820367813
visibility: 0.9998444318771362
","x: 322.8939514160156
y: 307.5606384277344
z: -0.01697288453578949
visibility: 0.8767410516738892
","x: 256.14398193359375
y: 254.4145965576172
z: -0.24239619076251984
visibility: 0.9405896067619324
","x: 322.1108703613281
y: 343.01373291015625
z: -0.11828424781560898
visibility: 0.8522083163261414
","x: 285.2110900878906
y: 249.8350830078125
z: -0.4253297448158264
visibility: 0.8943489193916321
","x: 327.5285949707031
y: 357.0850830078125
z: -0.14172819256782532
visibility: 0.803939700126648
","x: 293.9232177734375
y: 254.2342529296875
z: -0.46760791540145874
visibility: 0.8326278328895569
","x: 325.9678039550781
y: 356.017333984375
z: -0.16675728559494019
visibility: 0.8143689036369324
","x: 295.3218994140625
y: 251.1072998046875
z: -0.44823503494262695
visibility: 0.8405680060386658
","x: 324.1934509277344
y: 351.55804443359375
z: -0.1325010061264038
visibility: 0.7905706763267517
","x: 297.2759094238281
y: 250.48744201660156
z: -0.41989344358444214
visibility: 0.815726101398468
","x: 311.1782531738281
y: 354.22357177734375
z: 0.034638646990060806
visibility: 0.9994804859161377
","x: 289.3517761230469
y: 351.81591796875
z: -0.034772470593452454
visibility: 0.9996823668479919
","x: 309.39410400390625
y: 429.35791015625
z: -0.03976492956280708
visibility: 0.9854873418807983
","x: 296.6789855957031
y: 420.30078125
z: -0.18970805406570435
visibility: 0.9838897585868835
","x: 291.10748291015625
y: 508.0517578125
z: 0.16380253434181213
visibility: 0.9882525205612183
","x: 284.43505859375
y: 460.5556945800781
z: 0.11197143793106079
visibility: 0.9797714352607727
","x: 284.55096435546875
y: 518.8424072265625
z: 0.17940376698970795
visibility: 0.8972904086112976
","x: 282.76397705078125
y: 460.0683288574219
z: 0.14251717925071716
visibility: 0.8903849720954895
","x: 294.21246337890625
y: 535.7008666992188
z: 0.09457854926586151
visibility: 0.9860218167304993
","x: 282.5823669433594
y: 493.635009765625
z: 0.09665784984827042
visibility: 0.9801357984542847
",,,,,,,,,,,,,,,,,,,,,,,,,,,,,,,,,,,,,,,,,,
17,"x: 306.8280944824219
y: 198.97621154785156
z: -0.18600335717201233
visibility: 0.9999276995658875
","x: 309.9814147949219
y: 191.46975708007812
z: -0.16663238406181335
visibility: 0.9997301697731018
","x: 311.4126892089844
y: 192.03848266601562
z: -0.16669762134552002
visibility: 0.9997066259384155
","x: 312.8406677246094
y: 192.74024963378906
z: -0.16668559610843658
visibility: 0.9996804594993591
","x: 305.0270690917969
y: 189.98721313476562
z: -0.16521063446998596
visibility: 0.9997681975364685
","x: 303.2882080078125
y: 189.62442016601562
z: -0.16521987318992615
visibility: 0.9997616410255432
","x: 301.6225280761719
y: 189.39456176757812
z: -0.16526897251605988
visibility: 0.9997660517692566
","x: 314.60400390625
y: 196.02012634277344
z: -0.05878906697034836
visibility: 0.9992486834526062
","x: 299.0025329589844
y: 192.64578247070312
z: -0.05379558727145195
visibility: 0.9994950294494629
","x: 309.4914245605469
y: 207.63995361328125
z: -0.14585812389850616
visibility: 0.9998184442520142
","x: 303.6566467285156
y: 207.02842712402344
z: -0.14458030462265015
visibility: 0.9998368620872498
","x: 323.10113525390625
y: 241.73118591308594
z: -0.024364380165934563
visibility: 0.9997681379318237
","x: 284.211669921875
y: 241.28201293945312
z: 0.0069792428985238075
visibility: 0.9998482465744019
","x: 315.81488037109375
y: 279.112060546875
z: -0.12322966754436493
visibility: 0.8845370411872864
","x: 265.3738098144531
y: 282.4605712890625
z: -0.044842444360256195
visibility: 0.9373941421508789
","x: 291.6564636230469
y: 251.4277801513672
z: -0.282632052898407
visibility: 0.8621342182159424
","x: 287.9021301269531
y: 266.0323181152344
z: -0.20755557715892792
visibility: 0.8924786448478699
","x: 283.8888244628906
y: 248.3354949951172
z: -0.3263393044471741
visibility: 0.8158427476882935
","x: 294.2129821777344
y: 286.9295654296875
z: -0.24583420157432556
visibility: 0.8302819132804871
","x: 282.5119323730469
y: 245.75469970703125
z: -0.3171379268169403
visibility: 0.8248281478881836
","x: 295.7943115234375
y: 290.70013427734375
z: -0.24968643486499786
visibility: 0.8367844820022583
","x: 284.845458984375
y: 247.55413818359375
z: -0.28228551149368286
visibility: 0.7987425923347473
","x: 295.6782531738281
y: 288.0640869140625
z: -0.21134057641029358
visibility: 0.8089708685874939
","x: 312.77044677734375
y: 350.5521240234375
z: 0.02144077606499195
visibility: 0.9994895458221436
","x: 291.19891357421875
y: 347.21441650390625
z: -0.021688168868422508
visibility: 0.9996917247772217
","x: 308.3930358886719
y: 429.88299560546875
z: -0.035685114562511444
visibility: 0.9751266241073608
","x: 298.37518310546875
y: 415.4189758300781
z: -0.136943981051445
visibility: 0.9794571995735168
","x: 293.2898254394531
y: 510.0302734375
z: 0.1001097783446312
visibility: 0.984171986579895
","x: 296.93585205078125
y: 487.02471923828125
z: -0.02906053327023983
visibility: 0.9786920547485352
","x: 287.0493469238281
y: 521.12255859375
z: 0.10548941791057587
visibility: 0.8879835605621338
","x: 298.0245361328125
y: 497.1316833496094
z: -0.02468186244368553
visibility: 0.8867356777191162
","x: 296.19232177734375
y: 535.326416015625
z: -0.011438053101301193
visibility: 0.9827836751937866
","x: 298.5594482421875
y: 517.2051391601562
z: -0.15057919919490814
visibility: 0.9792141318321228
",,,,,,,,,,,,,,,,,,,,,,,,,,,,,,,,,,,,,,,,,,
18,"x: 307.0486755371094
y: 200.108642578125
z: -0.23546823859214783
visibility: 0.9999255537986755
","x: 309.95904541015625
y: 192.61766052246094
z: -0.21753442287445068
visibility: 0.9997319579124451
","x: 311.4287414550781
y: 193.0592041015625
z: -0.21757645905017853
visibility: 0.9997060894966125
","x: 312.8800354003906
y: 193.55853271484375
z: -0.21759089827537537
visibility: 0.9996784925460815
","x: 304.91912841796875
y: 191.38299560546875
z: -0.21733935177326202
visibility: 0.9997734427452087
","x: 303.10125732421875
y: 191.0801544189453
z: -0.21735234558582306
visibility: 0.9997637867927551
","x: 301.412841796875
y: 190.90283203125
z: -0.21739892661571503
visibility: 0.9997708797454834
","x: 314.66632080078125
y: 196.4195098876953
z: -0.10489624738693237
visibility: 0.9992697834968567
","x: 298.9676513671875
y: 193.86636352539062
z: -0.09873555600643158
visibility: 0.9995218515396118
","x: 309.7218933105469
y: 208.55043029785156
z: -0.19231142103672028
visibility: 0.9998181462287903
","x: 303.8039245605469
y: 208.2703399658203
z: -0.19135180115699768
visibility: 0.9998441338539124
","x: 323.6805114746094
y: 236.98678588867188
z: -0.062088679522275925
visibility: 0.999687910079956
","x: 285.0339050292969
y: 242.91534423828125
z: -0.025168349966406822
visibility: 0.9998489618301392
","x: 314.31109619140625
y: 276.0583190917969
z: -0.1897515505552292
visibility: 0.8851330280303955
","x: 283.4701843261719
y: 297.8107604980469
z: -0.057247526943683624
visibility: 0.9283987879753113
","x: 292.696533203125
y: 253.14642333984375
z: -0.3576923608779907
visibility: 0.8563672304153442
","x: 304.33404541015625
y: 315.8771057128906
z: -0.1884966641664505
visibility: 0.8759726285934448
","x: 288.3193359375
y: 251.68067932128906
z: -0.40733638405799866
visibility: 0.8095405697822571
","x: 310.5614929199219
y: 333.32220458984375
z: -0.2245572805404663
visibility: 0.8122375011444092
","x: 288.2539367675781
y: 249.18179321289062
z: -0.4028262197971344
visibility: 0.8174039721488953
","x: 313.56298828125
y: 325.0955810546875
z: -0.23495297133922577
visibility: 0.8178459405899048
","x: 289.6863098144531
y: 249.81271362304688
z: -0.36069872975349426
visibility: 0.7861310243606567
","x: 311.9795837402344
y: 320.03680419921875
z: -0.194612056016922
visibility: 0.7859253287315369
","x: 314.1420593261719
y: 351.578369140625
z: 0.0005125884199514985
visibility: 0.9994755387306213
","x: 292.3622741699219
y: 349.2783203125
z: -0.0005500773550011218
visibility: 0.9996999502182007
","x: 308.7668762207031
y: 436.32958984375
z: -0.019111253321170807
visibility: 0.972291886806488
","x: 304.3652038574219
y: 430.51922607421875
z: -0.08367903530597687
visibility: 0.9792065620422363
","x: 292.96856689453125
y: 509.78472900390625
z: 0.16563668847084045
visibility: 0.9830573201179504
","x: 314.42584228515625
y: 517.62451171875
z: 0.07381419837474823
visibility: 0.9799349904060364
","x: 286.42120361328125
y: 519.7788696289062
z: 0.17787277698516846
visibility: 0.8891929388046265
","x: 319.59619140625
y: 529.7410888671875
z: 0.08107995986938477
visibility: 0.8923662900924683
","x: 296.4521484375
y: 537.9590454101562
z: 0.05662263184785843
visibility: 0.9818200469017029
","x: 308.2622375488281
y: 542.3092041015625
z: -0.0481930710375309
visibility: 0.9799704551696777
","x: 292.8460388183594
y: 248.66278076171875
z: 0.0
","x: 290.3615417480469
y: 245.857177734375
z: 0.0012343154521659017
","x: 287.282958984375
y: 244.9390869140625
z: 0.0007258441182784736
","x: 285.07073974609375
y: 243.76568603515625
z: -0.0003113921557087451
","x: 283.393310546875
y: 241.59849548339844
z: -0.0014077043160796165
","x: 283.7198486328125
y: 248.82968139648438
z: 0.00015811655612196773
","x: 280.1263427734375
y: 251.4301300048828
z: -0.0012054897379130125
","x: 277.990966796875
y: 253.44842529296875
z: -0.002163124969229102
","x: 276.31787109375
y: 255.14356994628906
z: -0.0028409718070179224
","x: 284.02447509765625
y: 251.2158966064453
z: -0.0019925315864384174
","x: 280.2735900878906
y: 255.82400512695312
z: -0.002959773177281022
","x: 278.1542053222656
y: 259.2421875
z: -0.0035374897997826338
","x: 276.5676574707031
y: 262.1175842285156
z: -0.004178580362349749
","x: 284.81646728515625
y: 253.7571563720703
z: -0.004182941745966673
","x: 281.1159362792969
y: 258.1924133300781
z: -0.005212428048253059
","x: 279.0427551269531
y: 261.3749084472656
z: -0.005631537176668644
","x: 277.4001159667969
y: 263.97381591796875
z: -0.006148207932710648
","x: 286.0496826171875
y: 256.345703125
z: -0.006394346710294485
","x: 283.2085876464844
y: 259.5323486328125
z: -0.007452469319105148
","x: 281.47918701171875
y: 261.64263916015625
z: -0.007735999766737223
","x: 280.00885009765625
y: 263.4520263671875
z: -0.008041780441999435
","x: 306.6754150390625
y: 336.50042724609375
z: 0.0
","x: 310.81011962890625
y: 329.83245849609375
z: -0.0021248774137347937
","x: 315.7930603027344
y: 326.10888671875
z: -0.003619425930082798
","x: 320.27056884765625
y: 324.4842529296875
z: -0.004566221963614225
","x: 323.39617919921875
y: 322.7330322265625
z: -0.005058095324784517
","x: 319.20068359375
y: 338.7928771972656
z: -0.003962951712310314
","x: 325.2994384765625
y: 340.4246826171875
z: -0.0041947620920836926
","x: 328.37335205078125
y: 340.730224609375
z: -0.0032461669761687517
","x: 330.58984375
y: 341.03839111328125
z: -0.0023854542523622513
","x: 318.6587219238281
y: 344.0023193359375
z: -0.0033425495494157076
","x: 324.9479064941406
y: 344.3665771484375
z: -0.003087075427174568
","x: 327.06689453125
y: 341.723388671875
z: -0.0014245277270674706
","x: 328.15576171875
y: 339.53228759765625
z: -0.00019981508376076818
","x: 317.67822265625
y: 347.072509765625
z: -0.0026649883948266506
","x: 323.45452880859375
y: 346.913818359375
z: -0.0026034170296043158
","x: 324.9900207519531
y: 343.8260192871094
z: -0.001342195551842451
","x: 325.4188232421875
y: 341.2983703613281
z: -0.0003884260659106076
","x: 316.6715087890625
y: 348.56317138671875
z: -0.0022536693140864372
","x: 321.7349853515625
y: 348.5340881347656
z: -0.0018812395865097642
","x: 323.2850036621094
y: 345.96282958984375
z: -0.0010030295234173536
","x: 323.5339660644531
y: 343.4527282714844
z: -0.00022663835261482745
"
19,"x: 307.0486755371094
y: 200.108642578125
z: -0.23546823859214783
visibility: 0.9999255537986755
","x: 309.95904541015625
y: 192.61766052246094
z: -0.21753442287445068
visibility: 0.9997319579124451
","x: 311.4287414550781
y: 193.0592041015625
z: -0.21757645905017853
visibility: 0.9997060894966125
","x: 312.8800354003906
y: 193.55853271484375
z: -0.21759089827537537
visibility: 0.9996784925460815
","x: 304.91912841796875
y: 191.38299560546875
z: -0.21733935177326202
visibility: 0.9997734427452087
","x: 303.10125732421875
y: 191.0801544189453
z: -0.21735234558582306
visibility: 0.9997637867927551
","x: 301.412841796875
y: 190.90283203125
z: -0.21739892661571503
visibility: 0.9997708797454834
","x: 314.66632080078125
y: 196.4195098876953
z: -0.10489624738693237
visibility: 0.9992697834968567
","x: 298.9676513671875
y: 193.86636352539062
z: -0.09873555600643158
visibility: 0.9995218515396118
","x: 309.7218933105469
y: 208.55043029785156
z: -0.19231142103672028
visibility: 0.9998181462287903
","x: 303.8039245605469
y: 208.2703399658203
z: -0.19135180115699768
visibility: 0.9998441338539124
","x: 323.6805114746094
y: 236.98678588867188
z: -0.062088679522275925
visibility: 0.999687910079956
","x: 285.0339050292969
y: 242.91534423828125
z: -0.025168349966406822
visibility: 0.9998489618301392
","x: 314.31109619140625
y: 276.0583190917969
z: -0.1897515505552292
visibility: 0.8851330280303955
","x: 283.4701843261719
y: 297.8107604980469
z: -0.057247526943683624
visibility: 0.9283987879753113
","x: 292.696533203125
y: 253.14642333984375
z: -0.3576923608779907
visibility: 0.8563672304153442
","x: 304.33404541015625
y: 315.8771057128906
z: -0.1884966641664505
visibility: 0.8759726285934448
","x: 288.3193359375
y: 251.68067932128906
z: -0.40733638405799866
visibility: 0.8095405697822571
","x: 310.5614929199219
y: 333.32220458984375
z: -0.2245572805404663
visibility: 0.8122375011444092
","x: 288.2539367675781
y: 249.18179321289062
z: -0.4028262197971344
visibility: 0.8174039721488953
","x: 313.56298828125
y: 325.0955810546875
z: -0.23495297133922577
visibility: 0.8178459405899048
","x: 289.6863098144531
y: 249.81271362304688
z: -0.36069872975349426
visibility: 0.7861310243606567
","x: 311.9795837402344
y: 320.03680419921875
z: -0.194612056016922
visibility: 0.7859253287315369
","x: 314.1420593261719
y: 351.578369140625
z: 0.0005125884199514985
visibility: 0.9994755387306213
","x: 292.3622741699219
y: 349.2783203125
z: -0.0005500773550011218
visibility: 0.9996999502182007
","x: 308.7668762207031
y: 436.32958984375
z: -0.019111253321170807
visibility: 0.972291886806488
","x: 304.3652038574219
y: 430.51922607421875
z: -0.08367903530597687
visibility: 0.9792065620422363
","x: 292.96856689453125
y: 509.78472900390625
z: 0.16563668847084045
visibility: 0.9830573201179504
","x: 314.42584228515625
y: 517.62451171875
z: 0.07381419837474823
visibility: 0.9799349904060364
","x: 286.42120361328125
y: 519.7788696289062
z: 0.17787277698516846
visibility: 0.8891929388046265
","x: 319.59619140625
y: 529.7410888671875
z: 0.08107995986938477
visibility: 0.8923662900924683
","x: 296.4521484375
y: 537.9590454101562
z: 0.05662263184785843
visibility: 0.9818200469017029
","x: 308.2622375488281
y: 542.3092041015625
z: -0.0481930710375309
visibility: 0.9799704551696777
","x: 292.8460388183594
y: 248.66278076171875
z: 0.0
","x: 290.3615417480469
y: 245.857177734375
z: 0.0012343154521659017
","x: 287.282958984375
y: 244.9390869140625
z: 0.0007258441182784736
","x: 285.07073974609375
y: 243.76568603515625
z: -0.0003113921557087451
","x: 283.393310546875
y: 241.59849548339844
z: -0.0014077043160796165
","x: 283.7198486328125
y: 248.82968139648438
z: 0.00015811655612196773
","x: 280.1263427734375
y: 251.4301300048828
z: -0.0012054897379130125
","x: 277.990966796875
y: 253.44842529296875
z: -0.002163124969229102
","x: 276.31787109375
y: 255.14356994628906
z: -0.0028409718070179224
","x: 284.02447509765625
y: 251.2158966064453
z: -0.0019925315864384174
","x: 280.2735900878906
y: 255.82400512695312
z: -0.002959773177281022
","x: 278.1542053222656
y: 259.2421875
z: -0.0035374897997826338
","x: 276.5676574707031
y: 262.1175842285156
z: -0.004178580362349749
","x: 284.81646728515625
y: 253.7571563720703
z: -0.004182941745966673
","x: 281.1159362792969
y: 258.1924133300781
z: -0.005212428048253059
","x: 279.0427551269531
y: 261.3749084472656
z: -0.005631537176668644
","x: 277.4001159667969
y: 263.97381591796875
z: -0.006148207932710648
","x: 286.0496826171875
y: 256.345703125
z: -0.006394346710294485
","x: 283.2085876464844
y: 259.5323486328125
z: -0.007452469319105148
","x: 281.47918701171875
y: 261.64263916015625
z: -0.007735999766737223
","x: 280.00885009765625
y: 263.4520263671875
z: -0.008041780441999435
","x: 306.6754150390625
y: 336.50042724609375
z: 0.0
","x: 310.81011962890625
y: 329.83245849609375
z: -0.0021248774137347937
","x: 315.7930603027344
y: 326.10888671875
z: -0.003619425930082798
","x: 320.27056884765625
y: 324.4842529296875
z: -0.004566221963614225
","x: 323.39617919921875
y: 322.7330322265625
z: -0.005058095324784517
","x: 319.20068359375
y: 338.7928771972656
z: -0.003962951712310314
","x: 325.2994384765625
y: 340.4246826171875
z: -0.0041947620920836926
","x: 328.37335205078125
y: 340.730224609375
z: -0.0032461669761687517
","x: 330.58984375
y: 341.03839111328125
z: -0.0023854542523622513
","x: 318.6587219238281
y: 344.0023193359375
z: -0.0033425495494157076
","x: 324.9479064941406
y: 344.3665771484375
z: -0.003087075427174568
","x: 327.06689453125
y: 341.723388671875
z: -0.0014245277270674706
","x: 328.15576171875
y: 339.53228759765625
z: -0.00019981508376076818
","x: 317.67822265625
y: 347.072509765625
z: -0.0026649883948266506
","x: 323.45452880859375
y: 346.913818359375
z: -0.0026034170296043158
","x: 324.9900207519531
y: 343.8260192871094
z: -0.001342195551842451
","x: 325.4188232421875
y: 341.2983703613281
z: -0.0003884260659106076
","x: 316.6715087890625
y: 348.56317138671875
z: -0.0022536693140864372
","x: 321.7349853515625
y: 348.5340881347656
z: -0.0018812395865097642
","x: 323.2850036621094
y: 345.96282958984375
z: -0.0010030295234173536
","x: 323.5339660644531
y: 343.4527282714844
z: -0.00022663835261482745
"
20,"x: 307.0486755371094
y: 200.108642578125
z: -0.23546823859214783
visibility: 0.9999255537986755
","x: 309.95904541015625
y: 192.61766052246094
z: -0.21753442287445068
visibility: 0.9997319579124451
","x: 311.4287414550781
y: 193.0592041015625
z: -0.21757645905017853
visibility: 0.9997060894966125
","x: 312.8800354003906
y: 193.55853271484375
z: -0.21759089827537537
visibility: 0.9996784925460815
","x: 304.91912841796875
y: 191.38299560546875
z: -0.21733935177326202
visibility: 0.9997734427452087
","x: 303.10125732421875
y: 191.0801544189453
z: -0.21735234558582306
visibility: 0.9997637867927551
","x: 301.412841796875
y: 190.90283203125
z: -0.21739892661571503
visibility: 0.9997708797454834
","x: 314.66632080078125
y: 196.4195098876953
z: -0.10489624738693237
visibility: 0.9992697834968567
","x: 298.9676513671875
y: 193.86636352539062
z: -0.09873555600643158
visibility: 0.9995218515396118
","x: 309.7218933105469
y: 208.55043029785156
z: -0.19231142103672028
visibility: 0.9998181462287903
","x: 303.8039245605469
y: 208.2703399658203
z: -0.19135180115699768
visibility: 0.9998441338539124
","x: 323.6805114746094
y: 236.98678588867188
z: -0.062088679522275925
visibility: 0.999687910079956
","x: 285.0339050292969
y: 242.91534423828125
z: -0.025168349966406822
visibility: 0.9998489618301392
","x: 314.31109619140625
y: 276.0583190917969
z: -0.1897515505552292
visibility: 0.8851330280303955
","x: 283.4701843261719
y: 297.8107604980469
z: -0.057247526943683624
visibility: 0.9283987879753113
","x: 292.696533203125
y: 253.14642333984375
z: -0.3576923608779907
visibility: 0.8563672304153442
","x: 304.33404541015625
y: 315.8771057128906
z: -0.1884966641664505
visibility: 0.8759726285934448
","x: 288.3193359375
y: 251.68067932128906
z: -0.40733638405799866
visibility: 0.8095405697822571
","x: 310.5614929199219
y: 333.32220458984375
z: -0.2245572805404663
visibility: 0.8122375011444092
","x: 288.2539367675781
y: 249.18179321289062
z: -0.4028262197971344
visibility: 0.8174039721488953
","x: 313.56298828125
y: 325.0955810546875
z: -0.23495297133922577
visibility: 0.8178459405899048
","x: 289.6863098144531
y: 249.81271362304688
z: -0.36069872975349426
visibility: 0.7861310243606567
","x: 311.9795837402344
y: 320.03680419921875
z: -0.194612056016922
visibility: 0.7859253287315369
","x: 314.1420593261719
y: 351.578369140625
z: 0.0005125884199514985
visibility: 0.9994755387306213
","x: 292.3622741699219
y: 349.2783203125
z: -0.0005500773550011218
visibility: 0.9996999502182007
","x: 308.7668762207031
y: 436.32958984375
z: -0.019111253321170807
visibility: 0.972291886806488
","x: 304.3652038574219
y: 430.51922607421875
z: -0.08367903530597687
visibility: 0.9792065620422363
","x: 292.96856689453125
y: 509.78472900390625
z: 0.16563668847084045
visibility: 0.9830573201179504
","x: 314.42584228515625
y: 517.62451171875
z: 0.07381419837474823
visibility: 0.9799349904060364
","x: 286.42120361328125
y: 519.7788696289062
z: 0.17787277698516846
visibility: 0.8891929388046265
","x: 319.59619140625
y: 529.7410888671875
z: 0.08107995986938477
visibility: 0.8923662900924683
","x: 296.4521484375
y: 537.9590454101562
z: 0.05662263184785843
visibility: 0.9818200469017029
","x: 308.2622375488281
y: 542.3092041015625
z: -0.0481930710375309
visibility: 0.9799704551696777
","x: 292.8460388183594
y: 248.66278076171875
z: 0.0
","x: 290.3615417480469
y: 245.857177734375
z: 0.0012343154521659017
","x: 287.282958984375
y: 244.9390869140625
z: 0.0007258441182784736
","x: 285.07073974609375
y: 243.76568603515625
z: -0.0003113921557087451
","x: 283.393310546875
y: 241.59849548339844
z: -0.0014077043160796165
","x: 283.7198486328125
y: 248.82968139648438
z: 0.00015811655612196773
","x: 280.1263427734375
y: 251.4301300048828
z: -0.0012054897379130125
","x: 277.990966796875
y: 253.44842529296875
z: -0.002163124969229102
","x: 276.31787109375
y: 255.14356994628906
z: -0.0028409718070179224
","x: 284.02447509765625
y: 251.2158966064453
z: -0.0019925315864384174
","x: 280.2735900878906
y: 255.82400512695312
z: -0.002959773177281022
","x: 278.1542053222656
y: 259.2421875
z: -0.0035374897997826338
","x: 276.5676574707031
y: 262.1175842285156
z: -0.004178580362349749
","x: 284.81646728515625
y: 253.7571563720703
z: -0.004182941745966673
","x: 281.1159362792969
y: 258.1924133300781
z: -0.005212428048253059
","x: 279.0427551269531
y: 261.3749084472656
z: -0.005631537176668644
","x: 277.4001159667969
y: 263.97381591796875
z: -0.006148207932710648
","x: 286.0496826171875
y: 256.345703125
z: -0.006394346710294485
","x: 283.2085876464844
y: 259.5323486328125
z: -0.007452469319105148
","x: 281.47918701171875
y: 261.64263916015625
z: -0.007735999766737223
","x: 280.00885009765625
y: 263.4520263671875
z: -0.008041780441999435
","x: 306.6754150390625
y: 336.50042724609375
z: 0.0
","x: 310.81011962890625
y: 329.83245849609375
z: -0.0021248774137347937
","x: 315.7930603027344
y: 326.10888671875
z: -0.003619425930082798
","x: 320.27056884765625
y: 324.4842529296875
z: -0.004566221963614225
","x: 323.39617919921875
y: 322.7330322265625
z: -0.005058095324784517
","x: 319.20068359375
y: 338.7928771972656
z: -0.003962951712310314
","x: 325.2994384765625
y: 340.4246826171875
z: -0.0041947620920836926
","x: 328.37335205078125
y: 340.730224609375
z: -0.0032461669761687517
","x: 330.58984375
y: 341.03839111328125
z: -0.0023854542523622513
","x: 318.6587219238281
y: 344.0023193359375
z: -0.0033425495494157076
","x: 324.9479064941406
y: 344.3665771484375
z: -0.003087075427174568
","x: 327.06689453125
y: 341.723388671875
z: -0.0014245277270674706
","x: 328.15576171875
y: 339.53228759765625
z: -0.00019981508376076818
","x: 317.67822265625
y: 347.072509765625
z: -0.0026649883948266506
","x: 323.45452880859375
y: 346.913818359375
z: -0.0026034170296043158
","x: 324.9900207519531
y: 343.8260192871094
z: -0.001342195551842451
","x: 325.4188232421875
y: 341.2983703613281
z: -0.0003884260659106076
","x: 316.6715087890625
y: 348.56317138671875
z: -0.0022536693140864372
","x: 321.7349853515625
y: 348.5340881347656
z: -0.0018812395865097642
","x: 323.2850036621094
y: 345.96282958984375
z: -0.0010030295234173536
","x: 323.5339660644531
y: 343.4527282714844
z: -0.00022663835261482745
"
21,"x: 306.3588562011719
y: 194.73324584960938
z: -0.32837554812431335
visibility: 0.999932050704956
","x: 308.9000244140625
y: 186.94754028320312
z: -0.3083428740501404
visibility: 0.9997528195381165
","x: 310.4980773925781
y: 187.17955017089844
z: -0.3083648681640625
visibility: 0.9997305274009705
","x: 311.91717529296875
y: 187.50604248046875
z: -0.3083938956260681
visibility: 0.9997038841247559
","x: 303.65228271484375
y: 186.57260131835938
z: -0.30772119760513306
visibility: 0.9997913241386414
","x: 301.843994140625
y: 186.5658416748047
z: -0.30772143602371216
visibility: 0.9997828602790833
","x: 300.1906433105469
y: 186.6905059814453
z: -0.3077509105205536
visibility: 0.9997880458831787
","x: 314.0979309082031
y: 191.50848388671875
z: -0.18544188141822815
visibility: 0.9993358254432678
","x: 298.0596008300781
y: 191.2267303466797
z: -0.17872506380081177
visibility: 0.9995654821395874
","x: 309.8636474609375
y: 204.34490966796875
z: -0.282008558511734
visibility: 0.9998348355293274
","x: 303.74627685546875
y: 204.2630157470703
z: -0.2804657816886902
visibility: 0.9998584389686584
","x: 324.9978332519531
y: 231.41757202148438
z: -0.12422990798950195
visibility: 0.9997119307518005
","x: 285.60491943359375
y: 243.83306884765625
z: -0.06946264207363129
visibility: 0.9998546242713928
","x: 351.2955017089844
y: 246.64541625976562
z: -0.293833464384079
visibility: 0.8963930010795593
","x: 282.3977355957031
y: 303.80413818359375
z: -0.05030820518732071
visibility: 0.9302507638931274
","x: 319.33984375
y: 218.2969970703125
z: -0.512053370475769
visibility: 0.8688047528266907
","x: 278.4665222167969
y: 342.0562744140625
z: -0.1362636387348175
visibility: 0.8782463073730469
","x: 298.9423828125
y: 213.39439392089844
z: -0.5605372786521912
visibility: 0.8214794993400574
","x: 270.90557861328125
y: 358.094482421875
z: -0.1576419621706009
visibility: 0.8140323758125305
","x: 308.1561279296875
y: 212.92999267578125
z: -0.5429298877716064
visibility: 0.8278574347496033
","x: 272.2033996582031
y: 359.273681640625
z: -0.18637041747570038
visibility: 0.8194371461868286
","x: 306.21771240234375
y: 215.406005859375
z: -0.5102800726890564
visibility: 0.7958050966262817
","x: 276.26239013671875
y: 353.6529235839844
z: -0.14873000979423523
visibility: 0.786956787109375
","x: 320.490234375
y: 352.3847961425781
z: -0.00430955458432436
visibility: 0.9994872808456421
","x: 297.0001525878906
y: 349.78314208984375
z: 0.0042347051203250885
visibility: 0.9996989965438843
","x: 322.9385681152344
y: 438.2213134765625
z: -0.08671404421329498
visibility: 0.9698795080184937
","x: 306.2019348144531
y: 435.075439453125
z: -0.10313019901514053
visibility: 0.9777464270591736
","x: 301.60736083984375
y: 509.42681884765625
z: 0.15421733260154724
visibility: 0.9770896434783936
","x: 315.36163330078125
y: 521.4134521484375
z: 0.08840163052082062
visibility: 0.979939341545105
","x: 293.7097473144531
y: 515.6450805664062
z: 0.15875042974948883
visibility: 0.8810641169548035
","x: 320.4241943359375
y: 533.3710327148438
z: 0.09924262762069702
visibility: 0.8906936049461365
","x: 300.52716064453125
y: 537.4652099609375
z: 0.03149428963661194
visibility: 0.9775963425636292
","x: 310.406494140625
y: 546.8739624023438
z: -0.03835068270564079
visibility: 0.9786474704742432
",,,,,,,,,,,,,,,,,,,,,,,,,,,,,,,,,,,,,,,,,,
22,"x: 306.6123352050781
y: 197.274169921875
z: -0.4557274878025055
visibility: 0.9999352693557739
","x: 309.3390808105469
y: 189.7037353515625
z: -0.4359022080898285
visibility: 0.9997641444206238
","x: 311.1846008300781
y: 190.00396728515625
z: -0.4359157085418701
visibility: 0.9997446537017822
","x: 312.96783447265625
y: 190.3726043701172
z: -0.43597322702407837
visibility: 0.9997178912162781
","x: 303.75250244140625
y: 189.124267578125
z: -0.4338056147098541
visibility: 0.9997986555099487
","x: 301.9173583984375
y: 189.00831604003906
z: -0.43396061658859253
visibility: 0.9997916221618652
","x: 300.3168029785156
y: 188.99789428710938
z: -0.4340181350708008
visibility: 0.9997971057891846
","x: 315.5067138671875
y: 192.58554077148438
z: -0.31524956226348877
visibility: 0.9993808269500732
","x: 298.851806640625
y: 191.47103881835938
z: -0.30601876974105835
visibility: 0.9995856881141663
","x: 309.8868408203125
y: 206.21331787109375
z: -0.41107386350631714
visibility: 0.9998422861099243
","x: 304.179931640625
y: 205.9251708984375
z: -0.40879374742507935
visibility: 0.9998652338981628
","x: 331.3098449707031
y: 247.95947265625
z: -0.23637335002422333
visibility: 0.9997179508209229
","x: 285.5970153808594
y: 248.000244140625
z: -0.20771577954292297
visibility: 0.9998656511306763
","x: 342.82177734375
y: 313.0245056152344
z: -0.2563324570655823
visibility: 0.9033312201499939
","x: 264.2520446777344
y: 300.3919372558594
z: -0.28091961145401
visibility: 0.9369754195213318
","x: 342.443603515625
y: 354.82110595703125
z: -0.3734579384326935
visibility: 0.8695889711380005
","x: 241.3255615234375
y: 265.07342529296875
z: -0.46660247445106506
visibility: 0.8902003169059753
","x: 344.7994689941406
y: 371.3866882324219
z: -0.4003194272518158
visibility: 0.8154212832450867
","x: 234.33352661132812
y: 253.087158203125
z: -0.5104159116744995
visibility: 0.831850528717041
","x: 345.68853759765625
y: 370.4228515625
z: -0.42387351393699646
visibility: 0.8218188881874084
","x: 235.791748046875
y: 245.3663787841797
z: -0.5204336047172546
visibility: 0.8367365598678589
","x: 343.32757568359375
y: 366.1661376953125
z: -0.38600215315818787
visibility: 0.7920793890953064
","x: 238.59359741210938
y: 249.51539611816406
z: -0.47808536887168884
visibility: 0.8072286248207092
","x: 328.0674743652344
y: 353.2835693359375
z: -0.00013188588491175324
visibility: 0.9994999766349792
","x: 300.9230041503906
y: 360.8117370605469
z: -7.991459278855473e-05
visibility: 0.9997221231460571
","x: 355.7707214355469
y: 429.993408203125
z: -0.08361516892910004
visibility: 0.9727070927619934
","x: 307.1764221191406
y: 442.30914306640625
z: -0.14998847246170044
visibility: 0.9797524213790894
","x: 382.59271240234375
y: 498.9132995605469
z: 0.19665679335594177
visibility: 0.979170560836792
","x: 317.2162170410156
y: 523.5325927734375
z: 0.0848989188671112
visibility: 0.9817930459976196
","x: 382.1690979003906
y: 506.9808349609375
z: 0.213334321975708
visibility: 0.8874170184135437
","x: 322.151611328125
y: 535.8482666015625
z: 0.10069300979375839
visibility: 0.8968132734298706
","x: 395.8198547363281
y: 531.3060302734375
z: 0.07420327514410019
visibility: 0.9793072938919067
","x: 315.0157470703125
y: 549.388916015625
z: -0.052175961434841156
visibility: 0.9804242849349976
",,,,,,,,,,,,,,,,,,,,,,,,,,,,,,,,,,,,,,,,,,
23,"x: 290.3918151855469
y: 244.830322265625
z: -0.20042569935321808
visibility: 0.9998895525932312
","x: 293.30267333984375
y: 237.4641571044922
z: -0.2151586264371872
visibility: 0.9996767044067383
","x: 294.57635498046875
y: 237.6326904296875
z: -0.2151632308959961
visibility: 0.9996616244316101
","x: 295.94110107421875
y: 237.80364990234375
z: -0.21522781252861023
visibility: 0.9996401071548462
","x: 291.1796875
y: 236.27532958984375
z: -0.18544653058052063
visibility: 0.9996700286865234
","x: 290.9440002441406
y: 235.65744018554688
z: -0.1855086237192154
visibility: 0.9995747208595276
","x: 290.7457580566406
y: 235.1010284423828
z: -0.18558022379875183
visibility: 0.9996033310890198
","x: 302.1332702636719
y: 239.2762451171875
z: -0.2177981436252594
visibility: 0.9993232488632202
","x: 295.15374755859375
y: 236.701904296875
z: -0.08103470504283905
visibility: 0.999457061290741
","x: 294.068359375
y: 252.83905029296875
z: -0.1968003809452057
visibility: 0.9997619986534119
","x: 291.2668762207031
y: 251.0610809326172
z: -0.1575477421283722
visibility: 0.999789297580719
","x: 319.781494140625
y: 281.9900207519531
z: -0.18578271567821503
visibility: 0.9996585845947266
","x: 295.7333068847656
y: 265.4201965332031
z: 0.03379621356725693
visibility: 0.9998676776885986
","x: 307.67877197265625
y: 315.4911193847656
z: -0.1882990002632141
visibility: 0.8995622396469116
","x: 266.8661193847656
y: 260.69268798828125
z: 0.1768786907196045
visibility: 0.9099550843238831
","x: 294.0770568847656
y: 318.3257751464844
z: -0.07369276881217957
visibility: 0.8466697931289673
","x: 253.31719970703125
y: 258.7389221191406
z: 0.23889967799186707
visibility: 0.8554888367652893
","x: 290.976806640625
y: 301.97052001953125
z: -0.07519477605819702
visibility: 0.7912802696228027
","x: 241.22386169433594
y: 262.9247741699219
z: 0.24354827404022217
visibility: 0.7936062216758728
","x: 293.6102294921875
y: 298.1749267578125
z: -0.07727818191051483
visibility: 0.7948217391967773
","x: 256.71636962890625
y: 263.5623474121094
z: 0.23104901611804962
visibility: 0.7984655499458313
","x: 294.71875
y: 302.25335693359375
z: -0.06967669725418091
visibility: 0.7568420171737671
","x: 251.76852416992188
y: 263.31976318359375
z: 0.2318202555179596
visibility: 0.7745198011398315
","x: 333.1671447753906
y: 387.6275939941406
z: -0.049838434904813766
visibility: 0.9993948340415955
","x: 311.2884216308594
y: 391.27825927734375
z: 0.04975948482751846
visibility: 0.999709963798523
","x: 370.4403076171875
y: 447.3516540527344
z: -0.12370622158050537
visibility: 0.9749294519424438
","x: 305.5874938964844
y: 454.6654052734375
z: -0.08391022682189941
visibility: 0.9813961982727051
","x: 408.01776123046875
y: 505.1884765625
z: -0.015094801783561707
visibility: 0.9811345338821411
","x: 317.5074768066406
y: 523.8944702148438
z: 0.10619684308767319
visibility: 0.983345627784729
","x: 411.1014709472656
y: 513.10595703125
z: -0.010057785548269749
visibility: 0.8960683345794678
","x: 324.2350158691406
y: 536.1760864257812
z: 0.1225411668419838
visibility: 0.9055207967758179
","x: 414.3915710449219
y: 534.9031982421875
z: -0.13290515542030334
visibility: 0.9811204671859741
","x: 312.2287292480469
y: 550.2291259765625
z: 0.03732122480869293
visibility: 0.981854259967804
",,,,,,,,,,,,,,,,,,,,,,,,,,,,,,,,,,,,,,,,,,
24,"x: 289.36962890625
y: 250.8374786376953
z: -0.21750378608703613
visibility: 0.9998970031738281
","x: 293.0962219238281
y: 242.396728515625
z: -0.21502378582954407
visibility: 0.9996945858001709
","x: 294.77557373046875
y: 242.87890625
z: -0.21497197449207306
visibility: 0.9996801614761353
","x: 296.48968505859375
y: 243.39215087890625
z: -0.214960977435112
visibility: 0.9996621012687683
","x: 289.8125
y: 241.4354705810547
z: -0.19776633381843567
visibility: 0.9996865391731262
","x: 289.1700439453125
y: 241.14224243164062
z: -0.197860449552536
visibility: 0.9995970726013184
","x: 288.5332336425781
y: 240.86000061035156
z: -0.19790703058242798
visibility: 0.999625563621521
","x: 302.6159362792969
y: 246.63662719726562
z: -0.1677693873643875
visibility: 0.9993696212768555
","x: 292.73809814453125
y: 242.6697998046875
z: -0.08052904158830643
visibility: 0.999493420124054
","x: 293.8701477050781
y: 260.15625
z: -0.194862961769104
visibility: 0.9997813105583191
","x: 289.29931640625
y: 259.40850830078125
z: -0.17275288701057434
visibility: 0.99980628490448
","x: 321.3479919433594
y: 290.41265869140625
z: -0.1468493640422821
visibility: 0.9996825456619263
","x: 294.1380920410156
y: 278.6532897949219
z: 0.009257541038095951
visibility: 0.9998795986175537
","x: 326.6723327636719
y: 347.980712890625
z: -0.25202029943466187
visibility: 0.9081583023071289
","x: 268.95343017578125
y: 271.34625244140625
z: -0.002988965017721057
visibility: 0.9147153496742249
","x: 305.9986877441406
y: 358.2936096191406
z: -0.34807321429252625
visibility: 0.8561824560165405
","x: 266.99810791015625
y: 272.8036193847656
z: 0.1805243045091629
visibility: 0.8553941249847412
","x: 300.95697021484375
y: 361.67620849609375
z: -0.3748604655265808
visibility: 0.8005613684654236
