uscmakers/ReverseChoreography/data/9_good_4_u_olivia_rodrigo.csv
,NOSE,LEFT_EYE_INNER,LEFT_EYE,LEFT_EYE_OUTER,RIGHT_EYE_INNER,RIGHT_EYE,RIGHT_EYE_OUTER,LEFT_EAR,RIGHT_EAR,MOUTH_LEFT,MOUTH_RIGHT,LEFT_SHOULDER,RIGHT_SHOULDER,LEFT_ELBOW,RIGHT_ELBOW,LEFT_WRIST,RIGHT_WRIST,LEFT_PINKY,RIGHT_PINKY,LEFT_INDEX,RIGHT_INDEX,LEFT_THUMB,RIGHT_THUMB,LEFT_HIP,RIGHT_HIP,LEFT_KNEE,RIGHT_KNEE,LEFT_ANKLE,RIGHT_ANKLE,LEFT_HEEL,RIGHT_HEEL,LEFT_FOOT_INDEX,RIGHT_FOOT_INDEX,WRIST,THUMB_CPC,THUMB_MCP,THUMB_IP,THUMB_TIP,INDEX_FINGER_MCP,INDEX_FINGER_PIP,INDEX_FINGER_DIP,INDEX_FINGER_TIP,MIDDLE_FINGER_MCP,MIDDLE_FINGER_PIP,MIDDLE_FINGER_DIP,MIDDLE_FINGER_TIP,RING_FINGER_PIP,RING_FINGER_DIP,RING_FINGER_TIP,RING_FINGER_MCP,PINKY_MCP,PINKY_PIP,PINKY_DIP,PINKY_TIP,WRIST2,THUMB_CPC2,THUMB_MCP2,THUMB_IP2,THUMB_TIP2,INDEX_FINGER_MCP2,INDEX_FINGER_PIP2,INDEX_FINGER_DIP2,INDEX_FINGER_TIP2,MIDDLE_FINGER_MCP2,MIDDLE_FINGER_PIP2,MIDDLE_FINGER_DIP2,MIDDLE_FINGER_TIP2,RING_FINGER_PIP2,RING_FINGER_DIP2,RING_FINGER_TIP2,RING_FINGER_MCP2,PINKY_MCP2,PINKY_PIP2,PINKY_DIP2,PINKY_TIP2
0,"x: 220.06614685058594
y: 219.6649169921875
z: -0.2469712495803833
visibility: 0.9986943602561951
","x: 221.69781494140625
y: 212.06655883789062
z: -0.2281276285648346
visibility: 0.9972121119499207
","x: 222.8214569091797
y: 211.74920654296875
z: -0.22811146080493927
visibility: 0.9966621398925781
","x: 223.9159698486328
y: 211.48651123046875
z: -0.2281038761138916
visibility: 0.9969033598899841
","x: 218.40280151367188
y: 212.26409912109375
z: -0.23363569378852844
visibility: 0.9968847632408142
","x: 217.18748474121094
y: 212.08778381347656
z: -0.23368434607982635
visibility: 0.9970473647117615
","x: 215.96051025390625
y: 211.9303741455078
z: -0.2337818592786789
visibility: 0.9970665574073792
","x: 225.1793670654297
y: 213.25775146484375
z: -0.10850336402654648
visibility: 0.9928551316261292
","x: 214.02159118652344
y: 213.13900756835938
z: -0.1335129290819168
visibility: 0.9932305812835693
","x: 222.12574768066406
y: 225.4310302734375
z: -0.20071718096733093
visibility: 0.9976382255554199
","x: 217.66354370117188
y: 225.49537658691406
z: -0.20820686221122742
visibility: 0.9965140223503113
","x: 237.52867126464844
y: 253.3751678466797
z: -0.015555759891867638
visibility: 0.9990376234054565
","x: 202.7709503173828
y: 250.79673767089844
z: -0.11211810261011124
visibility: 0.9976416826248169
","x: 241.4980010986328
y: 305.8425598144531
z: 0.035312313586473465
visibility: 0.7848158478736877
","x: 195.03858947753906
y: 273.767578125
z: -0.2752423584461212
visibility: 0.9823383092880249
","x: 242.7683868408203
y: 345.20086669921875
z: 0.004278731998056173
visibility: 0.6197360754013062
","x: 209.19407653808594
y: 234.47030639648438
z: -0.46152180433273315
visibility: 0.953559935092926
","x: 244.04513549804688
y: 362.313232421875
z: -0.002422148594632745
visibility: 0.4789835810661316
","x: 213.69509887695312
y: 220.48257446289062
z: -0.5067278742790222
visibility: 0.8824449181556702
","x: 241.37037658691406
y: 361.65570068359375
z: -0.026751723140478134
visibility: 0.49328625202178955
","x: 213.26806640625
y: 217.88668823242188
z: -0.49887704849243164
visibility: 0.8667475581169128
","x: 239.6315460205078
y: 355.524169921875
z: -0.005650586914271116
visibility: 0.4608549475669861
","x: 212.5491943359375
y: 223.77194213867188
z: -0.463593065738678
visibility: 0.813452422618866
","x: 230.5408172607422
y: 356.117919921875
z: 0.023624300956726074
visibility: 0.9998538494110107
","x: 209.63845825195312
y: 353.9935302734375
z: -0.023663030937314034
visibility: 0.9997307658195496
","x: 227.42193603515625
y: 433.26422119140625
z: -0.02096407487988472
visibility: 0.9864603281021118
","x: 201.94271850585938
y: 424.4324035644531
z: 0.0026706508360803127
visibility: 0.9780002236366272
","x: 222.1598358154297
y: 502.1053771972656
z: 0.13485096395015717
visibility: 0.984784722328186
","x: 193.0231170654297
y: 486.6723937988281
z: 0.23771779239177704
visibility: 0.9681721925735474
","x: 218.37606811523438
y: 511.1163330078125
z: 0.14380574226379395
visibility: 0.8929256796836853
","x: 193.6011962890625
y: 490.7632751464844
z: 0.25546562671661377
visibility: 0.7103663086891174
","x: 226.24061584472656
y: 526.1519775390625
z: 0.015675591304898262
visibility: 0.9805452823638916
","x: 189.7157440185547
y: 516.2994384765625
z: 0.13892778754234314
visibility: 0.9681227207183838
",,,,,,,,,,,,,,,,,,,,,,,,,,,,,,,,,,,,,,,,,,
1,"x: 218.41217041015625
y: 213.5203857421875
z: -0.18200623989105225
visibility: 0.998813271522522
","x: 220.27944946289062
y: 206.53860473632812
z: -0.16568732261657715
visibility: 0.9974671602249146
","x: 221.4671173095703
y: 206.39956665039062
z: -0.1656470000743866
visibility: 0.9969677925109863
","x: 222.6292724609375
y: 206.34136962890625
z: -0.16560813784599304
visibility: 0.9971860647201538
","x: 217.11398315429688
y: 206.51991271972656
z: -0.1654929518699646
visibility: 0.9971637725830078
","x: 216.1143798828125
y: 206.36837768554688
z: -0.16553562879562378
visibility: 0.9973131418228149
","x: 215.13418579101562
y: 206.30662536621094
z: -0.1655985414981842
visibility: 0.9973317980766296
","x: 224.56072998046875
y: 209.29238891601562
z: -0.06271442770957947
visibility: 0.9935144186019897
","x: 213.9954833984375
y: 209.15382385253906
z: -0.062204014509916306
visibility: 0.9938352704048157
","x: 220.86093139648438
y: 220.14984130859375
z: -0.14265455305576324
visibility: 0.9978539943695068
","x: 216.94969177246094
y: 220.1997528076172
z: -0.14279209077358246
visibility: 0.9968302845954895
","x: 237.70306396484375
y: 252.32928466796875
z: 0.012193105183541775
visibility: 0.9991150498390198
","x: 203.588134765625
y: 247.299560546875
z: -0.039146363735198975
visibility: 0.9978333711624146
","x: 241.51113891601562
y: 305.9020080566406
z: 0.04095765948295593
visibility: 0.8000091314315796
","x: 195.3032989501953
y: 272.3758239746094
z: -0.19110386073589325
visibility: 0.983368456363678
","x: 242.3951873779297
y: 346.7045593261719
z: 0.00426834961399436
visibility: 0.6508987545967102
","x: 210.90257263183594
y: 234.4608917236328
z: -0.38139596581459045
visibility: 0.9573665857315063
","x: 243.72462463378906
y: 363.0811767578125
z: -0.003488454967737198
visibility: 0.5168466567993164
","x: 214.85736083984375
y: 220.40371704101562
z: -0.42465320229530334
visibility: 0.8916469812393188
","x: 241.29901123046875
y: 362.3803405761719
z: -0.02707890048623085
visibility: 0.5302771329879761
","x: 214.74322509765625
y: 217.791015625
z: -0.41604751348495483
visibility: 0.8771362900733948
","x: 239.6375732421875
y: 357.18450927734375
z: -0.005535907112061977
visibility: 0.4981381595134735
","x: 213.94297790527344
y: 222.95912170410156
z: -0.3826008141040802
visibility: 0.8274144530296326
","x: 230.58489990234375
y: 352.2956848144531
z: 0.016503114253282547
visibility: 0.9998590350151062
","x: 209.65846252441406
y: 347.9394226074219
z: -0.016619622707366943
visibility: 0.9997466802597046
","x: 227.17422485351562
y: 431.2277526855469
z: -0.02380569837987423
visibility: 0.9866969585418701
","x: 201.64337158203125
y: 422.247314453125
z: -0.041087452322244644
visibility: 0.9793803095817566
","x: 222.0672607421875
y: 502.083740234375
z: 0.1348036378622055
visibility: 0.985589325428009
","x: 192.88772583007812
y: 492.4320068359375
z: 0.10444482415914536
visibility: 0.9707657098770142
","x: 218.37583923339844
y: 511.042236328125
z: 0.1437368094921112
visibility: 0.8959239721298218
","x: 193.63079833984375
y: 499.57952880859375
z: 0.11290180683135986
visibility: 0.7258527278900146
","x: 225.34547424316406
y: 526.118896484375
z: 0.018394211307168007
visibility: 0.9814701676368713
","x: 189.8973388671875
y: 519.7150268554688
z: -0.009980191476643085
visibility: 0.970535933971405
",,,,,,,,,,,,,,,,,,,,,,,,,,,,,,,,,,,,,,,,,,
2,"x: 217.11082458496094
y: 212.69992065429688
z: -0.20871460437774658
visibility: 0.9989246726036072
","x: 218.88877868652344
y: 206.439208984375
z: -0.18964987993240356
visibility: 0.997704267501831
","x: 220.0574493408203
y: 206.4443817138672
z: -0.18962247669696808
visibility: 0.9972513318061829
","x: 221.19659423828125
y: 206.46475219726562
z: -0.18959198892116547
visibility: 0.9974492788314819
","x: 215.34608459472656
y: 206.11793518066406
z: -0.19357040524482727
visibility: 0.9974222183227539
","x: 214.14459228515625
y: 206.01417541503906
z: -0.19361712038516998
visibility: 0.9975589513778687
","x: 212.9058837890625
y: 206.0256805419922
z: -0.19368784129619598
visibility: 0.9975742697715759
","x: 222.8509521484375
y: 209.39816284179688
z: -0.07455526292324066
visibility: 0.9941223859786987
","x: 211.09107971191406
y: 209.15072631835938
z: -0.0931304469704628
visibility: 0.9944027066230774
","x: 219.35015869140625
y: 219.8942413330078
z: -0.16527095437049866
visibility: 0.9980597496032715
","x: 214.68304443359375
y: 219.92189025878906
z: -0.170716792345047
visibility: 0.9971308708190918
","x: 235.22767639160156
y: 252.344482421875
z: 0.01069121714681387
visibility: 0.9991963505744934
","x: 200.4010772705078
y: 247.33421325683594
z: -0.0731058418750763
visibility: 0.9980111122131348
","x: 240.53277587890625
y: 306.9977111816406
z: 0.04892658442258835
visibility: 0.8167091012001038
","x: 194.1504364013672
y: 270.4781799316406
z: -0.22651278972625732
visibility: 0.984420657157898
","x: 243.24063110351562
y: 348.2188415527344
z: 0.011054325848817825
visibility: 0.6816805601119995
","x: 210.56932067871094
y: 234.4166259765625
z: -0.4155106544494629
visibility: 0.9606940746307373
","x: 245.39022827148438
y: 364.082275390625
z: 0.0010685122106224298
visibility: 0.5555106401443481
","x: 213.67398071289062
y: 220.7814178466797
z: -0.4556416869163513
visibility: 0.8997846841812134
","x: 243.74522399902344
y: 364.69384765625
z: -0.022358808666467667
visibility: 0.5681114196777344
","x: 213.37071228027344
y: 217.8832244873047
z: -0.4420362114906311
visibility: 0.8863326907157898
","x: 242.09613037109375
y: 360.09405517578125
z: 0.0012833173386752605
visibility: 0.5378440618515015
","x: 213.094482421875
y: 223.11459350585938
z: -0.4156629145145416
visibility: 0.8397722244262695
","x: 228.220458984375
y: 353.9560241699219
z: 0.029764125123620033
visibility: 0.9998676180839539
","x: 207.27365112304688
y: 351.22564697265625
z: -0.030004560947418213
visibility: 0.9997605085372925
","x: 225.8910369873047
y: 433.6552734375
z: -0.0017112065106630325
visibility: 0.9867847561836243
","x: 199.95204162597656
y: 429.7178955078125
z: -0.052188433706760406
visibility: 0.9805097579956055
","x: 221.86607360839844
y: 502.0822448730469
z: 0.20394107699394226
visibility: 0.9862486124038696
","x: 190.68212890625
y: 497.9020690917969
z: 0.13795757293701172
visibility: 0.9729083776473999
","x: 217.9368438720703
y: 511.02197265625
z: 0.2178092747926712
visibility: 0.9001179933547974
","x: 191.72572326660156
y: 504.26251220703125
z: 0.15127071738243103
visibility: 0.7355389595031738
","x: 225.3728790283203
y: 526.1690673828125
z: 0.1024174839258194
visibility: 0.9823199510574341
","x: 189.85667419433594
y: 523.701171875
z: 0.028921538963913918
visibility: 0.9725430011749268
",,,,,,,,,,,,,,,,,,,,,,,,,,,,,,,,,,,,,,,,,,
3,"x: 214.4116973876953
y: 210.93270874023438
z: -0.21833130717277527
visibility: 0.9990226626396179
","x: 216.40347290039062
y: 205.12449645996094
z: -0.19892171025276184
visibility: 0.9979115724563599
","x: 217.6220703125
y: 205.2561798095703
z: -0.1989005208015442
visibility: 0.9974991679191589
","x: 218.7912139892578
y: 205.4345703125
z: -0.19888007640838623
visibility: 0.9976800084114075
","x: 212.77859497070312
y: 204.642822265625
z: -0.20340999960899353
visibility: 0.9976464509963989
","x: 211.464111328125
y: 204.52169799804688
z: -0.20345726609230042
visibility: 0.9977723956108093
","x: 210.11924743652344
y: 204.49224853515625
z: -0.20353278517723083
visibility: 0.9977850914001465
","x: 220.3979034423828
y: 208.93008422851562
z: -0.08094055950641632
visibility: 0.9946547746658325
","x: 207.81689453125
y: 207.69207763671875
z: -0.10248003900051117
visibility: 0.9948840141296387
","x: 216.23707580566406
y: 218.19622802734375
z: -0.17402656376361847
visibility: 0.9982409477233887
","x: 211.68838500976562
y: 218.12432861328125
z: -0.1799772083759308
visibility: 0.9973945021629333
","x: 232.3241424560547
y: 252.0171356201172
z: 0.0056220730766654015
visibility: 0.999266505241394
","x: 197.23631286621094
y: 247.62535095214844
z: -0.08306903392076492
visibility: 0.998143196105957
","x: 238.14547729492188
y: 305.40899658203125
z: 0.04657946154475212
visibility: 0.8321477770805359
","x: 191.90870666503906
y: 267.5546875
z: -0.2550118565559387
visibility: 0.985244631767273
","x: 243.37918090820312
y: 348.1735534667969
z: 0.012887093238532543
visibility: 0.709334671497345
","x: 204.56483459472656
y: 227.69381713867188
z: -0.4613173007965088
visibility: 0.9635834693908691
","x: 245.97113037109375
y: 364.13494873046875
z: 0.002758737187832594
visibility: 0.5897813439369202
","x: 206.7667236328125
y: 212.93597412109375
z: -0.5125079154968262
visibility: 0.9068840742111206
","x: 244.89698791503906
y: 364.8966064453125
z: -0.021168245002627373
visibility: 0.6016125082969666
","x: 206.5123748779297
y: 210.27647399902344
z: -0.5036159753799438
visibility: 0.8943431973457336
","x: 243.26190185546875
y: 360.2047424316406
z: 0.0029773572459816933
visibility: 0.5727931261062622
","x: 206.42135620117188
y: 215.5283203125
z: -0.4645144045352936
visibility: 0.8503360748291016
","x: 224.58018493652344
y: 355.510986328125
z: 0.031063858419656754
visibility: 0.999874472618103
","x: 203.2573699951172
y: 353.1615905761719
z: -0.03131236881017685
visibility: 0.9997740983963013
","x: 224.25506591796875
y: 435.57965087890625
z: 0.0191404577344656
visibility: 0.9872671365737915
","x: 197.8779296875
y: 433.6328125
z: -0.04768495261669159
visibility: 0.9817548394203186
","x: 221.69000244140625
y: 502.11468505859375
z: 0.23991096019744873
visibility: 0.9870381355285645
","x: 189.40216064453125
y: 500.5578918457031
z: 0.14132247865200043
visibility: 0.9751288294792175
","x: 217.86692810058594
y: 510.9613342285156
z: 0.25516030192375183
visibility: 0.9040036201477051
","x: 190.51937866210938
y: 507.6155090332031
z: 0.1540127694606781
visibility: 0.7475875616073608
","x: 225.39260864257812
y: 526.3274536132812
z: 0.13552320003509521
visibility: 0.9832338690757751
","x: 189.5879364013672
y: 525.4313354492188
z: 0.02369055151939392
visibility: 0.9746279120445251
",,,,,,,,,,,,,,,,,,,,,,,,,,,,,,,,,,,,,,,,,,
4,"x: 211.70565795898438
y: 211.88134765625
z: -0.2734587788581848
visibility: 0.9991148710250854
","x: 213.28150939941406
y: 205.7332763671875
z: -0.2514956593513489
visibility: 0.998106837272644
","x: 214.3821258544922
y: 205.7872772216797
z: -0.25146955251693726
visibility: 0.9977322220802307
","x: 215.48963928222656
y: 205.8780059814453
z: -0.25146347284317017
visibility: 0.9978954792022705
","x: 209.8731689453125
y: 205.3513946533203
z: -0.2584132254123688
visibility: 0.9978633522987366
","x: 208.57940673828125
y: 205.19212341308594
z: -0.2584671378135681
visibility: 0.9979777932167053
","x: 207.17030334472656
y: 205.08908081054688
z: -0.2585153579711914
visibility: 0.997986912727356
","x: 216.551513671875
y: 209.0585479736328
z: -0.12313894182443619
visibility: 0.9951587915420532
","x: 203.5182647705078
y: 207.9244384765625
z: -0.1554345041513443
visibility: 0.9953494071960449
","x: 212.86688232421875
y: 218.87353515625
z: -0.22518157958984375
visibility: 0.9984071254730225
","x: 208.80368041992188
y: 218.8365478515625
z: -0.23493614792823792
visibility: 0.9976367950439453
","x: 227.4640655517578
y: 252.0262908935547
z: -0.026924561709165573
visibility: 0.999326229095459
","x: 191.61795043945312
y: 247.74371337890625
z: -0.1251479536294937
visibility: 0.9982566237449646
","x: 233.9207763671875
y: 305.2361755371094
z: 0.02581069990992546
visibility: 0.844948947429657
","x: 190.68165588378906
y: 267.1249084472656
z: -0.29061371088027954
visibility: 0.9856600165367126
","x: 240.6895294189453
y: 348.06256103515625
z: -0.007658700458705425
visibility: 0.7312861680984497
","x: 200.78514099121094
y: 223.0320587158203
z: -0.49139004945755005
visibility: 0.9657499194145203
","x: 244.5334014892578
y: 363.934814453125
z: -0.01751595176756382
visibility: 0.614444375038147
","x: 202.68731689453125
y: 210.2958526611328
z: -0.5415678024291992
visibility: 0.9124054312705994
","x: 243.67623901367188
y: 364.8705749511719
z: -0.04182979837059975
visibility: 0.6258394718170166
","x: 202.12408447265625
y: 207.72950744628906
z: -0.5364096164703369
visibility: 0.90059494972229
","x: 241.9765625
y: 359.8971252441406
z: -0.01781698875129223
visibility: 0.597978413105011
","x: 201.91571044921875
y: 211.8219757080078
z: -0.4958420395851135
visibility: 0.8583218455314636
","x: 221.93197631835938
y: 355.50482177734375
z: 0.02998998761177063
visibility: 0.9998738169670105
","x: 199.61331176757812
y: 353.5077209472656
z: -0.030202070251107216
visibility: 0.9997761845588684
","x: 222.3311004638672
y: 435.54620361328125
z: 0.01256068330258131
visibility: 0.9878938794136047
","x: 195.16787719726562
y: 434.8252868652344
z: -0.03608673810958862
visibility: 0.9828730225563049
","x: 221.68655395507812
y: 501.9298095703125
z: 0.2231646329164505
visibility: 0.9878129959106445
","x: 189.41958618164062
y: 501.55865478515625
z: 0.15929868817329407
visibility: 0.9770874381065369
","x: 218.21116638183594
y: 510.64947509765625
z: 0.23751714825630188
visibility: 0.9083567261695862
","x: 190.4464569091797
y: 508.2684326171875
z: 0.1720888316631317
visibility: 0.7593173384666443
","x: 225.49102783203125
y: 526.2351684570312
z: 0.1142197996377945
visibility: 0.9841576814651489
","x: 189.5971221923828
y: 526.7761840820312
z: 0.038367919623851776
visibility: 0.9763889312744141
",,,,,,,,,,,,,,,,,,,,,,,,,,,,,,,,,,,,,,,,,,
5,"x: 208.87484741210938
y: 212.42906188964844
z: -0.2732091546058655
visibility: 0.999191164970398
","x: 210.46717834472656
y: 205.896240234375
z: -0.25375670194625854
visibility: 0.9982609152793884
","x: 211.52996826171875
y: 205.84930419921875
z: -0.25371602177619934
visibility: 0.9979152679443359
","x: 212.56263732910156
y: 205.99264526367188
z: -0.2537095844745636
visibility: 0.9980582594871521
","x: 207.21505737304688
y: 205.50381469726562
z: -0.2609911262989044
visibility: 0.9980427026748657
","x: 205.95790100097656
y: 205.23455810546875
z: -0.261051744222641
visibility: 0.9981501698493958
","x: 204.62844848632812
y: 205.28067016601562
z: -0.2611013650894165
visibility: 0.9981567859649658
","x: 213.48704528808594
y: 209.21571350097656
z: -0.1310388147830963
visibility: 0.9955472946166992
","x: 201.14105224609375
y: 208.1941375732422
z: -0.16463278234004974
visibility: 0.9957478642463684
","x: 209.80641174316406
y: 218.96206665039062
z: -0.2259354293346405
visibility: 0.9985346794128418
","x: 205.98681640625
y: 219.2523193359375
z: -0.23606114089488983
visibility: 0.9978342652320862
","x: 223.81968688964844
y: 252.17703247070312
z: -0.028383726254105568
visibility: 0.9993407726287842
","x: 187.55479431152344
y: 247.88430786132812
z: -0.13412892818450928
visibility: 0.99838787317276
","x: 229.29730224609375
y: 305.1745300292969
z: 0.03557921200990677
visibility: 0.845085859298706
","x: 186.185302734375
y: 267.40618896484375
z: -0.2842060327529907
visibility: 0.9864075183868408
","x: 234.21780395507812
y: 348.0027770996094
z: 0.02805406227707863
visibility: 0.726739764213562
","x: 196.3982696533203
y: 224.94332885742188
z: -0.4804338812828064
visibility: 0.9678295850753784
","x: 237.8602294921875
y: 363.1998291015625
z: 0.027466852217912674
visibility: 0.603696346282959
","x: 198.7465362548828
y: 211.80828857421875
z: -0.5364714860916138
visibility: 0.9174814224243164
","x: 237.27032470703125
y: 364.67425537109375
z: 0.004315206781029701
visibility: 0.6148262619972229
","x: 198.50843811035156
y: 209.25621032714844
z: -0.5256248712539673
visibility: 0.9062965512275696
","x: 235.44334411621094
y: 359.8521728515625
z: 0.019179800525307655
visibility: 0.5884411334991455
","x: 198.16452026367188
y: 213.8389434814453
z: -0.4870851933956146
visibility: 0.8654055595397949
","x: 217.36163330078125
y: 355.9671630859375
z: 0.029485318809747696
visibility: 0.9998595714569092
","x: 194.81915283203125
y: 355.10870361328125
z: -0.029694801196455956
visibility: 0.9997683167457581
","x: 220.1040802001953
y: 434.76922607421875
z: 0.007945338264107704
visibility: 0.9880099892616272
","x: 192.16534423828125
y: 434.3035583496094
z: -0.033824674785137177
visibility: 0.983769416809082
","x: 221.6639404296875
y: 501.88006591796875
z: 0.20059557259082794
visibility: 0.9883162975311279
","x: 189.60671997070312
y: 501.4208984375
z: 0.1409553438425064
visibility: 0.9786897301673889
","x: 218.45086669921875
y: 510.6103210449219
z: 0.21452589333057404
visibility: 0.9114097952842712
","x: 190.57354736328125
y: 507.711181640625
z: 0.1517462581396103
visibility: 0.7695332765579224
","x: 225.49493408203125
y: 525.9708251953125
z: 0.0850459486246109
visibility: 0.9847262501716614
","x: 190.034912109375
y: 526.357666015625
z: 0.02277238667011261
visibility: 0.9777451157569885
",,,,,,,,,,,,,,,,,,,,,,,,,,,,,,,,,,,,,,,,,,
6,"x: 207.26119995117188
y: 212.85133361816406
z: -0.2635095715522766
visibility: 0.9992592334747314
","x: 208.2621307373047
y: 206.2547607421875
z: -0.2397167682647705
visibility: 0.9984054565429688
","x: 209.09783935546875
y: 206.17779541015625
z: -0.2397293746471405
visibility: 0.9980860352516174
","x: 209.9252471923828
y: 206.23391723632812
z: -0.23975308239459991
visibility: 0.9982141256332397
","x: 205.36093139648438
y: 205.9250030517578
z: -0.25191158056259155
visibility: 0.9982087016105652
","x: 204.12081909179688
y: 205.65328979492188
z: -0.2519643306732178
visibility: 0.9983078241348267
","x: 202.78028869628906
y: 205.5705108642578
z: -0.2520938813686371
visibility: 0.9983110427856445
","x: 209.70486450195312
y: 209.13479614257812
z: -0.11838563531637192
visibility: 0.9959149956703186
","x: 198.5782928466797
y: 207.96530151367188
z: -0.15787865221500397
visibility: 0.9961153268814087
","x: 207.7186279296875
y: 219.2505645751953
z: -0.21818780899047852
visibility: 0.9986563920974731
","x: 204.03370666503906
y: 219.57273864746094
z: -0.22313383221626282
visibility: 0.9980226159095764
","x: 217.88832092285156
y: 253.61575317382812
z: -0.026895757764577866
visibility: 0.9993628263473511
","x: 182.48944091796875
y: 247.89674377441406
z: -0.14058277010917664
visibility: 0.9985067248344421
","x: 224.25221252441406
y: 305.44866943359375
z: 0.02928551658987999
visibility: 0.8475093841552734
","x: 183.29847717285156
y: 271.9698791503906
z: -0.2937161326408386
visibility: 0.9873544573783875
","x: 231.4037322998047
y: 347.6451110839844
z: -0.02640465274453163
visibility: 0.7387034296989441
","x: 191.22720336914062
y: 227.43934631347656
z: -0.47600287199020386
visibility: 0.9706162810325623
","x: 234.22314453125
y: 361.9889831542969
z: -0.03907687962055206
visibility: 0.6153284311294556
","x: 193.3367156982422
y: 215.8970947265625
z: -0.5241944193840027
visibility: 0.9245792031288147
","x: 233.68936157226562
y: 363.4216613769531
z: -0.06259496510028839
visibility: 0.6265076398849487
","x: 192.01454162597656
y: 213.0054931640625
z: -0.5180674195289612
visibility: 0.914366602897644
","x: 232.2314453125
y: 358.51007080078125
z: -0.037613485008478165
visibility: 0.6011261940002441
","x: 191.83811950683594
y: 216.6883087158203
z: -0.4797188341617584
visibility: 0.876504123210907
","x: 213.6793670654297
y: 355.9158935546875
z: 0.03380351513624191
visibility: 0.9998582601547241
","x: 192.17526245117188
y: 355.32666015625
z: -0.03394611179828644
visibility: 0.9997732043266296
","x: 218.0103302001953
y: 431.23223876953125
z: -0.012920650653541088
visibility: 0.9884206652641296
","x: 190.1764678955078
y: 433.7408447265625
z: -0.046902913600206375
visibility: 0.9848341941833496
","x: 218.79103088378906
y: 501.27545166015625
z: 0.14108236134052277
visibility: 0.9888195991516113
","x: 189.34707641601562
y: 502.2340393066406
z: 0.10055215656757355
visibility: 0.9803189635276794
","x: 215.7172088623047
y: 510.44183349609375
z: 0.15044887363910675
visibility: 0.9170240163803101
","x: 190.27622985839844
y: 509.60064697265625
z: 0.1084543913602829
visibility: 0.7820467352867126
","x: 225.547607421875
y: 525.0568237304688
z: 0.03857690840959549
visibility: 0.9854839444160461
","x: 190.21578979492188
y: 525.765380859375
z: -0.018248656764626503
visibility: 0.9792084693908691
",,,,,,,,,,,,,,,,,,,,,,,,,,,,,,,,,,,,,,,,,,
7,"x: 206.2803497314453
y: 215.18418884277344
z: -0.26655927300453186
visibility: 0.9993173480033875
","x: 207.81964111328125
y: 208.0189666748047
z: -0.24987593293190002
visibility: 0.9985140562057495
","x: 208.66012573242188
y: 207.81288146972656
z: -0.24986103177070618
visibility: 0.9982120394706726
","x: 209.4239959716797
y: 207.67547607421875
z: -0.24985642731189728
visibility: 0.998318612575531
","x: 204.53897094726562
y: 207.3824920654297
z: -0.2616945803165436
visibility: 0.9983406662940979
","x: 203.07980346679688
y: 206.7205810546875
z: -0.26172831654548645
visibility: 0.9984320402145386
","x: 201.56927490234375
y: 206.1599578857422
z: -0.2617992162704468
visibility: 0.9984312057495117
","x: 209.03236389160156
y: 209.4025421142578
z: -0.1330733448266983
visibility: 0.9962093234062195
","x: 197.21249389648438
y: 208.0754852294922
z: -0.18808655440807343
visibility: 0.9964196085929871
","x: 207.37857055664062
y: 221.90744018554688
z: -0.21993927657604218
visibility: 0.9987586736679077
","x: 202.63394165039062
y: 221.24569702148438
z: -0.23456653952598572
visibility: 0.9981944561004639
","x: 215.5329132080078
y: 253.543212890625
z: -0.029463011771440506
visibility: 0.9994094371795654
","x: 180.43817138671875
y: 246.83197021484375
z: -0.14611701667308807
visibility: 0.9986351728439331
","x: 222.06802368164062
y: 305.4336853027344
z: 0.04635511338710785
visibility: 0.8519519567489624
","x: 177.505859375
y: 289.98309326171875
z: -0.29184046387672424
visibility: 0.9876478910446167
","x: 233.6502227783203
y: 338.408203125
z: -0.013985276222229004
visibility: 0.7587864995002747
","x: 189.44114685058594
y: 258.01043701171875
z: -0.47111624479293823
visibility: 0.9727441072463989
","x: 235.6200408935547
y: 351.8056945800781
z: -0.023357097059488297
visibility: 0.6426893472671509
","x: 194.54049682617188
y: 248.8284454345703
z: -0.5219053030014038
visibility: 0.9302371144294739
","x: 236.1790771484375
y: 352.3424987792969
z: -0.04883899167180061
visibility: 0.6535705924034119
","x: 194.3958282470703
y: 241.66595458984375
z: -0.5118300914764404
visibility: 0.9208818078041077
","x: 233.968994140625
y: 347.9883117675781
z: -0.024144668132066727
visibility: 0.6295536160469055
","x: 193.13270568847656
y: 244.4810333251953
z: -0.4741913378238678
visibility: 0.8852311968803406
","x: 210.44146728515625
y: 355.59552001953125
z: 0.03268570452928543
visibility: 0.9998440742492676
","x: 190.25038146972656
y: 355.162353515625
z: -0.032820504158735275
visibility: 0.9997517466545105
","x: 214.10421752929688
y: 429.7595520019531
z: 0.005217697471380234
visibility: 0.9881284236907959
","x: 188.6688690185547
y: 433.14459228515625
z: -0.008412199094891548
visibility: 0.9849046468734741
","x: 207.06124877929688
y: 496.5899963378906
z: 0.20639820396900177
visibility: 0.9882610440254211
","x: 189.35626220703125
y: 501.14495849609375
z: 0.17899522185325623
visibility: 0.9811712503433228
","x: 202.4499053955078
y: 505.3570556640625
z: 0.22139227390289307
visibility: 0.9191073775291443
","x: 190.20176696777344
y: 509.1641845703125
z: 0.19228117167949677
visibility: 0.7931479811668396
","x: 215.56883239746094
y: 523.4219970703125
z: 0.11999382078647614
visibility: 0.9854952096939087
","x: 190.22360229492188
y: 525.4744873046875
z: 0.0769554004073143
visibility: 0.9798775315284729
","x: 191.39407348632812
y: 260.3071594238281
z: 0.0
","x: 192.8959197998047
y: 252.22154235839844
z: 0.0017733676359057426
","x: 195.7339324951172
y: 244.96646118164062
z: 0.00019845178758259863
","x: 198.69200134277344
y: 240.95252990722656
z: -0.0021505558397620916
","x: 200.7491912841797
y: 238.83843994140625
z: -0.004382582381367683
","x: 194.86941528320312
y: 242.84523010253906
z: -0.005950097925961018
","x: 199.23086547851562
y: 236.63168334960938
z: -0.009917535819113255
","x: 202.4993133544922
y: 236.6222381591797
z: -0.010909462347626686
","x: 204.7638397216797
y: 237.81263732910156
z: -0.011063878424465656
","x: 194.8863983154297
y: 246.48924255371094
z: -0.009238041937351227
","x: 199.6591796875
y: 241.98245239257812
z: -0.01339318323880434
","x: 202.75039672851562
y: 242.39825439453125
z: -0.012890850193798542
","x: 204.5117645263672
y: 243.23370361328125
z: -0.012208132073283195
","x: 195.0186004638672
y: 251.20835876464844
z: -0.012163533829152584
","x: 199.4956512451172
y: 248.27633666992188
z: -0.015849322080612183
","x: 202.48822021484375
y: 248.11126708984375
z: -0.014348612166941166
","x: 204.12132263183594
y: 248.26809692382812
z: -0.013002069666981697
","x: 195.44540405273438
y: 256.11236572265625
z: -0.014958254992961884
","x: 199.01695251464844
y: 254.8258819580078
z: -0.017591914162039757
","x: 201.29232788085938
y: 254.55288696289062
z: -0.016667872667312622
","x: 202.60302734375
y: 254.68661499023438
z: -0.015610982663929462
",,,,,,,,,,,,,,,,,,,,,
8,"x: 206.2803497314453
y: 215.18418884277344
z: -0.26655927300453186
visibility: 0.9993173480033875
","x: 207.81964111328125
y: 208.0189666748047
z: -0.24987593293190002
visibility: 0.9985140562057495
","x: 208.66012573242188
y: 207.81288146972656
z: -0.24986103177070618
visibility: 0.9982120394706726
","x: 209.4239959716797
y: 207.67547607421875
z: -0.24985642731189728
visibility: 0.998318612575531
","x: 204.53897094726562
y: 207.3824920654297
z: -0.2616945803165436
visibility: 0.9983406662940979
","x: 203.07980346679688
y: 206.7205810546875
z: -0.26172831654548645
visibility: 0.9984320402145386
","x: 201.56927490234375
y: 206.1599578857422
z: -0.2617992162704468
visibility: 0.9984312057495117
","x: 209.03236389160156
y: 209.4025421142578
z: -0.1330733448266983
visibility: 0.9962093234062195
","x: 197.21249389648438
y: 208.0754852294922
z: -0.18808655440807343
visibility: 0.9964196085929871
","x: 207.37857055664062
y: 221.90744018554688
z: -0.21993927657604218
visibility: 0.9987586736679077
","x: 202.63394165039062
y: 221.24569702148438
z: -0.23456653952598572
visibility: 0.9981944561004639
","x: 215.5329132080078
y: 253.543212890625
z: -0.029463011771440506
visibility: 0.9994094371795654
","x: 180.43817138671875
y: 246.83197021484375
z: -0.14611701667308807
visibility: 0.9986351728439331
","x: 222.06802368164062
y: 305.4336853027344
z: 0.04635511338710785
visibility: 0.8519519567489624
","x: 177.505859375
y: 289.98309326171875
z: -0.29184046387672424
visibility: 0.9876478910446167
","x: 233.6502227783203
y: 338.408203125
z: -0.013985276222229004
visibility: 0.7587864995002747
","x: 189.44114685058594
y: 258.01043701171875
z: -0.47111624479293823
visibility: 0.9727441072463989
","x: 235.6200408935547
y: 351.8056945800781
z: -0.023357097059488297
visibility: 0.6426893472671509
","x: 194.54049682617188
y: 248.8284454345703
z: -0.5219053030014038
visibility: 0.9302371144294739
","x: 236.1790771484375
y: 352.3424987792969
z: -0.04883899167180061
visibility: 0.6535705924034119
","x: 194.3958282470703
y: 241.66595458984375
z: -0.5118300914764404
visibility: 0.9208818078041077
","x: 233.968994140625
y: 347.9883117675781
z: -0.024144668132066727
visibility: 0.6295536160469055
","x: 193.13270568847656
y: 244.4810333251953
z: -0.4741913378238678
visibility: 0.8852311968803406
","x: 210.44146728515625
y: 355.59552001953125
z: 0.03268570452928543
visibility: 0.9998440742492676
","x: 190.25038146972656
y: 355.162353515625
z: -0.032820504158735275
visibility: 0.9997517466545105
","x: 214.10421752929688
y: 429.7595520019531
z: 0.005217697471380234
visibility: 0.9881284236907959
","x: 188.6688690185547
y: 433.14459228515625
z: -0.008412199094891548
visibility: 0.9849046468734741
","x: 207.06124877929688
y: 496.5899963378906
z: 0.20639820396900177
visibility: 0.9882610440254211
","x: 189.35626220703125
y: 501.14495849609375
z: 0.17899522185325623
visibility: 0.9811712503433228
","x: 202.4499053955078
y: 505.3570556640625
z: 0.22139227390289307
visibility: 0.9191073775291443
","x: 190.20176696777344
y: 509.1641845703125
z: 0.19228117167949677
visibility: 0.7931479811668396
","x: 215.56883239746094
y: 523.4219970703125
z: 0.11999382078647614
visibility: 0.9854952096939087
","x: 190.22360229492188
y: 525.4744873046875
z: 0.0769554004073143
visibility: 0.9798775315284729
","x: 191.39407348632812
y: 260.3071594238281
z: 0.0
","x: 192.8959197998047
y: 252.22154235839844
z: 0.0017733676359057426
","x: 195.7339324951172
y: 244.96646118164062
z: 0.00019845178758259863
","x: 198.69200134277344
y: 240.95252990722656
z: -0.0021505558397620916
","x: 200.7491912841797
y: 238.83843994140625
z: -0.004382582381367683
","x: 194.86941528320312
y: 242.84523010253906
z: -0.005950097925961018
","x: 199.23086547851562
y: 236.63168334960938
z: -0.009917535819113255
","x: 202.4993133544922
y: 236.6222381591797
z: -0.010909462347626686
","x: 204.7638397216797
y: 237.81263732910156
z: -0.011063878424465656
","x: 194.8863983154297
y: 246.48924255371094
z: -0.009238041937351227
","x: 199.6591796875
y: 241.98245239257812
z: -0.01339318323880434
","x: 202.75039672851562
y: 242.39825439453125
z: -0.012890850193798542
","x: 204.5117645263672
y: 243.23370361328125
z: -0.012208132073283195
","x: 195.0186004638672
y: 251.20835876464844
z: -0.012163533829152584
","x: 199.4956512451172
y: 248.27633666992188
z: -0.015849322080612183
","x: 202.48822021484375
y: 248.11126708984375
z: -0.014348612166941166
","x: 204.12132263183594
y: 248.26809692382812
z: -0.013002069666981697
","x: 195.44540405273438
y: 256.11236572265625
z: -0.014958254992961884
","x: 199.01695251464844
y: 254.8258819580078
z: -0.017591914162039757
","x: 201.29232788085938
y: 254.55288696289062
z: -0.016667872667312622
","x: 202.60302734375
y: 254.68661499023438
z: -0.015610982663929462
",,,,,,,,,,,,,,,,,,,,,
9,"x: 206.9426727294922
y: 217.34918212890625
z: -0.28941676020622253
visibility: 0.9993764758110046
","x: 208.25692749023438
y: 209.4545135498047
z: -0.27066299319267273
visibility: 0.9986404180526733
","x: 209.10354614257812
y: 209.05670166015625
z: -0.2706802487373352
visibility: 0.9983619451522827
","x: 209.9254608154297
y: 208.70852661132812
z: -0.2707018256187439
visibility: 0.9984563589096069
","x: 205.1385040283203
y: 209.0382080078125
z: -0.28570523858070374
visibility: 0.9984866976737976
","x: 203.70355224609375
y: 208.35662841796875
z: -0.28573721647262573
visibility: 0.9985681176185608
","x: 202.23670959472656
y: 207.7108612060547
z: -0.2857927680015564
visibility: 0.9985657334327698
","x: 209.0203094482422
y: 210.03237915039062
z: -0.14479133486747742
visibility: 0.9965144395828247
","x: 197.59811401367188
y: 208.61178588867188
z: -0.21523252129554749
visibility: 0.9967496991157532
","x: 207.81582641601562
y: 223.98550415039062
z: -0.23956474661827087
visibility: 0.9988619685173035
","x: 203.45143127441406
y: 223.60633850097656
z: -0.2600036859512329
visibility: 0.9983614087104797
","x: 215.31082153320312
y: 253.70703125
z: -0.02827076055109501
visibility: 0.9994471669197083
","x: 180.0245819091797
y: 251.35671997070312
z: -0.174148827791214
visibility: 0.998752772808075
","x: 220.99099731445312
y: 305.4941101074219
z: 0.045692671090364456
visibility: 0.8471294045448303
","x: 177.53163146972656
y: 300.7376403808594
z: -0.2523621916770935
visibility: 0.9867606163024902
","x: 234.14053344726562
y: 339.069580078125
z: -0.05173809081315994
visibility: 0.7719677090644836
","x: 186.7622833251953
y: 320.18231201171875
z: -0.40411821007728577
visibility: 0.9724385142326355
","x: 237.27764892578125
y: 350.08319091796875
z: -0.07250408828258514
visibility: 0.6622242331504822
","x: 190.25747680664062
y: 329.7689208984375
z: -0.4453105926513672
visibility: 0.9323304891586304
","x: 236.3669891357422
y: 349.4542236328125
z: -0.10679934173822403
visibility: 0.6738158464431763
","x: 191.81553649902344
y: 323.9762878417969
z: -0.46044284105300903
visibility: 0.9239794611930847
","x: 234.3308563232422
y: 346.3280944824219
z: -0.06856273859739304
visibility: 0.6503315567970276
","x: 191.06716918945312
y: 320.0481872558594
z: -0.4125896990299225
visibility: 0.8891919255256653
","x: 208.98635864257812
y: 355.5967712402344
z: 0.040295083075761795
visibility: 0.9997727274894714
","x: 188.65330505371094
y: 355.4289245605469
z: -0.040323879569768906
visibility: 0.9996609687805176
","x: 209.24502563476562
y: 429.81732177734375
z: 0.03123677335679531
visibility: 0.9865779280662537
","x: 186.7389678955078
y: 433.719482421875
z: -0.01091329287737608
visibility: 0.9845865964889526
","x: 199.58717346191406
y: 498.2734680175781
z: 0.19275924563407898
visibility: 0.9870280623435974
","x: 188.70823669433594
y: 503.3389892578125
z: 0.13752660155296326
visibility: 0.9815455675125122
","x: 196.03663635253906
y: 507.8262939453125
z: 0.2071041762828827
visibility: 0.920669674873352
","x: 188.37014770507812
y: 512.40771484375
z: 0.14570248126983643
visibility: 0.8005566596984863
","x: 209.27847290039062
y: 523.4271850585938
z: 0.09487714618444443
visibility: 0.9848177433013916
","x: 190.771240234375
y: 525.3172607421875
z: 0.025470957159996033
visibility: 0.98002028465271
","x: 186.9039306640625
y: 321.5352783203125
z: 0.0
","x: 189.60255432128906
y: 316.5518493652344
z: -0.004560047760605812
","x: 192.51771545410156
y: 313.96832275390625
z: -0.008405210450291634
","x: 194.57484436035156
y: 314.596923828125
z: -0.010936710983514786
","x: 195.66920471191406
y: 317.3206787109375
z: -0.013141307048499584
","x: 188.75827026367188
y: 319.2975158691406
z: -0.01594270020723343
","x: 193.1436309814453
y: 325.3484802246094
z: -0.019578099250793457
","x: 195.82818603515625
y: 326.3775939941406
z: -0.018866492435336113
","x: 197.42652893066406
y: 325.85992431640625
z: -0.017629751935601234
","x: 187.51036071777344
y: 324.2674255371094
z: -0.014558604918420315
","x: 192.97598266601562
y: 330.3213195800781
z: -0.018271703273057938
","x: 195.98365783691406
y: 330.11029052734375
z: -0.016128381714224815
","x: 197.31593322753906
y: 328.5950012207031
z: -0.014153066091239452
","x: 187.30783081054688
y: 328.1151123046875
z: -0.012562914751470089
","x: 192.3602752685547
y: 333.1877136230469
z: -0.015677321702241898
","x: 195.14002990722656
y: 332.2170715332031
z: -0.013411164283752441
","x: 196.33888244628906
y: 330.308349609375
z: -0.011376753449440002
","x: 187.81410217285156
y: 331.02801513671875
z: -0.010688245296478271
","x: 191.5755157470703
y: 334.8231506347656
z: -0.012722883373498917
","x: 193.92584228515625
y: 333.72064208984375
z: -0.011935689486563206
","x: 195.14683532714844
y: 331.6298828125
z: -0.01091956626623869
",,,,,,,,,,,,,,,,,,,,,
10,"x: 206.9426727294922
y: 217.34918212890625
z: -0.28941676020622253
visibility: 0.9993764758110046
","x: 208.25692749023438
y: 209.4545135498047
z: -0.27066299319267273
visibility: 0.9986404180526733
","x: 209.10354614257812
y: 209.05670166015625
z: -0.2706802487373352
visibility: 0.9983619451522827
","x: 209.9254608154297
y: 208.70852661132812
z: -0.2707018256187439
visibility: 0.9984563589096069
","x: 205.1385040283203
y: 209.0382080078125
z: -0.28570523858070374
visibility: 0.9984866976737976
","x: 203.70355224609375
y: 208.35662841796875
z: -0.28573721647262573
visibility: 0.9985681176185608
","x: 202.23670959472656
y: 207.7108612060547
z: -0.2857927680015564
visibility: 0.9985657334327698
","x: 209.0203094482422
y: 210.03237915039062
z: -0.14479133486747742
visibility: 0.9965144395828247
","x: 197.59811401367188
y: 208.61178588867188
z: -0.21523252129554749
visibility: 0.9967496991157532
","x: 207.81582641601562
y: 223.98550415039062
z: -0.23956474661827087
visibility: 0.9988619685173035
","x: 203.45143127441406
y: 223.60633850097656
z: -0.2600036859512329
visibility: 0.9983614087104797
","x: 215.31082153320312
y: 253.70703125
z: -0.02827076055109501
visibility: 0.9994471669197083
","x: 180.0245819091797
y: 251.35671997070312
z: -0.174148827791214
visibility: 0.998752772808075
","x: 220.99099731445312
y: 305.4941101074219
z: 0.045692671090364456
visibility: 0.8471294045448303
","x: 177.53163146972656
y: 300.7376403808594
z: -0.2523621916770935
visibility: 0.9867606163024902
","x: 234.14053344726562
y: 339.069580078125
z: -0.05173809081315994
visibility: 0.7719677090644836
","x: 186.7622833251953
y: 320.18231201171875
z: -0.40411821007728577
visibility: 0.9724385142326355
","x: 237.27764892578125
y: 350.08319091796875
z: -0.07250408828258514
visibility: 0.6622242331504822
","x: 190.25747680664062
y: 329.7689208984375
z: -0.4453105926513672
visibility: 0.9323304891586304
","x: 236.3669891357422
y: 349.4542236328125
z: -0.10679934173822403
visibility: 0.6738158464431763
","x: 191.81553649902344
y: 323.9762878417969
z: -0.46044284105300903
visibility: 0.9239794611930847
","x: 234.3308563232422
y: 346.3280944824219
z: -0.06856273859739304
visibility: 0.6503315567970276
","x: 191.06716918945312
y: 320.0481872558594
z: -0.4125896990299225
visibility: 0.8891919255256653
","x: 208.98635864257812
y: 355.5967712402344
z: 0.040295083075761795
visibility: 0.9997727274894714
","x: 188.65330505371094
y: 355.4289245605469
z: -0.040323879569768906
visibility: 0.9996609687805176
","x: 209.24502563476562
y: 429.81732177734375
z: 0.03123677335679531
visibility: 0.9865779280662537
","x: 186.7389678955078
y: 433.719482421875
z: -0.01091329287737608
visibility: 0.9845865964889526
","x: 199.58717346191406
y: 498.2734680175781
z: 0.19275924563407898
visibility: 0.9870280623435974
","x: 188.70823669433594
y: 503.3389892578125
z: 0.13752660155296326
visibility: 0.9815455675125122
","x: 196.03663635253906
y: 507.8262939453125
z: 0.2071041762828827
visibility: 0.920669674873352
","x: 188.37014770507812
y: 512.40771484375
z: 0.14570248126983643
visibility: 0.8005566596984863
","x: 209.27847290039062
y: 523.4271850585938
z: 0.09487714618444443
visibility: 0.9848177433013916
","x: 190.771240234375
y: 525.3172607421875
z: 0.025470957159996033
visibility: 0.98002028465271
","x: 186.9039306640625
y: 321.5352783203125
z: 0.0
","x: 189.60255432128906
y: 316.5518493652344
z: -0.004560047760605812
","x: 192.51771545410156
y: 313.96832275390625
z: -0.008405210450291634
","x: 194.57484436035156
y: 314.596923828125
z: -0.010936710983514786
","x: 195.66920471191406
y: 317.3206787109375
z: -0.013141307048499584
","x: 188.75827026367188
y: 319.2975158691406
z: -0.01594270020723343
","x: 193.1436309814453
y: 325.3484802246094
z: -0.019578099250793457
","x: 195.82818603515625
y: 326.3775939941406
z: -0.018866492435336113
","x: 197.42652893066406
y: 325.85992431640625
z: -0.017629751935601234
","x: 187.51036071777344
y: 324.2674255371094
z: -0.014558604918420315
","x: 192.97598266601562
y: 330.3213195800781
z: -0.018271703273057938
","x: 195.98365783691406
y: 330.11029052734375
z: -0.016128381714224815
","x: 197.31593322753906
y: 328.5950012207031
z: -0.014153066091239452
","x: 187.30783081054688
y: 328.1151123046875
z: -0.012562914751470089
","x: 192.3602752685547
y: 333.1877136230469
z: -0.015677321702241898
","x: 195.14002990722656
y: 332.2170715332031
z: -0.013411164283752441
","x: 196.33888244628906
y: 330.308349609375
z: -0.011376753449440002
","x: 187.81410217285156
y: 331.02801513671875
z: -0.010688245296478271
","x: 191.5755157470703
y: 334.8231506347656
z: -0.012722883373498917
","x: 193.92584228515625
y: 333.72064208984375
z: -0.011935689486563206
","x: 195.14683532714844
y: 331.6298828125
z: -0.01091956626623869
",,,,,,,,,,,,,,,,,,,,,
11,"x: 208.10794067382812
y: 222.4167022705078
z: -0.29389169812202454
visibility: 0.999437153339386
","x: 209.49256896972656
y: 214.895751953125
z: -0.27306294441223145
visibility: 0.9987691044807434
","x: 210.38742065429688
y: 214.70025634765625
z: -0.2730795741081238
visibility: 0.9985166788101196
","x: 211.24298095703125
y: 214.49215698242188
z: -0.2731066644191742
visibility: 0.9986001253128052
","x: 206.3292694091797
y: 214.3897247314453
z: -0.28218626976013184
visibility: 0.998631477355957
","x: 204.93310546875
y: 213.81080627441406
z: -0.28221577405929565
visibility: 0.9987046122550964
","x: 203.4949951171875
y: 213.1931915283203
z: -0.2822640836238861
visibility: 0.9987024068832397
","x: 210.97402954101562
y: 215.5616455078125
z: -0.14887386560440063
visibility: 0.9968445301055908
","x: 199.37655639648438
y: 212.97471618652344
z: -0.1930437982082367
visibility: 0.9970622658729553
","x: 209.1363983154297
y: 228.56683349609375
z: -0.24648241698741913
visibility: 0.9989731311798096
","x: 204.8314208984375
y: 228.4174346923828
z: -0.2590758502483368
visibility: 0.9985233545303345
","x: 218.9010772705078
y: 258.5083312988281
z: -0.054722171276807785
visibility: 0.9994975924491882
","x: 182.71075439453125
y: 255.9550323486328
z: -0.13911321759223938
visibility: 0.9988717436790466
","x: 224.03048706054688
y: 305.83612060546875
z: 0.004192724823951721
visibility: 0.8576341271400452
","x: 174.30921936035156
y: 311.2927551269531
z: -0.12385698407888412
visibility: 0.9874230027198792
","x: 243.8087921142578
y: 339.42425537109375
z: -0.11965896934270859
visibility: 0.789986252784729
","x: 177.3054962158203
y: 353.2095642089844
z: -0.23374846577644348
visibility: 0.9727557301521301
","x: 248.41114807128906
y: 350.35443115234375
z: -0.14954887330532074
visibility: 0.6878196597099304
","x: 177.5977783203125
y: 366.99273681640625
z: -0.26498526334762573
visibility: 0.9340907335281372
","x: 248.0129852294922
y: 349.6012878417969
z: -0.18220238387584686
visibility: 0.6993653774261475
","x: 180.18214416503906
y: 365.55059814453125
z: -0.2912328839302063
visibility: 0.9268134832382202
","x: 246.2979736328125
y: 346.32122802734375
z: -0.13613396883010864
visibility: 0.6772608160972595
","x: 180.7738800048828
y: 360.8896179199219
z: -0.24547116458415985
visibility: 0.8936942219734192
","x: 212.56024169921875
y: 360.05816650390625
z: 0.02319355122745037
visibility: 0.9997750520706177
","x: 191.5733184814453
y: 359.2723388671875
z: -0.023086201399564743
visibility: 0.9996578693389893
","x: 210.897705078125
y: 426.793701171875
z: -0.15527555346488953
visibility: 0.9869958162307739
","x: 187.7523956298828
y: 433.3699951171875
z: -0.023456774652004242
visibility: 0.9846271872520447
","x: 201.38021850585938
y: 476.9457702636719
z: 0.11636465787887573
visibility: 0.9850388765335083
","x: 187.9329833984375
y: 502.3652648925781
z: 0.19873812794685364
visibility: 0.9815170764923096
","x: 196.90878295898438
y: 482.1207275390625
z: 0.14002886414527893
visibility: 0.9196029305458069
","x: 187.4219512939453
y: 510.69696044921875
z: 0.21508947014808655
visibility: 0.8024981021881104
","x: 206.74708557128906
y: 506.4883117675781
z: 0.041638292372226715
visibility: 0.9841111302375793
","x: 190.7764434814453
y: 524.6795043945312
z: 0.09336309134960175
visibility: 0.9791101813316345
",,,,,,,,,,,,,,,,,,,,,,,,,,,,,,,,,,,,,,,,,,
12,"x: 217.6947784423828
y: 216.72802734375
z: -0.37421420216560364
visibility: 0.9994931817054749
","x: 219.22984313964844
y: 208.80638122558594
z: -0.358842670917511
visibility: 0.9988908767700195
","x: 220.236328125
y: 208.52735900878906
z: -0.35887065529823303
visibility: 0.9986640810966492
","x: 221.2384033203125
y: 208.26576232910156
z: -0.3589090406894684
visibility: 0.9987384080886841
","x: 216.03366088867188
y: 208.59678649902344
z: -0.36237919330596924
visibility: 0.9987664222717285
","x: 214.6526336669922
y: 208.1621551513672
z: -0.3623984754085541
visibility: 0.9988324046134949
","x: 213.08811950683594
y: 207.67578125
z: -0.36241036653518677
visibility: 0.9988292455673218
","x: 221.32125854492188
y: 208.8859405517578
z: -0.2384917289018631
visibility: 0.9971573948860168
","x: 209.14776611328125
y: 207.40475463867188
z: -0.2563701272010803
visibility: 0.9973545670509338
","x: 218.8612060546875
y: 222.1871337890625
z: -0.32685571908950806
visibility: 0.9990753531455994
","x: 215.0926971435547
y: 222.14291381835938
z: -0.3322266936302185
visibility: 0.998670756816864
","x: 229.10862731933594
y: 250.1162109375
z: -0.14588198065757751
visibility: 0.99954754114151
","x: 190.3286895751953
y: 246.2918701171875
z: -0.15396949648857117
visibility: 0.998984158039093
","x: 238.6267852783203
y: 298.69482421875
z: -0.2306886613368988
visibility: 0.8695981502532959
","x: 178.00363159179688
y: 299.9966735839844
z: -0.09025134146213531
visibility: 0.9873393177986145
","x: 255.6538543701172
y: 276.5546875
z: -0.47852715849876404
visibility: 0.8102456331253052
","x: 169.7633056640625
y: 340.4718322753906
z: -0.11759519577026367
visibility: 0.9728459715843201
","x: 262.2351379394531
y: 269.9957275390625
z: -0.5248396992683411
visibility: 0.7176116108894348
","x: 165.8031768798828
y: 352.04638671875
z: -0.12778910994529724
visibility: 0.9353882670402527
","x: 261.28778076171875
y: 264.1269226074219
z: -0.5431903004646301
visibility: 0.7281612753868103
","x: 166.94801330566406
y: 353.68658447265625
z: -0.1598960906267166
visibility: 0.9293636083602905
","x: 258.91864013671875
y: 265.422119140625
z: -0.4926043152809143
visibility: 0.7076140642166138
","x: 169.4855499267578
y: 350.04962158203125
z: -0.1300814300775528
visibility: 0.8984460234642029
","x: 218.1159210205078
y: 352.7322998046875
z: 0.018947619944810867
visibility: 0.9997919797897339
","x: 195.262939453125
y: 351.800537109375
z: -0.018903519958257675
visibility: 0.9996877908706665
","x: 223.5963592529297
y: 417.884521484375
z: 0.03165506571531296
visibility: 0.9878301024436951
","x: 188.51341247558594
y: 426.2049560546875
z: -0.04682029038667679
visibility: 0.9860690832138062
","x: 220.06373596191406
y: 476.749755859375
z: 0.31724435091018677
visibility: 0.9861565232276917
","x: 188.15472412109375
y: 498.1592102050781
z: 0.15422874689102173
visibility: 0.9832265973091125
","x: 215.69918823242188
y: 484.2123107910156
z: 0.34022054076194763
visibility: 0.9234767556190491
","x: 187.87425231933594
y: 504.692626953125
z: 0.16776815056800842
visibility: 0.8172580599784851
","x: 228.10076904296875
y: 506.6181640625
z: 0.24045690894126892
visibility: 0.9852170944213867
","x: 190.78982543945312
y: 524.5317993164062
z: 0.0422927550971508
visibility: 0.9809606075286865
",,,,,,,,,,,,,,,,,,,,,,"x: 257.5052795410156
y: 276.7289733886719
z: 0.0
","x: 255.68206787109375
y: 267.8732604980469
z: -0.00016143213724717498
","x: 256.0846862792969
y: 258.39300537109375
z: -0.0006342597771435976
","x: 257.98309326171875
y: 251.87339782714844
z: -0.0021849621552973986
","x: 260.1740417480469
y: 247.5613250732422
z: -0.003048952901735902
","x: 261.2933654785156
y: 255.0909423828125
z: 0.0040911720134317875
","x: 263.57830810546875
y: 248.57839965820312
z: 0.001644056523218751
","x: 262.1567687988281
y: 247.8750762939453
z: 0.0007160262321121991
","x: 260.4851989746094
y: 249.1421661376953
z: 0.0005913007189519703
","x: 263.7217102050781
y: 258.2139587402344
z: 0.0021816836670041084
","x: 265.41229248046875
y: 252.0947265625
z: -0.0008304851362481713
","x: 262.6611022949219
y: 252.74002075195312
z: -0.0017209529178217053
","x: 260.37249755859375
y: 255.2420196533203
z: -0.0013194504426792264
","x: 265.8204345703125
y: 262.3186950683594
z: -0.0005201033782213926
","x: 266.9752197265625
y: 256.8892822265625
z: -0.003659670939669013
","x: 263.7219543457031
y: 257.2967224121094
z: -0.0033539000432938337
","x: 261.15313720703125
y: 259.4297790527344
z: -0.0020740567706525326
","x: 267.7516784667969
y: 267.3174743652344
z: -0.0035999827086925507
","x: 269.5032958984375
y: 263.22210693359375
z: -0.0054472945630550385
","x: 268.2356262207031
y: 261.88128662109375
z: -0.005206358153373003
","x: 266.9506530761719
y: 262.116455078125
z: -0.004233076702803373
"
13,"x: 217.6947784423828
y: 216.72802734375
z: -0.37421420216560364
visibility: 0.9994931817054749
","x: 219.22984313964844
y: 208.80638122558594
z: -0.358842670917511
visibility: 0.9988908767700195
","x: 220.236328125
y: 208.52735900878906
z: -0.35887065529823303
visibility: 0.9986640810966492
","x: 221.2384033203125
y: 208.26576232910156
z: -0.3589090406894684
visibility: 0.9987384080886841
","x: 216.03366088867188
y: 208.59678649902344
z: -0.36237919330596924
visibility: 0.9987664222717285
","x: 214.6526336669922
y: 208.1621551513672
z: -0.3623984754085541
visibility: 0.9988324046134949
","x: 213.08811950683594
y: 207.67578125
z: -0.36241036653518677
visibility: 0.9988292455673218
","x: 221.32125854492188
y: 208.8859405517578
z: -0.2384917289018631
visibility: 0.9971573948860168
","x: 209.14776611328125
y: 207.40475463867188
z: -0.2563701272010803
visibility: 0.9973545670509338
","x: 218.8612060546875
y: 222.1871337890625
z: -0.32685571908950806
visibility: 0.9990753531455994
","x: 215.0926971435547
y: 222.14291381835938
z: -0.3322266936302185
visibility: 0.998670756816864
","x: 229.10862731933594
y: 250.1162109375
z: -0.14588198065757751
visibility: 0.99954754114151
","x: 190.3286895751953
y: 246.2918701171875
z: -0.15396949648857117
visibility: 0.998984158039093
","x: 238.6267852783203
y: 298.69482421875
z: -0.2306886613368988
visibility: 0.8695981502532959
","x: 178.00363159179688
y: 299.9966735839844
z: -0.09025134146213531
visibility: 0.9873393177986145
","x: 255.6538543701172
y: 276.5546875
z: -0.47852715849876404
visibility: 0.8102456331253052
","x: 169.7633056640625
y: 340.4718322753906
z: -0.11759519577026367
visibility: 0.9728459715843201
","x: 262.2351379394531
y: 269.9957275390625
z: -0.5248396992683411
visibility: 0.7176116108894348
","x: 165.8031768798828
y: 352.04638671875
z: -0.12778910994529724
visibility: 0.9353882670402527
","x: 261.28778076171875
y: 264.1269226074219
z: -0.5431903004646301
visibility: 0.7281612753868103
","x: 166.94801330566406
y: 353.68658447265625
z: -0.1598960906267166
visibility: 0.9293636083602905
","x: 258.91864013671875
y: 265.422119140625
z: -0.4926043152809143
visibility: 0.7076140642166138
","x: 169.4855499267578
y: 350.04962158203125
z: -0.1300814300775528
visibility: 0.8984460234642029
","x: 218.1159210205078
y: 352.7322998046875
z: 0.018947619944810867
visibility: 0.9997919797897339
","x: 195.262939453125
y: 351.800537109375
z: -0.018903519958257675
visibility: 0.9996877908706665
","x: 223.5963592529297
y: 417.884521484375
z: 0.03165506571531296
visibility: 0.9878301024436951
","x: 188.51341247558594
y: 426.2049560546875
z: -0.04682029038667679
visibility: 0.9860690832138062
","x: 220.06373596191406
y: 476.749755859375
z: 0.31724435091018677
visibility: 0.9861565232276917
","x: 188.15472412109375
y: 498.1592102050781
z: 0.15422874689102173
visibility: 0.9832265973091125
","x: 215.69918823242188
y: 484.2123107910156
z: 0.34022054076194763
visibility: 0.9234767556190491
","x: 187.87425231933594
y: 504.692626953125
z: 0.16776815056800842
visibility: 0.8172580599784851
","x: 228.10076904296875
y: 506.6181640625
z: 0.24045690894126892
visibility: 0.9852170944213867
","x: 190.78982543945312
y: 524.5317993164062
z: 0.0422927550971508
visibility: 0.9809606075286865
",,,,,,,,,,,,,,,,,,,,,,"x: 257.5052795410156
y: 276.7289733886719
z: 0.0
","x: 255.68206787109375
y: 267.8732604980469
z: -0.00016143213724717498
","x: 256.0846862792969
y: 258.39300537109375
z: -0.0006342597771435976
","x: 257.98309326171875
y: 251.87339782714844
z: -0.0021849621552973986
","x: 260.1740417480469
y: 247.5613250732422
z: -0.003048952901735902
","x: 261.2933654785156
y: 255.0909423828125
z: 0.0040911720134317875
","x: 263.57830810546875
y: 248.57839965820312
z: 0.001644056523218751
","x: 262.1567687988281
y: 247.8750762939453
z: 0.0007160262321121991
","x: 260.4851989746094
y: 249.1421661376953
z: 0.0005913007189519703
","x: 263.7217102050781
y: 258.2139587402344
z: 0.0021816836670041084
","x: 265.41229248046875
y: 252.0947265625
z: -0.0008304851362481713
","x: 262.6611022949219
y: 252.74002075195312
z: -0.0017209529178217053
","x: 260.37249755859375
y: 255.2420196533203
z: -0.0013194504426792264
","x: 265.8204345703125
y: 262.3186950683594
z: -0.0005201033782213926
","x: 266.9752197265625
y: 256.8892822265625
z: -0.003659670939669013
","x: 263.7219543457031
y: 257.2967224121094
z: -0.0033539000432938337
","x: 261.15313720703125
y: 259.4297790527344
z: -0.0020740567706525326
","x: 267.7516784667969
y: 267.3174743652344
z: -0.0035999827086925507
","x: 269.5032958984375
y: 263.22210693359375
z: -0.0054472945630550385
","x: 268.2356262207031
y: 261.88128662109375
z: -0.005206358153373003
","x: 266.9506530761719
y: 262.116455078125
z: -0.004233076702803373
"
14,"x: 224.64413452148438
y: 213.01028442382812
z: -0.2728692293167114
visibility: 0.9995437264442444
","x: 226.90487670898438
y: 205.4594268798828
z: -0.2572735846042633
visibility: 0.9990013837814331
","x: 228.3816375732422
y: 205.53851318359375
z: -0.2573394477367401
visibility: 0.9987973570823669
","x: 229.83131408691406
y: 205.6946563720703
z: -0.25734829902648926
visibility: 0.9988641142845154
","x: 222.88601684570312
y: 205.18446350097656
z: -0.2547212243080139
visibility: 0.998889148235321
","x: 221.5107421875
y: 205.03475952148438
z: -0.25470423698425293
visibility: 0.9989484548568726
","x: 220.10911560058594
y: 204.9111785888672
z: -0.25466495752334595
visibility: 0.9989454746246338
","x: 231.26434326171875
y: 207.92198181152344
z: -0.1479809433221817
visibility: 0.9974408745765686
","x: 217.73794555664062
y: 205.898193359375
z: -0.13786455988883972
visibility: 0.9976181983947754
","x: 226.51260375976562
y: 219.39669799804688
z: -0.2311372011899948
visibility: 0.9991675615310669
","x: 221.7360076904297
y: 219.02696228027344
z: -0.2276117503643036
visibility: 0.9988033771514893
","x: 239.9815673828125
y: 251.192626953125
z: -0.1348191201686859
visibility: 0.9995918869972229
","x: 202.4832000732422
y: 245.44650268554688
z: -0.04530494660139084
visibility: 0.9990831017494202
","x: 244.84193420410156
y: 299.1320495605469
z: -0.13080130517482758
visibility: 0.8800526857376099
","x: 188.80018615722656
y: 295.88848876953125
z: -0.03225892037153244
visibility: 0.9867600202560425
","x: 262.21124267578125
y: 284.6557922363281
z: -0.36500412225723267
visibility: 0.8284260034561157
","x: 177.5229034423828
y: 314.21832275390625
z: -0.15260066092014313
visibility: 0.9744172692298889
","x: 268.149658203125
y: 280.3497009277344
z: -0.40901979804039
visibility: 0.7443531155586243
","x: 173.2928466796875
y: 318.6620788574219
z: -0.17732280492782593
visibility: 0.9395847916603088
","x: 267.7081604003906
y: 276.1947937011719
z: -0.4280920922756195
visibility: 0.7540612816810608
","x: 173.62252807617188
y: 316.18743896484375
z: -0.20549516379833221
visibility: 0.9344931840896606
","x: 265.5977478027344
y: 277.24859619140625
z: -0.3795192539691925
visibility: 0.7349720001220703
","x: 176.21701049804688
y: 315.135498046875
z: -0.16702088713645935
visibility: 0.9063140749931335
","x: 228.31985473632812
y: 353.0419616699219
z: 0.002556320745497942
visibility: 0.9997962117195129
","x: 205.87417602539062
y: 351.7308349609375
z: -0.002555273938924074
visibility: 0.9997004270553589
","x: 235.98046875
y: 420.3292236328125
z: -0.003390943631529808
visibility: 0.9888766407966614
","x: 199.21824645996094
y: 426.3288879394531
z: -0.05650043487548828
visibility: 0.987334668636322
","x: 240.21917724609375
y: 491.8203125
z: 0.13612113893032074
visibility: 0.987369179725647
","x: 188.26515197753906
y: 498.2355041503906
z: 0.08953914791345596
visibility: 0.9846763014793396
","x: 238.79283142089844
y: 500.78802490234375
z: 0.1425694078207016
visibility: 0.9233367443084717
","x: 188.07408142089844
y: 504.75579833984375
z: 0.09726348519325256
visibility: 0.826434314250946
","x: 241.36668395996094
y: 517.0401611328125
z: 0.009349416941404343
visibility: 0.9863117337226868
","x: 190.21754455566406
y: 524.4237060546875
z: -0.03127781301736832
visibility: 0.9824920892715454
",,,,,,,,,,,,,,,,,,,,,,,,,,,,,,,,,,,,,,,,,,
15,"x: 229.3904571533203
y: 210.27545166015625
z: -0.2689882814884186
visibility: 0.9995877742767334
","x: 232.31326293945312
y: 203.3438262939453
z: -0.2538720667362213
visibility: 0.9990965723991394
","x: 233.85440063476562
y: 203.6465301513672
z: -0.2538977861404419
visibility: 0.9989128112792969
","x: 235.33094787597656
y: 204.048095703125
z: -0.25387558341026306
visibility: 0.9989715814590454
","x: 227.9021453857422
y: 202.77645874023438
z: -0.2514360249042511
visibility: 0.9989943504333496
","x: 226.4615478515625
y: 202.7009735107422
z: -0.2514704465866089
visibility: 0.9990484118461609
","x: 225.0496368408203
y: 202.6640167236328
z: -0.2514541745185852
visibility: 0.99904465675354
","x: 237.83230590820312
y: 207.50823974609375
z: -0.14916463196277618
visibility: 0.9976884722709656
","x: 224.73068237304688
y: 204.81103515625
z: -0.1427508294582367
visibility: 0.9978387355804443
","x: 232.04083251953125
y: 217.75726318359375
z: -0.23031921684741974
visibility: 0.9992479681968689
","x: 226.9188995361328
y: 217.53640747070312
z: -0.22743883728981018
visibility: 0.9989184737205505
","x: 248.45849609375
y: 251.26390075683594
z: -0.0863637700676918
visibility: 0.9996247291564941
","x: 211.9127960205078
y: 247.39126586914062
z: -0.065813809633255
visibility: 0.9991488456726074
","x: 255.46646118164062
y: 299.65887451171875
z: -0.08628816902637482
visibility: 0.8903557658195496
","x: 200.8833770751953
y: 298.58209228515625
z: -0.13615204393863678
visibility: 0.9851258993148804
","x: 265.042236328125
y: 327.8671569824219
z: -0.22397348284721375
visibility: 0.8434880971908569
","x: 188.3913116455078
y: 275.47613525390625
z: -0.3743128776550293
visibility: 0.9762331247329712
","x: 269.0258483886719
y: 338.1399841308594
z: -0.2510337233543396
visibility: 0.7652029395103455
","x: 181.9986572265625
y: 264.9300537109375
z: -0.42116808891296387
visibility: 0.944205105304718
","x: 268.4504699707031
y: 337.1419982910156
z: -0.27828189730644226
visibility: 0.7743533849716187
","x: 183.47348022460938
y: 260.7226867675781
z: -0.4346807599067688
visibility: 0.9396792054176331
","x: 266.4425048828125
y: 333.4057922363281
z: -0.23781926929950714
visibility: 0.7564258575439453
","x: 186.0010223388672
y: 263.3981628417969
z: -0.387111634016037
visibility: 0.9137564897537231
","x: 239.51683044433594
y: 354.580322265625
z: 0.00176343007478863
visibility: 0.999800443649292
","x: 217.8474884033203
y: 353.5876770019531
z: -0.001885824603959918
visibility: 0.9997099041938782
","x: 242.7196044921875
y: 426.6168518066406
z: -0.007574600633233786
visibility: 0.9898484349250793
","x: 207.94833374023438
y: 427.96624755859375
z: 0.0012988854432478547
visibility: 0.9884335994720459
","x: 242.1983184814453
y: 500.006103515625
z: 0.16066677868366241
visibility: 0.9884244203567505
","x: 198.77845764160156
y: 497.9906005859375
z: 0.1784723848104477
visibility: 0.9860199689865112
","x: 239.66896057128906
y: 509.70111083984375
z: 0.17118427157402039
visibility: 0.9257729053497314
","x: 200.94854736328125
y: 504.7396545410156
z: 0.18926498293876648
visibility: 0.8381115794181824
","x: 245.14866638183594
y: 523.1434326171875
z: 0.04663393273949623
visibility: 0.9872922897338867
","x: 191.86659240722656
y: 523.9002685546875
z: 0.06915373355150223
visibility: 0.9839233756065369
",,,,,,,,,,,,,,,,,,,,,,,,,,,,,,,,,,,,,,,,,,
16,"x: 231.78436279296875
y: 205.0183868408203
z: -0.28720414638519287
visibility: 0.9996139407157898
","x: 234.39389038085938
y: 197.88084411621094
z: -0.27464526891708374
visibility: 0.9991338849067688
","x: 236.09857177734375
y: 198.1765594482422
z: -0.2746568024158478
visibility: 0.9989727735519409
","x: 237.8045654296875
y: 198.6363525390625
z: -0.2746596038341522
visibility: 0.9990168809890747
","x: 230.39794921875
y: 197.32261657714844
z: -0.26827138662338257
visibility: 0.9990212321281433
","x: 229.24537658691406
y: 197.1971893310547
z: -0.26834842562675476
visibility: 0.9990833401679993
","x: 228.1024627685547
y: 197.12115478515625
z: -0.2683755159378052
visibility: 0.9990693926811218
","x: 241.2541046142578
y: 203.12135314941406
z: -0.17933566868305206
visibility: 0.997837245464325
","x: 228.20498657226562
y: 200.7577362060547
z: -0.1503066122531891
visibility: 0.9978227019309998
","x: 235.06503295898438
y: 213.66049194335938
z: -0.251629501581192
visibility: 0.9993042945861816
","x: 229.83627319335938
y: 213.41143798828125
z: -0.2439258098602295
visibility: 0.9989848136901855
","x: 254.62986755371094
y: 250.1750030517578
z: -0.10569193214178085
visibility: 0.9996458888053894
","x: 218.07423400878906
y: 247.42962646484375
z: -0.08555719256401062
visibility: 0.9991466403007507
","x: 259.8907775878906
y: 300.98687744140625
z: -0.08487550169229507
visibility: 0.8987613320350647
","x: 209.3166961669922
y: 302.407470703125
z: -0.17101527750492096
visibility: 0.9788500070571899
","x: 265.07696533203125
y: 343.7635803222656
z: -0.19599725306034088
visibility: 0.8553812503814697
","x: 201.81675720214844
y: 266.22601318359375
z: -0.4458348751068115
visibility: 0.9768341183662415
","x: 267.9544372558594
y: 358.25189208984375
z: -0.23018614947795868
visibility: 0.7807130217552185
","x: 199.20635986328125
y: 255.20419311523438
z: -0.49378857016563416
visibility: 0.9471654295921326
","x: 267.08880615234375
y: 359.74072265625
z: -0.25662508606910706
visibility: 0.789415717124939
","x: 200.8520050048828
y: 250.22569274902344
z: -0.5033330917358398
visibility: 0.9431056976318359
","x: 265.1754150390625
y: 354.08709716796875
z: -0.22056837379932404
visibility: 0.7720932960510254
","x: 202.46365356445312
y: 253.27157592773438
z: -0.4568338394165039
visibility: 0.918561577796936
","x: 244.90794372558594
y: 354.6265869140625
z: -0.0005828297580592334
visibility: 0.9998002052307129
","x: 222.73223876953125
y: 352.79254150390625
z: 0.00038749841041862965
visibility: 0.9997107982635498
","x: 244.7952423095703
y: 431.6481018066406
z: -0.02322862669825554
visibility: 0.9902321100234985
","x: 219.50001525878906
y: 427.834716796875
z: -0.05369992181658745
visibility: 0.9891327023506165
","x: 241.171875
y: 501.013916015625
z: 0.16834664344787598
visibility: 0.9888381361961365
","x: 221.43234252929688
y: 495.3160400390625
z: 0.18040122091770172
visibility: 0.9862741827964783
","x: 238.66419982910156
y: 510.0889892578125
z: 0.18227893114089966
visibility: 0.9220234751701355
","x: 223.6321563720703
y: 501.30438232421875
z: 0.19897128641605377
visibility: 0.8394891023635864
","x: 242.7958221435547
y: 524.1223754882812
z: 0.05376061797142029
visibility: 0.9874572157859802
","x: 219.48822021484375
y: 521.0565185546875
z: 0.09569958597421646
visibility: 0.9842885136604309
",,,,,,,,,,,,,,,,,,,,,,,,,,,,,,,,,,,,,,,,,,
17,"x: 235.32994079589844
y: 197.27688598632812
z: -0.21075502038002014
visibility: 0.9996501803398132
","x: 238.22813415527344
y: 190.1703643798828
z: -0.1968412697315216
visibility: 0.999215304851532
","x: 240.0551300048828
y: 190.40194702148438
z: -0.19691480696201324
visibility: 0.9990702867507935
","x: 241.8844451904297
y: 190.83590698242188
z: -0.196950763463974
visibility: 0.9991100430488586
","x: 234.031982421875
y: 190.36294555664062
z: -0.19075711071491241
visibility: 0.999110996723175
","x: 232.70220947265625
y: 190.56192016601562
z: -0.19074946641921997
visibility: 0.9991639852523804
","x: 231.3370819091797
y: 190.79898071289062
z: -0.1907607614994049
visibility: 0.999150276184082
","x: 245.01431274414062
y: 195.80975341796875
z: -0.0996328666806221
visibility: 0.998047411441803
","x: 230.78443908691406
y: 195.55532836914062
z: -0.06988169252872467
visibility: 0.9980219006538391
","x: 238.45166015625
y: 205.68910217285156
z: -0.17396247386932373
visibility: 0.9993729591369629
","x: 233.54075622558594
y: 205.49267578125
z: -0.16544950008392334
visibility: 0.9990847706794739
","x: 258.3400573730469
y: 248.65090942382812
z: -0.050570983439683914
visibility: 0.9996792078018188
","x: 218.55728149414062
y: 241.62838745117188
z: 0.006034444086253643
visibility: 0.9992262125015259
","x: 265.4284362792969
y: 295.61151123046875
z: -0.10204527527093887
visibility: 0.9062701463699341
","x: 210.2581329345703
y: 294.1282958984375
z: 0.023065488785505295
visibility: 0.9741044044494629
","x: 263.8136901855469
y: 314.84405517578125
z: -0.3166225850582123
visibility: 0.8671585917472839
","x: 204.56643676757812
y: 315.02325439453125
z: -0.12137581408023834
visibility: 0.9715985059738159
","x: 264.0729064941406
y: 325.5589599609375
z: -0.36570706963539124
visibility: 0.7985748052597046
","x: 201.5502166748047
y: 324.6187744140625
z: -0.15556803345680237
visibility: 0.9416509866714478
","x: 262.98681640625
y: 315.6707458496094
z: -0.3889055848121643
visibility: 0.8067424893379211
","x: 202.78770446777344
y: 323.3719177246094
z: -0.18599465489387512
visibility: 0.9388555884361267
","x: 262.01263427734375
y: 311.08538818359375
z: -0.3307758867740631
visibility: 0.7892876863479614
","x: 204.65757751464844
y: 320.4275207519531
z: -0.13772007822990417
visibility: 0.9155657887458801
","x: 247.51539611816406
y: 353.9007873535156
z: 2.6616567993187346e-05
visibility: 0.9997944831848145
","x: 224.943359375
y: 351.5922546386719
z: -5.9998266806360334e-05
visibility: 0.999712347984314
","x: 247.56591796875
y: 433.7679748535156
z: -0.026994407176971436
visibility: 0.9898730516433716
","x: 228.48284912109375
y: 429.1712646484375
z: -0.01344734150916338
visibility: 0.9892788529396057
","x: 241.97093200683594
y: 500.5610656738281
z: 0.1876898854970932
visibility: 0.9882029891014099
","x: 233.6309814453125
y: 501.2838439941406
z: 0.19508054852485657
visibility: 0.9865151047706604
","x: 240.83444213867188
y: 509.3629455566406
z: 0.20374014973640442
visibility: 0.917730987071991
","x: 234.8332977294922
y: 510.9971618652344
z: 0.20850077271461487
visibility: 0.8439895510673523
","x: 246.29183959960938
y: 524.2052612304688
z: 0.07599304616451263
visibility: 0.9862316250801086
","x: 234.4207305908203
y: 524.7696533203125
z: 0.08691944926977158
visibility: 0.9842423796653748
",,,,,,,,,,,,,,,,,,,,,,,,,,,,,,,,,,,,,,,,,,
18,"x: 239.53271484375
y: 196.1787567138672
z: -0.22159504890441895
visibility: 0.9996844530105591
","x: 241.83843994140625
y: 190.41415405273438
z: -0.20201826095581055
visibility: 0.9992905855178833
","x: 243.2704315185547
y: 190.84628295898438
z: -0.2020483911037445
visibility: 0.9991601705551147
","x: 244.8121795654297
y: 191.48240661621094
z: -0.20209865272045135
visibility: 0.9991950392723083
","x: 238.00881958007812
y: 190.17950439453125
z: -0.20911946892738342
visibility: 0.9991964101791382
","x: 236.6582489013672
y: 190.36825561523438
z: -0.20910362899303436
visibility: 0.9992440938949585
","x: 235.26600646972656
y: 190.58865356445312
z: -0.20914718508720398
visibility: 0.9992311000823975
","x: 246.74658203125
y: 196.97897338867188
z: -0.0845794528722763
visibility: 0.9982355237007141
","x: 232.9497833251953
y: 195.65191650390625
z: -0.11380945146083832
visibility: 0.9982171058654785
","x: 241.99807739257812
y: 203.98255920410156
z: -0.17670319974422455
visibility: 0.9994349479675293
","x: 237.07298278808594
y: 203.57369995117188
z: -0.18596674501895905
visibility: 0.9991758465766907
","x: 256.38555908203125
y: 247.46487426757812
z: -0.002609407063573599
visibility: 0.9997089505195618
","x: 218.88626098632812
y: 240.9212646484375
z: -0.04869822785258293
visibility: 0.9992993474006653
","x: 268.0144348144531
y: 291.206787109375
z: -0.0810358077287674
visibility: 0.9136644601821899
","x: 211.1505584716797
y: 299.2694091796875
z: -0.0012512971879914403
visibility: 0.9735113382339478
","x: 271.1636962890625
y: 240.19073486328125
z: -0.27663296461105347
visibility: 0.8784615397453308
","x: 206.53871154785156
y: 345.0306396484375
z: -0.013705934397876263
visibility: 0.96818608045578
","x: 271.4670104980469
y: 228.3605194091797
z: -0.3171061873435974
visibility: 0.8132511973381042
","x: 203.75582885742188
y: 361.37493896484375
z: -0.02418641373515129
visibility: 0.9351022839546204
","x: 270.73681640625
y: 225.42205810546875
z: -0.31690797209739685
visibility: 0.8204017281532288
","x: 204.92637634277344
y: 363.611328125
z: -0.05272148922085762
visibility: 0.9329314827919006
","x: 269.9879150390625
y: 228.9727783203125
z: -0.2825809419155121
visibility: 0.8024629354476929
","x: 206.50393676757812
y: 358.5052795410156
z: -0.023929696530103683
visibility: 0.9095926284790039
","x: 249.03475952148438
y: 353.6317138671875
z: 0.011013627983629704
visibility: 0.9997998476028442
","x: 226.7121124267578
y: 350.8825378417969
z: -0.011066524311900139
visibility: 0.9997193217277527
","x: 254.6174774169922
y: 433.409423828125
z: -0.048658356070518494
visibility: 0.9892739653587341
","x: 230.4436492919922
y: 431.19390869140625
z: -0.040361203253269196
visibility: 0.9879124760627747
","x: 245.36109924316406
y: 492.632568359375
z: 0.2382243126630783
visibility: 0.9845219850540161
","x: 233.93569946289062
y: 502.2916259765625
z: 0.20844654738903046
visibility: 0.9850462675094604
","x: 242.64547729492188
y: 496.311279296875
z: 0.2639217972755432
visibility: 0.902890682220459
","x: 234.54241943359375
y: 510.6663818359375
z: 0.22776901721954346
visibility: 0.8400542140007019
","x: 246.0262908935547
y: 523.2113037109375
z: 0.15449044108390808
visibility: 0.9833613038063049
","x: 236.35215759277344
y: 528.0078125
z: 0.10403958708047867
visibility: 0.9824751019477844
",,,,,,,,,,,,,,,,,,,,,,,,,,,,,,,,,,,,,,,,,,
19,"x: 242.14227294921875
y: 193.4803466796875
z: -0.26938048005104065
visibility: 0.999714732170105
","x: 244.13348388671875
y: 187.40843200683594
z: -0.2498006373643875
visibility: 0.9993544220924377
","x: 245.57931518554688
y: 187.68191528320312
z: -0.24985988438129425
visibility: 0.9992392063140869
","x: 247.12319946289062
y: 188.21458435058594
z: -0.2499135434627533
visibility: 0.9992684125900269
","x: 240.36801147460938
y: 188.1043243408203
z: -0.2517910897731781
visibility: 0.9992658495903015
","x: 239.00833129882812
y: 188.66116333007812
z: -0.2517624497413635
visibility: 0.999308168888092
","x: 237.62661743164062
y: 189.29666137695312
z: -0.2518293261528015
visibility: 0.9992895126342773
","x: 249.1311492919922
y: 194.42552185058594
z: -0.12984032928943634
visibility: 0.998403012752533
","x: 235.157470703125
y: 195.2685546875
z: -0.13630267977714539
visibility: 0.9983795285224915
","x: 244.65277099609375
y: 201.84584045410156
z: -0.22468669712543488
visibility: 0.9994902610778809
","x: 239.71421813964844
y: 202.23202514648438
z: -0.22730407118797302
visibility: 0.9992568492889404
","x: 261.4375915527344
y: 245.80636596679688
z: -0.0654926598072052
visibility: 0.999735951423645
","x: 220.2180633544922
y: 240.65870666503906
z: -0.0635400339961052
visibility: 0.9993622303009033
","x: 268.30377197265625
y: 294.34893798828125
z: -0.17677471041679382
visibility: 0.9204308986663818
","x: 212.62908935546875
y: 297.734130859375
z: -0.04506487399339676
visibility: 0.9740578532218933
","x: 274.9591979980469
y: 266.8595275878906
z: -0.44284558296203613
visibility: 0.8896634578704834
","x: 209.76722717285156
y: 338.532958984375
z: -0.1358065903186798
visibility: 0.9667031168937683
","x: 277.12359619140625
y: 260.595458984375
z: -0.49624091386795044
visibility: 0.830090343952179
","x: 207.51123046875
y: 350.5639953613281
z: -0.15988296270370483
visibility: 0.9329712986946106
","x: 275.9916076660156
y: 255.25003051757812
z: -0.5082818269729614
visibility: 0.8366605639457703
","x: 209.13812255859375
y: 349.37109375
z: -0.1855497807264328
visibility: 0.9314790964126587
","x: 274.5782470703125
y: 256.68658447265625
z: -0.45433783531188965
visibility: 0.8193015456199646
","x: 210.44715881347656
y: 345.7032775878906
z: -0.14759287238121033
visibility: 0.9077165722846985
","x: 254.15093994140625
y: 352.3797607421875
z: 0.005605085752904415
visibility: 0.999802827835083
","x: 230.6414031982422
y: 350.7699890136719
z: -0.005567958578467369
visibility: 0.9997247457504272
","x: 258.1278991699219
y: 426.52398681640625
z: -0.17311440408229828
visibility: 0.9899584650993347
","x: 229.50091552734375
y: 431.87384033203125
z: -0.06933275610208511
visibility: 0.9886246919631958
","x: 250.6109619140625
y: 492.38580322265625
z: 0.08157695084810257
visibility: 0.9855188131332397
","x: 234.33590698242188
y: 503.059326171875
z: 0.20120882987976074
visibility: 0.9859559535980225
","x: 247.90411376953125
y: 497.71112060546875
z: 0.10118607431650162
visibility: 0.9081318974494934
","x: 237.08328247070312
y: 512.0073852539062
z: 0.22662124037742615
visibility: 0.8481601476669312
","x: 252.7469482421875
y: 523.75146484375
z: -0.039171211421489716
visibility: 0.9844026565551758
","x: 237.646484375
y: 529.3828735351562
z: 0.05941952392458916
visibility: 0.9831150770187378
",,,,,,,,,,,,,,,,,,,,,,,,,,,,,,,,,,,,,,,,,,
20,"x: 243.2620849609375
y: 187.7001953125
z: -0.28847867250442505
visibility: 0.9997413158416748
","x: 245.23263549804688
y: 181.9467010498047
z: -0.2696674168109894
visibility: 0.9994115829467773
","x: 246.85238647460938
y: 182.1633758544922
z: -0.26968541741371155
visibility: 0.9993091821670532
","x: 248.49337768554688
y: 182.60159301757812
z: -0.26966768503189087
visibility: 0.9993342161178589
","x: 241.09829711914062
y: 182.90036010742188
z: -0.2701881229877472
visibility: 0.9993285536766052
","x: 239.65003967285156
y: 183.55899047851562
z: -0.27020102739334106
visibility: 0.9993678331375122
","x: 238.17950439453125
y: 184.27284240722656
z: -0.27024465799331665
visibility: 0.999350368976593
","x: 251.04786682128906
y: 189.25546264648438
z: -0.15279819071292877
visibility: 0.9985520243644714
","x: 236.17787170410156
y: 190.88197326660156
z: -0.15387749671936035
visibility: 0.9985247850418091
","x: 246.56495666503906
y: 196.74913024902344
z: -0.24487099051475525
visibility: 0.9995391964912415
","x: 240.8504638671875
y: 197.58912658691406
z: -0.2456679791212082
visibility: 0.9993281364440918
","x: 265.82861328125
y: 243.57220458984375
z: -0.07667215913534164
visibility: 0.9997597932815552
","x: 222.42279052734375
y: 238.77105712890625
z: -0.06892625242471695
visibility: 0.9994116425514221
","x: 270.7574462890625
y: 295.1821594238281
z: -0.04082590341567993
visibility: 0.9272227883338928
","x: 212.96290588378906
y: 289.83172607421875
z: -0.027397239580750465
visibility: 0.974047839641571
","x: 273.85968017578125
y: 333.40570068359375
z: -0.14549073576927185
visibility: 0.8985803127288818
","x: 212.3924560546875
y: 321.90997314453125
z: -0.12210601568222046
visibility: 0.9654858112335205
","x: 275.031494140625
y: 348.679931640625
z: -0.17241083085536957
visibility: 0.8422142863273621
","x: 211.7042999267578
y: 331.71978759765625
z: -0.14945967495441437
visibility: 0.9312302470207214
","x: 273.19293212890625
y: 347.3524475097656
z: -0.20877420902252197
visibility: 0.8485960364341736
","x: 214.54627990722656
y: 329.2879943847656
z: -0.1794629544019699
visibility: 0.9304009079933167
","x: 271.8463439941406
y: 341.98956298828125
z: -0.16160966455936432
visibility: 0.8315824866294861
","x: 215.43927001953125
y: 326.21875
z: -0.13577541708946228
visibility: 0.9073784947395325
","x: 257.25286865234375
y: 350.5171203613281
z: -0.0010197579395025969
visibility: 0.9997923374176025
","x: 233.37071228027344
y: 349.77593994140625
z: 0.0009659960633143783
visibility: 0.9997240304946899
","x: 258.56219482421875
y: 426.0364074707031
z: -0.10019730031490326
visibility: 0.9904905557632446
","x: 231.8011474609375
y: 431.9375915527344
z: -0.055970557034015656
visibility: 0.9891942739486694
","x: 256.1438903808594
y: 505.3712158203125
z: 0.11651959270238876
visibility: 0.9865872263908386
","x: 235.69094848632812
y: 506.1999816894531
z: 0.12766584753990173
visibility: 0.9868995547294617
","x: 254.1719970703125
y: 513.531982421875
z: 0.12615123391151428
visibility: 0.9078876376152039
","x: 238.1737060546875
y: 515.828369140625
z: 0.13688263297080994
visibility: 0.8551549911499023
","x: 253.94113159179688
y: 534.8729858398438
z: -0.01522187888622284
visibility: 0.9854207634925842
","x: 235.66531372070312
y: 531.4420166015625
z: 0.0002075375523418188
visibility: 0.9842243194580078
",,,,,,,,,,,,,,,,,,,,,,,,,,,,,,,,,,,,,,,,,,
21,"x: 247.34170532226562
y: 185.45228576660156
z: -0.2802736163139343
visibility: 0.9997501969337463
","x: 249.6309814453125
y: 178.54185485839844
z: -0.26425644755363464
visibility: 0.9994224905967712
","x: 251.26016235351562
y: 178.5497283935547
z: -0.26426535844802856
visibility: 0.9993364214897156
","x: 252.9512176513672
y: 178.75738525390625
z: -0.2642624080181122
visibility: 0.9993525743484497
","x: 245.30035400390625
y: 179.6040496826172
z: -0.26443132758140564
visibility: 0.9993243217468262
","x: 243.87591552734375
y: 180.1837921142578
z: -0.2644183039665222
visibility: 0.9993700981140137
","x: 242.4892578125
y: 180.74072265625
z: -0.26444828510284424
visibility: 0.9993522763252258
","x: 255.93789672851562
y: 184.51333618164062
z: -0.17266805469989777
visibility: 0.9986526370048523
","x: 241.64674377441406
y: 186.58108520507812
z: -0.1487341970205307
visibility: 0.998502254486084
","x: 250.66831970214844
y: 193.28692626953125
z: -0.24021562933921814
visibility: 0.9995664954185486
","x: 245.08615112304688
y: 194.27481079101562
z: -0.24061040580272675
visibility: 0.9993523359298706
","x: 271.1056213378906
y: 239.88233947753906
z: -0.10947289317846298
visibility: 0.9997548460960388
","x: 228.9332275390625
y: 237.08444213867188
z: -0.06440030783414841
visibility: 0.999373733997345
","x: 272.33905029296875
y: 295.31268310546875
z: -0.04882694035768509
visibility: 0.92877596616745
","x: 219.28033447265625
y: 289.9652099609375
z: -0.1434638500213623
visibility: 0.9721536040306091
","x: 271.3271789550781
y: 341.7525634765625
z: -0.10619795322418213
visibility: 0.8939378261566162
","x: 219.4334716796875
y: 251.48841857910156
z: -0.37257564067840576
visibility: 0.9666033387184143
","x: 271.8773498535156
y: 358.30084228515625
z: -0.11837460845708847
visibility: 0.8333004713058472
","x: 218.9709930419922
y: 239.79229736328125
z: -0.41427817940711975
visibility: 0.933749794960022
","x: 270.2518310546875
y: 356.7159423828125
z: -0.14447207748889923
visibility: 0.8390616774559021
","x: 219.92172241210938
y: 235.56985473632812
z: -0.416983425617218
visibility: 0.9327168464660645
","x: 268.7684326171875
y: 351.2307434082031
z: -0.11541154235601425
visibility: 0.8213097453117371
","x: 220.88882446289062
y: 238.78366088867188
z: -0.3803690969944
visibility: 0.9099543690681458
","x: 259.4454040527344
y: 350.5027770996094
z: -0.009586678817868233
visibility: 0.9997845888137817
","x: 235.5704803466797
y: 348.6167907714844
z: 0.009389454498887062
visibility: 0.9997143149375916
","x: 259.7060241699219
y: 435.23553466796875
z: -0.06062231585383415
visibility: 0.9908396005630493
","x: 234.48312377929688
y: 433.3521728515625
z: 0.021009091287851334
visibility: 0.9896183609962463
","x: 257.0053405761719
y: 510.4561767578125
z: 0.12971428036689758
visibility: 0.9875002503395081
","x: 237.66815185546875
y: 505.9136962890625
z: 0.220960333943367
visibility: 0.9877047538757324
","x: 254.7476043701172
y: 520.962646484375
z: 0.15085925161838531
visibility: 0.9086458086967468
","x: 240.39373779296875
y: 515.0016479492188
z: 0.23424939811229706
visibility: 0.8618718385696411
","x: 254.2783966064453
y: 538.5399169921875
z: 0.02743375301361084
visibility: 0.9862292408943176
","x: 235.37942504882812
y: 531.272216796875
z: 0.11478401720523834
visibility: 0.985222339630127
","x: 219.7129669189453
y: 251.02542114257812
z: 0.0
","x: 222.00473022460938
y: 242.62948608398438
z: 0.00017406351980753243
","x: 223.28526306152344
y: 235.9475555419922
z: -0.0023664631880819798
","x: 224.73411560058594
y: 230.93536376953125
z: -0.005464273504912853
","x: 225.63937377929688
y: 227.3666534423828
z: -0.007830282673239708
","x: 217.09225463867188
y: 231.75962829589844
z: -0.005174925550818443
","x: 220.91798400878906
y: 226.4797821044922
z: -0.009400207549333572
","x: 223.43569946289062
y: 229.09396362304688
z: -0.010698971338570118
","x: 224.58868408203125
y: 231.32028198242188
z: -0.011287652887403965
","x: 216.40235900878906
y: 235.0035400390625
z: -0.00816462654620409
","x: 222.3540802001953
y: 231.3082275390625
z: -0.012506222352385521
","x: 223.74732971191406
y: 235.42604064941406
z: -0.01152312383055687
","x: 223.16343688964844
y: 237.9640350341797
z: -0.010697689838707447
","x: 216.49766540527344
y: 238.87545776367188
z: -0.01118420995771885
","x: 222.55335998535156
y: 236.15914916992188
z: -0.014803226105868816
","x: 223.21434020996094
y: 239.59913635253906
z: -0.012214288115501404
","x: 222.22674560546875
y: 241.3038330078125
z: -0.010368750430643559
","x: 217.29074096679688
y: 242.87155151367188
z: -0.014374297112226486
","x: 221.96493530273438
y: 240.5883026123047
z: -0.016693124547600746
","x: 222.55763244628906
y: 242.81187438964844
z: -0.014929288066923618
","x: 221.65724182128906
y: 244.2568359375
z: -0.01343240961432457
",,,,,,,,,,,,,,,,,,,,,
22,"x: 247.34170532226562
y: 185.45228576660156
z: -0.2802736163139343
visibility: 0.9997501969337463
","x: 249.6309814453125
y: 178.54185485839844
z: -0.26425644755363464
visibility: 0.9994224905967712
","x: 251.26016235351562
y: 178.5497283935547
z: -0.26426535844802856
visibility: 0.9993364214897156
","x: 252.9512176513672
y: 178.75738525390625
z: -0.2642624080181122
visibility: 0.9993525743484497
","x: 245.30035400390625
y: 179.6040496826172
z: -0.26443132758140564
visibility: 0.9993243217468262
","x: 243.87591552734375
y: 180.1837921142578
z: -0.2644183039665222
visibility: 0.9993700981140137
","x: 242.4892578125
y: 180.74072265625
z: -0.26444828510284424
visibility: 0.9993522763252258
","x: 255.93789672851562
y: 184.51333618164062
z: -0.17266805469989777
visibility: 0.9986526370048523
","x: 241.64674377441406
y: 186.58108520507812
z: -0.1487341970205307
visibility: 0.998502254486084
","x: 250.66831970214844
y: 193.28692626953125
z: -0.24021562933921814
visibility: 0.9995664954185486
","x: 245.08615112304688
y: 194.27481079101562
z: -0.24061040580272675
visibility: 0.9993523359298706
","x: 271.1056213378906
y: 239.88233947753906
z: -0.10947289317846298
visibility: 0.9997548460960388
","x: 228.9332275390625
y: 237.08444213867188
z: -0.06440030783414841
visibility: 0.999373733997345
","x: 272.33905029296875
y: 295.31268310546875
z: -0.04882694035768509
visibility: 0.92877596616745
","x: 219.28033447265625
y: 289.9652099609375
z: -0.1434638500213623
visibility: 0.9721536040306091
","x: 271.3271789550781
y: 341.7525634765625
z: -0.10619795322418213
visibility: 0.8939378261566162
","x: 219.4334716796875
y: 251.48841857910156
z: -0.37257564067840576
visibility: 0.9666033387184143
","x: 271.8773498535156
y: 358.30084228515625
z: -0.11837460845708847
visibility: 0.8333004713058472
","x: 218.9709930419922
y: 239.79229736328125
z: -0.41427817940711975
visibility: 0.933749794960022
","x: 270.2518310546875
y: 356.7159423828125
z: -0.14447207748889923
visibility: 0.8390616774559021
","x: 219.92172241210938
y: 235.56985473632812
z: -0.416983425617218
visibility: 0.9327168464660645
","x: 268.7684326171875
y: 351.2307434082031
z: -0.11541154235601425
visibility: 0.8213097453117371
","x: 220.88882446289062
y: 238.78366088867188
z: -0.3803690969944
visibility: 0.9099543690681458
","x: 259.4454040527344
y: 350.5027770996094
z: -0.009586678817868233
visibility: 0.9997845888137817
","x: 235.5704803466797
y: 348.6167907714844
z: 0.009389454498887062
visibility: 0.9997143149375916
","x: 259.7060241699219
y: 435.23553466796875
z: -0.06062231585383415
visibility: 0.9908396005630493
","x: 234.48312377929688
y: 433.3521728515625
z: 0.021009091287851334
visibility: 0.9896183609962463
","x: 257.0053405761719
y: 510.4561767578125
z: 0.12971428036689758
visibility: 0.9875002503395081
","x: 237.66815185546875
y: 505.9136962890625
z: 0.220960333943367
visibility: 0.9877047538757324
","x: 254.7476043701172
y: 520.962646484375
z: 0.15085925161838531
visibility: 0.9086458086967468
","x: 240.39373779296875
y: 515.0016479492188
z: 0.23424939811229706
visibility: 0.8618718385696411
","x: 254.2783966064453
y: 538.5399169921875
z: 0.02743375301361084
visibility: 0.9862292408943176
","x: 235.37942504882812
y: 531.272216796875
z: 0.11478401720523834
visibility: 0.985222339630127
","x: 219.7129669189453
y: 251.02542114257812
z: 0.0
","x: 222.00473022460938
y: 242.62948608398438
z: 0.00017406351980753243
","x: 223.28526306152344
y: 235.9475555419922
z: -0.0023664631880819798
","x: 224.73411560058594
y: 230.93536376953125
z: -0.005464273504912853
","x: 225.63937377929688
y: 227.3666534423828
z: -0.007830282673239708
","x: 217.09225463867188
y: 231.75962829589844
z: -0.005174925550818443
","x: 220.91798400878906
y: 226.4797821044922
z: -0.009400207549333572
","x: 223.43569946289062
y: 229.09396362304688
z: -0.010698971338570118
","x: 224.58868408203125
y: 231.32028198242188
z: -0.011287652887403965
","x: 216.40235900878906
y: 235.0035400390625
z: -0.00816462654620409
","x: 222.3540802001953
y: 231.3082275390625
z: -0.012506222352385521
","x: 223.74732971191406
y: 235.42604064941406
z: -0.01152312383055687
","x: 223.16343688964844
y: 237.9640350341797
z: -0.010697689838707447
","x: 216.49766540527344
y: 238.87545776367188
z: -0.01118420995771885
","x: 222.55335998535156
y: 236.15914916992188
z: -0.014803226105868816
","x: 223.21434020996094
y: 239.59913635253906
z: -0.012214288115501404
","x: 222.22674560546875
y: 241.3038330078125
z: -0.010368750430643559
","x: 217.29074096679688
y: 242.87155151367188
z: -0.014374297112226486
","x: 221.96493530273438
y: 240.5883026123047
z: -0.016693124547600746
","x: 222.55763244628906
y: 242.81187438964844
z: -0.014929288066923618
","x: 221.65724182128906
y: 244.2568359375
z: -0.01343240961432457
",,,,,,,,,,,,,,,,,,,,,
23,"x: 249.39279174804688
y: 188.24899291992188
z: -0.28309303522109985
visibility: 0.9997733235359192
","x: 252.6185760498047
y: 181.06057739257812
z: -0.2691749632358551
visibility: 0.9994738698005676
","x: 254.38401794433594
y: 181.21786499023438
z: -0.26920178532600403
visibility: 0.999396800994873
","x: 256.2716979980469
y: 181.51263427734375
z: -0.26920613646507263
visibility: 0.9994109272956848
","x: 248.3374481201172
y: 181.09295654296875
z: -0.2661627233028412
visibility: 0.9993823766708374
","x: 247.0625762939453
y: 181.2200164794922
z: -0.2661650776863098
visibility: 0.9994233250617981
","x: 245.80538940429688
y: 181.35690307617188
z: -0.26619434356689453
visibility: 0.9994062185287476
","x: 259.5767517089844
y: 186.05764770507812
z: -0.16819320619106293
visibility: 0.9987785816192627
","x: 245.60812377929688
y: 185.65187072753906
z: -0.1490408182144165
visibility: 0.9986317157745361
","x: 252.66783142089844
y: 196.6020050048828
z: -0.2430894821882248
visibility: 0.9996083974838257
","x: 247.6376190185547
y: 196.8231964111328
z: -0.23948661983013153
visibility: 0.9994144439697266
","x: 273.6390380859375
y: 239.9714813232422
z: -0.09258916974067688
visibility: 0.9997775554656982
","x: 232.8265838623047
y: 235.70880126953125
z: -0.0575883686542511
visibility: 0.9994262456893921
","x: 278.4609069824219
y: 294.4525451660156
z: -0.04237702116370201
visibility: 0.9347178936004639
","x: 223.94081115722656
y: 287.0545349121094
z: -0.018259288743138313
visibility: 0.9680052995681763
","x: 283.9164123535156
y: 338.0172119140625
z: -0.1392442286014557
visibility: 0.9023531079292297
","x: 218.33221435546875
y: 311.7702941894531
z: -0.1453128159046173
visibility: 0.9643322229385376
","x: 284.12432861328125
y: 351.40069580078125
z: -0.16460637748241425
visibility: 0.8455312848091125
","x: 216.11782836914062
y: 321.896240234375
z: -0.17532791197299957
visibility: 0.9316879510879517
","x: 283.07257080078125
y: 350.2640380859375
z: -0.19861307740211487
visibility: 0.8511213660240173
","x: 216.98028564453125
y: 320.06781005859375
z: -0.21166841685771942
visibility: 0.9315285682678223
","x: 282.4084167480469
y: 345.1131591796875
z: -0.1542719155550003
visibility: 0.834136962890625
","x: 218.49583435058594
y: 317.2388000488281
z: -0.16323545575141907
visibility: 0.9100614786148071
","x: 262.288330078125
y: 349.96112060546875
z: -0.0064405216835439205
visibility: 0.9997895956039429
","x: 237.80538940429688
y: 347.53179931640625
z: 0.006302450783550739
visibility: 0.999718427658081
","x: 260.9643859863281
y: 438.5847473144531
z: -0.05114833265542984
visibility: 0.9913516044616699
","x: 234.6876983642578
y: 433.53277587890625
z: -0.001314944471232593
visibility: 0.9901213049888611
","x: 258.1094665527344
y: 512.0067138671875
z: 0.13863828778266907
visibility: 0.9883170127868652
","x: 238.05885314941406
y: 505.3088684082031
z: 0.20662669837474823
visibility: 0.988385021686554
","x: 256.06591796875
y: 520.5982666015625
z: 0.15382090210914612
visibility: 0.9070562124252319
","x: 240.70083618164062
y: 514.132568359375
z: 0.21982578933238983
visibility: 0.8669072985649109
","x: 255.011962890625
y: 539.678466796875
z: 0.03844543173909187
visibility: 0.9868549108505249
","x: 235.6470947265625
y: 531.3916625976562
z: 0.09636566787958145
visibility: 0.9860530495643616
",,,,,,,,,,,,,,,,,,,,,,,,,,,,,,,,,,,,,,,,,,
24,"x: 254.762939453125
y: 189.75990295410156
z: -0.3096613585948944
visibility: 0.9997715950012207
","x: 257.7354431152344
y: 181.3201904296875
z: -0.2950800955295563
visibility: 0.9994155168533325
","x: 259.1353454589844
y: 182.36276245117188
z: -0.2951110601425171
visibility: 0.9993653297424316
","x: 260.5551452636719
y: 183.62481689453125
z: -0.2951432168483734
visibility: 0.9993730783462524
","x: 253.88436889648438
y: 183.47137451171875
z: -0.2989068627357483
visibility: 0.9992986917495728
","x: 252.60537719726562
y: 183.81137084960938
z: -0.2989165186882019
visibility: 0.9993419051170349
","x: 251.3459014892578
y: 184.02984619140625
z: -0.29897114634513855
visibility: 0.9992716908454895
","x: 262.4750061035156
y: 188.859130859375
z: -0.18366418778896332
visibility: 0.9986843466758728
","x: 249.32435607910156
y: 188.19375610351562
z: -0.20048639178276062
visibility: 0.998407244682312
","x: 256.7369689941406
y: 197.67144775390625
z: -0.2656281590461731
visibility: 0.9996191263198853
","x: 252.1745147705078
y: 198.92495727539062
z: -0.2706940174102783
visibility: 0.9994305372238159
","x: 273.0276184082031
y: 240.9204864501953
z: -0.09763577580451965
visibility: 0.9997966885566711
","x: 232.22869873046875
y: 236.53753662109375
z: -0.11623939126729965
visibility: 0.9994429349899292
","x: 283.1507568359375
y: 293.8592529296875
z: -0.04864457994699478
visibility: 0.9375646114349365
","x: 225.56109619140625
y: 289.1930847167969
z: -0.028149012476205826
visibility: 0.9491738080978394
","x: 295.9095153808594
y: 331.32562255859375
z: -0.1489088386297226
visibility: 0.9064850211143494
","x: 225.10931396484375
y: 337.7241516113281
z: -0.17211279273033142
visibility: 0.9214712381362915
","x: 300.73834228515625
y: 342.142822265625
z: -0.18390688300132751
visibility: 0.8515093922615051
","x: 222.36285400390625
y: 354.76873779296875
z: -0.19805918633937836
visibility: 0.8856090307235718
","x: 300.3046875
y: 341.3632507324219
z: -0.24360689520835876
visibility: 0.8579724431037903
","x: 223.7325439453125
y: 354.16070556640625
z: -0.23537039756774902
visibility: 0.888088047504425
","x: 297.86859130859375
y: 337.3464660644531
z: -0.18628865480422974
visibility: 0.8410558104515076
","x: 224.7559814453125
y: 348.7499694824219
z: -0.18934743106365204
visibility: 0.8671188354492188
","x: 264.1559143066406
y: 351.2919616699219
z: 0.004343722015619278
visibility: 0.9997721910476685
","x: 239.42721557617188
y: 348.0584716796875
z: -0.004397494252771139
visibility: 0.9996616840362549
","x: 263.3265686035156
y: 440.8398742675781
z: -0.015059073455631733
visibility: 0.9915264248847961
","x: 237.7520751953125
y: 435.1331787109375
z: 0.006784241646528244
visibility: 0.9897791743278503
","x: 258.5069580078125
y: 513.3623657226562
z: 0.17584650218486786
visibility: 0.9887826442718506
","x: 237.1165008544922
y: 505.7256774902344
z: 0.23136357963085175
visibility: 0.9882277846336365
","x: 255.39813232421875
y: 522.1195068359375
z: 0.18666474521160126
visibility: 0.9025132060050964
","x: 238.7304229736328
y: 514.1815795898438
z: 0.24539537727832794
visibility: 0.8595705628395081
","x: 255.7747344970703
y: 541.2191162109375
z: 0.04391471669077873
visibility: 0.9869341254234314
","x: 236.88270568847656
y: 532.561279296875
z: 0.11456970125436783
visibility: 0.9859590530395508
",,,,,,,,,,,,,,,,,,,,,,,,,,,,,,,,,,,,,,,,,,
25,"x: 258.60015869140625
y: 182.85186767578125
z: -0.3467037081718445
visibility: 0.9997923374176025
","x: 261.81658935546875
y: 178.28961181640625
z: -0.325735867023468
visibility: 0.999464750289917
","x: 263.3555908203125
y: 179.8779296875
z: -0.32579532265663147
visibility: 0.9994226694107056
","x: 264.8632507324219
y: 181.5976104736328
z: -0.32585379481315613
visibility: 0.9994255900382996
","x: 257.7182922363281
y: 175.96343994140625
z: -0.3297247886657715
visibility: 0.9993551969528198
","x: 256.3101806640625
y: 175.42349243164062
z: -0.3297080099582672
visibility: 0.9993966221809387
","x: 254.7887725830078
y: 174.90414428710938
z: -0.32973021268844604
visibility: 0.9993246793746948
","x: 265.5933532714844
y: 188.87045288085938
z: -0.19801482558250427
visibility: 0.9987994432449341
","x: 251.31723022460938
y: 180.51133728027344
z: -0.2172163426876068
visibility: 0.9985546469688416
","x: 259.6122741699219
y: 193.37599182128906
z: -0.29892951250076294
visibility: 0.9996556043624878
","x: 254.07437133789062
y: 189.619140625
z: -0.30486106872558594
visibility: 0.9994860887527466
","x: 273.3858947753906
y: 240.44635009765625
z: -0.12797801196575165
visibility: 0.9998157620429993
","x: 229.74156188964844
y: 236.40438842773438
z: -0.11356997489929199
visibility: 0.9994931221008301
","x: 280.4129638671875
y: 298.0404052734375
z: -0.23461857438087463
visibility: 0.9413757920265198
","x: 223.67965698242188
y: 291.22021484375
z: -0.053578466176986694
visibility: 0.9487379789352417
","x: 289.6053771972656
y: 275.0942687988281
z: -0.5078262090682983
visibility: 0.9138281345367432
","x: 223.42303466796875
y: 341.8349914550781
z: -0.1289219707250595
visibility: 0.9140222668647766
","x: 292.537353515625
y: 264.75213623046875
z: -0.5638706684112549
visibility: 0.8628287315368652
","x: 221.68971252441406
y: 357.761474609375
z: -0.14793680608272552
visibility: 0.8736145496368408
","x: 292.6257019042969
y: 259.3231201171875
z: -0.5718657970428467
visibility: 0.868735134601593
","x: 223.58078002929688
y: 357.5074462890625
z: -0.17666184902191162
visibility: 0.8769923448562622
","x: 291.1243591308594
y: 261.7248840332031
z: -0.5179625749588013
visibility: 0.8506650328636169
","x: 224.87986755371094
y: 352.7174377441406
z: -0.14058290421962738
visibility: 0.8528388142585754
","x: 267.6248474121094
y: 350.53125
z: -0.0027863341383635998
visibility: 0.9997703433036804
","x: 242.16116333007812
y: 348.1526184082031
z: 0.0028118924237787724
visibility: 0.999647855758667
","x: 264.7121887207031
y: 438.08416748046875
z: -0.07934200018644333
visibility: 0.9914421439170837
","x: 242.35513305664062
y: 435.0091552734375
z: -0.020190324634313583
visibility: 0.989035427570343
","x: 259.5101318359375
y: 510.8829040527344
z: 0.1791064739227295
visibility: 0.9888454675674438
","x: 242.8364715576172
y: 506.322265625
z: 0.23318812251091003
visibility: 0.9874196648597717
","x: 258.0048828125
y: 519.4965209960938
z: 0.19696298241615295
visibility: 0.8946160078048706
","x: 244.82015991210938
y: 515.6981811523438
z: 0.25080686807632446
visibility: 0.8545486330986023
","x: 256.1573181152344
y: 538.55712890625
z: 0.047149624675512314
visibility: 0.986670196056366
","x: 241.65121459960938
y: 532.914794921875
z: 0.11151330173015594
visibility: 0.9850961565971375
",,,,,,,,,,,,,,,,,,,,,,,,,,,,,,,,,,,,,,,,,,
26,"x: 252.50299072265625
y: 239.8373260498047
z: -0.5183311104774475
visibility: 0.9998128414154053
","x: 255.041748046875
y: 231.73883056640625
z: -0.5033423900604248
visibility: 0.9995172023773193
","x: 256.42620849609375
y: 231.7335205078125
z: -0.5032660365104675
visibility: 0.9994796514511108
","x: 257.89971923828125
y: 231.86590576171875
z: -0.5033081769943237
visibility: 0.9994820356369019
