uscmakers/ReverseChoreography/data/9_humble_kendrick_lamar.csv
,NOSE,LEFT_EYE_INNER,LEFT_EYE,LEFT_EYE_OUTER,RIGHT_EYE_INNER,RIGHT_EYE,RIGHT_EYE_OUTER,LEFT_EAR,RIGHT_EAR,MOUTH_LEFT,MOUTH_RIGHT,LEFT_SHOULDER,RIGHT_SHOULDER,LEFT_ELBOW,RIGHT_ELBOW,LEFT_WRIST,RIGHT_WRIST,LEFT_PINKY,RIGHT_PINKY,LEFT_INDEX,RIGHT_INDEX,LEFT_THUMB,RIGHT_THUMB,LEFT_HIP,RIGHT_HIP,LEFT_KNEE,RIGHT_KNEE,LEFT_ANKLE,RIGHT_ANKLE,LEFT_HEEL,RIGHT_HEEL,LEFT_FOOT_INDEX,RIGHT_FOOT_INDEX,WRIST,THUMB_CPC,THUMB_MCP,THUMB_IP,THUMB_TIP,INDEX_FINGER_MCP,INDEX_FINGER_PIP,INDEX_FINGER_DIP,INDEX_FINGER_TIP,MIDDLE_FINGER_MCP,MIDDLE_FINGER_PIP,MIDDLE_FINGER_DIP,MIDDLE_FINGER_TIP,RING_FINGER_PIP,RING_FINGER_DIP,RING_FINGER_TIP,RING_FINGER_MCP,PINKY_MCP,PINKY_PIP,PINKY_DIP,PINKY_TIP,WRIST2,THUMB_CPC2,THUMB_MCP2,THUMB_IP2,THUMB_TIP2,INDEX_FINGER_MCP2,INDEX_FINGER_PIP2,INDEX_FINGER_DIP2,INDEX_FINGER_TIP2,MIDDLE_FINGER_MCP2,MIDDLE_FINGER_PIP2,MIDDLE_FINGER_DIP2,MIDDLE_FINGER_TIP2,RING_FINGER_PIP2,RING_FINGER_DIP2,RING_FINGER_TIP2,RING_FINGER_MCP2,PINKY_MCP2,PINKY_PIP2,PINKY_DIP2,PINKY_TIP2
0,"x: 313.8294372558594
y: 175.2421875
z: -0.34962472319602966
visibility: 0.9999909400939941
","x: 316.9420471191406
y: 167.772216796875
z: -0.3353017270565033
visibility: 0.9999722242355347
","x: 319.1287536621094
y: 168.014404296875
z: -0.33533164858818054
visibility: 0.9999707937240601
","x: 320.89263916015625
y: 168.37493896484375
z: -0.33536386489868164
visibility: 0.9999681711196899
","x: 311.27001953125
y: 167.8533172607422
z: -0.3321044445037842
visibility: 0.9999767541885376
","x: 309.73236083984375
y: 168.10003662109375
z: -0.3321645259857178
visibility: 0.9999713897705078
","x: 308.4327392578125
y: 168.34327697753906
z: -0.332217812538147
visibility: 0.999970555305481
","x: 323.6866149902344
y: 173.14675903320312
z: -0.22702500224113464
visibility: 0.9999369382858276
","x: 307.3609619140625
y: 173.47476196289062
z: -0.21096420288085938
visibility: 0.9999550580978394
","x: 318.3288269042969
y: 184.61712646484375
z: -0.30764034390449524
visibility: 0.999984860420227
","x: 310.90771484375
y: 184.1924285888672
z: -0.3031716048717499
visibility: 0.9999856948852539
","x: 339.82366943359375
y: 229.85928344726562
z: -0.13966567814350128
visibility: 0.9999096393585205
","x: 294.0446472167969
y: 229.08355712890625
z: -0.12284325063228607
visibility: 0.999974250793457
","x: 340.5675354003906
y: 289.18133544921875
z: -0.11966369301080704
visibility: 0.9416186213493347
","x: 283.0300598144531
y: 286.6018371582031
z: -0.06875073164701462
visibility: 0.9637331366539001
","x: 336.3313293457031
y: 336.2150573730469
z: -0.23745205998420715
visibility: 0.8272669315338135
","x: 275.2547912597656
y: 335.48809814453125
z: -0.14509601891040802
visibility: 0.8845522403717041
","x: 335.67364501953125
y: 354.6855163574219
z: -0.26769086718559265
visibility: 0.7414478063583374
","x: 271.2117614746094
y: 351.0513610839844
z: -0.17106211185455322
visibility: 0.7980340719223022
","x: 332.9552917480469
y: 353.568603515625
z: -0.29891571402549744
visibility: 0.752899169921875
","x: 272.4753723144531
y: 352.62890625
z: -0.2056228220462799
visibility: 0.810949444770813
","x: 331.9176940917969
y: 347.8175048828125
z: -0.2515089213848114
visibility: 0.7108774781227112
","x: 274.9296569824219
y: 348.0216979980469
z: -0.1607234627008438
visibility: 0.7931209802627563
","x: 325.8041076660156
y: 346.6155700683594
z: 0.005059363320469856
visibility: 0.9997172951698303
","x: 299.5432434082031
y: 343.08648681640625
z: -0.0051692877896130085
visibility: 0.9999300241470337
","x: 332.10369873046875
y: 435.0814514160156
z: 0.04109467938542366
visibility: 0.9957276582717896
","x: 290.63580322265625
y: 432.9081726074219
z: -0.04895585775375366
visibility: 0.9989871382713318
","x: 335.92608642578125
y: 514.4476928710938
z: 0.22921636700630188
visibility: 0.997380793094635
","x: 284.9487609863281
y: 513.1932983398438
z: 0.08900265395641327
visibility: 0.9988829493522644
","x: 332.35693359375
y: 527.0592651367188
z: 0.2391340285539627
visibility: 0.9575945734977722
","x: 287.97027587890625
y: 527.2647705078125
z: 0.09398843348026276
visibility: 0.9583814144134521
","x: 344.1070251464844
y: 541.3281860351562
z: 0.10460467636585236
visibility: 0.9944085478782654
","x: 282.3933410644531
y: 544.0401611328125
z: -0.05058992654085159
visibility: 0.9971081614494324
",,,,,,,,,,,,,,,,,,,,,,,,,,,,,,,,,,,,,,,,,,
1,"x: 328.24688720703125
y: 189.9492645263672
z: -0.4228211045265198
visibility: 0.9999808073043823
","x: 330.6722412109375
y: 182.09532165527344
z: -0.4044659733772278
visibility: 0.9999358057975769
","x: 332.0531005859375
y: 182.46304321289062
z: -0.40446147322654724
visibility: 0.9999325275421143
","x: 333.3032531738281
y: 182.77845764160156
z: -0.4045073390007019
visibility: 0.9999315738677979
","x: 326.2162170410156
y: 180.9768524169922
z: -0.4101111888885498
visibility: 0.999943196773529
","x: 324.5198974609375
y: 180.67034912109375
z: -0.4101788401603699
visibility: 0.9999405741691589
","x: 322.8894958496094
y: 180.4446258544922
z: -0.41020774841308594
visibility: 0.9999402761459351
","x: 334.6833190917969
y: 186.78720092773438
z: -0.27632924914360046
visibility: 0.9998369216918945
","x: 320.59033203125
y: 184.16131591796875
z: -0.3021526038646698
visibility: 0.9998978972434998
","x: 329.91015625
y: 197.4656982421875
z: -0.3731096088886261
visibility: 0.9999671578407288
","x: 325.1261901855469
y: 197.40074157714844
z: -0.3807891011238098
visibility: 0.9999710917472839
","x: 345.43914794921875
y: 237.73301696777344
z: -0.16852477192878723
visibility: 0.9999065399169922
","x: 304.80499267578125
y: 233.44537353515625
z: -0.23785415291786194
visibility: 0.9999622702598572
","x: 354.656982421875
y: 295.6112060546875
z: -0.13915970921516418
visibility: 0.9452406167984009
","x: 307.136474609375
y: 288.30938720703125
z: -0.27081868052482605
visibility: 0.9658122062683105
","x: 352.1402282714844
y: 341.79888916015625
z: -0.2563474774360657
visibility: 0.8395974040031433
","x: 327.4760437011719
y: 323.0469055175781
z: -0.39930087327957153
visibility: 0.8926723599433899
","x: 351.4840087890625
y: 357.8995056152344
z: -0.2953968942165375
visibility: 0.7569313049316406
","x: 331.30316162109375
y: 335.23089599609375
z: -0.44688233733177185
visibility: 0.8121693730354309
","x: 349.52276611328125
y: 356.03564453125
z: -0.3270174562931061
visibility: 0.7675390839576721
","x: 334.1070251464844
y: 329.6344299316406
z: -0.4646579325199127
visibility: 0.8236158490180969
","x: 348.7816467285156
y: 350.02520751953125
z: -0.27193543314933777
visibility: 0.727263331413269
","x: 333.52996826171875
y: 325.9931945800781
z: -0.4085044860839844
visibility: 0.8043535351753235
","x: 336.7350158691406
y: 348.74224853515625
z: 0.013005226850509644
visibility: 0.9997069835662842
","x: 314.52764892578125
y: 346.614013671875
z: -0.013036863878369331
visibility: 0.9998977184295654
","x: 338.2236022949219
y: 433.3161926269531
z: 0.014240351505577564
visibility: 0.995142936706543
","x: 314.9892272949219
y: 432.90960693359375
z: -0.015757376328110695
visibility: 0.9980819225311279
","x: 335.6435852050781
y: 514.4637451171875
z: 0.18737298250198364
visibility: 0.9961549639701843
","x: 319.20587158203125
y: 510.40185546875
z: 0.16948433220386505
visibility: 0.9976690411567688
","x: 331.940185546875
y: 526.8494873046875
z: 0.19675873219966888
visibility: 0.951787531375885
","x: 320.2960510253906
y: 521.8070678710938
z: 0.18012100458145142
visibility: 0.9453476667404175
","x: 344.05072021484375
y: 541.3307495117188
z: 0.05916782468557358
visibility: 0.9932025671005249
","x: 318.8073425292969
y: 534.6161499023438
z: 0.041303254663944244
visibility: 0.9956753253936768
","x: 330.00921630859375
y: 315.77593994140625
z: 0.0
","x: 334.7810974121094
y: 315.8981628417969
z: 0.0009458857821300626
","x: 338.9934997558594
y: 319.628173828125
z: -0.00032394175650551915
","x: 341.0869140625
y: 324.4610595703125
z: -0.002052755793556571
","x: 342.12939453125
y: 328.4493713378906
z: -0.003360870061442256
","x: 338.94219970703125
y: 319.8016662597656
z: -0.006305353716015816
","x: 342.8838195800781
y: 329.5971374511719
z: -0.008959716185927391
","x: 341.4686584472656
y: 328.9368896484375
z: -0.007977589964866638
","x: 339.8416442871094
y: 325.86126708984375
z: -0.006758775096386671
","x: 336.48370361328125
y: 322.28271484375
z: -0.0084933340549469
","x: 340.3713684082031
y: 332.89971923828125
z: -0.011296838521957397
","x: 338.8399353027344
y: 331.4685363769531
z: -0.008965701796114445
","x: 337.305419921875
y: 327.9261779785156
z: -0.00669494504109025
","x: 334.0533447265625
y: 324.68511962890625
z: -0.010342667810618877
","x: 337.17156982421875
y: 333.7608642578125
z: -0.01263586524873972
","x: 336.0255126953125
y: 331.7806396484375
z: -0.00948244147002697
","x: 334.77239990234375
y: 328.54669189453125
z: -0.006843422539532185
","x: 331.8382873535156
y: 327.0098571777344
z: -0.012148762121796608
","x: 334.22198486328125
y: 333.889892578125
z: -0.013575153425335884
","x: 333.4745788574219
y: 332.28741455078125
z: -0.011616596020758152
","x: 332.3599548339844
y: 329.45831298828125
z: -0.009654528461396694
",,,,,,,,,,,,,,,,,,,,,
2,"x: 328.24688720703125
y: 189.9492645263672
z: -0.4228211045265198
visibility: 0.9999808073043823
","x: 330.6722412109375
y: 182.09532165527344
z: -0.4044659733772278
visibility: 0.9999358057975769
","x: 332.0531005859375
y: 182.46304321289062
z: -0.40446147322654724
visibility: 0.9999325275421143
","x: 333.3032531738281
y: 182.77845764160156
z: -0.4045073390007019
visibility: 0.9999315738677979
","x: 326.2162170410156
y: 180.9768524169922
z: -0.4101111888885498
visibility: 0.999943196773529
","x: 324.5198974609375
y: 180.67034912109375
z: -0.4101788401603699
visibility: 0.9999405741691589
","x: 322.8894958496094
y: 180.4446258544922
z: -0.41020774841308594
visibility: 0.9999402761459351
","x: 334.6833190917969
y: 186.78720092773438
z: -0.27632924914360046
visibility: 0.9998369216918945
","x: 320.59033203125
y: 184.16131591796875
z: -0.3021526038646698
visibility: 0.9998978972434998
","x: 329.91015625
y: 197.4656982421875
z: -0.3731096088886261
visibility: 0.9999671578407288
","x: 325.1261901855469
y: 197.40074157714844
z: -0.3807891011238098
visibility: 0.9999710917472839
","x: 345.43914794921875
y: 237.73301696777344
z: -0.16852477192878723
visibility: 0.9999065399169922
","x: 304.80499267578125
y: 233.44537353515625
z: -0.23785415291786194
visibility: 0.9999622702598572
","x: 354.656982421875
y: 295.6112060546875
z: -0.13915970921516418
visibility: 0.9452406167984009
","x: 307.136474609375
y: 288.30938720703125
z: -0.27081868052482605
visibility: 0.9658122062683105
","x: 352.1402282714844
y: 341.79888916015625
z: -0.2563474774360657
visibility: 0.8395974040031433
","x: 327.4760437011719
y: 323.0469055175781
z: -0.39930087327957153
visibility: 0.8926723599433899
","x: 351.4840087890625
y: 357.8995056152344
z: -0.2953968942165375
visibility: 0.7569313049316406
","x: 331.30316162109375
y: 335.23089599609375
z: -0.44688233733177185
visibility: 0.8121693730354309
","x: 349.52276611328125
y: 356.03564453125
z: -0.3270174562931061
visibility: 0.7675390839576721
","x: 334.1070251464844
y: 329.6344299316406
z: -0.4646579325199127
visibility: 0.8236158490180969
","x: 348.7816467285156
y: 350.02520751953125
z: -0.27193543314933777
visibility: 0.727263331413269
","x: 333.52996826171875
y: 325.9931945800781
z: -0.4085044860839844
visibility: 0.8043535351753235
","x: 336.7350158691406
y: 348.74224853515625
z: 0.013005226850509644
visibility: 0.9997069835662842
","x: 314.52764892578125
y: 346.614013671875
z: -0.013036863878369331
visibility: 0.9998977184295654
","x: 338.2236022949219
y: 433.3161926269531
z: 0.014240351505577564
visibility: 0.995142936706543
","x: 314.9892272949219
y: 432.90960693359375
z: -0.015757376328110695
visibility: 0.9980819225311279
","x: 335.6435852050781
y: 514.4637451171875
z: 0.18737298250198364
visibility: 0.9961549639701843
","x: 319.20587158203125
y: 510.40185546875
z: 0.16948433220386505
visibility: 0.9976690411567688
","x: 331.940185546875
y: 526.8494873046875
z: 0.19675873219966888
visibility: 0.951787531375885
","x: 320.2960510253906
y: 521.8070678710938
z: 0.18012100458145142
visibility: 0.9453476667404175
","x: 344.05072021484375
y: 541.3307495117188
z: 0.05916782468557358
visibility: 0.9932025671005249
","x: 318.8073425292969
y: 534.6161499023438
z: 0.041303254663944244
visibility: 0.9956753253936768
","x: 330.00921630859375
y: 315.77593994140625
z: 0.0
","x: 334.7810974121094
y: 315.8981628417969
z: 0.0009458857821300626
","x: 338.9934997558594
y: 319.628173828125
z: -0.00032394175650551915
","x: 341.0869140625
y: 324.4610595703125
z: -0.002052755793556571
","x: 342.12939453125
y: 328.4493713378906
z: -0.003360870061442256
","x: 338.94219970703125
y: 319.8016662597656
z: -0.006305353716015816
","x: 342.8838195800781
y: 329.5971374511719
z: -0.008959716185927391
","x: 341.4686584472656
y: 328.9368896484375
z: -0.007977589964866638
","x: 339.8416442871094
y: 325.86126708984375
z: -0.006758775096386671
","x: 336.48370361328125
y: 322.28271484375
z: -0.0084933340549469
","x: 340.3713684082031
y: 332.89971923828125
z: -0.011296838521957397
","x: 338.8399353027344
y: 331.4685363769531
z: -0.008965701796114445
","x: 337.305419921875
y: 327.9261779785156
z: -0.00669494504109025
","x: 334.0533447265625
y: 324.68511962890625
z: -0.010342667810618877
","x: 337.17156982421875
y: 333.7608642578125
z: -0.01263586524873972
","x: 336.0255126953125
y: 331.7806396484375
z: -0.00948244147002697
","x: 334.77239990234375
y: 328.54669189453125
z: -0.006843422539532185
","x: 331.8382873535156
y: 327.0098571777344
z: -0.012148762121796608
","x: 334.22198486328125
y: 333.889892578125
z: -0.013575153425335884
","x: 333.4745788574219
y: 332.28741455078125
z: -0.011616596020758152
","x: 332.3599548339844
y: 329.45831298828125
z: -0.009654528461396694
",,,,,,,,,,,,,,,,,,,,,
3,"x: 329.10467529296875
y: 195.07669067382812
z: -0.29799848794937134
visibility: 0.9999687671661377
","x: 331.3876037597656
y: 187.65403747558594
z: -0.2770869731903076
visibility: 0.999904990196228
","x: 332.83453369140625
y: 187.9698486328125
z: -0.2770930826663971
visibility: 0.9998952746391296
","x: 334.2455749511719
y: 188.24827575683594
z: -0.27709513902664185
visibility: 0.9998953938484192
","x: 326.9065856933594
y: 186.99012756347656
z: -0.28461867570877075
visibility: 0.9999165534973145
","x: 325.2187194824219
y: 186.9193115234375
z: -0.28464046120643616
visibility: 0.9999122023582458
","x: 323.5189208984375
y: 186.87991333007812
z: -0.28467243909835815
visibility: 0.9999102354049683
","x: 335.7123718261719
y: 192.5445556640625
z: -0.15351653099060059
visibility: 0.9997307062149048
","x: 320.6985168457031
y: 190.73666381835938
z: -0.18762017786502838
visibility: 0.9998558759689331
","x: 330.952880859375
y: 203.3016357421875
z: -0.2513240873813629
visibility: 0.9999505877494812
","x: 326.0149230957031
y: 203.27882385253906
z: -0.2610863447189331
visibility: 0.9999576210975647
","x: 345.838623046875
y: 242.4124755859375
z: -0.05991680547595024
visibility: 0.9998959302902222
","x: 305.9080810546875
y: 238.82199096679688
z: -0.18383492529392242
visibility: 0.9999483823776245
","x: 360.54296875
y: 292.2433166503906
z: -0.0712311863899231
visibility: 0.9476341009140015
","x: 308.4802551269531
y: 290.850341796875
z: -0.2029157131910324
visibility: 0.967849850654602
","x: 355.6560974121094
y: 334.5966796875
z: -0.2302820235490799
visibility: 0.8510233163833618
","x: 335.4720458984375
y: 319.516845703125
z: -0.2979939877986908
visibility: 0.9006664752960205
","x: 354.0488586425781
y: 349.242919921875
z: -0.276212215423584
visibility: 0.7725339531898499
","x: 340.33050537109375
y: 331.2554931640625
z: -0.33762359619140625
visibility: 0.8259375095367432
","x: 351.8655090332031
y: 345.499267578125
z: -0.2979961037635803
visibility: 0.78221195936203
","x: 342.5703125
y: 325.9264831542969
z: -0.3517882525920868
visibility: 0.836008608341217
","x: 351.1934814453125
y: 339.05841064453125
z: -0.24400922656059265
visibility: 0.7439886927604675
","x: 341.30645751953125
y: 321.4676208496094
z: -0.30428004264831543
visibility: 0.8158360123634338
","x: 335.97601318359375
y: 350.1305847167969
z: 0.02705409750342369
visibility: 0.9996896386146545
","x: 313.2124328613281
y: 348.7781982421875
z: -0.027047615498304367
visibility: 0.9998617768287659
","x: 338.21258544921875
y: 432.5344543457031
z: 0.005330387502908707
visibility: 0.9933696389198303
","x: 315.8182067871094
y: 432.9144592285156
z: -0.0082999337464571
visibility: 0.9970875382423401
","x: 335.6445007324219
y: 513.6724243164062
z: 0.13144275546073914
visibility: 0.99400794506073
","x: 322.06536865234375
y: 509.93341064453125
z: 0.1503555327653885
visibility: 0.9960657954216003
","x: 331.93426513671875
y: 526.128173828125
z: 0.13664691150188446
visibility: 0.9485031366348267
","x: 322.5252685546875
y: 521.6163940429688
z: 0.1585063934326172
visibility: 0.9327387809753418
","x: 344.6517028808594
y: 539.43310546875
z: 0.018806710839271545
visibility: 0.9908246397972107
","x: 320.025390625
y: 531.2658081054688
z: 0.0357222743332386
visibility: 0.9933678507804871
",,,,,,,,,,,,,,,,,,,,,,,,,,,,,,,,,,,,,,,,,,
4,"x: 327.2588195800781
y: 197.109619140625
z: -0.3048612177371979
visibility: 0.99996417760849
","x: 329.591796875
y: 189.38433837890625
z: -0.28432518243789673
visibility: 0.9998955726623535
","x: 331.0185546875
y: 189.77267456054688
z: -0.28433719277381897
visibility: 0.9998840093612671
","x: 332.3641052246094
y: 190.19284057617188
z: -0.2843409478664398
visibility: 0.9998814463615417
","x: 325.50469970703125
y: 188.57130432128906
z: -0.2883278727531433
visibility: 0.9999105334281921
","x: 323.870361328125
y: 188.39662170410156
z: -0.2883754074573517
visibility: 0.999905526638031
","x: 322.20733642578125
y: 188.25308227539062
z: -0.2884126901626587
visibility: 0.9999040365219116
","x: 334.1077880859375
y: 195.31617736816406
z: -0.16344894468784332
visibility: 0.9996991157531738
","x: 319.2223205566406
y: 192.65576171875
z: -0.18334034085273743
visibility: 0.999851405620575
","x: 329.2886962890625
y: 205.69161987304688
z: -0.25978004932403564
visibility: 0.9999433159828186
","x: 324.2400207519531
y: 204.89785766601562
z: -0.2655401825904846
visibility: 0.9999560117721558
","x: 345.5763854980469
y: 245.14492797851562
z: -0.08653350174427032
visibility: 0.9998791813850403
","x: 304.24896240234375
y: 241.38955688476562
z: -0.1531272530555725
visibility: 0.9999481439590454
","x: 354.7571716308594
y: 297.3178405761719
z: -0.10102735459804535
visibility: 0.9493945240974426
","x: 301.01348876953125
y: 293.38262939453125
z: -0.20327718555927277
visibility: 0.9703127145767212
","x: 350.9813232421875
y: 335.4232482910156
z: -0.27632492780685425
visibility: 0.8619832396507263
","x: 322.00811767578125
y: 316.975830078125
z: -0.35016903281211853
visibility: 0.908913254737854
","x: 350.09149169921875
y: 349.49542236328125
z: -0.32264766097068787
visibility: 0.7883313894271851
","x: 327.31939697265625
y: 326.7071533203125
z: -0.395648717880249
visibility: 0.839971125125885
","x: 348.1319885253906
y: 346.964599609375
z: -0.3474588990211487
visibility: 0.7972138524055481
","x: 329.6656494140625
y: 320.91693115234375
z: -0.40468916296958923
visibility: 0.8489410281181335
","x: 347.2537841796875
y: 340.7079772949219
z: -0.2904056906700134
visibility: 0.7607804536819458
","x: 328.609375
y: 317.37969970703125
z: -0.3557521104812622
visibility: 0.8290930986404419
","x: 337.34246826171875
y: 351.2586669921875
z: 0.02187957428395748
visibility: 0.9996212720870972
","x: 315.07977294921875
y: 351.47235107421875
z: -0.021924469619989395
visibility: 0.9998490810394287
","x: 339.025390625
y: 429.4981384277344
z: 0.045697808265686035
visibility: 0.9921392798423767
","x: 317.2864685058594
y: 432.90478515625
z: -0.015149146318435669
visibility: 0.996576189994812
","x: 336.51300048828125
y: 508.2533264160156
z: 0.15719863772392273
visibility: 0.992141604423523
","x: 323.56256103515625
y: 510.0845031738281
z: 0.10674281418323517
visibility: 0.9953289031982422
","x: 333.25830078125
y: 522.6904907226562
z: 0.1710098683834076
visibility: 0.9450452923774719
","x: 324.75140380859375
y: 523.3165893554688
z: 0.11121433973312378
visibility: 0.9267408847808838
","x: 346.9165954589844
y: 526.086669921875
z: 0.07398918271064758
visibility: 0.9888129830360413
","x: 320.35357666015625
y: 530.4913940429688
z: -0.012055461294949055
visibility: 0.9919795989990234
","x: 328.7947998046875
y: 326.0667724609375
z: 0.0
","x: 330.72998046875
y: 322.8519287109375
z: -0.0007428995450027287
","x: 332.2430419921875
y: 320.26654052734375
z: -0.003675939282402396
","x: 333.6897888183594
y: 319.3315124511719
z: -0.0063307746313512325
","x: 335.12249755859375
y: 320.2467041015625
z: -0.008711242116987705
","x: 329.058837890625
y: 320.5514831542969
z: -0.012300918810069561
","x: 333.8033142089844
y: 325.94976806640625
z: -0.015852969139814377
","x: 334.43450927734375
y: 324.7054443359375
z: -0.01503675989806652
","x: 333.10089111328125
y: 322.7050476074219
z: -0.013740327209234238
","x: 326.7191162109375
y: 323.6874084472656
z: -0.013660009950399399
","x: 332.7025451660156
y: 329.72247314453125
z: -0.017382539808750153
","x: 332.41412353515625
y: 327.52001953125
z: -0.01459050364792347
","x: 330.50640869140625
y: 325.15289306640625
z: -0.01186465471982956
","x: 325.58685302734375
y: 327.2086181640625
z: -0.014219860546290874
","x: 330.4227600097656
y: 331.67596435546875
z: -0.016668081283569336
","x: 330.1506042480469
y: 329.41595458984375
z: -0.01269108522683382
","x: 328.59564208984375
y: 327.6155090332031
z: -0.009533789940178394
","x: 325.18048095703125
y: 330.7239990234375
z: -0.014697345905005932
","x: 328.4900207519531
y: 333.4600830078125
z: -0.016137663275003433
","x: 328.18670654296875
y: 331.62237548828125
z: -0.013840165920555592
","x: 326.7850036621094
y: 330.2064514160156
z: -0.011707507073879242
",,,,,,,,,,,,,,,,,,,,,
5,"x: 327.2588195800781
y: 197.109619140625
z: -0.3048612177371979
visibility: 0.99996417760849
","x: 329.591796875
y: 189.38433837890625
z: -0.28432518243789673
visibility: 0.9998955726623535
","x: 331.0185546875
y: 189.77267456054688
z: -0.28433719277381897
visibility: 0.9998840093612671
","x: 332.3641052246094
y: 190.19284057617188
z: -0.2843409478664398
visibility: 0.9998814463615417
","x: 325.50469970703125
y: 188.57130432128906
z: -0.2883278727531433
visibility: 0.9999105334281921
","x: 323.870361328125
y: 188.39662170410156
z: -0.2883754074573517
visibility: 0.999905526638031
","x: 322.20733642578125
y: 188.25308227539062
z: -0.2884126901626587
visibility: 0.9999040365219116
","x: 334.1077880859375
y: 195.31617736816406
z: -0.16344894468784332
visibility: 0.9996991157531738
","x: 319.2223205566406
y: 192.65576171875
z: -0.18334034085273743
visibility: 0.999851405620575
","x: 329.2886962890625
y: 205.69161987304688
z: -0.25978004932403564
visibility: 0.9999433159828186
","x: 324.2400207519531
y: 204.89785766601562
z: -0.2655401825904846
visibility: 0.9999560117721558
","x: 345.5763854980469
y: 245.14492797851562
z: -0.08653350174427032
visibility: 0.9998791813850403
","x: 304.24896240234375
y: 241.38955688476562
z: -0.1531272530555725
visibility: 0.9999481439590454
","x: 354.7571716308594
y: 297.3178405761719
z: -0.10102735459804535
visibility: 0.9493945240974426
","x: 301.01348876953125
y: 293.38262939453125
z: -0.20327718555927277
visibility: 0.9703127145767212
","x: 350.9813232421875
y: 335.4232482910156
z: -0.27632492780685425
visibility: 0.8619832396507263
","x: 322.00811767578125
y: 316.975830078125
z: -0.35016903281211853
visibility: 0.908913254737854
","x: 350.09149169921875
y: 349.49542236328125
z: -0.32264766097068787
visibility: 0.7883313894271851
","x: 327.31939697265625
y: 326.7071533203125
z: -0.395648717880249
visibility: 0.839971125125885
","x: 348.1319885253906
y: 346.964599609375
z: -0.3474588990211487
visibility: 0.7972138524055481
","x: 329.6656494140625
y: 320.91693115234375
z: -0.40468916296958923
visibility: 0.8489410281181335
","x: 347.2537841796875
y: 340.7079772949219
z: -0.2904056906700134
visibility: 0.7607804536819458
","x: 328.609375
y: 317.37969970703125
z: -0.3557521104812622
visibility: 0.8290930986404419
","x: 337.34246826171875
y: 351.2586669921875
z: 0.02187957428395748
visibility: 0.9996212720870972
","x: 315.07977294921875
y: 351.47235107421875
z: -0.021924469619989395
visibility: 0.9998490810394287
","x: 339.025390625
y: 429.4981384277344
z: 0.045697808265686035
visibility: 0.9921392798423767
","x: 317.2864685058594
y: 432.90478515625
z: -0.015149146318435669
visibility: 0.996576189994812
","x: 336.51300048828125
y: 508.2533264160156
z: 0.15719863772392273
visibility: 0.992141604423523
","x: 323.56256103515625
y: 510.0845031738281
z: 0.10674281418323517
visibility: 0.9953289031982422
","x: 333.25830078125
y: 522.6904907226562
z: 0.1710098683834076
visibility: 0.9450452923774719
","x: 324.75140380859375
y: 523.3165893554688
z: 0.11121433973312378
visibility: 0.9267408847808838
","x: 346.9165954589844
y: 526.086669921875
z: 0.07398918271064758
visibility: 0.9888129830360413
","x: 320.35357666015625
y: 530.4913940429688
z: -0.012055461294949055
visibility: 0.9919795989990234
","x: 328.7947998046875
y: 326.0667724609375
z: 0.0
","x: 330.72998046875
y: 322.8519287109375
z: -0.0007428995450027287
","x: 332.2430419921875
y: 320.26654052734375
z: -0.003675939282402396
","x: 333.6897888183594
y: 319.3315124511719
z: -0.0063307746313512325
","x: 335.12249755859375
y: 320.2467041015625
z: -0.008711242116987705
","x: 329.058837890625
y: 320.5514831542969
z: -0.012300918810069561
","x: 333.8033142089844
y: 325.94976806640625
z: -0.015852969139814377
","x: 334.43450927734375
y: 324.7054443359375
z: -0.01503675989806652
","x: 333.10089111328125
y: 322.7050476074219
z: -0.013740327209234238
","x: 326.7191162109375
y: 323.6874084472656
z: -0.013660009950399399
","x: 332.7025451660156
y: 329.72247314453125
z: -0.017382539808750153
","x: 332.41412353515625
y: 327.52001953125
z: -0.01459050364792347
","x: 330.50640869140625
y: 325.15289306640625
z: -0.01186465471982956
","x: 325.58685302734375
y: 327.2086181640625
z: -0.014219860546290874
","x: 330.4227600097656
y: 331.67596435546875
z: -0.016668081283569336
","x: 330.1506042480469
y: 329.41595458984375
z: -0.01269108522683382
","x: 328.59564208984375
y: 327.6155090332031
z: -0.009533789940178394
","x: 325.18048095703125
y: 330.7239990234375
z: -0.014697345905005932
","x: 328.4900207519531
y: 333.4600830078125
z: -0.016137663275003433
","x: 328.18670654296875
y: 331.62237548828125
z: -0.013840165920555592
","x: 326.7850036621094
y: 330.2064514160156
z: -0.011707507073879242
",,,,,,,,,,,,,,,,,,,,,
6,"x: 326.9532470703125
y: 194.75782775878906
z: -0.3036207854747772
visibility: 0.9999616146087646
","x: 329.2381286621094
y: 187.3802032470703
z: -0.2843993306159973
visibility: 0.9998874664306641
","x: 330.64508056640625
y: 187.8518524169922
z: -0.2844160795211792
visibility: 0.999874472618103
","x: 331.9898986816406
y: 188.393310546875
z: -0.2844146490097046
visibility: 0.9998693466186523
","x: 325.1025695800781
y: 186.9332275390625
z: -0.28658536076545715
visibility: 0.9999060034751892
","x: 323.4469299316406
y: 187.1208038330078
z: -0.2866215109825134
visibility: 0.9998994469642639
","x: 321.75103759765625
y: 187.3782196044922
z: -0.28666073083877563
visibility: 0.9998986721038818
","x: 333.6389465332031
y: 194.19883728027344
z: -0.1682603359222412
visibility: 0.9996743202209473
","x: 318.72113037109375
y: 192.6107940673828
z: -0.17967715859413147
visibility: 0.9998425245285034
","x: 329.1405944824219
y: 203.94857788085938
z: -0.2601691782474518
visibility: 0.9999396800994873
","x: 324.03924560546875
y: 203.4520263671875
z: -0.2636254131793976
visibility: 0.9999551177024841
","x: 345.06005859375
y: 246.3245849609375
z: -0.09979431331157684
visibility: 0.9998700618743896
","x: 303.8727111816406
y: 241.2667999267578
z: -0.10419724136590958
visibility: 0.999946117401123
","x: 349.7220153808594
y: 297.63104248046875
z: -0.10495434701442719
visibility: 0.9521400332450867
","x: 294.21044921875
y: 291.992431640625
z: -0.09660476446151733
visibility: 0.9721003770828247
","x: 334.70745849609375
y: 329.9031066894531
z: -0.27496686577796936
visibility: 0.8723494410514832
","x: 311.0083923339844
y: 317.35284423828125
z: -0.21798817813396454
visibility: 0.9131865501403809
","x: 331.8394775390625
y: 343.52984619140625
z: -0.3181334435939789
visibility: 0.8029932379722595
","x: 311.67919921875
y: 327.46356201171875
z: -0.2569378614425659
visibility: 0.8463256359100342
","x: 327.8756103515625
y: 337.7290344238281
z: -0.34177207946777344
visibility: 0.8111125230789185
","x: 313.7683410644531
y: 327.8923034667969
z: -0.2704922556877136
visibility: 0.8543756604194641
","x: 328.09552001953125
y: 333.01544189453125
z: -0.2871948778629303
visibility: 0.7752907872200012
","x: 313.9773864746094
y: 324.09661865234375
z: -0.22505076229572296
visibility: 0.8336455821990967
","x: 337.6177062988281
y: 351.31817626953125
z: 0.012594478204846382
visibility: 0.9995550513267517
","x: 316.3149108886719
y: 352.5390319824219
z: -0.01258044969290495
visibility: 0.999833345413208
","x: 340.0030212402344
y: 429.69122314453125
z: 0.0434945710003376
visibility: 0.9918476939201355
","x: 318.2815856933594
y: 433.7453918457031
z: -0.01750956103205681
visibility: 0.9963103532791138
","x: 338.3079833984375
y: 506.50250244140625
z: 0.1748269498348236
visibility: 0.9916046857833862
","x: 323.09344482421875
y: 510.17254638671875
z: 0.11933867633342743
visibility: 0.9950785636901855
","x: 335.0581359863281
y: 519.6954345703125
z: 0.18619513511657715
visibility: 0.9406902194023132
","x: 325.8217468261719
y: 523.473876953125
z: 0.12455813586711884
visibility: 0.9235844016075134
","x: 348.3025817871094
y: 525.389404296875
z: 0.0772198736667633
visibility: 0.9882519245147705
","x: 319.5093078613281
y: 531.3899536132812
z: -0.003688116790726781
visibility: 0.9914734959602356
",,,,,,,,,,,,,,,,,,,,,,"x: 332.8646240234375
y: 323.28253173828125
z: 0.0
","x: 328.3136291503906
y: 322.01251220703125
z: -0.0004128066939301789
","x: 324.3937072753906
y: 324.0464782714844
z: -0.002628161571919918
","x: 321.95458984375
y: 325.9642028808594
z: -0.004752305801957846
","x: 320.3828125
y: 327.8917236328125
z: -0.006575372535735369
","x: 325.1961975097656
y: 327.86895751953125
z: -0.009941311553120613
","x: 321.6249694824219
y: 338.526611328125
z: -0.012886078096926212
","x: 322.04339599609375
y: 338.3612365722656
z: -0.011964691802859306
","x: 323.0986022949219
y: 335.79913330078125
z: -0.010633000172674656
","x: 328.08258056640625
y: 330.5333251953125
z: -0.011291079223155975
","x: 324.65875244140625
y: 341.42291259765625
z: -0.013947277329862118
","x: 324.7210998535156
y: 340.6990051269531
z: -0.011419704183936119
","x: 325.7423095703125
y: 337.7608642578125
z: -0.00916713010519743
","x: 330.79034423828125
y: 332.9538269042969
z: -0.012172705493867397
","x: 327.4520263671875
y: 342.6780700683594
z: -0.01402241550385952
","x: 327.16552734375
y: 342.01025390625
z: -0.010844815522432327
","x: 327.911376953125
y: 339.24664306640625
z: -0.0085375951603055
","x: 333.0357666015625
y: 335.10693359375
z: -0.013007719069719315
","x: 330.35284423828125
y: 342.78375244140625
z: -0.014299691654741764
","x: 329.8547058105469
y: 342.355224609375
z: -0.012445391155779362
","x: 330.3607177734375
y: 339.92364501953125
z: -0.010782595723867416
"
7,"x: 326.9532470703125
y: 194.75782775878906
z: -0.3036207854747772
visibility: 0.9999616146087646
","x: 329.2381286621094
y: 187.3802032470703
z: -0.2843993306159973
visibility: 0.9998874664306641
","x: 330.64508056640625
y: 187.8518524169922
z: -0.2844160795211792
visibility: 0.999874472618103
","x: 331.9898986816406
y: 188.393310546875
z: -0.2844146490097046
visibility: 0.9998693466186523
","x: 325.1025695800781
y: 186.9332275390625
z: -0.28658536076545715
visibility: 0.9999060034751892
","x: 323.4469299316406
y: 187.1208038330078
z: -0.2866215109825134
visibility: 0.9998994469642639
","x: 321.75103759765625
y: 187.3782196044922
z: -0.28666073083877563
visibility: 0.9998986721038818
","x: 333.6389465332031
y: 194.19883728027344
z: -0.1682603359222412
visibility: 0.9996743202209473
","x: 318.72113037109375
y: 192.6107940673828
z: -0.17967715859413147
visibility: 0.9998425245285034
","x: 329.1405944824219
y: 203.94857788085938
z: -0.2601691782474518
visibility: 0.9999396800994873
","x: 324.03924560546875
y: 203.4520263671875
z: -0.2636254131793976
visibility: 0.9999551177024841
","x: 345.06005859375
y: 246.3245849609375
z: -0.09979431331157684
visibility: 0.9998700618743896
","x: 303.8727111816406
y: 241.2667999267578
z: -0.10419724136590958
visibility: 0.999946117401123
","x: 349.7220153808594
y: 297.63104248046875
z: -0.10495434701442719
visibility: 0.9521400332450867
","x: 294.21044921875
y: 291.992431640625
z: -0.09660476446151733
visibility: 0.9721003770828247
","x: 334.70745849609375
y: 329.9031066894531
z: -0.27496686577796936
visibility: 0.8723494410514832
","x: 311.0083923339844
y: 317.35284423828125
z: -0.21798817813396454
visibility: 0.9131865501403809
","x: 331.8394775390625
y: 343.52984619140625
z: -0.3181334435939789
visibility: 0.8029932379722595
","x: 311.67919921875
y: 327.46356201171875
z: -0.2569378614425659
visibility: 0.8463256359100342
","x: 327.8756103515625
y: 337.7290344238281
z: -0.34177207946777344
visibility: 0.8111125230789185
","x: 313.7683410644531
y: 327.8923034667969
z: -0.2704922556877136
visibility: 0.8543756604194641
","x: 328.09552001953125
y: 333.01544189453125
z: -0.2871948778629303
visibility: 0.7752907872200012
","x: 313.9773864746094
y: 324.09661865234375
z: -0.22505076229572296
visibility: 0.8336455821990967
","x: 337.6177062988281
y: 351.31817626953125
z: 0.012594478204846382
visibility: 0.9995550513267517
","x: 316.3149108886719
y: 352.5390319824219
z: -0.01258044969290495
visibility: 0.999833345413208
","x: 340.0030212402344
y: 429.69122314453125
z: 0.0434945710003376
visibility: 0.9918476939201355
","x: 318.2815856933594
y: 433.7453918457031
z: -0.01750956103205681
visibility: 0.9963103532791138
","x: 338.3079833984375
y: 506.50250244140625
z: 0.1748269498348236
visibility: 0.9916046857833862
","x: 323.09344482421875
y: 510.17254638671875
z: 0.11933867633342743
visibility: 0.9950785636901855
","x: 335.0581359863281
y: 519.6954345703125
z: 0.18619513511657715
visibility: 0.9406902194023132
","x: 325.8217468261719
y: 523.473876953125
z: 0.12455813586711884
visibility: 0.9235844016075134
","x: 348.3025817871094
y: 525.389404296875
z: 0.0772198736667633
visibility: 0.9882519245147705
","x: 319.5093078613281
y: 531.3899536132812
z: -0.003688116790726781
visibility: 0.9914734959602356
",,,,,,,,,,,,,,,,,,,,,,"x: 332.8646240234375
y: 323.28253173828125
z: 0.0
","x: 328.3136291503906
y: 322.01251220703125
z: -0.0004128066939301789
","x: 324.3937072753906
y: 324.0464782714844
z: -0.002628161571919918
","x: 321.95458984375
y: 325.9642028808594
z: -0.004752305801957846
","x: 320.3828125
y: 327.8917236328125
z: -0.006575372535735369
","x: 325.1961975097656
y: 327.86895751953125
z: -0.009941311553120613
","x: 321.6249694824219
y: 338.526611328125
z: -0.012886078096926212
","x: 322.04339599609375
y: 338.3612365722656
z: -0.011964691802859306
","x: 323.0986022949219
y: 335.79913330078125
z: -0.010633000172674656
","x: 328.08258056640625
y: 330.5333251953125
z: -0.011291079223155975
","x: 324.65875244140625
y: 341.42291259765625
z: -0.013947277329862118
","x: 324.7210998535156
y: 340.6990051269531
z: -0.011419704183936119
","x: 325.7423095703125
y: 337.7608642578125
z: -0.00916713010519743
","x: 330.79034423828125
y: 332.9538269042969
z: -0.012172705493867397
","x: 327.4520263671875
y: 342.6780700683594
z: -0.01402241550385952
","x: 327.16552734375
y: 342.01025390625
z: -0.010844815522432327
","x: 327.911376953125
y: 339.24664306640625
z: -0.0085375951603055
","x: 333.0357666015625
y: 335.10693359375
z: -0.013007719069719315
","x: 330.35284423828125
y: 342.78375244140625
z: -0.014299691654741764
","x: 329.8547058105469
y: 342.355224609375
z: -0.012445391155779362
","x: 330.3607177734375
y: 339.92364501953125
z: -0.010782595723867416
"
8,"x: 327.5787048339844
y: 196.0504913330078
z: -0.3052885830402374
visibility: 0.9999629259109497
","x: 329.5407409667969
y: 188.811279296875
z: -0.2861831486225128
visibility: 0.9998916387557983
","x: 330.8873596191406
y: 189.27674865722656
z: -0.28620487451553345
visibility: 0.9998795390129089
","x: 332.1903381347656
y: 189.80055236816406
z: -0.2862095832824707
visibility: 0.9998743534088135
","x: 325.49249267578125
y: 188.3997802734375
z: -0.28721046447753906
visibility: 0.9999090433120728
","x: 323.82318115234375
y: 188.6075439453125
z: -0.28723227977752686
visibility: 0.9999021291732788
","x: 322.1018371582031
y: 188.88796997070312
z: -0.28726476430892944
visibility: 0.9999017715454102
","x: 333.74298095703125
y: 195.32330322265625
z: -0.16893813014030457
visibility: 0.9996933341026306
","x: 318.8559265136719
y: 194.17178344726562
z: -0.17419347167015076
visibility: 0.9998471736907959
","x: 329.75372314453125
y: 205.04197692871094
z: -0.26121947169303894
visibility: 0.9999428987503052
","x: 324.8226013183594
y: 204.58941650390625
z: -0.26300543546676636
visibility: 0.9999574422836304
","x: 344.9984130859375
y: 246.9868621826172
z: -0.1046668067574501
visibility: 0.9998761415481567
","x: 303.7777404785156
y: 242.2373809814453
z: -0.07708178460597992
visibility: 0.9999443888664246
","x: 349.66204833984375
y: 296.8834228515625
z: -0.11618378013372421
visibility: 0.9557782411575317
","x: 289.71533203125
y: 290.13751220703125
z: -0.042435988783836365
visibility: 0.9738808274269104
","x: 333.61517333984375
y: 320.89794921875
z: -0.2921225428581238
visibility: 0.8830979466438293
","x: 301.76934814453125
y: 317.65142822265625
z: -0.15462219715118408
visibility: 0.9180105328559875
","x: 329.94122314453125
y: 331.336181640625
z: -0.3370426893234253
visibility: 0.8184342980384827
","x: 303.54400634765625
y: 331.2928466796875
z: -0.1882648766040802
visibility: 0.8533509969711304
","x: 325.2811584472656
y: 325.6283264160156
z: -0.3575907051563263
visibility: 0.8258342742919922
","x: 307.5583801269531
y: 331.1881103515625
z: -0.21123234927654266
visibility: 0.8607801795005798
","x: 325.70556640625
y: 322.27337646484375
z: -0.30280524492263794
visibility: 0.7910372614860535
","x: 306.9654846191406
y: 327.15130615234375
z: -0.16545847058296204
visibility: 0.8398044109344482
","x: 336.9761657714844
y: 351.23822021484375
z: -0.0017526941373944283
visibility: 0.9995312094688416
","x: 315.3197937011719
y: 351.87518310546875
z: 0.0017552024219185114
visibility: 0.9998093843460083
","x: 339.6886291503906
y: 428.8439636230469
z: -0.018114615231752396
visibility: 0.9921693205833435
","x: 317.7579345703125
y: 434.72271728515625
z: 0.0021163837518543005
visibility: 0.9961031079292297
","x: 338.4010009765625
y: 506.66888427734375
z: 0.13630636036396027
visibility: 0.9919072985649109
","x: 322.2644348144531
y: 510.2474670410156
z: 0.15001818537712097
visibility: 0.9949747323989868
","x: 335.2237243652344
y: 518.7468872070312
z: 0.1441965401172638
visibility: 0.9388529658317566
","x: 325.0494689941406
y: 522.748046875
z: 0.15592294931411743
visibility: 0.9222495555877686
","x: 343.496826171875
y: 527.131103515625
z: 0.01044645719230175
visibility: 0.9886804819107056
","x: 318.56561279296875
y: 531.8912963867188
z: 0.025771096348762512
visibility: 0.991333544254303
",,,,,,,,,,,,,,,,,,,,,,,,,,,,,,,,,,,,,,,,,,
9,"x: 327.4930725097656
y: 197.6979217529297
z: -0.2897075414657593
visibility: 0.9999647736549377
","x: 329.6752624511719
y: 190.4169921875
z: -0.27136674523353577
visibility: 0.9998977780342102
","x: 331.0696105957031
y: 190.87258911132812
z: -0.27138644456863403
visibility: 0.9998863935470581
","x: 332.4135437011719
y: 191.4019012451172
z: -0.2713906168937683
visibility: 0.9998815655708313
","x: 325.4823913574219
y: 189.89559936523438
z: -0.27039381861686707
visibility: 0.99991375207901
","x: 323.7520751953125
y: 190.00914001464844
z: -0.27041858434677124
visibility: 0.9999066591262817
","x: 321.9826354980469
y: 190.2091064453125
z: -0.27044036984443665
visibility: 0.999906599521637
","x: 334.3115234375
y: 196.63531494140625
z: -0.1589648723602295
visibility: 0.9997149109840393
","x: 318.8388671875
y: 195.26654052734375
z: -0.1559920459985733
visibility: 0.9998517632484436
","x: 329.80657958984375
y: 206.09107971191406
z: -0.24782955646514893
visibility: 0.9999463558197021
","x: 324.61627197265625
y: 205.5691680908203
z: -0.247172549366951
visibility: 0.9999598264694214
","x: 345.4529724121094
y: 247.18321228027344
z: -0.09930429607629776
visibility: 0.9998791217803955
","x: 304.3494567871094
y: 243.60604858398438
z: -0.06181205436587334
visibility: 0.9999346733093262
","x: 351.0254211425781
y: 296.3675842285156
z: -0.12495521456003189
visibility: 0.9595847129821777
","x: 291.5199890136719
y: 292.39276123046875
z: -0.05725628882646561
visibility: 0.9740390777587891
","x: 334.6427917480469
y: 320.4775695800781
z: -0.2993326783180237
visibility: 0.8937973380088806
","x: 302.9905090332031
y: 320.30157470703125
z: -0.17941582202911377
visibility: 0.9214468002319336
","x: 333.0327453613281
y: 331.88140869140625
z: -0.3440988063812256
visibility: 0.8342301845550537
","x: 306.4505615234375
y: 332.5943298339844
z: -0.18942585587501526
visibility: 0.8593235611915588
","x: 329.2544860839844
y: 325.9614562988281
z: -0.36221516132354736
visibility: 0.8409253358840942
","x: 309.56744384765625
y: 328.6835021972656
z: -0.24187874794006348
visibility: 0.8661478757858276
","x: 329.13555908203125
y: 322.56842041015625
z: -0.30869677662849426
visibility: 0.8081638216972351
","x: 309.07904052734375
y: 324.57684326171875
z: -0.19465363025665283
visibility: 0.8444312214851379
","x: 336.607421875
y: 351.0557556152344
z: -0.0064437068067491055
visibility: 0.999468982219696
","x: 315.0046691894531
y: 351.3824462890625
z: 0.0064341165125370026
visibility: 0.9997762441635132
","x: 339.13677978515625
y: 426.2049865722656
z: -0.011745939031243324
visibility: 0.9918117523193359
","x: 316.44671630859375
y: 434.53680419921875
z: -0.009525740519165993
visibility: 0.9955518245697021
","x: 337.19873046875
y: 501.0145263671875
z: 0.15795227885246277
visibility: 0.9911660552024841
","x: 321.6997375488281
y: 509.5273132324219
z: 0.14775444567203522
visibility: 0.9944649338722229
","x: 335.1578063964844
y: 510.1537780761719
z: 0.16735713183879852
visibility: 0.9310308694839478
","x: 323.9050598144531
y: 522.445068359375
z: 0.1499686986207962
visibility: 0.9178215861320496
","x: 337.4288330078125
y: 523.620361328125
z: 0.04021565988659859
visibility: 0.987824022769928
","x: 319.1129455566406
y: 532.0863647460938
z: 0.011442197486758232
visibility: 0.9903985857963562
",,,,,,,,,,,,,,,,,,,,,,,,,,,,,,,,,,,,,,,,,,
10,"x: 326.97869873046875
y: 206.4542999267578
z: -0.23570021986961365
visibility: 0.9999668002128601
","x: 329.2855529785156
y: 198.27099609375
z: -0.2167714387178421
visibility: 0.9999054074287415
","x: 330.753662109375
y: 198.40597534179688
z: -0.2167806327342987
visibility: 0.9998949766159058
","x: 332.1962890625
y: 198.5880126953125
z: -0.21679604053497314
visibility: 0.9998905062675476
","x: 325.05999755859375
y: 198.19509887695312
z: -0.21545974910259247
visibility: 0.9999196529388428
","x: 323.4313049316406
y: 198.20941162109375
z: -0.2154933661222458
visibility: 0.999913215637207
","x: 321.792236328125
y: 198.3448028564453
z: -0.2154742032289505
visibility: 0.9999134540557861
","x: 334.8145446777344
y: 202.5943145751953
z: -0.10550324618816376
visibility: 0.9997403025627136
","x: 319.3243408203125
y: 202.3636474609375
z: -0.09883691370487213
visibility: 0.9998621344566345
","x: 329.5392150878906
y: 214.64080810546875
z: -0.19433638453483582
visibility: 0.9999504089355469
","x: 324.3245544433594
y: 214.27687072753906
z: -0.19245490431785583
visibility: 0.9999625086784363
","x: 347.3374328613281
y: 249.3248291015625
z: -0.05148433521389961
visibility: 0.9998876452445984
","x: 306.613037109375
y: 249.30381774902344
z: -0.028842246159911156
visibility: 0.9999317526817322
","x: 354.65301513671875
y: 296.0645751953125
z: -0.11297847330570221
visibility: 0.9625287055969238
","x: 300.44708251953125
y: 300.74932861328125
z: -0.07208921760320663
visibility: 0.9749944806098938
","x: 347.56396484375
y: 321.43048095703125
z: -0.3017157018184662
visibility: 0.9018834233283997
","x: 318.0059509277344
y: 320.5598449707031
z: -0.24002163112163544
visibility: 0.9270572662353516
","x: 345.4801940917969
y: 333.53277587890625
z: -0.3539992570877075
visibility: 0.8459914922714233
","x: 323.331787109375
y: 329.8279113769531
z: -0.283566415309906
visibility: 0.869149923324585
","x: 342.6329040527344
y: 327.8341064453125
z: -0.36898037791252136
visibility: 0.8521358966827393
","x: 326.3548278808594
y: 325.2731018066406
z: -0.2970472574234009
visibility: 0.8752691149711609
","x: 342.215576171875
y: 323.5232849121094
z: -0.3117384910583496
visibility: 0.820392906665802
","x: 325.2637939453125
y: 321.7736511230469
z: -0.247312992811203
visibility: 0.8534160256385803
","x: 336.84075927734375
y: 350.7110290527344
z: -0.016777703538537025
visibility: 0.9994915723800659
","x: 315.4395751953125
y: 351.233154296875
z: 0.016841813921928406
visibility: 0.9997594356536865
","x: 336.464599609375
y: 424.78271484375
z: -0.12429845333099365
visibility: 0.9911954998970032
","x: 314.3802795410156
y: 433.1141357421875
z: -0.01351729966700077
visibility: 0.9933899641036987
","x: 334.25921630859375
y: 502.0462646484375
z: 0.012454023584723473
visibility: 0.9905280470848083
","x: 320.9237365722656
y: 507.69818115234375
z: 0.10650905221700668
visibility: 0.9926887154579163
","x: 333.9681396484375
y: 511.5307922363281
z: 0.018904127180576324
visibility: 0.9239303469657898
","x: 323.8125
y: 519.5935668945312
z: 0.10950104147195816
visibility: 0.9111802577972412
","x: 330.326416015625
y: 525.1062622070312
z: -0.11450151354074478
visibility: 0.9870256185531616
","x: 317.3815002441406
y: 532.2354736328125
z: -0.013072262518107891
visibility: 0.9877431988716125
",,,,,,,,,,,,,,,,,,,,,,,,,,,,,,,,,,,,,,,,,,
11,"x: 328.2112121582031
y: 208.42901611328125
z: -0.27662134170532227
visibility: 0.9999672770500183
","x: 330.49188232421875
y: 200.03720092773438
z: -0.2587953209877014
visibility: 0.9999083280563354
","x: 331.94146728515625
y: 200.0265350341797
z: -0.2588084638118744
visibility: 0.9998987913131714
","x: 333.42559814453125
y: 200.09857177734375
z: -0.25882524251937866
visibility: 0.9998939037322998
","x: 326.25531005859375
y: 200.36734008789062
z: -0.25844472646713257
visibility: 0.9999217987060547
","x: 324.7107238769531
y: 200.4862060546875
z: -0.25848695635795593
visibility: 0.9999164342880249
","x: 323.13037109375
y: 200.6106719970703
z: -0.25850051641464233
visibility: 0.9999173283576965
","x: 336.09234619140625
y: 204.45188903808594
z: -0.1453789919614792
visibility: 0.9997565746307373
","x: 321.06695556640625
y: 204.4741668701172
z: -0.14419831335544586
visibility: 0.9998685121536255
","x: 330.7416076660156
y: 216.1079559326172
z: -0.2342042475938797
visibility: 0.9999516010284424
","x: 325.8492126464844
y: 216.29571533203125
z: -0.23366859555244446
visibility: 0.9999630451202393
","x: 348.9569396972656
y: 252.467041015625
z: -0.0781235545873642
visibility: 0.9998859763145447
","x: 308.82305908203125
y: 251.47042846679688
z: -0.06399546563625336
visibility: 0.9999308586120605
","x: 355.4822998046875
y: 298.3700866699219
z: -0.11334289610385895
visibility: 0.9615724086761475
","x: 305.52984619140625
y: 301.9111328125
z: -0.12618985772132874
visibility: 0.9760569334030151
","x: 354.8656311035156
y: 323.9034423828125
z: -0.29048874974250793
visibility: 0.8973853588104248
","x: 323.42755126953125
y: 321.2386474609375
z: -0.2903110980987549
visibility: 0.9320618510246277
","x: 353.891845703125
y: 334.6651916503906
z: -0.3365275263786316
visibility: 0.8413199186325073
","x: 328.21746826171875
y: 330.587646484375
z: -0.33364343643188477
visibility: 0.8778595328330994
","x: 353.1832580566406
y: 328.591064453125
z: -0.35827547311782837
visibility: 0.8480130434036255
","x: 331.0000915527344
y: 325.9801940917969
z: -0.3462447226047516
visibility: 0.8834053874015808
","x: 351.391357421875
y: 323.9991455078125
z: -0.3032236099243164
visibility: 0.8158481121063232
","x: 330.3790283203125
y: 322.51031494140625
z: -0.2977267801761627
visibility: 0.8614978790283203
","x: 337.68841552734375
y: 350.805419921875
z: -0.015404315665364265
visibility: 0.9994947910308838
","x: 316.71026611328125
y: 350.71484375
z: 0.0154402581974864
visibility: 0.9997398257255554
","x: 335.9867858886719
y: 423.75128173828125
z: -0.10887125879526138
visibility: 0.9898775219917297
","x: 313.84228515625
y: 429.90802001953125
z: -0.014961199834942818
visibility: 0.9916043877601624
","x: 333.80615234375
y: 502.6993103027344
z: 0.016693834215402603
visibility: 0.9898067712783813
","x: 320.4647521972656
y: 505.1898498535156
z: 0.10685491561889648
visibility: 0.9910069108009338
","x: 333.531494140625
y: 512.5153198242188
z: 0.02161145955324173
visibility: 0.915554404258728
","x: 323.6402282714844
y: 516.2260131835938
z: 0.11100002378225327
visibility: 0.9054261445999146
","x: 329.77667236328125
y: 525.4723510742188
z: -0.11281915754079819
visibility: 0.9861844182014465
","x: 316.79803466796875
y: 531.8273315429688
z: -0.01181621104478836
visibility: 0.9856417179107666
","x: 325.6195983886719
y: 324.6589660644531
z: 0.0
","x: 329.1845703125
y: 320.61822509765625
z: -0.0006875467952340841
","x: 332.9673767089844
y: 319.2298278808594
z: -0.0030113602988421917
","x: 335.79583740234375
y: 320.5480651855469
z: -0.005136154592037201
","x: 338.02618408203125
y: 321.9873352050781
z: -0.006864932365715504
","x: 330.9258117675781
y: 319.9276123046875
z: -0.0101461848244071
","x: 336.6626281738281
y: 325.6224365234375
z: -0.013051019050180912
","x: 336.2477111816406
y: 324.250244140625
z: -0.011531583964824677
","x: 334.45916748046875
y: 322.3338623046875
z: -0.00980408675968647
","x: 329.0837097167969
y: 324.00640869140625
z: -0.01121120247989893
","x: 335.5511474609375
y: 330.0335693359375
z: -0.014413295313715935
","x: 334.57037353515625
y: 327.8858947753906
z: -0.011491919867694378
","x: 332.19537353515625
y: 325.43463134765625
z: -0.008531292900443077
","x: 327.9105529785156
y: 328.1729431152344
z: -0.01178504154086113
","x: 333.28424072265625
y: 332.84478759765625
z: -0.014233026653528214
","x: 332.5181579589844
y: 330.698974609375
z: -0.010707895271480083
","x: 330.6640930175781
y: 328.8111877441406
z: -0.007678100373595953
","x: 327.32244873046875
y: 332.2248840332031
z: -0.012271679937839508
","x: 331.39404296875
y: 335.0894775390625
z: -0.013756245374679565
","x: 330.7495422363281
y: 333.4765930175781
z: -0.011753066442906857
","x: 329.1628112792969
y: 331.94110107421875
z: -0.00969044677913189
",,,,,,,,,,,,,,,,,,,,,
12,"x: 328.2112121582031
y: 208.42901611328125
z: -0.27662134170532227
visibility: 0.9999672770500183
","x: 330.49188232421875
y: 200.03720092773438
z: -0.2587953209877014
visibility: 0.9999083280563354
","x: 331.94146728515625
y: 200.0265350341797
z: -0.2588084638118744
visibility: 0.9998987913131714
","x: 333.42559814453125
y: 200.09857177734375
z: -0.25882524251937866
visibility: 0.9998939037322998
","x: 326.25531005859375
y: 200.36734008789062
z: -0.25844472646713257
visibility: 0.9999217987060547
","x: 324.7107238769531
y: 200.4862060546875
z: -0.25848695635795593
visibility: 0.9999164342880249
","x: 323.13037109375
y: 200.6106719970703
z: -0.25850051641464233
visibility: 0.9999173283576965
","x: 336.09234619140625
y: 204.45188903808594
z: -0.1453789919614792
visibility: 0.9997565746307373
","x: 321.06695556640625
y: 204.4741668701172
z: -0.14419831335544586
visibility: 0.9998685121536255
","x: 330.7416076660156
y: 216.1079559326172
z: -0.2342042475938797
visibility: 0.9999516010284424
","x: 325.8492126464844
y: 216.29571533203125
z: -0.23366859555244446
visibility: 0.9999630451202393
","x: 348.9569396972656
y: 252.467041015625
z: -0.0781235545873642
visibility: 0.9998859763145447
","x: 308.82305908203125
y: 251.47042846679688
z: -0.06399546563625336
visibility: 0.9999308586120605
","x: 355.4822998046875
y: 298.3700866699219
z: -0.11334289610385895
visibility: 0.9615724086761475
","x: 305.52984619140625
y: 301.9111328125
z: -0.12618985772132874
visibility: 0.9760569334030151
","x: 354.8656311035156
y: 323.9034423828125
z: -0.29048874974250793
visibility: 0.8973853588104248
","x: 323.42755126953125
y: 321.2386474609375
z: -0.2903110980987549
visibility: 0.9320618510246277
","x: 353.891845703125
y: 334.6651916503906
z: -0.3365275263786316
visibility: 0.8413199186325073
","x: 328.21746826171875
y: 330.587646484375
z: -0.33364343643188477
visibility: 0.8778595328330994
","x: 353.1832580566406
y: 328.591064453125
z: -0.35827547311782837
visibility: 0.8480130434036255
","x: 331.0000915527344
y: 325.9801940917969
z: -0.3462447226047516
visibility: 0.8834053874015808
","x: 351.391357421875
y: 323.9991455078125
z: -0.3032236099243164
visibility: 0.8158481121063232
","x: 330.3790283203125
y: 322.51031494140625
z: -0.2977267801761627
visibility: 0.8614978790283203
","x: 337.68841552734375
y: 350.805419921875
z: -0.015404315665364265
visibility: 0.9994947910308838
","x: 316.71026611328125
y: 350.71484375
z: 0.0154402581974864
visibility: 0.9997398257255554
","x: 335.9867858886719
y: 423.75128173828125
z: -0.10887125879526138
visibility: 0.9898775219917297
","x: 313.84228515625
y: 429.90802001953125
z: -0.014961199834942818
visibility: 0.9916043877601624
","x: 333.80615234375
y: 502.6993103027344
z: 0.016693834215402603
visibility: 0.9898067712783813
","x: 320.4647521972656
y: 505.1898498535156
z: 0.10685491561889648
visibility: 0.9910069108009338
","x: 333.531494140625
y: 512.5153198242188
z: 0.02161145955324173
visibility: 0.915554404258728
","x: 323.6402282714844
y: 516.2260131835938
z: 0.11100002378225327
visibility: 0.9054261445999146
","x: 329.77667236328125
y: 525.4723510742188
z: -0.11281915754079819
visibility: 0.9861844182014465
","x: 316.79803466796875
y: 531.8273315429688
z: -0.01181621104478836
visibility: 0.9856417179107666
","x: 325.6195983886719
y: 324.6589660644531
z: 0.0
","x: 329.1845703125
y: 320.61822509765625
z: -0.0006875467952340841
","x: 332.9673767089844
y: 319.2298278808594
z: -0.0030113602988421917
","x: 335.79583740234375
y: 320.5480651855469
z: -0.005136154592037201
","x: 338.02618408203125
y: 321.9873352050781
z: -0.006864932365715504
","x: 330.9258117675781
y: 319.9276123046875
z: -0.0101461848244071
","x: 336.6626281738281
y: 325.6224365234375
z: -0.013051019050180912
","x: 336.2477111816406
y: 324.250244140625
z: -0.011531583964824677
","x: 334.45916748046875
y: 322.3338623046875
z: -0.00980408675968647
","x: 329.0837097167969
y: 324.00640869140625
z: -0.01121120247989893
","x: 335.5511474609375
y: 330.0335693359375
z: -0.014413295313715935
","x: 334.57037353515625
y: 327.8858947753906
z: -0.011491919867694378
","x: 332.19537353515625
y: 325.43463134765625
z: -0.008531292900443077
","x: 327.9105529785156
y: 328.1729431152344
z: -0.01178504154086113
","x: 333.28424072265625
y: 332.84478759765625
z: -0.014233026653528214
","x: 332.5181579589844
y: 330.698974609375
z: -0.010707895271480083
","x: 330.6640930175781
y: 328.8111877441406
z: -0.007678100373595953
","x: 327.32244873046875
y: 332.2248840332031
z: -0.012271679937839508
","x: 331.39404296875
y: 335.0894775390625
z: -0.013756245374679565
","x: 330.7495422363281
y: 333.4765930175781
z: -0.011753066442906857
","x: 329.1628112792969
y: 331.94110107421875
z: -0.00969044677913189
",,,,,,,,,,,,,,,,,,,,,
13,"x: 329.54888916015625
y: 205.26145935058594
z: -0.30223214626312256
visibility: 0.9999452233314514
","x: 332.0927734375
y: 198.0436553955078
z: -0.28602927923202515
visibility: 0.9998514652252197
","x: 333.5565490722656
y: 198.35366821289062
z: -0.286063015460968
visibility: 0.9998393654823303
","x: 335.0376892089844
y: 198.74879455566406
z: -0.28609731793403625
visibility: 0.9998268485069275
","x: 327.7352294921875
y: 197.7804718017578
z: -0.2871065139770508
visibility: 0.9998812675476074
","x: 326.12237548828125
y: 197.88531494140625
z: -0.2871782183647156
visibility: 0.999879002571106
","x: 324.5030822753906
y: 198.0563507080078
z: -0.2872692048549652
visibility: 0.9998883605003357
","x: 337.3629150390625
y: 203.41778564453125
z: -0.178732231259346
visibility: 0.9996382594108582
","x: 322.3285217285156
y: 202.4191131591797
z: -0.18186023831367493
visibility: 0.9998224973678589
","x: 332.02288818359375
y: 213.22584533691406
z: -0.2612728476524353
visibility: 0.9999163150787354
","x: 326.74737548828125
y: 213.0522003173828
z: -0.26234716176986694
visibility: 0.9999420046806335
","x: 348.9985046386719
y: 251.1373748779297
z: -0.1077384352684021
visibility: 0.9997334480285645
","x: 309.34503173828125
y: 252.19549560546875
z: -0.10478056967258453
visibility: 0.9998959302902222
","x: 354.067626953125
y: 300.9761962890625
z: -0.1183645948767662
visibility: 0.9475555419921875
","x: 303.94384765625
y: 302.7332763671875
z: -0.12467900663614273
visibility: 0.9753434062004089
","x: 350.9262390136719
y: 332.0992431640625
z: -0.2772905230522156
visibility: 0.862607479095459
","x: 320.4609680175781
y: 323.450439453125
z: -0.25932031869888306
visibility: 0.9316866397857666
","x: 349.7916564941406
y: 345.6978759765625
z: -0.3166782855987549
visibility: 0.8076798915863037
","x: 324.93377685546875
y: 334.0049743652344
z: -0.29797571897506714
visibility: 0.8781420588493347
","x: 348.513427734375
y: 339.776123046875
z: -0.34199589490890503
visibility: 0.8149042129516602
","x: 327.8018798828125
y: 327.0040283203125
z: -0.3140876889228821
visibility: 0.8832600116729736
","x: 347.786865234375
y: 335.0863952636719
z: -0.29153159260749817
visibility: 0.7820677757263184
","x: 327.0904541015625
y: 323.058349609375
z: -0.2674556374549866
visibility: 0.8594120740890503
","x: 339.338623046875
y: 352.78302001953125
z: -0.013117250986397266
visibility: 0.9992486834526062
","x: 317.7781066894531
y: 351.2527160644531
z: 0.013145538046956062
visibility: 0.9996336102485657
","x: 336.5946044921875
y: 425.2830505371094
z: -0.08873297274112701
visibility: 0.9891234040260315
","x: 314.395263671875
y: 429.4419860839844
z: -0.0011290484108030796
visibility: 0.9911031723022461
","x: 333.9761962890625
y: 502.47796630859375
z: 0.05288708955049515
visibility: 0.9893927574157715
","x: 319.95391845703125
y: 504.8313903808594
z: 0.14241549372673035
visibility: 0.9907651543617249
","x: 333.3778381347656
y: 512.7484130859375
z: 0.0610034242272377
visibility: 0.9112223982810974
","x: 323.4228515625
y: 516.2280883789062
z: 0.14949847757816315
visibility: 0.9047574400901794
","x: 331.701416015625
y: 522.3642578125
z: -0.060978133231401443
visibility: 0.9855048060417175
","x: 315.2861633300781
y: 529.039306640625
z: 0.031200751662254333
visibility: 0.9851176142692566
",,,,,,,,,,,,,,,,,,,,,,,,,,,,,,,,,,,,,,,,,,
14,"x: 331.3992004394531
y: 211.02114868164062
z: -0.2671865224838257
visibility: 0.9999487996101379
","x: 333.34051513671875
y: 203.106201171875
z: -0.2484382688999176
visibility: 0.9998627305030823
","x: 334.6144714355469
y: 203.1116943359375
z: -0.2484910786151886
visibility: 0.9998515844345093
","x: 335.90185546875
y: 203.16725158691406
z: -0.24851353466510773
visibility: 0.999840497970581
","x: 329.4220275878906
y: 203.30780029296875
z: -0.2502986192703247
visibility: 0.9998882412910461
","x: 327.8040466308594
y: 203.3363494873047
z: -0.25029873847961426
visibility: 0.9998851418495178
","x: 326.2057189941406
y: 203.3519287109375
z: -0.25031477212905884
visibility: 0.9998933672904968
","x: 337.5920715332031
y: 206.75253295898438
z: -0.13332606852054596
visibility: 0.9996663928031921
","x: 323.0194091796875
y: 206.1480712890625
z: -0.14128558337688446
visibility: 0.9998285174369812
","x: 333.6334228515625
y: 218.2674560546875
z: -0.22392651438713074
visibility: 0.9999228715896606
","x: 328.8102722167969
y: 218.082763671875
z: -0.22620789706707
visibility: 0.9999455213546753
","x: 348.4243469238281
y: 251.38136291503906
z: -0.07266627997159958
visibility: 0.9997583627700806
","x: 309.7738952636719
y: 252.50119018554688
z: -0.04724588245153427
visibility: 0.9998927116394043
","x: 353.49664306640625
y: 300.3396301269531
z: -0.11902191489934921
visibility: 0.9513379335403442
","x: 303.3752746582031
y: 305.069091796875
z: 0.0011506660375744104
visibility: 0.97259521484375
","x: 350.5359191894531
y: 313.429931640625
z: -0.33553382754325867
visibility: 0.8753766417503357
","x: 305.0185546875
y: 342.167724609375
z: -0.09870056062936783
visibility: 0.9287687540054321
","x: 346.6191711425781
y: 320.78448486328125
z: -0.3851730525493622
visibility: 0.8250598311424255
","x: 303.93798828125
y: 355.77044677734375
z: -0.12828020751476288
visibility: 0.8747432827949524
","x: 346.06060791015625
y: 311.5963439941406
z: -0.4036494195461273
visibility: 0.8316815495491028
","x: 306.126220703125
y: 354.3519592285156
z: -0.15770982205867767
visibility: 0.8802886605262756
","x: 347.20574951171875
y: 309.6354064941406
z: -0.3471321761608124
visibility: 0.8007758259773254
","x: 307.76123046875
y: 348.9511413574219
z: -0.11197607219219208
visibility: 0.8554531335830688
","x: 340.1292724609375
y: 353.4661865234375
z: -0.005967885721474886
visibility: 0.9992858171463013
","x: 317.68560791015625
y: 351.9378967285156
z: 0.006026482675224543
visibility: 0.9996286630630493
","x: 337.49102783203125
y: 426.9875793457031
z: -0.03344237431883812
visibility: 0.9896346926689148
","x: 312.5915222167969
y: 426.5205078125
z: -0.021150454878807068
visibility: 0.9915185570716858
","x: 334.061767578125
y: 501.5206604003906
z: 0.150651752948761
visibility: 0.9898380041122437
","x: 307.3739318847656
y: 500.54052734375
z: 0.13406740128993988
visibility: 0.9911965131759644
","x: 332.2024230957031
y: 510.4950256347656
z: 0.16134227812290192
visibility: 0.9115422964096069
","x: 309.77716064453125
y: 508.56976318359375
z: 0.1410587877035141
visibility: 0.9024752378463745
","x: 333.3179016113281
y: 523.1087646484375
z: 0.036812715232372284
visibility: 0.9858922362327576
","x: 303.5370178222656
y: 526.51806640625
z: 0.01572682522237301
visibility: 0.9857153296470642
",,,,,,,,,,,,,,,,,,,,,,,,,,,,,,,,,,,,,,,,,,
15,"x: 330.6739501953125
y: 211.64828491210938
z: -0.28870871663093567
visibility: 0.9999529719352722
","x: 332.5457763671875
y: 203.93836975097656
z: -0.2733026146888733
visibility: 0.9998730421066284
","x: 333.8385009765625
y: 204.02682495117188
z: -0.27337515354156494
visibility: 0.9998633861541748
","x: 335.1314697265625
y: 204.1590118408203
z: -0.2734130024909973
visibility: 0.9998524785041809
","x: 328.5166931152344
y: 203.9637908935547
z: -0.27481532096862793
visibility: 0.9998956918716431
","x: 326.8628845214844
y: 204.0524444580078
z: -0.2748183608055115
visibility: 0.9998925924301147
","x: 325.2478942871094
y: 204.16456604003906
z: -0.27485910058021545
visibility: 0.9998987913131714
","x: 336.89593505859375
y: 207.8290557861328
z: -0.16530250012874603
visibility: 0.9996941685676575
","x: 322.10369873046875
y: 207.304931640625
z: -0.17011532187461853
visibility: 0.999840259552002
","x: 332.8812255859375
y: 219.0859832763672
z: -0.2475247085094452
visibility: 0.9999290108680725
","x: 327.8669128417969
y: 218.75413513183594
z: -0.24937422573566437
visibility: 0.9999492168426514
","x: 347.9727478027344
y: 252.6153564453125
z: -0.1090097576379776
visibility: 0.9997792840003967
","x: 308.7351379394531
y: 252.55072021484375
z: -0.06903838366270065
visibility: 0.9998998641967773
","x: 353.35882568359375
y: 304.42803955078125
z: -0.2072368860244751
visibility: 0.9551876783370972
","x: 297.8665466308594
y: 305.0067443847656
z: -0.02581656537950039
visibility: 0.9717628359794617
","x: 353.3377685546875
y: 292.855712890625
z: -0.4338796138763428
visibility: 0.8869903683662415
","x: 282.1645812988281
y: 344.16119384765625
z: -0.10759836435317993
visibility: 0.9316515922546387
","x: 350.97222900390625
y: 290.72760009765625
z: -0.4769933819770813
visibility: 0.8406105041503906
","x: 278.1693420410156
y: 356.240234375
z: -0.12587970495224
visibility: 0.8788931369781494
","x: 351.4925231933594
y: 281.5673522949219
z: -0.4847952425479889
visibility: 0.8466371297836304
","x: 279.4618225097656
y: 355.0816345214844
z: -0.1609179675579071
visibility: 0.8848369121551514
","x: 351.74090576171875
y: 281.470947265625
z: -0.44174766540527344
visibility: 0.8173776268959045
","x: 281.23150634765625
y: 351.3665466308594
z: -0.1232900619506836
visibility: 0.8612820506095886
","x: 339.56976318359375
y: 357.89422607421875
z: -0.011614053510129452
visibility: 0.9993242025375366
","x: 317.0520935058594
y: 354.5066833496094
z: 0.011632425710558891
visibility: 0.9996554255485535
","x: 337.163818359375
y: 429.8345947265625
z: -0.007775169797241688
visibility: 0.9901117086410522
","x: 301.1466369628906
y: 426.6537170410156
z: -0.04206712543964386
visibility: 0.9920663833618164
","x: 334.1534423828125
y: 501.9377136230469
z: 0.1615927517414093
visibility: 0.9903251528739929
","x: 286.91778564453125
y: 500.91107177734375
z: 0.09656821936368942
visibility: 0.9918716549873352
","x: 332.23211669921875
y: 511.482666015625
z: 0.17079010605812073
visibility: 0.910300076007843
","x: 289.26287841796875
y: 511.3346862792969
z: 0.10127033293247223
visibility: 0.9085394740104675
","x: 334.18377685546875
y: 523.289306640625
z: 0.05392763018608093
visibility: 0.9863781332969666
","x: 274.73760986328125
y: 523.8452758789062
z: -0.01773810386657715
visibility: 0.9867326617240906
",,,,,,,,,,,,,,,,,,,,,,"x: 353.47296142578125
y: 288.30035400390625
z: 0.0
","x: 353.7272033691406
y: 281.4518127441406
z: -0.0008559456327930093
","x: 351.9333190917969
y: 273.8571472167969
z: -0.002508021192625165
","x: 349.51446533203125
y: 269.1171875
z: -0.003942317329347134
","x: 348.0566711425781
y: 265.2087097167969
z: -0.004929014947265387
","x: 350.9511413574219
y: 275.43243408203125
z: -0.006008975673466921
","x: 345.22271728515625
y: 273.7872009277344
z: -0.008447443135082722
","x: 345.8243713378906
y: 275.56109619140625
z: -0.00787512306123972
","x: 347.54278564453125
y: 276.4827880859375
z: -0.007106952369213104
","x: 349.9112243652344
y: 280.03936767578125
z: -0.007029180880635977
","x: 344.5672912597656
y: 277.9281921386719
z: -0.009394686669111252
","x: 345.5397644042969
y: 279.4136657714844
z: -0.007770977448672056
","x: 347.2193908691406
y: 280.483642578125
z: -0.006260889116674662
","x: 348.9792785644531
y: 284.5062561035156
z: -0.008038501255214214
","x: 344.57196044921875
y: 281.9310302734375
z: -0.010270875878632069
","x: 345.0881652832031
y: 283.1457214355469
z: -0.008429772220551968
","x: 346.16693115234375
y: 284.1048889160156
z: -0.006841378286480904
","x: 348.2160339355469
y: 288.66729736328125
z: -0.009032925590872765
","x: 344.47698974609375
y: 286.2398681640625
z: -0.011489851400256157
","x: 342.70977783203125
y: 285.5356140136719
z: -0.011270331218838692
","x: 341.2442321777344
y: 285.00616455078125
z: -0.010539933107793331
"
16,"x: 330.6739501953125
y: 211.64828491210938
z: -0.28870871663093567
visibility: 0.9999529719352722
","x: 332.5457763671875
y: 203.93836975097656
z: -0.2733026146888733
visibility: 0.9998730421066284
","x: 333.8385009765625
y: 204.02682495117188
z: -0.27337515354156494
visibility: 0.9998633861541748
","x: 335.1314697265625
y: 204.1590118408203
z: -0.2734130024909973
visibility: 0.9998524785041809
","x: 328.5166931152344
y: 203.9637908935547
z: -0.27481532096862793
visibility: 0.9998956918716431
","x: 326.8628845214844
y: 204.0524444580078
z: -0.2748183608055115
visibility: 0.9998925924301147
","x: 325.2478942871094
y: 204.16456604003906
z: -0.27485910058021545
visibility: 0.9998987913131714
","x: 336.89593505859375
y: 207.8290557861328
z: -0.16530250012874603
visibility: 0.9996941685676575
","x: 322.10369873046875
y: 207.304931640625
z: -0.17011532187461853
visibility: 0.999840259552002
","x: 332.8812255859375
y: 219.0859832763672
z: -0.2475247085094452
visibility: 0.9999290108680725
","x: 327.8669128417969
y: 218.75413513183594
z: -0.24937422573566437
visibility: 0.9999492168426514
","x: 347.9727478027344
y: 252.6153564453125
z: -0.1090097576379776
visibility: 0.9997792840003967
","x: 308.7351379394531
y: 252.55072021484375
z: -0.06903838366270065
visibility: 0.9998998641967773
","x: 353.35882568359375
y: 304.42803955078125
z: -0.2072368860244751
visibility: 0.9551876783370972
","x: 297.8665466308594
y: 305.0067443847656
z: -0.02581656537950039
visibility: 0.9717628359794617
","x: 353.3377685546875
y: 292.855712890625
z: -0.4338796138763428
visibility: 0.8869903683662415
","x: 282.1645812988281
y: 344.16119384765625
z: -0.10759836435317993
visibility: 0.9316515922546387
","x: 350.97222900390625
y: 290.72760009765625
z: -0.4769933819770813
visibility: 0.8406105041503906
","x: 278.1693420410156
y: 356.240234375
z: -0.12587970495224
visibility: 0.8788931369781494
","x: 351.4925231933594
y: 281.5673522949219
z: -0.4847952425479889
visibility: 0.8466371297836304
","x: 279.4618225097656
y: 355.0816345214844
z: -0.1609179675579071
visibility: 0.8848369121551514
","x: 351.74090576171875
y: 281.470947265625
z: -0.44174766540527344
visibility: 0.8173776268959045
","x: 281.23150634765625
y: 351.3665466308594
z: -0.1232900619506836
visibility: 0.8612820506095886
","x: 339.56976318359375
y: 357.89422607421875
z: -0.011614053510129452
visibility: 0.9993242025375366
","x: 317.0520935058594
y: 354.5066833496094
z: 0.011632425710558891
visibility: 0.9996554255485535
","x: 337.163818359375
y: 429.8345947265625
z: -0.007775169797241688
visibility: 0.9901117086410522
","x: 301.1466369628906
y: 426.6537170410156
z: -0.04206712543964386
visibility: 0.9920663833618164
","x: 334.1534423828125
y: 501.9377136230469
z: 0.1615927517414093
visibility: 0.9903251528739929
","x: 286.91778564453125
y: 500.91107177734375
z: 0.09656821936368942
visibility: 0.9918716549873352
","x: 332.23211669921875
y: 511.482666015625
z: 0.17079010605812073
visibility: 0.910300076007843
","x: 289.26287841796875
y: 511.3346862792969
z: 0.10127033293247223
visibility: 0.9085394740104675
","x: 334.18377685546875
y: 523.289306640625
z: 0.05392763018608093
visibility: 0.9863781332969666
","x: 274.73760986328125
y: 523.8452758789062
z: -0.01773810386657715
visibility: 0.9867326617240906
",,,,,,,,,,,,,,,,,,,,,,"x: 353.47296142578125
y: 288.30035400390625
z: 0.0
","x: 353.7272033691406
y: 281.4518127441406
z: -0.0008559456327930093
","x: 351.9333190917969
y: 273.8571472167969
z: -0.002508021192625165
","x: 349.51446533203125
y: 269.1171875
z: -0.003942317329347134
","x: 348.0566711425781
y: 265.2087097167969
z: -0.004929014947265387
","x: 350.9511413574219
y: 275.43243408203125
z: -0.006008975673466921
","x: 345.22271728515625
y: 273.7872009277344
z: -0.008447443135082722
","x: 345.8243713378906
y: 275.56109619140625
z: -0.00787512306123972
","x: 347.54278564453125
y: 276.4827880859375
z: -0.007106952369213104
","x: 349.9112243652344
y: 280.03936767578125
z: -0.007029180880635977
","x: 344.5672912597656
y: 277.9281921386719
z: -0.009394686669111252
","x: 345.5397644042969
y: 279.4136657714844
z: -0.007770977448672056
","x: 347.2193908691406
y: 280.483642578125
z: -0.006260889116674662
","x: 348.9792785644531
y: 284.5062561035156
z: -0.008038501255214214
","x: 344.57196044921875
y: 281.9310302734375
z: -0.010270875878632069
","x: 345.0881652832031
y: 283.1457214355469
z: -0.008429772220551968
","x: 346.16693115234375
y: 284.1048889160156
z: -0.006841378286480904
","x: 348.2160339355469
y: 288.66729736328125
z: -0.009032925590872765
","x: 344.47698974609375
y: 286.2398681640625
z: -0.011489851400256157
","x: 342.70977783203125
y: 285.5356140136719
z: -0.011270331218838692
","x: 341.2442321777344
y: 285.00616455078125
z: -0.010539933107793331
"
17,"x: 325.5929260253906
y: 213.290771484375
z: -0.2854157090187073
visibility: 0.9999532699584961
","x: 328.26165771484375
y: 205.46217346191406
z: -0.27063167095184326
visibility: 0.999877393245697
","x: 329.80474853515625
y: 205.65023803710938
z: -0.2707219123840332
visibility: 0.9998680353164673
","x: 331.26519775390625
y: 205.85964965820312
z: -0.27077943086624146
visibility: 0.9998590350151062
","x: 323.96673583984375
y: 205.04042053222656
z: -0.26644548773765564
visibility: 0.9998944997787476
","x: 322.67767333984375
y: 204.96878051757812
z: -0.26645201444625854
visibility: 0.9998875260353088
","x: 321.5264587402344
y: 204.9423370361328
z: -0.26645752787590027
visibility: 0.9998922348022461
","x: 333.0292053222656
y: 209.2327117919922
z: -0.16536447405815125
visibility: 0.9997116327285767
","x: 319.7403869628906
y: 207.84303283691406
z: -0.14328952133655548
visibility: 0.9998101592063904
","x: 327.95843505859375
y: 220.55006408691406
z: -0.24540944397449493
visibility: 0.9999306797981262
","x: 322.69012451171875
y: 220.57901000976562
z: -0.239545539021492
visibility: 0.9999451041221619
","x: 345.0163269042969
y: 255.13986206054688
z: -0.122159942984581
visibility: 0.9997970461845398
","x: 305.84271240234375
y: 252.52957153320312
z: -0.031001558527350426
visibility: 0.9998941421508789
","x: 344.3924865722656
y: 304.30242919921875
z: -0.21268782019615173
visibility: 0.958689272403717
","x: 291.1514587402344
y: 302.1349792480469
z: 0.03491126373410225
visibility: 0.9676815271377563
","x: 329.8034362792969
y: 303.7787780761719
z: -0.41023191809654236
visibility: 0.8971633315086365
","x: 264.70361328125
y: 330.28546142578125
z: -0.0633261501789093
visibility: 0.9317188858985901
","x: 324.5926513671875
y: 312.2597961425781
z: -0.4575844407081604
visibility: 0.8542233109474182
","x: 258.6854248046875
y: 337.0304870605469
z: -0.09120961278676987
visibility: 0.8799585700035095
","x: 323.196533203125
y: 305.4599609375
z: -0.4709374010562897
visibility: 0.8597075343132019
","x: 258.29315185546875
y: 336.35357666015625
z: -0.13039153814315796
visibility: 0.8869377970695496
","x: 324.142822265625
y: 302.79608154296875
z: -0.41907256841659546
visibility: 0.831453800201416
","x: 260.59210205078125
y: 334.65478515625
z: -0.08305470645427704
visibility: 0.8641006946563721
","x: 331.71636962890625
y: 359.9486083984375
z: -0.01587727665901184
visibility: 0.9993791580200195
","x: 307.886474609375
y: 357.8506774902344
z: 0.01589971035718918
visibility: 0.9996841549873352
","x: 335.2391052246094
y: 434.1352844238281
z: 0.03098667599260807
visibility: 0.9907597303390503
","x: 287.4306945800781
y: 427.1089172363281
z: -0.03611144796013832
visibility: 0.9927665591239929
","x: 334.1492614746094
y: 502.26031494140625
z: 0.23315878212451935
visibility: 0.9909650683403015
","x: 267.52239990234375
y: 497.50909423828125
z: 0.10425802320241928
visibility: 0.9926140904426575
","x: 332.13665771484375
y: 512.0235595703125
z: 0.2464524209499359
visibility: 0.9127481579780579
","x: 271.297607421875
y: 510.3499755859375
z: 0.10961093753576279
visibility: 0.9153743386268616
","x: 334.5561218261719
y: 523.117919921875
z: 0.13146421313285828
visibility: 0.9870778322219849
","x: 251.77740478515625
y: 517.9868774414062
z: -0.014547668397426605
visibility: 0.9878748059272766
",,,,,,,,,,,,,,,,,,,,,,"x: 325.3333740234375
y: 317.1474304199219
z: 0.0
","x: 322.41302490234375
y: 311.86907958984375
z: 0.00013202587433625013
","x: 317.9546203613281
y: 309.4192810058594
z: -0.0004964718245901167
","x: 314.2319030761719
y: 309.24365234375
z: -0.0011635157279670238
","x: 311.3216552734375
y: 309.6687927246094
z: -0.0015565872890874743
","x: 317.40350341796875
y: 311.7052917480469
z: -0.0020449867006391287
","x: 313.2552795410156
y: 311.8282775878906
z: -0.002705605700612068
","x: 311.4341735839844
y: 311.67486572265625
z: -0.0021424461156129837
","x: 310.5075988769531
y: 311.59002685546875
z: -0.0015604462241753936
","x: 317.39892578125
y: 316.5494384765625
z: -0.0028069650288671255
","x: 313.0129089355469
y: 317.3179931640625
z: -0.0033918707631528378
","x: 312.8949279785156
y: 317.2098388671875
z: -0.002116727875545621
","x: 313.7992248535156
y: 317.1064758300781
z: -0.0009495654958300292
","x: 317.5832214355469
y: 321.32916259765625
z: -0.0034361754078418016
","x: 313.67315673828125
y: 321.9670104980469
z: -0.0036102700978517532
","x: 313.9163513183594
y: 321.646240234375
z: -0.0018415165832266212
","x: 314.9907531738281
y: 321.246826171875
z: -0.0005801244988106191
","x: 317.9964904785156
y: 325.72259521484375
z: -0.004142587538808584
","x: 314.45440673828125
y: 326.1616516113281
z: -0.004227802157402039
","x: 314.40618896484375
y: 325.4720458984375
z: -0.003135273465886712
","x: 315.2315673828125
y: 324.8185729980469
z: -0.0021598725579679012
"
18,"x: 325.5929260253906
y: 213.290771484375
z: -0.2854157090187073
visibility: 0.9999532699584961
","x: 328.26165771484375
y: 205.46217346191406
z: -0.27063167095184326
visibility: 0.999877393245697
","x: 329.80474853515625
y: 205.65023803710938
z: -0.2707219123840332
visibility: 0.9998680353164673
","x: 331.26519775390625
y: 205.85964965820312
z: -0.27077943086624146
visibility: 0.9998590350151062
","x: 323.96673583984375
y: 205.04042053222656
z: -0.26644548773765564
visibility: 0.9998944997787476
","x: 322.67767333984375
y: 204.96878051757812
z: -0.26645201444625854
visibility: 0.9998875260353088
","x: 321.5264587402344
y: 204.9423370361328
z: -0.26645752787590027
visibility: 0.9998922348022461
","x: 333.0292053222656
y: 209.2327117919922
z: -0.16536447405815125
visibility: 0.9997116327285767
","x: 319.7403869628906
y: 207.84303283691406
z: -0.14328952133655548
visibility: 0.9998101592063904
","x: 327.95843505859375
y: 220.55006408691406
z: -0.24540944397449493
visibility: 0.9999306797981262
","x: 322.69012451171875
y: 220.57901000976562
z: -0.239545539021492
visibility: 0.9999451041221619
","x: 345.0163269042969
y: 255.13986206054688
z: -0.122159942984581
visibility: 0.9997970461845398
","x: 305.84271240234375
y: 252.52957153320312
z: -0.031001558527350426
visibility: 0.9998941421508789
","x: 344.3924865722656
y: 304.30242919921875
z: -0.21268782019615173
visibility: 0.958689272403717
","x: 291.1514587402344
y: 302.1349792480469
z: 0.03491126373410225
visibility: 0.9676815271377563
","x: 329.8034362792969
y: 303.7787780761719
z: -0.41023191809654236
visibility: 0.8971633315086365
","x: 264.70361328125
y: 330.28546142578125
z: -0.0633261501789093
visibility: 0.9317188858985901
","x: 324.5926513671875
y: 312.2597961425781
z: -0.4575844407081604
visibility: 0.8542233109474182
","x: 258.6854248046875
y: 337.0304870605469
z: -0.09120961278676987
visibility: 0.8799585700035095
","x: 323.196533203125
y: 305.4599609375
z: -0.4709374010562897
visibility: 0.8597075343132019
","x: 258.29315185546875
y: 336.35357666015625
z: -0.13039153814315796
visibility: 0.8869377970695496
","x: 324.142822265625
y: 302.79608154296875
z: -0.41907256841659546
visibility: 0.831453800201416
","x: 260.59210205078125
y: 334.65478515625
z: -0.08305470645427704
visibility: 0.8641006946563721
","x: 331.71636962890625
y: 359.9486083984375
z: -0.01587727665901184
visibility: 0.9993791580200195
","x: 307.886474609375
y: 357.8506774902344
z: 0.01589971035718918
visibility: 0.9996841549873352
","x: 335.2391052246094
y: 434.1352844238281
z: 0.03098667599260807
visibility: 0.9907597303390503
","x: 287.4306945800781
y: 427.1089172363281
z: -0.03611144796013832
visibility: 0.9927665591239929
","x: 334.1492614746094
y: 502.26031494140625
z: 0.23315878212451935
visibility: 0.9909650683403015
","x: 267.52239990234375
y: 497.50909423828125
z: 0.10425802320241928
visibility: 0.9926140904426575
","x: 332.13665771484375
y: 512.0235595703125
z: 0.2464524209499359
visibility: 0.9127481579780579
","x: 271.297607421875
y: 510.3499755859375
z: 0.10961093753576279
visibility: 0.9153743386268616
","x: 334.5561218261719
y: 523.117919921875
z: 0.13146421313285828
visibility: 0.9870778322219849
","x: 251.77740478515625
y: 517.9868774414062
z: -0.014547668397426605
visibility: 0.9878748059272766
",,,,,,,,,,,,,,,,,,,,,,"x: 325.3333740234375
y: 317.1474304199219
z: 0.0
","x: 322.41302490234375
y: 311.86907958984375
z: 0.00013202587433625013
","x: 317.9546203613281
y: 309.4192810058594
z: -0.0004964718245901167
","x: 314.2319030761719
y: 309.24365234375
z: -0.0011635157279670238
","x: 311.3216552734375
y: 309.6687927246094
z: -0.0015565872890874743
","x: 317.40350341796875
y: 311.7052917480469
z: -0.0020449867006391287
","x: 313.2552795410156
y: 311.8282775878906
z: -0.002705605700612068
","x: 311.4341735839844
y: 311.67486572265625
z: -0.0021424461156129837
","x: 310.5075988769531
y: 311.59002685546875
z: -0.0015604462241753936
","x: 317.39892578125
y: 316.5494384765625
z: -0.0028069650288671255
","x: 313.0129089355469
y: 317.3179931640625
z: -0.0033918707631528378
","x: 312.8949279785156
y: 317.2098388671875
z: -0.002116727875545621
","x: 313.7992248535156
y: 317.1064758300781
z: -0.0009495654958300292
","x: 317.5832214355469
y: 321.32916259765625
z: -0.0034361754078418016
","x: 313.67315673828125
y: 321.9670104980469
z: -0.0036102700978517532
","x: 313.9163513183594
y: 321.646240234375
z: -0.0018415165832266212
","x: 314.9907531738281
y: 321.246826171875
z: -0.0005801244988106191
","x: 317.9964904785156
y: 325.72259521484375
z: -0.004142587538808584
","x: 314.45440673828125
y: 326.1616516113281
z: -0.004227802157402039
","x: 314.40618896484375
y: 325.4720458984375
z: -0.003135273465886712
","x: 315.2315673828125
y: 324.8185729980469
z: -0.0021598725579679012
"
19,"x: 315.5885314941406
y: 216.6813507080078
z: -0.2543165385723114
visibility: 0.9999544620513916
","x: 318.71087646484375
y: 208.96539306640625
z: -0.24200177192687988
visibility: 0.9998841285705566
","x: 320.2496032714844
y: 209.2424774169922
z: -0.24208810925483704
visibility: 0.9998756647109985
","x: 321.873291015625
y: 209.64102172851562
z: -0.2421434223651886
visibility: 0.9998680949211121
","x: 314.78546142578125
y: 208.41073608398438
z: -0.23398594558238983
visibility: 0.9998960494995117
","x: 313.5332946777344
y: 208.24896240234375
z: -0.23398296535015106
visibility: 0.9998871684074402
","x: 312.3124694824219
y: 208.1014862060547
z: -0.23395760357379913
visibility: 0.9998900294303894
","x: 324.46392822265625
y: 213.4458770751953
z: -0.14942918717861176
visibility: 0.9997361898422241
","x: 311.4262390136719
y: 211.00161743164062
z: -0.11165302991867065
visibility: 0.9997833967208862
","x: 317.6736145019531
y: 224.0811004638672
z: -0.21906177699565887
visibility: 0.9999339580535889
","x: 312.8887939453125
y: 223.54034423828125
z: -0.20847606658935547
visibility: 0.9999421834945679
","x: 333.2738952636719
y: 260.6110534667969
z: -0.1258479207754135
visibility: 0.9998129606246948
","x: 299.8324279785156
y: 254.08267211914062
z: 0.0014412759337574244
visibility: 0.9998542666435242
","x: 325.79248046875
y: 311.1957702636719
z: -0.19981618225574493
visibility: 0.9620657563209534
","x: 288.7922058105469
y: 301.84393310546875
z: -0.00767024140805006
visibility: 0.9374362826347351
","x: 306.1081848144531
y: 329.51025390625
z: -0.36000970005989075
visibility: 0.9065381288528442
","x: 266.1128845214844
y: 313.4488220214844
z: -0.2029620110988617
visibility: 0.9253566265106201
","x: 301.0962219238281
y: 341.74249267578125
z: -0.4046962857246399
visibility: 0.8669675588607788
","x: 259.1817932128906
y: 314.00244140625
z: -0.24189503490924835
visibility: 0.8778103590011597
","x: 298.6618347167969
y: 335.30560302734375
z: -0.4278873801231384
visibility: 0.8719649910926819
","x: 258.0539245605469
y: 312.0623474121094
z: -0.277614027261734
visibility: 0.8858571648597717
","x: 299.7366638183594
y: 332.0091247558594
z: -0.3729797601699829
visibility: 0.8451692461967468
","x: 260.91058349609375
y: 312.3092956542969
z: -0.22515539824962616
visibility: 0.8629174828529358
","x: 319.64581298828125
y: 362.4953918457031
z: -0.023815128952264786
visibility: 0.9994292855262756
","x: 297.1121826171875
y: 360.0277404785156
z: 0.023786600679159164
visibility: 0.9997039437294006
","x: 329.59368896484375
y: 435.20849609375
z: 0.014852641150355339
visibility: 0.9916269183158875
","x: 276.55157470703125
y: 430.83673095703125
z: 0.01491975225508213
visibility: 0.9934229850769043
","x: 334.0923156738281
y: 501.8264465332031
z: 0.18972335755825043
visibility: 0.9917965531349182
","x: 258.7717590332031
y: 498.94842529296875
z: 0.15387120842933655
visibility: 0.9933016896247864
","x: 332.1490478515625
y: 511.5603942871094
z: 0.20079362392425537
visibility: 0.9174461364746094
","x: 262.57073974609375
y: 511.50323486328125
z: 0.15981228649616241
visibility: 0.9217740893363953
","x: 334.554443359375
y: 523.2984008789062
z: 0.08058963716030121
visibility: 0.9881932139396667
","x: 245.5094451904297
y: 520.6124267578125
z: 0.04378729313611984
visibility: 0.9889332056045532
",,,,,,,,,,,,,,,,,,,,,,"x: 303.87786865234375
y: 341.89984130859375
z: 0.0
","x: 299.3171081542969
y: 337.4158020019531
z: -0.001741255633533001
","x: 295.0301818847656
y: 337.97052001953125
z: -0.0030506467446684837
","x: 291.7505798339844
y: 341.6116638183594
z: -0.0036380791570991278
","x: 289.63079833984375
y: 344.5971984863281
z: -0.0037220458034425974
","x: 296.639892578125
y: 347.15972900390625
z: -0.007648720871657133
","x: 291.0784912109375
y: 348.6236877441406
z: -0.008296976797282696
","x: 291.6043395996094
y: 344.73101806640625
z: -0.006136931478977203
","x: 293.2541809082031
y: 342.9866027832031
z: -0.0043130661360919476
","x: 297.8885192871094
y: 351.47613525390625
z: -0.007327480241656303
","x: 292.2711486816406
y: 352.2652587890625
z: -0.007088376674801111
","x: 292.41845703125
y: 348.9422912597656
z: -0.003949572332203388
","x: 293.9543762207031
y: 347.6124572753906
z: -0.0018512704409658909
","x: 299.0434265136719
y: 354.18768310546875
z: -0.006752839311957359
","x: 294.0179443359375
y: 354.3818359375
z: -0.006730551365762949
","x: 294.13232421875
y: 351.6433410644531
z: -0.0042200395837426186
","x: 295.4973449707031
y: 350.4975891113281
z: -0.0026756362058222294
","x: 299.97650146484375
y: 355.8417053222656
z: -0.006216467823833227
","x: 295.7806396484375
y: 355.6123046875
z: -0.006922613363713026
","x: 295.7701416015625
y: 353.38873291015625
z: -0.00575576676055789
","x: 296.8698425292969
y: 352.3506164550781
z: -0.004619333893060684
"
20,"x: 315.5885314941406
y: 216.6813507080078
z: -0.2543165385723114
visibility: 0.9999544620513916
","x: 318.71087646484375
y: 208.96539306640625
z: -0.24200177192687988
visibility: 0.9998841285705566
","x: 320.2496032714844
y: 209.2424774169922
z: -0.24208810925483704
visibility: 0.9998756647109985
","x: 321.873291015625
y: 209.64102172851562
z: -0.2421434223651886
visibility: 0.9998680949211121
","x: 314.78546142578125
y: 208.41073608398438
z: -0.23398594558238983
visibility: 0.9998960494995117
","x: 313.5332946777344
y: 208.24896240234375
z: -0.23398296535015106
visibility: 0.9998871684074402
","x: 312.3124694824219
y: 208.1014862060547
z: -0.23395760357379913
visibility: 0.9998900294303894
","x: 324.46392822265625
y: 213.4458770751953
z: -0.14942918717861176
visibility: 0.9997361898422241
","x: 311.4262390136719
y: 211.00161743164062
z: -0.11165302991867065
visibility: 0.9997833967208862
","x: 317.6736145019531
y: 224.0811004638672
z: -0.21906177699565887
visibility: 0.9999339580535889
","x: 312.8887939453125
y: 223.54034423828125
z: -0.20847606658935547
visibility: 0.9999421834945679
","x: 333.2738952636719
y: 260.6110534667969
z: -0.1258479207754135
visibility: 0.9998129606246948
","x: 299.8324279785156
y: 254.08267211914062
z: 0.0014412759337574244
visibility: 0.9998542666435242
","x: 325.79248046875
y: 311.1957702636719
z: -0.19981618225574493
visibility: 0.9620657563209534
","x: 288.7922058105469
y: 301.84393310546875
z: -0.00767024140805006
visibility: 0.9374362826347351
","x: 306.1081848144531
y: 329.51025390625
z: -0.36000970005989075
visibility: 0.9065381288528442
","x: 266.1128845214844
y: 313.4488220214844
z: -0.2029620110988617
visibility: 0.9253566265106201
","x: 301.0962219238281
y: 341.74249267578125
z: -0.4046962857246399
visibility: 0.8669675588607788
","x: 259.1817932128906
y: 314.00244140625
z: -0.24189503490924835
visibility: 0.8778103590011597
","x: 298.6618347167969
y: 335.30560302734375
z: -0.4278873801231384
visibility: 0.8719649910926819
","x: 258.0539245605469
y: 312.0623474121094
z: -0.277614027261734
visibility: 0.8858571648597717
","x: 299.7366638183594
y: 332.0091247558594
z: -0.3729797601699829
visibility: 0.8451692461967468
","x: 260.91058349609375
y: 312.3092956542969
z: -0.22515539824962616
visibility: 0.8629174828529358
","x: 319.64581298828125
y: 362.4953918457031
z: -0.023815128952264786
visibility: 0.9994292855262756
","x: 297.1121826171875
y: 360.0277404785156
z: 0.023786600679159164
visibility: 0.9997039437294006
","x: 329.59368896484375
y: 435.20849609375
z: 0.014852641150355339
visibility: 0.9916269183158875
","x: 276.55157470703125
y: 430.83673095703125
z: 0.01491975225508213
visibility: 0.9934229850769043
","x: 334.0923156738281
y: 501.8264465332031
z: 0.18972335755825043
visibility: 0.9917965531349182
","x: 258.7717590332031
y: 498.94842529296875
z: 0.15387120842933655
visibility: 0.9933016896247864
","x: 332.1490478515625
y: 511.5603942871094
z: 0.20079362392425537
visibility: 0.9174461364746094
","x: 262.57073974609375
y: 511.50323486328125
z: 0.15981228649616241
visibility: 0.9217740893363953
","x: 334.554443359375
y: 523.2984008789062
z: 0.08058963716030121
visibility: 0.9881932139396667
","x: 245.5094451904297
y: 520.6124267578125
z: 0.04378729313611984
visibility: 0.9889332056045532
",,,,,,,,,,,,,,,,,,,,,,"x: 303.87786865234375
y: 341.89984130859375
z: 0.0
","x: 299.3171081542969
y: 337.4158020019531
z: -0.001741255633533001
","x: 295.0301818847656
y: 337.97052001953125
z: -0.0030506467446684837
","x: 291.7505798339844
y: 341.6116638183594
z: -0.0036380791570991278
","x: 289.63079833984375
y: 344.5971984863281
z: -0.0037220458034425974
","x: 296.639892578125
y: 347.15972900390625
z: -0.007648720871657133
","x: 291.0784912109375
y: 348.6236877441406
z: -0.008296976797282696
","x: 291.6043395996094
y: 344.73101806640625
z: -0.006136931478977203
","x: 293.2541809082031
y: 342.9866027832031
z: -0.0043130661360919476
","x: 297.8885192871094
y: 351.47613525390625
z: -0.007327480241656303
","x: 292.2711486816406
y: 352.2652587890625
z: -0.007088376674801111
","x: 292.41845703125
y: 348.9422912597656
z: -0.003949572332203388
","x: 293.9543762207031
y: 347.6124572753906
z: -0.0018512704409658909
","x: 299.0434265136719
y: 354.18768310546875
z: -0.006752839311957359
","x: 294.0179443359375
y: 354.3818359375
z: -0.006730551365762949
","x: 294.13232421875
y: 351.6433410644531
z: -0.0042200395837426186
","x: 295.4973449707031
y: 350.4975891113281
z: -0.0026756362058222294
","x: 299.97650146484375
y: 355.8417053222656
z: -0.006216467823833227
","x: 295.7806396484375
y: 355.6123046875
z: -0.006922613363713026
","x: 295.7701416015625
y: 353.38873291015625
z: -0.00575576676055789
","x: 296.8698425292969
y: 352.3506164550781
z: -0.004619333893060684
"
21,"x: 306.5567932128906
y: 218.9051055908203
z: -0.2626277506351471
visibility: 0.9999494552612305
","x: 310.0010681152344
y: 211.34820556640625
z: -0.2513037919998169
visibility: 0.999876856803894
","x: 311.5354309082031
y: 211.55479431152344
z: -0.25138193368911743
visibility: 0.9998722076416016
","x: 312.9723815917969
y: 211.85208129882812
z: -0.2514296770095825
visibility: 0.9998649954795837
","x: 305.70654296875
y: 210.57489013671875
z: -0.24097409844398499
visibility: 0.9998801946640015
","x: 304.431884765625
y: 210.18038940429688
z: -0.2409655749797821
visibility: 0.999866247177124
","x: 303.2514343261719
y: 209.806884765625
z: -0.240937277674675
visibility: 0.99986732006073
","x: 315.9386901855469
y: 215.7691650390625
z: -0.16328248381614685
visibility: 0.9997509717941284
","x: 303.231689453125
y: 212.4232635498047
z: -0.11482878029346466
visibility: 0.9996940493583679
","x: 308.94140625
y: 226.49072265625
z: -0.2292836606502533
visibility: 0.999923586845398
","x: 303.4091796875
y: 225.87278747558594
z: -0.21536168456077576
visibility: 0.9999024868011475
","x: 324.48406982421875
y: 261.4831237792969
z: -0.160670667886734
visibility: 0.9998251795768738
","x: 294.9972839355469
y: 258.51116943359375
z: 0.025767531245946884
visibility: 0.9997644424438477
","x: 317.97308349609375
y: 313.2687683105469
z: -0.21147890388965607
visibility: 0.9653133749961853
","x: 285.1356201171875
y: 303.64215087890625
z: 0.0956062451004982
visibility: 0.9026051759719849
","x: 296.8885498046875
y: 336.1814880371094
z: -0.3356960415840149
visibility: 0.9148420691490173
","x: 264.0800476074219
y: 294.00762939453125
z: -0.013022397644817829
visibility: 0.9258684515953064
","x: 292.2633361816406
y: 348.731689453125
z: -0.36890897154808044
visibility: 0.8777216076850891
","x: 256.46478271484375
y: 289.95355224609375
z: -0.03068998083472252
visibility: 0.8812571167945862
","x: 289.6489562988281
y: 342.9568786621094
z: -0.382463276386261
visibility: 0.8822168111801147
","x: 255.63027954101562
y: 285.64154052734375
z: -0.06235358119010925
visibility: 0.8894562721252441
","x: 290.80047607421875
y: 339.34320068359375
z: -0.34088242053985596
visibility: 0.8560742735862732
","x: 258.4535827636719
y: 286.5631408691406
z: -0.02983846142888069
visibility: 0.8670087456703186
","x: 313.5416259765625
y: 361.5309143066406
z: -0.049876756966114044
visibility: 0.9994332194328308
","x: 291.9471130371094
y: 361.0309143066406
z: 0.049781717360019684
visibility: 0.9997115135192871
","x: 323.50177001953125
y: 434.9957580566406
z: -0.04589813947677612
visibility: 0.9923772215843201
","x: 273.164794921875
y: 427.632080078125
z: 0.002831188030540943
visibility: 0.9939378499984741
","x: 334.25128173828125
y: 501.45281982421875
z: 0.10475041717290878
visibility: 0.9925343990325928
","x: 259.65313720703125
y: 499.56365966796875
z: 0.10538097470998764
visibility: 0.993898868560791
","x: 333.59014892578125
y: 510.3250427246094
z: 0.11245639622211456
visibility: 0.9205196499824524
","x: 263.47869873046875
y: 513.4331665039062
z: 0.10673625767230988
visibility: 0.9284766912460327
","x: 334.013427734375
y: 523.5731811523438
z: -0.0015832784119993448
visibility: 0.9891697764396667
","x: 243.89010620117188
y: 522.1368408203125
z: 0.01319380383938551
visibility: 0.9898562431335449
",,,,,,,,,,,,,,,,,,,,,,,,,,,,,,,,,,,,,,,,,,
22,"x: 301.5285339355469
y: 223.04425048828125
z: -0.2600371241569519
visibility: 0.999953031539917
","x: 305.2007141113281
y: 215.8802032470703
z: -0.24924719333648682
visibility: 0.9998860359191895
","x: 306.7169494628906
y: 216.1283721923828
z: -0.24929121136665344
visibility: 0.9998819231987
","x: 308.27569580078125
y: 216.46127319335938
z: -0.2493138313293457
visibility: 0.9998753070831299
","x: 301.0507507324219
y: 214.7003936767578
z: -0.23937809467315674
visibility: 0.9998878836631775
","x: 299.7186584472656
y: 214.022705078125
z: -0.23939993977546692
visibility: 0.999874472618103
","x: 298.5804443359375
y: 213.37896728515625
z: -0.23936180770397186
visibility: 0.9998750686645508
","x: 311.93560791015625
y: 219.43536376953125
z: -0.16284407675266266
visibility: 0.9997738003730774
","x: 298.7295227050781
y: 215.26841735839844
z: -0.11553029716014862
visibility: 0.9997015595436096
","x: 304.0988464355469
y: 230.2982940673828
z: -0.22649915516376495
visibility: 0.9999289512634277
","x: 299.02386474609375
y: 229.31307983398438
z: -0.2130894958972931
visibility: 0.9999069571495056
","x: 322.12933349609375
y: 264.5169677734375
z: -0.14050880074501038
visibility: 0.9998388886451721
","x: 288.6999206542969
y: 260.156494140625
z: 0.00043394314707256854
visibility: 0.9997549653053284
","x: 318.36480712890625
y: 316.09814453125
z: -0.19601742923259735
visibility: 0.9683052897453308
","x: 273.68646240234375
y: 303.336669921875
z: -0.06330706924200058
visibility: 0.9050750136375427
","x: 301.9742431640625
y: 346.4144287109375
z: -0.3190271258354187
visibility: 0.9226601123809814
","x: 262.0951232910156
y: 267.13232421875
z: -0.32675543427467346
visibility: 0.9322807788848877
","x: 298.2340393066406
y: 361.3825988769531
z: -0.3543771803379059
visibility: 0.8881686329841614
","x: 258.6858825683594
y: 254.70269775390625
z: -0.3711910545825958
visibility: 0.8913470506668091
","x: 295.924560546875
y: 356.1494445800781
z: -0.3655393123626709
visibility: 0.8921510577201843
","x: 260.03839111328125
y: 250.1199951171875
z: -0.38262301683425903
visibility: 0.8987497687339783
","x: 296.8105163574219
y: 351.13787841796875
z: -0.3234291672706604
visibility: 0.8672775626182556
","x: 261.6383972167969
y: 253.65878295898438
z: -0.33897528052330017
visibility: 0.8777809739112854
","x: 313.2781677246094
y: 364.8410339355469
z: -0.03724399954080582
visibility: 0.9994692802429199
","x: 289.9114990234375
y: 365.7596435546875
z: 0.03712937980890274
visibility: 0.999728798866272
","x: 325.3428039550781
y: 434.8172302246094
z: -0.050649553537368774
visibility: 0.9930877685546875
","x: 270.1446533203125
y: 427.9193115234375
z: -0.004904220346361399
visibility: 0.9944555163383484
","x: 334.3545227050781
y: 500.9464111328125
z: 0.12833699584007263
visibility: 0.9931957721710205
","x: 258.2341613769531
y: 499.92169189453125
z: 0.11660845577716827
visibility: 0.994441568851471
","x: 333.93212890625
y: 509.4418640136719
z: 0.13317734003067017
visibility: 0.9228001832962036
","x: 262.5281982421875
y: 514.099365234375
z: 0.12350330501794815
visibility: 0.9342141151428223
","x: 334.24627685546875
y: 523.2506713867188
z: 0.010930730029940605
visibility: 0.990047812461853
","x: 243.9388885498047
y: 522.6749267578125
z: 0.02135014906525612
visibility: 0.9907024502754211
","x: 261.408203125
y: 264.68994140625
z: 0.0
","x: 263.4420471191406
y: 254.85572814941406
z: 0.0023243215400725603
","x: 264.2896423339844
y: 246.36502075195312
z: 0.002141621196642518
","x: 264.21746826171875
y: 239.87672424316406
z: 0.00048708150279708207
","x: 263.3259582519531
y: 236.11239624023438
z: -0.00046115467557683587
","x: 260.17242431640625
y: 241.08261108398438
z: 0.0021382695995271206
","x: 260.0389709472656
y: 233.95159912109375
z: -0.000712437613401562
","x: 262.01824951171875
y: 237.63893127441406
z: -0.0012720904778689146
","x: 262.9389343261719
y: 241.82769775390625
z: -0.0010481348726898432
","x: 258.640380859375
y: 243.1889190673828
z: -0.0009384026634506881
","x: 259.48907470703125
y: 237.87686157226562
z: -0.003496592165902257
","x: 261.7552795410156
y: 242.42898559570312
z: -0.0028766870964318514
","x: 262.5185241699219
y: 246.5927734375
z: -0.0018810501787811518
","x: 257.19012451171875
y: 246.50254821777344
z: -0.0043624225072562695
","x: 258.4136047363281
y: 242.1884307861328
z: -0.007035224232822657
","x: 260.75567626953125
y: 246.1845245361328
z: -0.005396578460931778
","x: 261.8443908691406
y: 250.1245880126953
z: -0.0036973189562559128
","x: 255.92459106445312
y: 250.40420532226562
z: -0.007871760055422783
","x: 257.0986633300781
y: 246.68063354492188
z: -0.009569092653691769
","x: 259.1877746582031
y: 248.67605590820312
z: -0.0082956338301301
","x: 260.4643859863281
y: 251.42083740234375
z: -0.006713806185871363
",,,,,,,,,,,,,,,,,,,,,
23,"x: 301.5285339355469
y: 223.04425048828125
z: -0.2600371241569519
visibility: 0.999953031539917
","x: 305.2007141113281
y: 215.8802032470703
z: -0.24924719333648682
visibility: 0.9998860359191895
","x: 306.7169494628906
y: 216.1283721923828
z: -0.24929121136665344
visibility: 0.9998819231987
","x: 308.27569580078125
y: 216.46127319335938
z: -0.2493138313293457
visibility: 0.9998753070831299
","x: 301.0507507324219
y: 214.7003936767578
z: -0.23937809467315674
visibility: 0.9998878836631775
","x: 299.7186584472656
y: 214.022705078125
z: -0.23939993977546692
visibility: 0.999874472618103
","x: 298.5804443359375
y: 213.37896728515625
z: -0.23936180770397186
visibility: 0.9998750686645508
","x: 311.93560791015625
y: 219.43536376953125
z: -0.16284407675266266
visibility: 0.9997738003730774
","x: 298.7295227050781
