uscmakers/ReverseChoreography/data/9_knife_talk_drake.csv
,NOSE,LEFT_EYE_INNER,LEFT_EYE,LEFT_EYE_OUTER,RIGHT_EYE_INNER,RIGHT_EYE,RIGHT_EYE_OUTER,LEFT_EAR,RIGHT_EAR,MOUTH_LEFT,MOUTH_RIGHT,LEFT_SHOULDER,RIGHT_SHOULDER,LEFT_ELBOW,RIGHT_ELBOW,LEFT_WRIST,RIGHT_WRIST,LEFT_PINKY,RIGHT_PINKY,LEFT_INDEX,RIGHT_INDEX,LEFT_THUMB,RIGHT_THUMB,LEFT_HIP,RIGHT_HIP,LEFT_KNEE,RIGHT_KNEE,LEFT_ANKLE,RIGHT_ANKLE,LEFT_HEEL,RIGHT_HEEL,LEFT_FOOT_INDEX,RIGHT_FOOT_INDEX,WRIST,THUMB_CPC,THUMB_MCP,THUMB_IP,THUMB_TIP,INDEX_FINGER_MCP,INDEX_FINGER_PIP,INDEX_FINGER_DIP,INDEX_FINGER_TIP,MIDDLE_FINGER_MCP,MIDDLE_FINGER_PIP,MIDDLE_FINGER_DIP,MIDDLE_FINGER_TIP,RING_FINGER_PIP,RING_FINGER_DIP,RING_FINGER_TIP,RING_FINGER_MCP,PINKY_MCP,PINKY_PIP,PINKY_DIP,PINKY_TIP,WRIST2,THUMB_CPC2,THUMB_MCP2,THUMB_IP2,THUMB_TIP2,INDEX_FINGER_MCP2,INDEX_FINGER_PIP2,INDEX_FINGER_DIP2,INDEX_FINGER_TIP2,MIDDLE_FINGER_MCP2,MIDDLE_FINGER_PIP2,MIDDLE_FINGER_DIP2,MIDDLE_FINGER_TIP2,RING_FINGER_PIP2,RING_FINGER_DIP2,RING_FINGER_TIP2,RING_FINGER_MCP2,PINKY_MCP2,PINKY_PIP2,PINKY_DIP2,PINKY_TIP2
0,"x: 208.00051879882812
y: 204.07041931152344
z: -0.2981405556201935
visibility: 0.9880046248435974
","x: 209.2332763671875
y: 195.5281219482422
z: -0.2817712128162384
visibility: 0.9722345471382141
","x: 209.926025390625
y: 194.80995178222656
z: -0.28176677227020264
visibility: 0.9717406034469604
","x: 210.62985229492188
y: 194.20407104492188
z: -0.28177347779273987
visibility: 0.970805287361145
","x: 206.7484130859375
y: 196.40296936035156
z: -0.29155129194259644
visibility: 0.9749669432640076
","x: 205.67385864257812
y: 196.1549072265625
z: -0.2916121780872345
visibility: 0.9788485765457153
","x: 204.5108642578125
y: 195.912109375
z: -0.2917362451553345
visibility: 0.9799067378044128
","x: 210.426513671875
y: 194.77337646484375
z: -0.16091199219226837
visibility: 0.9561077356338501
","x: 200.9757843017578
y: 195.6009521484375
z: -0.20513716340065002
visibility: 0.9577877521514893
","x: 208.75135803222656
y: 209.43917846679688
z: -0.2487567961215973
visibility: 0.9674780964851379
","x: 205.572021484375
y: 210.4978790283203
z: -0.2619149088859558
visibility: 0.9671252965927124
","x: 222.09228515625
y: 231.9273681640625
z: -0.0635790005326271
visibility: 0.987927258014679
","x: 186.9095458984375
y: 230.80868530273438
z: -0.16463755071163177
visibility: 0.9942716360092163
","x: 223.92189025878906
y: 290.446044921875
z: -0.015146452002227306
visibility: 0.48663103580474854
","x: 188.60873413085938
y: 272.5860290527344
z: -0.3058913052082062
visibility: 0.9758155345916748
","x: 224.90794372558594
y: 337.90997314453125
z: -0.05827130749821663
visibility: 0.2787652611732483
","x: 203.46304321289062
y: 230.39886474609375
z: -0.47665730118751526
visibility: 0.9629467129707336
","x: 226.91107177734375
y: 354.04296875
z: -0.06578715890645981
visibility: 0.2202666848897934
","x: 206.78961181640625
y: 217.4226531982422
z: -0.5175280570983887
visibility: 0.9181059002876282
","x: 226.42112731933594
y: 357.9725341796875
z: -0.0925559476017952
visibility: 0.22741197049617767
","x: 205.25376892089844
y: 215.39212036132812
z: -0.5110225677490234
visibility: 0.9112939834594727
","x: 229.5611114501953
y: 356.2635803222656
z: -0.0694304034113884
visibility: 0.22821469604969025
","x: 204.29690551757812
y: 219.12615966796875
z: -0.4774416983127594
visibility: 0.8662301301956177
","x: 217.27383422851562
y: 344.1099853515625
z: 0.008409928530454636
visibility: 0.9964346885681152
","x: 193.62222290039062
y: 344.231689453125
z: -0.008404943160712719
visibility: 0.997643768787384
","x: 215.8550262451172
y: 418.0531311035156
z: 0.0035722232423722744
visibility: 0.9631320834159851
","x: 194.41424560546875
y: 422.40899658203125
z: -0.006154525559395552
visibility: 0.9481875896453857
","x: 208.38233947753906
y: 498.657470703125
z: 0.16974489390850067
visibility: 0.9536752104759216
","x: 199.1394805908203
y: 505.9593505859375
z: 0.14271271228790283
visibility: 0.9555840492248535
","x: 207.44471740722656
y: 510.9254150390625
z: 0.17924633622169495
visibility: 0.7642984390258789
","x: 201.54647827148438
y: 517.8699340820312
z: 0.15098536014556885
visibility: 0.7320669889450073
","x: 203.41847229003906
y: 522.8217163085938
z: 0.05705990642309189
visibility: 0.9467840790748596
","x: 194.25872802734375
y: 527.1810302734375
z: 0.01876436546444893
visibility: 0.9520344734191895
",,,,,,,,,,,,,,,,,,,,,,,,,,,,,,,,,,,,,,,,,,
1,"x: 205.5720977783203
y: 204.549560546875
z: -0.18496248126029968
visibility: 0.9891043305397034
","x: 207.30300903320312
y: 196.38206481933594
z: -0.16638034582138062
visibility: 0.9747595191001892
","x: 208.06004333496094
y: 195.8526611328125
z: -0.16641925275325775
visibility: 0.9742650389671326
","x: 208.80706787109375
y: 195.393310546875
z: -0.1664678156375885
visibility: 0.973438024520874
","x: 204.662353515625
y: 196.79104614257812
z: -0.1800113171339035
visibility: 0.9772340655326843
","x: 203.54591369628906
y: 196.40087890625
z: -0.18003365397453308
visibility: 0.9807410836219788
","x: 202.3408203125
y: 196.02178955078125
z: -0.18009673058986664
visibility: 0.9816722273826599
","x: 208.55999755859375
y: 195.6239013671875
z: -0.050110042095184326
visibility: 0.9601402282714844
","x: 198.4632568359375
y: 195.59393310546875
z: -0.110166035592556
visibility: 0.9615596532821655
","x: 206.1997833251953
y: 209.9020233154297
z: -0.1385989785194397
visibility: 0.9705063104629517
","x: 202.77313232421875
y: 210.65895080566406
z: -0.15626491606235504
visibility: 0.9700586199760437
","x: 219.3949432373047
y: 234.15890502929688
z: 0.041113946586847305
visibility: 0.9890871644020081
","x: 182.0298614501953
y: 231.7352294921875
z: -0.09929022192955017
visibility: 0.9947274327278137
","x: 226.8771514892578
y: 289.3946228027344
z: 0.10953054577112198
visibility: 0.5180321335792542
","x: 189.16445922851562
y: 272.5108947753906
z: -0.27051842212677
visibility: 0.97636479139328
","x: 253.6982879638672
y: 306.504150390625
z: 0.06885866820812225
visibility: 0.33908283710479736
","x: 201.720703125
y: 227.73956298828125
z: -0.47158583998680115
visibility: 0.965991735458374
","x: 260.9779968261719
y: 310.9128723144531
z: 0.06541025638580322
visibility: 0.2800917327404022
","x: 203.60494995117188
y: 214.88290405273438
z: -0.5159750580787659
visibility: 0.9247157573699951
","x: 263.0948791503906
y: 309.8080749511719
z: 0.03396817296743393
visibility: 0.2890642583370209
","x: 201.36431884765625
y: 211.59771728515625
z: -0.5122901201248169
visibility: 0.9185147881507874
","x: 260.3388366699219
y: 309.25640869140625
z: 0.054365016520023346
visibility: 0.28852760791778564
","x: 200.79925537109375
y: 215.61123657226562
z: -0.47619110345840454
visibility: 0.8768295645713806
","x: 215.7381591796875
y: 346.7040710449219
z: 0.01678614132106304
visibility: 0.9967121481895447
","x: 192.8724365234375
y: 346.8904113769531
z: -0.016767125576734543
visibility: 0.9977759718894958
","x: 216.0295867919922
y: 423.9413146972656
z: -0.016283772885799408
visibility: 0.9655274748802185
","x: 193.93922424316406
y: 426.4848327636719
z: -0.01612163707613945
visibility: 0.9486289620399475
","x: 208.484375
y: 499.2233581542969
z: 0.14985443651676178
visibility: 0.9561904668807983
","x: 197.7729949951172
y: 504.9871826171875
z: 0.15381844341754913
visibility: 0.9571496248245239
","x: 207.97161865234375
y: 510.864990234375
z: 0.15905505418777466
visibility: 0.7731726169586182
","x: 199.9479217529297
y: 515.590087890625
z: 0.16407382488250732
visibility: 0.7406620979309082
","x: 204.79983520507812
y: 523.8551025390625
z: 0.035555265843868256
visibility: 0.9493833184242249
","x: 194.10934448242188
y: 527.2091064453125
z: 0.038465261459350586
visibility: 0.9543346166610718
","x: 199.86349487304688
y: 221.17408752441406
z: 0.0
","x: 197.6626434326172
y: 215.77513122558594
z: -0.00017118605319410563
","x: 196.20765686035156
y: 210.2837371826172
z: -0.0017897222423925996
","x: 195.1629180908203
y: 207.53460693359375
z: -0.00392227852717042
","x: 194.037353515625
y: 206.70782470703125
z: -0.006188444793224335
","x: 198.97242736816406
y: 203.89459228515625
z: -0.003101441077888012
","x: 199.92062377929688
y: 195.19473266601562
z: -0.005788865033537149
","x: 200.62742614746094
y: 190.48007202148438
z: -0.007167148403823376
","x: 201.161376953125
y: 187.34600830078125
z: -0.007974037900567055
","x: 201.15187072753906
y: 204.62680053710938
z: -0.005166362505406141
","x: 202.5306396484375
y: 195.27719116210938
z: -0.007620633114129305
","x: 203.8095245361328
y: 189.850830078125
z: -0.008565274067223072
","x: 204.86605834960938
y: 185.98739624023438
z: -0.009335026144981384
","x: 203.2352294921875
y: 206.50631713867188
z: -0.00725321052595973
","x: 204.76954650878906
y: 198.25392150878906
z: -0.009685656055808067
","x: 206.05433654785156
y: 193.340087890625
z: -0.010484978556632996
","x: 207.02072143554688
y: 189.96681213378906
z: -0.011045321822166443
","x: 205.068359375
y: 209.28506469726562
z: -0.009430216625332832
","x: 207.0411376953125
y: 203.5655059814453
z: -0.011525345034897327
","x: 208.37217712402344
y: 200.03738403320312
z: -0.012102817185223103
","x: 209.4009246826172
y: 197.4211883544922
z: -0.012470463290810585
",,,,,,,,,,,,,,,,,,,,,
2,"x: 205.5720977783203
y: 204.549560546875
z: -0.18496248126029968
visibility: 0.9891043305397034
","x: 207.30300903320312
y: 196.38206481933594
z: -0.16638034582138062
visibility: 0.9747595191001892
","x: 208.06004333496094
y: 195.8526611328125
z: -0.16641925275325775
visibility: 0.9742650389671326
","x: 208.80706787109375
y: 195.393310546875
z: -0.1664678156375885
visibility: 0.973438024520874
","x: 204.662353515625
y: 196.79104614257812
z: -0.1800113171339035
visibility: 0.9772340655326843
","x: 203.54591369628906
y: 196.40087890625
z: -0.18003365397453308
visibility: 0.9807410836219788
","x: 202.3408203125
y: 196.02178955078125
z: -0.18009673058986664
visibility: 0.9816722273826599
","x: 208.55999755859375
y: 195.6239013671875
z: -0.050110042095184326
visibility: 0.9601402282714844
","x: 198.4632568359375
y: 195.59393310546875
z: -0.110166035592556
visibility: 0.9615596532821655
","x: 206.1997833251953
y: 209.9020233154297
z: -0.1385989785194397
visibility: 0.9705063104629517
","x: 202.77313232421875
y: 210.65895080566406
z: -0.15626491606235504
visibility: 0.9700586199760437
","x: 219.3949432373047
y: 234.15890502929688
z: 0.041113946586847305
visibility: 0.9890871644020081
","x: 182.0298614501953
y: 231.7352294921875
z: -0.09929022192955017
visibility: 0.9947274327278137
","x: 226.8771514892578
y: 289.3946228027344
z: 0.10953054577112198
visibility: 0.5180321335792542
","x: 189.16445922851562
y: 272.5108947753906
z: -0.27051842212677
visibility: 0.97636479139328
","x: 253.6982879638672
y: 306.504150390625
z: 0.06885866820812225
visibility: 0.33908283710479736
","x: 201.720703125
y: 227.73956298828125
z: -0.47158583998680115
visibility: 0.965991735458374
","x: 260.9779968261719
y: 310.9128723144531
z: 0.06541025638580322
visibility: 0.2800917327404022
","x: 203.60494995117188
y: 214.88290405273438
z: -0.5159750580787659
visibility: 0.9247157573699951
","x: 263.0948791503906
y: 309.8080749511719
z: 0.03396817296743393
visibility: 0.2890642583370209
","x: 201.36431884765625
y: 211.59771728515625
z: -0.5122901201248169
visibility: 0.9185147881507874
","x: 260.3388366699219
y: 309.25640869140625
z: 0.054365016520023346
visibility: 0.28852760791778564
","x: 200.79925537109375
y: 215.61123657226562
z: -0.47619110345840454
visibility: 0.8768295645713806
","x: 215.7381591796875
y: 346.7040710449219
z: 0.01678614132106304
visibility: 0.9967121481895447
","x: 192.8724365234375
y: 346.8904113769531
z: -0.016767125576734543
visibility: 0.9977759718894958
","x: 216.0295867919922
y: 423.9413146972656
z: -0.016283772885799408
visibility: 0.9655274748802185
","x: 193.93922424316406
y: 426.4848327636719
z: -0.01612163707613945
visibility: 0.9486289620399475
","x: 208.484375
y: 499.2233581542969
z: 0.14985443651676178
visibility: 0.9561904668807983
","x: 197.7729949951172
y: 504.9871826171875
z: 0.15381844341754913
visibility: 0.9571496248245239
","x: 207.97161865234375
y: 510.864990234375
z: 0.15905505418777466
visibility: 0.7731726169586182
","x: 199.9479217529297
y: 515.590087890625
z: 0.16407382488250732
visibility: 0.7406620979309082
","x: 204.79983520507812
y: 523.8551025390625
z: 0.035555265843868256
visibility: 0.9493833184242249
","x: 194.10934448242188
y: 527.2091064453125
z: 0.038465261459350586
visibility: 0.9543346166610718
","x: 199.86349487304688
y: 221.17408752441406
z: 0.0
","x: 197.6626434326172
y: 215.77513122558594
z: -0.00017118605319410563
","x: 196.20765686035156
y: 210.2837371826172
z: -0.0017897222423925996
","x: 195.1629180908203
y: 207.53460693359375
z: -0.00392227852717042
","x: 194.037353515625
y: 206.70782470703125
z: -0.006188444793224335
","x: 198.97242736816406
y: 203.89459228515625
z: -0.003101441077888012
","x: 199.92062377929688
y: 195.19473266601562
z: -0.005788865033537149
","x: 200.62742614746094
y: 190.48007202148438
z: -0.007167148403823376
","x: 201.161376953125
y: 187.34600830078125
z: -0.007974037900567055
","x: 201.15187072753906
y: 204.62680053710938
z: -0.005166362505406141
","x: 202.5306396484375
y: 195.27719116210938
z: -0.007620633114129305
","x: 203.8095245361328
y: 189.850830078125
z: -0.008565274067223072
","x: 204.86605834960938
y: 185.98739624023438
z: -0.009335026144981384
","x: 203.2352294921875
y: 206.50631713867188
z: -0.00725321052595973
","x: 204.76954650878906
y: 198.25392150878906
z: -0.009685656055808067
","x: 206.05433654785156
y: 193.340087890625
z: -0.010484978556632996
","x: 207.02072143554688
y: 189.96681213378906
z: -0.011045321822166443
","x: 205.068359375
y: 209.28506469726562
z: -0.009430216625332832
","x: 207.0411376953125
y: 203.5655059814453
z: -0.011525345034897327
","x: 208.37217712402344
y: 200.03738403320312
z: -0.012102817185223103
","x: 209.4009246826172
y: 197.4211883544922
z: -0.012470463290810585
",,,,,,,,,,,,,,,,,,,,,
3,"x: 205.58377075195312
y: 203.6763916015625
z: -0.1740170568227768
visibility: 0.9901630878448486
","x: 207.43707275390625
y: 195.17987060546875
z: -0.15546676516532898
visibility: 0.9771954417228699
","x: 208.1907196044922
y: 194.80084228515625
z: -0.15548017621040344
visibility: 0.9767430424690247
","x: 208.8203125
y: 194.4552459716797
z: -0.1554945558309555
visibility: 0.9759934544563293
","x: 204.6083221435547
y: 194.68386840820312
z: -0.16668158769607544
visibility: 0.9794259071350098
","x: 203.37619018554688
y: 193.86770629882812
z: -0.1666966825723648
visibility: 0.9825873374938965
","x: 202.06036376953125
y: 193.0379638671875
z: -0.16672833263874054
visibility: 0.9834198951721191
","x: 209.12953186035156
y: 194.88290405273438
z: -0.037583351135253906
visibility: 0.9640048742294312
","x: 198.03466796875
y: 192.76150512695312
z: -0.08897781372070312
visibility: 0.9652535915374756
","x: 206.43902587890625
y: 209.5577392578125
z: -0.12737956643104553
visibility: 0.9733694195747375
","x: 202.83836364746094
y: 209.03277587890625
z: -0.14238321781158447
visibility: 0.9729658365249634
","x: 219.6262664794922
y: 234.87901306152344
z: 0.046687331050634384
visibility: 0.9901608228683472
","x: 181.72731018066406
y: 230.39649963378906
z: -0.051127005368471146
visibility: 0.9951977133750916
","x: 228.0522918701172
y: 287.2509460449219
z: 0.10334447771310806
visibility: 0.5580260157585144
","x: 182.58316040039062
y: 275.0279541015625
z: -0.19634437561035156
visibility: 0.9770161509513855
","x: 253.17381286621094
y: 299.3649597167969
z: 0.039243921637535095
visibility: 0.4014967381954193
","x: 199.8729705810547
y: 236.72142028808594
z: -0.4050265848636627
visibility: 0.9688032269477844
","x: 261.5409240722656
y: 304.7557373046875
z: 0.027740230783820152
visibility: 0.34529682993888855
","x: 203.5540313720703
y: 225.219970703125
z: -0.4483349919319153
visibility: 0.9308096170425415
","x: 262.4091491699219
y: 302.1523742675781
z: -0.0038609616458415985
visibility: 0.3543038070201874
","x: 201.61526489257812
y: 219.76773071289062
z: -0.44915899634361267
visibility: 0.9251796007156372
","x: 259.8038330078125
y: 300.8832092285156
z: 0.02424517646431923
visibility: 0.35287147760391235
","x: 200.72557067871094
y: 223.0662841796875
z: -0.40977734327316284
visibility: 0.8866850733757019
","x: 215.0110626220703
y: 346.5879821777344
z: 0.014583127573132515
visibility: 0.9969485998153687
","x: 192.5060577392578
y: 346.74871826171875
z: -0.014465423300862312
visibility: 0.9978768229484558
","x: 215.70767211914062
y: 424.1979675292969
z: -0.01813662424683571
visibility: 0.9679059982299805
","x: 193.28662109375
y: 427.16937255859375
z: -0.021688325330615044
visibility: 0.9504761099815369
","x: 208.69386291503906
y: 499.5570068359375
z: 0.13189812004566193
visibility: 0.9591079950332642
","x: 197.1919708251953
y: 504.2457580566406
z: 0.13208389282226562
visibility: 0.9594001770019531
","x: 208.66552734375
y: 510.75665283203125
z: 0.13842877745628357
visibility: 0.7806321382522583
","x: 199.7613525390625
y: 514.3024291992188
z: 0.13933546841144562
visibility: 0.7530995011329651
","x: 204.90841674804688
y: 523.851806640625
z: 0.01149837113916874
visibility: 0.9523821473121643
","x: 193.0157928466797
y: 527.5135498046875
z: 0.014880728907883167
visibility: 0.9569263458251953
","x: 198.0196075439453
y: 236.11045837402344
z: 0.0
","x: 196.38992309570312
y: 228.11001586914062
z: 0.0003891114902216941
","x: 196.59017944335938
y: 219.5571746826172
z: -0.0007235225639306009
","x: 197.80653381347656
y: 213.25473022460938
z: -0.0019259800901636481
","x: 198.94070434570312
y: 209.39537048339844
z: -0.0031486712396144867
","x: 199.61837768554688
y: 219.46490478515625
z: -0.0047953506000339985
","x: 202.28941345214844
y: 211.3308563232422
z: -0.007224276661872864
","x: 203.98544311523438
y: 206.82725524902344
z: -0.007692352402955294
","x: 205.32545471191406
y: 203.67202758789062
z: -0.007866980507969856
","x: 201.9160614013672
y: 222.25035095214844
z: -0.006646008230745792
","x: 205.5707244873047
y: 213.4267578125
z: -0.00919478852301836
","x: 208.2462921142578
y: 208.27316284179688
z: -0.009379437193274498
","x: 210.38687133789062
y: 204.52291870117188
z: -0.00960423331707716
","x: 203.74957275390625
y: 225.528076171875
z: -0.008236628025770187
","x: 207.0167236328125
y: 218.04811096191406
z: -0.010862940922379494
","x: 209.2111053466797
y: 213.44647216796875
z: -0.011199102737009525
","x: 210.90480041503906
y: 210.11614990234375
z: -0.011391556821763515
","x: 205.04635620117188
y: 229.14508056640625
z: -0.009715319611132145
","x: 207.5599822998047
y: 224.5521697998047
z: -0.012020411901175976
","x: 209.16339111328125
y: 221.48074340820312
z: -0.01255838479846716
","x: 210.4957275390625
y: 218.96920776367188
z: -0.012833192944526672
",,,,,,,,,,,,,,,,,,,,,
4,"x: 205.58377075195312
y: 203.6763916015625
z: -0.1740170568227768
visibility: 0.9901630878448486
","x: 207.43707275390625
y: 195.17987060546875
z: -0.15546676516532898
visibility: 0.9771954417228699
","x: 208.1907196044922
y: 194.80084228515625
z: -0.15548017621040344
visibility: 0.9767430424690247
","x: 208.8203125
y: 194.4552459716797
z: -0.1554945558309555
visibility: 0.9759934544563293
","x: 204.6083221435547
y: 194.68386840820312
z: -0.16668158769607544
visibility: 0.9794259071350098
","x: 203.37619018554688
y: 193.86770629882812
z: -0.1666966825723648
visibility: 0.9825873374938965
","x: 202.06036376953125
y: 193.0379638671875
z: -0.16672833263874054
visibility: 0.9834198951721191
","x: 209.12953186035156
y: 194.88290405273438
z: -0.037583351135253906
visibility: 0.9640048742294312
","x: 198.03466796875
y: 192.76150512695312
z: -0.08897781372070312
visibility: 0.9652535915374756
","x: 206.43902587890625
y: 209.5577392578125
z: -0.12737956643104553
visibility: 0.9733694195747375
","x: 202.83836364746094
y: 209.03277587890625
z: -0.14238321781158447
visibility: 0.9729658365249634
","x: 219.6262664794922
y: 234.87901306152344
z: 0.046687331050634384
visibility: 0.9901608228683472
","x: 181.72731018066406
y: 230.39649963378906
z: -0.051127005368471146
visibility: 0.9951977133750916
","x: 228.0522918701172
y: 287.2509460449219
z: 0.10334447771310806
visibility: 0.5580260157585144
","x: 182.58316040039062
y: 275.0279541015625
z: -0.19634437561035156
visibility: 0.9770161509513855
","x: 253.17381286621094
y: 299.3649597167969
z: 0.039243921637535095
visibility: 0.4014967381954193
","x: 199.8729705810547
y: 236.72142028808594
z: -0.4050265848636627
visibility: 0.9688032269477844
","x: 261.5409240722656
y: 304.7557373046875
z: 0.027740230783820152
visibility: 0.34529682993888855
","x: 203.5540313720703
y: 225.219970703125
z: -0.4483349919319153
visibility: 0.9308096170425415
","x: 262.4091491699219
y: 302.1523742675781
z: -0.0038609616458415985
visibility: 0.3543038070201874
","x: 201.61526489257812
y: 219.76773071289062
z: -0.44915899634361267
visibility: 0.9251796007156372
","x: 259.8038330078125
y: 300.8832092285156
z: 0.02424517646431923
visibility: 0.35287147760391235
","x: 200.72557067871094
y: 223.0662841796875
z: -0.40977734327316284
visibility: 0.8866850733757019
","x: 215.0110626220703
y: 346.5879821777344
z: 0.014583127573132515
visibility: 0.9969485998153687
","x: 192.5060577392578
y: 346.74871826171875
z: -0.014465423300862312
visibility: 0.9978768229484558
","x: 215.70767211914062
y: 424.1979675292969
z: -0.01813662424683571
visibility: 0.9679059982299805
","x: 193.28662109375
y: 427.16937255859375
z: -0.021688325330615044
visibility: 0.9504761099815369
","x: 208.69386291503906
y: 499.5570068359375
z: 0.13189812004566193
visibility: 0.9591079950332642
","x: 197.1919708251953
y: 504.2457580566406
z: 0.13208389282226562
visibility: 0.9594001770019531
","x: 208.66552734375
y: 510.75665283203125
z: 0.13842877745628357
visibility: 0.7806321382522583
","x: 199.7613525390625
y: 514.3024291992188
z: 0.13933546841144562
visibility: 0.7530995011329651
","x: 204.90841674804688
y: 523.851806640625
z: 0.01149837113916874
visibility: 0.9523821473121643
","x: 193.0157928466797
y: 527.5135498046875
z: 0.014880728907883167
visibility: 0.9569263458251953
","x: 198.0196075439453
y: 236.11045837402344
z: 0.0
","x: 196.38992309570312
y: 228.11001586914062
z: 0.0003891114902216941
","x: 196.59017944335938
y: 219.5571746826172
z: -0.0007235225639306009
","x: 197.80653381347656
y: 213.25473022460938
z: -0.0019259800901636481
","x: 198.94070434570312
y: 209.39537048339844
z: -0.0031486712396144867
","x: 199.61837768554688
y: 219.46490478515625
z: -0.0047953506000339985
","x: 202.28941345214844
y: 211.3308563232422
z: -0.007224276661872864
","x: 203.98544311523438
y: 206.82725524902344
z: -0.007692352402955294
","x: 205.32545471191406
y: 203.67202758789062
z: -0.007866980507969856
","x: 201.9160614013672
y: 222.25035095214844
z: -0.006646008230745792
","x: 205.5707244873047
y: 213.4267578125
z: -0.00919478852301836
","x: 208.2462921142578
y: 208.27316284179688
z: -0.009379437193274498
","x: 210.38687133789062
y: 204.52291870117188
z: -0.00960423331707716
","x: 203.74957275390625
y: 225.528076171875
z: -0.008236628025770187
","x: 207.0167236328125
y: 218.04811096191406
z: -0.010862940922379494
","x: 209.2111053466797
y: 213.44647216796875
z: -0.011199102737009525
","x: 210.90480041503906
y: 210.11614990234375
z: -0.011391556821763515
","x: 205.04635620117188
y: 229.14508056640625
z: -0.009715319611132145
","x: 207.5599822998047
y: 224.5521697998047
z: -0.012020411901175976
","x: 209.16339111328125
y: 221.48074340820312
z: -0.01255838479846716
","x: 210.4957275390625
y: 218.96920776367188
z: -0.012833192944526672
",,,,,,,,,,,,,,,,,,,,,
5,"x: 208.80015563964844
y: 198.58670043945312
z: -0.46313613653182983
visibility: 0.9911441206932068
","x: 210.1202392578125
y: 190.60418701171875
z: -0.447847843170166
visibility: 0.9794676899909973
","x: 210.93536376953125
y: 190.29554748535156
z: -0.44781750440597534
visibility: 0.9790604710578918
","x: 211.6986846923828
y: 189.99815368652344
z: -0.4478643834590912
visibility: 0.9783852696418762
","x: 207.14405822753906
y: 190.25173950195312
z: -0.4571428894996643
visibility: 0.9814755916595459
","x: 205.8468017578125
y: 189.65493774414062
z: -0.45724058151245117
visibility: 0.9843218922615051
","x: 204.45181274414062
y: 189.00621032714844
z: -0.4573012888431549
visibility: 0.9850712418556213
","x: 211.23410034179688
y: 191.84815979003906
z: -0.31557101011276245
visibility: 0.967583954334259
","x: 199.89871215820312
y: 189.45217895507812
z: -0.3611355423927307
visibility: 0.9687184691429138
","x: 209.39105224609375
y: 204.8527374267578
z: -0.4098520874977112
visibility: 0.9760243892669678
","x: 205.71775817871094
y: 204.89678955078125
z: -0.42329949140548706
visibility: 0.975664496421814
","x: 219.88894653320312
y: 235.93101501464844
z: -0.19266650080680847
visibility: 0.9911285042762756
","x: 182.2684783935547
y: 228.8381805419922
z: -0.2730220854282379
visibility: 0.995668351650238
","x: 228.52748107910156
y: 289.15240478515625
z: -0.18711218237876892
visibility: 0.5972368717193604
","x: 178.00149536132812
y: 275.4166259765625
z: -0.36139267683029175
visibility: 0.9782582521438599
","x: 251.01205444335938
y: 310.9356994628906
z: -0.35633501410484314
visibility: 0.45651763677597046
","x: 192.04893493652344
y: 288.4835510253906
z: -0.5651155710220337
visibility: 0.9705241322517395
","x: 259.8785400390625
y: 320.58795166015625
z: -0.3952310085296631
visibility: 0.4031224250793457
","x: 197.56517028808594
y: 298.0292663574219
z: -0.6150897145271301
visibility: 0.9351066946983337
","x: 260.6288757324219
y: 319.150634765625
z: -0.43384185433387756
visibility: 0.4123995006084442
","x: 199.5005340576172
y: 290.70562744140625
z: -0.6309452652931213
visibility: 0.9301563501358032
","x: 256.54547119140625
y: 317.44891357421875
z: -0.37739765644073486
visibility: 0.4097709357738495
","x: 198.1441192626953
y: 287.3516540527344
z: -0.5748745203018188
visibility: 0.8940092325210571
","x: 213.75704956054688
y: 340.5801696777344
z: 0.011636225506663322
visibility: 0.9971551895141602
","x: 191.85855102539062
y: 338.82464599609375
z: -0.011670811101794243
visibility: 0.9980069994926453
","x: 212.62330627441406
y: 423.6426086425781
z: 0.012920551002025604
visibility: 0.9693982601165771
","x: 192.7691650390625
y: 425.73321533203125
z: 0.007239395286887884
visibility: 0.9531033635139465
","x: 207.61570739746094
y: 500.3592529296875
z: 0.14565418660640717
visibility: 0.9617286324501038
","x: 195.37112426757812
y: 504.25946044921875
z: 0.15838134288787842
visibility: 0.9613809585571289
","x: 207.87937927246094
y: 511.4712219238281
z: 0.14265528321266174
visibility: 0.7849078178405762
","x: 197.7447967529297
y: 514.3889770507812
z: 0.16516616940498352
visibility: 0.758063554763794
","x: 205.06716918945312
y: 524.65283203125
z: 0.023556623607873917
visibility: 0.9552976489067078
","x: 192.5203857421875
y: 527.9171142578125
z: 0.028587523847818375
visibility: 0.9589735269546509
","x: 191.16717529296875
y: 294.2908020019531
z: 0.0
","x: 194.746826171875
y: 288.5751647949219
z: -0.0033294137101620436
","x: 199.04672241210938
y: 285.6715393066406
z: -0.0064128185622394085
","x: 202.87074279785156
y: 286.2153625488281
z: -0.008712578564882278
","x: 205.0455322265625
y: 288.7671203613281
z: -0.010841358453035355
","x: 198.0833740234375
y: 293.18634033203125
z: -0.011390015482902527
","x: 202.94692993164062
y: 296.6126708984375
z: -0.014941929839551449
","x: 205.64047241210938
y: 298.53375244140625
z: -0.015255621634423733
","x: 207.6292266845703
y: 299.92999267578125
z: -0.015083035454154015
","x: 197.18402099609375
y: 299.4183654785156
z: -0.011245181784033775
","x: 202.6279754638672
y: 303.629150390625
z: -0.015264159068465233
","x: 205.76612854003906
y: 305.1498718261719
z: -0.015065671876072884
","x: 207.95013427734375
y: 305.9295654296875
z: -0.014648417942225933
","x: 196.54908752441406
y: 303.90740966796875
z: -0.010709076188504696
","x: 201.20175170898438
y: 307.80242919921875
z: -0.014525116421282291
","x: 203.92889404296875
y: 308.8135070800781
z: -0.014250853098928928
","x: 205.69610595703125
y: 309.2437744140625
z: -0.01361164078116417
","x: 196.10504150390625
y: 306.9937438964844
z: -0.010272018611431122
","x: 199.6261444091797
y: 310.3470458984375
z: -0.012883659452199936
","x: 201.79800415039062
y: 310.52581787109375
z: -0.013073244132101536
","x: 203.25758361816406
y: 309.9979248046875
z: -0.01287916675209999
",,,,,,,,,,,,,,,,,,,,,
6,"x: 208.80015563964844
y: 198.58670043945312
z: -0.46313613653182983
visibility: 0.9911441206932068
","x: 210.1202392578125
y: 190.60418701171875
z: -0.447847843170166
visibility: 0.9794676899909973
","x: 210.93536376953125
y: 190.29554748535156
z: -0.44781750440597534
visibility: 0.9790604710578918
","x: 211.6986846923828
y: 189.99815368652344
z: -0.4478643834590912
visibility: 0.9783852696418762
","x: 207.14405822753906
y: 190.25173950195312
z: -0.4571428894996643
visibility: 0.9814755916595459
","x: 205.8468017578125
y: 189.65493774414062
z: -0.45724058151245117
visibility: 0.9843218922615051
","x: 204.45181274414062
y: 189.00621032714844
z: -0.4573012888431549
visibility: 0.9850712418556213
","x: 211.23410034179688
y: 191.84815979003906
z: -0.31557101011276245
visibility: 0.967583954334259
","x: 199.89871215820312
y: 189.45217895507812
z: -0.3611355423927307
visibility: 0.9687184691429138
","x: 209.39105224609375
y: 204.8527374267578
z: -0.4098520874977112
visibility: 0.9760243892669678
","x: 205.71775817871094
y: 204.89678955078125
z: -0.42329949140548706
visibility: 0.975664496421814
","x: 219.88894653320312
y: 235.93101501464844
z: -0.19266650080680847
visibility: 0.9911285042762756
","x: 182.2684783935547
y: 228.8381805419922
z: -0.2730220854282379
visibility: 0.995668351650238
","x: 228.52748107910156
y: 289.15240478515625
z: -0.18711218237876892
visibility: 0.5972368717193604
","x: 178.00149536132812
y: 275.4166259765625
z: -0.36139267683029175
visibility: 0.9782582521438599
","x: 251.01205444335938
y: 310.9356994628906
z: -0.35633501410484314
visibility: 0.45651763677597046
","x: 192.04893493652344
y: 288.4835510253906
z: -0.5651155710220337
visibility: 0.9705241322517395
","x: 259.8785400390625
y: 320.58795166015625
z: -0.3952310085296631
visibility: 0.4031224250793457
","x: 197.56517028808594
y: 298.0292663574219
z: -0.6150897145271301
visibility: 0.9351066946983337
","x: 260.6288757324219
y: 319.150634765625
z: -0.43384185433387756
visibility: 0.4123995006084442
","x: 199.5005340576172
y: 290.70562744140625
z: -0.6309452652931213
visibility: 0.9301563501358032
","x: 256.54547119140625
y: 317.44891357421875
z: -0.37739765644073486
visibility: 0.4097709357738495
","x: 198.1441192626953
y: 287.3516540527344
z: -0.5748745203018188
visibility: 0.8940092325210571
","x: 213.75704956054688
y: 340.5801696777344
z: 0.011636225506663322
visibility: 0.9971551895141602
","x: 191.85855102539062
y: 338.82464599609375
z: -0.011670811101794243
visibility: 0.9980069994926453
","x: 212.62330627441406
y: 423.6426086425781
z: 0.012920551002025604
visibility: 0.9693982601165771
","x: 192.7691650390625
y: 425.73321533203125
z: 0.007239395286887884
visibility: 0.9531033635139465
","x: 207.61570739746094
y: 500.3592529296875
z: 0.14565418660640717
visibility: 0.9617286324501038
","x: 195.37112426757812
y: 504.25946044921875
z: 0.15838134288787842
visibility: 0.9613809585571289
","x: 207.87937927246094
y: 511.4712219238281
z: 0.14265528321266174
visibility: 0.7849078178405762
","x: 197.7447967529297
y: 514.3889770507812
z: 0.16516616940498352
visibility: 0.758063554763794
","x: 205.06716918945312
y: 524.65283203125
z: 0.023556623607873917
visibility: 0.9552976489067078
","x: 192.5203857421875
y: 527.9171142578125
z: 0.028587523847818375
visibility: 0.9589735269546509
","x: 191.16717529296875
y: 294.2908020019531
z: 0.0
","x: 194.746826171875
y: 288.5751647949219
z: -0.0033294137101620436
","x: 199.04672241210938
y: 285.6715393066406
z: -0.0064128185622394085
","x: 202.87074279785156
y: 286.2153625488281
z: -0.008712578564882278
","x: 205.0455322265625
y: 288.7671203613281
z: -0.010841358453035355
","x: 198.0833740234375
y: 293.18634033203125
z: -0.011390015482902527
","x: 202.94692993164062
y: 296.6126708984375
z: -0.014941929839551449
","x: 205.64047241210938
y: 298.53375244140625
z: -0.015255621634423733
","x: 207.6292266845703
y: 299.92999267578125
z: -0.015083035454154015
","x: 197.18402099609375
y: 299.4183654785156
z: -0.011245181784033775
","x: 202.6279754638672
y: 303.629150390625
z: -0.015264159068465233
","x: 205.76612854003906
y: 305.1498718261719
z: -0.015065671876072884
","x: 207.95013427734375
y: 305.9295654296875
z: -0.014648417942225933
","x: 196.54908752441406
y: 303.90740966796875
z: -0.010709076188504696
","x: 201.20175170898438
y: 307.80242919921875
z: -0.014525116421282291
","x: 203.92889404296875
y: 308.8135070800781
z: -0.014250853098928928
","x: 205.69610595703125
y: 309.2437744140625
z: -0.01361164078116417
","x: 196.10504150390625
y: 306.9937438964844
z: -0.010272018611431122
","x: 199.6261444091797
y: 310.3470458984375
z: -0.012883659452199936
","x: 201.79800415039062
y: 310.52581787109375
z: -0.013073244132101536
","x: 203.25758361816406
y: 309.9979248046875
z: -0.01287916675209999
",,,,,,,,,,,,,,,,,,,,,
7,"x: 212.1910858154297
y: 196.47337341308594
z: -0.41715630888938904
visibility: 0.9920266270637512
","x: 213.60244750976562
y: 188.72987365722656
z: -0.39933961629867554
visibility: 0.9815089702606201
","x: 214.5733642578125
y: 188.45883178710938
z: -0.39935174584388733
visibility: 0.9811418056488037
","x: 215.49392700195312
y: 188.17686462402344
z: -0.39936792850494385
visibility: 0.9805322885513306
","x: 210.29869079589844
y: 188.48435974121094
z: -0.4091622233390808
visibility: 0.983317494392395
","x: 208.83074951171875
y: 188.02894592285156
z: -0.4092194437980652
visibility: 0.9858795404434204
","x: 207.32949829101562
y: 187.52902221679688
z: -0.40928441286087036
visibility: 0.9865536689758301
","x: 215.37744140625
y: 189.76148986816406
z: -0.26452094316482544
visibility: 0.9707861542701721
","x: 203.32676696777344
y: 188.00758361816406
z: -0.31062692403793335
visibility: 0.9718295335769653
","x: 212.92320251464844
y: 202.76834106445312
z: -0.36351171135902405
visibility: 0.9784133434295654
","x: 208.94253540039062
y: 202.77508544921875
z: -0.3769683539867401
visibility: 0.9780922532081604
","x: 223.0210418701172
y: 235.85304260253906
z: -0.1470223069190979
visibility: 0.9920067191123962
","x: 183.93927001953125
y: 228.74917602539062
z: -0.20817366242408752
visibility: 0.9960950016975403
","x: 228.1140899658203
y: 289.09429931640625
z: -0.0837288573384285
visibility: 0.6289520263671875
","x: 178.54354858398438
y: 286.1058349609375
z: -0.15371981263160706
visibility: 0.9790976643562317
","x: 248.04519653320312
y: 312.63629150390625
z: -0.20931145548820496
visibility: 0.5010203123092651
","x: 177.46156311035156
y: 335.3515319824219
z: -0.23532001674175262
visibility: 0.9711472988128662
","x: 256.8948974609375
y: 324.5286865234375
z: -0.2390928715467453
visibility: 0.4480297565460205
","x: 174.45196533203125
y: 350.350830078125
z: -0.2640601694583893
visibility: 0.9369134902954102
","x: 257.1399230957031
y: 319.763427734375
z: -0.2797314524650574
visibility: 0.45789846777915955
","x: 175.4427032470703
y: 350.2633056640625
z: -0.30360138416290283
visibility: 0.9329188466072083
","x: 250.9329376220703
y: 322.8698425292969
z: -0.22920048236846924
visibility: 0.453185498714447
","x: 177.14697265625
y: 346.2092590332031
z: -0.2518778145313263
visibility: 0.8991080522537231
","x: 214.046142578125
y: 339.8252868652344
z: 0.009656907059252262
visibility: 0.9973427653312683
","x: 192.38076782226562
y: 338.5290832519531
z: -0.009722310118377209
visibility: 0.9981180429458618
","x: 211.8149871826172
y: 425.4029846191406
z: 0.009308918379247189
visibility: 0.9714533686637878
","x: 192.78904724121094
y: 426.1044616699219
z: 0.002706894651055336
visibility: 0.9557933807373047
","x: 207.3963165283203
y: 501.0643005371094
z: 0.15924647450447083
visibility: 0.9645687341690063
","x: 195.478515625
y: 504.2509765625
z: 0.16122987866401672
visibility: 0.9635908603668213
","x: 207.79006958007812
y: 511.5394592285156
z: 0.1618947684764862
visibility: 0.7909197211265564
","x: 197.70584106445312
y: 513.8447265625
z: 0.16843768954277039
visibility: 0.7622662782669067
","x: 205.9499053955078
y: 526.141357421875
z: 0.029418308287858963
visibility: 0.9583680033683777
","x: 192.58753967285156
y: 528.266845703125
z: 0.029109874740242958
visibility: 0.9613240361213684
",,,,,,,,,,,,,,,,,,,,,,,,,,,,,,,,,,,,,,,,,,
8,"x: 213.6259002685547
y: 196.5892333984375
z: -0.41093558073043823
visibility: 0.9928206205368042
","x: 215.41473388671875
y: 189.02711486816406
z: -0.3935275077819824
visibility: 0.9833455085754395
","x: 216.5160675048828
y: 188.75796508789062
z: -0.39354562759399414
visibility: 0.9830138087272644
","x: 217.51754760742188
y: 188.4816131591797
z: -0.3935612440109253
visibility: 0.9824647307395935
","x: 211.75
y: 188.87803649902344
z: -0.4009568691253662
visibility: 0.984974205493927
","x: 210.193359375
y: 188.4710693359375
z: -0.4010065197944641
visibility: 0.9872795343399048
","x: 208.64659118652344
y: 188.03594970703125
z: -0.4010615944862366
visibility: 0.9878864884376526
","x: 217.7362518310547
y: 189.8895263671875
z: -0.2608623206615448
visibility: 0.9736694097518921
","x: 205.2260284423828
y: 188.51051330566406
z: -0.29645583033561707
visibility: 0.9746221303939819
","x: 214.572021484375
y: 202.64004516601562
z: -0.3582930564880371
visibility: 0.9805616736412048
","x: 210.4071044921875
y: 202.78790283203125
z: -0.36863020062446594
visibility: 0.9802748560905457
","x: 224.26715087890625
y: 235.58660888671875
z: -0.1501786857843399
visibility: 0.9927992224693298
","x: 186.52401733398438
y: 228.7332305908203
z: -0.1855086088180542
visibility: 0.996475338935852
","x: 228.4903564453125
y: 286.1407775878906
z: -0.0701383426785469
visibility: 0.6613413691520691
","x: 177.90489196777344
y: 287.86334228515625
z: -0.114402174949646
visibility: 0.9797240495681763
","x: 247.09799194335938
y: 315.2230224609375
z: -0.17305639386177063
visibility: 0.5459406971931458
","x: 169.17730712890625
y: 336.3345947265625
z: -0.19681808352470398
visibility: 0.9717585444450378
","x: 248.57308959960938
y: 327.39215087890625
z: -0.19933587312698364
visibility: 0.4944211542606354
","x: 165.54322814941406
y: 350.49420166015625
z: -0.22234229743480682
visibility: 0.9384582042694092
","x: 246.5265350341797
y: 325.4315490722656
z: -0.23908233642578125
visibility: 0.5042603611946106
","x: 166.30792236328125
y: 351.2194519042969
z: -0.26354819536209106
visibility: 0.9354081153869629
","x: 241.8317108154297
y: 323.5395812988281
z: -0.1913617104291916
visibility: 0.49825310707092285
","x: 168.13870239257812
y: 347.7014465332031
z: -0.21435582637786865
visibility: 0.9040945172309875
","x: 214.22552490234375
y: 340.1842956542969
z: 0.0033212408889085054
visibility: 0.9974949359893799
","x: 192.70077514648438
y: 339.19757080078125
z: -0.0034093924332410097
visibility: 0.9981862902641296
","x: 211.80374145507812
y: 425.73785400390625
z: 0.009146219119429588
visibility: 0.973220944404602
","x: 192.82489013671875
y: 426.36419677734375
z: 0.005786595866084099
visibility: 0.9576396346092224
","x: 207.27935791015625
y: 501.939697265625
z: 0.15061606466770172
visibility: 0.9670748710632324
","x: 195.4116668701172
y: 504.36083984375
z: 0.15808923542499542
visibility: 0.9651325345039368
","x: 207.78933715820312
y: 512.5116577148438
z: 0.155522882938385
visibility: 0.7947310209274292
","x: 197.75656127929688
y: 513.8729248046875
z: 0.16511914134025574
visibility: 0.7646262049674988
","x: 206.01239013671875
y: 526.408447265625
z: 0.01938197761774063
visibility: 0.9610221982002258
","x: 192.57647705078125
y: 528.2940063476562
z: 0.02820855751633644
visibility: 0.963038980960846
",,,,,,,,,,,,,,,,,,,,,,,,,,,,,,,,,,,,,,,,,,
9,"x: 213.90567016601562
y: 197.122314453125
z: -0.4585998058319092
visibility: 0.9935318827629089
","x: 216.2989501953125
y: 189.19473266601562
z: -0.444253146648407
visibility: 0.9849840998649597
","x: 217.75662231445312
y: 189.023681640625
z: -0.4442721903324127
visibility: 0.9846891164779663
","x: 219.1160430908203
y: 188.84446716308594
z: -0.4442976415157318
visibility: 0.9841904640197754
","x: 212.08346557617188
y: 189.1575927734375
z: -0.44441765546798706
visibility: 0.9864408373832703
","x: 210.52032470703125
y: 188.9027099609375
z: -0.4444654583930969
visibility: 0.9885137677192688
","x: 208.99658203125
y: 188.61090087890625
z: -0.44449394941329956
visibility: 0.9890570044517517
","x: 220.79876708984375
y: 190.08413696289062
z: -0.3122343420982361
visibility: 0.976243257522583
","x: 206.5760498046875
y: 188.68873596191406
z: -0.31391769647598267
visibility: 0.9770859479904175
","x: 215.66268920898438
y: 203.16229248046875
z: -0.40557947754859924
visibility: 0.9824917316436768
","x: 210.9907989501953
y: 203.36997985839844
z: -0.40607911348342896
visibility: 0.9822329878807068
","x: 229.57589721679688
y: 236.25637817382812
z: -0.20672690868377686
visibility: 0.9935163855552673
","x: 189.33660888671875
y: 228.69244384765625
z: -0.18097200989723206
visibility: 0.9968200922012329
","x: 232.30279541015625
y: 286.3565979003906
z: -0.22298607230186462
visibility: 0.6923509836196899
","x: 174.9942169189453
y: 285.2336730957031
z: -0.10832159221172333
visibility: 0.9810752868652344
","x: 244.77542114257812
y: 313.5311584472656
z: -0.4231725335121155
visibility: 0.5887519121170044
","x: 161.74044799804688
y: 328.3304443359375
z: -0.19015389680862427
visibility: 0.9730813503265381
","x: 246.0661163330078
y: 323.17919921875
z: -0.46720799803733826
visibility: 0.5399883389472961
","x: 157.3789520263672
y: 339.22381591796875
z: -0.2156042605638504
visibility: 0.9409314393997192
","x: 243.37411499023438
y: 319.5168762207031
z: -0.5015312433242798
visibility: 0.5494155287742615
","x: 158.6953125
y: 339.8019104003906
z: -0.2541079819202423
visibility: 0.9386017918586731
","x: 239.9196319580078
y: 315.76068115234375
z: -0.44125014543533325
visibility: 0.5423610210418701
","x: 160.76620483398438
y: 336.6150207519531
z: -0.2072226107120514
visibility: 0.9097292423248291
","x: 216.15460205078125
y: 343.27764892578125
z: 0.0010289460187777877
visibility: 0.997680127620697
","x: 193.62747192382812
y: 339.4820556640625
z: -0.001081346534192562
visibility: 0.9982902407646179
","x: 213.13845825195312
y: 427.3520202636719
z: 0.0019991430453956127
visibility: 0.9748866558074951
","x: 192.4250030517578
y: 426.3135070800781
z: 0.00449337949976325
visibility: 0.9609951972961426
","x: 206.9885711669922
y: 500.8440856933594
z: 0.19783543050289154
visibility: 0.9692195653915405
","x: 193.40789794921875
y: 502.586669921875
z: 0.20195941627025604
visibility: 0.967450737953186
","x: 206.1741485595703
y: 509.510009765625
z: 0.21104426681995392
visibility: 0.8022336959838867
","x: 195.27615356445312
y: 510.4202575683594
z: 0.21389734745025635
visibility: 0.770840585231781
","x: 206.40347290039062
y: 526.3165893554688
z: 0.07134942710399628
visibility: 0.9635978937149048
","x: 192.61170959472656
y: 528.261962890625
z: 0.07277295738458633
visibility: 0.9653546810150146
",,,,,,,,,,,,,,,,,,,,,,,,,,,,,,,,,,,,,,,,,,
10,"x: 214.5779571533203
y: 197.2516632080078
z: -0.41883134841918945
visibility: 0.99417644739151
","x: 217.02841186523438
y: 189.21029663085938
z: -0.3899206519126892
visibility: 0.9864793419837952
","x: 218.57839965820312
y: 189.12936401367188
z: -0.3902586102485657
visibility: 0.9862143397331238
","x: 220.18447875976562
y: 189.04885864257812
z: -0.3903316855430603
visibility: 0.985765814781189
","x: 212.7288818359375
y: 189.21617126464844
z: -0.35895225405693054
visibility: 0.9877862930297852
","x: 211.21475219726562
y: 189.08847045898438
z: -0.35894179344177246
visibility: 0.9896498918533325
","x: 209.6734619140625
y: 188.9114532470703
z: -0.35887742042541504
visibility: 0.9901374578475952
","x: 222.6171112060547
y: 190.27479553222656
z: -0.29969438910484314
visibility: 0.9786093831062317
","x: 207.73106384277344
y: 188.78439331054688
z: -0.21086499094963074
visibility: 0.979343593120575
","x: 216.951416015625
y: 203.55589294433594
z: -0.3848649561405182
visibility: 0.9842397570610046
","x: 212.04940795898438
y: 203.78746032714844
z: -0.3319556713104248
visibility: 0.9840050339698792
","x: 233.57537841796875
y: 239.3129119873047
z: -0.15391789376735687
visibility: 0.9941632747650146
","x: 191.72804260253906
y: 233.31106567382812
z: -0.08603717386722565
visibility: 0.9971185922622681
","x: 233.92611694335938
y: 292.76654052734375
z: -0.18164992332458496
visibility: 0.7225306630134583
","x: 177.0870361328125
y: 288.04345703125
z: -0.020007379353046417
visibility: 0.9801887273788452
","x: 224.14151000976562
y: 319.5852355957031
z: -0.36262625455856323
visibility: 0.6293807029724121
","x: 165.69778442382812
y: 322.4093017578125
z: -0.1436099410057068
visibility: 0.9719367623329163
","x: 220.5165252685547
y: 335.04168701171875
z: -0.4118873178958893
visibility: 0.5847948789596558
","x: 160.4955291748047
y: 332.7593994140625
z: -0.17848113179206848
visibility: 0.9404591917991638
","x: 216.24130249023438
y: 324.67388916015625
z: -0.43539509177207947
visibility: 0.593332827091217
","x: 160.9290771484375
y: 332.25006103515625
z: -0.21723762154579163
visibility: 0.9390602111816406
","x: 216.09475708007812
y: 316.3741760253906
z: -0.3745219111442566
visibility: 0.5860843062400818
","x: 163.1459197998047
y: 329.3478698730469
z: -0.16269037127494812
visibility: 0.91167813539505
","x: 219.2882537841797
y: 348.4884948730469
z: -0.005645109806209803
visibility: 0.9978826642036438
","x: 195.87652587890625
y: 344.471923828125
z: 0.005651242099702358
visibility: 0.9984330534934998
","x: 215.6714324951172
y: 430.1642150878906
z: -0.05795416980981827
visibility: 0.9767645597457886
","x: 192.2377166748047
y: 424.7845153808594
z: -0.0863579660654068
visibility: 0.9644173383712769
","x: 207.03147888183594
y: 501.1445617675781
z: 0.16429376602172852
visibility: 0.9714545011520386
","x: 192.22645568847656
y: 501.5831298828125
z: 0.11634846031665802
visibility: 0.9699522852897644
","x: 206.1981964111328
y: 509.5898742675781
z: 0.18259166181087494
visibility: 0.8125433921813965
","x: 193.94064331054688
y: 509.1054992675781
z: 0.12890943884849548
visibility: 0.779846727848053
","x: 206.3888397216797
y: 527.0650634765625
z: 0.04201269522309303
visibility: 0.9661437273025513
","x: 191.60696411132812
y: 528.2589111328125
z: -0.009707939811050892
visibility: 0.9677808880805969
",,,,,,,,,,,,,,,,,,,,,,,,,,,,,,,,,,,,,,,,,,
11,"x: 216.5929412841797
y: 197.4589385986328
z: -0.3214510679244995
visibility: 0.994757354259491
","x: 219.17422485351562
y: 189.4320526123047
z: -0.3026014566421509
visibility: 0.9878280162811279
","x: 220.77212524414062
y: 189.3511199951172
z: -0.30270132422447205
visibility: 0.9875898361206055
","x: 222.41024780273438
y: 189.2685546875
z: -0.30275076627731323
visibility: 0.9871864318847656
","x: 214.84593200683594
y: 189.46502685546875
z: -0.2948005199432373
visibility: 0.9890026450157166
","x: 213.35055541992188
y: 189.3626251220703
z: -0.2948110103607178
visibility: 0.990678071975708
","x: 211.8912811279297
y: 189.20457458496094
z: -0.29480963945388794
visibility: 0.9911158680915833
","x: 224.95562744140625
y: 190.66896057128906
z: -0.1993221938610077
visibility: 0.980745255947113
","x: 210.42897033691406
y: 189.41607666015625
z: -0.1673179566860199
visibility: 0.9813916683197021
","x: 219.2928009033203
y: 203.78846740722656
z: -0.28245073556900024
visibility: 0.9858142137527466
","x: 213.99871826171875
y: 204.0537872314453
z: -0.26922112703323364
visibility: 0.9856008887290955
","x: 235.70411682128906
y: 240.53952026367188
z: -0.13872724771499634
visibility: 0.9947454333305359
","x: 195.2307586669922
y: 235.42356872558594
z: -0.05372124910354614
visibility: 0.9973874092102051
","x: 238.0601806640625
y: 294.83544921875
z: -0.19405251741409302
visibility: 0.7500064969062805
","x: 181.4915771484375
y: 288.8944091796875
z: 0.014453282579779625
visibility: 0.9770156145095825
","x: 215.32943725585938
y: 309.69952392578125
z: -0.37617677450180054
visibility: 0.6660786867141724
","x: 171.6525115966797
y: 331.4231872558594
z: -0.08470423519611359
visibility: 0.9696832895278931
","x: 209.86056518554688
y: 321.9926452636719
z: -0.4220844805240631
visibility: 0.6253517270088196
","x: 166.95761108398438
y: 342.5091247558594
z: -0.11006154119968414
visibility: 0.9382097125053406
","x: 204.78433227539062
y: 315.7223205566406
z: -0.43095263838768005
visibility: 0.6330552697181702
","x: 166.76828002929688
y: 341.7480163574219
z: -0.1432488113641739
visibility: 0.9376040101051331
","x: 205.863525390625
y: 311.1273193359375
z: -0.38136082887649536
visibility: 0.6256473064422607
","x: 169.08058166503906
y: 338.8409729003906
z: -0.10039887577295303
visibility: 0.9109812378883362
","x: 220.42506408691406
y: 347.3699645996094
z: -0.016913563013076782
visibility: 0.9980701804161072
","x: 197.1145477294922
y: 344.62750244140625
z: 0.01693551614880562
visibility: 0.9985457062721252
","x: 215.72544860839844
y: 421.328857421875
z: -0.20716869831085205
visibility: 0.9776154160499573
","x: 192.26773071289062
y: 421.78173828125
z: -0.07631351053714752
visibility: 0.965944766998291
","x: 209.32041931152344
y: 494.5850830078125
z: -0.07769263535737991
visibility: 0.9727050065994263
","x: 206.43887329101562
y: 498.7284851074219
z: 0.09696082770824432
visibility: 0.9697492122650146
","x: 210.72024536132812
y: 502.2112731933594
z: -0.07046350836753845
visibility: 0.8219142556190491
","x: 211.55239868164062
y: 506.92822265625
z: 0.10700563341379166
visibility: 0.7860191464424133
","x: 207.68389892578125
y: 522.3187255859375
z: -0.20959675312042236
visibility: 0.967781662940979
","x: 203.7520294189453
y: 527.2413330078125
z: -0.012511961162090302
visibility: 0.9662310481071472
",,,,,,,,,,,,,,,,,,,,,,"x: 211.57257080078125
y: 307.7710876464844
z: 0.0
","x: 206.2469024658203
y: 310.6179504394531
z: 0.001760477083735168
","x: 201.63003540039062
y: 315.0328369140625
z: -0.0002920902625191957
","x: 198.8375701904297
y: 319.66290283203125
z: -0.003100312314927578
","x: 197.4492950439453
y: 323.66571044921875
z: -0.0056135342456400394
","x: 199.50833129882812
y: 311.8316345214844
z: -0.006285461131483316
","x: 196.43051147460938
y: 321.94805908203125
z: -0.009967694990336895
","x: 197.51895141601562
y: 325.5438537597656
z: -0.010435386560857296
","x: 198.34104919433594
y: 326.5187072753906
z: -0.010446281172335148
","x: 201.6612548828125
y: 311.88543701171875
z: -0.009860572405159473
","x: 199.04505920410156
y: 322.4360656738281
z: -0.01362360455095768
","x: 199.70594787597656
y: 326.40570068359375
z: -0.012657405808568
","x: 200.2643585205078
y: 327.7349853515625
z: -0.011834176257252693
","x: 204.514404296875
y: 312.378173828125
z: -0.013087098486721516
","x: 201.82188415527344
y: 321.51995849609375
z: -0.01607883907854557
","x: 202.15834045410156
y: 325.1007385253906
z: -0.013799742795526981
","x: 202.77627563476562
y: 326.408203125
z: -0.012262919917702675
","x: 207.5007781982422
y: 313.3052978515625
z: -0.016206607222557068
","x: 205.3778533935547
y: 320.0289306640625
z: -0.018414301797747612
","x: 204.90972900390625
y: 323.16888427734375
z: -0.01709660328924656
","x: 204.9716796875
y: 324.8449401855469
z: -0.015975704416632652
"
12,"x: 216.5929412841797
y: 197.4589385986328
z: -0.3214510679244995
visibility: 0.994757354259491
","x: 219.17422485351562
y: 189.4320526123047
z: -0.3026014566421509
visibility: 0.9878280162811279
","x: 220.77212524414062
y: 189.3511199951172
z: -0.30270132422447205
visibility: 0.9875898361206055
","x: 222.41024780273438
y: 189.2685546875
z: -0.30275076627731323
visibility: 0.9871864318847656
","x: 214.84593200683594
y: 189.46502685546875
z: -0.2948005199432373
visibility: 0.9890026450157166
","x: 213.35055541992188
y: 189.3626251220703
z: -0.2948110103607178
visibility: 0.990678071975708
","x: 211.8912811279297
y: 189.20457458496094
z: -0.29480963945388794
visibility: 0.9911158680915833
","x: 224.95562744140625
y: 190.66896057128906
z: -0.1993221938610077
visibility: 0.980745255947113
","x: 210.42897033691406
y: 189.41607666015625
z: -0.1673179566860199
visibility: 0.9813916683197021
","x: 219.2928009033203
y: 203.78846740722656
z: -0.28245073556900024
visibility: 0.9858142137527466
","x: 213.99871826171875
y: 204.0537872314453
z: -0.26922112703323364
visibility: 0.9856008887290955
","x: 235.70411682128906
y: 240.53952026367188
z: -0.13872724771499634
visibility: 0.9947454333305359
","x: 195.2307586669922
y: 235.42356872558594
z: -0.05372124910354614
visibility: 0.9973874092102051
","x: 238.0601806640625
y: 294.83544921875
z: -0.19405251741409302
visibility: 0.7500064969062805
","x: 181.4915771484375
y: 288.8944091796875
z: 0.014453282579779625
visibility: 0.9770156145095825
","x: 215.32943725585938
y: 309.69952392578125
z: -0.37617677450180054
visibility: 0.6660786867141724
","x: 171.6525115966797
y: 331.4231872558594
z: -0.08470423519611359
visibility: 0.9696832895278931
","x: 209.86056518554688
y: 321.9926452636719
z: -0.4220844805240631
visibility: 0.6253517270088196
","x: 166.95761108398438
y: 342.5091247558594
z: -0.11006154119968414
visibility: 0.9382097125053406
","x: 204.78433227539062
y: 315.7223205566406
z: -0.43095263838768005
visibility: 0.6330552697181702
","x: 166.76828002929688
y: 341.7480163574219
z: -0.1432488113641739
visibility: 0.9376040101051331
","x: 205.863525390625
y: 311.1273193359375
z: -0.38136082887649536
visibility: 0.6256473064422607
","x: 169.08058166503906
y: 338.8409729003906
z: -0.10039887577295303
visibility: 0.9109812378883362
","x: 220.42506408691406
y: 347.3699645996094
z: -0.016913563013076782
visibility: 0.9980701804161072
","x: 197.1145477294922
y: 344.62750244140625
z: 0.01693551614880562
visibility: 0.9985457062721252
","x: 215.72544860839844
y: 421.328857421875
z: -0.20716869831085205
visibility: 0.9776154160499573
","x: 192.26773071289062
y: 421.78173828125
z: -0.07631351053714752
visibility: 0.965944766998291
","x: 209.32041931152344
y: 494.5850830078125
z: -0.07769263535737991
visibility: 0.9727050065994263
","x: 206.43887329101562
y: 498.7284851074219
z: 0.09696082770824432
visibility: 0.9697492122650146
","x: 210.72024536132812
y: 502.2112731933594
z: -0.07046350836753845
visibility: 0.8219142556190491
","x: 211.55239868164062
y: 506.92822265625
z: 0.10700563341379166
visibility: 0.7860191464424133
","x: 207.68389892578125
y: 522.3187255859375
z: -0.20959675312042236
visibility: 0.967781662940979
","x: 203.7520294189453
y: 527.2413330078125
z: -0.012511961162090302
visibility: 0.9662310481071472
",,,,,,,,,,,,,,,,,,,,,,"x: 211.57257080078125
y: 307.7710876464844
z: 0.0
","x: 206.2469024658203
y: 310.6179504394531
z: 0.001760477083735168
","x: 201.63003540039062
y: 315.0328369140625
z: -0.0002920902625191957
","x: 198.8375701904297
y: 319.66290283203125
z: -0.003100312314927578
","x: 197.4492950439453
y: 323.66571044921875
z: -0.0056135342456400394
","x: 199.50833129882812
y: 311.8316345214844
z: -0.006285461131483316
","x: 196.43051147460938
y: 321.94805908203125
z: -0.009967694990336895
","x: 197.51895141601562
y: 325.5438537597656
z: -0.010435386560857296
","x: 198.34104919433594
y: 326.5187072753906
z: -0.010446281172335148
","x: 201.6612548828125
y: 311.88543701171875
z: -0.009860572405159473
","x: 199.04505920410156
y: 322.4360656738281
z: -0.01362360455095768
","x: 199.70594787597656
y: 326.40570068359375
z: -0.012657405808568
","x: 200.2643585205078
y: 327.7349853515625
z: -0.011834176257252693
","x: 204.514404296875
y: 312.378173828125
z: -0.013087098486721516
","x: 201.82188415527344
y: 321.51995849609375
z: -0.01607883907854557
","x: 202.15834045410156
y: 325.1007385253906
z: -0.013799742795526981
","x: 202.77627563476562
y: 326.408203125
z: -0.012262919917702675
","x: 207.5007781982422
y: 313.3052978515625
z: -0.016206607222557068
","x: 205.3778533935547
y: 320.0289306640625
z: -0.018414301797747612
","x: 204.90972900390625
y: 323.16888427734375
z: -0.01709660328924656
","x: 204.9716796875
y: 324.8449401855469
z: -0.015975704416632652
"
13,"x: 216.91134643554688
y: 197.1849822998047
z: -0.3149895966053009
visibility: 0.9952805042266846
","x: 219.7506866455078
y: 189.14488220214844
z: -0.3002622723579407
visibility: 0.9890426993370056
","x: 221.3390350341797
y: 189.1745147705078
z: -0.3003166615962982
visibility: 0.9888284206390381
","x: 223.03134155273438
y: 189.20339965820312
z: -0.300353467464447
visibility: 0.9884655475616455
","x: 215.55137634277344
y: 189.02423095703125
z: -0.29430314898490906
visibility: 0.9900985360145569
","x: 214.0789031982422
y: 188.94039916992188
z: -0.29433557391166687
visibility: 0.991605281829834
","x: 212.6147003173828
y: 188.79925537109375
z: -0.29431089758872986
visibility: 0.991999089717865
","x: 225.94210815429688
y: 190.8738555908203
z: -0.19703730940818787
visibility: 0.982668936252594
","x: 211.34532165527344
y: 189.7152862548828
z: -0.16981948912143707
visibility: 0.9832379817962646
","x: 219.57797241210938
y: 203.980712890625
z: -0.27475735545158386
visibility: 0.9872319102287292
","x: 214.26312255859375
y: 204.18215942382812
z: -0.2663845419883728
visibility: 0.9870384335517883
","x: 236.77833557128906
y: 240.79672241210938
z: -0.15210075676441193
visibility: 0.9952695965766907
","x: 198.72158813476562
y: 238.7216033935547
z: -0.03908633068203926
visibility: 0.9976252913475037
","x: 240.61692810058594
y: 297.8231201171875
z: -0.19496586918830872
visibility: 0.7748562097549438
","x: 187.6641082763672
y: 291.9082946777344
z: -0.03953123465180397
visibility: 0.9433330297470093
","x: 215.7642059326172
y: 308.4114685058594
z: -0.34037938714027405
visibility: 0.6991209387779236
","x: 175.0555419921875
y: 300.86285400390625
z: -0.21553829312324524
visibility: 0.9645052552223206
","x: 209.40155029296875
y: 318.8798828125
z: -0.3827093243598938
visibility: 0.661829948425293
","x: 171.95216369628906
y: 297.62347412109375
z: -0.19122231006622314
visibility: 0.9358150959014893
","x: 205.7349853515625
y: 312.3939208984375
z: -0.3901970684528351
visibility: 0.6687440276145935
","x: 171.9835205078125
y: 288.37530517578125
z: -0.20919068157672882
visibility: 0.9360440969467163
","x: 207.48745727539062
y: 308.4742126464844
z: -0.3440265655517578
visibility: 0.6613357067108154
","x: 173.6145477294922
y: 289.0820617675781
z: -0.20465287566184998
visibility: 0.9102567434310913
","x: 222.21522521972656
y: 347.1000671386719
z: -0.036000318825244904
visibility: 0.9982131123542786
","x: 201.35687255859375
y: 344.7450256347656
z: 0.03594955801963806
visibility: 0.9986571669578552
","x: 217.56973266601562
y: 422.48272705078125
z: -0.056718938052654266
visibility: 0.9789884686470032
","x: 200.49610900878906
y: 421.91162109375
z: -0.05201786011457443
visibility: 0.9680435061454773
","x: 211.92837524414062
y: 495.43621826171875
z: 0.11612030118703842
visibility: 0.9749248027801514
","x: 223.220703125
y: 498.6593933105469
z: 0.10463704913854599
visibility: 0.9722456932067871
","x: 210.22109985351562
y: 506.1156921386719
z: 0.1255979686975479
visibility: 0.831047534942627
","x: 231.19915771484375
y: 507.8073425292969
z: 0.11306273937225342
visibility: 0.8050212264060974
","x: 208.70388793945312
y: 523.935302734375
z: 0.0025156554765999317
visibility: 0.9702426791191101
","x: 213.4241485595703
y: 527.4075927734375
z: -0.001130856340751052
visibility: 0.9689877033233643
",,,,,,,,,,,,,,,,,,,,,,,,,,,,,,,,,,,,,,,,,,
14,"x: 217.172607421875
y: 197.32215881347656
z: -0.22703370451927185
visibility: 0.995747983455658
","x: 220.28549194335938
y: 189.2326202392578
z: -0.21173247694969177
visibility: 0.9901286363601685
","x: 221.91966247558594
y: 189.25054931640625
z: -0.21175941824913025
visibility: 0.9899364113807678
","x: 223.65638732910156
y: 189.28372192382812
z: -0.2117660939693451
visibility: 0.9896076917648315
","x: 216.03570556640625
y: 189.1785430908203
z: -0.20599563419818878
visibility: 0.9910783767700195
","x: 214.59805297851562
y: 189.10423278808594
z: -0.20603051781654358
visibility: 0.9924340844154358
","x: 213.1971435546875
y: 188.972900390625
z: -0.20597398281097412
visibility: 0.9927877187728882
","x: 227.39120483398438
y: 191.20599365234375
z: -0.10725744813680649
visibility: 0.9843941330909729
","x: 212.5042266845703
y: 189.9555206298828
z: -0.08003932237625122
visibility: 0.984886884689331
","x: 220.255126953125
y: 204.10214233398438
z: -0.18642686307430267
visibility: 0.9885053038597107
","x: 214.61228942871094
y: 204.38970947265625
z: -0.17893347144126892
visibility: 0.9883288145065308
","x: 239.21336364746094
y: 240.37071228027344
z: -0.07799679785966873
visibility: 0.9957399368286133
","x: 200.79551696777344
y: 238.37945556640625
z: 0.029634928330779076
visibility: 0.9978399276733398
","x: 250.69158935546875
y: 294.98663330078125
z: -0.1788697987794876
visibility: 0.797234296798706
","x: 186.5635986328125
y: 290.7938232421875
z: -0.06620095670223236
visibility: 0.9449095129966736
","x: 217.5146026611328
y: 289.6624450683594
z: -0.3554690182209015
visibility: 0.7288196086883545
","x: 188.79598999023438
y: 268.6975402832031
z: -0.3199894428253174
visibility: 0.966896653175354
","x: 218.20010375976562
y: 293.66986083984375
z: -0.40115946531295776
visibility: 0.6943367123603821
","x: 192.67062377929688
y: 259.2278137207031
z: -0.36794376373291016
visibility: 0.9398925304412842
","x: 215.9490509033203
y: 284.2013244628906
z: -0.3948577344417572
visibility: 0.7004311680793762
","x: 194.28326416015625
y: 252.80780029296875
z: -0.3623816668987274
visibility: 0.9399142861366272
","x: 216.887939453125
y: 282.0330810546875
z: -0.354515939950943
visibility: 0.6927459239959717
","x: 194.28555297851562
y: 255.59515380859375
z: -0.32297736406326294
visibility: 0.9154937267303467
","x: 226.431396484375
y: 349.3550109863281
z: -0.046767476946115494
visibility: 0.9983367919921875
","x: 205.7188720703125
y: 347.5677795410156
z: 0.04675380140542984
visibility: 0.9987316131591797
","x: 221.00399780273438
y: 425.2746276855469
z: -0.025944799184799194
visibility: 0.9803633093833923
","x: 209.83506774902344
y: 422.6240539550781
z: 0.04952817037701607
visibility: 0.9689081311225891
","x: 213.99119567871094
y: 497.501220703125
z: 0.1264786273241043
visibility: 0.976739764213562
","x: 224.64561462402344
y: 499.72088623046875
z: 0.20853619277477264
visibility: 0.9741106629371643
","x: 215.31895446777344
y: 507.138427734375
z: 0.13443472981452942
visibility: 0.8423901200294495
","x: 232.91969299316406
y: 513.727783203125
z: 0.21857702732086182
visibility: 0.8221240639686584
","x: 210.77113342285156
y: 525.4302368164062
z: 0.016569416970014572
visibility: 0.9720539450645447
","x: 214.21458435058594
y: 528.0054321289062
z: 0.1188439279794693
visibility: 0.970934271812439
","x: 191.22723388671875
y: 259.84326171875
z: 0.0
","x: 191.75985717773438
y: 253.3640899658203
z: -0.0005731760174967349
","x: 193.8342742919922
y: 246.58407592773438
z: -0.0014692291151732206
","x: 195.55322265625
y: 241.5469207763672
z: -0.0028467283118516207
","x: 195.78009033203125
y: 237.1573028564453
z: -0.004347237292677164
","x: 198.0869903564453
y: 245.47438049316406
z: -0.0007349725929088891
","x: 201.21080017089844
y: 239.55267333984375
z: -0.0029382614884525537
","x: 203.27944946289062
y: 235.97962951660156
z: -0.0045160409063100815
","x: 205.04571533203125
y: 233.1273193359375
z: -0.005650970619171858
","x: 199.3849334716797
y: 247.9440155029297
z: -0.00268989778123796
","x: 203.1143341064453
y: 242.34634399414062
z: -0.004623028915375471
","x: 205.7080841064453
y: 238.6872100830078
z: -0.006152226589620113
","x: 207.9169158935547
y: 235.5944061279297
z: -0.007487972732633352
","x: 200.0407257080078
y: 251.35171508789062
z: -0.004964558407664299
","x: 203.7328338623047
y: 246.76419067382812
z: -0.007228303700685501
","x: 206.19271850585938
y: 243.67446899414062
z: -0.008788240142166615
","x: 208.21751403808594
y: 241.05508422851562
z: -0.009994322434067726
","x: 200.06826782226562
y: 255.8225860595703
z: -0.007426759228110313
","x: 202.88258361816406
y: 253.53050231933594
z: -0.009381920099258423
","x: 204.73992919921875
y: 252.13284301757812
z: -0.01033954881131649
","x: 206.341552734375
y: 250.973876953125
z: -0.01111797709017992
",,,,,,,,,,,,,,,,,,,,,
15,"x: 217.172607421875
y: 197.32215881347656
z: -0.22703370451927185
visibility: 0.995747983455658
","x: 220.28549194335938
y: 189.2326202392578
z: -0.21173247694969177
visibility: 0.9901286363601685
","x: 221.91966247558594
y: 189.25054931640625
z: -0.21175941824913025
visibility: 0.9899364113807678
","x: 223.65638732910156
y: 189.28372192382812
z: -0.2117660939693451
visibility: 0.9896076917648315
","x: 216.03570556640625
y: 189.1785430908203
z: -0.20599563419818878
visibility: 0.9910783767700195
","x: 214.59805297851562
y: 189.10423278808594
z: -0.20603051781654358
visibility: 0.9924340844154358
","x: 213.1971435546875
y: 188.972900390625
z: -0.20597398281097412
visibility: 0.9927877187728882
","x: 227.39120483398438
y: 191.20599365234375
z: -0.10725744813680649
visibility: 0.9843941330909729
","x: 212.5042266845703
y: 189.9555206298828
z: -0.08003932237625122
visibility: 0.984886884689331
","x: 220.255126953125
y: 204.10214233398438
z: -0.18642686307430267
visibility: 0.9885053038597107
","x: 214.61228942871094
y: 204.38970947265625
z: -0.17893347144126892
visibility: 0.9883288145065308
","x: 239.21336364746094
y: 240.37071228027344
z: -0.07799679785966873
visibility: 0.9957399368286133
","x: 200.79551696777344
y: 238.37945556640625
z: 0.029634928330779076
visibility: 0.9978399276733398
","x: 250.69158935546875
y: 294.98663330078125
z: -0.1788697987794876
visibility: 0.797234296798706
","x: 186.5635986328125
y: 290.7938232421875
z: -0.06620095670223236
visibility: 0.9449095129966736
","x: 217.5146026611328
y: 289.6624450683594
z: -0.3554690182209015
visibility: 0.7288196086883545
","x: 188.79598999023438
y: 268.6975402832031
z: -0.3199894428253174
visibility: 0.966896653175354
","x: 218.20010375976562
y: 293.66986083984375
z: -0.40115946531295776
visibility: 0.6943367123603821
","x: 192.67062377929688
y: 259.2278137207031
z: -0.36794376373291016
visibility: 0.9398925304412842
","x: 215.9490509033203
y: 284.2013244628906
z: -0.3948577344417572
visibility: 0.7004311680793762
","x: 194.28326416015625
y: 252.80780029296875
z: -0.3623816668987274
visibility: 0.9399142861366272
","x: 216.887939453125
y: 282.0330810546875
z: -0.354515939950943
visibility: 0.6927459239959717
","x: 194.28555297851562
y: 255.59515380859375
z: -0.32297736406326294
visibility: 0.9154937267303467
","x: 226.431396484375
y: 349.3550109863281
z: -0.046767476946115494
visibility: 0.9983367919921875
","x: 205.7188720703125
y: 347.5677795410156
z: 0.04675380140542984
visibility: 0.9987316131591797
","x: 221.00399780273438
y: 425.2746276855469
z: -0.025944799184799194
visibility: 0.9803633093833923
","x: 209.83506774902344
y: 422.6240539550781
z: 0.04952817037701607
visibility: 0.9689081311225891
","x: 213.99119567871094
y: 497.501220703125
z: 0.1264786273241043
visibility: 0.976739764213562
","x: 224.64561462402344
y: 499.72088623046875
z: 0.20853619277477264
visibility: 0.9741106629371643
","x: 215.31895446777344
y: 507.138427734375
z: 0.13443472981452942
visibility: 0.8423901200294495
","x: 232.91969299316406
y: 513.727783203125
z: 0.21857702732086182
visibility: 0.8221240639686584
","x: 210.77113342285156
y: 525.4302368164062
z: 0.016569416970014572
visibility: 0.9720539450645447
","x: 214.21458435058594
y: 528.0054321289062
z: 0.1188439279794693
visibility: 0.970934271812439
","x: 191.22723388671875
y: 259.84326171875
z: 0.0
","x: 191.75985717773438
y: 253.3640899658203
z: -0.0005731760174967349
","x: 193.8342742919922
y: 246.58407592773438
z: -0.0014692291151732206
","x: 195.55322265625
y: 241.5469207763672
z: -0.0028467283118516207
","x: 195.78009033203125
y: 237.1573028564453
z: -0.004347237292677164
","x: 198.0869903564453
y: 245.47438049316406
z: -0.0007349725929088891
","x: 201.21080017089844
y: 239.55267333984375
z: -0.0029382614884525537
","x: 203.27944946289062
y: 235.97962951660156
z: -0.0045160409063100815
","x: 205.04571533203125
y: 233.1273193359375
z: -0.005650970619171858
","x: 199.3849334716797
y: 247.9440155029297
z: -0.00268989778123796
","x: 203.1143341064453
y: 242.34634399414062
z: -0.004623028915375471
","x: 205.7080841064453
y: 238.6872100830078
z: -0.006152226589620113
","x: 207.9169158935547
y: 235.5944061279297
z: -0.007487972732633352
","x: 200.0407257080078
y: 251.35171508789062
z: -0.004964558407664299
","x: 203.7328338623047
y: 246.76419067382812
z: -0.007228303700685501
","x: 206.19271850585938
y: 243.67446899414062
z: -0.008788240142166615
","x: 208.21751403808594
y: 241.05508422851562
z: -0.009994322434067726
","x: 200.06826782226562
y: 255.8225860595703
z: -0.007426759228110313
","x: 202.88258361816406
y: 253.53050231933594
z: -0.009381920099258423
","x: 204.73992919921875
y: 252.13284301757812
z: -0.01033954881131649
","x: 206.341552734375
y: 250.973876953125
z: -0.01111797709017992
",,,,,,,,,,,,,,,,,,,,,
16,"x: 220.66978454589844
y: 195.3762969970703
z: -0.24200132489204407
visibility: 0.9961727261543274
","x: 223.61854553222656
y: 187.11351013183594
z: -0.2234356701374054
visibility: 0.9911144971847534
","x: 225.2396697998047
y: 186.98167419433594
z: -0.2234821617603302
visibility: 0.9909415245056152
","x: 226.97763061523438
y: 186.93728637695312
z: -0.22350704669952393
visibility: 0.9906455278396606
","x: 219.25445556640625
y: 187.782470703125
z: -0.22092339396476746
visibility: 0.9919692873954773
","x: 217.7694854736328
y: 188.0133056640625
z: -0.22092024981975555
visibility: 0.9931891560554504
","x: 216.3311767578125
y: 188.15956115722656
z: -0.22089345753192902
visibility: 0.9935073852539062
","x: 230.35911560058594
y: 190.57061767578125
z: -0.11088492721319199
visibility: 0.9859532117843628
","x: 215.1859130859375
y: 190.0981903076172
z: -0.09861086308956146
visibility: 0.9863962531089783
","x: 223.7720489501953
y: 202.24977111816406
z: -0.19958770275115967
visibility: 0.9896544218063354
","x: 218.3204345703125
y: 202.90090942382812
z: -0.19639155268669128
visibility: 0.989495575428009
","x: 242.6650390625
y: 239.29257202148438
z: -0.06542286276817322
visibility: 0.9961643815040588
","x: 202.76370239257812
y: 238.69398498535156
z: -0.007102268282324076
visibility: 0.9980512261390686
","x: 259.6446533203125
y: 289.65234375
z: -0.18879760801792145
visibility: 0.8174172043800354
","x: 190.67221069335938
y: 289.3917541503906
z: -0.03080226108431816
visibility: 0.9458842873573303
","x: 242.24212646484375
y: 254.78424072265625
z: -0.3933725357055664
visibility: 0.7557290196418762
","x: 192.62232971191406
y: 306.42523193359375
z: -0.2033584862947464
visibility: 0.9662398099899292
","x: 235.62213134765625
y: 252.62330627441406
z: -0.44456642866134644
visibility: 0.7241312265396118
","x: 194.10678100585938
y: 319.4808654785156
z: -0.2425306737422943
visibility: 0.9386561512947083
","x: 233.4466552734375
y: 245.2712860107422
z: -0.43449869751930237
visibility: 0.7295386791229248
","x: 196.39700317382812
y: 313.9739685058594
z: -0.26074400544166565
visibility: 0.9387662410736084
","x: 234.5522003173828
y: 245.20877075195312
z: -0.3935621380805969
visibility: 0.7220160961151123
","x: 196.66033935546875
y: 309.322998046875
z: -0.2145649939775467
visibility: 0.91500324010849
","x: 228.61990356445312
y: 349.49896240234375
z: -0.03273876756429672
visibility: 0.9984616041183472
","x: 207.95730590820312
y: 347.647216796875
z: 0.03274843096733093
visibility: 0.9988267421722412
","x: 223.03497314453125
y: 426.1020202636719
z: 0.004490192513912916
visibility: 0.9804285168647766
","x: 212.3857421875
y: 423.1951599121094
z: 0.012969866394996643
visibility: 0.9693275094032288
","x: 213.3314666748047
y: 498.1542663574219
z: 0.17282548546791077
visibility: 0.9773919582366943
","x: 225.1581268310547
y: 500.8868103027344
z: 0.18711648881435394
visibility: 0.9755426049232483
","x: 214.14010620117188
y: 506.553955078125
z: 0.18266716599464417
visibility: 0.8453206419944763
","x: 233.93307495117188
y: 516.667724609375
z: 0.2024599015712738
visibility: 0.83514404296875
","x: 212.1079559326172
y: 525.5755004882812
z: 0.06062867119908333
visibility: 0.9728425741195679
","x: 216.6619873046875
y: 528.09375
z: 0.07160507887601852
visibility: 0.9724847674369812
","x: 192.8529510498047
y: 316.31005859375
z: 0.0
","x: 194.6492156982422
y: 312.6949768066406
z: -0.003650139784440398
","x: 197.07276916503906
y: 311.10369873046875
z: -0.006897928658872843
","x: 199.2351837158203
y: 309.7637634277344
z: -0.009864522144198418
","x: 200.8450164794922
y: 308.2296142578125
z: -0.01290610060095787
","x: 197.40882873535156
y: 320.7417297363281
z: -0.006385442800819874
","x: 199.0662841796875
y: 323.9398193359375
z: -0.00935271754860878
","x: 200.18894958496094
y: 326.38726806640625
z: -0.011074625886976719
","x: 201.20538330078125
y: 328.5965576171875
z: -0.01214600633829832
","x: 196.6809844970703
y: 324.40447998046875
z: -0.006290695164352655
","x: 198.44467163085938
y: 329.11151123046875
z: -0.009116193279623985
","x: 199.8349609375
y: 332.2787780761719
z: -0.010595864616334438
","x: 201.13442993164062
y: 334.96270751953125
z: -0.011718018911778927
","x: 195.9494171142578
y: 326.9573974609375
z: -0.006339194253087044
","x: 197.6950225830078
y: 332.0821838378906
z: -0.009077226743102074
","x: 198.95968627929688
y: 335.23248291015625
z: -0.010451976209878922
","x: 200.07032775878906
y: 337.7594299316406
z: -0.011334429495036602
","x: 195.2420654296875
y: 328.5119934082031
z: -0.006670486181974411
","x: 196.45834350585938
y: 333.2975769042969
z: -0.00870518945157528
","x: 197.2658233642578
y: 336.4185791015625
z: -0.00974315032362938
","x: 198.03555297851562
y: 338.97637939453125
z: -0.010489111766219139
","x: 243.54071044921875
y: 247.69656372070312
z: 0.0
","x: 242.45289611816406
y: 241.93716430664062
z: -0.0013141176896169782
","x: 240.0227508544922
y: 237.94046020507812
z: -0.002546474104747176
","x: 238.1278076171875
y: 235.24903869628906
z: -0.00386337679810822
","x: 237.03839111328125
y: 232.484130859375
z: -0.005123297683894634
","x: 233.82440185546875
y: 242.1478271484375
z: -0.0019705137237906456
","x: 229.1281280517578
y: 241.97320556640625
z: -0.003635979723185301
","x: 226.6268310546875
y: 242.39169311523438
z: -0.004638179205358028
","x: 224.7799530029297
y: 243.1119384765625
z: -0.0052182055078446865
","x: 233.2542266845703
y: 246.17918395996094
z: -0.0027561127208173275
","x: 227.93133544921875
y: 247.62313842773438
z: -0.003901652293279767
","x: 225.04751586914062
y: 249.07086181640625
z: -0.004604767542332411
","x: 222.9012451171875
y: 250.84652709960938
z: -0.0052930088713765144
","x: 233.48704528808594
y: 250.04957580566406
z: -0.003750311676412821
","x: 228.78887939453125
y: 251.8696746826172
z: -0.005521307699382305
","x: 226.04354858398438
y: 253.42233276367188
z: -0.006859492044895887
","x: 223.89109802246094
y: 255.1903533935547
z: -0.007757068611681461
","x: 234.3607177734375
y: 253.65615844726562
z: -0.004925242625176907
","x: 231.2388458251953
y: 255.70632934570312
z: -0.006774078588932753
","x: 229.5054931640625
y: 257.3589782714844
z: -0.007737116888165474
","x: 228.26675415039062
y: 259.0913391113281
z: -0.008338648825883865
"
17,"x: 220.66978454589844
y: 195.3762969970703
z: -0.24200132489204407
visibility: 0.9961727261543274
","x: 223.61854553222656
y: 187.11351013183594
z: -0.2234356701374054
visibility: 0.9911144971847534
","x: 225.2396697998047
y: 186.98167419433594
z: -0.2234821617603302
visibility: 0.9909415245056152
","x: 226.97763061523438
y: 186.93728637695312
z: -0.22350704669952393
visibility: 0.9906455278396606
","x: 219.25445556640625
y: 187.782470703125
z: -0.22092339396476746
visibility: 0.9919692873954773
","x: 217.7694854736328
y: 188.0133056640625
z: -0.22092024981975555
visibility: 0.9931891560554504
","x: 216.3311767578125
y: 188.15956115722656
z: -0.22089345753192902
visibility: 0.9935073852539062
","x: 230.35911560058594
y: 190.57061767578125
z: -0.11088492721319199
visibility: 0.9859532117843628
","x: 215.1859130859375
y: 190.0981903076172
z: -0.09861086308956146
visibility: 0.9863962531089783
","x: 223.7720489501953
y: 202.24977111816406
z: -0.19958770275115967
visibility: 0.9896544218063354
","x: 218.3204345703125
y: 202.90090942382812
z: -0.19639155268669128
visibility: 0.989495575428009
","x: 242.6650390625
y: 239.29257202148438
z: -0.06542286276817322
visibility: 0.9961643815040588
","x: 202.76370239257812
y: 238.69398498535156
z: -0.007102268282324076
visibility: 0.9980512261390686
","x: 259.6446533203125
y: 289.65234375
z: -0.18879760801792145
visibility: 0.8174172043800354
","x: 190.67221069335938
y: 289.3917541503906
z: -0.03080226108431816
visibility: 0.9458842873573303
","x: 242.24212646484375
y: 254.78424072265625
z: -0.3933725357055664
visibility: 0.7557290196418762
","x: 192.62232971191406
y: 306.42523193359375
z: -0.2033584862947464
visibility: 0.9662398099899292
","x: 235.62213134765625
y: 252.62330627441406
z: -0.44456642866134644
visibility: 0.7241312265396118
","x: 194.10678100585938
y: 319.4808654785156
z: -0.2425306737422943
visibility: 0.9386561512947083
","x: 233.4466552734375
y: 245.2712860107422
z: -0.43449869751930237
visibility: 0.7295386791229248
","x: 196.39700317382812
y: 313.9739685058594
z: -0.26074400544166565
visibility: 0.9387662410736084
","x: 234.5522003173828
y: 245.20877075195312
z: -0.3935621380805969
visibility: 0.7220160961151123
","x: 196.66033935546875
y: 309.322998046875
z: -0.2145649939775467
visibility: 0.91500324010849
","x: 228.61990356445312
y: 349.49896240234375
z: -0.03273876756429672
visibility: 0.9984616041183472
","x: 207.95730590820312
y: 347.647216796875
z: 0.03274843096733093
visibility: 0.9988267421722412
","x: 223.03497314453125
y: 426.1020202636719
z: 0.004490192513912916
visibility: 0.9804285168647766
","x: 212.3857421875
y: 423.1951599121094
z: 0.012969866394996643
visibility: 0.9693275094032288
","x: 213.3314666748047
y: 498.1542663574219
z: 0.17282548546791077
visibility: 0.9773919582366943
","x: 225.1581268310547
y: 500.8868103027344
z: 0.18711648881435394
visibility: 0.9755426049232483
","x: 214.14010620117188
y: 506.553955078125
z: 0.18266716599464417
visibility: 0.8453206419944763
","x: 233.93307495117188
y: 516.667724609375
z: 0.2024599015712738
visibility: 0.83514404296875
","x: 212.1079559326172
y: 525.5755004882812
z: 0.06062867119908333
visibility: 0.9728425741195679
","x: 216.6619873046875
y: 528.09375
z: 0.07160507887601852
visibility: 0.9724847674369812
","x: 192.8529510498047
y: 316.31005859375
z: 0.0
","x: 194.6492156982422
y: 312.6949768066406
z: -0.003650139784440398
","x: 197.07276916503906
y: 311.10369873046875
z: -0.006897928658872843
","x: 199.2351837158203
y: 309.7637634277344
z: -0.009864522144198418
","x: 200.8450164794922
y: 308.2296142578125
z: -0.01290610060095787
","x: 197.40882873535156
y: 320.7417297363281
z: -0.006385442800819874
","x: 199.0662841796875
y: 323.9398193359375
z: -0.00935271754860878
","x: 200.18894958496094
y: 326.38726806640625
z: -0.011074625886976719
","x: 201.20538330078125
y: 328.5965576171875
z: -0.01214600633829832
","x: 196.6809844970703
y: 324.40447998046875
z: -0.006290695164352655
","x: 198.44467163085938
y: 329.11151123046875
z: -0.009116193279623985
","x: 199.8349609375
y: 332.2787780761719
z: -0.010595864616334438
","x: 201.13442993164062
y: 334.96270751953125
z: -0.011718018911778927
","x: 195.9494171142578
y: 326.9573974609375
z: -0.006339194253087044
","x: 197.6950225830078
y: 332.0821838378906
z: -0.009077226743102074
","x: 198.95968627929688
y: 335.23248291015625
z: -0.010451976209878922
","x: 200.07032775878906
y: 337.7594299316406
z: -0.011334429495036602
","x: 195.2420654296875
y: 328.5119934082031
z: -0.006670486181974411
","x: 196.45834350585938
y: 333.2975769042969
z: -0.00870518945157528
","x: 197.2658233642578
y: 336.4185791015625
z: -0.00974315032362938
","x: 198.03555297851562
y: 338.97637939453125
z: -0.010489111766219139
","x: 243.54071044921875
y: 247.69656372070312
z: 0.0
","x: 242.45289611816406
y: 241.93716430664062
z: -0.0013141176896169782
","x: 240.0227508544922
y: 237.94046020507812
z: -0.002546474104747176
","x: 238.1278076171875
y: 235.24903869628906
z: -0.00386337679810822
","x: 237.03839111328125
y: 232.484130859375
z: -0.005123297683894634
","x: 233.82440185546875
y: 242.1478271484375
z: -0.0019705137237906456
","x: 229.1281280517578
y: 241.97320556640625
z: -0.003635979723185301
","x: 226.6268310546875
y: 242.39169311523438
z: -0.004638179205358028
","x: 224.7799530029297
y: 243.1119384765625
z: -0.0052182055078446865
","x: 233.2542266845703
y: 246.17918395996094
z: -0.0027561127208173275
","x: 227.93133544921875
y: 247.62313842773438
z: -0.003901652293279767
","x: 225.04751586914062
y: 249.07086181640625
z: -0.004604767542332411
","x: 222.9012451171875
y: 250.84652709960938
z: -0.0052930088713765144
","x: 233.48704528808594
y: 250.04957580566406
z: -0.003750311676412821
","x: 228.78887939453125
y: 251.8696746826172
z: -0.005521307699382305
","x: 226.04354858398438
y: 253.42233276367188
z: -0.006859492044895887
","x: 223.89109802246094
y: 255.1903533935547
z: -0.007757068611681461
","x: 234.3607177734375
y: 253.65615844726562
z: -0.004925242625176907
","x: 231.2388458251953
y: 255.70632934570312
z: -0.006774078588932753
","x: 229.5054931640625
y: 257.3589782714844
z: -0.007737116888165474
","x: 228.26675415039062
y: 259.0913391113281
z: -0.008338648825883865
"
18,"x: 220.66978454589844
y: 195.3762969970703
z: -0.24200132489204407
visibility: 0.9961727261543274
","x: 223.61854553222656
y: 187.11351013183594
z: -0.2234356701374054
visibility: 0.9911144971847534
","x: 225.2396697998047
y: 186.98167419433594
z: -0.2234821617603302
visibility: 0.9909415245056152
","x: 226.97763061523438
y: 186.93728637695312
z: -0.22350704669952393
visibility: 0.9906455278396606
","x: 219.25445556640625
y: 187.782470703125
z: -0.22092339396476746
visibility: 0.9919692873954773
","x: 217.7694854736328
y: 188.0133056640625
z: -0.22092024981975555
visibility: 0.9931891560554504
","x: 216.3311767578125
y: 188.15956115722656
z: -0.22089345753192902
visibility: 0.9935073852539062
","x: 230.35911560058594
y: 190.57061767578125
z: -0.11088492721319199
visibility: 0.9859532117843628
","x: 215.1859130859375
y: 190.0981903076172
z: -0.09861086308956146
visibility: 0.9863962531089783
","x: 223.7720489501953
y: 202.24977111816406
z: -0.19958770275115967
visibility: 0.9896544218063354
","x: 218.3204345703125
y: 202.90090942382812
z: -0.19639155268669128
visibility: 0.989495575428009
","x: 242.6650390625
y: 239.29257202148438
z: -0.06542286276817322
visibility: 0.9961643815040588
","x: 202.76370239257812
y: 238.69398498535156
z: -0.007102268282324076
visibility: 0.9980512261390686
","x: 259.6446533203125
y: 289.65234375
z: -0.18879760801792145
visibility: 0.8174172043800354
","x: 190.67221069335938
y: 289.3917541503906
z: -0.03080226108431816
visibility: 0.9458842873573303
","x: 242.24212646484375
y: 254.78424072265625
z: -0.3933725357055664
visibility: 0.7557290196418762
","x: 192.62232971191406
y: 306.42523193359375
z: -0.2033584862947464
visibility: 0.9662398099899292
","x: 235.62213134765625
y: 252.62330627441406
z: -0.44456642866134644
visibility: 0.7241312265396118
","x: 194.10678100585938
y: 319.4808654785156
z: -0.2425306737422943
visibility: 0.9386561512947083
","x: 233.4466552734375
y: 245.2712860107422
z: -0.43449869751930237
visibility: 0.7295386791229248
","x: 196.39700317382812
y: 313.9739685058594
z: -0.26074400544166565
visibility: 0.9387662410736084
","x: 234.5522003173828
y: 245.20877075195312
z: -0.3935621380805969
visibility: 0.7220160961151123
","x: 196.66033935546875
y: 309.322998046875
z: -0.2145649939775467
visibility: 0.91500324010849
","x: 228.61990356445312
y: 349.49896240234375
z: -0.03273876756429672
visibility: 0.9984616041183472
","x: 207.95730590820312
y: 347.647216796875
z: 0.03274843096733093
visibility: 0.9988267421722412
","x: 223.03497314453125
y: 426.1020202636719
z: 0.004490192513912916
visibility: 0.9804285168647766
","x: 212.3857421875
y: 423.1951599121094
z: 0.012969866394996643
visibility: 0.9693275094032288
","x: 213.3314666748047
y: 498.1542663574219
z: 0.17282548546791077
visibility: 0.9773919582366943
","x: 225.1581268310547
y: 500.8868103027344
z: 0.18711648881435394
visibility: 0.9755426049232483
","x: 214.14010620117188
y: 506.553955078125
z: 0.18266716599464417
visibility: 0.8453206419944763
","x: 233.93307495117188
y: 516.667724609375
z: 0.2024599015712738
visibility: 0.83514404296875
","x: 212.1079559326172
y: 525.5755004882812
z: 0.06062867119908333
visibility: 0.9728425741195679
","x: 216.6619873046875
y: 528.09375
z: 0.07160507887601852
visibility: 0.9724847674369812
","x: 192.8529510498047
y: 316.31005859375
z: 0.0
","x: 194.6492156982422
y: 312.6949768066406
z: -0.003650139784440398
","x: 197.07276916503906
y: 311.10369873046875
z: -0.006897928658872843
","x: 199.2351837158203
y: 309.7637634277344
z: -0.009864522144198418
","x: 200.8450164794922
y: 308.2296142578125
z: -0.01290610060095787
","x: 197.40882873535156
y: 320.7417297363281
z: -0.006385442800819874
","x: 199.0662841796875
y: 323.9398193359375
z: -0.00935271754860878
","x: 200.18894958496094
y: 326.38726806640625
z: -0.011074625886976719
","x: 201.20538330078125
y: 328.5965576171875
z: -0.01214600633829832
","x: 196.6809844970703
y: 324.40447998046875
z: -0.006290695164352655
","x: 198.44467163085938
y: 329.11151123046875
z: -0.009116193279623985
","x: 199.8349609375
y: 332.2787780761719
z: -0.010595864616334438
","x: 201.13442993164062
y: 334.96270751953125
z: -0.011718018911778927
","x: 195.9494171142578
y: 326.9573974609375
z: -0.006339194253087044
","x: 197.6950225830078
y: 332.0821838378906
z: -0.009077226743102074
","x: 198.95968627929688
y: 335.23248291015625
z: -0.010451976209878922
","x: 200.07032775878906
y: 337.7594299316406
z: -0.011334429495036602
","x: 195.2420654296875
y: 328.5119934082031
z: -0.006670486181974411
","x: 196.45834350585938
y: 333.2975769042969
z: -0.00870518945157528
","x: 197.2658233642578
y: 336.4185791015625
z: -0.00974315032362938
","x: 198.03555297851562
y: 338.97637939453125
z: -0.010489111766219139
","x: 243.54071044921875
y: 247.69656372070312
z: 0.0
","x: 242.45289611816406
y: 241.93716430664062
z: -0.0013141176896169782
","x: 240.0227508544922
y: 237.94046020507812
z: -0.002546474104747176
","x: 238.1278076171875
y: 235.24903869628906
z: -0.00386337679810822
","x: 237.03839111328125
y: 232.484130859375
z: -0.005123297683894634
","x: 233.82440185546875
y: 242.1478271484375
z: -0.0019705137237906456
","x: 229.1281280517578
y: 241.97320556640625
z: -0.003635979723185301
","x: 226.6268310546875
y: 242.39169311523438
z: -0.004638179205358028
","x: 224.7799530029297
y: 243.1119384765625
z: -0.0052182055078446865
","x: 233.2542266845703
y: 246.17918395996094
z: -0.0027561127208173275
","x: 227.93133544921875
y: 247.62313842773438
z: -0.003901652293279767
","x: 225.04751586914062
y: 249.07086181640625
z: -0.004604767542332411
","x: 222.9012451171875
y: 250.84652709960938
z: -0.0052930088713765144
","x: 233.48704528808594
y: 250.04957580566406
z: -0.003750311676412821
","x: 228.78887939453125
y: 251.8696746826172
z: -0.005521307699382305
","x: 226.04354858398438
y: 253.42233276367188
z: -0.006859492044895887
","x: 223.89109802246094
y: 255.1903533935547
z: -0.007757068611681461
","x: 234.3607177734375
y: 253.65615844726562
z: -0.004925242625176907
","x: 231.2388458251953
y: 255.70632934570312
z: -0.006774078588932753
","x: 229.5054931640625
y: 257.3589782714844
z: -0.007737116888165474
","x: 228.26675415039062
y: 259.0913391113281
z: -0.008338648825883865
"
19,"x: 221.66578674316406
y: 190.9028778076172
z: -0.27235111594200134
visibility: 0.996554434299469
","x: 224.67283630371094
y: 184.15223693847656
z: -0.24768371880054474
visibility: 0.9919995069503784
","x: 226.27598571777344
y: 184.5712890625
z: -0.24791474640369415
visibility: 0.9918441772460938
","x: 227.9627685546875
y: 185.13623046875
z: -0.24802014231681824
visibility: 0.9915778636932373
","x: 220.42706298828125
y: 183.97239685058594
z: -0.24155083298683167
visibility: 0.992768406867981
","x: 219.01327514648438
y: 184.27114868164062
z: -0.24170248210430145
visibility: 0.9938653111457825
","x: 217.60931396484375
y: 184.60958862304688
z: -0.2417440414428711
visibility: 0.9941511154174805
","x: 231.29978942871094
y: 190.5696258544922
z: -0.1550900936126709
visibility: 0.9873537421226501
","x: 216.25396728515625
y: 189.2052001953125
z: -0.1444568932056427
visibility: 0.9877433776855469
","x: 224.66845703125
y: 199.89373779296875
z: -0.24224689602851868
visibility: 0.9906883239746094
","x: 219.01766967773438
y: 199.93020629882812
z: -0.210926815867424
visibility: 0.9905449151992798
","x: 244.43331909179688
y: 239.82208251953125
z: -0.1264682561159134
visibility: 0.9965466260910034
","x: 203.2580108642578
y: 239.81085205078125
z: -0.04495673254132271
visibility: 0.9982404112815857
","x: 254.68359375
y: 291.7701110839844
z: -0.2069433033466339
visibility: 0.8354963660240173
","x: 195.45257568359375
y: 292.5063171386719
z: -0.012605279684066772
visibility: 0.9426745772361755
","x: 238.76068115234375
y: 275.1058349609375
z: -0.40658965706825256
visibility: 0.7798333764076233
","x: 195.03648376464844
y: 327.2850341796875
z: -0.14544008672237396
visibility: 0.9619292616844177
","x: 233.80703735351562
y: 273.91888427734375
z: -0.4598168730735779
visibility: 0.750872015953064
","x: 194.1344451904297
y: 342.1916198730469
z: -0.18356433510780334
visibility: 0.9331626892089844
","x: 231.8977813720703
y: 277.6305847167969
z: -0.46713799238204956
visibility: 0.755740225315094
","x: 196.32901000976562
y: 339.2420654296875
z: -0.21208056807518005
visibility: 0.9336670637130737
","x: 232.58419799804688
y: 276.376220703125
z: -0.4122191369533539
visibility: 0.7482103109359741
","x: 197.53306579589844
y: 333.73638916015625
z: -0.1600658893585205
visibility: 0.9097404479980469
","x: 233.25
y: 349.2433166503906
z: -0.03041147254407406
visibility: 0.9985736608505249
","x: 211.7728271484375
y: 348.07470703125
z: 0.030456984415650368
visibility: 0.9989301562309265
","x: 223.9451904296875
y: 426.05596923828125
z: 0.0021703937090933323
visibility: 0.9791275858879089
","x: 214.1603546142578
y: 423.69757080078125
z: -0.04767898470163345
visibility: 0.9699252247810364
","x: 212.98635864257812
y: 498.5093688964844
z: 0.21436259150505066
visibility: 0.977367103099823
","x: 228.66819763183594
y: 503.1893615722656
z: 0.11650419235229492
visibility: 0.9768700003623962
","x: 209.61099243164062
y: 503.45196533203125
z: 0.22896775603294373
visibility: 0.8469148278236389
","x: 237.20887756347656
y: 520.2945556640625
z: 0.1259576678276062
visibility: 0.8465563654899597
","x: 211.29177856445312
y: 525.94189453125
z: 0.1031610369682312
visibility: 0.9727725386619568
","x: 218.78794860839844
y: 528.485595703125
z: -0.002602532971650362
visibility: 0.9738789200782776
","x: 195.91941833496094
y: 331.9737243652344
z: 0.0
","x: 193.9305419921875
y: 333.9192199707031
z: -0.0011444420088082552
","x: 192.434814453125
y: 337.7445983886719
z: -0.002851393772289157
","x: 192.3399658203125
y: 340.99249267578125
z: -0.005080368369817734
","x: 192.97622680664062
y: 343.6151428222656
z: -0.0071845026686787605
","x: 191.378173828125
y: 344.36944580078125
z: -0.0024063813034445047
","x: 190.52008056640625
y: 351.7471618652344
z: -0.005112120881676674
","x: 190.6750946044922
y: 353.51824951171875
z: -0.00633487431332469
","x: 191.06077575683594
y: 353.764404296875
z: -0.006916623096913099
","x: 193.11434936523438
y: 344.63214111328125
z: -0.003930492326617241
","x: 192.96717834472656
y: 353.3351135253906
z: -0.007047735620290041
","x: 193.1458282470703
y: 353.0957336425781
z: -0.007663881406188011
","x: 193.45240783691406
y: 351.0063171386719
z: -0.007406160701066256
","x: 195.01885986328125
y: 344.0263671875
z: -0.005764886271208525
","x: 195.6485595703125
y: 351.135009765625
z: -0.00814179889857769
","x: 195.91036987304688
y: 349.2476806640625
z: -0.007515948265790939
","x: 195.99697875976562
y: 346.6436767578125
z: -0.0066015226766467094
","x: 197.0530548095703
y: 342.5584716796875
z: -0.007910474203526974
","x: 197.7357635498047
y: 347.97857666015625
z: -0.009290331043303013
","x: 197.7689208984375
y: 347.1710510253906
z: -0.008836251683533192
","x: 197.5876007080078
y: 345.3306884765625
z: -0.008170129731297493
",,,,,,,,,,,,,,,,,,,,,
20,"x: 221.66578674316406
y: 190.9028778076172
z: -0.27235111594200134
visibility: 0.996554434299469
","x: 224.67283630371094
y: 184.15223693847656
z: -0.24768371880054474
visibility: 0.9919995069503784
","x: 226.27598571777344
y: 184.5712890625
z: -0.24791474640369415
visibility: 0.9918441772460938
","x: 227.9627685546875
y: 185.13623046875
z: -0.24802014231681824
visibility: 0.9915778636932373
","x: 220.42706298828125
y: 183.97239685058594
z: -0.24155083298683167
visibility: 0.992768406867981
","x: 219.01327514648438
y: 184.27114868164062
z: -0.24170248210430145
visibility: 0.9938653111457825
","x: 217.60931396484375
y: 184.60958862304688
z: -0.2417440414428711
visibility: 0.9941511154174805
","x: 231.29978942871094
y: 190.5696258544922
z: -0.1550900936126709
visibility: 0.9873537421226501
","x: 216.25396728515625
y: 189.2052001953125
z: -0.1444568932056427
visibility: 0.9877433776855469
","x: 224.66845703125
y: 199.89373779296875
z: -0.24224689602851868
visibility: 0.9906883239746094
","x: 219.01766967773438
y: 199.93020629882812
z: -0.210926815867424
visibility: 0.9905449151992798
","x: 244.43331909179688
y: 239.82208251953125
z: -0.1264682561159134
visibility: 0.9965466260910034
","x: 203.2580108642578
y: 239.81085205078125
z: -0.04495673254132271
visibility: 0.9982404112815857
","x: 254.68359375
y: 291.7701110839844
z: -0.2069433033466339
visibility: 0.8354963660240173
","x: 195.45257568359375
y: 292.5063171386719
z: -0.012605279684066772
visibility: 0.9426745772361755
","x: 238.76068115234375
y: 275.1058349609375
z: -0.40658965706825256
visibility: 0.7798333764076233
","x: 195.03648376464844
y: 327.2850341796875
z: -0.14544008672237396
visibility: 0.9619292616844177
","x: 233.80703735351562
y: 273.91888427734375
z: -0.4598168730735779
visibility: 0.750872015953064
","x: 194.1344451904297
y: 342.1916198730469
z: -0.18356433510780334
visibility: 0.9331626892089844
","x: 231.8977813720703
y: 277.6305847167969
z: -0.46713799238204956
visibility: 0.755740225315094
","x: 196.32901000976562
y: 339.2420654296875
z: -0.21208056807518005
visibility: 0.9336670637130737
","x: 232.58419799804688
y: 276.376220703125
z: -0.4122191369533539
visibility: 0.7482103109359741
","x: 197.53306579589844
y: 333.73638916015625
z: -0.1600658893585205
visibility: 0.9097404479980469
","x: 233.25
y: 349.2433166503906
z: -0.03041147254407406
visibility: 0.9985736608505249
","x: 211.7728271484375
y: 348.07470703125
z: 0.030456984415650368
visibility: 0.9989301562309265
","x: 223.9451904296875
y: 426.05596923828125
z: 0.0021703937090933323
visibility: 0.9791275858879089
","x: 214.1603546142578
y: 423.69757080078125
z: -0.04767898470163345
visibility: 0.9699252247810364
","x: 212.98635864257812
y: 498.5093688964844
z: 0.21436259150505066
visibility: 0.977367103099823
","x: 228.66819763183594
y: 503.1893615722656
z: 0.11650419235229492
visibility: 0.9768700003623962
","x: 209.61099243164062
y: 503.45196533203125
z: 0.22896775603294373
visibility: 0.8469148278236389
","x: 237.20887756347656
y: 520.2945556640625
z: 0.1259576678276062
visibility: 0.8465563654899597
","x: 211.29177856445312
y: 525.94189453125
z: 0.1031610369682312
visibility: 0.9727725386619568
","x: 218.78794860839844
y: 528.485595703125
z: -0.002602532971650362
visibility: 0.9738789200782776
","x: 195.91941833496094
y: 331.9737243652344
z: 0.0
","x: 193.9305419921875
y: 333.9192199707031
z: -0.0011444420088082552
","x: 192.434814453125
y: 337.7445983886719
z: -0.002851393772289157
","x: 192.3399658203125
y: 340.99249267578125
z: -0.005080368369817734
","x: 192.97622680664062
y: 343.6151428222656
z: -0.0071845026686787605
","x: 191.378173828125
y: 344.36944580078125
z: -0.0024063813034445047
","x: 190.52008056640625
y: 351.7471618652344
z: -0.005112120881676674
","x: 190.6750946044922
y: 353.51824951171875
z: -0.00633487431332469
","x: 191.06077575683594
y: 353.764404296875
z: -0.006916623096913099
","x: 193.11434936523438
y: 344.63214111328125
z: -0.003930492326617241
","x: 192.96717834472656
y: 353.3351135253906
z: -0.007047735620290041
","x: 193.1458282470703
y: 353.0957336425781
z: -0.007663881406188011
","x: 193.45240783691406
y: 351.0063171386719
z: -0.007406160701066256
","x: 195.01885986328125
y: 344.0263671875
z: -0.005764886271208525
","x: 195.6485595703125
y: 351.135009765625
z: -0.00814179889857769
","x: 195.91036987304688
y: 349.2476806640625
z: -0.007515948265790939
","x: 195.99697875976562
y: 346.6436767578125
z: -0.0066015226766467094
","x: 197.0530548095703
y: 342.5584716796875
z: -0.007910474203526974
","x: 197.7357635498047
y: 347.97857666015625
z: -0.009290331043303013
","x: 197.7689208984375
y: 347.1710510253906
z: -0.008836251683533192
","x: 197.5876007080078
y: 345.3306884765625
z: -0.008170129731297493
",,,,,,,,,,,,,,,,,,,,,
21,"x: 221.19680786132812
y: 191.1561279296875
z: -0.2882288694381714
visibility: 0.9968977570533752
","x: 224.2637939453125
y: 184.2257080078125
z: -0.2685527503490448
visibility: 0.9927955269813538
","x: 225.9325408935547
y: 184.63369750976562
z: -0.2686559855937958
visibility: 0.9926556944847107
","x: 227.6002960205078
y: 185.21493530273438
z: -0.2687097191810608
visibility: 0.9924153089523315
","x: 219.84336853027344
y: 184.093505859375
z: -0.2662345767021179
visibility: 0.9934872984886169
","x: 218.48228454589844
y: 184.39614868164062
z: -0.26630306243896484
visibility: 0.9944744110107422
","x: 217.21998596191406
y: 184.73818969726562
z: -0.26632505655288696
visibility: 0.9947314858436584
","x: 230.88429260253906
y: 190.64515686035156
z: -0.16186119616031647
visibility: 0.9886128902435303
","x: 216.24363708496094
y: 189.3485107421875
z: -0.15129530429840088
visibility: 0.9889534711837769
","x: 224.5130157470703
y: 200.1461944580078
z: -0.24936695396900177
visibility: 0.9916180968284607
","x: 218.59263610839844
y: 200.27078247070312
z: -0.2377088963985443
visibility: 0.9914883375167847
","x: 244.80288696289062
y: 240.7275390625
z: -0.11967148631811142
visibility: 0.9968873858451843
","x: 203.66783142089844
y: 241.2476348876953
z: -0.05270365625619888
visibility: 0.9984019994735718
","x: 254.0347442626953
y: 292.47076416015625
z: -0.18035051226615906
visibility: 0.8515551090240479
","x: 192.97064208984375
y: 300.289794921875
z: -0.11029915511608124
visibility: 0.9438735246658325
","x: 238.24119567871094
y: 299.6688537597656
z: -0.37779632210731506
visibility: 0.801281750202179
","x: 194.28668212890625
y: 293.98602294921875
z: -0.3735380172729492
visibility: 0.9647088050842285
","x: 234.1748046875
y: 310.85980224609375
z: -0.42708054184913635
visibility: 0.7742879986763
","x: 194.12054443359375
y: 287.52655029296875
z: -0.42599040269851685
visibility: 0.9381942749023438
","x: 231.0865020751953
y: 305.6516418457031
z: -0.42651432752609253
visibility: 0.7786189913749695
","x: 195.54290771484375
y: 279.4870910644531
z: -0.4360954165458679
visibility: 0.9386335015296936
","x: 231.72439575195312
y: 301.169189453125
z: -0.3924197256565094
visibility: 0.7708536982536316
","x: 196.57232666015625
y: 280.20318603515625
z: -0.3832213878631592
visibility: 0.9161930084228516
","x: 233.8822479248047
y: 349.0244140625
z: -0.028411293402314186
visibility: 0.9986573457717896
","x: 211.4538116455078
y: 348.29241943359375
z: 0.028518367558717728
visibility: 0.9990150332450867
","x: 224.38856506347656
y: 426.2978515625
z: -0.006358074489980936
visibility: 0.9782668948173523
","x: 214.32179260253906
y: 426.7647705078125
z: -0.0372624397277832
visibility: 0.9695437550544739
