uscmakers/ReverseChoreography/data/9_levitating_dua_lipa.csv
,NOSE,LEFT_EYE_INNER,LEFT_EYE,LEFT_EYE_OUTER,RIGHT_EYE_INNER,RIGHT_EYE,RIGHT_EYE_OUTER,LEFT_EAR,RIGHT_EAR,MOUTH_LEFT,MOUTH_RIGHT,LEFT_SHOULDER,RIGHT_SHOULDER,LEFT_ELBOW,RIGHT_ELBOW,LEFT_WRIST,RIGHT_WRIST,LEFT_PINKY,RIGHT_PINKY,LEFT_INDEX,RIGHT_INDEX,LEFT_THUMB,RIGHT_THUMB,LEFT_HIP,RIGHT_HIP,LEFT_KNEE,RIGHT_KNEE,LEFT_ANKLE,RIGHT_ANKLE,LEFT_HEEL,RIGHT_HEEL,LEFT_FOOT_INDEX,RIGHT_FOOT_INDEX,WRIST2,THUMB_CPC2,THUMB_MCP2,THUMB_IP2,THUMB_TIP2,INDEX_FINGER_MCP2,INDEX_FINGER_PIP2,INDEX_FINGER_DIP2,INDEX_FINGER_TIP2,MIDDLE_FINGER_MCP2,MIDDLE_FINGER_PIP2,MIDDLE_FINGER_DIP2,MIDDLE_FINGER_TIP2,RING_FINGER_PIP2,RING_FINGER_DIP2,RING_FINGER_TIP2,RING_FINGER_MCP2,PINKY_MCP2,PINKY_PIP2,PINKY_DIP2,PINKY_TIP2,WRIST,THUMB_CPC,THUMB_MCP,THUMB_IP,THUMB_TIP,INDEX_FINGER_MCP,INDEX_FINGER_PIP,INDEX_FINGER_DIP,INDEX_FINGER_TIP,MIDDLE_FINGER_MCP,MIDDLE_FINGER_PIP,MIDDLE_FINGER_DIP,MIDDLE_FINGER_TIP,RING_FINGER_PIP,RING_FINGER_DIP,RING_FINGER_TIP,RING_FINGER_MCP,PINKY_MCP,PINKY_PIP,PINKY_DIP,PINKY_TIP
0,"x: 212.95346069335938
y: 204.76600646972656
z: -0.23150734603405
visibility: 0.9999731779098511
","x: 216.0388641357422
y: 197.7689971923828
z: -0.21632401645183563
visibility: 0.999915599822998
","x: 217.68667602539062
y: 197.95835876464844
z: -0.2163739949464798
visibility: 0.9999254941940308
","x: 219.2171630859375
y: 198.14195251464844
z: -0.2164037525653839
visibility: 0.9999207258224487
","x: 211.8159942626953
y: 196.84471130371094
z: -0.21306923031806946
visibility: 0.999852180480957
","x: 210.60250854492188
y: 196.5499267578125
z: -0.21303454041481018
visibility: 0.9998067021369934
","x: 209.4469451904297
y: 196.29421997070312
z: -0.21298643946647644
visibility: 0.9997846484184265
","x: 221.77310180664062
y: 201.08511352539062
z: -0.10564441978931427
visibility: 0.999894380569458
","x: 207.9847412109375
y: 198.3721160888672
z: -0.08968723565340042
visibility: 0.9995965361595154
","x: 215.4283447265625
y: 211.84451293945312
z: -0.18878009915351868
visibility: 0.9999585151672363
","x: 210.16346740722656
y: 211.46755981445312
z: -0.1842041015625
visibility: 0.9999387264251709
","x: 232.84510803222656
y: 244.28469848632812
z: -0.04981137439608574
visibility: 0.9999850988388062
","x: 191.9583282470703
y: 241.24737548828125
z: 0.01447758637368679
visibility: 0.9999343156814575
","x: 236.3195037841797
y: 295.32525634765625
z: -0.12161092460155487
visibility: 0.984571099281311
","x: 183.58763122558594
y: 291.28179931640625
z: 0.03190241754055023
visibility: 0.9688891172409058
","x: 249.67640686035156
y: 290.6314392089844
z: -0.3475703001022339
visibility: 0.9926109910011292
","x: 173.72262573242188
y: 317.99700927734375
z: -0.11062701046466827
visibility: 0.9880096316337585
","x: 254.56427001953125
y: 292.39306640625
z: -0.40128380060195923
visibility: 0.986493706703186
","x: 169.38592529296875
y: 330.77191162109375
z: -0.143801748752594
visibility: 0.975934624671936
","x: 254.84373474121094
y: 287.3363342285156
z: -0.4228472113609314
visibility: 0.9875782132148743
","x: 169.43795776367188
y: 330.2005615234375
z: -0.17726531624794006
visibility: 0.9783904552459717
","x: 252.6239471435547
y: 286.74981689453125
z: -0.36316588521003723
visibility: 0.9823800325393677
","x: 171.41384887695312
y: 326.31768798828125
z: -0.12900814414024353
visibility: 0.9760011434555054
","x: 223.6277618408203
y: 347.8616638183594
z: -0.027015158906579018
visibility: 0.9995529055595398
","x: 201.02320861816406
y: 347.45849609375
z: 0.027162659913301468
visibility: 0.9995162487030029
","x: 222.60195922851562
y: 426.77587890625
z: -0.043376803398132324
visibility: 0.9927721619606018
","x: 201.5449676513672
y: 428.4640197753906
z: 0.024475736543536186
visibility: 0.9882915616035461
","x: 223.47596740722656
y: 500.375244140625
z: 0.12571191787719727
visibility: 0.9908702969551086
","x: 211.72230529785156
y: 501.6222839355469
z: 0.19192346930503845
visibility: 0.9891626834869385
","x: 224.7131805419922
y: 512.6922607421875
z: 0.1354067623615265
visibility: 0.8712620735168457
","x: 216.13339233398438
y: 513.0089111328125
z: 0.20093008875846863
visibility: 0.9414753913879395
","x: 216.8717498779297
y: 520.2230224609375
z: 0.00583675829693675
visibility: 0.9873879551887512
","x: 202.80517578125
y: 520.893798828125
z: 0.0869952067732811
visibility: 0.9864261150360107
",,,,,,,,,,,,,,,,,,,,,,,,,,,,,,,,,,,,,,,,,,
1,"x: 217.6879119873047
y: 204.70745849609375
z: -0.31926044821739197
visibility: 0.9999741315841675
","x: 219.85552978515625
y: 197.756591796875
z: -0.3021135628223419
visibility: 0.9999171495437622
","x: 221.05503845214844
y: 197.9438934326172
z: -0.3021228611469269
visibility: 0.9999258518218994
","x: 222.1971893310547
y: 198.123779296875
z: -0.30213847756385803
visibility: 0.9999212622642517
","x: 216.26815795898438
y: 196.81593322753906
z: -0.30861377716064453
visibility: 0.9998603463172913
","x: 214.8182373046875
y: 196.4824676513672
z: -0.3086397051811218
visibility: 0.9998189806938171
","x: 213.34033203125
y: 196.17234802246094
z: -0.30866196751594543
visibility: 0.999798059463501
","x: 222.7935791015625
y: 201.06878662109375
z: -0.18691186606884003
visibility: 0.9998923540115356
","x: 209.66275024414062
y: 198.076416015625
z: -0.21860626339912415
visibility: 0.9996228814125061
","x: 218.7482452392578
y: 211.80874633789062
z: -0.27448493242263794
visibility: 0.9999588131904602
","x: 214.187255859375
y: 211.38059997558594
z: -0.28387027978897095
visibility: 0.9999408721923828
","x: 231.9434814453125
y: 244.74896240234375
z: -0.10690668970346451
visibility: 0.9999832510948181
","x: 192.02191162109375
y: 240.49490356445312
z: -0.13028009235858917
visibility: 0.9999338984489441
","x: 237.22500610351562
y: 295.8526306152344
z: -0.056186508387327194
visibility: 0.9843199849128723
","x: 184.73057556152344
y: 290.1956787109375
z: -0.11523190885782242
visibility: 0.9684015512466431
","x: 252.8120880126953
y: 329.3310852050781
z: -0.15262241661548615
visibility: 0.9904559850692749
","x: 190.39041137695312
y: 324.905029296875
z: -0.21723392605781555
visibility: 0.9839113354682922
","x: 258.4793395996094
y: 342.31732177734375
z: -0.17686724662780762
visibility: 0.9824776649475098
","x: 189.95126342773438
y: 338.0019836425781
z: -0.2434864044189453
visibility: 0.9692432284355164
","x: 258.820556640625
y: 342.7996520996094
z: -0.21495398879051208
visibility: 0.9841107130050659
","x: 192.9242706298828
y: 335.936279296875
z: -0.27566224336624146
visibility: 0.9721914529800415
","x: 256.14630126953125
y: 338.5377502441406
z: -0.17018350958824158
visibility: 0.9784202575683594
","x: 194.22422790527344
y: 331.22882080078125
z: -0.23168079555034637
visibility: 0.9682725667953491
","x: 224.294921875
y: 345.1244812011719
z: -0.01008293591439724
visibility: 0.999524712562561
","x: 202.20965576171875
y: 346.3856506347656
z: 0.010082598775625229
visibility: 0.9994699954986572
","x: 223.48667907714844
y: 424.25274658203125
z: -0.05830676481127739
visibility: 0.9925078749656677
","x: 201.64410400390625
y: 425.6259460449219
z: 0.008449426852166653
visibility: 0.9866936802864075
","x: 221.13404846191406
y: 500.3030700683594
z: 0.04788336902856827
visibility: 0.9905184507369995
","x: 210.7938995361328
y: 499.804443359375
z: 0.1283027082681656
visibility: 0.9879730343818665
","x: 221.7682342529297
y: 512.5233764648438
z: 0.04969891160726547
visibility: 0.8668035864830017
","x: 213.68960571289062
y: 510.367431640625
z: 0.13140788674354553
visibility: 0.9337696433067322
","x: 216.1749267578125
y: 520.1604614257812
z: -0.08198316395282745
visibility: 0.9869730472564697
","x: 202.9712371826172
y: 519.31005859375
z: 0.011439502239227295
visibility: 0.9854279160499573
",,,,,,,,,,,,,,,,,,,,,,,,,,,,,,,,,,,,,,,,,,
2,"x: 220.0556182861328
y: 204.70831298828125
z: -0.31842318177223206
visibility: 0.999975860118866
","x: 222.39202880859375
y: 197.7703857421875
z: -0.30046454071998596
visibility: 0.9999222159385681
","x: 223.63014221191406
y: 197.96937561035156
z: -0.3004642128944397
visibility: 0.9999299645423889
","x: 224.791748046875
y: 198.16712951660156
z: -0.300464928150177
visibility: 0.9999255537986755
","x: 218.5364532470703
y: 196.8247833251953
z: -0.3055418133735657
visibility: 0.9998709559440613
","x: 217.05996704101562
y: 196.48928833007812
z: -0.30557507276535034
visibility: 0.9998336434364319
","x: 215.55068969726562
y: 196.17626953125
z: -0.30559590458869934
visibility: 0.9998144507408142
","x: 225.40721130371094
y: 201.2361297607422
z: -0.1842222958803177
visibility: 0.9998971223831177
","x: 211.78318786621094
y: 198.13363647460938
z: -0.20978398621082306
visibility: 0.9996539354324341
","x: 221.12635803222656
y: 211.8728790283203
z: -0.27392470836639404
visibility: 0.9999608397483826
","x: 216.6418914794922
y: 211.4458465576172
z: -0.2815919518470764
visibility: 0.9999447464942932
","x: 232.7696990966797
y: 247.4638671875
z: -0.10583071410655975
visibility: 0.9999807476997375
","x: 193.99417114257812
y: 240.46810913085938
z: -0.12279099225997925
visibility: 0.9999333024024963
","x: 239.2235870361328
y: 300.7857666015625
z: -0.049467358738183975
visibility: 0.9841540455818176
","x: 185.45474243164062
y: 288.0956726074219
z: -0.1231188029050827
visibility: 0.9684441685676575
","x: 253.01853942871094
y: 339.63677978515625
z: -0.14241614937782288
visibility: 0.9885554909706116
","x: 190.55636596679688
y: 322.02313232421875
z: -0.2520061731338501
visibility: 0.9813947081565857
","x: 259.1868591308594
y: 353.3163757324219
z: -0.1657750904560089
visibility: 0.9788426160812378
","x: 190.27987670898438
y: 333.1054382324219
z: -0.28224584460258484
visibility: 0.9650100469589233
","x: 259.19384765625
y: 353.8624572753906
z: -0.20264318585395813
visibility: 0.9809314608573914
","x: 193.6890411376953
y: 328.5606689453125
z: -0.31135451793670654
visibility: 0.968308687210083
","x: 256.36358642578125
y: 350.09832763671875
z: -0.15926262736320496
visibility: 0.9749000668525696
","x: 194.60073852539062
y: 323.607421875
z: -0.26618728041648865
visibility: 0.9635283350944519
","x: 225.32029724121094
y: 344.9970703125
z: -0.007776937447488308
visibility: 0.9994997978210449
","x: 203.53541564941406
y: 345.87164306640625
z: 0.007733197417110205
visibility: 0.9994534254074097
","x: 224.45960998535156
y: 424.22052001953125
z: -0.035542700439691544
visibility: 0.9920598268508911
","x: 201.83473205566406
y: 424.6483154296875
z: -0.0031659204978495836
visibility: 0.9855854511260986
","x: 220.77430725097656
y: 500.1224060058594
z: 0.0822487398982048
visibility: 0.9900814890861511
","x: 210.1517791748047
y: 499.1054992675781
z: 0.1281934678554535
visibility: 0.9872021675109863
","x: 221.3155059814453
y: 511.7598876953125
z: 0.09023641049861908
visibility: 0.8598606586456299
","x: 212.84335327148438
y: 509.418701171875
z: 0.13307791948318481
visibility: 0.9268947243690491
","x: 216.0950469970703
y: 520.140380859375
z: -0.04163524508476257
visibility: 0.9864197969436646
","x: 203.7574462890625
y: 519.103515625
z: 0.013681990094482899
visibility: 0.9847543239593506
",,,,,,,,,,,,,,,,,,,,,,,,,,,,,,,,,,,,,,,,,,
3,"x: 221.07984924316406
y: 203.5395965576172
z: -0.37568825483322144
visibility: 0.999973714351654
","x: 223.60470581054688
y: 196.8157958984375
z: -0.35977059602737427
visibility: 0.999917209148407
","x: 225.05882263183594
y: 197.24798583984375
z: -0.3597868084907532
visibility: 0.9999254941940308
","x: 226.47265625
y: 197.64283752441406
z: -0.3598327934741974
visibility: 0.9999232292175293
","x: 219.31356811523438
y: 195.6788787841797
z: -0.3626484274864197
visibility: 0.9998666644096375
","x: 217.81915283203125
y: 195.45724487304688
z: -0.36268487572669983
visibility: 0.9998306035995483
","x: 216.291015625
y: 195.28750610351562
z: -0.36271244287490845
visibility: 0.9998108744621277
","x: 227.92835998535156
y: 201.18035888671875
z: -0.2466987818479538
visibility: 0.9998899698257446
","x: 213.5459747314453
y: 197.7471923828125
z: -0.2605774402618408
visibility: 0.9996347427368164
","x: 222.93551635742188
y: 211.27615356445312
z: -0.3317623734474182
visibility: 0.9999567270278931
","x: 217.84324645996094
y: 210.7711639404297
z: -0.3360314667224884
visibility: 0.9999364018440247
","x: 236.713623046875
y: 249.93927001953125
z: -0.16632410883903503
visibility: 0.9999741315841675
","x: 197.33680725097656
y: 241.25924682617188
z: -0.15628758072853088
visibility: 0.9998815655708313
","x: 242.69090270996094
y: 304.837646484375
z: -0.08228964358568192
visibility: 0.9838467240333557
","x: 191.53744506835938
y: 288.46356201171875
z: -0.095133475959301
visibility: 0.9563485980033875
","x: 246.70614624023438
y: 349.4548034667969
z: -0.16811008751392365
visibility: 0.9844826459884644
","x: 191.73394775390625
y: 327.3585510253906
z: -0.20473745465278625
visibility: 0.9553618431091309
","x: 248.74935913085938
y: 364.30584716796875
z: -0.18897047638893127
visibility: 0.9712342023849487
","x: 189.61427307128906
y: 343.3617858886719
z: -0.2236022651195526
visibility: 0.9317032694816589
","x: 246.35232543945312
y: 364.8206787109375
z: -0.22321827709674835
visibility: 0.9738727807998657
","x: 190.90032958984375
y: 342.9809265136719
z: -0.27302607893943787
visibility: 0.937156081199646
","x: 244.56973266601562
y: 359.5074462890625
z: -0.1822029948234558
visibility: 0.9662576913833618
","x: 192.59597778320312
y: 338.0304260253906
z: -0.22908155620098114
visibility: 0.9306925535202026
","x: 225.6675567626953
y: 345.57427978515625
z: -0.009335467591881752
visibility: 0.9994313716888428
","x: 203.8104248046875
y: 345.58099365234375
z: 0.009293006733059883
visibility: 0.9993491172790527
","x: 224.3502960205078
y: 425.3666687011719
z: -0.019206836819648743
visibility: 0.9906566143035889
","x: 202.26425170898438
y: 424.3348388671875
z: -0.0008628744399175048
visibility: 0.9833128452301025
","x: 220.8445587158203
y: 501.4398193359375
z: 0.0881667286157608
visibility: 0.9894867539405823
","x: 209.7193603515625
y: 499.3435974121094
z: 0.13407954573631287
visibility: 0.9860400557518005
","x: 221.5692901611328
y: 513.2582397460938
z: 0.098320372402668
visibility: 0.8488777279853821
","x: 212.38375854492188
y: 509.52825927734375
z: 0.13936689496040344
visibility: 0.9170354604721069
","x: 215.01109313964844
y: 521.379638671875
z: -0.029703941196203232
visibility: 0.9852249622344971
","x: 203.72889709472656
y: 519.4984130859375
z: 0.016054805368185043
visibility: 0.9836169481277466
",,,,,,,,,,,,,,,,,,,,,,,,,,,,,,,,,,,,,,,,,,
4,"x: 220.17906188964844
y: 202.5357666015625
z: -0.20481279492378235
visibility: 0.9999744892120361
","x: 222.9750518798828
y: 195.5377197265625
z: -0.1909799873828888
visibility: 0.9999216794967651
","x: 224.55294799804688
y: 196.0909881591797
z: -0.1910257637500763
visibility: 0.9999287128448486
","x: 226.06784057617188
y: 196.67807006835938
z: -0.1910540759563446
visibility: 0.9999269247055054
","x: 218.83364868164062
y: 194.51162719726562
z: -0.18638375401496887
visibility: 0.9998757243156433
","x: 217.4639892578125
y: 194.3655242919922
z: -0.18640092015266418
visibility: 0.9998422861099243
","x: 216.11471557617188
y: 194.25558471679688
z: -0.1863837093114853
visibility: 0.9998251795768738
","x: 228.3665313720703
y: 200.90130615234375
z: -0.09223622828722
visibility: 0.9998971819877625
","x: 214.6580810546875
y: 196.98611450195312
z: -0.07141683995723724
visibility: 0.9996610283851624
","x: 222.3717803955078
y: 210.61123657226562
z: -0.16704097390174866
visibility: 0.9999595880508423
","x: 217.4420166015625
y: 210.14700317382812
z: -0.16123154759407043
visibility: 0.999940812587738
","x: 238.1439666748047
y: 249.43634033203125
z: -0.05220918729901314
visibility: 0.9999729990959167
","x: 200.8922119140625
y: 240.66683959960938
z: 0.02182558923959732
visibility: 0.9998862743377686
","x: 241.67466735839844
y: 302.64141845703125
z: -0.07258923351764679
visibility: 0.9840314388275146
","x: 194.5703582763672
y: 287.6048583984375
z: 0.01225985400378704
visibility: 0.948309600353241
","x: 231.56121826171875
y: 330.86566162109375
z: -0.21343986690044403
visibility: 0.9827055335044861
","x: 188.34754943847656
y: 325.1363830566406
z: -0.17657269537448883
visibility: 0.952588677406311
","x: 230.13397216796875
y: 341.70648193359375
z: -0.25463128089904785
visibility: 0.9683477878570557
","x: 185.6221923828125
y: 331.6558532714844
z: -0.2122735232114792
visibility: 0.9292236566543579
","x: 226.78501892089844
y: 338.5877685546875
z: -0.2779800295829773
visibility: 0.9709281921386719
","x: 186.53411865234375
y: 328.431396484375
z: -0.24597688019275665
visibility: 0.9349202513694763
","x: 226.32147216796875
y: 335.21478271484375
z: -0.22548194229602814
visibility: 0.9616909027099609
","x: 188.2146759033203
y: 326.9033508300781
z: -0.19546546041965485
visibility: 0.9275747537612915
","x: 225.4277801513672
y: 345.64837646484375
z: -0.013842935673892498
visibility: 0.9994471073150635
","x: 203.6273956298828
y: 344.0829162597656
z: 0.013878029771149158
visibility: 0.9993798136711121
","x: 224.48171997070312
y: 425.5502624511719
z: -0.030509987846016884
visibility: 0.9905984401702881
","x: 202.20191955566406
y: 424.4581604003906
z: 0.001622118055820465
visibility: 0.9835243225097656
","x: 220.66921997070312
y: 501.63629150390625
z: 0.07171069085597992
visibility: 0.9894209504127502
","x: 208.41845703125
y: 499.89666748046875
z: 0.12110302597284317
visibility: 0.9861223101615906
","x: 221.53103637695312
y: 514.4317626953125
z: 0.07507835328578949
visibility: 0.848239004611969
","x: 212.020263671875
y: 512.1124877929688
z: 0.12411395460367203
visibility: 0.9157024621963501
","x: 214.52163696289062
y: 521.3447265625
z: -0.05722225457429886
visibility: 0.9849547743797302
","x: 201.96530151367188
y: 521.1796264648438
z: 0.0010722063016146421
visibility: 0.9833155274391174
",,,,,,,,,,,,,,,,,,,,,,,,,,,,,,,,,,,,,,,,,,
5,"x: 219.45401000976562
y: 198.90142822265625
z: -0.20045225322246552
visibility: 0.9999740719795227
","x: 222.2723388671875
y: 192.05690002441406
z: -0.18565228581428528
visibility: 0.9999229311943054
","x: 223.84564208984375
y: 192.42062377929688
z: -0.18571385741233826
visibility: 0.9999290704727173
","x: 225.35174560546875
y: 192.9291534423828
z: -0.18574054539203644
visibility: 0.9999280571937561
","x: 218.13528442382812
y: 191.8721160888672
z: -0.1808326244354248
visibility: 0.9998798370361328
","x: 216.78848266601562
y: 192.0377197265625
z: -0.18081286549568176
visibility: 0.9998469948768616
","x: 215.48106384277344
y: 192.19224548339844
z: -0.1808042824268341
visibility: 0.9998315572738647
","x: 227.814697265625
y: 198.45004272460938
z: -0.0882779210805893
visibility: 0.9999018907546997
","x: 214.19937133789062
y: 195.79771423339844
z: -0.06463204324245453
visibility: 0.9996722936630249
","x: 221.81964111328125
y: 207.4945068359375
z: -0.16394805908203125
visibility: 0.9999622702598572
","x: 216.69873046875
y: 207.53785705566406
z: -0.15733519196510315
visibility: 0.9999440312385559
","x: 238.92227172851562
y: 248.30125427246094
z: -0.054514992982149124
visibility: 0.9999737739562988
","x: 201.9104766845703
y: 240.65452575683594
z: 0.026728183031082153
visibility: 0.9998878836631775
","x: 241.67233276367188
y: 301.89453125
z: -0.13056811690330505
visibility: 0.9851753115653992
","x: 194.78076171875
y: 287.8482666015625
z: 0.037487346678972244
visibility: 0.9415868520736694
","x: 227.07656860351562
y: 301.65643310546875
z: -0.33567458391189575
visibility: 0.9838858842849731
","x: 186.8652801513672
y: 324.91009521484375
z: -0.1255323588848114
visibility: 0.9504138231277466
","x: 220.93331909179688
y: 303.7115173339844
z: -0.3854232430458069
visibility: 0.9703352451324463
","x: 183.6975555419922
y: 331.2652893066406
z: -0.16293582320213318
visibility: 0.926740288734436
","x: 218.8972930908203
y: 295.7723693847656
z: -0.3932797610759735
visibility: 0.9726690053939819
","x: 184.63143920898438
y: 328.633544921875
z: -0.19260361790657043
visibility: 0.9324487447738647
","x: 220.44883728027344
y: 294.2218322753906
z: -0.3420948386192322
visibility: 0.9633840918540955
","x: 186.3234100341797
y: 326.5284729003906
z: -0.14243322610855103
visibility: 0.924025297164917
","x: 225.35650634765625
y: 345.701416015625
z: -0.015223510563373566
visibility: 0.999444842338562
","x: 203.56117248535156
y: 343.7425537109375
z: 0.015238689258694649
visibility: 0.9993870258331299
","x: 224.43927001953125
y: 425.5147705078125
z: -0.032397810369729996
visibility: 0.9909994006156921
","x: 202.07041931152344
y: 424.5567626953125
z: 0.0012508108047768474
visibility: 0.9844684600830078
","x: 220.86524963378906
y: 500.3041076660156
z: 0.09919217973947525
visibility: 0.9896434545516968
","x: 207.345458984375
y: 499.72821044921875
z: 0.1382238119840622
visibility: 0.9866291880607605
","x: 221.677001953125
y: 512.4999389648438
z: 0.10640646517276764
visibility: 0.8491968512535095
","x: 211.29208374023438
y: 511.9344787597656
z: 0.14350929856300354
visibility: 0.9154563546180725
","x: 214.55612182617188
y: 521.3214111328125
z: -0.02577780745923519
visibility: 0.9850585460662842
","x: 201.3673095703125
y: 521.5274658203125
z: 0.023152003064751625
visibility: 0.9835377335548401
","x: 223.3814697265625
y: 290.9626770019531
z: 0.0
","x: 220.35772705078125
y: 285.09039306640625
z: 0.0009352635825052857
","x: 216.60183715820312
y: 282.359375
z: 0.00047014738083817065
","x: 213.7190704345703
y: 281.69134521484375
z: -0.0002912917407229543
","x: 211.54071044921875
y: 282.13092041015625
z: -0.0010273022344335914
","x: 214.8739013671875
y: 286.54986572265625
z: -0.0023268021177500486
","x: 210.45443725585938
y: 287.2355651855469
z: -0.003880925476551056
","x: 208.64566040039062
y: 288.20257568359375
z: -0.0038559348322451115
","x: 207.82644653320312
y: 289.0511779785156
z: -0.003588831052184105
","x: 215.33587646484375
y: 291.1269836425781
z: -0.004062965977936983
","x: 210.60995483398438
y: 292.42547607421875
z: -0.005398981273174286
","x: 208.7512969970703
y: 293.22760009765625
z: -0.004796048626303673
","x: 207.88841247558594
y: 293.6893310546875
z: -0.004325156565755606
","x: 216.21707153320312
y: 295.5950622558594
z: -0.005643302574753761
","x: 211.91807556152344
y: 297.3138427734375
z: -0.006978182587772608
","x: 210.1049041748047
y: 297.9970397949219
z: -0.0062100510112941265
","x: 209.2943115234375
y: 298.05108642578125
z: -0.005686257034540176
","x: 217.50466918945312
y: 299.5627136230469
z: -0.007179223466664553
","x: 214.33216857910156
y: 301.7788391113281
z: -0.008551107719540596
","x: 213.1690673828125
y: 302.21624755859375
z: -0.008150987327098846
","x: 212.76197814941406
y: 302.10528564453125
z: -0.0076598674058914185
",,,,,,,,,,,,,,,,,,,,,
6,"x: 219.45401000976562
y: 198.90142822265625
z: -0.20045225322246552
visibility: 0.9999740719795227
","x: 222.2723388671875
y: 192.05690002441406
z: -0.18565228581428528
visibility: 0.9999229311943054
","x: 223.84564208984375
y: 192.42062377929688
z: -0.18571385741233826
visibility: 0.9999290704727173
","x: 225.35174560546875
y: 192.9291534423828
z: -0.18574054539203644
visibility: 0.9999280571937561
","x: 218.13528442382812
y: 191.8721160888672
z: -0.1808326244354248
visibility: 0.9998798370361328
","x: 216.78848266601562
y: 192.0377197265625
z: -0.18081286549568176
visibility: 0.9998469948768616
","x: 215.48106384277344
y: 192.19224548339844
z: -0.1808042824268341
visibility: 0.9998315572738647
","x: 227.814697265625
y: 198.45004272460938
z: -0.0882779210805893
visibility: 0.9999018907546997
","x: 214.19937133789062
y: 195.79771423339844
z: -0.06463204324245453
visibility: 0.9996722936630249
","x: 221.81964111328125
y: 207.4945068359375
z: -0.16394805908203125
visibility: 0.9999622702598572
","x: 216.69873046875
y: 207.53785705566406
z: -0.15733519196510315
visibility: 0.9999440312385559
","x: 238.92227172851562
y: 248.30125427246094
z: -0.054514992982149124
visibility: 0.9999737739562988
","x: 201.9104766845703
y: 240.65452575683594
z: 0.026728183031082153
visibility: 0.9998878836631775
","x: 241.67233276367188
y: 301.89453125
z: -0.13056811690330505
visibility: 0.9851753115653992
","x: 194.78076171875
y: 287.8482666015625
z: 0.037487346678972244
visibility: 0.9415868520736694
","x: 227.07656860351562
y: 301.65643310546875
z: -0.33567458391189575
visibility: 0.9838858842849731
","x: 186.8652801513672
y: 324.91009521484375
z: -0.1255323588848114
visibility: 0.9504138231277466
","x: 220.93331909179688
y: 303.7115173339844
z: -0.3854232430458069
visibility: 0.9703352451324463
","x: 183.6975555419922
y: 331.2652893066406
z: -0.16293582320213318
visibility: 0.926740288734436
","x: 218.8972930908203
y: 295.7723693847656
z: -0.3932797610759735
visibility: 0.9726690053939819
","x: 184.63143920898438
y: 328.633544921875
z: -0.19260361790657043
visibility: 0.9324487447738647
","x: 220.44883728027344
y: 294.2218322753906
z: -0.3420948386192322
visibility: 0.9633840918540955
","x: 186.3234100341797
y: 326.5284729003906
z: -0.14243322610855103
visibility: 0.924025297164917
","x: 225.35650634765625
y: 345.701416015625
z: -0.015223510563373566
visibility: 0.999444842338562
","x: 203.56117248535156
y: 343.7425537109375
z: 0.015238689258694649
visibility: 0.9993870258331299
","x: 224.43927001953125
y: 425.5147705078125
z: -0.032397810369729996
visibility: 0.9909994006156921
","x: 202.07041931152344
y: 424.5567626953125
z: 0.0012508108047768474
visibility: 0.9844684600830078
","x: 220.86524963378906
y: 500.3041076660156
z: 0.09919217973947525
visibility: 0.9896434545516968
","x: 207.345458984375
y: 499.72821044921875
z: 0.1382238119840622
visibility: 0.9866291880607605
","x: 221.677001953125
y: 512.4999389648438
z: 0.10640646517276764
visibility: 0.8491968512535095
","x: 211.29208374023438
y: 511.9344787597656
z: 0.14350929856300354
visibility: 0.9154563546180725
","x: 214.55612182617188
y: 521.3214111328125
z: -0.02577780745923519
visibility: 0.9850585460662842
","x: 201.3673095703125
y: 521.5274658203125
z: 0.023152003064751625
visibility: 0.9835377335548401
","x: 223.3814697265625
y: 290.9626770019531
z: 0.0
","x: 220.35772705078125
y: 285.09039306640625
z: 0.0009352635825052857
","x: 216.60183715820312
y: 282.359375
z: 0.00047014738083817065
","x: 213.7190704345703
y: 281.69134521484375
z: -0.0002912917407229543
","x: 211.54071044921875
y: 282.13092041015625
z: -0.0010273022344335914
","x: 214.8739013671875
y: 286.54986572265625
z: -0.0023268021177500486
","x: 210.45443725585938
y: 287.2355651855469
z: -0.003880925476551056
","x: 208.64566040039062
y: 288.20257568359375
z: -0.0038559348322451115
","x: 207.82644653320312
y: 289.0511779785156
z: -0.003588831052184105
","x: 215.33587646484375
y: 291.1269836425781
z: -0.004062965977936983
","x: 210.60995483398438
y: 292.42547607421875
z: -0.005398981273174286
","x: 208.7512969970703
y: 293.22760009765625
z: -0.004796048626303673
","x: 207.88841247558594
y: 293.6893310546875
z: -0.004325156565755606
","x: 216.21707153320312
y: 295.5950622558594
z: -0.005643302574753761
","x: 211.91807556152344
y: 297.3138427734375
z: -0.006978182587772608
","x: 210.1049041748047
y: 297.9970397949219
z: -0.0062100510112941265
","x: 209.2943115234375
y: 298.05108642578125
z: -0.005686257034540176
","x: 217.50466918945312
y: 299.5627136230469
z: -0.007179223466664553
","x: 214.33216857910156
y: 301.7788391113281
z: -0.008551107719540596
","x: 213.1690673828125
y: 302.21624755859375
z: -0.008150987327098846
","x: 212.76197814941406
y: 302.10528564453125
z: -0.0076598674058914185
",,,,,,,,,,,,,,,,,,,,,
7,"x: 216.09478759765625
y: 196.73699951171875
z: -0.23706462979316711
visibility: 0.9999725818634033
","x: 218.86669921875
y: 190.26431274414062
z: -0.21881231665611267
visibility: 0.999919056892395
","x: 220.72772216796875
y: 190.66250610351562
z: -0.21891841292381287
visibility: 0.9999260306358337
","x: 222.52197265625
y: 191.18978881835938
z: -0.21897132694721222
visibility: 0.9999247193336487
","x: 214.45404052734375
y: 190.00912475585938
z: -0.20573215186595917
visibility: 0.9998763799667358
","x: 213.2737274169922
y: 190.21029663085938
z: -0.2056587040424347
visibility: 0.9998432397842407
","x: 212.0235137939453
y: 190.40052795410156
z: -0.2057531177997589
visibility: 0.9998247623443604
","x: 225.4053955078125
y: 196.64370727539062
z: -0.12090226262807846
visibility: 0.9999011158943176
","x: 210.9971923828125
y: 194.79806518554688
z: -0.0952945202589035
visibility: 0.9996662139892578
","x: 219.39028930664062
y: 205.35250854492188
z: -0.20108993351459503
visibility: 0.9999637007713318
","x: 213.43838500976562
y: 205.23313903808594
z: -0.1853863000869751
visibility: 0.9999446272850037
","x: 238.69473266601562
y: 245.2961883544922
z: -0.08898484706878662
visibility: 0.9999746680259705
","x: 201.4394989013672
y: 242.13482666015625
z: -0.0022207365836948156
visibility: 0.9998850226402283
","x: 241.71969604492188
y: 296.85772705078125
z: -0.19340233504772186
visibility: 0.9864437580108643
","x: 193.12257385253906
y: 293.71527099609375
z: 0.045787956565618515
visibility: 0.9374449849128723
","x: 223.56907653808594
y: 284.6288757324219
z: -0.4128616452217102
visibility: 0.9851223826408386
","x: 186.14328002929688
y: 335.2332763671875
z: -0.05565940588712692
visibility: 0.9448662400245667
","x: 216.64988708496094
y: 285.7235107421875
z: -0.46303385496139526
visibility: 0.9722378253936768
","x: 182.69525146484375
y: 347.4591064453125
z: -0.08216971904039383
visibility: 0.9178500771522522
","x: 214.55813598632812
y: 279.01995849609375
z: -0.4640423655509949
visibility: 0.9743096828460693
","x: 183.72422790527344
y: 347.03082275390625
z: -0.11458947509527206
visibility: 0.9236361384391785
","x: 216.4116973876953
y: 278.44189453125
z: -0.41662654280662537
visibility: 0.9649399518966675
","x: 185.28318786621094
y: 343.82177734375
z: -0.07116352766752243
visibility: 0.9131667017936707
","x: 225.28762817382812
y: 346.1712646484375
z: -0.01724966987967491
visibility: 0.9994486570358276
","x: 203.5186004638672
y: 344.3642578125
z: 0.01720784604549408
visibility: 0.9993908405303955
","x: 224.39608764648438
y: 425.5135498046875
z: -0.033535540103912354
visibility: 0.9911239147186279
","x: 202.01271057128906
y: 424.6033020019531
z: 0.0033629208337515593
visibility: 0.9850193858146667
","x: 220.90562438964844
y: 499.67779541015625
z: 0.14297820627689362
visibility: 0.9895676374435425
","x: 207.43698120117188
y: 499.96197509765625
z: 0.17542186379432678
visibility: 0.9868639707565308
","x: 221.78024291992188
y: 510.5368347167969
z: 0.15407995879650116
visibility: 0.8482010364532471
","x: 211.4416961669922
y: 511.9781799316406
z: 0.18501326441764832
visibility: 0.9134068489074707
","x: 214.90155029296875
y: 521.7862548828125
z: 0.020398693159222603
visibility: 0.9848600029945374
","x: 201.4583282470703
y: 522.99365234375
z: 0.05880563706159592
visibility: 0.9835036396980286
",,,,,,,,,,,,,,,,,,,,,,,,,,,,,,,,,,,,,,,,,,
8,"x: 211.91558837890625
y: 196.37225341796875
z: -0.2807876169681549
visibility: 0.9999696612358093
","x: 214.00234985351562
y: 189.59266662597656
z: -0.26372030377388
visibility: 0.9999139308929443
","x: 215.52810668945312
y: 189.7779998779297
z: -0.263788640499115
visibility: 0.9999227523803711
","x: 217.10499572753906
y: 190.1085662841797
z: -0.263858437538147
visibility: 0.9999228715896606
","x: 210.2479705810547
y: 189.9313507080078
z: -0.2592126727104187
visibility: 0.9998704791069031
","x: 209.03912353515625
y: 190.29600524902344
z: -0.25917506217956543
visibility: 0.9998361468315125
","x: 207.76121520996094
y: 190.60549926757812
z: -0.25918036699295044
visibility: 0.9998132586479187
","x: 219.95384216308594
y: 195.63671875
z: -0.16005738079547882
visibility: 0.9999024271965027
","x: 206.3323974609375
y: 194.86936950683594
z: -0.14120188355445862
visibility: 0.9996421337127686
","x: 214.97378540039062
y: 204.6392059326172
z: -0.24190644919872284
visibility: 0.9999647736549377
","x: 209.93479919433594
y: 204.67584228515625
z: -0.23569364845752716
visibility: 0.9999427199363708
","x: 234.41551208496094
y: 241.25502014160156
z: -0.11656184494495392
visibility: 0.9999763369560242
","x: 196.14527893066406
y: 242.85971069335938
z: -0.0326988510787487
visibility: 0.9998596906661987
","x: 243.65252685546875
y: 288.69415283203125
z: -0.19079172611236572
visibility: 0.9876574277877808
","x: 191.44888305664062
y: 295.3047790527344
z: 0.023968804627656937
visibility: 0.9291759133338928
","x: 225.1837158203125
y: 289.3653564453125
z: -0.3882378935813904
visibility: 0.9863157272338867
","x: 185.59732055664062
y: 337.2178649902344
z: -0.07319857180118561
visibility: 0.9313980937004089
","x: 219.93507385253906
y: 293.4052429199219
z: -0.4365816116333008
visibility: 0.9741143584251404
","x: 182.32237243652344
y: 351.9269104003906
z: -0.09997984021902084
visibility: 0.8987724184989929
","x: 217.0275115966797
y: 287.9214782714844
z: -0.44342049956321716
visibility: 0.9759705662727356
","x: 183.59426879882812
y: 351.98101806640625
z: -0.13087694346904755
visibility: 0.9048970341682434
","x: 218.34500122070312
y: 286.54168701171875
z: -0.3933556079864502
visibility: 0.9666672348976135
","x: 185.2617950439453
y: 347.39947509765625
z: -0.08784804493188858
visibility: 0.891617476940155
","x: 224.58059692382812
y: 343.8554382324219
z: -0.018904369324445724
visibility: 0.9994043707847595
","x: 203.1396942138672
y: 343.32476806640625
z: 0.01889001950621605
visibility: 0.9993101358413696
","x: 223.8133544921875
y: 424.2669982910156
z: -0.034540966153144836
visibility: 0.9911121726036072
","x: 202.00721740722656
y: 421.7892150878906
z: 0.006893237587064505
visibility: 0.9844126105308533
","x: 220.99232482910156
y: 498.515625
z: 0.1050865426659584
visibility: 0.9893158674240112
","x: 207.54727172851562
y: 500.0335388183594
z: 0.14352604746818542
visibility: 0.9860787987709045
","x: 221.72348022460938
y: 509.30224609375
z: 0.11073372513055801
visibility: 0.841237485408783
","x: 211.5379638671875
y: 511.9794006347656
z: 0.1477513462305069
visibility: 0.9051238894462585
","x: 215.17771911621094
y: 521.4435424804688
z: -0.02815253473818302
visibility: 0.9841408729553223
","x: 201.49508666992188
y: 523.4057006835938
z: 0.02262439765036106
visibility: 0.9820552468299866
","x: 225.96746826171875
y: 284.88616943359375
z: 0.0
","x: 221.6106414794922
y: 288.9615783691406
z: 0.0033504462335258722
","x: 217.16342163085938
y: 291.7476806640625
z: 0.0029339385218918324
","x: 214.12330627441406
y: 295.23199462890625
z: 0.0013380855089053512
","x: 212.05540466308594
y: 298.0771484375
z: 0.00038635992677882314
","x: 213.86727905273438
y: 286.7051086425781
z: 0.0015063104219734669
","x: 211.1390380859375
y: 295.7527160644531
z: -0.0005696671432815492
","x: 213.55267333984375
y: 297.3874206542969
z: -0.0008111141505651176
","x: 215.4117889404297
y: 296.010986328125
z: -0.0007513233576901257
","x: 214.7317352294922
y: 287.3150939941406
z: -0.0019893033895641565
","x: 212.7078399658203
y: 297.27618408203125
z: -0.003644515760242939
","x: 215.0618438720703
y: 297.82049560546875
z: -0.0026647280901670456
","x: 216.45692443847656
y: 295.8963317871094
z: -0.0019856023136526346
","x: 216.16470336914062
y: 288.9412841796875
z: -0.005524342879652977
","x: 214.495849609375
y: 297.96221923828125
z: -0.006719804834574461
","x: 216.6570281982422
y: 298.4784240722656
z: -0.0047074006870388985
","x: 217.88002014160156
y: 296.80853271484375
z: -0.00347900390625
","x: 217.87319946289062
y: 291.2957763671875
z: -0.008901960216462612
","x: 216.44906616210938
y: 298.22808837890625
z: -0.009274263866245747
","x: 217.84288024902344
y: 299.3469543457031
z: -0.0077011240646243095
","x: 218.87693786621094
y: 298.8878173828125
z: -0.006595621816813946
",,,,,,,,,,,,,,,,,,,,,
9,"x: 211.91558837890625
y: 196.37225341796875
z: -0.2807876169681549
visibility: 0.9999696612358093
","x: 214.00234985351562
y: 189.59266662597656
z: -0.26372030377388
visibility: 0.9999139308929443
","x: 215.52810668945312
y: 189.7779998779297
z: -0.263788640499115
visibility: 0.9999227523803711
","x: 217.10499572753906
y: 190.1085662841797
z: -0.263858437538147
visibility: 0.9999228715896606
","x: 210.2479705810547
y: 189.9313507080078
z: -0.2592126727104187
visibility: 0.9998704791069031
","x: 209.03912353515625
y: 190.29600524902344
z: -0.25917506217956543
visibility: 0.9998361468315125
","x: 207.76121520996094
y: 190.60549926757812
z: -0.25918036699295044
visibility: 0.9998132586479187
","x: 219.95384216308594
y: 195.63671875
z: -0.16005738079547882
visibility: 0.9999024271965027
","x: 206.3323974609375
y: 194.86936950683594
z: -0.14120188355445862
visibility: 0.9996421337127686
","x: 214.97378540039062
y: 204.6392059326172
z: -0.24190644919872284
visibility: 0.9999647736549377
","x: 209.93479919433594
y: 204.67584228515625
z: -0.23569364845752716
visibility: 0.9999427199363708
","x: 234.41551208496094
y: 241.25502014160156
z: -0.11656184494495392
visibility: 0.9999763369560242
","x: 196.14527893066406
y: 242.85971069335938
z: -0.0326988510787487
visibility: 0.9998596906661987
","x: 243.65252685546875
y: 288.69415283203125
z: -0.19079172611236572
visibility: 0.9876574277877808
","x: 191.44888305664062
y: 295.3047790527344
z: 0.023968804627656937
visibility: 0.9291759133338928
","x: 225.1837158203125
y: 289.3653564453125
z: -0.3882378935813904
visibility: 0.9863157272338867
","x: 185.59732055664062
y: 337.2178649902344
z: -0.07319857180118561
visibility: 0.9313980937004089
","x: 219.93507385253906
y: 293.4052429199219
z: -0.4365816116333008
visibility: 0.9741143584251404
","x: 182.32237243652344
y: 351.9269104003906
z: -0.09997984021902084
visibility: 0.8987724184989929
","x: 217.0275115966797
y: 287.9214782714844
z: -0.44342049956321716
visibility: 0.9759705662727356
","x: 183.59426879882812
y: 351.98101806640625
z: -0.13087694346904755
visibility: 0.9048970341682434
","x: 218.34500122070312
y: 286.54168701171875
z: -0.3933556079864502
visibility: 0.9666672348976135
","x: 185.2617950439453
y: 347.39947509765625
z: -0.08784804493188858
visibility: 0.891617476940155
","x: 224.58059692382812
y: 343.8554382324219
z: -0.018904369324445724
visibility: 0.9994043707847595
","x: 203.1396942138672
y: 343.32476806640625
z: 0.01889001950621605
visibility: 0.9993101358413696
","x: 223.8133544921875
y: 424.2669982910156
z: -0.034540966153144836
visibility: 0.9911121726036072
","x: 202.00721740722656
y: 421.7892150878906
z: 0.006893237587064505
visibility: 0.9844126105308533
","x: 220.99232482910156
y: 498.515625
z: 0.1050865426659584
visibility: 0.9893158674240112
","x: 207.54727172851562
y: 500.0335388183594
z: 0.14352604746818542
visibility: 0.9860787987709045
","x: 221.72348022460938
y: 509.30224609375
z: 0.11073372513055801
visibility: 0.841237485408783
","x: 211.5379638671875
y: 511.9794006347656
z: 0.1477513462305069
visibility: 0.9051238894462585
","x: 215.17771911621094
y: 521.4435424804688
z: -0.02815253473818302
visibility: 0.9841408729553223
","x: 201.49508666992188
y: 523.4057006835938
z: 0.02262439765036106
visibility: 0.9820552468299866
","x: 225.96746826171875
y: 284.88616943359375
z: 0.0
","x: 221.6106414794922
y: 288.9615783691406
z: 0.0033504462335258722
","x: 217.16342163085938
y: 291.7476806640625
z: 0.0029339385218918324
","x: 214.12330627441406
y: 295.23199462890625
z: 0.0013380855089053512
","x: 212.05540466308594
y: 298.0771484375
z: 0.00038635992677882314
","x: 213.86727905273438
y: 286.7051086425781
z: 0.0015063104219734669
","x: 211.1390380859375
y: 295.7527160644531
z: -0.0005696671432815492
","x: 213.55267333984375
y: 297.3874206542969
z: -0.0008111141505651176
","x: 215.4117889404297
y: 296.010986328125
z: -0.0007513233576901257
","x: 214.7317352294922
y: 287.3150939941406
z: -0.0019893033895641565
","x: 212.7078399658203
y: 297.27618408203125
z: -0.003644515760242939
","x: 215.0618438720703
y: 297.82049560546875
z: -0.0026647280901670456
","x: 216.45692443847656
y: 295.8963317871094
z: -0.0019856023136526346
","x: 216.16470336914062
y: 288.9412841796875
z: -0.005524342879652977
","x: 214.495849609375
y: 297.96221923828125
z: -0.006719804834574461
","x: 216.6570281982422
y: 298.4784240722656
z: -0.0047074006870388985
","x: 217.88002014160156
y: 296.80853271484375
z: -0.00347900390625
","x: 217.87319946289062
y: 291.2957763671875
z: -0.008901960216462612
","x: 216.44906616210938
y: 298.22808837890625
z: -0.009274263866245747
","x: 217.84288024902344
y: 299.3469543457031
z: -0.0077011240646243095
","x: 218.87693786621094
y: 298.8878173828125
z: -0.006595621816813946
",,,,,,,,,,,,,,,,,,,,,
10,"x: 210.13587951660156
y: 196.13735961914062
z: -0.2793900668621063
visibility: 0.9999713897705078
","x: 212.06666564941406
y: 189.29891967773438
z: -0.2640666961669922
visibility: 0.9999188184738159
","x: 213.5565948486328
y: 189.36485290527344
z: -0.2640993595123291
visibility: 0.9999266862869263
","x: 215.13572692871094
y: 189.5749053955078
z: -0.2641325891017914
visibility: 0.9999273419380188
","x: 208.2151336669922
y: 189.92913818359375
z: -0.26135140657424927
visibility: 0.9998795390129089
","x: 206.89173889160156
y: 190.38780212402344
z: -0.26134687662124634
visibility: 0.9998478889465332
","x: 205.49349975585938
y: 190.7740936279297
z: -0.2613545060157776
visibility: 0.9998275637626648
","x: 217.98138427734375
y: 194.9414825439453
z: -0.16276654601097107
visibility: 0.9999079704284668
","x: 203.78073120117188
y: 194.92648315429688
z: -0.1490572839975357
visibility: 0.9996680021286011
","x: 213.3172149658203
y: 204.34873962402344
z: -0.24067053198814392
visibility: 0.9999673366546631
","x: 208.17771911621094
y: 204.51287841796875
z: -0.2367270290851593
visibility: 0.9999467134475708
","x: 232.32742309570312
y: 241.42913818359375
z: -0.10742451250553131
visibility: 0.999976634979248
","x: 192.8998260498047
y: 242.86956787109375
z: -0.04457046836614609
visibility: 0.9998623132705688
","x: 244.33233642578125
y: 284.168212890625
z: -0.12183085829019547
visibility: 0.9882891774177551
","x: 187.9285125732422
y: 295.10113525390625
z: 0.017119312658905983
visibility: 0.9303422570228577
","x: 228.1793975830078
y: 294.1704406738281
z: -0.26305919885635376
visibility: 0.9852775931358337
","x: 187.60369873046875
y: 333.8646240234375
z: -0.07624410092830658
visibility: 0.9286878108978271
","x: 227.0652313232422
y: 294.2638244628906
z: -0.3019956350326538
visibility: 0.9715545177459717
","x: 187.8046112060547
y: 347.5436096191406
z: -0.10232257843017578
visibility: 0.8929083347320557
","x: 225.67149353027344
y: 292.89080810546875
z: -0.32058921456336975
visibility: 0.9734027981758118
","x: 189.78196716308594
y: 347.1949462890625
z: -0.131439670920372
visibility: 0.8990288972854614
","x: 225.73915100097656
y: 291.9461364746094
z: -0.2719407379627228
visibility: 0.9625770449638367
","x: 190.2218017578125
y: 343.2188720703125
z: -0.08930595964193344
visibility: 0.8844935297966003
","x: 224.3268585205078
y: 341.6574401855469
z: -0.024934809654951096
visibility: 0.9993483424186707
","x: 202.68673706054688
y: 342.7882385253906
z: 0.024905946105718613
visibility: 0.9992775917053223
","x: 219.82655334472656
y: 422.2720642089844
z: -0.05326525494456291
visibility: 0.991273820400238
","x: 201.5482177734375
y: 422.1110534667969
z: 0.007222957909107208
visibility: 0.984526515007019
","x: 221.04798889160156
y: 496.540283203125
z: 0.08246705681085587
visibility: 0.9896944165229797
","x: 207.38864135742188
y: 500.0687255859375
z: 0.13443179428577423
visibility: 0.9863654971122742
","x: 221.76116943359375
y: 506.7502136230469
z: 0.0881088450551033
visibility: 0.8404895663261414
","x: 211.56005859375
y: 512.1275634765625
z: 0.13873441517353058
visibility: 0.9054670929908752
","x: 215.22471618652344
y: 519.9109497070312
z: -0.043192990124225616
visibility: 0.9845437407493591
","x: 201.29364013671875
y: 523.330322265625
z: 0.018875587731599808
visibility: 0.9822681546211243
",,,,,,,,,,,,,,,,,,,,,,,,,,,,,,,,,,,,,,,,,,
11,"x: 210.4558868408203
y: 196.64588928222656
z: -0.203750342130661
visibility: 0.999971330165863
","x: 212.72396850585938
y: 189.80722045898438
z: -0.1850913017988205
visibility: 0.999921441078186
","x: 214.2241668701172
y: 189.91310119628906
z: -0.18514879047870636
visibility: 0.9999284744262695
","x: 215.7073211669922
y: 190.14462280273438
z: -0.1851964294910431
visibility: 0.9999289512634277
","x: 208.6103057861328
y: 190.2328338623047
z: -0.18553850054740906
visibility: 0.9998854398727417
","x: 207.28237915039062
y: 190.61959838867188
z: -0.1855538785457611
visibility: 0.9998562932014465
","x: 205.953857421875
y: 190.9544219970703
z: -0.18552793562412262
visibility: 0.9998381733894348
","x: 218.0712127685547
y: 194.86083984375
z: -0.07192905992269516
visibility: 0.999912440776825
","x: 204.44488525390625
y: 194.90194702148438
z: -0.073860302567482
visibility: 0.9996883869171143
","x: 213.51219177246094
y: 204.66050720214844
z: -0.16130012273788452
visibility: 0.9999673366546631
","x: 208.1781768798828
y: 204.7171630859375
z: -0.1619374006986618
visibility: 0.999947726726532
","x: 230.45970153808594
y: 240.07815551757812
z: -0.021555768325924873
visibility: 0.9999729990959167
","x: 192.00421142578125
y: 241.65948486328125
z: 0.00891397800296545
visibility: 0.9998465776443481
","x: 243.6990203857422
y: 281.8771667480469
z: -0.06721343100070953
visibility: 0.9863051176071167
","x: 186.02069091796875
y: 292.9587097167969
z: -0.05176859349012375
visibility: 0.9288881421089172
","x: 242.12049865722656
y: 296.25177001953125
z: -0.24965929985046387
visibility: 0.9808582663536072
","x: 190.7504425048828
y: 295.527587890625
z: -0.27464157342910767
visibility: 0.9300704002380371
","x: 245.0094757080078
y: 299.20880126953125
z: -0.2949564754962921
visibility: 0.9654463529586792
","x: 192.8516845703125
y: 295.6011657714844
z: -0.3212525248527527
visibility: 0.8952552080154419
","x: 244.2049560546875
y: 295.0674743652344
z: -0.3184050917625427
visibility: 0.9680521488189697
","x: 194.18255615234375
y: 289.7554626464844
z: -0.3358543813228607
visibility: 0.901189923286438
","x: 242.51148986816406
y: 293.35955810546875
z: -0.2637863755226135
visibility: 0.9562950730323792
","x: 194.30726623535156
y: 288.9476318359375
z: -0.2858511507511139
visibility: 0.8856276869773865
","x: 223.87844848632812
y: 339.8959655761719
z: -0.02458261512219906
visibility: 0.999304473400116
","x: 202.66990661621094
y: 340.837158203125
z: 0.024596011266112328
visibility: 0.9992406964302063
","x: 218.5095977783203
y: 419.7397155761719
z: -0.06322572380304337
visibility: 0.9910009503364563
","x: 201.50340270996094
y: 421.50567626953125
z: -0.0008701608749106526
visibility: 0.983487069606781
","x: 220.5326385498047
y: 493.22979736328125
z: 0.06953711807727814
visibility: 0.9894011616706848
","x: 206.72103881835938
y: 500.1542663574219
z: 0.11015231907367706
visibility: 0.9861680269241333
","x: 221.28195190429688
y: 502.1881103515625
z: 0.07513792812824249
visibility: 0.8409953713417053
","x: 210.01754760742188
y: 512.9141845703125
z: 0.11300480365753174
visibility: 0.9040270447731018
","x: 215.2512664794922
y: 517.7692260742188
z: -0.05184846371412277
visibility: 0.984359085559845
","x: 201.339599609375
y: 523.26513671875
z: -0.011596432887017727
visibility: 0.9816405773162842
",,,,,,,,,,,,,,,,,,,,,,,,,,,,,,,,,,,,,,,,,,
12,"x: 212.38934326171875
y: 200.0063934326172
z: -0.2189633548259735
visibility: 0.9999715089797974
","x: 214.63302612304688
y: 193.12863159179688
z: -0.20026569068431854
visibility: 0.999923050403595
","x: 215.8961181640625
y: 193.2563018798828
z: -0.20028257369995117
visibility: 0.9999285936355591
","x: 217.19554138183594
y: 193.46604919433594
z: -0.20031288266181946
visibility: 0.9999280571937561
","x: 210.4811553955078
y: 193.2368621826172
z: -0.2023162543773651
visibility: 0.9998905658721924
","x: 208.92620849609375
y: 193.3802032470703
z: -0.20234432816505432
visibility: 0.9998646974563599
","x: 207.4010772705078
y: 193.49484252929688
z: -0.20235078036785126
visibility: 0.9998487234115601
","x: 218.81787109375
y: 198.09619140625
z: -0.08532813936471939
visibility: 0.9999126195907593
","x: 204.78277587890625
y: 197.0652618408203
z: -0.09536434710025787
visibility: 0.999709963798523
","x: 215.04452514648438
y: 208.00164794921875
z: -0.1755410134792328
visibility: 0.9999658465385437
","x: 209.40460205078125
y: 207.58444213867188
z: -0.17876620590686798
visibility: 0.9999486207962036
","x: 230.65528869628906
y: 245.0064697265625
z: -0.004801222123205662
visibility: 0.9999660849571228
","x: 192.3760528564453
y: 241.60736083984375
z: -0.02689283713698387
visibility: 0.9998418688774109
","x: 240.7492218017578
y: 292.43951416015625
z: 0.04261285811662674
visibility: 0.9819989800453186
","x: 183.1775360107422
y: 286.86328125
z: -0.1502252221107483
visibility: 0.933887779712677
","x: 255.88131713867188
y: 312.7568359375
z: -0.03876856714487076
visibility: 0.9777102470397949
","x: 192.26133728027344
y: 261.9876403808594
z: -0.38358306884765625
visibility: 0.9356215000152588
","x: 263.38629150390625
y: 317.707763671875
z: -0.05638430640101433
visibility: 0.9596053957939148
","x: 195.6829833984375
y: 257.32855224609375
z: -0.4279729723930359
visibility: 0.9023848176002502
","x: 266.0267639160156
y: 313.41021728515625
z: -0.08725043386220932
visibility: 0.9630469679832458
","x: 196.52059936523438
y: 251.34095764160156
z: -0.4320273995399475
visibility: 0.9076946377754211
","x: 262.18231201171875
y: 312.9283752441406
z: -0.05328620225191116
visibility: 0.9508853554725647
","x: 196.3104248046875
y: 253.0381622314453
z: -0.3905443251132965
visibility: 0.8922890424728394
","x: 223.53396606445312
y: 340.5686950683594
z: -0.0037393192760646343
visibility: 0.999329686164856
","x: 202.51670837402344
y: 341.77069091796875
z: 0.0037282698322087526
visibility: 0.9992656111717224
","x: 219.1702423095703
y: 422.9198913574219
z: -0.044042427092790604
visibility: 0.9907719492912292
","x: 201.48841857910156
y: 424.6747131347656
z: -0.014904292300343513
visibility: 0.9823967218399048
","x: 219.76458740234375
y: 496.2359924316406
z: 0.12371120601892471
visibility: 0.9891336560249329
","x: 206.36672973632812
y: 500.1802062988281
z: 0.12636151909828186
visibility: 0.9857029318809509
","x: 220.11900329589844
y: 503.10498046875
z: 0.13233481347560883
visibility: 0.8401567339897156
","x: 209.2146759033203
y: 511.73077392578125
z: 0.12963904440402985
visibility: 0.8989506959915161
","x: 215.0853729248047
y: 519.4822998046875
z: 0.0028142903465777636
visibility: 0.984054684638977
","x: 201.39303588867188
y: 523.331787109375
z: 0.00837666355073452
visibility: 0.9814634323120117
",,,,,,,,,,,,,,,,,,,,,,"x: 196.0242919921875
y: 254.1714630126953
z: 0.0
","x: 198.3282470703125
y: 249.1475067138672
z: 0.0003783538122661412
","x: 200.62957763671875
y: 243.34503173828125
z: -0.0014632154488936067
","x: 202.69236755371094
y: 239.4258270263672
z: -0.003660675138235092
","x: 204.6417694091797
y: 236.41326904296875
z: -0.005393757484853268
","x: 198.56654357910156
y: 238.91278076171875
z: -0.00460934778675437
","x: 203.1826629638672
y: 238.8485107421875
z: -0.007403742056339979
","x: 204.22686767578125
y: 242.21743774414062
z: -0.00795908086001873
","x: 204.03309631347656
y: 244.22537231445312
z: -0.00823812186717987
","x: 197.45265197753906
y: 241.87713623046875
z: -0.006911170668900013
","x: 203.09375
y: 243.4178466796875
z: -0.010229958221316338
","x: 203.0926971435547
y: 246.2323760986328
z: -0.009659569710493088
","x: 201.90948486328125
y: 246.922607421875
z: -0.00908954069018364
","x: 196.76573181152344
y: 245.79638671875
z: -0.008990374393761158
","x: 201.84727478027344
y: 247.98800659179688
z: -0.011519575491547585
","x: 201.3502960205078
y: 250.11361694335938
z: -0.009264201857149601
","x: 200.04263305664062
y: 250.0739288330078
z: -0.007678412366658449
","x: 196.45619201660156
y: 250.1990966796875
z: -0.01109045185148716
","x: 200.49497985839844
y: 251.93702697753906
z: -0.012855775654315948
","x: 200.1011962890625
y: 253.31861877441406
z: -0.011260058730840683
","x: 198.93699645996094
y: 253.23806762695312
z: -0.009906141087412834
"
13,"x: 212.38934326171875
y: 200.0063934326172
z: -0.2189633548259735
visibility: 0.9999715089797974
","x: 214.63302612304688
y: 193.12863159179688
z: -0.20026569068431854
visibility: 0.999923050403595
","x: 215.8961181640625
y: 193.2563018798828
z: -0.20028257369995117
visibility: 0.9999285936355591
","x: 217.19554138183594
y: 193.46604919433594
z: -0.20031288266181946
visibility: 0.9999280571937561
","x: 210.4811553955078
y: 193.2368621826172
z: -0.2023162543773651
visibility: 0.9998905658721924
","x: 208.92620849609375
y: 193.3802032470703
z: -0.20234432816505432
visibility: 0.9998646974563599
","x: 207.4010772705078
y: 193.49484252929688
z: -0.20235078036785126
visibility: 0.9998487234115601
","x: 218.81787109375
y: 198.09619140625
z: -0.08532813936471939
visibility: 0.9999126195907593
","x: 204.78277587890625
y: 197.0652618408203
z: -0.09536434710025787
visibility: 0.999709963798523
","x: 215.04452514648438
y: 208.00164794921875
z: -0.1755410134792328
visibility: 0.9999658465385437
","x: 209.40460205078125
y: 207.58444213867188
z: -0.17876620590686798
visibility: 0.9999486207962036
","x: 230.65528869628906
y: 245.0064697265625
z: -0.004801222123205662
visibility: 0.9999660849571228
","x: 192.3760528564453
y: 241.60736083984375
z: -0.02689283713698387
visibility: 0.9998418688774109
","x: 240.7492218017578
y: 292.43951416015625
z: 0.04261285811662674
visibility: 0.9819989800453186
","x: 183.1775360107422
y: 286.86328125
z: -0.1502252221107483
visibility: 0.933887779712677
","x: 255.88131713867188
y: 312.7568359375
z: -0.03876856714487076
visibility: 0.9777102470397949
","x: 192.26133728027344
y: 261.9876403808594
z: -0.38358306884765625
visibility: 0.9356215000152588
","x: 263.38629150390625
y: 317.707763671875
z: -0.05638430640101433
visibility: 0.9596053957939148
","x: 195.6829833984375
y: 257.32855224609375
z: -0.4279729723930359
visibility: 0.9023848176002502
","x: 266.0267639160156
y: 313.41021728515625
z: -0.08725043386220932
visibility: 0.9630469679832458
","x: 196.52059936523438
y: 251.34095764160156
z: -0.4320273995399475
visibility: 0.9076946377754211
","x: 262.18231201171875
y: 312.9283752441406
z: -0.05328620225191116
visibility: 0.9508853554725647
","x: 196.3104248046875
y: 253.0381622314453
z: -0.3905443251132965
visibility: 0.8922890424728394
","x: 223.53396606445312
y: 340.5686950683594
z: -0.0037393192760646343
visibility: 0.999329686164856
","x: 202.51670837402344
y: 341.77069091796875
z: 0.0037282698322087526
visibility: 0.9992656111717224
","x: 219.1702423095703
y: 422.9198913574219
z: -0.044042427092790604
visibility: 0.9907719492912292
","x: 201.48841857910156
y: 424.6747131347656
z: -0.014904292300343513
visibility: 0.9823967218399048
","x: 219.76458740234375
y: 496.2359924316406
z: 0.12371120601892471
visibility: 0.9891336560249329
","x: 206.36672973632812
y: 500.1802062988281
z: 0.12636151909828186
visibility: 0.9857029318809509
","x: 220.11900329589844
y: 503.10498046875
z: 0.13233481347560883
visibility: 0.8401567339897156
","x: 209.2146759033203
y: 511.73077392578125
z: 0.12963904440402985
visibility: 0.8989506959915161
","x: 215.0853729248047
y: 519.4822998046875
z: 0.0028142903465777636
visibility: 0.984054684638977
","x: 201.39303588867188
y: 523.331787109375
z: 0.00837666355073452
visibility: 0.9814634323120117
",,,,,,,,,,,,,,,,,,,,,,"x: 196.0242919921875
y: 254.1714630126953
z: 0.0
","x: 198.3282470703125
y: 249.1475067138672
z: 0.0003783538122661412
","x: 200.62957763671875
y: 243.34503173828125
z: -0.0014632154488936067
","x: 202.69236755371094
y: 239.4258270263672
z: -0.003660675138235092
","x: 204.6417694091797
y: 236.41326904296875
z: -0.005393757484853268
","x: 198.56654357910156
y: 238.91278076171875
z: -0.00460934778675437
","x: 203.1826629638672
y: 238.8485107421875
z: -0.007403742056339979
","x: 204.22686767578125
y: 242.21743774414062
z: -0.00795908086001873
","x: 204.03309631347656
y: 244.22537231445312
z: -0.00823812186717987
","x: 197.45265197753906
y: 241.87713623046875
z: -0.006911170668900013
","x: 203.09375
y: 243.4178466796875
z: -0.010229958221316338
","x: 203.0926971435547
y: 246.2323760986328
z: -0.009659569710493088
","x: 201.90948486328125
y: 246.922607421875
z: -0.00908954069018364
","x: 196.76573181152344
y: 245.79638671875
z: -0.008990374393761158
","x: 201.84727478027344
y: 247.98800659179688
z: -0.011519575491547585
","x: 201.3502960205078
y: 250.11361694335938
z: -0.009264201857149601
","x: 200.04263305664062
y: 250.0739288330078
z: -0.007678412366658449
","x: 196.45619201660156
y: 250.1990966796875
z: -0.01109045185148716
","x: 200.49497985839844
y: 251.93702697753906
z: -0.012855775654315948
","x: 200.1011962890625
y: 253.31861877441406
z: -0.011260058730840683
","x: 198.93699645996094
y: 253.23806762695312
z: -0.009906141087412834
"
14,"x: 216.7012939453125
y: 199.76806640625
z: -0.30021822452545166
visibility: 0.9999701380729675
","x: 219.0491485595703
y: 193.0519256591797
z: -0.28485551476478577
visibility: 0.9999184012413025
","x: 220.4723358154297
y: 193.24740600585938
z: -0.2848391830921173
visibility: 0.9999234080314636
","x: 221.94114685058594
y: 193.48008728027344
z: -0.2848571836948395
visibility: 0.999921977519989
","x: 215.0153350830078
y: 192.78353881835938
z: -0.28290146589279175
visibility: 0.9998863339424133
","x: 213.5736083984375
y: 192.81805419921875
z: -0.2829706072807312
visibility: 0.9998650550842285
","x: 212.18162536621094
y: 192.89208984375
z: -0.28301194310188293
visibility: 0.9998509287834167
","x: 223.51605224609375
y: 198.1661376953125
z: -0.17985138297080994
visibility: 0.99990314245224
","x: 210.00938415527344
y: 196.73321533203125
z: -0.172708660364151
visibility: 0.9996972680091858
","x: 218.8651885986328
y: 207.9298095703125
z: -0.26015329360961914
visibility: 0.9999604821205139
","x: 213.88279724121094
y: 207.3804473876953
z: -0.2584998607635498
visibility: 0.9999411106109619
","x: 233.57437133789062
y: 248.72811889648438
z: -0.09834752976894379
visibility: 0.9999452829360962
","x: 195.0788116455078
y: 241.4469757080078
z: -0.09335648268461227
visibility: 0.9998016953468323
","x: 240.5400390625
y: 304.5008544921875
z: -0.04739662632346153
visibility: 0.9794957637786865
","x: 183.19944763183594
y: 287.33294677734375
z: -0.19834163784980774
visibility: 0.9375805854797363
","x: 249.7653350830078
y: 344.6116638183594
z: -0.1289336234331131
visibility: 0.971062958240509
","x: 190.7138214111328
y: 256.9945068359375
z: -0.42750778794288635
visibility: 0.9402880072593689
","x: 254.58238220214844
y: 359.9266052246094
z: -0.1442241072654724
visibility: 0.9473385810852051
","x: 192.73150634765625
y: 249.12193298339844
z: -0.4693383276462555
visibility: 0.9084013104438782
","x: 254.41629028320312
y: 360.9376525878906
z: -0.17062799632549286
visibility: 0.9514232277870178
","x: 193.87744140625
y: 244.9144287109375
z: -0.4718211591243744
visibility: 0.9130741953849792
","x: 252.6235809326172
y: 356.21319580078125
z: -0.1398734152317047
visibility: 0.9383454322814941
","x: 194.14141845703125
y: 247.7890167236328
z: -0.4336838126182556
visibility: 0.8974161744117737
","x: 223.53192138671875
y: 343.3111572265625
z: -0.008480716496706009
visibility: 0.9993646144866943
","x: 202.37652587890625
y: 342.13299560546875
z: 0.008445416577160358
visibility: 0.9992926716804504
","x: 219.59056091308594
y: 425.835205078125
z: -0.046246740967035294
visibility: 0.9898242354393005
","x: 200.68263244628906
y: 426.30224609375
z: -0.008730495348572731
visibility: 0.9812460541725159
","x: 219.7283935546875
y: 499.8760986328125
z: 0.12140190601348877
visibility: 0.9889830350875854
","x: 206.27560424804688
y: 499.99627685546875
z: 0.1511715203523636
visibility: 0.9850327968597412
","x: 220.2374725341797
y: 509.2237854003906
z: 0.13066257536411285
visibility: 0.8369253277778625
","x: 209.29412841796875
y: 510.2080993652344
z: 0.16132687032222748
visibility: 0.8931713104248047
","x: 214.5662384033203
y: 522.0484008789062
z: 0.002522157272323966
visibility: 0.9840441942214966
","x: 201.40264892578125
y: 523.3043823242188
z: 0.04402313753962517
visibility: 0.9811631441116333
",,,,,,,,,,,,,,,,,,,,,,,,,,,,,,,,,,,,,,,,,,
15,"x: 218.5399627685547
y: 196.11395263671875
z: -0.3328394293785095
visibility: 0.9999683499336243
","x: 221.17022705078125
y: 190.42076110839844
z: -0.3212379217147827
visibility: 0.9999189972877502
","x: 222.74937438964844
y: 191.16458129882812
z: -0.3212738633155823
visibility: 0.9999247193336487
","x: 224.39991760253906
y: 191.9996795654297
z: -0.32135337591171265
visibility: 0.9999243021011353
","x: 217.09645080566406
y: 189.32435607910156
z: -0.31691306829452515
visibility: 0.9998834133148193
","x: 215.7845001220703
y: 189.35140991210938
z: -0.3169400095939636
visibility: 0.9998612403869629
","x: 214.50218200683594
y: 189.46551513671875
z: -0.31696611642837524
visibility: 0.9998454451560974
","x: 226.38485717773438
y: 197.85614013671875
z: -0.22797544300556183
visibility: 0.9999076128005981
","x: 212.78004455566406
y: 194.41555786132812
z: -0.21095795929431915
visibility: 0.999687135219574
","x: 220.94366455078125
y: 205.87738037109375
z: -0.2967741787433624
visibility: 0.9999597072601318
","x: 215.45620727539062
y: 204.6478271484375
z: -0.29219770431518555
visibility: 0.9999346137046814
","x: 235.24234008789062
y: 251.4237823486328
z: -0.16694071888923645
visibility: 0.9999376535415649
","x: 197.99884033203125
y: 240.85198974609375
z: -0.1099865585565567
visibility: 0.9997432231903076
","x: 237.83355712890625
y: 311.3560791015625
z: -0.13284187018871307
visibility: 0.9775856137275696
","x: 187.50193786621094
y: 287.46722412109375
z: -0.11457608640193939
visibility: 0.9014060497283936
","x: 242.8246612548828
y: 355.07666015625
z: -0.19292142987251282
visibility: 0.9618314504623413
","x: 186.7532501220703
y: 278.9650573730469
z: -0.28229331970214844
visibility: 0.913882851600647
","x: 246.94204711914062
y: 370.9516906738281
z: -0.21777424216270447
visibility: 0.9345482587814331
","x: 185.0337677001953
y: 276.3421630859375
z: -0.3570849299430847
visibility: 0.8853709697723389
","x: 246.5489044189453
y: 371.77630615234375
z: -0.24432344734668732
visibility: 0.9395604133605957
","x: 186.8074188232422
y: 272.1319274902344
z: -0.3468402028083801
visibility: 0.8922318816184998
","x: 244.099609375
y: 365.3253173828125
z: -0.20448298752307892
visibility: 0.9249016046524048
","x: 188.7963409423828
y: 270.3094787597656
z: -0.2915695905685425
visibility: 0.8755080103874207
","x: 222.95806884765625
y: 344.5763854980469
z: -0.00926181860268116
visibility: 0.9993709921836853
","x: 201.09080505371094
y: 342.27435302734375
z: 0.009282531216740608
visibility: 0.9992836117744446
","x: 219.94503784179688
y: 426.2884521484375
z: -0.07899530231952667
visibility: 0.9879898428916931
","x: 200.4613037109375
y: 426.2358093261719
z: -0.02188398502767086
visibility: 0.9788838624954224
","x: 219.56687927246094
y: 502.0395202636719
z: 0.01825878769159317
visibility: 0.9883257746696472
","x: 204.78976440429688
y: 500.7420349121094
z: 0.08437217772006989
visibility: 0.983036994934082
","x: 219.9832305908203
y: 514.6502075195312
z: 0.019594784826040268
visibility: 0.8348408341407776
","x: 208.45359802246094
y: 512.60498046875
z: 0.08748220652341843
visibility: 0.8858126401901245
","x: 214.0496368408203
y: 520.7490844726562
z: -0.11554010957479477
visibility: 0.9830812215805054
","x: 197.51315307617188
y: 523.2294311523438
z: -0.03569678217172623
visibility: 0.9788943529129028
",,,,,,,,,,,,,,,,,,,,,,,,,,,,,,,,,,,,,,,,,,
16,"x: 217.65773010253906
y: 195.71241760253906
z: -0.21665962040424347
visibility: 0.9999257922172546
","x: 220.95057678222656
y: 188.73574829101562
z: -0.20940661430358887
visibility: 0.9998276829719543
","x: 222.64129638671875
y: 189.0510711669922
z: -0.2094956934452057
visibility: 0.9998296499252319
","x: 224.22695922851562
y: 189.54110717773438
z: -0.20955157279968262
visibility: 0.999833881855011
","x: 216.7713623046875
y: 188.38504028320312
z: -0.20096583664417267
visibility: 0.9997926950454712
","x: 215.21865844726562
y: 188.4339141845703
z: -0.20096008479595184
visibility: 0.999756932258606
","x: 213.84388732910156
y: 188.52423095703125
z: -0.20101678371429443
visibility: 0.9997671842575073
","x: 225.76405334472656
y: 194.6537628173828
z: -0.14082472026348114
visibility: 0.9998083710670471
","x: 213.04129028320312
y: 192.42626953125
z: -0.09744074940681458
visibility: 0.9995434284210205
","x: 220.841796875
y: 204.38763427734375
z: -0.18779443204402924
visibility: 0.9999149441719055
","x: 215.15972900390625
y: 203.50531005859375
z: -0.1764746457338333
visibility: 0.9998906254768372
","x: 235.36727905273438
y: 250.58294677734375
z: -0.14018908143043518
visibility: 0.9998409152030945
","x: 201.05422973632812
y: 239.27549743652344
z: -0.0033090300858020782
visibility: 0.9997458457946777
","x: 230.44662475585938
y: 311.0396728515625
z: -0.0961991548538208
visibility: 0.9443827271461487
","x: 190.8951873779297
y: 287.54095458984375
z: 0.04562319815158844
visibility: 0.8853514194488525
","x: 231.8019561767578
y: 340.49200439453125
z: -0.17452380061149597
visibility: 0.8911380767822266
","x: 179.10826110839844
y: 309.8531799316406
z: -0.05389305204153061
visibility: 0.9020195007324219
","x: 232.75318908691406
y: 352.1380615234375
z: -0.20183081924915314
visibility: 0.8673003315925598
","x: 175.436279296875
y: 316.8410339355469
z: -0.07750522345304489
visibility: 0.8717814683914185
","x: 231.90609741210938
y: 350.81640625
z: -0.22606508433818817
visibility: 0.8728012442588806
","x: 175.19577026367188
y: 314.8557434082031
z: -0.11007025092840195
visibility: 0.8802247643470764
","x: 230.25526428222656
y: 345.5618896484375
z: -0.18652167916297913
visibility: 0.8584817051887512
","x: 177.35403442382812
y: 312.8213806152344
z: -0.07096844911575317
visibility: 0.8640161156654358
","x: 222.30567932128906
y: 344.3087158203125
z: -0.018997374922037125
visibility: 0.9992489218711853
","x: 200.95408630371094
y: 341.83837890625
z: 0.019094940274953842
visibility: 0.9992345571517944
","x: 220.1513214111328
y: 426.24078369140625
z: -0.06314995139837265
visibility: 0.9862068891525269
","x: 200.42124938964844
y: 426.19342041015625
z: -0.0035071135498583317
visibility: 0.9786304235458374
","x: 219.6409149169922
y: 502.59625244140625
z: 0.04688171669840813
visibility: 0.9877375364303589
","x: 202.0726776123047
y: 501.2666320800781
z: 0.10489938408136368
visibility: 0.9826619029045105
","x: 219.8346710205078
y: 514.9635009765625
z: 0.048436980694532394
visibility: 0.8271427750587463
","x: 206.134765625
y: 514.3406982421875
z: 0.10799906402826309
visibility: 0.8841721415519714
","x: 213.66065979003906
y: 520.9063110351562
z: -0.07940220087766647
visibility: 0.9817272424697876
","x: 195.12539672851562
y: 522.7033081054688
z: -0.008293764665722847
visibility: 0.9780789613723755
",,,,,,,,,,,,,,,,,,,,,,,,,,,,,,,,,,,,,,,,,,
17,"x: 213.03602600097656
y: 195.990966796875
z: -0.15823155641555786
visibility: 0.9999303817749023
","x: 216.0758056640625
y: 189.02764892578125
z: -0.15030944347381592
visibility: 0.99983811378479
","x: 217.8971405029297
y: 189.33804321289062
z: -0.15040276944637299
visibility: 0.9998414516448975
","x: 219.85377502441406
y: 189.81683349609375
z: -0.15045176446437836
visibility: 0.9998441934585571
","x: 212.36358642578125
y: 188.65670776367188
z: -0.13743190467357635
visibility: 0.9998003244400024
","x: 211.2046356201172
y: 188.67166137695312
z: -0.13737359642982483
visibility: 0.9997658729553223
","x: 210.0054473876953
y: 188.70791625976562
z: -0.13737858831882477
visibility: 0.9997734427452087
","x: 223.3821258544922
y: 194.616943359375
z: -0.0803450420498848
visibility: 0.9998224377632141
","x: 210.74749755859375
y: 192.28395080566406
z: -0.017969002947211266
visibility: 0.9995760321617126
","x: 216.4954071044922
y: 204.45741271972656
z: -0.13078708946704865
visibility: 0.9999219179153442
","x: 211.2095947265625
y: 203.70379638671875
z: -0.11317982524633408
visibility: 0.9998990893363953
","x: 234.1636962890625
y: 245.7736358642578
z: -0.07995353639125824
visibility: 0.999855637550354
","x: 199.88287353515625
y: 240.35671997070312
z: 0.08466026932001114
visibility: 0.9997655749320984
","x: 229.08993530273438
y: 289.94085693359375
z: -0.23028266429901123
visibility: 0.9473220109939575
","x: 190.1903839111328
y: 292.4013671875
z: 0.16927126049995422
visibility: 0.8768852353096008
","x: 227.65042114257812
y: 265.3063049316406
z: -0.47711411118507385
visibility: 0.9005842804908752
","x: 177.17361450195312
y: 332.9421691894531
z: 0.11747267097234726
visibility: 0.9057522416114807
","x: 226.9492950439453
y: 258.00433349609375
z: -0.5275672674179077
visibility: 0.8783032298088074
","x: 171.56138610839844
y: 337.7935791015625
z: 0.1083410382270813
visibility: 0.8755075335502625
","x: 227.12892150878906
y: 251.75442504882812
z: -0.5301299691200256
visibility: 0.8831848502159119
","x: 171.0338897705078
y: 336.91845703125
z: 0.07537670433521271
visibility: 0.8837212920188904
","x: 226.649658203125
y: 253.33982849121094
z: -0.4841066002845764
visibility: 0.8685314655303955
","x: 173.69448852539062
y: 336.65179443359375
z: 0.102530837059021
visibility: 0.8676379919052124
","x: 220.2246551513672
y: 345.6753845214844
z: -0.03493436425924301
visibility: 0.999316394329071
","x: 198.12753295898438
y: 344.1355895996094
z: 0.03495130315423012
visibility: 0.9993003606796265
","x: 218.9867401123047
y: 429.9999694824219
z: -0.06454122066497803
visibility: 0.9868199825286865
","x: 197.81814575195312
y: 431.1559753417969
z: 0.021369390189647675
visibility: 0.9801134467124939
","x: 219.39308166503906
y: 501.85015869140625
z: 0.15075482428073883
visibility: 0.9880820512771606
","x: 202.2593994140625
y: 503.6551513671875
z: 0.22253473103046417
visibility: 0.9837677478790283
","x: 219.6566162109375
y: 509.75628662109375
z: 0.16698196530342102
visibility: 0.826916515827179
","x: 206.53671264648438
y: 514.617431640625
z: 0.23607191443443298
visibility: 0.8896190524101257
","x: 213.65309143066406
y: 521.36376953125
z: 0.0430680550634861
visibility: 0.9822507500648499
","x: 196.03370666503906
y: 527.8596801757812
z: 0.12440384924411774
visibility: 0.979390025138855
","x: 225.32225036621094
y: 260.8814392089844
z: 0.0
","x: 227.8092803955078
y: 255.34730529785156
z: 0.00023861888621468097
","x: 229.74928283691406
y: 247.44935607910156
z: -0.0012991753173992038
","x: 230.4912567138672
y: 241.18408203125
z: -0.00304795172996819
","x: 231.1271209716797
y: 236.41567993164062
z: -0.004793183412402868
","x: 229.70494079589844
y: 250.99530029296875
z: -0.005048307590186596
","x: 229.54408264160156
y: 242.5798797607422
z: -0.007777561899274588
","x: 228.34947204589844
y: 238.64813232421875
z: -0.008360243402421474
","x: 227.2222900390625
y: 236.43125915527344
z: -0.008481782861053944
","x: 227.53359985351562
y: 252.8743896484375
z: -0.006903721019625664
","x: 226.88987731933594
y: 244.03094482421875
z: -0.010001953691244125
","x: 225.53097534179688
y: 240.94276428222656
z: -0.009758186526596546
","x: 224.4939422607422
y: 240.35528564453125
z: -0.00922893825918436
","x: 224.99905395507812
y: 254.3837127685547
z: -0.008470488712191582
","x: 224.14385986328125
y: 246.3621826171875
z: -0.010882399044930935
","x: 223.03330993652344
y: 243.53167724609375
z: -0.009309348650276661
","x: 222.49935913085938
y: 243.0449676513672
z: -0.008105416782200336
","x: 222.36135864257812
y: 255.7294921875
z: -0.010050216689705849
","x: 221.60044860839844
y: 249.67376708984375
z: -0.011699235066771507
","x: 221.2591552734375
y: 248.22695922851562
z: -0.010613459162414074
","x: 221.23683166503906
y: 248.67941284179688
z: -0.009588873013854027
",,,,,,,,,,,,,,,,,,,,,
18,"x: 213.03602600097656
y: 195.990966796875
z: -0.15823155641555786
visibility: 0.9999303817749023
","x: 216.0758056640625
y: 189.02764892578125
z: -0.15030944347381592
visibility: 0.99983811378479
","x: 217.8971405029297
y: 189.33804321289062
z: -0.15040276944637299
visibility: 0.9998414516448975
","x: 219.85377502441406
y: 189.81683349609375
z: -0.15045176446437836
visibility: 0.9998441934585571
","x: 212.36358642578125
y: 188.65670776367188
z: -0.13743190467357635
visibility: 0.9998003244400024
","x: 211.2046356201172
y: 188.67166137695312
z: -0.13737359642982483
visibility: 0.9997658729553223
","x: 210.0054473876953
y: 188.70791625976562
z: -0.13737858831882477
visibility: 0.9997734427452087
","x: 223.3821258544922
y: 194.616943359375
z: -0.0803450420498848
visibility: 0.9998224377632141
","x: 210.74749755859375
y: 192.28395080566406
z: -0.017969002947211266
visibility: 0.9995760321617126
","x: 216.4954071044922
y: 204.45741271972656
z: -0.13078708946704865
visibility: 0.9999219179153442
","x: 211.2095947265625
y: 203.70379638671875
z: -0.11317982524633408
visibility: 0.9998990893363953
","x: 234.1636962890625
y: 245.7736358642578
z: -0.07995353639125824
visibility: 0.999855637550354
","x: 199.88287353515625
y: 240.35671997070312
z: 0.08466026932001114
visibility: 0.9997655749320984
","x: 229.08993530273438
y: 289.94085693359375
z: -0.23028266429901123
visibility: 0.9473220109939575
","x: 190.1903839111328
y: 292.4013671875
z: 0.16927126049995422
visibility: 0.8768852353096008
","x: 227.65042114257812
y: 265.3063049316406
z: -0.47711411118507385
visibility: 0.9005842804908752
","x: 177.17361450195312
y: 332.9421691894531
z: 0.11747267097234726
visibility: 0.9057522416114807
","x: 226.9492950439453
y: 258.00433349609375
z: -0.5275672674179077
visibility: 0.8783032298088074
","x: 171.56138610839844
y: 337.7935791015625
z: 0.1083410382270813
visibility: 0.8755075335502625
","x: 227.12892150878906
y: 251.75442504882812
z: -0.5301299691200256
visibility: 0.8831848502159119
","x: 171.0338897705078
y: 336.91845703125
z: 0.07537670433521271
visibility: 0.8837212920188904
","x: 226.649658203125
y: 253.33982849121094
z: -0.4841066002845764
visibility: 0.8685314655303955
","x: 173.69448852539062
y: 336.65179443359375
z: 0.102530837059021
visibility: 0.8676379919052124
","x: 220.2246551513672
y: 345.6753845214844
z: -0.03493436425924301
visibility: 0.999316394329071
","x: 198.12753295898438
y: 344.1355895996094
z: 0.03495130315423012
visibility: 0.9993003606796265
","x: 218.9867401123047
y: 429.9999694824219
z: -0.06454122066497803
visibility: 0.9868199825286865
","x: 197.81814575195312
y: 431.1559753417969
z: 0.021369390189647675
visibility: 0.9801134467124939
","x: 219.39308166503906
y: 501.85015869140625
z: 0.15075482428073883
visibility: 0.9880820512771606
","x: 202.2593994140625
y: 503.6551513671875
z: 0.22253473103046417
visibility: 0.9837677478790283
","x: 219.6566162109375
y: 509.75628662109375
z: 0.16698196530342102
visibility: 0.826916515827179
","x: 206.53671264648438
y: 514.617431640625
z: 0.23607191443443298
visibility: 0.8896190524101257
","x: 213.65309143066406
y: 521.36376953125
z: 0.0430680550634861
visibility: 0.9822507500648499
","x: 196.03370666503906
y: 527.8596801757812
z: 0.12440384924411774
visibility: 0.979390025138855
","x: 225.32225036621094
y: 260.8814392089844
z: 0.0
","x: 227.8092803955078
y: 255.34730529785156
z: 0.00023861888621468097
","x: 229.74928283691406
y: 247.44935607910156
z: -0.0012991753173992038
","x: 230.4912567138672
y: 241.18408203125
z: -0.00304795172996819
","x: 231.1271209716797
y: 236.41567993164062
z: -0.004793183412402868
","x: 229.70494079589844
y: 250.99530029296875
z: -0.005048307590186596
","x: 229.54408264160156
y: 242.5798797607422
z: -0.007777561899274588
","x: 228.34947204589844
y: 238.64813232421875
z: -0.008360243402421474
","x: 227.2222900390625
y: 236.43125915527344
z: -0.008481782861053944
","x: 227.53359985351562
y: 252.8743896484375
z: -0.006903721019625664
","x: 226.88987731933594
y: 244.03094482421875
z: -0.010001953691244125
","x: 225.53097534179688
y: 240.94276428222656
z: -0.009758186526596546
","x: 224.4939422607422
y: 240.35528564453125
z: -0.00922893825918436
","x: 224.99905395507812
y: 254.3837127685547
z: -0.008470488712191582
","x: 224.14385986328125
y: 246.3621826171875
z: -0.010882399044930935
","x: 223.03330993652344
y: 243.53167724609375
z: -0.009309348650276661
","x: 222.49935913085938
y: 243.0449676513672
z: -0.008105416782200336
","x: 222.36135864257812
y: 255.7294921875
z: -0.010050216689705849
","x: 221.60044860839844
y: 249.67376708984375
z: -0.011699235066771507
","x: 221.2591552734375
y: 248.22695922851562
z: -0.010613459162414074
","x: 221.23683166503906
y: 248.67941284179688
z: -0.009588873013854027
",,,,,,,,,,,,,,,,,,,,,
19,"x: 209.49801635742188
y: 196.15823364257812
z: -0.18691222369670868
visibility: 0.9999362826347351
","x: 212.1863555908203
y: 189.19761657714844
z: -0.17643149197101593
visibility: 0.999850869178772
","x: 213.9158477783203
y: 189.3981170654297
z: -0.1765044927597046
visibility: 0.9998546838760376
","x: 215.7627410888672
y: 189.74139404296875
z: -0.1765611171722412
visibility: 0.9998565912246704
","x: 208.4304656982422
y: 188.86080932617188
z: -0.16625572741031647
visibility: 0.9998149275779724
","x: 207.38653564453125
y: 188.88485717773438
z: -0.16619473695755005
visibility: 0.9997825622558594
","x: 206.32672119140625
y: 188.92953491210938
z: -0.16620942950248718
visibility: 0.9997876286506653
","x: 219.19143676757812
y: 194.03221130371094
z: -0.09141593426465988
visibility: 0.9998379349708557
","x: 207.08702087402344
y: 192.12669372558594
z: -0.041092563420534134
visibility: 0.9996127486228943
","x: 212.7867889404297
y: 204.2948760986328
z: -0.15317384898662567
visibility: 0.9999290108680725
","x: 208.08551025390625
y: 203.69210815429688
z: -0.13914957642555237
visibility: 0.9999080300331116
","x: 230.20518493652344
y: 238.65985107421875
z: -0.07582879066467285
visibility: 0.999869704246521
","x: 199.742919921875
y: 240.55677795410156
z: 0.07492637634277344
visibility: 0.9997864961624146
","x: 230.01174926757812
y: 280.96441650390625
z: -0.24782271683216095
visibility: 0.9520673155784607
","x: 189.871337890625
y: 297.0702819824219
z: 0.13887237012386322
visibility: 0.8701667189598083
","x: 228.18740844726562
y: 232.98947143554688
z: -0.4847530424594879
visibility: 0.9099101424217224
","x: 177.8197479248047
y: 341.9231872558594
z: 0.06497173011302948
visibility: 0.9084320068359375
","x: 226.70851135253906
y: 221.56259155273438
z: -0.5348891615867615
visibility: 0.8891574740409851
","x: 172.94979858398438
y: 353.08154296875
z: 0.05382717400789261
visibility: 0.8776662945747375
","x: 226.6135711669922
y: 217.85928344726562
z: -0.5267657041549683
visibility: 0.8934561610221863
","x: 172.95672607421875
y: 353.96563720703125
z: 0.02038433402776718
visibility: 0.8856154084205627
","x: 226.3212890625
y: 222.73907470703125
z: -0.4868578016757965
visibility: 0.8791528940200806
","x: 175.52383422851562
y: 350.8929443359375
z: 0.04978327080607414
visibility: 0.8693186044692993
","x: 216.44161987304688
y: 345.65850830078125
z: -0.04942145198583603
visibility: 0.9993813037872314
","x: 195.9957733154297
y: 344.20782470703125
z: 0.049394641071558
visibility: 0.9993638396263123
","x: 212.55148315429688
y: 429.4569396972656
z: -0.0885411947965622
visibility: 0.9874821305274963
","x: 193.75750732421875
y: 431.3090515136719
z: 0.03382277488708496
visibility: 0.9806198477745056
","x: 218.9274444580078
y: 499.105712890625
z: 0.12117773294448853
visibility: 0.9886988997459412
","x: 201.93067932128906
y: 504.5983581542969
z: 0.2196955382823944
visibility: 0.9846604466438293
","x: 219.74703979492188
y: 505.201171875
z: 0.13347356021404266
visibility: 0.8319294452667236
","x: 206.80950927734375
y: 514.6343383789062
z: 0.23164956271648407
visibility: 0.8966549634933472
","x: 213.39210510253906
y: 521.9937744140625
z: 0.015322552993893623
visibility: 0.9832277894020081
","x: 195.1927490234375
y: 530.444091796875
z: 0.1300513595342636
visibility: 0.980543851852417
",,,,,,,,,,,,,,,,,,,,,,,,,,,,,,,,,,,,,,,,,,
20,"x: 207.64694213867188
y: 193.60687255859375
z: -0.20624764263629913
visibility: 0.9999419450759888
","x: 210.56358337402344
y: 186.30300903320312
z: -0.18962852656841278
visibility: 0.999862551689148
","x: 212.15203857421875
y: 186.26904296875
z: -0.1896812617778778
visibility: 0.9998664259910583
","x: 213.78721618652344
y: 186.44290161132812
z: -0.1897229254245758
visibility: 0.9998676776885986
","x: 206.91131591796875
y: 186.54794311523438
z: -0.18491047620773315
visibility: 0.9998295903205872
","x: 205.8283233642578
y: 186.64004516601562
z: -0.18485549092292786
visibility: 0.9997997879981995
","x: 204.73899841308594
y: 186.7277374267578
z: -0.18487825989723206
visibility: 0.9998031854629517
","x: 217.02542114257812
y: 191.2935028076172
z: -0.0885985791683197
visibility: 0.9998504519462585
","x: 204.45147705078125
y: 190.17880249023438
z: -0.06527524441480637
visibility: 0.99964439868927
","x: 210.47547912597656
y: 200.9253692626953
z: -0.16870948672294617
visibility: 0.9999352693557739
","x: 206.00071716308594
y: 200.87440490722656
z: -0.1619042456150055
visibility: 0.999916136264801
","x: 227.41717529296875
y: 234.49913024902344
z: -0.06318272650241852
visibility: 0.9998815655708313
","x: 194.2516326904297
y: 240.3900909423828
z: 0.03460412472486496
visibility: 0.999799907207489
","x: 236.1182861328125
y: 270.35498046875
z: -0.21529562771320343
visibility: 0.9567245244979858
","x: 188.56141662597656
y: 300.4561767578125
z: 0.08230604976415634
visibility: 0.8671442866325378
","x: 229.68959045410156
y: 221.1540985107422
z: -0.4306972622871399
visibility: 0.9186633825302124
","x: 179.13140869140625
y: 351.15374755859375
z: -0.0003837732074316591
visibility: 0.908143162727356
","x: 225.9869842529297
y: 211.71185302734375
z: -0.4758910536766052
visibility: 0.8993106484413147
","x: 175.3142547607422
y: 364.3644714355469
z: -0.014496849849820137
visibility: 0.8754599690437317
","x: 225.07118225097656
y: 208.54058837890625
z: -0.46201857924461365
visibility: 0.9030706286430359
","x: 175.60496520996094
y: 365.7032470703125
z: -0.0455610416829586
visibility: 0.8830331563949585
","x: 225.5240936279297
y: 211.75323486328125
z: -0.42946141958236694
visibility: 0.8894742727279663
","x: 177.78857421875
y: 361.368408203125
z: -0.013706306926906109
visibility: 0.8659232258796692
","x: 216.84475708007812
y: 344.68011474609375
z: -0.04076017439365387
visibility: 0.9994381666183472
","x: 196.09019470214844
y: 344.22198486328125
z: 0.040730834007263184
visibility: 0.9994214177131653
","x: 211.14596557617188
y: 427.47186279296875
z: -0.09086532145738602
visibility: 0.9880092144012451
","x: 192.77061462402344
y: 430.95074462890625
z: 0.026784315705299377
visibility: 0.98089200258255
","x: 218.4016571044922
y: 487.7579345703125
z: 0.18246057629585266
visibility: 0.9869251847267151
","x: 201.47842407226562
y: 505.3239440917969
z: 0.19225020706653595
visibility: 0.9852828979492188
","x: 219.79742431640625
y: 487.5494079589844
z: 0.20657458901405334
visibility: 0.8200452327728271
","x: 206.1389617919922
y: 514.5603637695312
z: 0.20370395481586456
visibility: 0.9002235531806946
","x: 213.40370178222656
y: 519.3616333007812
z: 0.11778664588928223
visibility: 0.9818371534347534
","x: 195.77297973632812
y: 531.19580078125
z: 0.09953732788562775
visibility: 0.9811453819274902
","x: 229.83627319335938
y: 220.7376251220703
z: 0.0
","x: 225.00892639160156
y: 216.8610382080078
z: 0.002322361571714282
","x: 222.14028930664062
y: 210.32620239257812
z: 0.0016478225588798523
","x: 220.1304473876953
y: 205.6267547607422
z: -0.00014745078806299716
","x: 218.60272216796875
y: 201.47621154785156
z: -0.001450762152671814
","x: 225.19143676757812
y: 198.18984985351562
z: 0.0008350028074346483
","x: 219.68565368652344
y: 199.20899963378906
z: -0.0020854342728853226
","x: 217.83868408203125
y: 205.18048095703125
z: -0.0030060717836022377
","x: 217.47262573242188
y: 210.01426696777344
z: -0.003080775262787938
","x: 226.2433624267578
y: 198.5797882080078
z: -0.002492587547749281
","x: 219.88433837890625
y: 200.39913940429688
z: -0.005074804183095694
","x: 218.14443969726562
y: 206.72293090820312
z: -0.004877266474068165
","x: 217.9479522705078
y: 211.69235229492188
z: -0.004450293257832527
","x: 227.08099365234375
y: 200.7091064453125
z: -0.006047863978892565
","x: 220.6767120361328
y: 202.6180877685547
z: -0.008236231282353401
","x: 219.1374969482422
y: 208.5457000732422
z: -0.0066758254542946815
","x: 218.93017578125
y: 213.4803924560547
z: -0.005364673212170601
","x: 227.46067810058594
y: 204.28292846679688
z: -0.009635106660425663
","x: 222.41001892089844
y: 204.97962951660156
z: -0.010709085501730442
","x: 220.65731811523438
y: 209.09658813476562
z: -0.009221028536558151
","x: 219.99118041992188
y: 213.1573486328125
z: -0.00787949189543724
",,,,,,,,,,,,,,,,,,,,,
21,"x: 207.64694213867188
y: 193.60687255859375
z: -0.20624764263629913
visibility: 0.9999419450759888
","x: 210.56358337402344
y: 186.30300903320312
z: -0.18962852656841278
visibility: 0.999862551689148
","x: 212.15203857421875
y: 186.26904296875
z: -0.1896812617778778
visibility: 0.9998664259910583
","x: 213.78721618652344
y: 186.44290161132812
z: -0.1897229254245758
visibility: 0.9998676776885986
","x: 206.91131591796875
y: 186.54794311523438
z: -0.18491047620773315
visibility: 0.9998295903205872
","x: 205.8283233642578
y: 186.64004516601562
z: -0.18485549092292786
visibility: 0.9997997879981995
","x: 204.73899841308594
y: 186.7277374267578
z: -0.18487825989723206
visibility: 0.9998031854629517
","x: 217.02542114257812
y: 191.2935028076172
z: -0.0885985791683197
visibility: 0.9998504519462585
","x: 204.45147705078125
y: 190.17880249023438
z: -0.06527524441480637
visibility: 0.99964439868927
","x: 210.47547912597656
y: 200.9253692626953
z: -0.16870948672294617
visibility: 0.9999352693557739
","x: 206.00071716308594
y: 200.87440490722656
z: -0.1619042456150055
visibility: 0.999916136264801
","x: 227.41717529296875
y: 234.49913024902344
z: -0.06318272650241852
visibility: 0.9998815655708313
","x: 194.2516326904297
y: 240.3900909423828
z: 0.03460412472486496
visibility: 0.999799907207489
","x: 236.1182861328125
y: 270.35498046875
z: -0.21529562771320343
visibility: 0.9567245244979858
","x: 188.56141662597656
y: 300.4561767578125
z: 0.08230604976415634
visibility: 0.8671442866325378
","x: 229.68959045410156
y: 221.1540985107422
z: -0.4306972622871399
visibility: 0.9186633825302124
","x: 179.13140869140625
y: 351.15374755859375
z: -0.0003837732074316591
visibility: 0.908143162727356
","x: 225.9869842529297
y: 211.71185302734375
z: -0.4758910536766052
visibility: 0.8993106484413147
","x: 175.3142547607422
y: 364.3644714355469
z: -0.014496849849820137
visibility: 0.8754599690437317
","x: 225.07118225097656
y: 208.54058837890625
z: -0.46201857924461365
visibility: 0.9030706286430359
","x: 175.60496520996094
y: 365.7032470703125
z: -0.0455610416829586
visibility: 0.8830331563949585
","x: 225.5240936279297
y: 211.75323486328125
z: -0.42946141958236694
visibility: 0.8894742727279663
","x: 177.78857421875
y: 361.368408203125
z: -0.013706306926906109
visibility: 0.8659232258796692
","x: 216.84475708007812
y: 344.68011474609375
z: -0.04076017439365387
visibility: 0.9994381666183472
","x: 196.09019470214844
y: 344.22198486328125
z: 0.040730834007263184
visibility: 0.9994214177131653
","x: 211.14596557617188
y: 427.47186279296875
z: -0.09086532145738602
visibility: 0.9880092144012451
","x: 192.77061462402344
y: 430.95074462890625
z: 0.026784315705299377
visibility: 0.98089200258255
","x: 218.4016571044922
y: 487.7579345703125
z: 0.18246057629585266
visibility: 0.9869251847267151
","x: 201.47842407226562
y: 505.3239440917969
z: 0.19225020706653595
visibility: 0.9852828979492188
","x: 219.79742431640625
y: 487.5494079589844
z: 0.20657458901405334
visibility: 0.8200452327728271
","x: 206.1389617919922
y: 514.5603637695312
z: 0.20370395481586456
visibility: 0.9002235531806946
","x: 213.40370178222656
y: 519.3616333007812
z: 0.11778664588928223
visibility: 0.9818371534347534
","x: 195.77297973632812
y: 531.19580078125
z: 0.09953732788562775
visibility: 0.9811453819274902
","x: 229.83627319335938
y: 220.7376251220703
z: 0.0
","x: 225.00892639160156
y: 216.8610382080078
z: 0.002322361571714282
","x: 222.14028930664062
y: 210.32620239257812
z: 0.0016478225588798523
","x: 220.1304473876953
y: 205.6267547607422
z: -0.00014745078806299716
","x: 218.60272216796875
y: 201.47621154785156
z: -0.001450762152671814
","x: 225.19143676757812
y: 198.18984985351562
z: 0.0008350028074346483
","x: 219.68565368652344
y: 199.20899963378906
z: -0.0020854342728853226
","x: 217.83868408203125
y: 205.18048095703125
z: -0.0030060717836022377
","x: 217.47262573242188
y: 210.01426696777344
z: -0.003080775262787938
","x: 226.2433624267578
y: 198.5797882080078
z: -0.002492587547749281
","x: 219.88433837890625
y: 200.39913940429688
z: -0.005074804183095694
","x: 218.14443969726562
y: 206.72293090820312
z: -0.004877266474068165
","x: 217.9479522705078
y: 211.69235229492188
z: -0.004450293257832527
","x: 227.08099365234375
y: 200.7091064453125
z: -0.006047863978892565
","x: 220.6767120361328
y: 202.6180877685547
z: -0.008236231282353401
","x: 219.1374969482422
y: 208.5457000732422
z: -0.0066758254542946815
","x: 218.93017578125
y: 213.4803924560547
z: -0.005364673212170601
","x: 227.46067810058594
y: 204.28292846679688
z: -0.009635106660425663
","x: 222.41001892089844
y: 204.97962951660156
z: -0.010709085501730442
","x: 220.65731811523438
y: 209.09658813476562
z: -0.009221028536558151
","x: 219.99118041992188
y: 213.1573486328125
z: -0.00787949189543724
",,,,,,,,,,,,,,,,,,,,,
22,"x: 206.25856018066406
y: 193.77224731445312
z: -0.23603448271751404
visibility: 0.9999468922615051
","x: 209.30252075195312
y: 186.47116088867188
z: -0.21875309944152832
visibility: 0.9998727440834045
","x: 211.04026794433594
y: 186.40740966796875
z: -0.21878977119922638
visibility: 0.9998770356178284
","x: 212.83383178710938
y: 186.55479431152344
z: -0.21882930397987366
visibility: 0.9998777508735657
","x: 205.1132354736328
y: 186.86605834960938
z: -0.2155705988407135
visibility: 0.9998413920402527
","x: 203.8784637451172
y: 186.97103881835938
z: -0.2154969424009323
visibility: 0.9998133778572083
","x: 202.66305541992188
y: 187.05096435546875
z: -0.21552565693855286
visibility: 0.9998146891593933
","x: 215.85218811035156
y: 191.41934204101562
z: -0.11267634481191635
visibility: 0.9998618960380554
","x: 202.0765380859375
y: 190.36720275878906
z: -0.09570025652647018
visibility: 0.9996718168258667
","x: 209.26190185546875
y: 200.74002075195312
z: -0.19647470116615295
visibility: 0.9999409317970276
","x: 204.30076599121094
y: 200.85482788085938
z: -0.19176554679870605
visibility: 0.9999234676361084
","x: 227.03143310546875
y: 234.72402954101562
z: -0.07768706977367401
visibility: 0.9998924136161804
","x: 190.768310546875
y: 240.39999389648438
z: -0.0011574150994420052
visibility: 0.9998157620429993
","x: 234.1036376953125
y: 276.8572082519531
z: -0.22851738333702087
visibility: 0.960610568523407
","x: 185.59652709960938
y: 299.5284729003906
z: 0.0571032389998436
visibility: 0.8631593585014343
","x: 227.18380737304688
y: 224.01953125
z: -0.4414313733577728
visibility: 0.9262673258781433
","x: 177.8092803955078
y: 346.4674377441406
z: -0.0013548198621720076
visibility: 0.9019535183906555
","x: 225.3782501220703
y: 211.7178497314453
z: -0.4845779836177826
visibility: 0.9078383445739746
","x: 173.92327880859375
y: 359.7420959472656
z: -0.01440828014165163
visibility: 0.8654786944389343
","x: 225.05740356445312
y: 208.82632446289062
z: -0.4759654998779297
visibility: 0.9110568165779114
","x: 174.37022399902344
y: 360.78118896484375
z: -0.04465911164879799
visibility: 0.8731679320335388
","x: 224.76986694335938
y: 213.041015625
z: -0.44300633668899536
visibility: 0.8975408673286438
","x: 176.3616180419922
y: 357.1109619140625
z: -0.014908082783222198
visibility: 0.8555305004119873
","x: 217.51846313476562
y: 344.42340087890625
z: -0.028492143377661705
visibility: 0.9994863271713257
","x: 196.12429809570312
y: 345.1702575683594
z: 0.028345748782157898
visibility: 0.9994733333587646
","x: 226.29669189453125
y: 423.9451904296875
z: -0.047721706330776215
visibility: 0.988991916179657
","x: 193.08778381347656
y: 430.9585876464844
z: -0.03218337148427963
visibility: 0.9825583100318909
","x: 239.18052673339844
y: 482.9641418457031
z: 0.21730966866016388
visibility: 0.9877992868423462
","x: 200.9963836669922
y: 505.49371337890625
z: 0.16135570406913757
visibility: 0.9864827990531921
","x: 240.701171875
y: 486.66876220703125
z: 0.23814120888710022
visibility: 0.8198554515838623
","x: 205.22048950195312
y: 515.036376953125
z: 0.17642448842525482
visibility: 0.9042491912841797
","x: 242.2138671875
y: 516.5082397460938
z: 0.11512267589569092
visibility: 0.9829896092414856
","x: 195.75489807128906
y: 531.7084350585938
z: 0.049528446048498154
visibility: 0.9825616478919983
",,,,,,,,,,,,,,,,,,,,,,,,,,,,,,,,,,,,,,,,,,
23,"x: 205.96897888183594
y: 197.62548828125
z: -0.25690701603889465
visibility: 0.999950647354126
","x: 208.54376220703125
y: 190.05743408203125
z: -0.252155601978302
visibility: 0.9998826384544373
","x: 210.29293823242188
y: 189.95657348632812
z: -0.2522149682044983
visibility: 0.9998869895935059
","x: 212.08932495117188
y: 190.0203857421875
z: -0.25226449966430664
visibility: 0.9998877048492432
","x: 204.36891174316406
y: 190.50973510742188
z: -0.23807701468467712
visibility: 0.9998515844345093
","x: 203.18809509277344
y: 190.68421936035156
z: -0.23809722065925598
visibility: 0.9998245239257812
","x: 201.96644592285156
y: 190.80482482910156
z: -0.23808200657367706
visibility: 0.9998229146003723
","x: 215.5356903076172
y: 194.10902404785156
z: -0.18507060408592224
visibility: 0.9998743534088135
","x: 202.07957458496094
y: 193.89849853515625
z: -0.1183566227555275
visibility: 0.9996825456619263
","x: 209.7912139892578
y: 204.48208618164062
z: -0.2291330099105835
visibility: 0.9999459981918335
","x: 204.12734985351562
y: 204.890380859375
z: -0.21076686680316925
visibility: 0.9999279975891113
","x: 227.48196411132812
y: 240.3043975830078
z: -0.16016602516174316
visibility: 0.9999024868011475
","x: 191.61517333984375
y: 248.26783752441406
z: -0.003799051744863391
visibility: 0.9998214244842529
","x: 230.19131469726562
y: 301.36505126953125
z: -0.2026921957731247
visibility: 0.9641279578208923
","x: 187.43304443359375
y: 298.8332824707031
z: 0.008125049993395805
visibility: 0.8337417244911194
","x: 207.419677734375
y: 321.2173767089844
z: -0.30446657538414
visibility: 0.9324538707733154
","x: 173.2540740966797
y: 296.6217041015625
z: -0.18767929077148438
visibility: 0.8935216069221497
","x: 201.41993713378906
y: 329.9239501953125
z: -0.33988672494888306
visibility: 0.9140890836715698
","x: 166.81398010253906
y: 290.6876525878906
z: -0.22272908687591553
visibility: 0.8606245517730713
","x: 199.90513610839844
y: 322.4063720703125
z: -0.349430650472641
visibility: 0.9170211553573608
","x: 167.1581573486328
y: 287.570068359375
z: -0.24786707758903503
visibility: 0.868680477142334
","x: 201.22348022460938
y: 319.14410400390625
z: -0.3066006302833557
visibility: 0.9025869369506836
","x: 169.6546630859375
y: 289.8976745605469
z: -0.20478026568889618
visibility: 0.8497023582458496
","x: 224.3873291015625
y: 350.2850341796875
z: -0.02948359027504921
visibility: 0.9995293617248535
","x: 202.24562072753906
y: 356.6095275878906
z: 0.02936895191669464
visibility: 0.9995165467262268
","x: 249.08065795898438
y: 427.34368896484375
z: -0.05554983764886856
visibility: 0.9900296926498413
","x: 193.55938720703125
y: 434.1499328613281
z: 0.017180148512125015
visibility: 0.9841069579124451
","x: 278.4453430175781
y: 492.6016540527344
z: 0.10869628190994263
visibility: 0.988969087600708
","x: 201.2542724609375
y: 507.08807373046875
z: 0.21728213131427765
visibility: 0.9876755475997925
","x: 278.4483337402344
y: 500.3718566894531
z: 0.11783985793590546
visibility: 0.8362699747085571
","x: 205.5054931640625
y: 517.4212036132812
z: 0.23037894070148468
visibility: 0.9102298617362976
","x: 290.1018981933594
y: 524.8017578125
z: -0.02202223613858223
visibility: 0.9845603704452515
","x: 195.54257202148438
y: 531.8782348632812
z: 0.10870808362960815
visibility: 0.9838743805885315
","x: 203.76974487304688
y: 323.80828857421875
z: 0.0
","x: 200.29852294921875
y: 322.713623046875
z: -0.001107928459532559
","x: 196.76100158691406
y: 322.88848876953125
z: -0.0029007429257035255
","x: 193.814208984375
y: 321.9302062988281
z: -0.005186729598790407
","x: 191.6089630126953
y: 320.8742980957031
z: -0.007341740187257528
","x: 196.40586853027344
y: 332.08184814453125
z: -0.0025093904696404934
","x: 192.85000610351562
y: 336.2781066894531
z: -0.006313289515674114
","x: 190.64706420898438
y: 335.9786376953125
z: -0.008422059938311577
","x: 189.2749786376953
y: 334.4915771484375
z: -0.00941905751824379
","x: 197.39083862304688
y: 334.2923278808594
z: -0.004197787027806044
","x: 194.34771728515625
y: 340.3529357910156
z: -0.008342963643372059
","x: 192.16485595703125
y: 339.8040466308594
z: -0.009856234304606915
","x: 190.9095458984375
y: 337.8076477050781
z: -0.010332747362554073
","x: 198.34388732910156
y: 335.90625
z: -0.006278019864112139
","x: 195.81016540527344
y: 342.06683349609375
z: -0.009782512672245502
","x: 193.80392456054688
y: 342.9809875488281
z: -0.010418522171676159
","x: 192.3441619873047
y: 342.485595703125
z: -0.010422860272228718
","x: 199.43414306640625
y: 336.39727783203125
z: -0.008630291558802128
","x: 197.4832305908203
y: 342.113525390625
z: -0.011185231618583202
","x: 195.74151611328125
y: 344.50018310546875
z: -0.011805184185504913
","x: 194.25392150878906
y: 345.4418640136719
z: -0.011936705559492111
",,,,,,,,,,,,,,,,,,,,,
24,"x: 205.96897888183594
y: 197.62548828125
z: -0.25690701603889465
visibility: 0.999950647354126
","x: 208.54376220703125
y: 190.05743408203125
z: -0.252155601978302
visibility: 0.9998826384544373
","x: 210.29293823242188
y: 189.95657348632812
z: -0.2522149682044983
visibility: 0.9998869895935059
","x: 212.08932495117188
y: 190.0203857421875
z: -0.25226449966430664
visibility: 0.9998877048492432
","x: 204.36891174316406
y: 190.50973510742188
z: -0.23807701468467712
visibility: 0.9998515844345093
","x: 203.18809509277344
y: 190.68421936035156
z: -0.23809722065925598
visibility: 0.9998245239257812
","x: 201.96644592285156
y: 190.80482482910156
z: -0.23808200657367706
visibility: 0.9998229146003723
","x: 215.5356903076172
y: 194.10902404785156
z: -0.18507060408592224
visibility: 0.9998743534088135
","x: 202.07957458496094
y: 193.89849853515625
z: -0.1183566227555275
visibility: 0.9996825456619263
","x: 209.7912139892578
y: 204.48208618164062
z: -0.2291330099105835
visibility: 0.9999459981918335
","x: 204.12734985351562
y: 204.890380859375
z: -0.21076686680316925
visibility: 0.9999279975891113
","x: 227.48196411132812
y: 240.3043975830078
z: -0.16016602516174316
visibility: 0.9999024868011475
","x: 191.61517333984375
y: 248.26783752441406
z: -0.003799051744863391
visibility: 0.9998214244842529
","x: 230.19131469726562
y: 301.36505126953125
z: -0.2026921957731247
visibility: 0.9641279578208923
","x: 187.43304443359375
y: 298.8332824707031
z: 0.008125049993395805
visibility: 0.8337417244911194
","x: 207.419677734375
y: 321.2173767089844
z: -0.30446657538414
visibility: 0.9324538707733154
","x: 173.2540740966797
y: 296.6217041015625
z: -0.18767929077148438
visibility: 0.8935216069221497
","x: 201.41993713378906
y: 329.9239501953125
z: -0.33988672494888306
visibility: 0.9140890836715698
","x: 166.81398010253906
y: 290.6876525878906
z: -0.22272908687591553
visibility: 0.8606245517730713
","x: 199.90513610839844
y: 322.4063720703125
z: -0.349430650472641
visibility: 0.9170211553573608
","x: 167.1581573486328
y: 287.570068359375
z: -0.24786707758903503
visibility: 0.868680477142334
","x: 201.22348022460938
y: 319.14410400390625
z: -0.3066006302833557
visibility: 0.9025869369506836
","x: 169.6546630859375
y: 289.8976745605469
z: -0.20478026568889618
visibility: 0.8497023582458496
","x: 224.3873291015625
y: 350.2850341796875
z: -0.02948359027504921
visibility: 0.9995293617248535
","x: 202.24562072753906
y: 356.6095275878906
z: 0.02936895191669464
visibility: 0.9995165467262268
","x: 249.08065795898438
y: 427.34368896484375
z: -0.05554983764886856
visibility: 0.9900296926498413
","x: 193.55938720703125
