uscmakers/ReverseChoreography/data/9_lite_spots_kaytranada.csv
,NOSE,LEFT_EYE_INNER,LEFT_EYE,LEFT_EYE_OUTER,RIGHT_EYE_INNER,RIGHT_EYE,RIGHT_EYE_OUTER,LEFT_EAR,RIGHT_EAR,MOUTH_LEFT,MOUTH_RIGHT,LEFT_SHOULDER,RIGHT_SHOULDER,LEFT_ELBOW,RIGHT_ELBOW,LEFT_WRIST,RIGHT_WRIST,LEFT_PINKY,RIGHT_PINKY,LEFT_INDEX,RIGHT_INDEX,LEFT_THUMB,RIGHT_THUMB,LEFT_HIP,RIGHT_HIP,LEFT_KNEE,RIGHT_KNEE,LEFT_ANKLE,RIGHT_ANKLE,LEFT_HEEL,RIGHT_HEEL,LEFT_FOOT_INDEX,RIGHT_FOOT_INDEX,WRIST,THUMB_CPC,THUMB_MCP,THUMB_IP,THUMB_TIP,INDEX_FINGER_MCP,INDEX_FINGER_PIP,INDEX_FINGER_DIP,INDEX_FINGER_TIP,MIDDLE_FINGER_MCP,MIDDLE_FINGER_PIP,MIDDLE_FINGER_DIP,MIDDLE_FINGER_TIP,RING_FINGER_PIP,RING_FINGER_DIP,RING_FINGER_TIP,RING_FINGER_MCP,PINKY_MCP,PINKY_PIP,PINKY_DIP,PINKY_TIP,WRIST2,THUMB_CPC2,THUMB_MCP2,THUMB_IP2,THUMB_TIP2,INDEX_FINGER_MCP2,INDEX_FINGER_PIP2,INDEX_FINGER_DIP2,INDEX_FINGER_TIP2,MIDDLE_FINGER_MCP2,MIDDLE_FINGER_PIP2,MIDDLE_FINGER_DIP2,MIDDLE_FINGER_TIP2,RING_FINGER_PIP2,RING_FINGER_DIP2,RING_FINGER_TIP2,RING_FINGER_MCP2,PINKY_MCP2,PINKY_PIP2,PINKY_DIP2,PINKY_TIP2
0,"x: 268.59161376953125
y: 205.4692840576172
z: -0.35952943563461304
visibility: 0.9981817007064819
","x: 270.7105712890625
y: 197.16708374023438
z: -0.34493735432624817
visibility: 0.9901612997055054
","x: 271.897216796875
y: 196.75355529785156
z: -0.34499895572662354
visibility: 0.9932102560997009
","x: 273.03277587890625
y: 196.25306701660156
z: -0.34509778022766113
visibility: 0.9925518035888672
","x: 267.12841796875
y: 196.4599609375
z: -0.3466993272304535
visibility: 0.989537239074707
","x: 265.93731689453125
y: 195.76779174804688
z: -0.3467186391353607
visibility: 0.990199089050293
","x: 264.7248229980469
y: 195.10023498535156
z: -0.3467535078525543
visibility: 0.9862653613090515
","x: 273.8189392089844
y: 197.15615844726562
z: -0.23889045417308807
visibility: 0.9890075922012329
","x: 261.2177429199219
y: 195.71978759765625
z: -0.2428167760372162
visibility: 0.9736880660057068
","x: 270.13043212890625
y: 213.0830078125
z: -0.31740206480026245
visibility: 0.996415376663208
","x: 265.14105224609375
y: 211.66261291503906
z: -0.31895875930786133
visibility: 0.9941071271896362
","x: 285.210693359375
y: 245.16815185546875
z: -0.17222686111927032
visibility: 0.9998296499252319
","x: 243.561767578125
y: 238.4031524658203
z: -0.15182887017726898
visibility: 0.9992013573646545
","x: 290.5254821777344
y: 300.97552490234375
z: -0.12883302569389343
visibility: 0.9751982092857361
","x: 233.25100708007812
y: 287.93365478515625
z: -0.12031672894954681
visibility: 0.8777217268943787
","x: 295.9719543457031
y: 354.5356750488281
z: -0.20562997460365295
visibility: 0.9082615375518799
","x: 224.32704162597656
y: 336.51080322265625
z: -0.18368910253047943
visibility: 0.7192285060882568
","x: 298.7325439453125
y: 374.04559326171875
z: -0.2274293154478073
visibility: 0.8347400426864624
","x: 220.2752227783203
y: 351.4538269042969
z: -0.20786018669605255
visibility: 0.6008908152580261
","x: 297.6580810546875
y: 376.45428466796875
z: -0.26044487953186035
visibility: 0.8509235978126526
","x: 222.73507690429688
y: 352.2482604980469
z: -0.24043893814086914
visibility: 0.619465708732605
","x: 294.8400573730469
y: 366.80242919921875
z: -0.22110900282859802
visibility: 0.8429973125457764
","x: 225.19668579101562
y: 347.5455017089844
z: -0.19998227059841156
visibility: 0.6086454391479492
","x: 273.50390625
y: 353.8187255859375
z: -0.013123753480613232
visibility: 0.99754399061203
","x: 250.09378051757812
y: 356.8674011230469
z: 0.013145913369953632
visibility: 0.9969033598899841
","x: 276.7671813964844
y: 424.1053771972656
z: -0.0422782339155674
visibility: 0.9699779748916626
","x: 254.34481811523438
y: 430.3590087890625
z: 0.02222640998661518
visibility: 0.9309659004211426
","x: 272.7064514160156
y: 508.314208984375
z: 0.08311668038368225
visibility: 0.9638432264328003
","x: 261.3828125
y: 510.080322265625
z: 0.17948280274868011
visibility: 0.9429842829704285
","x: 272.3592224121094
y: 520.4661865234375
z: 0.08789604902267456
visibility: 0.7316877245903015
","x: 263.8381042480469
y: 523.1046752929688
z: 0.1879936158657074
visibility: 0.8047236800193787
","x: 271.5022277832031
y: 531.0233154296875
z: -0.04770183563232422
visibility: 0.9563739895820618
","x: 256.0627136230469
y: 532.8487548828125
z: 0.07330131530761719
visibility: 0.943140983581543
",,,,,,,,,,,,,,,,,,,,,,,,,,,,,,,,,,,,,,,,,,
1,"x: 267.5802001953125
y: 203.1112060546875
z: -0.3821747899055481
visibility: 0.9983516335487366
","x: 269.9497375488281
y: 195.20272827148438
z: -0.3657997250556946
visibility: 0.9910863637924194
","x: 271.187255859375
y: 195.09666442871094
z: -0.3658127784729004
visibility: 0.9938387274742126
","x: 272.3310546875
y: 194.94314575195312
z: -0.36584800481796265
visibility: 0.9932478070259094
","x: 266.0733337402344
y: 194.35861206054688
z: -0.3665042817592621
visibility: 0.9905169010162354
","x: 264.6729431152344
y: 193.75637817382812
z: -0.36653417348861694
visibility: 0.9911087155342102
","x: 263.247314453125
y: 193.17152404785156
z: -0.36655372381210327
visibility: 0.9875544309616089
","x: 273.0359802246094
y: 196.9364013671875
z: -0.25036686658859253
visibility: 0.9900231957435608
","x: 260.0074462890625
y: 194.92279052734375
z: -0.2532482445240021
visibility: 0.9761248826980591
","x: 269.132080078125
y: 210.7650604248047
z: -0.33747002482414246
visibility: 0.9967508912086487
","x: 263.89862060546875
y: 210.0963134765625
z: -0.33851730823516846
visibility: 0.9946622252464294
","x: 284.7391357421875
y: 245.2149658203125
z: -0.17684414982795715
visibility: 0.9998390078544617
","x: 242.30526733398438
y: 238.46910095214844
z: -0.14938780665397644
visibility: 0.9992574453353882
","x: 290.2269287109375
y: 303.4935302734375
z: -0.12846127152442932
visibility: 0.9763195514678955
","x: 231.719482421875
y: 288.7398986816406
z: -0.08839073777198792
visibility: 0.8842909932136536
","x: 296.1343994140625
y: 354.544189453125
z: -0.20705148577690125
visibility: 0.9131610989570618
","x: 222.15045166015625
y: 335.90740966796875
z: -0.16582119464874268
visibility: 0.7365753054618835
","x: 298.75054931640625
y: 374.043701171875
z: -0.23208372294902802
visibility: 0.8421106934547424
","x: 218.87623596191406
y: 350.4901123046875
z: -0.19127142429351807
visibility: 0.6227259635925293
","x: 297.1575622558594
y: 375.43341064453125
z: -0.26838546991348267
visibility: 0.8574402332305908
","x: 220.0353546142578
y: 351.2301025390625
z: -0.23156967759132385
visibility: 0.6409950852394104
","x: 294.671875
y: 366.9486999511719
z: -0.22310347855091095
visibility: 0.8487425446510315
","x: 221.9542236328125
y: 346.37896728515625
z: -0.18505117297172546
visibility: 0.6304998397827148
","x: 275.5832824707031
y: 354.217529296875
z: -0.012453547678887844
visibility: 0.9976905584335327
","x: 251.7882080078125
y: 356.8675537109375
z: 0.01246174518018961
visibility: 0.9971334338188171
","x: 276.7691345214844
y: 429.75396728515625
z: -0.021026097238063812
visibility: 0.972226083278656
","x: 254.12017822265625
y: 432.3262023925781
z: -0.0013098634080961347
visibility: 0.9367538690567017
","x: 272.8712463378906
y: 508.3394775390625
z: 0.16689883172512054
visibility: 0.9664532542228699
","x: 261.21490478515625
y: 510.1174621582031
z: 0.18472328782081604
visibility: 0.9476225972175598
","x: 272.6278381347656
y: 519.9321899414062
z: 0.1769872009754181
visibility: 0.7448469996452332
","x: 263.81341552734375
y: 522.245361328125
z: 0.1947999894618988
visibility: 0.8143611550331116
","x: 270.9220275878906
y: 530.56787109375
z: 0.03675306960940361
visibility: 0.9593096375465393
","x: 255.99537658691406
y: 532.8556518554688
z: 0.06976334005594254
visibility: 0.9474427700042725
",,,,,,,,,,,,,,,,,,,,,,,,,,,,,,,,,,,,,,,,,,
2,"x: 267.31988525390625
y: 200.02479553222656
z: -0.3805016279220581
visibility: 0.998510479927063
","x: 269.5634460449219
y: 192.61488342285156
z: -0.35957714915275574
visibility: 0.9919453263282776
","x: 270.72674560546875
y: 192.75010681152344
z: -0.3594975769519806
visibility: 0.9944257736206055
","x: 271.7616882324219
y: 192.93800354003906
z: -0.35938435792922974
visibility: 0.9938925504684448
","x: 265.72637939453125
y: 191.9048309326172
z: -0.36091914772987366
visibility: 0.9914336204528809
","x: 264.28546142578125
y: 191.50860595703125
z: -0.3609822988510132
visibility: 0.9919663071632385
","x: 262.84002685546875
y: 191.13157653808594
z: -0.3610091209411621
visibility: 0.9887636303901672
","x: 272.36517333984375
y: 196.30755615234375
z: -0.23804017901420593
visibility: 0.9909670948982239
","x: 259.411376953125
y: 194.12705993652344
z: -0.24588695168495178
visibility: 0.9784342050552368
","x: 268.95758056640625
y: 207.57357788085938
z: -0.3323773145675659
visibility: 0.9970631003379822
","x: 263.7425231933594
y: 207.1876220703125
z: -0.3356422781944275
visibility: 0.9951804876327515
","x: 284.2210693359375
y: 245.19850158691406
z: -0.15996550023555756
visibility: 0.9998466968536377
","x: 241.64739990234375
y: 238.8748321533203
z: -0.1431516706943512
visibility: 0.9993205666542053
","x: 290.0045471191406
y: 303.37445068359375
z: -0.10327903926372528
visibility: 0.9770531058311462
","x: 231.076171875
y: 289.86077880859375
z: -0.08441203832626343
visibility: 0.8933077454566956
","x: 296.2309875488281
y: 351.9915771484375
z: -0.19056829810142517
visibility: 0.917178750038147
","x: 219.94757080078125
y: 336.110107421875
z: -0.1641789823770523
visibility: 0.7575609683990479
","x: 298.81915283203125
y: 371.20599365234375
z: -0.2164139300584793
visibility: 0.8483003377914429
","x: 216.65867614746094
y: 350.5279846191406
z: -0.19082920253276825
visibility: 0.6500291228294373
","x: 296.9700012207031
y: 371.1102294921875
z: -0.25445395708084106
visibility: 0.8629127740859985
","x: 217.53399658203125
y: 351.24566650390625
z: -0.23065514862537384
visibility: 0.6674414277076721
","x: 294.55645751953125
y: 364.282958984375
z: -0.20742245018482208
visibility: 0.8535715937614441
","x: 219.41604614257812
y: 346.4031982421875
z: -0.18301886320114136
visibility: 0.6573652029037476
","x: 276.6290283203125
y: 354.76568603515625
z: -0.010234511457383633
visibility: 0.9978178143501282
","x: 252.89137268066406
y: 356.8290710449219
z: 0.010205695405602455
visibility: 0.9973614811897278
","x: 276.7843322753906
y: 432.5074462890625
z: -0.004860610701143742
visibility: 0.9744755625724792
","x: 253.71823120117188
y: 434.3402099609375
z: -0.002363097621127963
visibility: 0.9423625469207764
","x: 273.2928771972656
y: 508.337158203125
z: 0.18603576719760895
visibility: 0.9690781235694885
","x: 260.8799133300781
y: 510.3216857910156
z: 0.18653085827827454
visibility: 0.9521182775497437
","x: 272.9348449707031
y: 518.8861694335938
z: 0.19640903174877167
visibility: 0.7574442028999329
","x: 263.7808837890625
y: 521.6417236328125
z: 0.19666235148906708
visibility: 0.8235965371131897
","x: 270.4177551269531
y: 530.5839233398438
z: 0.0578213706612587
visibility: 0.9623765349388123
","x: 255.6827850341797
y: 533.9495239257812
z: 0.06751250475645065
visibility: 0.951689600944519
",,,,,,,,,,,,,,,,,,,,,,,,,,,,,,,,,,,,,,,,,,
3,"x: 266.1649475097656
y: 199.6155548095703
z: -0.3430759310722351
visibility: 0.9986516833305359
","x: 268.5885925292969
y: 192.109619140625
z: -0.32439732551574707
visibility: 0.9927120804786682
","x: 269.8377990722656
y: 192.31192016601562
z: -0.32440632581710815
visibility: 0.9949475526809692
","x: 270.888427734375
y: 192.55128479003906
z: -0.3244010806083679
visibility: 0.9944668412208557
","x: 264.2814636230469
y: 191.3241424560547
z: -0.32590991258621216
visibility: 0.9922444820404053
","x: 262.6906433105469
y: 190.97898864746094
z: -0.3259369730949402
visibility: 0.992719292640686
","x: 261.06158447265625
y: 190.6757354736328
z: -0.3259708285331726
visibility: 0.9898276329040527
","x: 271.7648620605469
y: 196.13043212890625
z: -0.20868471264839172
visibility: 0.9918116331100464
","x: 257.9700012207031
y: 193.829345703125
z: -0.21635881066322327
visibility: 0.9804632663726807
","x: 268.2825622558594
y: 206.96099853515625
z: -0.2987213730812073
visibility: 0.997343122959137
","x: 262.5528259277344
y: 206.4051971435547
z: -0.30126312375068665
visibility: 0.9956420660018921
","x: 283.33740234375
y: 245.39303588867188
z: -0.1388651728630066
visibility: 0.9998564720153809
","x: 240.55967712402344
y: 240.23358154296875
z: -0.11987750232219696
visibility: 0.9993696212768555
","x: 289.7384948730469
y: 303.77642822265625
z: -0.09341521561145782
visibility: 0.9776586890220642
","x: 230.2961883544922
y: 292.2217102050781
z: -0.063603475689888
visibility: 0.8984864354133606
","x: 296.9566650390625
y: 351.03326416015625
z: -0.19252602756023407
visibility: 0.92104172706604
","x: 218.63861083984375
y: 338.1241455078125
z: -0.14348316192626953
visibility: 0.7712143659591675
","x: 299.8797607421875
y: 369.3692321777344
z: -0.2184877097606659
visibility: 0.8545659184455872
","x: 215.81100463867188
y: 352.34002685546875
z: -0.16899962723255157
visibility: 0.6672382950782776
","x: 297.8529052734375
y: 369.03546142578125
z: -0.25547170639038086
visibility: 0.868557333946228
","x: 217.0648193359375
y: 352.27825927734375
z: -0.2080622911453247
visibility: 0.684615969657898
","x: 295.75927734375
y: 363.08612060546875
z: -0.2092379778623581
visibility: 0.8588078022003174
","x: 218.67398071289062
y: 347.4477844238281
z: -0.16207268834114075
visibility: 0.6749810576438904
","x: 276.4022521972656
y: 357.28289794921875
z: -0.007709105499088764
visibility: 0.9979738593101501
","x: 252.6623992919922
y: 358.20135498046875
z: 0.007667758967727423
visibility: 0.9975700378417969
","x: 276.93414306640625
y: 433.760498046875
z: -0.02056216448545456
visibility: 0.9763467311859131
","x: 252.8604736328125
y: 437.1112060546875
z: -0.00785196665674448
visibility: 0.9471344351768494
","x: 273.3389587402344
y: 508.2992248535156
z: 0.1806715726852417
visibility: 0.9711229205131531
","x: 260.7386779785156
y: 510.3336181640625
z: 0.20196565985679626
visibility: 0.955923855304718
","x: 272.887451171875
y: 518.2127685546875
z: 0.19417470693588257
visibility: 0.7658928036689758
","x: 263.72772216796875
y: 521.0845336914062
z: 0.2145201414823532
visibility: 0.8308650255203247
","x: 270.4259338378906
y: 531.0825805664062
z: 0.06103317067027092
visibility: 0.9646690487861633
","x: 255.7116241455078
y: 534.85986328125
z: 0.08393602073192596
visibility: 0.9551939964294434
",,,,,,,,,,,,,,,,,,,,,,,,,,,,,,,,,,,,,,,,,,
4,"x: 265.0500183105469
y: 199.76376342773438
z: -0.29760339856147766
visibility: 0.9987765550613403
","x: 268.0046691894531
y: 192.30482482910156
z: -0.27921098470687866
visibility: 0.9933897256851196
","x: 269.2957763671875
y: 192.51547241210938
z: -0.2792538106441498
visibility: 0.9954041242599487
","x: 270.4225769042969
y: 192.71783447265625
z: -0.2792694866657257
visibility: 0.9949703812599182
","x: 263.3431396484375
y: 191.36839294433594
z: -0.280508816242218
visibility: 0.9929616451263428
","x: 261.6398010253906
y: 190.98097229003906
z: -0.280518114566803
visibility: 0.9933796525001526
","x: 259.977783203125
y: 190.65753173828125
z: -0.280551016330719
visibility: 0.9907636046409607
","x: 271.58453369140625
y: 196.266845703125
z: -0.16922232508659363
visibility: 0.9925471544265747
","x: 257.1494140625
y: 193.80581665039062
z: -0.17616182565689087
visibility: 0.9822282195091248
","x: 267.47607421875
y: 207.00242614746094
z: -0.2563730776309967
visibility: 0.9975894689559937
","x: 261.31915283203125
y: 206.28976440429688
z: -0.2584645450115204
visibility: 0.9960519671440125
","x: 283.0418701171875
y: 245.53952026367188
z: -0.11091723293066025
visibility: 0.9998649954795837
","x: 240.0889434814453
y: 242.03884887695312
z: -0.08982722461223602
visibility: 0.9994094967842102
","x: 289.8041687011719
y: 303.7533264160156
z: -0.07768397033214569
visibility: 0.9789530038833618
","x: 229.2975311279297
y: 294.30560302734375
z: -0.042186763137578964
visibility: 0.9031489491462708
","x: 297.7925720214844
y: 351.2209777832031
z: -0.18100906908512115
visibility: 0.9271957278251648
","x: 217.05596923828125
y: 340.8063049316406
z: -0.12622445821762085
visibility: 0.7852339148521423
","x: 300.42108154296875
y: 369.466796875
z: -0.20877306163311005
visibility: 0.865053117275238
","x: 213.5498046875
y: 354.371826171875
z: -0.15165148675441742
visibility: 0.6857147216796875
","x: 298.0459289550781
y: 369.2196960449219
z: -0.24401691555976868
visibility: 0.8780419230461121
","x: 214.91343688964844
y: 354.0353088378906
z: -0.18959470093250275
visibility: 0.7028833627700806
","x: 296.2115173339844
y: 363.27276611328125
z: -0.19695954024791718
visibility: 0.8684659600257874
","x: 216.81854248046875
y: 349.60992431640625
z: -0.14456531405448914
visibility: 0.6937086582183838
","x: 276.26043701171875
y: 360.7542724609375
z: -0.003992471843957901
visibility: 0.998107373714447
","x: 252.51992797851562
y: 360.0574951171875
z: 0.003994342405349016
visibility: 0.9977667331695557
","x: 276.9951171875
y: 433.066162109375
z: -0.022157974541187286
visibility: 0.9777560830116272
","x: 251.52037048339844
y: 437.07598876953125
z: -0.04099613055586815
visibility: 0.951445996761322
","x: 272.93145751953125
y: 508.1026611328125
z: 0.1775171309709549
visibility: 0.972272515296936
","x: 260.3682556152344
y: 510.54052734375
z: 0.15962882339954376
visibility: 0.9592835307121277
","x: 271.5185241699219
y: 517.24853515625
z: 0.1910298466682434
visibility: 0.773747444152832
","x: 263.36871337890625
y: 521.0960693359375
z: 0.17091089487075806
visibility: 0.8365656137466431
","x: 272.14410400390625
y: 531.0796508789062
z: 0.06844902038574219
visibility: 0.9660891890525818
","x: 255.2230987548828
y: 535.3939208984375
z: 0.04289356619119644
visibility: 0.9580971002578735
",,,,,,,,,,,,,,,,,,,,,,,,,,,,,,,,,,,,,,,,,,
5,"x: 265.51019287109375
y: 199.64353942871094
z: -0.2813512086868286
visibility: 0.9988924264907837
","x: 268.314697265625
y: 192.24713134765625
z: -0.26169729232788086
visibility: 0.9940217137336731
","x: 269.6759338378906
y: 192.54937744140625
z: -0.2617383897304535
visibility: 0.9958362579345703
","x: 270.8882141113281
y: 192.80023193359375
z: -0.26175734400749207
visibility: 0.9954448342323303
","x: 263.7778015136719
y: 191.04986572265625
z: -0.265557199716568
visibility: 0.9936348795890808
","x: 261.92425537109375
y: 190.65003967285156
z: -0.26557597517967224
visibility: 0.9940066933631897
","x: 260.0047302246094
y: 190.33282470703125
z: -0.26560521125793457
visibility: 0.9916443824768066
","x: 271.8887023925781
y: 196.38461303710938
z: -0.1509280502796173
visibility: 0.9932369589805603
","x: 257.4144287109375
y: 193.8037109375
z: -0.16989940404891968
visibility: 0.9839222431182861
","x: 267.7370910644531
y: 207.12527465820312
z: -0.24029099941253662
visibility: 0.9978159070014954
","x: 261.975341796875
y: 206.3518524169922
z: -0.24581356346607208
visibility: 0.9964284896850586
","x: 283.0840759277344
y: 246.56564331054688
z: -0.09116818755865097
visibility: 0.9998708367347717
","x: 240.22235107421875
y: 242.97666931152344
z: -0.09441626071929932
visibility: 0.9994502067565918
","x: 290.0270690917969
y: 304.3190612792969
z: -0.054042965173721313
visibility: 0.9792371392250061
","x: 229.23159790039062
y: 296.5943603515625
z: -0.05664164945483208
visibility: 0.9094082117080688
","x: 298.3733215332031
y: 351.26214599609375
z: -0.15199771523475647
visibility: 0.9311541318893433
","x: 217.23483276367188
y: 342.9417724609375
z: -0.1284160315990448
visibility: 0.7979444265365601
","x: 300.7356262207031
y: 369.70989990234375
z: -0.1765744835138321
visibility: 0.8713416457176208
","x: 213.81304931640625
y: 356.36865234375
z: -0.15078292787075043
visibility: 0.701786994934082
","x: 298.3709411621094
y: 369.6507263183594
z: -0.2099645435810089
visibility: 0.8837119936943054
","x: 215.48492431640625
y: 355.82513427734375
z: -0.18537774682044983
visibility: 0.7184619903564453
","x: 296.66461181640625
y: 363.43206787109375
z: -0.16725346446037292
visibility: 0.8738585114479065
","x: 217.44705200195312
y: 351.5308837890625
z: -0.14485512673854828
visibility: 0.7088832855224609
","x: 276.094482421875
y: 361.50946044921875
z: 0.002995371352881193
visibility: 0.9982490539550781
","x: 252.48158264160156
y: 360.9098815917969
z: -0.002984891878440976
visibility: 0.997947633266449
","x: 277.0047607421875
y: 431.5841369628906
z: -0.0876108780503273
visibility: 0.9792201519012451
","x: 250.88699340820312
y: 436.85467529296875
z: -0.05313793942332268
visibility: 0.9554635882377625
","x: 272.7684631347656
y: 507.9642028808594
z: 0.053360797464847565
visibility: 0.973882257938385
","x: 260.0252990722656
y: 510.5447082519531
z: 0.1203000396490097
visibility: 0.9620407223701477
","x: 270.3926696777344
y: 517.265869140625
z: 0.06040525436401367
visibility: 0.7886040210723877
","x: 262.5833740234375
y: 521.1902465820312
z: 0.12856268882751465
visibility: 0.8383958339691162
","x: 275.4325866699219
y: 530.603515625
z: -0.06557630747556686
visibility: 0.9681299924850464
","x: 255.18777465820312
y: 535.3400268554688
z: 0.0031904554925858974
visibility: 0.960262656211853
",,,,,,,,,,,,,,,,,,,,,,,,,,,,,,,,,,,,,,,,,,
6,"x: 269.39910888671875
y: 202.53610229492188
z: -0.3737930655479431
visibility: 0.9989973306655884
","x: 271.57647705078125
y: 194.5843505859375
z: -0.3557603359222412
visibility: 0.9945955276489258
","x: 272.82427978515625
y: 194.93853759765625
z: -0.3557814955711365
visibility: 0.9962303638458252
","x: 273.9820556640625
y: 195.29539489746094
z: -0.35582512617111206
visibility: 0.9958773255348206
","x: 267.5137939453125
y: 193.24948120117188
z: -0.35912930965423584
visibility: 0.9942456483840942
","x: 265.7881774902344
y: 192.7440643310547
z: -0.3591839671134949
visibility: 0.9945777654647827
","x: 263.93157958984375
y: 192.29859924316406
z: -0.35919588804244995
visibility: 0.9924474954605103
","x: 274.0765686035156
y: 199.35687255859375
z: -0.24015721678733826
visibility: 0.9938724040985107
","x: 260.0313415527344
y: 195.54025268554688
z: -0.25773411989212036
visibility: 0.9854779839515686
","x: 270.6180419921875
y: 210.30235290527344
z: -0.3301577866077423
visibility: 0.9980220794677734
","x: 266.0876770019531
y: 209.66799926757812
z: -0.3352341055870056
visibility: 0.9967730641365051
","x: 284.640625
y: 250.4031524658203
z: -0.16620591282844543
visibility: 0.9998775720596313
","x: 240.77378845214844
y: 244.61708068847656
z: -0.16147711873054504
visibility: 0.9994968771934509
","x: 290.70306396484375
y: 308.4723205566406
z: -0.13176923990249634
visibility: 0.9796305298805237
","x: 228.9862823486328
y: 295.9156494140625
z: -0.10906517505645752
visibility: 0.9166229963302612
","x: 299.0908203125
y: 356.0133361816406
z: -0.2264203578233719
visibility: 0.9334364533424377
","x: 217.40478515625
y: 343.1179504394531
z: -0.160991832613945
visibility: 0.8110077977180481
","x: 301.19940185546875
y: 372.1778564453125
z: -0.25278347730636597
visibility: 0.8743470311164856
","x: 213.95635986328125
y: 356.042236328125
z: -0.17850281298160553
visibility: 0.7173621654510498
","x: 299.4040832519531
y: 371.6192626953125
z: -0.2871710956096649
visibility: 0.8863580822944641
","x: 215.54331970214844
y: 355.649169921875
z: -0.21424195170402527
visibility: 0.7336523532867432
","x: 297.92669677734375
y: 366.7915344238281
z: -0.24214592576026917
visibility: 0.8755900263786316
","x: 217.540283203125
y: 351.4012145996094
z: -0.17677053809165955
visibility: 0.7239986062049866
","x: 276.0035095214844
y: 360.9312744140625
z: 0.003148504998534918
visibility: 0.9983775019645691
","x: 252.41827392578125
y: 360.77496337890625
z: -0.003133392659947276
visibility: 0.99811851978302
","x: 277.329833984375
y: 430.0782775878906
z: -0.09287987649440765
visibility: 0.9806824922561646
","x: 250.7537841796875
y: 436.58892822265625
z: -0.06940945237874985
visibility: 0.9592607021331787
","x: 275.29193115234375
y: 508.26727294921875
z: 0.05321114510297775
visibility: 0.9758105278015137
","x: 259.9541931152344
y: 510.575439453125
z: 0.09622137248516083
visibility: 0.9649441838264465
","x: 271.6349182128906
y: 518.4660034179688
z: 0.06005824729800224
visibility: 0.8024399280548096
","x: 262.6003723144531
y: 521.2041015625
z: 0.10315434634685516
visibility: 0.843162477016449
","x: 280.8141784667969
y: 530.8046264648438
z: -0.07479602843523026
visibility: 0.9703618288040161
","x: 254.4408721923828
y: 535.3154907226562
z: -0.029332498088479042
visibility: 0.9627870917320251
",,,,,,,,,,,,,,,,,,,,,,,,,,,,,,,,,,,,,,,,,,
7,"x: 274.310546875
y: 209.16761779785156
z: -0.446153461933136
visibility: 0.9990956783294678
","x: 276.6864929199219
y: 201.42828369140625
z: -0.4296949803829193
visibility: 0.9951283931732178
","x: 277.8514404296875
y: 201.72543334960938
z: -0.4296870827674866
visibility: 0.9966003894805908
","x: 278.8647766113281
y: 202.02378845214844
z: -0.4297121465206146
visibility: 0.9962807297706604
","x: 272.42620849609375
y: 200.2236785888672
z: -0.4355669915676117
visibility: 0.9948128461837769
","x: 270.6237487792969
y: 199.59323120117188
z: -0.43563881516456604
visibility: 0.9951122403144836
","x: 268.74627685546875
y: 198.96505737304688
z: -0.43563413619995117
visibility: 0.993193507194519
","x: 279.03076171875
y: 204.88864135742188
z: -0.30065497756004333
visibility: 0.9944691061973572
","x: 265.01263427734375
y: 200.62020874023438
z: -0.3307552933692932
visibility: 0.986920177936554
","x: 275.2931213378906
y: 215.74307250976562
z: -0.39537906646728516
visibility: 0.9982155561447144
","x: 270.51751708984375
y: 215.5103759765625
z: -0.4042208194732666
visibility: 0.9970920085906982
","x: 287.74420166015625
y: 251.56561279296875
z: -0.19172042608261108
visibility: 0.9998874664306641
","x: 244.62327575683594
y: 244.44566345214844
z: -0.21237127482891083
visibility: 0.9995439648628235
","x: 293.0144958496094
y: 308.15838623046875
z: -0.12268344312906265
visibility: 0.9806710481643677
","x: 229.1007843017578
y: 292.9040222167969
z: -0.12854179739952087
visibility: 0.9237465262413025
","x: 301.1919250488281
y: 356.6517333984375
z: -0.20701949298381805
visibility: 0.9378923177719116
","x: 218.0175323486328
y: 341.17913818359375
z: -0.15867938101291656
visibility: 0.8263829350471497
","x: 302.8834228515625
y: 372.28826904296875
z: -0.21996144950389862
visibility: 0.8807551860809326
","x: 214.53372192382812
y: 353.81549072265625
z: -0.1716354340314865
visibility: 0.7377621531486511
","x: 301.4321594238281
y: 371.69189453125
z: -0.26092442870140076
visibility: 0.8921392560005188
","x: 216.101806640625
y: 353.6968994140625
z: -0.20795457065105438
visibility: 0.7530858516693115
","x: 300.3055419921875
y: 366.9037170410156
z: -0.2246559113264084
visibility: 0.8812563419342041
","x: 217.97549438476562
y: 349.6953125
z: -0.1730281114578247
visibility: 0.7435963153839111
","x: 276.98297119140625
y: 359.8056335449219
z: 0.007519148290157318
visibility: 0.9985100626945496
","x: 252.9660186767578
y: 359.230712890625
z: -0.0075514065101742744
visibility: 0.9982839226722717
","x: 281.86981201171875
y: 429.923095703125
z: -0.03029363974928856
visibility: 0.9822704195976257
","x: 250.81263732910156
y: 436.396240234375
z: -0.05249591916799545
visibility: 0.9629663825035095
","x: 284.8192443847656
y: 508.80438232421875
z: 0.09626005589962006
visibility: 0.9778700470924377
","x: 259.4217224121094
y: 510.32025146484375
z: 0.11254334449768066
visibility: 0.9680553674697876
","x: 282.05145263671875
y: 519.4262084960938
z: 0.09793888032436371
visibility: 0.8171455264091492
","x: 262.52423095703125
y: 520.6575927734375
z: 0.1196315735578537
visibility: 0.850959837436676
","x: 291.30450439453125
y: 531.3997802734375
z: -0.03881620243191719
visibility: 0.9727552533149719
","x: 254.3977508544922
y: 534.9752197265625
z: -0.015160052105784416
visibility: 0.9658467173576355
",,,,,,,,,,,,,,,,,,,,,,,,,,,,,,,,,,,,,,,,,,
8,"x: 279.92791748046875
y: 208.2027587890625
z: -0.4221048951148987
visibility: 0.9991838335990906
","x: 282.5123291015625
y: 200.5006561279297
z: -0.40506044030189514
visibility: 0.9956063032150269
","x: 283.73583984375
y: 200.81085205078125
z: -0.4050598740577698
visibility: 0.9969318509101868
","x: 284.8116760253906
y: 201.12191772460938
z: -0.4050741195678711
visibility: 0.9966412782669067
","x: 277.9599914550781
y: 199.2588653564453
z: -0.41008129715919495
visibility: 0.9953212738037109
","x: 276.087158203125
y: 198.65841674804688
z: -0.4101419448852539
visibility: 0.9955915808677673
","x: 274.1802978515625
y: 198.08798217773438
z: -0.410153865814209
visibility: 0.9938636422157288
","x: 285.07952880859375
y: 204.2454376220703
z: -0.2797035574913025
visibility: 0.9950045943260193
","x: 271.0518798828125
y: 200.01370239257812
z: -0.305174320936203
visibility: 0.9882171750068665
","x: 281.2558288574219
y: 215.1125946044922
z: -0.37337595224380493
visibility: 0.9983897805213928
","x: 275.70904541015625
y: 214.65013122558594
z: -0.38093000650405884
visibility: 0.9973794221878052
","x: 293.11151123046875
y: 252.06382751464844
z: -0.18306519091129303
visibility: 0.999896228313446
","x: 248.85812377929688
y: 242.8617706298828
z: -0.19140173494815826
visibility: 0.9995869398117065
","x: 298.37823486328125
y: 310.65869140625
z: -0.1215401291847229
visibility: 0.9809669256210327
","x: 233.80419921875
y: 290.6631164550781
z: -0.11388210952281952
visibility: 0.9291781783103943
","x: 303.73760986328125
y: 360.8482360839844
z: -0.20698758959770203
visibility: 0.9404053688049316
","x: 222.57937622070312
y: 338.3599548339844
z: -0.1378946155309677
visibility: 0.8393224477767944
","x: 305.958740234375
y: 374.47467041015625
z: -0.22426962852478027
visibility: 0.8837335705757141
","x: 218.9398193359375
y: 352.0341796875
z: -0.15225598216056824
visibility: 0.7547494173049927
","x: 304.10546875
y: 374.18878173828125
z: -0.26400700211524963
visibility: 0.8946506977081299
","x: 220.25462341308594
y: 352.04150390625
z: -0.18944939970970154
visibility: 0.7694119811058044
","x: 302.61126708984375
y: 369.70147705078125
z: -0.22437703609466553
visibility: 0.8832075595855713
","x: 222.296630859375
y: 347.9426574707031
z: -0.1530844271183014
visibility: 0.7605015635490417
","x: 280.7624206542969
y: 359.60894775390625
z: 0.006795722991228104
visibility: 0.9986371397972107
","x: 256.0703125
y: 359.2398376464844
z: -0.006849277764558792
visibility: 0.9984428286552429
","x: 290.9366149902344
y: 430.71527099609375
z: 0.0012792665511369705
visibility: 0.9838482737541199
","x: 251.11215209960938
y: 438.9788513183594
z: -0.048940565437078476
visibility: 0.966468870639801
","x: 297.2738342285156
y: 508.6692810058594
z: 0.1682930588722229
visibility: 0.9798530340194702
","x: 259.4554748535156
y: 510.1241455078125
z: 0.1291007101535797
visibility: 0.9710443019866943
","x: 295.2361145019531
y: 519.4207153320312
z: 0.17595236003398895
visibility: 0.8293029069900513
","x: 262.9150695800781
y: 520.3131713867188
z: 0.13653431832790375
visibility: 0.8608896136283875
","x: 304.77642822265625
y: 533.9977416992188
z: 0.0394953116774559
visibility: 0.9750357270240784
","x: 253.85821533203125
y: 534.9434204101562
z: 0.007882094010710716
visibility: 0.9689030051231384
",,,,,,,,,,,,,,,,,,,,,,,,,,,,,,,,,,,,,,,,,,
9,"x: 287.00421142578125
y: 207.63177490234375
z: -0.4669835567474365
visibility: 0.9992632269859314
","x: 289.7009582519531
y: 199.97683715820312
z: -0.44836658239364624
visibility: 0.9960362315177917
","x: 291.0328063964844
y: 200.322021484375
z: -0.44835948944091797
visibility: 0.9972293376922607
","x: 292.3137512207031
y: 200.67962646484375
z: -0.44839978218078613
visibility: 0.9969660043716431
","x: 285.329833984375
y: 198.68211364746094
z: -0.45394253730773926
visibility: 0.9957801699638367
","x: 283.5416259765625
y: 198.10121154785156
z: -0.4540367126464844
visibility: 0.996024489402771
","x: 281.6412048339844
y: 197.56028747558594
z: -0.45407581329345703
visibility: 0.9944691061973572
","x: 292.50469970703125
y: 203.9189453125
z: -0.3172782063484192
visibility: 0.9954810738563538
","x: 278.1450500488281
y: 199.55252075195312
z: -0.34417420625686646
visibility: 0.9893829822540283
","x: 288.2940673828125
y: 214.65806579589844
z: -0.4162813723087311
visibility: 0.9985466599464417
","x: 283.24932861328125
y: 214.25314331054688
z: -0.42445841431617737
visibility: 0.9976389408111572
","x: 298.9991455078125
y: 251.89801025390625
z: -0.2156718671321869
visibility: 0.9999023079872131
","x: 255.79539489746094
y: 242.2900390625
z: -0.22904519736766815
visibility: 0.9996257424354553
","x: 304.75018310546875
y: 310.09759521484375
z: -0.16034267842769623
visibility: 0.9787616729736328
","x: 240.23947143554688
y: 290.451171875
z: -0.1777341514825821
visibility: 0.9349202513694763
","x: 311.4776916503906
y: 360.25946044921875
z: -0.2504410743713379
visibility: 0.9312239289283752
","x: 229.15928649902344
y: 338.6622619628906
z: -0.2514904737472534
visibility: 0.8507511019706726
","x: 314.794189453125
y: 375.003662109375
z: -0.2758916914463043
visibility: 0.8701538443565369
","x: 224.6562957763672
y: 352.05194091796875
z: -0.28051555156707764
visibility: 0.7694185972213745
","x: 313.61016845703125
y: 375.4143981933594
z: -0.3129587769508362
visibility: 0.881364643573761
","x: 227.51815795898438
y: 352.19427490234375
z: -0.3184528946876526
visibility: 0.7835690975189209
","x: 311.3135681152344
y: 370.951904296875
z: -0.2676539719104767
visibility: 0.8685508966445923
","x: 230.1659393310547
y: 348.31805419921875
z: -0.26906663179397583
visibility: 0.774553656578064
","x: 287.5646057128906
y: 358.690185546875
z: 0.005917658098042011
visibility: 0.9987612962722778
","x: 262.0859375
y: 358.8366394042969
z: -0.0059846630319952965
visibility: 0.9985834956169128
","x: 300.8015441894531
y: 431.332275390625
z: -0.02996620163321495
visibility: 0.9853067994117737
","x: 252.8060302734375
y: 438.66351318359375
z: -0.04178676754236221
visibility: 0.9695358276367188
","x: 312.1505432128906
y: 509.264892578125
z: 0.1519363671541214
visibility: 0.981708288192749
","x: 258.8160705566406
y: 509.0701599121094
z: 0.19569076597690582
visibility: 0.9736648201942444
","x: 311.1219482421875
y: 519.4414672851562
z: 0.16217458248138428
visibility: 0.8389334678649902
","x: 261.5146179199219
y: 518.454833984375
z: 0.2107803374528885
visibility: 0.8669916391372681
","x: 317.0164794921875
y: 536.8123779296875
z: 0.015617838129401207
visibility: 0.9771560430526733
","x: 254.0994873046875
y: 534.8914184570312
z: 0.06646919250488281
visibility: 0.9714788794517517
",,,,,,,,,,,,,,,,,,,,,,,,,,,,,,,,,,,,,,,,,,
10,"x: 298.9819030761719
y: 208.4005126953125
z: -0.49767690896987915
visibility: 0.9993349313735962
","x: 301.68939208984375
y: 200.76055908203125
z: -0.4797186255455017
visibility: 0.9964256286621094
","x: 302.98565673828125
y: 201.12060546875
z: -0.47970399260520935
visibility: 0.9974997639656067
","x: 304.1451416015625
y: 201.44920349121094
z: -0.4797549843788147
visibility: 0.9972624778747559
","x: 297.35601806640625
y: 199.1783447265625
z: -0.4836052358150482
visibility: 0.9961947202682495
","x: 295.6519470214844
y: 198.4381866455078
z: -0.4837161600589752
visibility: 0.9964154958724976
","x: 293.92498779296875
y: 197.73110961914062
z: -0.48374590277671814
visibility: 0.9950152635574341
","x: 304.306884765625
y: 203.98439025878906
z: -0.34831422567367554
visibility: 0.9959168434143066
","x: 290.1870422363281
y: 199.2660369873047
z: -0.36700117588043213
visibility: 0.9904320240020752
","x: 299.7825012207031
y: 215.1242218017578
z: -0.44655299186706543
visibility: 0.9986890554428101
","x: 295.0887145996094
y: 214.4742431640625
z: -0.4523354172706604
visibility: 0.9978727698326111
","x: 312.0953063964844
y: 252.92694091796875
z: -0.24118050932884216
visibility: 0.9999101161956787
","x: 267.865234375
y: 242.82469177246094
z: -0.24655835330486298
visibility: 0.9996606111526489
","x: 319.2535095214844
y: 311.4211730957031
z: -0.18731912970542908
visibility: 0.9795500040054321
","x: 251.2438507080078
y: 292.5882568359375
z: -0.19267961382865906
visibility: 0.9405583739280701
","x: 329.6925964355469
y: 360.55706787109375
z: -0.2774437665939331
visibility: 0.932144045829773
","x: 241.09771728515625
y: 341.3854675292969
z: -0.2676887512207031
visibility: 0.8613786697387695
","x: 334.33135986328125
y: 377.0638427734375
z: -0.3037141263484955
visibility: 0.8707396984100342
","x: 236.4901885986328
y: 355.40338134765625
z: -0.29498162865638733
visibility: 0.7830846905708313
","x: 333.879150390625
y: 376.7982482910156
z: -0.34204480051994324
visibility: 0.8820343017578125
","x: 238.61595153808594
y: 355.86541748046875
z: -0.3342961072921753
visibility: 0.7967751026153564
","x: 331.7614440917969
y: 371.4913635253906
z: -0.2946729362010956
visibility: 0.8685373663902283
","x: 241.13790893554688
y: 351.4945983886719
z: -0.28542786836624146
visibility: 0.787168562412262
","x: 298.864013671875
y: 359.3267517089844
z: 0.005655551329255104
visibility: 0.9988743662834167
","x: 273.6112976074219
y: 359.3232421875
z: -0.005712298676371574
visibility: 0.9987048506736755
","x: 310.4035339355469
y: 432.2973937988281
z: -0.07374335080385208
visibility: 0.9865990877151489
","x: 262.0089416503906
y: 438.43212890625
z: -0.038728807121515274
visibility: 0.9722044467926025
","x: 317.29998779296875
y: 510.5665283203125
z: 0.10326200723648071
visibility: 0.9833479523658752
","x: 258.83074951171875
y: 507.05279541015625
z: 0.18125471472740173
visibility: 0.9758324027061462
","x: 316.6549072265625
y: 520.6007080078125
z: 0.11234749853610992
visibility: 0.8479077816009521
","x: 260.4957580566406
y: 516.0900268554688
z: 0.1940150260925293
visibility: 0.867048978805542
","x: 317.3260803222656
y: 537.2080078125
z: -0.047464270144701004
visibility: 0.9789783954620361
","x: 256.20123291015625
y: 534.5441284179688
z: 0.052963048219680786
visibility: 0.9734698534011841
",,,,,,,,,,,,,,,,,,,,,,,,,,,,,,,,,,,,,,,,,,
11,"x: 306.77911376953125
y: 205.29458618164062
z: -0.49351420998573303
visibility: 0.9993994235992432
","x: 309.18157958984375
y: 196.94139099121094
z: -0.47435659170150757
visibility: 0.9967740774154663
","x: 310.5856018066406
y: 197.15040588378906
z: -0.4743376672267914
visibility: 0.9977409839630127
","x: 311.9193115234375
y: 197.38294982910156
z: -0.47438010573387146
visibility: 0.9975262880325317
","x: 304.81256103515625
y: 196.042236328125
z: -0.4793122410774231
visibility: 0.9965668320655823
","x: 303.1020202636719
y: 195.5911865234375
z: -0.47943004965782166
visibility: 0.9967671036720276
","x: 301.3191833496094
y: 195.11338806152344
z: -0.47947391867637634
visibility: 0.9955063462257385
","x: 311.4999694824219
y: 200.2600860595703
z: -0.34309813380241394
visibility: 0.9963032007217407
","x: 297.0545959472656
y: 196.92068481445312
z: -0.36579567193984985
visibility: 0.991374671459198
","x: 307.756591796875
y: 212.46722412109375
z: -0.4429248869419098
visibility: 0.9988170266151428
","x: 303.07086181640625
y: 211.98411560058594
z: -0.44985395669937134
visibility: 0.99808269739151
","x: 320.77325439453125
y: 252.69732666015625
z: -0.23363903164863586
visibility: 0.9999167919158936
","x: 275.1385803222656
y: 242.7461395263672
z: -0.25562962889671326
visibility: 0.9996917843818665
","x: 329.9986267089844
y: 310.9131774902344
z: -0.16874368488788605
visibility: 0.9805335402488708
","x: 259.7193603515625
y: 292.70501708984375
z: -0.2094033658504486
visibility: 0.9457322955131531
","x: 342.7750244140625
y: 360.26800537109375
z: -0.2546229958534241
visibility: 0.9339333176612854
","x: 247.8805694580078
y: 341.40423583984375
z: -0.2880079448223114
visibility: 0.8715466260910034
","x: 346.677490234375
y: 376.7887878417969
z: -0.27807560563087463
visibility: 0.8727099299430847
","x: 243.74093627929688
y: 355.98748779296875
z: -0.31730377674102783
visibility: 0.7962390184402466
","x: 345.9691467285156
y: 376.63409423828125
z: -0.31763964891433716
visibility: 0.8841089010238647
","x: 246.08799743652344
y: 356.46661376953125
z: -0.35694369673728943
visibility: 0.8093478083610535
","x: 344.3103332519531
y: 371.3722229003906
z: -0.27238625288009644
visibility: 0.8707792162895203
","x: 248.2399139404297
y: 351.9593811035156
z: -0.30607572197914124
visibility: 0.7992469072341919
","x: 307.14410400390625
y: 359.8166198730469
z: 0.005320285446941853
visibility: 0.9989772439002991
","x: 281.0696716308594
y: 359.2521667480469
z: -0.0053785876370966434
visibility: 0.9988178014755249
","x: 315.1442565917969
y: 434.0066223144531
z: -0.06607774645090103
visibility: 0.9877480268478394
","x: 268.3597717285156
y: 436.4359130859375
z: -0.00013781625602860004
visibility: 0.9746102094650269
","x: 318.056396484375
y: 511.5904541015625
z: 0.15017026662826538
visibility: 0.9847912788391113
","x: 259.7737731933594
y: 504.8930358886719
z: 0.24786138534545898
visibility: 0.977879524230957
","x: 316.181884765625
y: 521.01025390625
z: 0.16221708059310913
visibility: 0.8544846177101135
","x: 261.1697998046875
y: 513.1782836914062
z: 0.2636902630329132
visibility: 0.8701159358024597
","x: 318.3334655761719
y: 538.2300415039062
z: 0.0028630841989070177
visibility: 0.9806099534034729
","x: 257.469970703125
y: 533.50634765625
z: 0.11871059238910675
visibility: 0.9754691123962402
",,,,,,,,,,,,,,,,,,,,,,,,,,,,,,,,,,,,,,,,,,
12,"x: 315.925048828125
y: 199.32630920410156
z: -0.391968309879303
visibility: 0.9994561076164246
","x: 317.3701477050781
y: 191.44735717773438
z: -0.3738005459308624
visibility: 0.9970813393592834
","x: 318.49847412109375
y: 191.67990112304688
z: -0.37379780411720276
visibility: 0.9979509711265564
","x: 319.55670166015625
y: 191.95730590820312
z: -0.3738422989845276
visibility: 0.9977560639381409
","x: 313.44732666015625
y: 190.8780059814453
z: -0.3843230605125427
visibility: 0.99689781665802
","x: 311.7483215332031
y: 190.66925048828125
z: -0.38440531492233276
visibility: 0.9970794916152954
","x: 309.84283447265625
y: 190.4362335205078
z: -0.384453147649765
visibility: 0.9959434866905212
","x: 318.3947448730469
y: 195.68870544433594
z: -0.25897452235221863
visibility: 0.996641218662262
","x: 304.7070007324219
y: 193.19332885742188
z: -0.31376710534095764
visibility: 0.9922162890434265
","x: 316.6979064941406
y: 207.34046936035156
z: -0.3474748432636261
visibility: 0.9989306926727295
","x: 312.1689453125
y: 207.0235595703125
z: -0.36128807067871094
visibility: 0.9982698559761047
","x: 328.40972900390625
y: 248.04165649414062
z: -0.17365652322769165
visibility: 0.9999233484268188
","x: 283.9066162109375
y: 241.86532592773438
z: -0.2207564413547516
visibility: 0.9997185468673706
","x: 343.2776184082031
y: 301.20355224609375
z: -0.12312684953212738
visibility: 0.9806398749351501
","x: 266.7828063964844
y: 292.7568359375
z: -0.18844112753868103
visibility: 0.9502505660057068
","x: 363.7625732421875
y: 336.9776611328125
z: -0.22630903124809265
visibility: 0.9362785220146179
","x: 251.23483276367188
y: 340.4662780761719
z: -0.2679668068885803
visibility: 0.8815237879753113
","x: 370.7218017578125
y: 348.28125
z: -0.24743500351905823
visibility: 0.8764456510543823
","x: 246.09071350097656
y: 354.5431213378906
z: -0.29340413212776184
visibility: 0.8103964924812317
","x: 371.8862609863281
y: 347.2755432128906
z: -0.28912919759750366
visibility: 0.8882367014884949
","x: 247.73194885253906
y: 355.8135681152344
z: -0.330740749835968
visibility: 0.8228809833526611
","x: 369.4118347167969
y: 344.3993835449219
z: -0.24763433635234833
visibility: 0.875454843044281
","x: 250.5420684814453
y: 351.4102783203125
z: -0.2852257490158081
visibility: 0.8124663233757019
","x: 318.9715881347656
y: 358.4891052246094
z: 0.004853644408285618
visibility: 0.9990708231925964
","x: 293.3701477050781
y: 357.40704345703125
z: -0.004903356544673443
visibility: 0.9989171028137207
","x: 322.02215576171875
y: 433.9283447265625
z: -0.10039834678173065
visibility: 0.988876223564148
","x: 281.6834411621094
y: 435.85992431640625
z: 0.044891733676195145
visibility: 0.9766851663589478
","x: 318.4528503417969
y: 510.97161865234375
z: 0.09424280375242233
visibility: 0.9861480593681335
","x: 272.61846923828125
y: 502.7525634765625
z: 0.2921522259712219
visibility: 0.979660153388977
","x: 316.1673583984375
y: 519.7861328125
z: 0.10661562532186508
visibility: 0.8633463978767395
","x: 275.4378662109375
y: 510.8157653808594
z: 0.3087927997112274
visibility: 0.8731797337532043
","x: 318.7944641113281
y: 538.0756225585938
z: -0.03800024464726448
visibility: 0.9822685122489929
","x: 265.4033508300781
y: 532.466064453125
z: 0.18602600693702698
visibility: 0.9772976040840149
",,,,,,,,,,,,,,,,,,,,,,,,,,,,,,,,,,,,,,,,,,
13,"x: 318.68798828125
y: 195.3253936767578
z: -0.3513007164001465
visibility: 0.999498188495636
","x: 320.2874755859375
y: 188.13760375976562
z: -0.33147111535072327
visibility: 0.9973042011260986
","x: 321.414306640625
y: 188.33209228515625
z: -0.33153238892555237
visibility: 0.9980879426002502
","x: 322.3806457519531
y: 188.51808166503906
z: -0.33159786462783813
visibility: 0.9979034662246704
","x: 316.02239990234375
y: 187.37973022460938
z: -0.3401578366756439
visibility: 0.9971403479576111
","x: 314.2554931640625
y: 187.04202270507812
z: -0.3402077555656433
visibility: 0.9973131418228149
","x: 312.3960876464844
y: 186.6751251220703
z: -0.3402628004550934
visibility: 0.9962817430496216
","x: 321.7295227050781
y: 191.54885864257812
z: -0.2085559070110321
visibility: 0.9968560338020325
","x: 308.59661865234375
y: 189.35308837890625
z: -0.24941663444042206
visibility: 0.9929032325744629
","x: 319.9248962402344
y: 203.6314697265625
z: -0.3043997883796692
visibility: 0.9990206956863403
","x: 314.87664794921875
y: 202.8323974609375
z: -0.3159448504447937
visibility: 0.9984251260757446
","x: 332.3232116699219
y: 242.7420196533203
z: -0.12987521290779114
visibility: 0.9999287128448486
","x: 288.5195007324219
y: 237.950927734375
z: -0.16600200533866882
visibility: 0.9997304081916809
","x: 349.5841064453125
y: 291.0404357910156
z: -0.09728594869375229
visibility: 0.9803240299224854
","x: 270.1710205078125
y: 286.1362609863281
z: -0.18308888375759125
visibility: 0.9522653222084045
","x: 374.6689758300781
y: 308.3768310546875
z: -0.2197122573852539
visibility: 0.9405391812324524
","x: 252.09921264648438
y: 321.9481201171875
z: -0.3332492411136627
visibility: 0.8889622092247009
","x: 383.77642822265625
y: 314.65814208984375
z: -0.24416866898536682
visibility: 0.8845453262329102
","x: 245.38339233398438
y: 333.18231201171875
z: -0.3690556585788727
visibility: 0.8219434022903442
","x: 385.16485595703125
y: 311.2301025390625
z: -0.2863340973854065
visibility: 0.8959841132164001
","x: 246.79151916503906
y: 332.64385986328125
z: -0.40492182970046997
visibility: 0.8341162204742432
","x: 381.26934814453125
y: 309.9679870605469
z: -0.24237556755542755
visibility: 0.8839305639266968
","x: 249.88978576660156
y: 329.8765869140625
z: -0.35293179750442505
visibility: 0.823891818523407
","x: 324.37738037109375
y: 357.1380920410156
z: 0.003705256385728717
visibility: 0.9991328120231628
","x: 298.9981994628906
y: 355.917724609375
z: -0.003737763734534383
visibility: 0.9989833831787109
","x: 325.235107421875
y: 433.6889953613281
z: -0.05070234090089798
visibility: 0.9896981120109558
","x: 289.9426574707031
y: 434.53076171875
z: -0.05424879118800163
visibility: 0.978491485118866
","x: 320.1318664550781
y: 511.12066650390625
z: 0.20058564841747284
visibility: 0.9870576858520508
","x: 295.6421203613281
y: 500.743408203125
z: 0.2317214459180832
visibility: 0.9808787703514099
","x: 318.7997741699219
y: 519.298583984375
z: 0.2176169604063034
visibility: 0.8634804487228394
","x: 299.653076171875
y: 506.0019226074219
z: 0.24753768742084503
visibility: 0.8741701245307922
","x: 315.5723876953125
y: 538.6051635742188
z: 0.08425737172365189
visibility: 0.9832902550697327
","x: 294.0540466308594
y: 532.0362548828125
z: 0.12455020099878311
visibility: 0.9786990880966187
",,,,,,,,,,,,,,,,,,,,,,,,,,,,,,,,,,,,,,,,,,
14,"x: 320.56549072265625
y: 193.53746032714844
z: -0.2868020832538605
visibility: 0.999543309211731
","x: 322.15814208984375
y: 186.6641845703125
z: -0.26594260334968567
visibility: 0.9975473880767822
","x: 323.3445739746094
y: 186.861572265625
z: -0.2660333514213562
visibility: 0.9982525706291199
","x: 324.397705078125
y: 187.05767822265625
z: -0.26608824729919434
visibility: 0.9980834126472473
","x: 317.5723876953125
y: 185.5970916748047
z: -0.2711413502693176
visibility: 0.9974012970924377
","x: 315.737060546875
y: 185.08355712890625
z: -0.27114784717559814
visibility: 0.9975568056106567
","x: 313.9834289550781
y: 184.612060546875
z: -0.2711755335330963
visibility: 0.9966245293617249
","x: 324.0304260253906
y: 189.94854736328125
z: -0.14536884427070618
visibility: 0.9971315860748291
","x: 310.61248779296875
y: 187.1711883544922
z: -0.16953662037849426
visibility: 0.993571400642395
","x: 321.647705078125
y: 201.83184814453125
z: -0.24184592068195343
visibility: 0.9991074800491333
","x: 316.5420227050781
y: 200.50588989257812
z: -0.24874380230903625
visibility: 0.9985702037811279
","x: 334.4893493652344
y: 240.3077392578125
z: -0.08106718957424164
visibility: 0.9999322295188904
","x: 291.51470947265625
y: 236.00416564941406
z: -0.08653970062732697
visibility: 0.9997354745864868
","x: 353.65179443359375
y: 285.1435241699219
z: -0.06105668097734451
visibility: 0.9807648062705994
","x: 271.82354736328125
y: 281.2897644042969
z: -0.12699420750141144
visibility: 0.9520756602287292
","x: 380.7051696777344
y: 293.5838623046875
z: -0.1947575956583023
visibility: 0.9452111124992371
","x: 251.68264770507812
y: 311.3094482421875
z: -0.30338630080223083
visibility: 0.8958775997161865
","x: 391.5257263183594
y: 297.90960693359375
z: -0.2219555824995041
visibility: 0.8934911489486694
","x: 244.51927185058594
y: 321.48309326171875
z: -0.33778342604637146
visibility: 0.8328478932380676
","x: 392.5065612792969
y: 292.3867492675781
z: -0.26186031103134155
visibility: 0.9043265581130981
","x: 245.27967834472656
y: 320.2911071777344
z: -0.3753345310688019
visibility: 0.8448752760887146
","x: 388.4800720214844
y: 291.87481689453125
z: -0.21603628993034363
visibility: 0.8931232690811157
","x: 248.40176391601562
y: 317.3858642578125
z: -0.32458052039146423
visibility: 0.8352952003479004
","x: 326.0738220214844
y: 356.0513610839844
z: -0.003367089433595538
visibility: 0.9991376399993896
","x: 300.9139404296875
y: 354.61798095703125
z: 0.0033700354397296906
visibility: 0.9990062713623047
","x: 326.68841552734375
y: 433.4613342285156
z: -0.03040734864771366
visibility: 0.9903540015220642
","x: 295.4889221191406
y: 432.48907470703125
z: -0.041743140667676926
visibility: 0.9800694584846497
","x: 320.8302001953125
y: 511.1187744140625
z: 0.16309495270252228
visibility: 0.9879136085510254
","x: 301.9482421875
y: 501.33612060546875
z: 0.16515937447547913
visibility: 0.982262134552002
","x: 318.89697265625
y: 519.5029296875
z: 0.17545351386070251
visibility: 0.8673780560493469
","x: 306.13897705078125
y: 507.57489013671875
z: 0.1763511598110199
visibility: 0.8809397220611572
","x: 316.5962829589844
y: 538.41796875
z: 0.03943750634789467
visibility: 0.9842583537101746
","x: 294.7096862792969
y: 533.4241333007812
z: 0.062176186591386795
visibility: 0.9802154898643494
",,,,,,,,,,,,,,,,,,,,,,,,,,,,,,,,,,,,,,,,,,
15,"x: 319.3431701660156
y: 193.46336364746094
z: -0.27783697843551636
visibility: 0.9995879530906677
","x: 321.1557312011719
y: 186.4499053955078
z: -0.2597062885761261
visibility: 0.9977866411209106
","x: 322.55511474609375
y: 186.7123565673828
z: -0.25976115465164185
visibility: 0.9984217882156372
","x: 323.9201965332031
y: 187.0463409423828
z: -0.25979703664779663
visibility: 0.9982686638832092
","x: 316.5218811035156
y: 185.50393676757812
z: -0.2606130838394165
visibility: 0.997654139995575
","x: 314.7760009765625
y: 185.1591339111328
z: -0.2606284022331238
visibility: 0.9977936148643494
","x: 313.0408020019531
y: 184.85235595703125
z: -0.26065656542778015
visibility: 0.996953547000885
","x: 324.877685546875
y: 190.475341796875
z: -0.14824506640434265
visibility: 0.997407078742981
","x: 310.49169921875
y: 187.6185760498047
z: -0.15155209600925446
visibility: 0.9942063093185425
","x: 321.3048400878906
y: 202.15249633789062
z: -0.23629453778266907
visibility: 0.9991940855979919
","x: 316.04547119140625
y: 200.96316528320312
z: -0.23707863688468933
visibility: 0.9987099170684814
","x: 337.57232666015625
y: 241.38095092773438
z: -0.08198420703411102
visibility: 0.9999340772628784
","x: 293.44775390625
y: 236.19525146484375
z: -0.07039438188076019
visibility: 0.9997496604919434
","x: 358.5824890136719
y: 275.7790832519531
z: -0.15584877133369446
visibility: 0.9816613793373108
","x: 269.6488342285156
y: 275.099853515625
z: -0.07481306046247482
visibility: 0.9559657573699951
","x: 381.7228698730469
y: 261.9973449707031
z: -0.3653544783592224
visibility: 0.9494963884353638
","x: 246.76339721679688
y: 287.9635314941406
z: -0.19587935507297516
visibility: 0.9055099487304688
","x: 390.08221435546875
y: 258.6666259765625
z: -0.3986199200153351
visibility: 0.9013338088989258
","x: 241.62374877929688
y: 290.9280090332031
z: -0.2161453515291214
visibility: 0.8475264310836792
","x: 389.6156311035156
y: 251.75881958007812
z: -0.41557779908180237
visibility: 0.9114418625831604
","x: 238.83251953125
y: 286.3168640136719
z: -0.2486858367919922
visibility: 0.858642578125
","x: 386.5816955566406
y: 253.47689819335938
z: -0.3788258135318756
visibility: 0.9010886549949646
","x: 242.08322143554688
y: 285.87091064453125
z: -0.2134309709072113
visibility: 0.849899172782898
","x: 326.1743469238281
y: 356.07098388671875
z: -0.0088072270154953
visibility: 0.9992086887359619
","x: 301.129638671875
y: 354.29339599609375
z: 0.008779152296483517
visibility: 0.9990842938423157
","x: 327.916015625
y: 433.2065124511719
z: -0.07412059605121613
visibility: 0.990860104560852
","x: 289.72296142578125
y: 431.8191223144531
z: -0.05621280148625374
visibility: 0.9818136096000671
","x: 319.61798095703125
y: 511.00140380859375
z: 0.11424724012613297
visibility: 0.9887406229972839
","x: 302.4309387207031
y: 491.7052917480469
z: 0.2153325378894806
visibility: 0.9831274747848511
","x: 318.1669006347656
y: 518.5465698242188
z: 0.1270531415939331
visibility: 0.8747462034225464
","x: 307.0108337402344
y: 495.2142333984375
z: 0.23896846175193787
visibility: 0.887069046497345
","x: 317.289306640625
y: 539.2437133789062
z: 0.01947452686727047
visibility: 0.9853405356407166
","x: 293.5931091308594
y: 526.215576171875
z: 0.1648990511894226
visibility: 0.9811992049217224
",,,,,,,,,,,,,,,,,,,,,,,,,,,,,,,,,,,,,,,,,,
16,"x: 317.08441162109375
y: 194.3013153076172
z: -0.2626747488975525
visibility: 0.9996281862258911
","x: 319.6477355957031
y: 187.2294921875
z: -0.2474261224269867
visibility: 0.9980027675628662
","x: 321.25372314453125
y: 187.51564025878906
z: -0.24745586514472961
visibility: 0.9985750317573547
","x: 322.881103515625
y: 187.8505859375
z: -0.24748393893241882
visibility: 0.9984357953071594
","x: 315.13946533203125
y: 186.23629760742188
z: -0.24399764835834503
visibility: 0.9978833794593811
","x: 313.69757080078125
y: 185.87991333007812
z: -0.2440001517534256
visibility: 0.9980083107948303
","x: 312.2850646972656
y: 185.56735229492188
z: -0.24401351809501648
visibility: 0.9972507953643799
","x: 324.9217529296875
y: 191.2783966064453
z: -0.144674152135849
visibility: 0.9976593852043152
","x: 310.0627136230469
y: 188.2730255126953
z: -0.12753625214099884
visibility: 0.9947792887687683
","x: 319.80108642578125
y: 202.90097045898438
z: -0.2237442433834076
visibility: 0.9992719292640686
","x: 314.2770080566406
y: 201.78892517089844
z: -0.21877610683441162
visibility: 0.9988359212875366
","x: 337.1200256347656
y: 241.71783447265625
z: -0.09093151986598969
visibility: 0.9999263286590576
","x: 293.2156982421875
y: 236.5353546142578
z: -0.04474204033613205
visibility: 0.9997578263282776
","x: 359.517578125
y: 257.4236755371094
z: -0.23153111338615417
visibility: 0.982641875743866
","x: 267.9364318847656
y: 260.019775390625
z: -0.07218308746814728
visibility: 0.9595906138420105
","x: 380.0624694824219
y: 232.9739532470703
z: -0.4728047847747803
visibility: 0.9528211951255798
","x: 244.16485595703125
y: 252.55882263183594
z: -0.20912876725196838
visibility: 0.9144166111946106
","x: 387.1745300292969
y: 224.15774536132812
z: -0.5155788660049438
visibility: 0.9073953032493591
","x: 236.24729919433594
y: 250.50390625
z: -0.23269495368003845
visibility: 0.8612565398216248
","x: 386.28961181640625
y: 220.29991149902344
z: -0.5250667929649353
visibility: 0.9168059825897217
","x: 234.40969848632812
y: 245.73648071289062
z: -0.26152580976486206
visibility: 0.8714671730995178
","x: 383.4469909667969
y: 223.63938903808594
z: -0.4847240447998047
visibility: 0.9072527885437012
","x: 236.9757537841797
y: 247.3236083984375
z: -0.22585082054138184
visibility: 0.8634833097457886
","x: 324.6425476074219
y: 355.93115234375
z: -0.022396769374608994
visibility: 0.9992704391479492
","x: 299.6173400878906
y: 353.6573486328125
z: 0.02236725576221943
visibility: 0.9991461038589478
","x: 326.14306640625
y: 431.4562683105469
z: -0.11744513362646103
visibility: 0.9913316369056702
","x: 288.83447265625
y: 433.482666015625
z: 0.010692923329770565
visibility: 0.9832105040550232
","x: 319.7740173339844
y: 511.6418151855469
z: 0.04162066429853439
visibility: 0.9894639849662781
","x: 305.0898132324219
y: 493.9716796875
z: 0.23815742135047913
visibility: 0.9842811822891235
","x: 319.3167724609375
y: 519.8380737304688
z: 0.050452373921871185
visibility: 0.8812925815582275
","x: 310.3863220214844
y: 498.846923828125
z: 0.2548532485961914
visibility: 0.8952358961105347
","x: 316.3904113769531
y: 539.638671875
z: -0.07949277013540268
visibility: 0.986327588558197
","x: 294.57305908203125
y: 527.232177734375
z: 0.15985462069511414
visibility: 0.9824000000953674
",,,,,,,,,,,,,,,,,,,,,,,,,,,,,,,,,,,,,,,,,,
17,"x: 314.6969909667969
y: 199.83949279785156
z: -0.25904327630996704
visibility: 0.999657928943634
","x: 317.1802062988281
y: 191.57723999023438
z: -0.2450624406337738
visibility: 0.9981674551963806
","x: 318.69793701171875
y: 191.52101135253906
z: -0.24510422348976135
visibility: 0.9986921548843384
","x: 320.19171142578125
y: 191.53533935546875
z: -0.2451409101486206
visibility: 0.9985536336898804
","x: 313.0488586425781
y: 191.4437713623047
z: -0.23722508549690247
visibility: 0.9980576038360596
","x: 311.82781982421875
y: 191.2274932861328
z: -0.2372123748064041
visibility: 0.9981730580329895
","x: 310.6981201171875
y: 190.98275756835938
z: -0.23720934987068176
visibility: 0.9974852204322815
","x: 322.72515869140625
y: 195.1180419921875
z: -0.14863772690296173
visibility: 0.997861385345459
","x: 308.80645751953125
y: 193.65736389160156
z: -0.1101498007774353
visibility: 0.9952757954597473
","x: 317.7852783203125
y: 207.4019012451172
z: -0.22236160933971405
visibility: 0.9993302226066589
","x: 312.32965087890625
y: 206.88473510742188
z: -0.21133410930633545
visibility: 0.9989349842071533
","x: 337.2619323730469
y: 242.15757751464844
z: -0.10025116056203842
visibility: 0.9999164342880249
","x: 293.9876403808594
y: 238.52490234375
z: -0.003558636177331209
visibility: 0.9997422099113464
","x: 361.9341735839844
y: 242.65374755859375
z: -0.23174214363098145
visibility: 0.9842270612716675
","x: 267.5581359863281
y: 256.24737548828125
z: 0.051477789878845215
visibility: 0.9631218910217285
","x: 371.27105712890625
y: 202.25416564941406
z: -0.4408895969390869
visibility: 0.9570046067237854
","x: 243.70364379882812
y: 232.38504028320312
z: -0.028306135907769203
visibility: 0.9227182269096375
","x: 374.9450378417969
y: 189.3680419921875
z: -0.48215803503990173
visibility: 0.9144760966300964
","x: 236.04258728027344
y: 227.14219665527344
z: -0.042170554399490356
visibility: 0.8741410970687866
","x: 373.31890869140625
y: 187.16224670410156
z: -0.4845793843269348
visibility: 0.9229186773300171
","x: 235.5872039794922
y: 222.232666015625
z: -0.06619132310152054
visibility: 0.8834067583084106
","x: 371.26080322265625
y: 191.15069580078125
z: -0.449176162481308
visibility: 0.913949728012085
","x: 238.2509765625
y: 224.1150665283203
z: -0.04177001118659973
visibility: 0.876123309135437
","x: 323.34442138671875
y: 357.70391845703125
z: -0.04010332375764847
visibility: 0.999314546585083
","x: 298.9469299316406
y: 354.8413391113281
z: 0.04006367549300194
visibility: 0.9991943836212158
","x: 321.8668212890625
y: 436.36773681640625
z: -0.08360163122415543
visibility: 0.9916036128997803
","x: 291.1789245605469
y: 436.1117248535156
z: 0.04936522990465164
visibility: 0.9841873049736023
","x: 318.65380859375
y: 513.36083984375
z: 0.0911252349615097
visibility: 0.9898812770843506
","x: 307.1629943847656
y: 500.98828125
z: 0.24724611639976501
visibility: 0.9850556254386902
","x: 319.1291198730469
y: 523.2709350585938
z: 0.10275890678167343
visibility: 0.8860445618629456
","x: 312.4737854003906
y: 509.39019775390625
z: 0.26103827357292175
visibility: 0.9024595022201538
","x: 315.43743896484375
y: 539.447998046875
z: -0.007842302322387695
visibility: 0.9868638515472412
","x: 294.224609375
y: 527.2841796875
z: 0.16657564043998718
visibility: 0.983283281326294
",,,,,,,,,,,,,,,,,,,,,,,,,,,,,,,,,,,,,,,,,,
18,"x: 311.9101257324219
y: 206.3469696044922
z: -0.21316692233085632
visibility: 0.9996768832206726
","x: 314.3009948730469
y: 198.65908813476562
z: -0.19897332787513733
visibility: 0.9983169436454773
","x: 315.7045593261719
y: 198.48150634765625
z: -0.19899263978004456
visibility: 0.9987936615943909
","x: 317.0578308105469
y: 198.31735229492188
z: -0.19901493191719055
visibility: 0.9986617565155029
","x: 310.0547180175781
y: 198.31317138671875
z: -0.186193585395813
visibility: 0.9982178211212158
","x: 308.8404541015625
y: 197.83633422851562
z: -0.18619906902313232
visibility: 0.9983206987380981
","x: 307.7462158203125
y: 197.38938903808594
z: -0.18617084622383118
visibility: 0.9977092146873474
","x: 319.3690185546875
y: 199.8438720703125
z: -0.11056647449731827
visibility: 0.9980357885360718
","x: 306.1357116699219
y: 199.904541015625
z: -0.0497126467525959
visibility: 0.995709240436554
","x: 314.454345703125
y: 212.89537048339844
z: -0.18039050698280334
visibility: 0.9993703365325928
","x: 309.2179870605469
y: 212.67234802246094
z: -0.16298824548721313
visibility: 0.9990115761756897
","x: 333.9698181152344
y: 241.90406799316406
z: -0.0832570344209671
visibility: 0.9998936057090759
","x: 292.84814453125
y: 240.699951171875
z: 0.0691622644662857
visibility: 0.9996705055236816
","x: 357.8807373046875
y: 245.03709411621094
z: -0.217560812830925
visibility: 0.985770046710968
","x: 268.5122985839844
y: 258.5431213378906
z: 0.136966735124588
visibility: 0.9664763808250427
","x: 354.9637451171875
y: 201.2128448486328
z: -0.3951529264450073
visibility: 0.9610887765884399
","x: 253.2736358642578
y: 223.68653869628906
z: 0.0664750188589096
visibility: 0.9303034543991089
","x: 351.9742431640625
y: 187.27210998535156
z: -0.4349594712257385
visibility: 0.9217768907546997
","x: 248.81126403808594
y: 210.96890258789062
z: 0.050088804215192795
visibility: 0.8860347270965576
","x: 348.1201171875
y: 186.3233642578125
z: -0.4288659691810608
visibility: 0.9292021989822388
","x: 250.51333618164062
y: 208.17222595214844
z: 0.041020698845386505
visibility: 0.89436274766922
","x: 347.3830871582031
y: 191.03933715820312
z: -0.3982464671134949
visibility: 0.9205211997032166
","x: 252.571533203125
y: 211.86956787109375
z: 0.058987535536289215
visibility: 0.8876468539237976
","x: 319.86468505859375
y: 355.1998291015625
z: -0.06410124897956848
visibility: 0.9992936253547668
","x: 296.26116943359375
y: 352.66546630859375
z: 0.06401734054088593
visibility: 0.9991584420204163
","x: 316.0295715332031
y: 432.1749572753906
z: -0.07803183048963547
visibility: 0.9915055632591248
","x: 292.6282653808594
y: 434.4190673828125
z: 0.06225448101758957
visibility: 0.9823974370956421
","x: 316.98052978515625
y: 512.8050537109375
z: 0.02890165150165558
visibility: 0.9901432394981384
","x: 305.95843505859375
y: 504.48858642578125
z: 0.17894068360328674
visibility: 0.9847205877304077
","x: 318.6544494628906
y: 523.0850830078125
z: 0.03218208625912666
visibility: 0.890929639339447
","x: 311.1852722167969
y: 516.498046875
z: 0.18222463130950928
visibility: 0.9079288840293884
","x: 314.083740234375
y: 534.5687255859375
z: -0.09014961123466492
visibility: 0.9872363805770874
","x: 293.67730712890625
y: 527.4194946289062
z: 0.08618570864200592
visibility: 0.9831743836402893
","x: 253.10403442382812
y: 220.57730102539062
z: 0.0
","x: 254.64686584472656
y: 213.54232788085938
z: -0.0008305901428684592
","x: 254.8574676513672
y: 206.481689453125
z: -0.0017147783655673265
","x: 254.98580932617188
y: 201.48080444335938
z: -0.003353184787556529
","x: 255.71607971191406
y: 197.6194610595703
z: -0.004729294218122959
","x: 250.8150634765625
y: 202.00296020507812
z: 0.000934035109821707
","x: 249.27552795410156
y: 196.085693359375
z: -0.001966739073395729
","x: 248.87486267089844
y: 194.5542755126953
z: -0.0034719950053840876
","x: 248.79971313476562
y: 194.64291381835938
z: -0.004017367959022522
","x: 248.62466430664062
y: 204.54110717773438
z: -0.0006199129275046289
","x: 246.90029907226562
y: 199.7698211669922
z: -0.004005598369985819
","x: 248.52049255371094
y: 202.04164123535156
z: -0.00447884714230895
","x: 249.89564514160156
y: 204.989990234375
z: -0.0037442941684275866
","x: 246.82875061035156
y: 207.94004821777344
z: -0.002809506608173251
","x: 245.30731201171875
y: 204.51626586914062
z: -0.005853051785379648
","x: 247.15017700195312
y: 206.8289337158203
z: -0.005039107985794544
","x: 248.63247680664062
y: 209.13119506835938
z: -0.003519078716635704
","x: 245.42034912109375
y: 212.04275512695312
z: -0.0054192631505429745
","x: 243.95654296875
y: 209.45303344726562
z: -0.007315114606171846
","x: 245.36607360839844
y: 210.9141387939453
z: -0.006695653777569532
","x: 246.65940856933594
y: 212.68202209472656
z: -0.005446108523756266
","x: 348.6880798339844
y: 197.79762268066406
z: 0.0
","x: 344.42205810546875
y: 193.48143005371094
z: 0.00044187629828229547
","x: 341.34674072265625
y: 188.36135864257812
z: -0.0004938485799357295
","x: 339.1663513183594
y: 183.81723022460938
z: -0.0026019643992185593
","x: 337.27484130859375
y: 180.46022033691406
z: -0.004236755892634392
","x: 341.14306640625
y: 180.33775329589844
z: 0.001800054800696671
","x: 339.4127502441406
y: 173.2877197265625
z: -0.0013544316170737147
","x: 339.1601867675781
y: 174.64613342285156
z: -0.002579142339527607
","x: 339.65777587890625
y: 177.32275390625
z: -0.0028837600257247686
","x: 343.4622802734375
y: 179.37777709960938
z: -0.0008181675802916288
","x: 342.1422119140625
y: 171.0127410888672
z: -0.004347377922385931
","x: 341.7830505371094
y: 174.43667602539062
z: -0.004903922323137522
","x: 342.2366943359375
y: 178.53768920898438
z: -0.004221619572490454
","x: 346.0875244140625
y: 179.6897735595703
z: -0.004041005857288837
","x: 345.0958251953125
y: 172.57200622558594
z: -0.007252571638673544
","x: 344.4779052734375
y: 176.70529174804688
z: -0.006343891378492117
","x: 344.7357482910156
y: 180.59701538085938
z: -0.0047899289056658745
","x: 348.8742370605469
y: 181.21710205078125
z: -0.007574970368295908
","x: 348.0707092285156
y: 177.27340698242188
z: -0.00937788374722004
","x: 347.3680725097656
y: 180.16177368164062
z: -0.008536743000149727
","x: 347.3726501464844
y: 183.02117919921875
z: -0.0072366613894701
"
19,"x: 311.9101257324219
y: 206.3469696044922
z: -0.21316692233085632
visibility: 0.9996768832206726
","x: 314.3009948730469
y: 198.65908813476562
z: -0.19897332787513733
visibility: 0.9983169436454773
","x: 315.7045593261719
y: 198.48150634765625
z: -0.19899263978004456
visibility: 0.9987936615943909
","x: 317.0578308105469
y: 198.31735229492188
z: -0.19901493191719055
visibility: 0.9986617565155029
","x: 310.0547180175781
y: 198.31317138671875
z: -0.186193585395813
visibility: 0.9982178211212158
","x: 308.8404541015625
y: 197.83633422851562
z: -0.18619906902313232
visibility: 0.9983206987380981
","x: 307.7462158203125
y: 197.38938903808594
z: -0.18617084622383118
visibility: 0.9977092146873474
","x: 319.3690185546875
y: 199.8438720703125
z: -0.11056647449731827
visibility: 0.9980357885360718
","x: 306.1357116699219
y: 199.904541015625
z: -0.0497126467525959
visibility: 0.995709240436554
","x: 314.454345703125
y: 212.89537048339844
z: -0.18039050698280334
visibility: 0.9993703365325928
","x: 309.2179870605469
y: 212.67234802246094
z: -0.16298824548721313
visibility: 0.9990115761756897
","x: 333.9698181152344
y: 241.90406799316406
z: -0.0832570344209671
visibility: 0.9998936057090759
","x: 292.84814453125
y: 240.699951171875
z: 0.0691622644662857
visibility: 0.9996705055236816
","x: 357.8807373046875
y: 245.03709411621094
z: -0.217560812830925
visibility: 0.985770046710968
","x: 268.5122985839844
y: 258.5431213378906
z: 0.136966735124588
visibility: 0.9664763808250427
","x: 354.9637451171875
y: 201.2128448486328
z: -0.3951529264450073
visibility: 0.9610887765884399
","x: 253.2736358642578
y: 223.68653869628906
z: 0.0664750188589096
visibility: 0.9303034543991089
","x: 351.9742431640625
y: 187.27210998535156
z: -0.4349594712257385
visibility: 0.9217768907546997
","x: 248.81126403808594
y: 210.96890258789062
z: 0.050088804215192795
visibility: 0.8860347270965576
","x: 348.1201171875
y: 186.3233642578125
z: -0.4288659691810608
visibility: 0.9292021989822388
","x: 250.51333618164062
y: 208.17222595214844
z: 0.041020698845386505
visibility: 0.89436274766922
","x: 347.3830871582031
y: 191.03933715820312
z: -0.3982464671134949
visibility: 0.9205211997032166
","x: 252.571533203125
y: 211.86956787109375
z: 0.058987535536289215
visibility: 0.8876468539237976
","x: 319.86468505859375
y: 355.1998291015625
z: -0.06410124897956848
visibility: 0.9992936253547668
","x: 296.26116943359375
y: 352.66546630859375
z: 0.06401734054088593
visibility: 0.9991584420204163
","x: 316.0295715332031
y: 432.1749572753906
z: -0.07803183048963547
visibility: 0.9915055632591248
","x: 292.6282653808594
y: 434.4190673828125
z: 0.06225448101758957
visibility: 0.9823974370956421
","x: 316.98052978515625
y: 512.8050537109375
z: 0.02890165150165558
visibility: 0.9901432394981384
","x: 305.95843505859375
y: 504.48858642578125
z: 0.17894068360328674
visibility: 0.9847205877304077
","x: 318.6544494628906
y: 523.0850830078125
z: 0.03218208625912666
visibility: 0.890929639339447
","x: 311.1852722167969
y: 516.498046875
z: 0.18222463130950928
visibility: 0.9079288840293884
","x: 314.083740234375
y: 534.5687255859375
z: -0.09014961123466492
visibility: 0.9872363805770874
","x: 293.67730712890625
y: 527.4194946289062
z: 0.08618570864200592
visibility: 0.9831743836402893
","x: 253.10403442382812
y: 220.57730102539062
z: 0.0
","x: 254.64686584472656
y: 213.54232788085938
z: -0.0008305901428684592
","x: 254.8574676513672
y: 206.481689453125
z: -0.0017147783655673265
","x: 254.98580932617188
y: 201.48080444335938
z: -0.003353184787556529
","x: 255.71607971191406
y: 197.6194610595703
z: -0.004729294218122959
","x: 250.8150634765625
y: 202.00296020507812
z: 0.000934035109821707
","x: 249.27552795410156
y: 196.085693359375
z: -0.001966739073395729
","x: 248.87486267089844
y: 194.5542755126953
z: -0.0034719950053840876
","x: 248.79971313476562
y: 194.64291381835938
z: -0.004017367959022522
","x: 248.62466430664062
y: 204.54110717773438
z: -0.0006199129275046289
","x: 246.90029907226562
y: 199.7698211669922
z: -0.004005598369985819
","x: 248.52049255371094
y: 202.04164123535156
z: -0.00447884714230895
","x: 249.89564514160156
y: 204.989990234375
z: -0.0037442941684275866
","x: 246.82875061035156
y: 207.94004821777344
z: -0.002809506608173251
","x: 245.30731201171875
y: 204.51626586914062
z: -0.005853051785379648
","x: 247.15017700195312
y: 206.8289337158203
z: -0.005039107985794544
","x: 248.63247680664062
y: 209.13119506835938
z: -0.003519078716635704
","x: 245.42034912109375
y: 212.04275512695312
z: -0.0054192631505429745
","x: 243.95654296875
y: 209.45303344726562
z: -0.007315114606171846
","x: 245.36607360839844
y: 210.9141387939453
z: -0.006695653777569532
","x: 246.65940856933594
y: 212.68202209472656
z: -0.005446108523756266
","x: 348.6880798339844
y: 197.79762268066406
z: 0.0
","x: 344.42205810546875
y: 193.48143005371094
z: 0.00044187629828229547
","x: 341.34674072265625
y: 188.36135864257812
z: -0.0004938485799357295
","x: 339.1663513183594
y: 183.81723022460938
z: -0.0026019643992185593
","x: 337.27484130859375
y: 180.46022033691406
z: -0.004236755892634392
","x: 341.14306640625
y: 180.33775329589844
z: 0.001800054800696671
","x: 339.4127502441406
y: 173.2877197265625
z: -0.0013544316170737147
","x: 339.1601867675781
y: 174.64613342285156
z: -0.002579142339527607
","x: 339.65777587890625
y: 177.32275390625
z: -0.0028837600257247686
","x: 343.4622802734375
y: 179.37777709960938
z: -0.0008181675802916288
","x: 342.1422119140625
y: 171.0127410888672
z: -0.004347377922385931
","x: 341.7830505371094
y: 174.43667602539062
z: -0.004903922323137522
","x: 342.2366943359375
y: 178.53768920898438
z: -0.004221619572490454
","x: 346.0875244140625
y: 179.6897735595703
z: -0.004041005857288837
","x: 345.0958251953125
y: 172.57200622558594
z: -0.007252571638673544
","x: 344.4779052734375
y: 176.70529174804688
z: -0.006343891378492117
","x: 344.7357482910156
y: 180.59701538085938
z: -0.0047899289056658745
","x: 348.8742370605469
y: 181.21710205078125
z: -0.007574970368295908
","x: 348.0707092285156
y: 177.27340698242188
z: -0.00937788374722004
","x: 347.3680725097656
y: 180.16177368164062
z: -0.008536743000149727
","x: 347.3726501464844
y: 183.02117919921875
z: -0.0072366613894701
"
20,"x: 311.9101257324219
y: 206.3469696044922
z: -0.21316692233085632
visibility: 0.9996768832206726
","x: 314.3009948730469
y: 198.65908813476562
z: -0.19897332787513733
visibility: 0.9983169436454773
","x: 315.7045593261719
y: 198.48150634765625
z: -0.19899263978004456
visibility: 0.9987936615943909
","x: 317.0578308105469
y: 198.31735229492188
z: -0.19901493191719055
visibility: 0.9986617565155029
","x: 310.0547180175781
y: 198.31317138671875
z: -0.186193585395813
visibility: 0.9982178211212158
","x: 308.8404541015625
y: 197.83633422851562
z: -0.18619906902313232
visibility: 0.9983206987380981
","x: 307.7462158203125
y: 197.38938903808594
z: -0.18617084622383118
visibility: 0.9977092146873474
","x: 319.3690185546875
y: 199.8438720703125
z: -0.11056647449731827
visibility: 0.9980357885360718
","x: 306.1357116699219
y: 199.904541015625
z: -0.0497126467525959
visibility: 0.995709240436554
","x: 314.454345703125
y: 212.89537048339844
z: -0.18039050698280334
visibility: 0.9993703365325928
","x: 309.2179870605469
y: 212.67234802246094
z: -0.16298824548721313
visibility: 0.9990115761756897
","x: 333.9698181152344
y: 241.90406799316406
z: -0.0832570344209671
visibility: 0.9998936057090759
","x: 292.84814453125
y: 240.699951171875
z: 0.0691622644662857
visibility: 0.9996705055236816
","x: 357.8807373046875
y: 245.03709411621094
z: -0.217560812830925
visibility: 0.985770046710968
","x: 268.5122985839844
y: 258.5431213378906
z: 0.136966735124588
visibility: 0.9664763808250427
","x: 354.9637451171875
y: 201.2128448486328
z: -0.3951529264450073
visibility: 0.9610887765884399
","x: 253.2736358642578
y: 223.68653869628906
z: 0.0664750188589096
visibility: 0.9303034543991089
","x: 351.9742431640625
y: 187.27210998535156
z: -0.4349594712257385
visibility: 0.9217768907546997
","x: 248.81126403808594
y: 210.96890258789062
z: 0.050088804215192795
visibility: 0.8860347270965576
","x: 348.1201171875
y: 186.3233642578125
z: -0.4288659691810608
visibility: 0.9292021989822388
","x: 250.51333618164062
y: 208.17222595214844
z: 0.041020698845386505
visibility: 0.89436274766922
","x: 347.3830871582031
y: 191.03933715820312
z: -0.3982464671134949
visibility: 0.9205211997032166
","x: 252.571533203125
y: 211.86956787109375
z: 0.058987535536289215
visibility: 0.8876468539237976
","x: 319.86468505859375
y: 355.1998291015625
z: -0.06410124897956848
visibility: 0.9992936253547668
","x: 296.26116943359375
y: 352.66546630859375
z: 0.06401734054088593
visibility: 0.9991584420204163
","x: 316.0295715332031
y: 432.1749572753906
z: -0.07803183048963547
visibility: 0.9915055632591248
","x: 292.6282653808594
y: 434.4190673828125
z: 0.06225448101758957
visibility: 0.9823974370956421
","x: 316.98052978515625
y: 512.8050537109375
z: 0.02890165150165558
visibility: 0.9901432394981384
","x: 305.95843505859375
y: 504.48858642578125
z: 0.17894068360328674
visibility: 0.9847205877304077
","x: 318.6544494628906
y: 523.0850830078125
z: 0.03218208625912666
visibility: 0.890929639339447
","x: 311.1852722167969
y: 516.498046875
z: 0.18222463130950928
visibility: 0.9079288840293884
","x: 314.083740234375
y: 534.5687255859375
z: -0.09014961123466492
visibility: 0.9872363805770874
","x: 293.67730712890625
y: 527.4194946289062
z: 0.08618570864200592
visibility: 0.9831743836402893
","x: 253.10403442382812
y: 220.57730102539062
z: 0.0
","x: 254.64686584472656
y: 213.54232788085938
z: -0.0008305901428684592
","x: 254.8574676513672
y: 206.481689453125
z: -0.0017147783655673265
","x: 254.98580932617188
y: 201.48080444335938
z: -0.003353184787556529
","x: 255.71607971191406
y: 197.6194610595703
z: -0.004729294218122959
","x: 250.8150634765625
y: 202.00296020507812
z: 0.000934035109821707
","x: 249.27552795410156
y: 196.085693359375
z: -0.001966739073395729
","x: 248.87486267089844
y: 194.5542755126953
z: -0.0034719950053840876
","x: 248.79971313476562
y: 194.64291381835938
z: -0.004017367959022522
","x: 248.62466430664062
y: 204.54110717773438
z: -0.0006199129275046289
","x: 246.90029907226562
y: 199.7698211669922
z: -0.004005598369985819
","x: 248.52049255371094
y: 202.04164123535156
z: -0.00447884714230895
","x: 249.89564514160156
y: 204.989990234375
z: -0.0037442941684275866
","x: 246.82875061035156
y: 207.94004821777344
z: -0.002809506608173251
","x: 245.30731201171875
y: 204.51626586914062
z: -0.005853051785379648
","x: 247.15017700195312
y: 206.8289337158203
z: -0.005039107985794544
","x: 248.63247680664062
y: 209.13119506835938
z: -0.003519078716635704
","x: 245.42034912109375
y: 212.04275512695312
z: -0.0054192631505429745
","x: 243.95654296875
y: 209.45303344726562
z: -0.007315114606171846
","x: 245.36607360839844
y: 210.9141387939453
z: -0.006695653777569532
","x: 246.65940856933594
y: 212.68202209472656
z: -0.005446108523756266
","x: 348.6880798339844
y: 197.79762268066406
z: 0.0
","x: 344.42205810546875
y: 193.48143005371094
z: 0.00044187629828229547
","x: 341.34674072265625
y: 188.36135864257812
z: -0.0004938485799357295
","x: 339.1663513183594
y: 183.81723022460938
z: -0.0026019643992185593
","x: 337.27484130859375
y: 180.46022033691406
z: -0.004236755892634392
","x: 341.14306640625
y: 180.33775329589844
z: 0.001800054800696671
","x: 339.4127502441406
y: 173.2877197265625
z: -0.0013544316170737147
","x: 339.1601867675781
y: 174.64613342285156
z: -0.002579142339527607
","x: 339.65777587890625
y: 177.32275390625
z: -0.0028837600257247686
","x: 343.4622802734375
y: 179.37777709960938
z: -0.0008181675802916288
","x: 342.1422119140625
y: 171.0127410888672
z: -0.004347377922385931
","x: 341.7830505371094
y: 174.43667602539062
z: -0.004903922323137522
","x: 342.2366943359375
y: 178.53768920898438
z: -0.004221619572490454
","x: 346.0875244140625
y: 179.6897735595703
z: -0.004041005857288837
","x: 345.0958251953125
y: 172.57200622558594
z: -0.007252571638673544
","x: 344.4779052734375
y: 176.70529174804688
z: -0.006343891378492117
","x: 344.7357482910156
y: 180.59701538085938
z: -0.0047899289056658745
","x: 348.8742370605469
y: 181.21710205078125
z: -0.007574970368295908
","x: 348.0707092285156
y: 177.27340698242188
z: -0.00937788374722004
","x: 347.3680725097656
y: 180.16177368164062
z: -0.008536743000149727
","x: 347.3726501464844
y: 183.02117919921875
z: -0.0072366613894701
"
21,"x: 308.8076171875
y: 207.1529998779297
z: -0.208083838224411
visibility: 0.9997060298919678
","x: 311.811767578125
y: 199.83273315429688
z: -0.19701269268989563
visibility: 0.9984788298606873
","x: 313.62286376953125
y: 199.75393676757812
z: -0.19703789055347443
visibility: 0.9989089369773865
","x: 315.7246398925781
y: 199.6882781982422
z: -0.19707801938056946
visibility: 0.9987898468971252
","x: 308.2400817871094
y: 199.3816375732422
z: -0.18339960277080536
visibility: 0.9983861446380615
","x: 307.5992431640625
y: 198.933837890625
z: -0.1834079623222351
visibility: 0.9984763860702515
","x: 307.2247009277344
y: 198.5984649658203
z: -0.18339477479457855
visibility: 0.9979261755943298
","x: 317.5888671875
y: 201.9459686279297
z: -0.11159537732601166
visibility: 0.9982262849807739
","x: 304.1373596191406
y: 201.80487060546875
z: -0.04869965463876724
visibility: 0.9961168766021729
","x: 311.9998474121094
y: 214.14706420898438
z: -0.17552940547466278
visibility: 0.999428927898407
","x: 307.86016845703125
y: 213.392822265625
z: -0.15776899456977844
visibility: 0.9991025328636169
","x: 331.0067443847656
y: 242.09469604492188
z: -0.09069836884737015
visibility: 0.9999009370803833
","x: 292.2940673828125
y: 243.4166259765625
z: 0.07653088867664337
visibility: 0.9996720552444458
","x: 352.14471435546875
y: 270.8034362792969
z: -0.2615583539009094
visibility: 0.9871548414230347
","x: 272.75323486328125
y: 270.483154296875
z: 0.05908682942390442
visibility: 0.9681478142738342
","x: 337.89739990234375
y: 232.05935668945312
z: -0.4607909321784973
visibility: 0.9649059176445007
","x: 262.121826171875
y: 241.36375427246094
z: -0.08658864349126816
visibility: 0.9368847012519836
","x: 336.54754638671875
y: 218.8853759765625
z: -0.5033677816390991
visibility: 0.9292817115783691
","x: 259.28448486328125
y: 228.23927307128906
z: -0.10995538532733917
visibility: 0.896300733089447
","x: 334.4828186035156
y: 217.05328369140625
z: -0.48914170265197754
visibility: 0.9359155893325806
","x: 261.88116455078125
y: 223.36566162109375
z: -0.12008202075958252
visibility: 0.9037504196166992
","x: 333.4497375488281
y: 221.59701538085938
z: -0.45914649963378906
visibility: 0.927786111831665
","x: 263.2643127441406
y: 229.03494262695312
z: -0.09641692042350769
visibility: 0.8973802328109741
","x: 318.04962158203125
y: 354.3095703125
z: -0.07008852064609528
visibility: 0.9993250370025635
","x: 294.7810363769531
y: 352.72509765625
z: 0.06997057795524597
visibility: 0.999183714389801
","x: 309.22454833984375
y: 430.4542541503906
z: -0.0996081680059433
visibility: 0.991798996925354
","x: 291.7018127441406
y: 433.236083984375
z: 0.048436786979436874
visibility: 0.9809662103652954
","x: 316.43634033203125
y: 508.1994323730469
z: 0.02700590156018734
visibility: 0.9906408190727234
","x: 304.7206115722656
y: 505.4689025878906
z: 0.17735424637794495
visibility: 0.9848513603210449
","x: 319.3666076660156
y: 517.712158203125
z: 0.03423326835036278
visibility: 0.8970133066177368
","x: 310.2132568359375
y: 517.395263671875
z: 0.18372610211372375
visibility: 0.9138938188552856
","x: 312.85791015625
y: 530.196533203125
z: -0.07803138345479965
visibility: 0.9879717826843262
","x: 293.94696044921875
y: 527.8411865234375
z: 0.09007300436496735
visibility: 0.9835686683654785
","x: 262.4403991699219
y: 242.7550506591797
z: 0.0
","x: 264.41015625
y: 234.5980682373047
z: 0.00014717680460307747
","x: 265.17730712890625
y: 227.1579132080078
z: -0.0006727954605594277
","x: 265.73876953125
y: 221.55010986328125
z: -0.0025617945939302444
","x: 266.6503601074219
y: 217.27542114257812
z: -0.003807571018114686
","x: 259.71795654296875
y: 221.12283325195312
z: 0.0032404668163508177
","x: 258.0995178222656
y: 214.82504272460938
z: 0.000272623059572652
","x: 259.05767822265625
y: 214.21791076660156
z: -0.001192429568618536
","x: 260.064453125
y: 215.25225830078125
z: -0.0016089952550828457
","x: 257.9921875
y: 223.58633422851562
z: 0.0010504177771508694
","x: 257.24835205078125
y: 219.47933959960938
z: -0.002218124456703663
","x: 259.8052673339844
y: 222.96920776367188
z: -0.002727215876802802
","x: 261.4115295410156
y: 226.18341064453125
z: -0.001999018946662545
","x: 256.44549560546875
y: 227.18539428710938
z: -0.0018503066385164857
","x: 256.0932922363281
y: 224.04876708984375
z: -0.004845934454351664
","x: 258.5173645019531
y: 226.8014678955078
z: -0.0039750961586833
","x: 260.16107177734375
y: 229.3541259765625
z: -0.002374623902142048
","x: 255.22576904296875
y: 231.56936645507812
z: -0.005132187157869339
","x: 254.70370483398438
y: 228.56651306152344
z: -0.006870219483971596
","x: 256.7135314941406
y: 229.97055053710938
z: -0.0060443151742219925
","x: 258.302734375
y: 231.9080352783203
z: -0.004581964109092951
","x: 337.23138427734375
y: 232.6441192626953
z: 0.0
","x: 333.58831787109375
y: 227.32537841796875
z: 0.0005348043632693589
","x: 331.15679931640625
y: 221.1118927001953
z: -0.0014750896953046322
","x: 328.8814392089844
y: 216.73367309570312
z: -0.0043341778218746185
","x: 326.86090087890625
y: 213.5316619873047
z: -0.006752551067620516
","x: 334.9214172363281
y: 212.1118927001953
z: -0.0017307959496974945
","x: 331.95355224609375
y: 207.030029296875
z: -0.005285023711621761
","x: 329.1618347167969
y: 208.4900665283203
z: -0.006904308218508959
","x: 327.371337890625
y: 210.9020233154297
z: -0.007697415072470903
","x: 336.49896240234375
y: 213.35269165039062
z: -0.004680439364165068
","x: 332.9298095703125
y: 208.28018188476562
z: -0.008539652451872826
","x: 329.83343505859375
y: 210.7766571044922
z: -0.009357591159641743
","x: 328.2626647949219
y: 214.14976501464844
z: -0.009472915902733803
","x: 337.70947265625
y: 216.20758056640625
z: -0.007825303822755814
","x: 333.90093994140625
y: 212.72451782226562
z: -0.010861608199775219
","x: 331.23443603515625
y: 215.02789306640625
z: -0.010259362868964672
","x: 330.0130615234375
y: 217.7650604248047
z: -0.009514112956821918
","x: 338.513916015625
y: 220.27976989746094
z: -0.01115207839757204
","x: 335.1628723144531
y: 219.14344787597656
z: -0.012876351363956928
","x: 333.171875
y: 220.85960388183594
z: -0.012128662317991257
","x: 332.3478088378906
y: 223.01535034179688
z: -0.011341399513185024
"
22,"x: 308.8076171875
y: 207.1529998779297
z: -0.208083838224411
visibility: 0.9997060298919678
","x: 311.811767578125
y: 199.83273315429688
z: -0.19701269268989563
visibility: 0.9984788298606873
","x: 313.62286376953125
y: 199.75393676757812
z: -0.19703789055347443
visibility: 0.9989089369773865
","x: 315.7246398925781
y: 199.6882781982422
z: -0.19707801938056946
visibility: 0.9987898468971252
","x: 308.2400817871094
y: 199.3816375732422
z: -0.18339960277080536
visibility: 0.9983861446380615
","x: 307.5992431640625
y: 198.933837890625
z: -0.1834079623222351
visibility: 0.9984763860702515
","x: 307.2247009277344
y: 198.5984649658203
z: -0.18339477479457855
visibility: 0.9979261755943298
","x: 317.5888671875
y: 201.9459686279297
z: -0.11159537732601166
visibility: 0.9982262849807739
","x: 304.1373596191406
y: 201.80487060546875
z: -0.04869965463876724
visibility: 0.9961168766021729
","x: 311.9998474121094
y: 214.14706420898438
z: -0.17552940547466278
visibility: 0.999428927898407
","x: 307.86016845703125
y: 213.392822265625
z: -0.15776899456977844
visibility: 0.9991025328636169
","x: 331.0067443847656
y: 242.09469604492188
z: -0.09069836884737015
visibility: 0.9999009370803833
","x: 292.2940673828125
y: 243.4166259765625
z: 0.07653088867664337
visibility: 0.9996720552444458
","x: 352.14471435546875
y: 270.8034362792969
z: -0.2615583539009094
visibility: 0.9871548414230347
","x: 272.75323486328125
y: 270.483154296875
z: 0.05908682942390442
visibility: 0.9681478142738342
","x: 337.89739990234375
y: 232.05935668945312
z: -0.4607909321784973
visibility: 0.9649059176445007
","x: 262.121826171875
y: 241.36375427246094
z: -0.08658864349126816
visibility: 0.9368847012519836
","x: 336.54754638671875
y: 218.8853759765625
z: -0.5033677816390991
visibility: 0.9292817115783691
","x: 259.28448486328125
y: 228.23927307128906
z: -0.10995538532733917
visibility: 0.896300733089447
","x: 334.4828186035156
y: 217.05328369140625
z: -0.48914170265197754
visibility: 0.9359155893325806
","x: 261.88116455078125
y: 223.36566162109375
z: -0.12008202075958252
visibility: 0.9037504196166992
","x: 333.4497375488281
y: 221.59701538085938
z: -0.45914649963378906
visibility: 0.927786111831665
","x: 263.2643127441406
y: 229.03494262695312
z: -0.09641692042350769
visibility: 0.8973802328109741
","x: 318.04962158203125
y: 354.3095703125
z: -0.07008852064609528
visibility: 0.9993250370025635
","x: 294.7810363769531
y: 352.72509765625
z: 0.06997057795524597
visibility: 0.999183714389801
","x: 309.22454833984375
y: 430.4542541503906
z: -0.0996081680059433
visibility: 0.991798996925354
","x: 291.7018127441406
y: 433.236083984375
z: 0.048436786979436874
visibility: 0.9809662103652954
","x: 316.43634033203125
y: 508.1994323730469
z: 0.02700590156018734
visibility: 0.9906408190727234
","x: 304.7206115722656
y: 505.4689025878906
z: 0.17735424637794495
visibility: 0.9848513603210449
","x: 319.3666076660156
y: 517.712158203125
z: 0.03423326835036278
visibility: 0.8970133066177368
","x: 310.2132568359375
y: 517.395263671875
z: 0.18372610211372375
visibility: 0.9138938188552856
","x: 312.85791015625
y: 530.196533203125
z: -0.07803138345479965
visibility: 0.9879717826843262
","x: 293.94696044921875
y: 527.8411865234375
z: 0.09007300436496735
visibility: 0.9835686683654785
","x: 262.4403991699219
y: 242.7550506591797
z: 0.0
","x: 264.41015625
y: 234.5980682373047
z: 0.00014717680460307747
","x: 265.17730712890625
y: 227.1579132080078
z: -0.0006727954605594277
","x: 265.73876953125
y: 221.55010986328125
z: -0.0025617945939302444
","x: 266.6503601074219
y: 217.27542114257812
z: -0.003807571018114686
","x: 259.71795654296875
y: 221.12283325195312
z: 0.0032404668163508177
","x: 258.0995178222656
y: 214.82504272460938
z: 0.000272623059572652
","x: 259.05767822265625
y: 214.21791076660156
z: -0.001192429568618536
","x: 260.064453125
y: 215.25225830078125
z: -0.0016089952550828457
","x: 257.9921875
y: 223.58633422851562
z: 0.0010504177771508694
","x: 257.24835205078125
y: 219.47933959960938
z: -0.002218124456703663
","x: 259.8052673339844
y: 222.96920776367188
z: -0.002727215876802802
","x: 261.4115295410156
y: 226.18341064453125
z: -0.001999018946662545
","x: 256.44549560546875
y: 227.18539428710938
z: -0.0018503066385164857
","x: 256.0932922363281
y: 224.04876708984375
z: -0.004845934454351664
","x: 258.5173645019531
y: 226.8014678955078
z: -0.0039750961586833
","x: 260.16107177734375
y: 229.3541259765625
z: -0.002374623902142048
","x: 255.22576904296875
y: 231.56936645507812
z: -0.005132187157869339
","x: 254.70370483398438
y: 228.56651306152344
z: -0.006870219483971596
","x: 256.7135314941406
y: 229.97055053710938
z: -0.0060443151742219925
","x: 258.302734375
y: 231.9080352783203
z: -0.004581964109092951
","x: 337.23138427734375
y: 232.6441192626953
z: 0.0
","x: 333.58831787109375
y: 227.32537841796875
z: 0.0005348043632693589
","x: 331.15679931640625
y: 221.1118927001953
z: -0.0014750896953046322
","x: 328.8814392089844
y: 216.73367309570312
z: -0.0043341778218746185
","x: 326.86090087890625
y: 213.5316619873047
z: -0.006752551067620516
","x: 334.9214172363281
y: 212.1118927001953
z: -0.0017307959496974945
","x: 331.95355224609375
y: 207.030029296875
z: -0.005285023711621761
","x: 329.1618347167969
y: 208.4900665283203
z: -0.006904308218508959
","x: 327.371337890625
y: 210.9020233154297
z: -0.007697415072470903
","x: 336.49896240234375
y: 213.35269165039062
z: -0.004680439364165068
","x: 332.9298095703125
y: 208.28018188476562
z: -0.008539652451872826
","x: 329.83343505859375
y: 210.7766571044922
z: -0.009357591159641743
","x: 328.2626647949219
y: 214.14976501464844
z: -0.009472915902733803
","x: 337.70947265625
y: 216.20758056640625
z: -0.007825303822755814
","x: 333.90093994140625
y: 212.72451782226562
z: -0.010861608199775219
","x: 331.23443603515625
y: 215.02789306640625
z: -0.010259362868964672
","x: 330.0130615234375
y: 217.7650604248047
z: -0.009514112956821918
","x: 338.513916015625
y: 220.27976989746094
z: -0.01115207839757204
","x: 335.1628723144531
y: 219.14344787597656
z: -0.012876351363956928
","x: 333.171875
y: 220.85960388183594
z: -0.012128662317991257
","x: 332.3478088378906
y: 223.01535034179688
z: -0.011341399513185024
"
23,"x: 308.8076171875
y: 207.1529998779297
z: -0.208083838224411
visibility: 0.9997060298919678
","x: 311.811767578125
y: 199.83273315429688
z: -0.19701269268989563
visibility: 0.9984788298606873
","x: 313.62286376953125
y: 199.75393676757812
z: -0.19703789055347443
visibility: 0.9989089369773865
","x: 315.7246398925781
y: 199.6882781982422
z: -0.19707801938056946
visibility: 0.9987898468971252
","x: 308.2400817871094
y: 199.3816375732422
z: -0.18339960277080536
visibility: 0.9983861446380615
","x: 307.5992431640625
y: 198.933837890625
z: -0.1834079623222351
visibility: 0.9984763860702515
","x: 307.2247009277344
y: 198.5984649658203
z: -0.18339477479457855
visibility: 0.9979261755943298
","x: 317.5888671875
y: 201.9459686279297
z: -0.11159537732601166
visibility: 0.9982262849807739
","x: 304.1373596191406
y: 201.80487060546875
z: -0.04869965463876724
visibility: 0.9961168766021729
","x: 311.9998474121094
y: 214.14706420898438
z: -0.17552940547466278
visibility: 0.999428927898407
","x: 307.86016845703125
y: 213.392822265625
z: -0.15776899456977844
visibility: 0.9991025328636169
","x: 331.0067443847656
y: 242.09469604492188
z: -0.09069836884737015
visibility: 0.9999009370803833
","x: 292.2940673828125
y: 243.4166259765625
z: 0.07653088867664337
visibility: 0.9996720552444458
","x: 352.14471435546875
y: 270.8034362792969
z: -0.2615583539009094
visibility: 0.9871548414230347
","x: 272.75323486328125
y: 270.483154296875
z: 0.05908682942390442
visibility: 0.9681478142738342
","x: 337.89739990234375
y: 232.05935668945312
z: -0.4607909321784973
visibility: 0.9649059176445007
","x: 262.121826171875
y: 241.36375427246094
z: -0.08658864349126816
visibility: 0.9368847012519836
","x: 336.54754638671875
y: 218.8853759765625
z: -0.5033677816390991
visibility: 0.9292817115783691
","x: 259.28448486328125
y: 228.23927307128906
z: -0.10995538532733917
visibility: 0.896300733089447
","x: 334.4828186035156
y: 217.05328369140625
z: -0.48914170265197754
visibility: 0.9359155893325806
","x: 261.88116455078125
y: 223.36566162109375
z: -0.12008202075958252
visibility: 0.9037504196166992
","x: 333.4497375488281
y: 221.59701538085938
z: -0.45914649963378906
visibility: 0.927786111831665
","x: 263.2643127441406
y: 229.03494262695312
z: -0.09641692042350769
visibility: 0.8973802328109741
","x: 318.04962158203125
y: 354.3095703125
z: -0.07008852064609528
visibility: 0.9993250370025635
","x: 294.7810363769531
y: 352.72509765625
z: 0.06997057795524597
visibility: 0.999183714389801
","x: 309.22454833984375
y: 430.4542541503906
z: -0.0996081680059433
visibility: 0.991798996925354
","x: 291.7018127441406
y: 433.236083984375
z: 0.048436786979436874
visibility: 0.9809662103652954
","x: 316.43634033203125
y: 508.1994323730469
z: 0.02700590156018734
visibility: 0.9906408190727234
","x: 304.7206115722656
y: 505.4689025878906
z: 0.17735424637794495
visibility: 0.9848513603210449
","x: 319.3666076660156
y: 517.712158203125
z: 0.03423326835036278
visibility: 0.8970133066177368
","x: 310.2132568359375
y: 517.395263671875
z: 0.18372610211372375
visibility: 0.9138938188552856
","x: 312.85791015625
y: 530.196533203125
z: -0.07803138345479965
visibility: 0.9879717826843262
","x: 293.94696044921875
y: 527.8411865234375
z: 0.09007300436496735
visibility: 0.9835686683654785
","x: 262.4403991699219
y: 242.7550506591797
z: 0.0
","x: 264.41015625
y: 234.5980682373047
z: 0.00014717680460307747
","x: 265.17730712890625
y: 227.1579132080078
z: -0.0006727954605594277
","x: 265.73876953125
y: 221.55010986328125
z: -0.0025617945939302444
","x: 266.6503601074219
y: 217.27542114257812
z: -0.003807571018114686
","x: 259.71795654296875
y: 221.12283325195312
z: 0.0032404668163508177
","x: 258.0995178222656
y: 214.82504272460938
z: 0.000272623059572652
","x: 259.05767822265625
y: 214.21791076660156
z: -0.001192429568618536
","x: 260.064453125
y: 215.25225830078125
z: -0.0016089952550828457
","x: 257.9921875
y: 223.58633422851562
z: 0.0010504177771508694
","x: 257.24835205078125
y: 219.47933959960938
z: -0.002218124456703663
","x: 259.8052673339844
y: 222.96920776367188
z: -0.002727215876802802
","x: 261.4115295410156
y: 226.18341064453125
z: -0.001999018946662545
","x: 256.44549560546875
y: 227.18539428710938
z: -0.0018503066385164857
","x: 256.0932922363281
y: 224.04876708984375
z: -0.004845934454351664
","x: 258.5173645019531
y: 226.8014678955078
z: -0.0039750961586833
","x: 260.16107177734375
y: 229.3541259765625
z: -0.002374623902142048
","x: 255.22576904296875
y: 231.56936645507812
z: -0.005132187157869339
","x: 254.70370483398438
y: 228.56651306152344
z: -0.006870219483971596
","x: 256.7135314941406
y: 229.97055053710938
z: -0.0060443151742219925
","x: 258.302734375
y: 231.9080352783203
z: -0.004581964109092951
","x: 337.23138427734375
y: 232.6441192626953
z: 0.0
","x: 333.58831787109375
y: 227.32537841796875
z: 0.0005348043632693589
","x: 331.15679931640625
y: 221.1118927001953
z: -0.0014750896953046322
","x: 328.8814392089844
y: 216.73367309570312
z: -0.0043341778218746185
","x: 326.86090087890625
y: 213.5316619873047
z: -0.006752551067620516
","x: 334.9214172363281
y: 212.1118927001953
z: -0.0017307959496974945
","x: 331.95355224609375
y: 207.030029296875
z: -0.005285023711621761
","x: 329.1618347167969
y: 208.4900665283203
z: -0.006904308218508959
","x: 327.371337890625
y: 210.9020233154297
z: -0.007697415072470903
","x: 336.49896240234375
y: 213.35269165039062
z: -0.004680439364165068
","x: 332.9298095703125
y: 208.28018188476562
z: -0.008539652451872826
","x: 329.83343505859375
y: 210.7766571044922
z: -0.009357591159641743
","x: 328.2626647949219
y: 214.14976501464844
z: -0.009472915902733803
","x: 337.70947265625
y: 216.20758056640625
z: -0.007825303822755814
","x: 333.90093994140625
y: 212.72451782226562
z: -0.010861608199775219
","x: 331.23443603515625
y: 215.02789306640625
z: -0.010259362868964672
","x: 330.0130615234375
y: 217.7650604248047
z: -0.009514112956821918
","x: 338.513916015625
y: 220.27976989746094
z: -0.01115207839757204
","x: 335.1628723144531
y: 219.14344787597656
z: -0.012876351363956928
","x: 333.171875
y: 220.85960388183594
z: -0.012128662317991257
","x: 332.3478088378906
y: 223.01535034179688
z: -0.011341399513185024
"
24,"x: 307.5462951660156
y: 208.55186462402344
z: -0.21296390891075134
visibility: 0.9997333884239197
","x: 311.1231689453125
y: 201.34854125976562
z: -0.20297393202781677
visibility: 0.9986269474029541
","x: 313.29351806640625
y: 201.278076171875
z: -0.20301873981952667
visibility: 0.9990143775939941
","x: 315.4532470703125
y: 201.2151336669922
z: -0.20305033028125763
visibility: 0.9989064931869507
","x: 307.67999267578125
y: 200.86007690429688
z: -0.19134509563446045
visibility: 0.9985418319702148
","x: 307.2197265625
y: 200.42355346679688
z: -0.1913655549287796
visibility: 0.9986216425895691
","x: 307.07861328125
y: 200.0588836669922
z: -0.19134080410003662
visibility: 0.9981261491775513
","x: 316.7479248046875
y: 203.26504516601562
z: -0.10851417481899261
visibility: 0.9984007477760315
","x: 303.26043701171875
y: 202.54879760742188
z: -0.05426047369837761
visibility: 0.996491551399231
","x: 310.9005432128906
y: 215.05184936523438
z: -0.17518091201782227
visibility: 0.9994841814041138
","x: 306.99981689453125
y: 214.50547790527344
z: -0.15980927646160126
visibility: 0.9991886615753174
","x: 329.71441650390625
y: 244.4420166015625
z: -0.07906545698642731
visibility: 0.9999094605445862
","x: 291.814208984375
y: 244.67613220214844
z: 0.0741407573223114
visibility: 0.9996980428695679
","x: 338.4490661621094
y: 297.53759765625
z: -0.22624392807483673
visibility: 0.9882038831710815
","x: 278.50390625
y: 288.6122741699219
z: 0.007787027861922979
visibility: 0.968512237071991
","x: 333.2518310546875
y: 269.6275634765625
z: -0.45305290818214417
visibility: 0.9681166410446167
","x: 264.2840881347656
y: 257.84893798828125
z: -0.2681291401386261
