uscmakers/ReverseChoreography/data/9_peaches_justin_bieber.csv
,NOSE,LEFT_EYE_INNER,LEFT_EYE,LEFT_EYE_OUTER,RIGHT_EYE_INNER,RIGHT_EYE,RIGHT_EYE_OUTER,LEFT_EAR,RIGHT_EAR,MOUTH_LEFT,MOUTH_RIGHT,LEFT_SHOULDER,RIGHT_SHOULDER,LEFT_ELBOW,RIGHT_ELBOW,LEFT_WRIST,RIGHT_WRIST,LEFT_PINKY,RIGHT_PINKY,LEFT_INDEX,RIGHT_INDEX,LEFT_THUMB,RIGHT_THUMB,LEFT_HIP,RIGHT_HIP,LEFT_KNEE,RIGHT_KNEE,LEFT_ANKLE,RIGHT_ANKLE,LEFT_HEEL,RIGHT_HEEL,LEFT_FOOT_INDEX,RIGHT_FOOT_INDEX,WRIST,THUMB_CPC,THUMB_MCP,THUMB_IP,THUMB_TIP,INDEX_FINGER_MCP,INDEX_FINGER_PIP,INDEX_FINGER_DIP,INDEX_FINGER_TIP,MIDDLE_FINGER_MCP,MIDDLE_FINGER_PIP,MIDDLE_FINGER_DIP,MIDDLE_FINGER_TIP,RING_FINGER_PIP,RING_FINGER_DIP,RING_FINGER_TIP,RING_FINGER_MCP,PINKY_MCP,PINKY_PIP,PINKY_DIP,PINKY_TIP,WRIST2,THUMB_CPC2,THUMB_MCP2,THUMB_IP2,THUMB_TIP2,INDEX_FINGER_MCP2,INDEX_FINGER_PIP2,INDEX_FINGER_DIP2,INDEX_FINGER_TIP2,MIDDLE_FINGER_MCP2,MIDDLE_FINGER_PIP2,MIDDLE_FINGER_DIP2,MIDDLE_FINGER_TIP2,RING_FINGER_PIP2,RING_FINGER_DIP2,RING_FINGER_TIP2,RING_FINGER_MCP2,PINKY_MCP2,PINKY_PIP2,PINKY_DIP2,PINKY_TIP2
0,"x: 429.8955383300781
y: 213.76034545898438
z: -0.2973998188972473
visibility: 0.9998666048049927
","x: 430.2278747558594
y: 206.27056884765625
z: -0.28494665026664734
visibility: 0.9995017051696777
","x: 430.8809509277344
y: 206.26625061035156
z: -0.2849254608154297
visibility: 0.999503493309021
","x: 431.5414123535156
y: 206.26895141601562
z: -0.2849048674106598
visibility: 0.9993870258331299
","x: 427.36029052734375
y: 205.9895477294922
z: -0.2939111590385437
visibility: 0.9994820952415466
","x: 425.93231201171875
y: 205.77383422851562
z: -0.29394102096557617
visibility: 0.9995344877243042
","x: 424.411865234375
y: 205.47149658203125
z: -0.29400211572647095
visibility: 0.9994841814041138
","x: 430.6374206542969
y: 209.6600341796875
z: -0.18947353959083557
visibility: 0.9985547661781311
","x: 420.2423400878906
y: 207.53253173828125
z: -0.2336091548204422
visibility: 0.9992141723632812
","x: 430.0299072265625
y: 221.2775421142578
z: -0.25939375162124634
visibility: 0.9997405409812927
","x: 426.9334411621094
y: 221.0527801513672
z: -0.27207326889038086
visibility: 0.9998013377189636
","x: 436.4821472167969
y: 261.44024658203125
z: -0.10593141615390778
visibility: 0.999841570854187
","x: 403.7026062011719
y: 247.83108520507812
z: -0.17817500233650208
visibility: 0.9998742341995239
","x: 444.7536315917969
y: 312.72821044921875
z: -0.06351776421070099
visibility: 0.9196121096611023
","x: 403.6849365234375
y: 304.8035888671875
z: -0.17810124158859253
visibility: 0.9876054525375366
","x: 459.8282470703125
y: 335.83740234375
z: -0.1754893660545349
visibility: 0.9670637845993042
","x: 413.5062255859375
y: 345.06353759765625
z: -0.2648404836654663
visibility: 0.9852904081344604
","x: 466.3775634765625
y: 342.72894287109375
z: -0.20098081231117249
visibility: 0.9464151859283447
","x: 413.7572021484375
y: 360.4272155761719
z: -0.2950122654438019
visibility: 0.9719456434249878
","x: 468.0764465332031
y: 342.14208984375
z: -0.23566587269306183
visibility: 0.9519467353820801
","x: 416.764892578125
y: 359.4169921875
z: -0.3148629069328308
visibility: 0.9726253747940063
","x: 465.15032958984375
y: 340.3081970214844
z: -0.19285309314727783
visibility: 0.9439724087715149
","x: 417.0278015136719
y: 353.6238098144531
z: -0.2737826108932495
visibility: 0.9645264148712158
","x: 430.60784912109375
y: 351.4888000488281
z: 0.006193429231643677
visibility: 0.9989336133003235
","x: 409.6821594238281
y: 348.7043762207031
z: -0.006186258513480425
visibility: 0.9989996552467346
","x: 426.2058410644531
y: 426.91058349609375
z: 0.008765141479671001
visibility: 0.9672592282295227
","x: 404.700439453125
y: 426.07476806640625
z: -0.0017461415845900774
visibility: 0.9746930599212646
","x: 422.0442810058594
y: 499.1733093261719
z: 0.13113215565681458
visibility: 0.967556357383728
","x: 408.1714782714844
y: 497.4549560546875
z: 0.13524992763996124
visibility: 0.9708404541015625
","x: 421.4495849609375
y: 509.1304931640625
z: 0.13633108139038086
visibility: 0.775067925453186
","x: 409.0353698730469
y: 505.3655700683594
z: 0.14187201857566833
visibility: 0.7770786881446838
","x: 421.5830078125
y: 520.5863037109375
z: 0.033539995551109314
visibility: 0.9652687311172485
","x: 409.4165954589844
y: 520.650146484375
z: 0.037251971662044525
visibility: 0.9701434373855591
","x: 410.2486267089844
y: 345.89202880859375
z: 0.0
","x: 414.1720886230469
y: 347.4568176269531
z: -0.0003173953155055642
","x: 416.888671875
y: 352.0048522949219
z: -0.0013827079674229026
","x: 418.1808776855469
y: 357.1258850097656
z: -0.0021386872977018356
","x: 418.7872009277344
y: 361.21728515625
z: -0.0025000530295073986
","x: 412.5603332519531
y: 355.552490234375
z: -0.00578333018347621
","x: 414.703369140625
y: 365.7143859863281
z: -0.006990891415625811
","x: 416.607666015625
y: 367.41583251953125
z: -0.005489629693329334
","x: 417.85479736328125
y: 366.7740173339844
z: -0.003870913526043296
","x: 411.0545959472656
y: 356.6810607910156
z: -0.005953014362603426
","x: 413.5894775390625
y: 366.17205810546875
z: -0.007158634718507528
","x: 415.81036376953125
y: 367.8923034667969
z: -0.0049522314220666885
","x: 417.0611877441406
y: 367.3033142089844
z: -0.0030803275294601917
","x: 410.29779052734375
y: 357.5632019042969
z: -0.005732427816838026
","x: 412.86541748046875
y: 365.75201416015625
z: -0.006864308379590511
","x: 415.1740417480469
y: 367.28289794921875
z: -0.004759226925671101
","x: 416.70172119140625
y: 367.03350830078125
z: -0.0030054282397031784
","x: 410.2196960449219
y: 358.55487060546875
z: -0.005477954167872667
","x: 412.2356262207031
y: 364.9923400878906
z: -0.006371057592332363
","x: 414.16326904296875
y: 366.4759826660156
z: -0.005362604279071093
","x: 415.5892333984375
y: 366.45587158203125
z: -0.004200705327093601
",,,,,,,,,,,,,,,,,,,,,
1,"x: 429.8955383300781
y: 213.76034545898438
z: -0.2973998188972473
visibility: 0.9998666048049927
","x: 430.2278747558594
y: 206.27056884765625
z: -0.28494665026664734
visibility: 0.9995017051696777
","x: 430.8809509277344
y: 206.26625061035156
z: -0.2849254608154297
visibility: 0.999503493309021
","x: 431.5414123535156
y: 206.26895141601562
z: -0.2849048674106598
visibility: 0.9993870258331299
","x: 427.36029052734375
y: 205.9895477294922
z: -0.2939111590385437
visibility: 0.9994820952415466
","x: 425.93231201171875
y: 205.77383422851562
z: -0.29394102096557617
visibility: 0.9995344877243042
","x: 424.411865234375
y: 205.47149658203125
z: -0.29400211572647095
visibility: 0.9994841814041138
","x: 430.6374206542969
y: 209.6600341796875
z: -0.18947353959083557
visibility: 0.9985547661781311
","x: 420.2423400878906
y: 207.53253173828125
z: -0.2336091548204422
visibility: 0.9992141723632812
","x: 430.0299072265625
y: 221.2775421142578
z: -0.25939375162124634
visibility: 0.9997405409812927
","x: 426.9334411621094
y: 221.0527801513672
z: -0.27207326889038086
visibility: 0.9998013377189636
","x: 436.4821472167969
y: 261.44024658203125
z: -0.10593141615390778
visibility: 0.999841570854187
","x: 403.7026062011719
y: 247.83108520507812
z: -0.17817500233650208
visibility: 0.9998742341995239
","x: 444.7536315917969
y: 312.72821044921875
z: -0.06351776421070099
visibility: 0.9196121096611023
","x: 403.6849365234375
y: 304.8035888671875
z: -0.17810124158859253
visibility: 0.9876054525375366
","x: 459.8282470703125
y: 335.83740234375
z: -0.1754893660545349
visibility: 0.9670637845993042
","x: 413.5062255859375
y: 345.06353759765625
z: -0.2648404836654663
visibility: 0.9852904081344604
","x: 466.3775634765625
y: 342.72894287109375
z: -0.20098081231117249
visibility: 0.9464151859283447
","x: 413.7572021484375
y: 360.4272155761719
z: -0.2950122654438019
visibility: 0.9719456434249878
","x: 468.0764465332031
y: 342.14208984375
z: -0.23566587269306183
visibility: 0.9519467353820801
","x: 416.764892578125
y: 359.4169921875
z: -0.3148629069328308
visibility: 0.9726253747940063
","x: 465.15032958984375
y: 340.3081970214844
z: -0.19285309314727783
visibility: 0.9439724087715149
","x: 417.0278015136719
y: 353.6238098144531
z: -0.2737826108932495
visibility: 0.9645264148712158
","x: 430.60784912109375
y: 351.4888000488281
z: 0.006193429231643677
visibility: 0.9989336133003235
","x: 409.6821594238281
y: 348.7043762207031
z: -0.006186258513480425
visibility: 0.9989996552467346
","x: 426.2058410644531
y: 426.91058349609375
z: 0.008765141479671001
visibility: 0.9672592282295227
","x: 404.700439453125
y: 426.07476806640625
z: -0.0017461415845900774
visibility: 0.9746930599212646
","x: 422.0442810058594
y: 499.1733093261719
z: 0.13113215565681458
visibility: 0.967556357383728
","x: 408.1714782714844
y: 497.4549560546875
z: 0.13524992763996124
visibility: 0.9708404541015625
","x: 421.4495849609375
y: 509.1304931640625
z: 0.13633108139038086
visibility: 0.775067925453186
","x: 409.0353698730469
y: 505.3655700683594
z: 0.14187201857566833
visibility: 0.7770786881446838
","x: 421.5830078125
y: 520.5863037109375
z: 0.033539995551109314
visibility: 0.9652687311172485
","x: 409.4165954589844
y: 520.650146484375
z: 0.037251971662044525
visibility: 0.9701434373855591
","x: 410.2486267089844
y: 345.89202880859375
z: 0.0
","x: 414.1720886230469
y: 347.4568176269531
z: -0.0003173953155055642
","x: 416.888671875
y: 352.0048522949219
z: -0.0013827079674229026
","x: 418.1808776855469
y: 357.1258850097656
z: -0.0021386872977018356
","x: 418.7872009277344
y: 361.21728515625
z: -0.0025000530295073986
","x: 412.5603332519531
y: 355.552490234375
z: -0.00578333018347621
","x: 414.703369140625
y: 365.7143859863281
z: -0.006990891415625811
","x: 416.607666015625
y: 367.41583251953125
z: -0.005489629693329334
","x: 417.85479736328125
y: 366.7740173339844
z: -0.003870913526043296
","x: 411.0545959472656
y: 356.6810607910156
z: -0.005953014362603426
","x: 413.5894775390625
y: 366.17205810546875
z: -0.007158634718507528
","x: 415.81036376953125
y: 367.8923034667969
z: -0.0049522314220666885
","x: 417.0611877441406
y: 367.3033142089844
z: -0.0030803275294601917
","x: 410.29779052734375
y: 357.5632019042969
z: -0.005732427816838026
","x: 412.86541748046875
y: 365.75201416015625
z: -0.006864308379590511
","x: 415.1740417480469
y: 367.28289794921875
z: -0.004759226925671101
","x: 416.70172119140625
y: 367.03350830078125
z: -0.0030054282397031784
","x: 410.2196960449219
y: 358.55487060546875
z: -0.005477954167872667
","x: 412.2356262207031
y: 364.9923400878906
z: -0.006371057592332363
","x: 414.16326904296875
y: 366.4759826660156
z: -0.005362604279071093
","x: 415.5892333984375
y: 366.45587158203125
z: -0.004200705327093601
",,,,,,,,,,,,,,,,,,,,,
2,"x: 418.6630859375
y: 205.6125030517578
z: -0.2737553119659424
visibility: 0.9998704195022583
","x: 420.3428039550781
y: 199.42462158203125
z: -0.2592286169528961
visibility: 0.9995286464691162
","x: 421.92779541015625
y: 199.77481079101562
z: -0.2592824101448059
visibility: 0.9995318055152893
","x: 423.4850158691406
y: 200.20599365234375
z: -0.2593228220939636
visibility: 0.9994284510612488
","x: 416.3271789550781
y: 199.4326934814453
z: -0.25772425532341003
visibility: 0.9995031952857971
","x: 415.0762023925781
y: 199.71099853515625
z: -0.25773385167121887
visibility: 0.9995444416999817
","x: 413.7630310058594
y: 199.95445251464844
z: -0.25776350498199463
visibility: 0.9994953870773315
","x: 425.3112487792969
y: 204.59059143066406
z: -0.15913186967372894
visibility: 0.9986768364906311
","x: 411.44091796875
y: 203.93743896484375
z: -0.15058749914169312
visibility: 0.9992164373397827
","x: 421.9946594238281
y: 214.13047790527344
z: -0.23517625033855438
visibility: 0.9997596144676208
","x: 416.3905944824219
y: 214.2013397216797
z: -0.232977032661438
visibility: 0.9998077154159546
","x: 436.9861755371094
y: 246.94703674316406
z: -0.10554233938455582
visibility: 0.9998533129692078
","x: 399.974609375
y: 248.56666564941406
z: -0.05424099415540695
visibility: 0.9998251795768738
","x: 442.6519775390625
y: 296.5224609375
z: -0.13273291289806366
visibility: 0.9268442392349243
","x: 397.60986328125
y: 303.29296875
z: -0.0271712988615036
visibility: 0.9734065532684326
","x: 425.4875793457031
y: 307.0926208496094
z: -0.29589733481407166
visibility: 0.9694859981536865
","x: 406.10809326171875
y: 325.7833251953125
z: -0.15629474818706512
visibility: 0.9715347290039062
","x: 419.6352233886719
y: 316.43572998046875
z: -0.33939141035079956
visibility: 0.9499312043190002
","x: 406.9895935058594
y: 337.1001892089844
z: -0.18976028263568878
visibility: 0.955607533454895
","x: 416.77020263671875
y: 309.4327087402344
z: -0.3530387282371521
visibility: 0.9549254775047302
","x: 408.1182861328125
y: 329.9507141113281
z: -0.21358433365821838
visibility: 0.9566184282302856
","x: 417.9053649902344
y: 307.3526306152344
z: -0.30300086736679077
visibility: 0.9465247392654419
","x: 408.5386962890625
y: 324.0283508300781
z: -0.16832974553108215
visibility: 0.944766640663147
","x: 430.8465576171875
y: 350.8682861328125
z: -0.007938867434859276
visibility: 0.9989550709724426
","x: 409.74786376953125
y: 349.1520690917969
z: 0.00796519499272108
visibility: 0.9990001320838928
","x: 428.9715576171875
y: 427.9478454589844
z: -0.018357034772634506
visibility: 0.9699257016181946
","x: 406.9658203125
y: 427.99725341796875
z: 0.008112660609185696
visibility: 0.9763916730880737
","x: 422.0406494140625
y: 498.5242919921875
z: 0.151918426156044
visibility: 0.9698798656463623
","x: 409.26068115234375
y: 498.8734436035156
z: 0.1683608591556549
visibility: 0.9728772640228271
","x: 421.2704772949219
y: 507.67779541015625
z: 0.16248756647109985
visibility: 0.78791344165802
","x: 410.7090759277344
y: 509.7484130859375
z: 0.17684327065944672
visibility: 0.7886047959327698
","x: 421.66107177734375
y: 520.238525390625
z: 0.040884122252464294
visibility: 0.9673060774803162
","x: 409.2820129394531
y: 521.820556640625
z: 0.05938269942998886
visibility: 0.9716632962226868
",,,,,,,,,,,,,,,,,,,,,,"x: 419.22698974609375
y: 304.7906494140625
z: 0.0
","x: 414.6979064941406
y: 302.66815185546875
z: 0.0007564268307760358
","x: 410.06341552734375
y: 303.79339599609375
z: -0.0008391747833229601
","x: 406.8033142089844
y: 307.1930236816406
z: -0.0026440464425832033
","x: 404.80419921875
y: 310.74468994140625
z: -0.004260024055838585
","x: 409.3757629394531
y: 301.905029296875
z: -0.0059269084595143795
","x: 404.403076171875
y: 307.63177490234375
z: -0.008239023387432098
","x: 403.2032775878906
y: 311.93865966796875
z: -0.007918882183730602
","x: 402.96173095703125
y: 314.87701416015625
z: -0.007344511803239584
","x: 410.998291015625
y: 304.64190673828125
z: -0.007914353162050247
","x: 406.12841796875
y: 312.05828857421875
z: -0.010278478264808655
","x: 405.37554931640625
y: 315.86236572265625
z: -0.008738177828490734
","x: 405.7413330078125
y: 317.3952941894531
z: -0.007322890218347311
","x: 412.76409912109375
y: 308.1009521484375
z: -0.009547412395477295
","x: 408.20123291015625
y: 315.0917663574219
z: -0.011257043108344078
","x: 407.5935974121094
y: 318.21551513671875
z: -0.008907103911042213
","x: 407.86676025390625
y: 319.13916015625
z: -0.007166008930653334
","x: 414.5003356933594
y: 311.8138732910156
z: -0.011136544868350029
","x: 410.77581787109375
y: 317.3142395019531
z: -0.012191842310130596
","x: 409.7916564941406
y: 319.4053955078125
z: -0.010671579279005527
","x: 409.5928039550781
y: 319.8833312988281
z: -0.009374148212373257
"
3,"x: 418.6630859375
y: 205.6125030517578
z: -0.2737553119659424
visibility: 0.9998704195022583
","x: 420.3428039550781
y: 199.42462158203125
z: -0.2592286169528961
visibility: 0.9995286464691162
","x: 421.92779541015625
y: 199.77481079101562
z: -0.2592824101448059
visibility: 0.9995318055152893
","x: 423.4850158691406
y: 200.20599365234375
z: -0.2593228220939636
visibility: 0.9994284510612488
","x: 416.3271789550781
y: 199.4326934814453
z: -0.25772425532341003
visibility: 0.9995031952857971
","x: 415.0762023925781
y: 199.71099853515625
z: -0.25773385167121887
visibility: 0.9995444416999817
","x: 413.7630310058594
y: 199.95445251464844
z: -0.25776350498199463
visibility: 0.9994953870773315
","x: 425.3112487792969
y: 204.59059143066406
z: -0.15913186967372894
visibility: 0.9986768364906311
","x: 411.44091796875
y: 203.93743896484375
z: -0.15058749914169312
visibility: 0.9992164373397827
","x: 421.9946594238281
y: 214.13047790527344
z: -0.23517625033855438
visibility: 0.9997596144676208
","x: 416.3905944824219
y: 214.2013397216797
z: -0.232977032661438
visibility: 0.9998077154159546
","x: 436.9861755371094
y: 246.94703674316406
z: -0.10554233938455582
visibility: 0.9998533129692078
","x: 399.974609375
y: 248.56666564941406
z: -0.05424099415540695
visibility: 0.9998251795768738
","x: 442.6519775390625
y: 296.5224609375
z: -0.13273291289806366
visibility: 0.9268442392349243
","x: 397.60986328125
y: 303.29296875
z: -0.0271712988615036
visibility: 0.9734065532684326
","x: 425.4875793457031
y: 307.0926208496094
z: -0.29589733481407166
visibility: 0.9694859981536865
","x: 406.10809326171875
y: 325.7833251953125
z: -0.15629474818706512
visibility: 0.9715347290039062
","x: 419.6352233886719
y: 316.43572998046875
z: -0.33939141035079956
visibility: 0.9499312043190002
","x: 406.9895935058594
y: 337.1001892089844
z: -0.18976028263568878
visibility: 0.955607533454895
","x: 416.77020263671875
y: 309.4327087402344
z: -0.3530387282371521
visibility: 0.9549254775047302
","x: 408.1182861328125
y: 329.9507141113281
z: -0.21358433365821838
visibility: 0.9566184282302856
","x: 417.9053649902344
y: 307.3526306152344
z: -0.30300086736679077
visibility: 0.9465247392654419
","x: 408.5386962890625
y: 324.0283508300781
z: -0.16832974553108215
visibility: 0.944766640663147
","x: 430.8465576171875
y: 350.8682861328125
z: -0.007938867434859276
visibility: 0.9989550709724426
","x: 409.74786376953125
y: 349.1520690917969
z: 0.00796519499272108
visibility: 0.9990001320838928
","x: 428.9715576171875
y: 427.9478454589844
z: -0.018357034772634506
visibility: 0.9699257016181946
","x: 406.9658203125
y: 427.99725341796875
z: 0.008112660609185696
visibility: 0.9763916730880737
","x: 422.0406494140625
y: 498.5242919921875
z: 0.151918426156044
visibility: 0.9698798656463623
","x: 409.26068115234375
y: 498.8734436035156
z: 0.1683608591556549
visibility: 0.9728772640228271
","x: 421.2704772949219
y: 507.67779541015625
z: 0.16248756647109985
visibility: 0.78791344165802
","x: 410.7090759277344
y: 509.7484130859375
z: 0.17684327065944672
visibility: 0.7886047959327698
","x: 421.66107177734375
y: 520.238525390625
z: 0.040884122252464294
visibility: 0.9673060774803162
","x: 409.2820129394531
y: 521.820556640625
z: 0.05938269942998886
visibility: 0.9716632962226868
",,,,,,,,,,,,,,,,,,,,,,"x: 419.22698974609375
y: 304.7906494140625
z: 0.0
","x: 414.6979064941406
y: 302.66815185546875
z: 0.0007564268307760358
","x: 410.06341552734375
y: 303.79339599609375
z: -0.0008391747833229601
","x: 406.8033142089844
y: 307.1930236816406
z: -0.0026440464425832033
","x: 404.80419921875
y: 310.74468994140625
z: -0.004260024055838585
","x: 409.3757629394531
y: 301.905029296875
z: -0.0059269084595143795
","x: 404.403076171875
y: 307.63177490234375
z: -0.008239023387432098
","x: 403.2032775878906
y: 311.93865966796875
z: -0.007918882183730602
","x: 402.96173095703125
y: 314.87701416015625
z: -0.007344511803239584
","x: 410.998291015625
y: 304.64190673828125
z: -0.007914353162050247
","x: 406.12841796875
y: 312.05828857421875
z: -0.010278478264808655
","x: 405.37554931640625
y: 315.86236572265625
z: -0.008738177828490734
","x: 405.7413330078125
y: 317.3952941894531
z: -0.007322890218347311
","x: 412.76409912109375
y: 308.1009521484375
z: -0.009547412395477295
","x: 408.20123291015625
y: 315.0917663574219
z: -0.011257043108344078
","x: 407.5935974121094
y: 318.21551513671875
z: -0.008907103911042213
","x: 407.86676025390625
y: 319.13916015625
z: -0.007166008930653334
","x: 414.5003356933594
y: 311.8138732910156
z: -0.011136544868350029
","x: 410.77581787109375
y: 317.3142395019531
z: -0.012191842310130596
","x: 409.7916564941406
y: 319.4053955078125
z: -0.010671579279005527
","x: 409.5928039550781
y: 319.8833312988281
z: -0.009374148212373257
"
4,"x: 417.802734375
y: 203.30201721191406
z: -0.2874290347099304
visibility: 0.9998812079429626
","x: 419.542236328125
y: 197.1600341796875
z: -0.2679983973503113
visibility: 0.9995685815811157
","x: 420.9177551269531
y: 197.5883331298828
z: -0.26807087659835815
visibility: 0.9995715022087097
","x: 422.2275390625
y: 198.06854248046875
z: -0.2681044042110443
visibility: 0.9994778633117676
","x: 415.6961975097656
y: 196.82974243164062
z: -0.26531705260276794
visibility: 0.9995449781417847
","x: 414.3954162597656
y: 197.0234375
z: -0.26534304022789
visibility: 0.9995818734169006
","x: 413.07281494140625
y: 197.2361602783203
z: -0.2654173672199249
visibility: 0.9995372891426086
","x: 423.07177734375
y: 202.10997009277344
z: -0.16902022063732147
visibility: 0.9987901449203491
","x: 410.32281494140625
y: 201.7276611328125
z: -0.1822081208229065
visibility: 0.9992792010307312
","x: 420.2351989746094
y: 211.59349060058594
z: -0.24578502774238586
visibility: 0.9997802376747131
","x: 414.99554443359375
y: 211.56576538085938
z: -0.2432440221309662
visibility: 0.9998239278793335
","x: 434.6607971191406
y: 248.5028839111328
z: -0.1057472974061966
visibility: 0.9998607039451599
","x: 396.1663513183594
y: 249.48202514648438
z: -0.10241039097309113
visibility: 0.9998310804367065
","x: 438.2039489746094
y: 296.22784423828125
z: -0.11518366634845734
visibility: 0.929386556148529
","x: 393.4586181640625
y: 301.7325439453125
z: -0.08393828570842743
visibility: 0.9734672904014587
","x: 440.7862243652344
y: 316.9772644042969
z: -0.2878331243991852
visibility: 0.9687715172767639
","x: 402.10443115234375
y: 331.00225830078125
z: -0.19115136563777924
visibility: 0.9708850383758545
","x: 442.30657958984375
y: 322.8320007324219
z: -0.32843658328056335
visibility: 0.9494511485099792
","x: 403.9576110839844
y: 343.7665100097656
z: -0.2227599173784256
visibility: 0.9539024233818054
","x: 442.1705017089844
y: 318.26593017578125
z: -0.3592715859413147
visibility: 0.9544903635978699
","x: 406.1420593261719
y: 338.7977600097656
z: -0.24659141898155212
visibility: 0.9551084041595459
","x: 440.6135559082031
y: 319.22265625
z: -0.30398330092430115
visibility: 0.9454858899116516
","x: 406.05706787109375
y: 333.62164306640625
z: -0.20192782580852509
visibility: 0.9427345991134644
","x: 430.0450134277344
y: 350.1298828125
z: -0.005338132381439209
visibility: 0.998986542224884
","x: 409.1260070800781
y: 349.5437927246094
z: 0.005332916509360075
visibility: 0.9990319013595581
","x: 428.6723327636719
y: 427.93817138671875
z: -0.010741105303168297
visibility: 0.9717945456504822
","x: 407.8217468261719
y: 428.28167724609375
z: 0.013838747516274452
visibility: 0.9774428009986877
","x: 422.0122375488281
y: 498.53021240234375
z: 0.15750542283058167
visibility: 0.9717774987220764
","x: 409.62762451171875
y: 499.7618408203125
z: 0.16957813501358032
visibility: 0.9742500185966492
","x: 421.2516784667969
y: 507.7167053222656
z: 0.16605204343795776
visibility: 0.7960526943206787
","x: 411.2919006347656
y: 510.73504638671875
z: 0.17755210399627686
visibility: 0.7945166826248169
","x: 421.72137451171875
y: 520.219482421875
z: 0.0423847958445549
visibility: 0.969010055065155
","x: 409.2720031738281
y: 522.6624755859375
z: 0.05912870168685913
visibility: 0.972797691822052
","x: 405.8885498046875
y: 336.0140380859375
z: 0.0
","x: 407.0886535644531
y: 332.3941650390625
z: -0.0029698789585381746
","x: 408.1844177246094
y: 329.93145751953125
z: -0.006337958853691816
","x: 408.21319580078125
y: 330.1560974121094
z: -0.009490575641393661
","x: 407.99530029296875
y: 332.4932861328125
z: -0.012215194292366505
","x: 410.3712463378906
y: 338.1968994140625
z: -0.0076906695030629635
","x: 406.4565734863281
y: 334.54718017578125
z: -0.011354105547070503
","x: 405.88360595703125
y: 331.749755859375
z: -0.012614661827683449
","x: 406.4084777832031
y: 330.8438415527344
z: -0.01317755039781332
","x: 409.052978515625
y: 342.5787048339844
z: -0.008663371205329895
","x: 404.2506103515625
y: 338.8924865722656
z: -0.012057188898324966
","x: 403.8319396972656
y: 335.13861083984375
z: -0.011099647730588913
","x: 404.6794128417969
y: 334.0014953613281
z: -0.010589789599180222
","x: 407.2442932128906
y: 345.2144775390625
z: -0.009509130381047726
","x: 402.80023193359375
y: 341.93414306640625
z: -0.011419849470257759
","x: 402.65106201171875
y: 338.2558898925781
z: -0.008894632570445538
","x: 403.717529296875
y: 336.86199951171875
z: -0.0075014689937233925
","x: 405.4056091308594
y: 346.7834167480469
z: -0.010880684480071068
","x: 401.99224853515625
y: 343.237548828125
z: -0.011140022426843643
","x: 402.08477783203125
y: 340.0535583496094
z: -0.009518754668533802
","x: 403.17828369140625
y: 338.5391845703125
z: -0.008544855751097202
",,,,,,,,,,,,,,,,,,,,,
5,"x: 417.802734375
y: 203.30201721191406
z: -0.2874290347099304
visibility: 0.9998812079429626
","x: 419.542236328125
y: 197.1600341796875
z: -0.2679983973503113
visibility: 0.9995685815811157
","x: 420.9177551269531
y: 197.5883331298828
z: -0.26807087659835815
visibility: 0.9995715022087097
","x: 422.2275390625
y: 198.06854248046875
z: -0.2681044042110443
visibility: 0.9994778633117676
","x: 415.6961975097656
y: 196.82974243164062
z: -0.26531705260276794
visibility: 0.9995449781417847
","x: 414.3954162597656
y: 197.0234375
z: -0.26534304022789
visibility: 0.9995818734169006
","x: 413.07281494140625
y: 197.2361602783203
z: -0.2654173672199249
visibility: 0.9995372891426086
","x: 423.07177734375
y: 202.10997009277344
z: -0.16902022063732147
visibility: 0.9987901449203491
","x: 410.32281494140625
y: 201.7276611328125
z: -0.1822081208229065
visibility: 0.9992792010307312
","x: 420.2351989746094
y: 211.59349060058594
z: -0.24578502774238586
visibility: 0.9997802376747131
","x: 414.99554443359375
y: 211.56576538085938
z: -0.2432440221309662
visibility: 0.9998239278793335
","x: 434.6607971191406
y: 248.5028839111328
z: -0.1057472974061966
visibility: 0.9998607039451599
","x: 396.1663513183594
y: 249.48202514648438
z: -0.10241039097309113
visibility: 0.9998310804367065
","x: 438.2039489746094
y: 296.22784423828125
z: -0.11518366634845734
visibility: 0.929386556148529
","x: 393.4586181640625
y: 301.7325439453125
z: -0.08393828570842743
visibility: 0.9734672904014587
","x: 440.7862243652344
y: 316.9772644042969
z: -0.2878331243991852
visibility: 0.9687715172767639
","x: 402.10443115234375
y: 331.00225830078125
z: -0.19115136563777924
visibility: 0.9708850383758545
","x: 442.30657958984375
y: 322.8320007324219
z: -0.32843658328056335
visibility: 0.9494511485099792
","x: 403.9576110839844
y: 343.7665100097656
z: -0.2227599173784256
visibility: 0.9539024233818054
","x: 442.1705017089844
y: 318.26593017578125
z: -0.3592715859413147
visibility: 0.9544903635978699
","x: 406.1420593261719
y: 338.7977600097656
z: -0.24659141898155212
visibility: 0.9551084041595459
","x: 440.6135559082031
y: 319.22265625
z: -0.30398330092430115
visibility: 0.9454858899116516
","x: 406.05706787109375
y: 333.62164306640625
z: -0.20192782580852509
visibility: 0.9427345991134644
","x: 430.0450134277344
y: 350.1298828125
z: -0.005338132381439209
visibility: 0.998986542224884
","x: 409.1260070800781
y: 349.5437927246094
z: 0.005332916509360075
visibility: 0.9990319013595581
","x: 428.6723327636719
y: 427.93817138671875
z: -0.010741105303168297
visibility: 0.9717945456504822
","x: 407.8217468261719
y: 428.28167724609375
z: 0.013838747516274452
visibility: 0.9774428009986877
","x: 422.0122375488281
y: 498.53021240234375
z: 0.15750542283058167
visibility: 0.9717774987220764
","x: 409.62762451171875
y: 499.7618408203125
z: 0.16957813501358032
visibility: 0.9742500185966492
","x: 421.2516784667969
y: 507.7167053222656
z: 0.16605204343795776
visibility: 0.7960526943206787
","x: 411.2919006347656
y: 510.73504638671875
z: 0.17755210399627686
visibility: 0.7945166826248169
","x: 421.72137451171875
y: 520.219482421875
z: 0.0423847958445549
visibility: 0.969010055065155
","x: 409.2720031738281
y: 522.6624755859375
z: 0.05912870168685913
visibility: 0.972797691822052
","x: 405.8885498046875
y: 336.0140380859375
z: 0.0
","x: 407.0886535644531
y: 332.3941650390625
z: -0.0029698789585381746
","x: 408.1844177246094
y: 329.93145751953125
z: -0.006337958853691816
","x: 408.21319580078125
y: 330.1560974121094
z: -0.009490575641393661
","x: 407.99530029296875
y: 332.4932861328125
z: -0.012215194292366505
","x: 410.3712463378906
y: 338.1968994140625
z: -0.0076906695030629635
","x: 406.4565734863281
y: 334.54718017578125
z: -0.011354105547070503
","x: 405.88360595703125
y: 331.749755859375
z: -0.012614661827683449
","x: 406.4084777832031
y: 330.8438415527344
z: -0.01317755039781332
","x: 409.052978515625
y: 342.5787048339844
z: -0.008663371205329895
","x: 404.2506103515625
y: 338.8924865722656
z: -0.012057188898324966
","x: 403.8319396972656
y: 335.13861083984375
z: -0.011099647730588913
","x: 404.6794128417969
y: 334.0014953613281
z: -0.010589789599180222
","x: 407.2442932128906
y: 345.2144775390625
z: -0.009509130381047726
","x: 402.80023193359375
y: 341.93414306640625
z: -0.011419849470257759
","x: 402.65106201171875
y: 338.2558898925781
z: -0.008894632570445538
","x: 403.717529296875
y: 336.86199951171875
z: -0.0075014689937233925
","x: 405.4056091308594
y: 346.7834167480469
z: -0.010880684480071068
","x: 401.99224853515625
y: 343.237548828125
z: -0.011140022426843643
","x: 402.08477783203125
y: 340.0535583496094
z: -0.009518754668533802
","x: 403.17828369140625
y: 338.5391845703125
z: -0.008544855751097202
",,,,,,,,,,,,,,,,,,,,,
6,"x: 417.95526123046875
y: 204.88827514648438
z: -0.2821494936943054
visibility: 0.9998816847801208
","x: 419.78387451171875
y: 198.3570098876953
z: -0.2660934031009674
visibility: 0.9995719194412231
","x: 421.13006591796875
y: 198.69276428222656
z: -0.266120046377182
visibility: 0.9995662569999695
","x: 422.4485168457031
y: 199.0813446044922
z: -0.2661276161670685
visibility: 0.9994782209396362
","x: 415.9346618652344
y: 198.0479278564453
z: -0.26957935094833374
visibility: 0.9995646476745605
","x: 414.554443359375
y: 198.15660095214844
z: -0.26961058378219604
visibility: 0.9995986223220825
","x: 413.1524963378906
y: 198.2756805419922
z: -0.2696644961833954
visibility: 0.9995627999305725
","x: 423.2041931152344
y: 202.94833374023438
z: -0.168312206864357
visibility: 0.9987689852714539
","x: 409.9375305175781
y: 202.2909698486328
z: -0.19113311171531677
visibility: 0.9993177652359009
","x: 420.27978515625
y: 212.8419647216797
z: -0.24350003898143768
visibility: 0.9997811317443848
","x: 415.0038146972656
y: 212.71279907226562
z: -0.24819521605968475
visibility: 0.9998301267623901
","x: 433.8319396972656
y: 249.0166473388672
z: -0.10100303590297699
visibility: 0.999823272228241
","x: 395.2857971191406
y: 250.4739532470703
z: -0.11911864578723907
visibility: 0.9998340606689453
","x: 439.2944641113281
y: 293.93084716796875
z: -0.07147736847400665
visibility: 0.9206340312957764
","x: 391.7274169921875
y: 302.42596435546875
z: -0.08478038012981415
visibility: 0.974205493927002
","x: 443.6142883300781
y: 320.80059814453125
z: -0.17718827724456787
visibility: 0.9418144822120667
","x: 401.529296875
y: 336.09906005859375
z: -0.1446540355682373
visibility: 0.9691614508628845
","x: 445.314697265625
y: 323.5226135253906
z: -0.2026972770690918
visibility: 0.9174992442131042
","x: 403.7742919921875
y: 347.0000915527344
z: -0.16681134700775146
visibility: 0.9497393369674683
","x: 444.1365661621094
y: 319.743408203125
z: -0.22760987281799316
visibility: 0.9233768582344055
","x: 406.5319519042969
y: 339.06414794921875
z: -0.18822655081748962
visibility: 0.9510862231254578
","x: 442.34521484375
y: 323.09283447265625
z: -0.18940557539463043
visibility: 0.913017749786377
","x: 406.3143310546875
y: 335.96807861328125
z: -0.15299801528453827
visibility: 0.9379026889801025
","x: 428.972900390625
y: 350.86358642578125
z: -0.003764608409255743
visibility: 0.9988868236541748
","x: 407.8981018066406
y: 351.2458801269531
z: 0.0037531889975070953
visibility: 0.9989715814590454
","x: 428.1786804199219
y: 428.0420227050781
z: 0.004113959148526192
visibility: 0.9729572534561157
","x: 407.6136474609375
y: 428.68975830078125
z: 0.016179906204342842
visibility: 0.9778459072113037
","x: 421.68695068359375
y: 499.1871337890625
z: 0.1566094160079956
visibility: 0.9730668067932129
","x: 409.6158447265625
y: 500.3277282714844
z: 0.16124294698238373
visibility: 0.9747762084007263
","x: 420.8645324707031
y: 508.2511901855469
z: 0.16186320781707764
visibility: 0.8008432984352112
","x: 411.1484375
y: 510.6649475097656
z: 0.16911350190639496
visibility: 0.7951884269714355
","x: 421.6297302246094
y: 520.5603637695312
z: 0.04197043552994728
visibility: 0.9699388146400452
","x: 408.96368408203125
y: 522.8387451171875
z: 0.05535905435681343
visibility: 0.9731371998786926
",,,,,,,,,,,,,,,,,,,,,,,,,,,,,,,,,,,,,,,,,,
7,"x: 418.18670654296875
y: 205.75865173339844
z: -0.2839362919330597
visibility: 0.9998890161514282
","x: 419.92510986328125
y: 199.02931213378906
z: -0.2687716782093048
visibility: 0.9996010065078735
","x: 421.2372741699219
y: 199.3286895751953
z: -0.26879188418388367
visibility: 0.9995962381362915
","x: 422.53607177734375
y: 199.67247009277344
z: -0.26879262924194336
visibility: 0.9995163083076477
","x: 416.1029968261719
y: 198.69168090820312
z: -0.2719792127609253
visibility: 0.9995944499969482
","x: 414.7094421386719
y: 198.75421142578125
z: -0.27200502157211304
visibility: 0.9996245503425598
","x: 413.316650390625
y: 198.8347625732422
z: -0.2720540761947632
visibility: 0.9995924234390259
","x: 423.0708312988281
y: 203.37054443359375
z: -0.1699429452419281
visibility: 0.9988530874252319
","x: 409.79193115234375
y: 202.62783813476562
z: -0.183913916349411
visibility: 0.9993597865104675
","x: 420.3924865722656
y: 213.60317993164062
z: -0.24547290802001953
visibility: 0.999794065952301
","x: 415.3433837890625
y: 213.42050170898438
z: -0.24989120662212372
visibility: 0.9998394250869751
","x: 433.54608154296875
y: 249.99510192871094
z: -0.10456178337335587
visibility: 0.9998276829719543
","x: 395.1724548339844
y: 250.46759033203125
z: -0.1049194186925888
visibility: 0.9998376965522766
","x: 436.404052734375
y: 296.92987060546875
z: -0.10323230922222137
visibility: 0.9227719902992249
","x: 392.9784851074219
y: 302.3422546386719
z: -0.06333740800619125
visibility: 0.9740714430809021
","x: 436.6373291015625
y: 318.83660888671875
z: -0.2598194479942322
visibility: 0.9415443539619446
","x: 402.8559875488281
y: 336.4006042480469
z: -0.14347966015338898
visibility: 0.9665864109992981
","x: 436.8514709472656
y: 325.6312561035156
z: -0.29759708046913147
visibility: 0.9166595339775085
","x: 404.8815002441406
y: 348.3259582519531
z: -0.1697273999452591
visibility: 0.944973886013031
","x: 435.23260498046875
y: 325.32659912109375
z: -0.32272306084632874
visibility: 0.92249995470047
","x: 407.74755859375
y: 342.207763671875
z: -0.19294379651546478
visibility: 0.9465377330780029
","x: 434.00054931640625
y: 324.51318359375
z: -0.27279025316238403
visibility: 0.9101970195770264
","x: 407.5470886230469
y: 338.20880126953125
z: -0.153158500790596
visibility: 0.9321814179420471
","x: 426.44696044921875
y: 350.32958984375
z: -0.0038070976734161377
visibility: 0.9988499283790588
","x: 405.9236145019531
y: 350.7138671875
z: 0.0037657483480870724
visibility: 0.9989572763442993
","x: 425.95440673828125
y: 426.73663330078125
z: 0.007304327096790075
visibility: 0.972979724407196
","x: 407.4835510253906
y: 427.7869873046875
z: 0.01783139631152153
visibility: 0.9773287177085876
","x: 420.9290771484375
y: 499.4743347167969
z: 0.11291922628879547
visibility: 0.9738938808441162
","x: 409.5688781738281
y: 500.5013427734375
z: 0.14247897267341614
visibility: 0.9739110469818115
","x: 419.98046875
y: 509.4631652832031
z: 0.11474394798278809
visibility: 0.8051013946533203
","x: 411.12921142578125
y: 511.0245361328125
z: 0.14647811651229858
visibility: 0.788873016834259
","x: 421.56304931640625
y: 520.6719360351562
z: -0.005142252426594496
visibility: 0.9703749418258667
","x: 409.0086364746094
y: 522.7935180664062
z: 0.033096157014369965
visibility: 0.971906840801239
",,,,,,,,,,,,,,,,,,,,,,,,,,,,,,,,,,,,,,,,,,
8,"x: 419.17584228515625
y: 207.7318572998047
z: -0.33373814821243286
visibility: 0.9998921751976013
","x: 420.4891662597656
y: 199.3344268798828
z: -0.3187464773654938
visibility: 0.9996162056922913
","x: 421.703857421875
y: 199.68875122070312
z: -0.31874439120292664
visibility: 0.9996110796928406
","x: 422.8778076171875
y: 200.0355224609375
z: -0.31876447796821594
visibility: 0.9995374083518982
","x: 416.7850646972656
y: 198.9598388671875
z: -0.3251975178718567
visibility: 0.9996139407157898
","x: 415.4111022949219
y: 199.1148681640625
z: -0.3252561092376709
visibility: 0.9996424913406372
","x: 414.0724792480469
y: 199.20401000976562
z: -0.3253169357776642
visibility: 0.9996148347854614
","x: 422.55596923828125
y: 203.6973876953125
z: -0.2114848792552948
visibility: 0.9988957643508911
","x: 410.500732421875
y: 202.82888793945312
z: -0.24131441116333008
visibility: 0.9993957877159119
","x: 420.95782470703125
y: 214.46682739257812
z: -0.29150956869125366
visibility: 0.9997979998588562
","x: 416.36883544921875
y: 214.109130859375
z: -0.3002813458442688
visibility: 0.9998435378074646
","x: 431.7778015136719
y: 250.8155517578125
z: -0.12149187177419662
visibility: 0.9998069405555725
","x: 395.3202819824219
y: 250.68617248535156
z: -0.1619124710559845
visibility: 0.9998337030410767
","x: 436.1472473144531
y: 298.6166687011719
z: -0.08980738371610641
visibility: 0.9170436859130859
","x: 393.42657470703125
y: 302.0244140625
z: -0.11918878555297852
visibility: 0.9747158288955688
","x: 440.7122497558594
y: 329.53118896484375
z: -0.19396793842315674
visibility: 0.9253830909729004
","x: 403.8690490722656
y: 336.2027587890625
z: -0.17630480229854584
visibility: 0.9646610617637634
","x: 442.5373840332031
y: 349.77728271484375
z: -0.22051763534545898
visibility: 0.8952043056488037
","x: 405.9482116699219
y: 348.832763671875
z: -0.2065799981355667
visibility: 0.9407025575637817
","x: 441.3395080566406
y: 348.64117431640625
z: -0.25097712874412537
visibility: 0.9021917581558228
","x: 409.18035888671875
y: 344.3762512207031
z: -0.22838842868804932
visibility: 0.9424776434898376
","x: 439.3923034667969
y: 343.5972900390625
z: -0.20846576988697052
visibility: 0.8881361484527588
","x: 408.40234375
y: 339.8477783203125
z: -0.1867668181657791
visibility: 0.9268019795417786
","x: 426.68878173828125
y: 349.3177490234375
z: -0.001310395891778171
visibility: 0.9987732172012329
","x: 406.2901306152344
y: 349.5614929199219
z: 0.001251322915777564
visibility: 0.998912513256073
","x: 425.871337890625
y: 426.7239685058594
z: 0.00797587726265192
visibility: 0.9729986190795898
","x: 407.6593322753906
y: 427.748046875
z: 0.01325036771595478
visibility: 0.9764955639839172
","x: 420.66436767578125
y: 499.7142028808594
z: 0.12000931799411774
visibility: 0.9745087027549744
","x: 409.5165710449219
y: 501.1414794921875
z: 0.12960025668144226
visibility: 0.9737703204154968
","x: 419.4285583496094
y: 509.5506591796875
z: 0.12348973751068115
visibility: 0.8069928288459778
","x: 411.03515625
y: 511.44677734375
z: 0.1340382993221283
visibility: 0.7853752374649048
","x: 421.7824401855469
y: 521.15625
z: 0.00574323907494545
visibility: 0.970638632774353
","x: 409.0107727050781
y: 523.2246704101562
z: 0.01770506054162979
visibility: 0.9715038537979126
",,,,,,,,,,,,,,,,,,,,,,,,,,,,,,,,,,,,,,,,,,
9,"x: 418.2196044921875
y: 207.58016967773438
z: -0.40729212760925293
visibility: 0.9999017715454102
","x: 419.97601318359375
y: 199.66952514648438
z: -0.3922085165977478
visibility: 0.999650239944458
","x: 421.35565185546875
y: 200.0100860595703
z: -0.3921782374382019
visibility: 0.9996451735496521
","x: 422.701171875
y: 200.34152221679688
z: -0.3922027349472046
visibility: 0.9995786547660828
","x: 416.1247253417969
y: 199.18333435058594
z: -0.3978371024131775
visibility: 0.9996490478515625
","x: 414.7175598144531
y: 199.23989868164062
z: -0.3979204297065735
visibility: 0.9996752738952637
","x: 413.3017578125
y: 199.27635192871094
z: -0.3979669213294983
visibility: 0.9996505975723267
","x: 422.821044921875
y: 203.91998291015625
z: -0.27913957834243774
visibility: 0.9989914298057556
","x: 409.9446716308594
y: 202.96383666992188
z: -0.30761295557022095
visibility: 0.9994513988494873
","x: 420.56207275390625
y: 214.61000061035156
z: -0.36279526352882385
visibility: 0.999815046787262
","x: 415.741943359375
y: 214.20225524902344
z: -0.37115025520324707
visibility: 0.9998571276664734
","x: 431.7735290527344
y: 251.06712341308594
z: -0.17417459189891815
visibility: 0.9998119473457336
","x: 395.1240539550781
y: 250.64146423339844
z: -0.21682977676391602
visibility: 0.9998423457145691
","x: 436.94097900390625
y: 299.136962890625
z: -0.1050531417131424
visibility: 0.9224629998207092
","x: 392.8800964355469
y: 302.1163635253906
z: -0.17727677524089813
visibility: 0.9762518405914307
","x: 441.89202880859375
y: 343.301025390625
z: -0.1894303262233734
visibility: 0.9264870285987854
","x: 402.151123046875
y: 337.76934814453125
z: -0.24403560161590576
visibility: 0.965804934501648
","x: 444.4767761230469
y: 357.5252685546875
z: -0.21366706490516663
visibility: 0.8932222127914429
","x: 404.13092041015625
y: 350.6259460449219
z: -0.27081385254859924
visibility: 0.9414604902267456
","x: 444.1723937988281
y: 357.7806091308594
z: -0.24577447772026062
visibility: 0.9005513191223145
","x: 406.5082702636719
y: 347.1972351074219
z: -0.2963803708553314
visibility: 0.9433348178863525
","x: 442.03955078125
y: 353.1995849609375
z: -0.20385095477104187
visibility: 0.886367917060852
","x: 406.2035217285156
y: 342.3133544921875
z: -0.25394895672798157
visibility: 0.9276818633079529
","x: 426.7574462890625
y: 346.2210388183594
z: -0.0011859579244628549
visibility: 0.9987882971763611
","x: 406.082763671875
y: 346.7254333496094
z: 0.0011521109845489264
visibility: 0.9989164471626282
","x: 425.6022033691406
y: 425.60308837890625
z: 0.004954627249389887
visibility: 0.9722569584846497
","x: 407.5740051269531
y: 427.08740234375
z: 0.013100278563797474
visibility: 0.9734256267547607
","x: 420.6654052734375
y: 499.94635009765625
z: 0.1181853786110878
visibility: 0.9741765856742859
","x: 409.4956970214844
y: 501.54986572265625
z: 0.12701162695884705
visibility: 0.9720110297203064
","x: 419.5127868652344
y: 509.8820495605469
z: 0.12205357849597931
visibility: 0.8040316700935364
","x: 411.0002746582031
y: 512.0943603515625
z: 0.13160288333892822
visibility: 0.7748026251792908
","x: 421.706787109375
y: 521.8319091796875
z: 0.005442621186375618
visibility: 0.9699835181236267
","x: 408.9237976074219
y: 524.0560302734375
z: 0.014604081399738789
visibility: 0.9694371223449707
",,,,,,,,,,,,,,,,,,,,,,,,,,,,,,,,,,,,,,,,,,
10,"x: 417.3796081542969
y: 206.0664520263672
z: -0.37045276165008545
visibility: 0.9999097585678101
","x: 419.3304748535156
y: 198.2523193359375
z: -0.35535579919815063
visibility: 0.999678909778595
","x: 420.82183837890625
y: 198.54469299316406
z: -0.3553493618965149
visibility: 0.9996740221977234
","x: 422.2998046875
y: 198.88970947265625
z: -0.35536837577819824
visibility: 0.9996138215065002
","x: 415.2915344238281
y: 197.82864379882812
z: -0.3599041700363159
visibility: 0.9996784925460815
","x: 413.82537841796875
y: 197.8451690673828
z: -0.35996752977371216
visibility: 0.999702513217926
","x: 412.3289794921875
y: 197.92291259765625
z: -0.3600122630596161
visibility: 0.9996802806854248
","x: 423.06134033203125
y: 202.86399841308594
z: -0.2501389682292938
visibility: 0.9990755915641785
","x: 409.2214050292969
y: 202.15838623046875
z: -0.27394095063209534
visibility: 0.9994978904724121
","x: 420.10418701171875
y: 213.92897033691406
z: -0.3297500014305115
visibility: 0.9998299479484558
","x: 415.00970458984375
y: 213.4719696044922
z: -0.33666354417800903
visibility: 0.9998685717582703
","x: 431.84478759765625
y: 250.83804321289062
z: -0.16470250487327576
visibility: 0.9998157024383545
","x: 394.90692138671875
y: 250.61822509765625
z: -0.18726304173469543
visibility: 0.9998458623886108
","x: 438.2789611816406
y: 299.8381652832031
z: -0.0991780012845993
visibility: 0.9277425408363342
","x: 388.85394287109375
y: 302.175048828125
z: -0.15390180051326752
visibility: 0.9769276976585388
","x: 442.6714782714844
y: 344.6872253417969
z: -0.1643216460943222
visibility: 0.9290692210197449
","x: 392.1806335449219
y: 339.85882568359375
z: -0.21394988894462585
visibility: 0.9656189680099487
","x: 444.7981262207031
y: 358.4614562988281
z: -0.18522456288337708
visibility: 0.8947895765304565
","x: 392.760498046875
y: 353.150146484375
z: -0.23323985934257507
visibility: 0.9401695132255554
","x: 445.4158935546875
y: 358.5302429199219
z: -0.21654920279979706
visibility: 0.9021777510643005
","x: 394.98175048828125
y: 350.6402282714844
z: -0.26410844922065735
visibility: 0.9423331618309021
","x: 442.8746032714844
y: 353.9081115722656
z: -0.1777920424938202
visibility: 0.8885838985443115
","x: 395.4227294921875
y: 346.00762939453125
z: -0.22690756618976593
visibility: 0.927085280418396
","x: 426.9849548339844
y: 346.59100341796875
z: -0.0013269638875499368
visibility: 0.9987905025482178
","x: 406.2680969238281
y: 346.82757568359375
z: 0.0012708405265584588
visibility: 0.9989005923271179
","x: 425.6347961425781
y: 425.6097412109375
z: 0.010021318681538105
visibility: 0.9726346731185913
","x: 407.2371826171875
y: 427.0857238769531
z: 0.01778813824057579
visibility: 0.9722446203231812
","x: 420.5530700683594
y: 499.96173095703125
z: 0.1345815509557724
visibility: 0.9745200276374817
","x: 409.3128662109375
y: 501.4939880371094
z: 0.14128819108009338
visibility: 0.971336841583252
","x: 419.464111328125
y: 510.0198059082031
z: 0.13960686326026917
visibility: 0.8076329827308655
","x: 410.97503662109375
y: 511.8850402832031
z: 0.14655348658561707
visibility: 0.7706857919692993
","x: 421.6068115234375
y: 521.0548095703125
z: 0.033316224813461304
visibility: 0.9699281454086304
","x: 408.5417175292969
y: 523.1776123046875
z: 0.03623700514435768
visibility: 0.968328595161438
",,,,,,,,,,,,,,,,,,,,,,,,,,,,,,,,,,,,,,,,,,
11,"x: 417.6183166503906
y: 206.32354736328125
z: -0.3216930031776428
visibility: 0.9999181628227234
","x: 419.4124755859375
y: 198.3480987548828
z: -0.30526530742645264
visibility: 0.9997087717056274
","x: 420.8799743652344
y: 198.67330932617188
z: -0.30529075860977173
visibility: 0.9997044205665588
","x: 422.31146240234375
y: 199.1482391357422
z: -0.30529141426086426
visibility: 0.9996501207351685
","x: 415.4035339355469
y: 198.14852905273438
z: -0.30962151288986206
visibility: 0.9997082352638245
","x: 413.9677734375
y: 198.16184997558594
z: -0.3096369504928589
visibility: 0.9997298121452332
","x: 412.4960632324219
y: 198.216796875
z: -0.30963048338890076
visibility: 0.9997092485427856
","x: 422.91888427734375
y: 202.94935607910156
z: -0.20155802369117737
visibility: 0.9991632699966431
","x: 409.0994567871094
y: 202.2974853515625
z: -0.2249331772327423
visibility: 0.9995431900024414
","x: 420.1289978027344
y: 214.44314575195312
z: -0.28262266516685486
visibility: 0.9998458027839661
","x: 415.2688293457031
y: 213.95281982421875
z: -0.28925055265426636
visibility: 0.9998804330825806
","x: 432.1518859863281
y: 250.94068908691406
z: -0.14400896430015564
visibility: 0.999832272529602
","x: 393.571533203125
y: 250.93630981445312
z: -0.13415907323360443
visibility: 0.999856173992157
","x: 443.3695068359375
y: 297.74432373046875
z: -0.09658704698085785
visibility: 0.934172511100769
","x: 383.40936279296875
y: 298.515380859375
z: -0.08205536752939224
visibility: 0.9777317643165588
","x: 458.8072814941406
y: 338.1986999511719
z: -0.17003020644187927
visibility: 0.9352492094039917
","x: 375.7156677246094
y: 339.3661193847656
z: -0.14550545811653137
visibility: 0.9671111702919006
","x: 464.5683288574219
y: 351.2075500488281
z: -0.20375534892082214
visibility: 0.9032688140869141
","x: 373.400634765625
y: 351.57470703125
z: -0.16275493800640106
visibility: 0.9420616626739502
","x: 464.13409423828125
y: 356.06402587890625
z: -0.22867059707641602
visibility: 0.9101993441581726
","x: 375.26190185546875
y: 350.3231201171875
z: -0.19629016518592834
visibility: 0.9444653391838074
","x: 461.4244079589844
y: 351.9810791015625
z: -0.17857423424720764
visibility: 0.897648811340332
","x: 376.6697998046875
y: 346.00830078125
z: -0.1601053923368454
visibility: 0.9301528334617615
","x: 427.08807373046875
y: 350.13592529296875
z: -0.002157149836421013
visibility: 0.9988611340522766
","x: 406.24017333984375
y: 350.718505859375
z: 0.002101548481732607
visibility: 0.9989432692527771
","x: 425.9310302734375
y: 426.2489318847656
z: 0.024224597960710526
visibility: 0.9730318784713745
","x: 407.2048645019531
y: 427.0957946777344
z: 0.02710609696805477
visibility: 0.9721747636795044
","x: 420.5378112792969
y: 500.1255798339844
z: 0.14790752530097961
visibility: 0.9749742150306702
","x: 409.2950439453125
y: 501.4617919921875
z: 0.15900978446006775
visibility: 0.9712286591529846
","x: 419.4830017089844
y: 510.2093200683594
z: 0.1532672941684723
visibility: 0.8117168545722961
","x: 410.93426513671875
y: 511.7173767089844
z: 0.16543638706207275
visibility: 0.7707819938659668
","x: 421.5008239746094
y: 520.863037109375
z: 0.04973452538251877
visibility: 0.9704676866531372
","x: 408.5020446777344
y: 522.4345703125
z: 0.06355856359004974
visibility: 0.9684618711471558
",,,,,,,,,,,,,,,,,,,,,,,,,,,,,,,,,,,,,,,,,,
12,"x: 417.7272033691406
y: 206.17926025390625
z: -0.3315218389034271
visibility: 0.9999256730079651
","x: 419.5600891113281
y: 198.48326110839844
z: -0.3154316246509552
visibility: 0.9997352361679077
","x: 421.05596923828125
y: 198.88177490234375
z: -0.3154757022857666
visibility: 0.9997316002845764
","x: 422.4789733886719
y: 199.37100219726562
z: -0.3155083656311035
visibility: 0.9996823668479919
","x: 415.3543395996094
y: 197.96104431152344
z: -0.3196987509727478
visibility: 0.9997344017028809
","x: 413.8263244628906
y: 197.9165496826172
z: -0.3197213411331177
visibility: 0.9997538924217224
","x: 412.21307373046875
y: 197.9502716064453
z: -0.31972673535346985
visibility: 0.9997346997261047
","x: 423.0927429199219
y: 203.15223693847656
z: -0.21151654422283173
visibility: 0.9992420673370361
","x: 408.7069091796875
y: 202.144287109375
z: -0.2325250655412674
visibility: 0.9995837807655334
","x: 420.21539306640625
y: 214.49948120117188
z: -0.2922390103340149
visibility: 0.9998597502708435
","x: 415.2544250488281
y: 213.9890899658203
z: -0.29844048619270325
visibility: 0.9998908042907715
","x: 432.3580322265625
y: 252.56533813476562
z: -0.14712634682655334
visibility: 0.9998457431793213
","x: 393.1689147949219
y: 250.8989715576172
z: -0.13806022703647614
visibility: 0.999864935874939
","x: 446.4346618652344
y: 297.8197021484375
z: -0.13266989588737488
visibility: 0.93878173828125
","x: 380.55352783203125
y: 297.63055419921875
z: -0.0977080687880516
visibility: 0.9780642986297607
","x: 469.1648254394531
y: 323.6479187011719
z: -0.26663047075271606
visibility: 0.9392706751823425
","x: 367.4887390136719
y: 335.2468566894531
z: -0.149472177028656
visibility: 0.967786967754364
","x: 475.8327941894531
y: 330.40997314453125
z: -0.2944102883338928
visibility: 0.9084323644638062
","x: 363.1822814941406
y: 345.4429931640625
z: -0.1906358152627945
visibility: 0.9425053000450134
","x: 475.92791748046875
y: 329.1646728515625
z: -0.3296234607696533
visibility: 0.9154894351959229
","x: 364.2786560058594
y: 345.461669921875
z: -0.22700338065624237
visibility: 0.9453980922698975
","x: 472.6562805175781
y: 327.5955810546875
z: -0.2844698131084442
visibility: 0.9038406610488892
","x: 366.5906066894531
y: 342.23992919921875
z: -0.19073109328746796
visibility: 0.9320784211158752
","x: 426.5175476074219
y: 351.64739990234375
z: -0.0035607696045190096
visibility: 0.9989073872566223
","x: 406.021484375
y: 352.4908142089844
z: 0.0034989663399755955
visibility: 0.9989734888076782
","x: 425.8861083984375
y: 426.25811767578125
z: 0.04858250170946121
visibility: 0.9739822149276733
","x: 406.333740234375
y: 428.0776672363281
z: 0.054345112293958664
visibility: 0.9725728034973145
","x: 420.91864013671875
y: 499.79388427734375
z: 0.1960030496120453
visibility: 0.9759608507156372
","x: 409.2891540527344
y: 501.4891052246094
z: 0.21036192774772644
visibility: 0.9718790054321289
","x: 420.0828552246094
y: 509.6502990722656
z: 0.20376738905906677
visibility: 0.8138763308525085
","x: 411.3984375
y: 511.598876953125
z: 0.21935155987739563
visibility: 0.7745898365974426
","x: 421.634033203125
y: 520.8287963867188
z: 0.09578095376491547
visibility: 0.9713819026947021
","x: 408.48516845703125
y: 522.7026977539062
z: 0.11642907559871674
visibility: 0.969296932220459
",,,,,,,,,,,,,,,,,,,,,,,,,,,,,,,,,,,,,,,,,,
13,"x: 417.9233093261719
y: 206.34829711914062
z: -0.2937411069869995
visibility: 0.999932050704956
","x: 419.4844055175781
y: 198.57481384277344
z: -0.27775493264198303
visibility: 0.9997583031654358
","x: 420.93316650390625
y: 198.98255920410156
z: -0.2777979075908661
visibility: 0.9997552633285522
","x: 422.3394470214844
y: 199.46214294433594
z: -0.27780330181121826
visibility: 0.9997106194496155
","x: 415.4891357421875
y: 197.93458557128906
z: -0.2805972695350647
visibility: 0.9997566938400269
","x: 414.0419921875
y: 197.85006713867188
z: -0.28060397505760193
visibility: 0.9997739791870117
","x: 412.51287841796875
y: 197.8599395751953
z: -0.2806188464164734
visibility: 0.9997561573982239
","x: 422.9766540527344
y: 203.248291015625
z: -0.1746419370174408
visibility: 0.9993119239807129
","x: 409.0252685546875
y: 202.16543579101562
z: -0.18842832744121552
visibility: 0.9996176362037659
","x: 420.2928771972656
y: 214.5204315185547
z: -0.2546725273132324
visibility: 0.9998722076416016
","x: 415.5784606933594
y: 214.044189453125
z: -0.2586376667022705
visibility: 0.9998998641967773
","x: 432.28436279296875
y: 252.46469116210938
z: -0.11828819662332535
visibility: 0.9998588562011719
","x: 393.7160339355469
y: 250.48919677734375
z: -0.10137522220611572
visibility: 0.999872088432312
","x: 445.1253356933594
y: 297.6376037597656
z: -0.12306723743677139
visibility: 0.94139164686203
","x: 383.2503662109375
y: 296.96514892578125
z: -0.07181268185377121
visibility: 0.977391242980957
","x: 462.0939636230469
y: 322.6893310546875
z: -0.2892821729183197
visibility: 0.9417407512664795
","x: 373.0122375488281
y: 331.1867980957031
z: -0.1648213118314743
visibility: 0.9680486917495728
","x: 466.4390563964844
y: 329.3607177734375
z: -0.32412001490592957
visibility: 0.9123684167861938
","x: 369.9423522949219
y: 340.4344482421875
z: -0.19153359532356262
visibility: 0.9428460597991943
","x: 466.423583984375
y: 328.2821044921875
z: -0.356795996427536
visibility: 0.9193901419639587
","x: 371.4003601074219
y: 340.06805419921875
z: -0.2252511978149414
visibility: 0.9460769891738892
","x: 463.6501159667969
y: 327.09600830078125
z: -0.3065232038497925
visibility: 0.9081436395645142
","x: 373.0391845703125
y: 337.6749267578125
z: -0.18407896161079407
visibility: 0.9334782361984253
","x: 426.39013671875
y: 351.5596923828125
z: -0.006297772284597158
visibility: 0.9989707469940186
","x: 405.7903747558594
y: 352.49835205078125
z: 0.0062324171885848045
visibility: 0.9990102052688599
","x: 426.0099182128906
y: 427.3055725097656
z: 0.01104325894266367
visibility: 0.9748534560203552
","x: 406.1314392089844
y: 428.66082763671875
z: 0.0440702810883522
visibility: 0.9729417562484741
","x: 420.7614440917969
y: 500.03790283203125
z: 0.15855035185813904
visibility: 0.9766711592674255
","x: 409.2734069824219
y: 501.32550048828125
z: 0.1814109981060028
visibility: 0.97182297706604
","x: 420.0791931152344
y: 509.7912292480469
z: 0.16574406623840332
visibility: 0.8100246787071228
","x: 411.35076904296875
y: 510.7998352050781
z: 0.18880929052829742
visibility: 0.7767086029052734
","x: 420.26763916015625
y: 521.06884765625
z: 0.042339153587818146
visibility: 0.9718737602233887
","x: 408.3040771484375
y: 521.7459716796875
z: 0.08227863162755966
visibility: 0.9696477055549622
",,,,,,,,,,,,,,,,,,,,,,,,,,,,,,,,,,,,,,,,,,
14,"x: 416.97271728515625
y: 205.72096252441406
z: -0.2940615713596344
visibility: 0.9999222755432129
","x: 419.00750732421875
y: 197.71456909179688
z: -0.27878183126449585
visibility: 0.99974125623703
","x: 420.5985107421875
y: 198.2158660888672
z: -0.2788170576095581
visibility: 0.9997361898422241
","x: 422.1653137207031
y: 198.8328399658203
z: -0.2788473963737488
visibility: 0.9996947050094604
","x: 414.8683166503906
y: 197.01905822753906
z: -0.2814408242702484
visibility: 0.9997384548187256
","x: 413.4497985839844
y: 196.96127319335938
z: -0.2814640998840332
visibility: 0.9997514486312866
","x: 411.9978942871094
y: 197.0367431640625
z: -0.28151142597198486
visibility: 0.9997382164001465
","x: 423.08837890625
y: 202.98318481445312
z: -0.17173370718955994
visibility: 0.9992874264717102
","x: 408.8690185546875
y: 201.29600524902344
z: -0.18388856947422028
visibility: 0.9995863437652588
","x: 419.87005615234375
y: 214.35528564453125
z: -0.25241538882255554
visibility: 0.9998623728752136
","x: 414.7003173828125
y: 213.69955444335938
z: -0.25606319308280945
visibility: 0.9998895525932312
","x: 433.1861877441406
y: 248.8197021484375
z: -0.10502739995718002
visibility: 0.9998453259468079
","x: 394.0339660644531
y: 246.7755126953125
z: -0.10331612825393677
visibility: 0.9998552203178406
","x: 433.4593505859375
y: 297.7271423339844
z: -0.12388516962528229
visibility: 0.9410318732261658
","x: 391.6505432128906
y: 295.4671630859375
z: -0.08262299001216888
visibility: 0.9721776247024536
","x: 424.72320556640625
y: 316.487548828125
z: -0.29090583324432373
visibility: 0.9383527040481567
","x: 405.7776794433594
y: 326.2898254394531
z: -0.17774294316768646
visibility: 0.9524797201156616
","x: 421.1989440917969
y: 324.2677001953125
z: -0.333198606967926
visibility: 0.9078156352043152
","x: 406.6694030761719
y: 336.26324462890625
z: -0.19674502313137054
visibility: 0.9231025576591492
","x: 418.73565673828125
y: 314.7783203125
z: -0.35114404559135437
visibility: 0.9146619439125061
","x: 408.97216796875
y: 332.971923828125
z: -0.23342303931713104
visibility: 0.9262533783912659
","x: 419.0619812011719
y: 311.2065734863281
z: -0.30133765935897827
visibility: 0.9003187417984009
","x: 409.151611328125
y: 330.54278564453125
z: -0.19187763333320618
visibility: 0.9090693593025208
","x: 426.16888427734375
y: 349.37738037109375
z: -0.0035303961485624313
visibility: 0.9989362359046936
","x: 405.2108154296875
y: 349.21807861328125
z: 0.003489432390779257
visibility: 0.9989765882492065
","x: 426.0274353027344
y: 427.76007080078125
z: -0.0009145744261331856
visibility: 0.9746924042701721
","x: 406.537109375
y: 428.63824462890625
z: 0.020193057134747505
visibility: 0.9730886816978455
","x: 420.21624755859375
y: 500.1563720703125
z: 0.1562184989452362
visibility: 0.9764840006828308
","x: 409.2677307128906
y: 501.282958984375
z: 0.17463035881519318
visibility: 0.9716714024543762
","x: 418.90863037109375
y: 510.32147216796875
z: 0.16322211921215057
visibility: 0.811413586139679
","x: 411.1445617675781
y: 510.9300231933594
z: 0.18469426035881042
visibility: 0.7742999196052551
","x: 420.2900390625
y: 521.319091796875
z: 0.035865478217601776
visibility: 0.9712464809417725
","x: 408.5665283203125
y: 521.778564453125
z: 0.05896076560020447
visibility: 0.9688071012496948
",,,,,,,,,,,,,,,,,,,,,,,,,,,,,,,,,,,,,,,,,,
15,"x: 416.4811706542969
y: 205.8563995361328
z: -0.3022083640098572
visibility: 0.9999173879623413
","x: 418.6929016113281
y: 197.91140747070312
z: -0.287159264087677
visibility: 0.9997173547744751
","x: 420.37335205078125
y: 198.38995361328125
z: -0.28718772530555725
visibility: 0.9996987581253052
","x: 422.0446472167969
y: 198.9596405029297
z: -0.2872096002101898
visibility: 0.999651312828064
","x: 414.3989562988281
y: 197.2078094482422
z: -0.2904866933822632
visibility: 0.9997361898422241
","x: 412.9353332519531
y: 197.14199829101562
z: -0.2905237078666687
visibility: 0.9997516870498657
","x: 411.4988098144531
y: 197.20074462890625
z: -0.2905721068382263
visibility: 0.9997451901435852
","x: 423.1325378417969
y: 203.03945922851562
z: -0.18292436003684998
visibility: 0.9992128610610962
","x: 408.26605224609375
y: 201.3192901611328
z: -0.19943927228450775
visibility: 0.9996070861816406
","x: 419.5877685546875
y: 214.54551696777344
z: -0.26098090410232544
visibility: 0.9998524188995361
","x: 413.9881896972656
y: 213.74420166015625
z: -0.26657092571258545
visibility: 0.9998883605003357
","x: 433.29705810546875
y: 249.34469604492188
z: -0.12705187499523163
visibility: 0.9997398257255554
","x: 394.0141296386719
y: 247.01768493652344
z: -0.1397535353899002
visibility: 0.9998621344566345
","x: 433.29498291015625
y: 301.93707275390625
z: -0.12674018740653992
visibility: 0.9375041723251343
","x: 394.1924743652344
y: 300.42828369140625
z: -0.1414458006620407
visibility: 0.9741466641426086
","x: 408.33123779296875
y: 297.1935729980469
z: -0.20823124051094055
visibility: 0.9273201823234558
","x: 422.1852111816406
y: 321.34466552734375
z: -0.18810716271400452
visibility: 0.9536169767379761
","x: 401.09466552734375
y: 298.7296142578125
z: -0.2331872433423996
visibility: 0.8915204405784607
","x: 428.3899841308594
y: 329.82568359375
z: -0.21162143349647522
visibility: 0.92254638671875
","x: 400.53045654296875
y: 291.80889892578125
z: -0.23260381817817688
visibility: 0.8971032500267029
","x: 430.34576416015625
y: 321.6127014160156
z: -0.2296205759048462
visibility: 0.9249511361122131
","x: 403.02130126953125
y: 290.5337219238281
z: -0.20795798301696777
visibility: 0.8788055181503296
","x: 427.9201354980469
y: 318.5521240234375
z: -0.1955527365207672
visibility: 0.9065952301025391
","x: 426.2675476074219
y: 349.9994201660156
z: -0.0036889452021569014
visibility: 0.9989259839057922
","x: 405.3230285644531
y: 349.82012939453125
z: 0.0036071520298719406
visibility: 0.9990129470825195
","x: 426.37786865234375
y: 428.23626708984375
z: -0.0016368012875318527
visibility: 0.9762750267982483
","x: 406.34710693359375
y: 428.9130859375
z: 0.027656564489006996
visibility: 0.9746776223182678
","x: 419.93572998046875
y: 500.155517578125
z: 0.1561417579650879
visibility: 0.97746342420578
","x: 409.1239318847656
y: 500.99285888671875
z: 0.18855422735214233
visibility: 0.9728217124938965
","x: 418.2726745605469
y: 510.3411865234375
z: 0.1654195487499237
visibility: 0.8137519359588623
","x: 410.76727294921875
y: 510.5694274902344
z: 0.1990896761417389
visibility: 0.7779503464698792
","x: 420.3096923828125
y: 521.5975341796875
z: 0.054946720600128174
visibility: 0.9722371697425842
","x: 408.5679016113281
y: 521.7882080078125
z: 0.0997583270072937
visibility: 0.9698111414909363
",,,,,,,,,,,,,,,,,,,,,,"x: 406.5964050292969
y: 290.3473815917969
z: 0.0
","x: 404.2305603027344
y: 285.70843505859375
z: -0.0028289512265473604
","x: 401.0125427246094
y: 283.3313903808594
z: -0.004461997654289007
","x: 398.09185791015625
y: 281.9515686035156
z: -0.005743222311139107
","x: 395.8074951171875
y: 279.97625732421875
z: -0.007006989326328039
","x: 397.80419921875
y: 289.8819580078125
z: -0.004250355064868927
","x: 393.25
y: 289.7360534667969
z: -0.006129818502813578
","x: 390.5716857910156
y: 289.87115478515625
z: -0.007048366591334343
","x: 388.49761962890625
y: 290.1894836425781
z: -0.007634766865521669
","x: 397.97308349609375
y: 294.05718994140625
z: -0.004291333723813295
","x: 393.0025329589844
y: 295.39910888671875
z: -0.005829802248626947
","x: 390.191650390625
y: 296.5548400878906
z: -0.006671197712421417
","x: 388.06158447265625
y: 297.747314453125
z: -0.007452467456459999
","x: 398.72650146484375
y: 297.3316650390625
z: -0.004525356460362673
","x: 394.5169677734375
y: 299.44671630859375
z: -0.006660640239715576
","x: 391.90972900390625
y: 300.8487548828125
z: -0.008152743801474571
","x: 389.72650146484375
y: 302.1411437988281
z: -0.009156100451946259
","x: 399.945556640625
y: 299.8247985839844
z: -0.004984659142792225
","x: 397.1286926269531
y: 302.18255615234375
z: -0.007134320214390755
","x: 395.54156494140625
y: 303.3924255371094
z: -0.00833258219063282
","x: 394.0898742675781
y: 304.33612060546875
z: -0.009110389277338982
"
16,"x: 416.4811706542969
y: 205.8563995361328
z: -0.3022083640098572
visibility: 0.9999173879623413
","x: 418.6929016113281
y: 197.91140747070312
z: -0.287159264087677
visibility: 0.9997173547744751
","x: 420.37335205078125
y: 198.38995361328125
z: -0.28718772530555725
visibility: 0.9996987581253052
","x: 422.0446472167969
y: 198.9596405029297
z: -0.2872096002101898
visibility: 0.999651312828064
","x: 414.3989562988281
y: 197.2078094482422
z: -0.2904866933822632
visibility: 0.9997361898422241
","x: 412.9353332519531
y: 197.14199829101562
z: -0.2905237078666687
visibility: 0.9997516870498657
","x: 411.4988098144531
y: 197.20074462890625
z: -0.2905721068382263
visibility: 0.9997451901435852
","x: 423.1325378417969
y: 203.03945922851562
z: -0.18292436003684998
visibility: 0.9992128610610962
","x: 408.26605224609375
y: 201.3192901611328
z: -0.19943927228450775
visibility: 0.9996070861816406
","x: 419.5877685546875
y: 214.54551696777344
z: -0.26098090410232544
visibility: 0.9998524188995361
","x: 413.9881896972656
y: 213.74420166015625
z: -0.26657092571258545
visibility: 0.9998883605003357
","x: 433.29705810546875
y: 249.34469604492188
z: -0.12705187499523163
visibility: 0.9997398257255554
","x: 394.0141296386719
y: 247.01768493652344
z: -0.1397535353899002
visibility: 0.9998621344566345
","x: 433.29498291015625
y: 301.93707275390625
z: -0.12674018740653992
visibility: 0.9375041723251343
","x: 394.1924743652344
y: 300.42828369140625
z: -0.1414458006620407
visibility: 0.9741466641426086
","x: 408.33123779296875
y: 297.1935729980469
z: -0.20823124051094055
visibility: 0.9273201823234558
","x: 422.1852111816406
y: 321.34466552734375
z: -0.18810716271400452
visibility: 0.9536169767379761
","x: 401.09466552734375
y: 298.7296142578125
z: -0.2331872433423996
visibility: 0.8915204405784607
","x: 428.3899841308594
y: 329.82568359375
z: -0.21162143349647522
visibility: 0.92254638671875
","x: 400.53045654296875
y: 291.80889892578125
z: -0.23260381817817688
visibility: 0.8971032500267029
","x: 430.34576416015625
y: 321.6127014160156
z: -0.2296205759048462
visibility: 0.9249511361122131
","x: 403.02130126953125
y: 290.5337219238281
z: -0.20795798301696777
visibility: 0.8788055181503296
","x: 427.9201354980469
y: 318.5521240234375
z: -0.1955527365207672
visibility: 0.9065952301025391
","x: 426.2675476074219
y: 349.9994201660156
z: -0.0036889452021569014
visibility: 0.9989259839057922
","x: 405.3230285644531
y: 349.82012939453125
z: 0.0036071520298719406
visibility: 0.9990129470825195
","x: 426.37786865234375
y: 428.23626708984375
z: -0.0016368012875318527
visibility: 0.9762750267982483
","x: 406.34710693359375
y: 428.9130859375
z: 0.027656564489006996
visibility: 0.9746776223182678
","x: 419.93572998046875
y: 500.155517578125
z: 0.1561417579650879
visibility: 0.97746342420578
","x: 409.1239318847656
y: 500.99285888671875
z: 0.18855422735214233
visibility: 0.9728217124938965
","x: 418.2726745605469
y: 510.3411865234375
z: 0.1654195487499237
visibility: 0.8137519359588623
","x: 410.76727294921875
y: 510.5694274902344
z: 0.1990896761417389
visibility: 0.7779503464698792
","x: 420.3096923828125
y: 521.5975341796875
z: 0.054946720600128174
visibility: 0.9722371697425842
","x: 408.5679016113281
y: 521.7882080078125
z: 0.0997583270072937
visibility: 0.9698111414909363
",,,,,,,,,,,,,,,,,,,,,,"x: 406.5964050292969
y: 290.3473815917969
z: 0.0
","x: 404.2305603027344
y: 285.70843505859375
z: -0.0028289512265473604
","x: 401.0125427246094
y: 283.3313903808594
z: -0.004461997654289007
","x: 398.09185791015625
y: 281.9515686035156
z: -0.005743222311139107
","x: 395.8074951171875
y: 279.97625732421875
z: -0.007006989326328039
","x: 397.80419921875
y: 289.8819580078125
z: -0.004250355064868927
","x: 393.25
y: 289.7360534667969
z: -0.006129818502813578
","x: 390.5716857910156
y: 289.87115478515625
z: -0.007048366591334343
","x: 388.49761962890625
y: 290.1894836425781
z: -0.007634766865521669
","x: 397.97308349609375
y: 294.05718994140625
z: -0.004291333723813295
","x: 393.0025329589844
y: 295.39910888671875
z: -0.005829802248626947
","x: 390.191650390625
y: 296.5548400878906
z: -0.006671197712421417
","x: 388.06158447265625
y: 297.747314453125
z: -0.007452467456459999
","x: 398.72650146484375
y: 297.3316650390625
z: -0.004525356460362673
","x: 394.5169677734375
y: 299.44671630859375
z: -0.006660640239715576
","x: 391.90972900390625
y: 300.8487548828125
z: -0.008152743801474571
","x: 389.72650146484375
y: 302.1411437988281
z: -0.009156100451946259
","x: 399.945556640625
y: 299.8247985839844
z: -0.004984659142792225
","x: 397.1286926269531
y: 302.18255615234375
z: -0.007134320214390755
","x: 395.54156494140625
y: 303.3924255371094
z: -0.00833258219063282
","x: 394.0898742675781
y: 304.33612060546875
z: -0.009110389277338982
"
17,"x: 414.747314453125
y: 208.969970703125
z: -0.11812621355056763
visibility: 0.9999210238456726
","x: 416.43560791015625
y: 201.4918212890625
z: -0.10387949645519257
visibility: 0.9997346997261047
","x: 417.61834716796875
y: 201.77040100097656
z: -0.10387720912694931
visibility: 0.9997142553329468
","x: 418.74322509765625
y: 202.00906372070312
z: -0.1038489118218422
visibility: 0.9996740818023682
","x: 412.83544921875
y: 200.5476531982422
z: -0.1127464771270752
visibility: 0.9997538328170776
","x: 411.4842834472656
y: 200.25770568847656
z: -0.11273609101772308
visibility: 0.9997668862342834
","x: 410.1050720214844
y: 200.01141357421875
z: -0.1127508282661438
visibility: 0.9997624158859253
","x: 418.975830078125
y: 204.9612274169922
z: -0.02208036556839943
visibility: 0.9992523193359375
","x: 406.4790344238281
y: 203.077392578125
z: -0.06376829743385315
visibility: 0.999634325504303
","x: 416.61767578125
y: 216.25201416015625
z: -0.08682098984718323
visibility: 0.9998610019683838
","x: 411.7560729980469
y: 216.06321716308594
z: -0.09895126521587372
visibility: 0.9998959898948669
","x: 428.7889709472656
y: 248.0815887451172
z: 0.014616986736655235
visibility: 0.9997591972351074
","x: 392.0676574707031
y: 247.2100067138672
z: -0.04663264378905296
visibility: 0.9998660087585449
","x: 433.764404296875
y: 289.6441345214844
z: -0.04025610536336899
visibility: 0.9409708380699158
","x: 389.640869140625
y: 299.5950012207031
z: -0.07381238043308258
visibility: 0.9744281768798828
","x: 422.9312438964844
y: 280.64154052734375
z: -0.18025968968868256
visibility: 0.9333212375640869
","x: 411.60888671875
y: 316.539306640625
z: -0.13093575835227966
visibility: 0.9508526921272278
","x: 417.10577392578125
y: 283.04931640625
z: -0.21358656883239746
visibility: 0.9001158475875854
","x: 415.48089599609375
y: 324.8233337402344
z: -0.15164385735988617
visibility: 0.9186885952949524
","x: 415.446533203125
y: 274.92437744140625
z: -0.20764067769050598
visibility: 0.9050647020339966
","x: 417.20941162109375
y: 319.149169921875
z: -0.1573367416858673
visibility: 0.9203153252601624
","x: 417.1509704589844
y: 274.22259521484375
z: -0.18009334802627563
visibility: 0.8873963952064514
","x: 416.2054443359375
y: 315.8600158691406
z: -0.1322852075099945
visibility: 0.9005346894264221
","x: 426.2576904296875
y: 351.9132995605469
z: 0.02756679616868496
visibility: 0.9989597201347351
","x: 405.67205810546875
y: 352.2507019042969
z: -0.027696792036294937
visibility: 0.999005138874054
","x: 427.6397705078125
y: 428.31304931640625
z: 0.0009130096877925098
visibility: 0.9736191034317017
","x: 406.9205017089844
y: 427.1813659667969
z: -0.06768138706684113
visibility: 0.9756673574447632
","x: 419.9555358886719
y: 498.9549255371094
z: 0.11546758562326431
visibility: 0.9754453301429749
","x: 396.9346618652344
y: 495.2801818847656
z: 0.027239639312028885
visibility: 0.9737033843994141
","x: 416.2006530761719
y: 507.2729797363281
z: 0.12192146480083466
visibility: 0.8135837316513062
","x: 393.33184814453125
y: 504.52337646484375
z: 0.03301692008972168
visibility: 0.7821552157402039
","x: 420.3453369140625
y: 521.687255859375
z: 0.051064055413007736
visibility: 0.9705921411514282
","x: 397.89764404296875
y: 521.5209350585938
z: -0.043192584067583084
visibility: 0.9701840281486511
",,,,,,,,,,,,,,,,,,,,,,"x: 424.28863525390625
y: 275.65594482421875
z: 0.0
","x: 421.3487854003906
y: 270.0965576171875
z: -0.0012382031418383121
","x: 417.3233337402344
y: 266.79461669921875
z: -0.0028883221093565226
","x: 413.9889221191406
y: 264.4136047363281
z: -0.004370549693703651
","x: 411.4365234375
y: 262.4280090332031
z: -0.005955071654170752
","x: 415.3426818847656
y: 272.41082763671875
z: -0.0052332803606987
","x: 410.17279052734375
y: 273.4523620605469
z: -0.0074755847454071045
","x: 407.14605712890625
y: 274.1362609863281
z: -0.008450865745544434
","x: 404.8319396972656
y: 274.77520751953125
z: -0.009171064011752605
","x: 415.85107421875
y: 276.8591003417969
z: -0.006245848257094622
","x: 410.3082580566406
y: 279.69219970703125
z: -0.00829431600868702
","x: 407.0224609375
y: 281.693359375
z: -0.009051399305462837
","x: 404.6025390625
y: 283.59832763671875
z: -0.009854917414486408
","x: 416.8210754394531
y: 281.087158203125
z: -0.007135722320526838
","x: 411.96710205078125
y: 284.21954345703125
z: -0.009465768933296204
","x: 408.9927673339844
y: 286.4986572265625
z: -0.01058293879032135
","x: 406.7092590332031
y: 288.5189208984375
z: -0.011495084501802921
","x: 418.1537780761719
y: 284.71173095703125
z: -0.008040891028940678
","x: 414.78753662109375
y: 288.03656005859375
z: -0.010463323444128036
","x: 412.7518005371094
y: 290.1624755859375
z: -0.011473335325717926
","x: 411.1429138183594
y: 292.2183532714844
z: -0.012190556153655052
"
18,"x: 414.747314453125
y: 208.969970703125
z: -0.11812621355056763
visibility: 0.9999210238456726
","x: 416.43560791015625
y: 201.4918212890625
z: -0.10387949645519257
visibility: 0.9997346997261047
","x: 417.61834716796875
y: 201.77040100097656
z: -0.10387720912694931
visibility: 0.9997142553329468
","x: 418.74322509765625
y: 202.00906372070312
z: -0.1038489118218422
visibility: 0.9996740818023682
","x: 412.83544921875
y: 200.5476531982422
z: -0.1127464771270752
visibility: 0.9997538328170776
","x: 411.4842834472656
y: 200.25770568847656
z: -0.11273609101772308
visibility: 0.9997668862342834
","x: 410.1050720214844
y: 200.01141357421875
z: -0.1127508282661438
visibility: 0.9997624158859253
","x: 418.975830078125
y: 204.9612274169922
z: -0.02208036556839943
visibility: 0.9992523193359375
","x: 406.4790344238281
y: 203.077392578125
z: -0.06376829743385315
visibility: 0.999634325504303
","x: 416.61767578125
y: 216.25201416015625
z: -0.08682098984718323
visibility: 0.9998610019683838
","x: 411.7560729980469
y: 216.06321716308594
z: -0.09895126521587372
visibility: 0.9998959898948669
","x: 428.7889709472656
y: 248.0815887451172
z: 0.014616986736655235
visibility: 0.9997591972351074
","x: 392.0676574707031
y: 247.2100067138672
z: -0.04663264378905296
visibility: 0.9998660087585449
","x: 433.764404296875
y: 289.6441345214844
z: -0.04025610536336899
visibility: 0.9409708380699158
","x: 389.640869140625
y: 299.5950012207031
z: -0.07381238043308258
visibility: 0.9744281768798828
","x: 422.9312438964844
y: 280.64154052734375
z: -0.18025968968868256
visibility: 0.9333212375640869
","x: 411.60888671875
y: 316.539306640625
z: -0.13093575835227966
visibility: 0.9508526921272278
","x: 417.10577392578125
y: 283.04931640625
z: -0.21358656883239746
visibility: 0.9001158475875854
","x: 415.48089599609375
y: 324.8233337402344
z: -0.15164385735988617
visibility: 0.9186885952949524
","x: 415.446533203125
y: 274.92437744140625
z: -0.20764067769050598
visibility: 0.9050647020339966
","x: 417.20941162109375
y: 319.149169921875
z: -0.1573367416858673
visibility: 0.9203153252601624
","x: 417.1509704589844
y: 274.22259521484375
z: -0.18009334802627563
visibility: 0.8873963952064514
","x: 416.2054443359375
y: 315.8600158691406
z: -0.1322852075099945
visibility: 0.9005346894264221
","x: 426.2576904296875
y: 351.9132995605469
z: 0.02756679616868496
visibility: 0.9989597201347351
","x: 405.67205810546875
y: 352.2507019042969
z: -0.027696792036294937
visibility: 0.999005138874054
","x: 427.6397705078125
y: 428.31304931640625
z: 0.0009130096877925098
visibility: 0.9736191034317017
","x: 406.9205017089844
y: 427.1813659667969
z: -0.06768138706684113
visibility: 0.9756673574447632
","x: 419.9555358886719
y: 498.9549255371094
z: 0.11546758562326431
visibility: 0.9754453301429749
","x: 396.9346618652344
y: 495.2801818847656
z: 0.027239639312028885
visibility: 0.9737033843994141
","x: 416.2006530761719
y: 507.2729797363281
z: 0.12192146480083466
visibility: 0.8135837316513062
","x: 393.33184814453125
y: 504.52337646484375
z: 0.03301692008972168
visibility: 0.7821552157402039
","x: 420.3453369140625
y: 521.687255859375
z: 0.051064055413007736
visibility: 0.9705921411514282
","x: 397.89764404296875
y: 521.5209350585938
z: -0.043192584067583084
visibility: 0.9701840281486511
",,,,,,,,,,,,,,,,,,,,,,"x: 424.28863525390625
y: 275.65594482421875
z: 0.0
","x: 421.3487854003906
y: 270.0965576171875
z: -0.0012382031418383121
","x: 417.3233337402344
y: 266.79461669921875
z: -0.0028883221093565226
","x: 413.9889221191406
y: 264.4136047363281
z: -0.004370549693703651
","x: 411.4365234375
y: 262.4280090332031
z: -0.005955071654170752
","x: 415.3426818847656
y: 272.41082763671875
z: -0.0052332803606987
","x: 410.17279052734375
y: 273.4523620605469
z: -0.0074755847454071045
","x: 407.14605712890625
y: 274.1362609863281
z: -0.008450865745544434
","x: 404.8319396972656
y: 274.77520751953125
z: -0.009171064011752605
","x: 415.85107421875
y: 276.8591003417969
z: -0.006245848257094622
","x: 410.3082580566406
y: 279.69219970703125
z: -0.00829431600868702
","x: 407.0224609375
y: 281.693359375
z: -0.009051399305462837
","x: 404.6025390625
y: 283.59832763671875
z: -0.009854917414486408
","x: 416.8210754394531
y: 281.087158203125
z: -0.007135722320526838
","x: 411.96710205078125
y: 284.21954345703125
z: -0.009465768933296204
","x: 408.9927673339844
y: 286.4986572265625
z: -0.01058293879032135
","x: 406.7092590332031
y: 288.5189208984375
z: -0.011495084501802921
","x: 418.1537780761719
y: 284.71173095703125
z: -0.008040891028940678
","x: 414.78753662109375
y: 288.03656005859375
z: -0.010463323444128036
","x: 412.7518005371094
y: 290.1624755859375
z: -0.011473335325717926
","x: 411.1429138183594
y: 292.2183532714844
z: -0.012190556153655052
"
19,"x: 409.87640380859375
y: 215.41448974609375
z: -0.13429142534732819
visibility: 0.99992835521698
","x: 412.3984375
y: 207.3671875
z: -0.12251836061477661
visibility: 0.9997599720954895
","x: 413.6149597167969
y: 207.4167022705078
z: -0.12247353792190552
visibility: 0.9997408390045166
","x: 414.69580078125
y: 207.42413330078125
z: -0.12243826687335968
visibility: 0.9997049570083618
","x: 408.3932189941406
y: 206.77584838867188
z: -0.1280224621295929
visibility: 0.9997775554656982
","x: 406.9228515625
y: 206.43890380859375
z: -0.12801231443881989
visibility: 0.9997891783714294
","x: 405.501953125
y: 206.14825439453125
z: -0.1280299723148346
visibility: 0.9997854232788086
","x: 415.46514892578125
y: 210.01873779296875
z: -0.04363911598920822
visibility: 0.999322235584259
","x: 402.5595703125
y: 209.40553283691406
z: -0.07110176980495453
visibility: 0.999670147895813
","x: 411.85205078125
y: 221.26930236816406
z: -0.10345790535211563
visibility: 0.9998743534088135
","x: 406.6904296875
y: 222.4333953857422
z: -0.11139316856861115
visibility: 0.9999061822891235
","x: 425.32293701171875
y: 248.20352172851562
z: -0.0020610331557691097
visibility: 0.9997820258140564
","x: 388.161376953125
y: 248.8688507080078
z: -0.049018144607543945
visibility: 0.9998785853385925
","x: 437.87994384765625
y: 285.31353759765625
z: -0.07140780240297318
visibility: 0.9456268548965454
","x: 379.47210693359375
y: 299.5805969238281
z: -0.07789438217878342
visibility: 0.9764374494552612
","x: 426.99090576171875
y: 272.1980895996094
z: -0.22244758903980255
visibility: 0.9393916130065918
","x: 407.3106384277344
y: 319.5519104003906
z: -0.12389214336872101
visibility: 0.9533672332763672
","x: 420.9965515136719
y: 272.6602478027344
z: -0.2573966085910797
visibility: 0.9088730812072754
","x: 409.3822326660156
y: 329.2930908203125
z: -0.14054498076438904
visibility: 0.9213524460792542
","x: 419.5233154296875
y: 264.7301025390625
z: -0.2452419251203537
visibility: 0.91321861743927
","x: 411.0626220703125
y: 323.5330505371094
z: -0.14072416722774506
visibility: 0.9224769473075867
","x: 420.5321044921875
y: 265.231201171875
z: -0.19666919112205505
visibility: 0.8966633081436157
","x: 411.1283874511719
y: 319.8571472167969
z: -0.12231729179620743
visibility: 0.9033458232879639
","x: 425.631591796875
y: 354.9728698730469
z: 0.023233365267515182
visibility: 0.9990515112876892
","x: 405.72357177734375
y: 357.0777893066406
z: -0.023408111184835434
visibility: 0.999089241027832
","x: 430.62164306640625
y: 429.1854248046875
z: 0.002523003611713648
visibility: 0.9743378758430481
","x: 406.7274475097656
y: 432.6842041015625
z: -0.04104673117399216
visibility: 0.977376401424408
","x: 421.08544921875
y: 496.7480773925781
z: 0.12414029985666275
visibility: 0.97593092918396
","x: 381.43603515625
y: 493.7954406738281
z: 0.06987838447093964
visibility: 0.97553950548172
","x: 416.3017272949219
y: 502.6060791015625
z: 0.14004604518413544
visibility: 0.8162296414375305
","x: 377.2262878417969
y: 497.958251953125
z: 0.07884177565574646
visibility: 0.7917398810386658
","x: 420.52362060546875
y: 521.8427734375
z: 0.09076283872127533
visibility: 0.9706991314888
","x: 378.2544250488281
y: 521.7491455078125
z: 0.01027394738048315
visibility: 0.9716899394989014
",,,,,,,,,,,,,,,,,,,,,,"x: 425.1379699707031
y: 268.6903076171875
z: 0.0
","x: 422.14801025390625
y: 264.5542297363281
z: -0.0007507370319217443
","x: 418.3773498535156
y: 262.4054870605469
z: -0.001989125506952405
","x: 415.4916076660156
y: 260.4790344238281
z: -0.003183371853083372
","x: 413.3845520019531
y: 258.06781005859375
z: -0.004489497281610966
","x: 416.9241943359375
y: 267.593505859375
z: -0.0046823532320559025
","x: 412.2614440917969
y: 268.4322509765625
z: -0.007134442683309317
","x: 409.7362365722656
y: 269.5072021484375
z: -0.008085724897682667
","x: 407.79803466796875
y: 270.52545166015625
z: -0.008688656613230705
","x: 417.6400146484375
y: 271.59173583984375
z: -0.006006418261677027
","x: 412.69110107421875
y: 274.62469482421875
z: -0.008379134349524975
","x: 409.98870849609375
y: 277.36871337890625
z: -0.00894135981798172
","x: 408.0000915527344
y: 279.8874206542969
z: -0.009482230059802532
","x: 418.8854675292969
y: 275.3561096191406
z: -0.007252119015902281
","x: 414.65386962890625
y: 279.0812072753906
z: -0.009930037893354893
","x: 412.2060241699219
y: 282.1599426269531
z: -0.010715669021010399
","x: 410.267578125
y: 284.7640380859375
z: -0.011233063414692879
","x: 420.5477294921875
y: 278.630126953125
z: -0.00851512048393488
","x: 418.0408630371094
y: 282.34454345703125
z: -0.011087656021118164
","x: 416.51617431640625
y: 284.6539001464844
z: -0.01185034029185772
","x: 415.3427734375
y: 286.6647033691406
z: -0.012272835709154606
"
20,"x: 409.87640380859375
y: 215.41448974609375
z: -0.13429142534732819
visibility: 0.99992835521698
","x: 412.3984375
y: 207.3671875
z: -0.12251836061477661
visibility: 0.9997599720954895
","x: 413.6149597167969
y: 207.4167022705078
z: -0.12247353792190552
visibility: 0.9997408390045166
","x: 414.69580078125
y: 207.42413330078125
z: -0.12243826687335968
visibility: 0.9997049570083618
","x: 408.3932189941406
y: 206.77584838867188
z: -0.1280224621295929
visibility: 0.9997775554656982
","x: 406.9228515625
y: 206.43890380859375
z: -0.12801231443881989
visibility: 0.9997891783714294
","x: 405.501953125
y: 206.14825439453125
z: -0.1280299723148346
visibility: 0.9997854232788086
","x: 415.46514892578125
y: 210.01873779296875
z: -0.04363911598920822
visibility: 0.999322235584259
","x: 402.5595703125
y: 209.40553283691406
z: -0.07110176980495453
visibility: 0.999670147895813
","x: 411.85205078125
y: 221.26930236816406
z: -0.10345790535211563
visibility: 0.9998743534088135
","x: 406.6904296875
y: 222.4333953857422
z: -0.11139316856861115
visibility: 0.9999061822891235
","x: 425.32293701171875
y: 248.20352172851562
z: -0.0020610331557691097
visibility: 0.9997820258140564
","x: 388.161376953125
y: 248.8688507080078
z: -0.049018144607543945
visibility: 0.9998785853385925
","x: 437.87994384765625
y: 285.31353759765625
z: -0.07140780240297318
visibility: 0.9456268548965454
","x: 379.47210693359375
y: 299.5805969238281
z: -0.07789438217878342
visibility: 0.9764374494552612
","x: 426.99090576171875
y: 272.1980895996094
z: -0.22244758903980255
visibility: 0.9393916130065918
","x: 407.3106384277344
y: 319.5519104003906
z: -0.12389214336872101
visibility: 0.9533672332763672
","x: 420.9965515136719
y: 272.6602478027344
z: -0.2573966085910797
visibility: 0.9088730812072754
","x: 409.3822326660156
y: 329.2930908203125
z: -0.14054498076438904
visibility: 0.9213524460792542
","x: 419.5233154296875
y: 264.7301025390625
z: -0.2452419251203537
visibility: 0.91321861743927
","x: 411.0626220703125
y: 323.5330505371094
z: -0.14072416722774506
visibility: 0.9224769473075867
","x: 420.5321044921875
y: 265.231201171875
z: -0.19666919112205505
visibility: 0.8966633081436157
","x: 411.1283874511719
y: 319.8571472167969
z: -0.12231729179620743
visibility: 0.9033458232879639
","x: 425.631591796875
y: 354.9728698730469
z: 0.023233365267515182
visibility: 0.9990515112876892
","x: 405.72357177734375
y: 357.0777893066406
z: -0.023408111184835434
visibility: 0.999089241027832
","x: 430.62164306640625
y: 429.1854248046875
z: 0.002523003611713648
visibility: 0.9743378758430481
","x: 406.7274475097656
y: 432.6842041015625
z: -0.04104673117399216
visibility: 0.977376401424408
","x: 421.08544921875
y: 496.7480773925781
z: 0.12414029985666275
visibility: 0.97593092918396
","x: 381.43603515625
y: 493.7954406738281
z: 0.06987838447093964
visibility: 0.97553950548172
","x: 416.3017272949219
y: 502.6060791015625
z: 0.14004604518413544
visibility: 0.8162296414375305
","x: 377.2262878417969
y: 497.958251953125
z: 0.07884177565574646
visibility: 0.7917398810386658
","x: 420.52362060546875
y: 521.8427734375
z: 0.09076283872127533
visibility: 0.9706991314888
","x: 378.2544250488281
y: 521.7491455078125
z: 0.01027394738048315
visibility: 0.9716899394989014
",,,,,,,,,,,,,,,,,,,,,,"x: 425.1379699707031
y: 268.6903076171875
z: 0.0
","x: 422.14801025390625
y: 264.5542297363281
z: -0.0007507370319217443
","x: 418.3773498535156
y: 262.4054870605469
z: -0.001989125506952405
","x: 415.4916076660156
y: 260.4790344238281
z: -0.003183371853083372
","x: 413.3845520019531
y: 258.06781005859375
z: -0.004489497281610966
","x: 416.9241943359375
y: 267.593505859375
z: -0.0046823532320559025
","x: 412.2614440917969
y: 268.4322509765625
z: -0.007134442683309317
","x: 409.7362365722656
y: 269.5072021484375
z: -0.008085724897682667
","x: 407.79803466796875
y: 270.52545166015625
z: -0.008688656613230705
","x: 417.6400146484375
y: 271.59173583984375
z: -0.006006418261677027
","x: 412.69110107421875
y: 274.62469482421875
z: -0.008379134349524975
","x: 409.98870849609375
y: 277.36871337890625
z: -0.00894135981798172
","x: 408.0000915527344
y: 279.8874206542969
z: -0.009482230059802532
","x: 418.8854675292969
y: 275.3561096191406
z: -0.007252119015902281
","x: 414.65386962890625
y: 279.0812072753906
z: -0.009930037893354893
","x: 412.2060241699219
y: 282.1599426269531
z: -0.010715669021010399
","x: 410.267578125
y: 284.7640380859375
z: -0.011233063414692879
","x: 420.5477294921875
y: 278.630126953125
z: -0.00851512048393488
","x: 418.0408630371094
y: 282.34454345703125
z: -0.011087656021118164
","x: 416.51617431640625
y: 284.6539001464844
z: -0.01185034029185772
","x: 415.3427734375
y: 286.6647033691406
z: -0.012272835709154606
"
21,"x: 405.2520751953125
y: 224.43951416015625
z: -0.1347808539867401
visibility: 0.9999353885650635
","x: 407.4194641113281
y: 215.84963989257812
z: -0.12154285609722137
visibility: 0.9997836947441101
","x: 408.5173034667969
y: 215.7137908935547
z: -0.12150599807500839
visibility: 0.9997664093971252
","x: 409.5125427246094
y: 215.60794067382812
z: -0.12148986756801605
visibility: 0.9997341632843018
","x: 403.5282287597656
y: 215.62135314941406
z: -0.13270029425621033
visibility: 0.9997995495796204
","x: 402.110595703125
y: 215.2609100341797
z: -0.13269023597240448
visibility: 0.999809980392456
","x: 400.6852722167969
y: 214.9061279296875
z: -0.1326705515384674
visibility: 0.9998066425323486
","x: 409.245849609375
y: 217.28884887695312
z: -0.033518046140670776
visibility: 0.9993892312049866
","x: 397.5722351074219
y: 216.84381103515625
z: -0.08749561011791229
visibility: 0.9997029304504395
","x: 406.4058532714844
y: 230.2528076171875
z: -0.10019936412572861
visibility: 0.9998868107795715
","x: 402.17449951171875
y: 231.13812255859375
z: -0.11597524583339691
visibility: 0.9999154806137085
","x: 419.38836669921875
y: 254.20545959472656
z: 0.02390623465180397
visibility: 0.9998036623001099
","x: 381.68023681640625
y: 252.01719665527344
z: -0.05798004940152168
visibility: 0.9998903274536133
","x: 434.84503173828125
y: 285.7726745605469
z: -0.029086584225296974
visibility: 0.9504298567771912
","x: 373.3497009277344
y: 303.55828857421875
z: -0.07997061312198639
visibility: 0.9783221483230591
","x: 421.018798828125
y: 284.7051696777344
z: -0.19560930132865906
visibility: 0.9452759623527527
","x: 393.9134826660156
y: 331.34222412109375
z: -0.13955724239349365
visibility: 0.9558420777320862
","x: 415.28619384765625
y: 288.58612060546875
z: -0.23272135853767395
visibility: 0.9175615310668945
","x: 398.3202209472656
y: 343.69677734375
z: -0.15951691567897797
visibility: 0.9246528148651123
","x: 412.72247314453125
y: 280.470458984375
z: -0.22453400492668152
visibility: 0.9214646816253662
","x: 401.0281677246094
y: 335.3568115234375
z: -0.1644846349954605
visibility: 0.9255027770996094
","x: 414.38226318359375
y: 279.36053466796875
z: -0.19256950914859772
visibility: 0.9062336683273315
","x: 399.9967956542969
y: 330.1690979003906
z: -0.14019732177257538
visibility: 0.9068557024002075
","x: 420.65673828125
y: 355.4922790527344
z: 0.0372360460460186
visibility: 0.9991366863250732
","x: 400.6623229980469
y: 359.7765808105469
z: -0.037364859133958817
visibility: 0.9991664886474609
","x: 430.50689697265625
y: 429.14739990234375
z: -0.0015551031101495028
visibility: 0.9759781360626221
","x: 404.568603515625
y: 438.11419677734375
z: -0.11114637553691864
visibility: 0.9792873859405518
","x: 421.4990234375
y: 496.8404541015625
z: 0.11238521337509155
visibility: 0.9773948788642883
","x: 375.5833740234375
y: 494.50335693359375
z: -0.019666310399770737
visibility: 0.977407693862915
","x: 416.671142578125
y: 503.46417236328125
z: 0.12090045213699341
visibility: 0.8244985938072205
","x: 369.2482604980469
y: 499.4758605957031
z: -0.01304686814546585
visibility: 0.8017352819442749
","x: 421.2859191894531
y: 521.96142578125
z: 0.07294733077287674
visibility: 0.9720469117164612
","x: 377.0630798339844
y: 523.0480346679688
z: -0.08408169448375702
visibility: 0.9735662341117859
",,,,,,,,,,,,,,,,,,,,,,"x: 418.4306640625
y: 281.0209655761719
z: 0.0
","x: 414.6141357421875
y: 277.96697998046875
z: -0.000656240270473063
","x: 410.4164123535156
y: 276.64697265625
z: -0.0021834305953234434
","x: 407.2164306640625
y: 275.2444763183594
z: -0.003961795475333929
","x: 404.7820129394531
y: 273.4188537597656
z: -0.005863275844603777
","x: 409.36090087890625
y: 282.7019958496094
z: -0.0036495388485491276
","x: 405.2483215332031
y: 286.10650634765625
z: -0.006320169661194086
","x: 403.0633544921875
y: 288.3593444824219
z: -0.007744683418422937
","x: 401.2339172363281
y: 290.3554382324219
z: -0.008740200661122799
","x: 410.64337158203125
y: 286.3089294433594
z: -0.005530750844627619
","x: 406.4225769042969
y: 291.29241943359375
z: -0.00785699114203453
","x: 404.0822448730469
y: 294.710205078125
z: -0.008986561559140682
","x: 402.21807861328125
y: 297.8136901855469
z: -0.010040005668997765
","x: 412.44085693359375
y: 289.4057312011719
z: -0.007465610280632973
","x: 408.8134765625
y: 294.7314453125
z: -0.010015590116381645
","x: 406.81072998046875
y: 298.2871398925781
z: -0.011173087172210217
","x: 405.1229248046875
y: 301.308349609375
z: -0.012102259323000908
","x: 414.585693359375
y: 291.65753173828125
z: -0.009466750547289848
","x: 412.4726867675781
y: 296.66693115234375
z: -0.011868705041706562
","x: 411.20843505859375
y: 299.87542724609375
z: -0.012743590399622917
","x: 410.15130615234375
y: 302.6511535644531
z: -0.01339262630790472
"
22,"x: 405.2520751953125
y: 224.43951416015625
z: -0.1347808539867401
visibility: 0.9999353885650635
","x: 407.4194641113281
y: 215.84963989257812
z: -0.12154285609722137
visibility: 0.9997836947441101
","x: 408.5173034667969
y: 215.7137908935547
z: -0.12150599807500839
visibility: 0.9997664093971252
","x: 409.5125427246094
y: 215.60794067382812
z: -0.12148986756801605
visibility: 0.9997341632843018
","x: 403.5282287597656
y: 215.62135314941406
z: -0.13270029425621033
visibility: 0.9997995495796204
","x: 402.110595703125
y: 215.2609100341797
z: -0.13269023597240448
visibility: 0.999809980392456
","x: 400.6852722167969
y: 214.9061279296875
z: -0.1326705515384674
visibility: 0.9998066425323486
","x: 409.245849609375
y: 217.28884887695312
z: -0.033518046140670776
visibility: 0.9993892312049866
","x: 397.5722351074219
y: 216.84381103515625
z: -0.08749561011791229
visibility: 0.9997029304504395
","x: 406.4058532714844
y: 230.2528076171875
z: -0.10019936412572861
visibility: 0.9998868107795715
","x: 402.17449951171875
y: 231.13812255859375
z: -0.11597524583339691
visibility: 0.9999154806137085
","x: 419.38836669921875
y: 254.20545959472656
z: 0.02390623465180397
visibility: 0.9998036623001099
","x: 381.68023681640625
y: 252.01719665527344
z: -0.05798004940152168
visibility: 0.9998903274536133
","x: 434.84503173828125
y: 285.7726745605469
z: -0.029086584225296974
visibility: 0.9504298567771912
","x: 373.3497009277344
y: 303.55828857421875
z: -0.07997061312198639
visibility: 0.9783221483230591
","x: 421.018798828125
y: 284.7051696777344
z: -0.19560930132865906
visibility: 0.9452759623527527
","x: 393.9134826660156
y: 331.34222412109375
z: -0.13955724239349365
visibility: 0.9558420777320862
","x: 415.28619384765625
y: 288.58612060546875
z: -0.23272135853767395
visibility: 0.9175615310668945
","x: 398.3202209472656
y: 343.69677734375
z: -0.15951691567897797
visibility: 0.9246528148651123
","x: 412.72247314453125
y: 280.470458984375
z: -0.22453400492668152
visibility: 0.9214646816253662
","x: 401.0281677246094
y: 335.3568115234375
z: -0.1644846349954605
visibility: 0.9255027770996094
","x: 414.38226318359375
y: 279.36053466796875
z: -0.19256950914859772
visibility: 0.9062336683273315
","x: 399.9967956542969
y: 330.1690979003906
z: -0.14019732177257538
visibility: 0.9068557024002075
","x: 420.65673828125
y: 355.4922790527344
z: 0.0372360460460186
visibility: 0.9991366863250732
","x: 400.6623229980469
y: 359.7765808105469
z: -0.037364859133958817
visibility: 0.9991664886474609
","x: 430.50689697265625
y: 429.14739990234375
z: -0.0015551031101495028
visibility: 0.9759781360626221
","x: 404.568603515625
y: 438.11419677734375
z: -0.11114637553691864
visibility: 0.9792873859405518
","x: 421.4990234375
y: 496.8404541015625
z: 0.11238521337509155
visibility: 0.9773948788642883
","x: 375.5833740234375
y: 494.50335693359375
z: -0.019666310399770737
visibility: 0.977407693862915
","x: 416.671142578125
y: 503.46417236328125
z: 0.12090045213699341
visibility: 0.8244985938072205
","x: 369.2482604980469
y: 499.4758605957031
z: -0.01304686814546585
visibility: 0.8017352819442749
","x: 421.2859191894531
y: 521.96142578125
z: 0.07294733077287674
visibility: 0.9720469117164612
","x: 377.0630798339844
y: 523.0480346679688
z: -0.08408169448375702
visibility: 0.9735662341117859
",,,,,,,,,,,,,,,,,,,,,,"x: 418.4306640625
y: 281.0209655761719
z: 0.0
","x: 414.6141357421875
y: 277.96697998046875
z: -0.000656240270473063
","x: 410.4164123535156
y: 276.64697265625
z: -0.0021834305953234434
","x: 407.2164306640625
y: 275.2444763183594
z: -0.003961795475333929
","x: 404.7820129394531
y: 273.4188537597656
z: -0.005863275844603777
","x: 409.36090087890625
y: 282.7019958496094
z: -0.0036495388485491276
","x: 405.2483215332031
y: 286.10650634765625
z: -0.006320169661194086
","x: 403.0633544921875
y: 288.3593444824219
z: -0.007744683418422937
","x: 401.2339172363281
y: 290.3554382324219
z: -0.008740200661122799
","x: 410.64337158203125
y: 286.3089294433594
z: -0.005530750844627619
","x: 406.4225769042969
y: 291.29241943359375
z: -0.00785699114203453
","x: 404.0822448730469
y: 294.710205078125
z: -0.008986561559140682
","x: 402.21807861328125
y: 297.8136901855469
z: -0.010040005668997765
","x: 412.44085693359375
y: 289.4057312011719
z: -0.007465610280632973
","x: 408.8134765625
y: 294.7314453125
z: -0.010015590116381645
","x: 406.81072998046875
y: 298.2871398925781
z: -0.011173087172210217
","x: 405.1229248046875
y: 301.308349609375
z: -0.012102259323000908
","x: 414.585693359375
y: 291.65753173828125
z: -0.009466750547289848
","x: 412.4726867675781
y: 296.66693115234375
z: -0.011868705041706562
","x: 411.20843505859375
y: 299.87542724609375
z: -0.012743590399622917
","x: 410.15130615234375
y: 302.6511535644531
z: -0.01339262630790472
"
23,"x: 399.3396911621094
y: 232.36090087890625
z: -0.12811490893363953
visibility: 0.9999399185180664
","x: 401.71881103515625
y: 224.64613342285156
z: -0.12160331010818481
visibility: 0.9997994303703308
","x: 402.97735595703125
y: 224.4740447998047
z: -0.12154706567525864
visibility: 0.999781608581543
","x: 404.1075439453125
y: 224.27825927734375
z: -0.12151827663183212
visibility: 0.999752938747406
","x: 397.24896240234375
y: 224.4623565673828
z: -0.12598270177841187
visibility: 0.999814510345459
","x: 395.675537109375
y: 224.08963012695312
z: -0.12599146366119385
visibility: 0.9998234510421753
","x: 394.0735778808594
y: 223.6724090576172
z: -0.12599463760852814
visibility: 0.9998214840888977
","x: 403.92486572265625
y: 224.3586883544922
z: -0.05604224652051926
visibility: 0.9994329214096069
","x: 390.72900390625
y: 223.93446350097656
z: -0.08241961896419525
visibility: 0.9997274875640869
","x: 400.7860107421875
y: 237.62677001953125
z: -0.101987823843956
visibility: 0.9998962879180908
","x: 396.2162780761719
y: 237.93728637695312
z: -0.1093904972076416
visibility: 0.9999232888221741
","x: 413.6498107910156
y: 258.38800048828125
z: -0.02059020847082138
visibility: 0.9998208284378052
","x: 374.4988098144531
y: 254.32044982910156
z: -0.04483489319682121
visibility: 0.9998988509178162
","x: 426.1800537109375
y: 292.7990417480469
z: -0.024987556040287018
visibility: 0.9542478919029236
","x: 353.77685546875
y: 291.9931335449219
z: -0.08670304715633392
visibility: 0.9802166223526001
","x: 413.2848815917969
y: 315.98284912109375
z: -0.09456133097410202
visibility: 0.9496091604232788
","x: 374.4942321777344
y: 312.4726257324219
z: -0.14717824757099152
visibility: 0.9583315849304199
","x: 409.9444580078125
y: 326.99822998046875
z: -0.11264388263225555
visibility: 0.9235913753509521
","x: 380.6041564941406
y: 316.86444091796875
z: -0.17330527305603027
visibility: 0.9277489185333252
","x: 406.2052917480469
y: 322.5107421875
z: -0.11290585994720459
visibility: 0.9268615245819092
","x: 382.6260070800781
y: 310.778564453125
z: -0.17367340624332428
visibility: 0.9280635118484497
","x: 406.19683837890625
y: 318.45867919921875
z: -0.0938829854130745
visibility: 0.9120059609413147
","x: 381.32061767578125
y: 308.64410400390625
z: -0.1552160680294037
visibility: 0.9101675748825073
