uscmakers/ReverseChoreography/data/9_power_little_mix.csv
,NOSE,LEFT_EYE_INNER,LEFT_EYE,LEFT_EYE_OUTER,RIGHT_EYE_INNER,RIGHT_EYE,RIGHT_EYE_OUTER,LEFT_EAR,RIGHT_EAR,MOUTH_LEFT,MOUTH_RIGHT,LEFT_SHOULDER,RIGHT_SHOULDER,LEFT_ELBOW,RIGHT_ELBOW,LEFT_WRIST,RIGHT_WRIST,LEFT_PINKY,RIGHT_PINKY,LEFT_INDEX,RIGHT_INDEX,LEFT_THUMB,RIGHT_THUMB,LEFT_HIP,RIGHT_HIP,LEFT_KNEE,RIGHT_KNEE,LEFT_ANKLE,RIGHT_ANKLE,LEFT_HEEL,RIGHT_HEEL,LEFT_FOOT_INDEX,RIGHT_FOOT_INDEX,WRIST,THUMB_CPC,THUMB_MCP,THUMB_IP,THUMB_TIP,INDEX_FINGER_MCP,INDEX_FINGER_PIP,INDEX_FINGER_DIP,INDEX_FINGER_TIP,MIDDLE_FINGER_MCP,MIDDLE_FINGER_PIP,MIDDLE_FINGER_DIP,MIDDLE_FINGER_TIP,RING_FINGER_PIP,RING_FINGER_DIP,RING_FINGER_TIP,RING_FINGER_MCP,PINKY_MCP,PINKY_PIP,PINKY_DIP,PINKY_TIP,WRIST2,THUMB_CPC2,THUMB_MCP2,THUMB_IP2,THUMB_TIP2,INDEX_FINGER_MCP2,INDEX_FINGER_PIP2,INDEX_FINGER_DIP2,INDEX_FINGER_TIP2,MIDDLE_FINGER_MCP2,MIDDLE_FINGER_PIP2,MIDDLE_FINGER_DIP2,MIDDLE_FINGER_TIP2,RING_FINGER_PIP2,RING_FINGER_DIP2,RING_FINGER_TIP2,RING_FINGER_MCP2,PINKY_MCP2,PINKY_PIP2,PINKY_DIP2,PINKY_TIP2
0,"x: 342.58233642578125
y: 216.46725463867188
z: -0.32031142711639404
visibility: 0.9993865489959717
","x: 344.775146484375
y: 209.2823944091797
z: -0.30321669578552246
visibility: 0.9973152279853821
","x: 345.93267822265625
y: 209.5622100830078
z: -0.30324000120162964
visibility: 0.9973673224449158
","x: 346.98248291015625
y: 209.92013549804688
z: -0.3033013641834259
visibility: 0.9972845315933228
","x: 341.07025146484375
y: 208.26820373535156
z: -0.3117043375968933
visibility: 0.9975212216377258
","x: 339.4515686035156
y: 207.6472625732422
z: -0.31171542406082153
visibility: 0.9976409673690796
","x: 337.7922668457031
y: 207.0340118408203
z: -0.31173112988471985
visibility: 0.9975727200508118
","x: 347.73187255859375
y: 213.8003387451172
z: -0.18357394635677338
visibility: 0.9938026666641235
","x: 334.0940856933594
y: 208.8655242919922
z: -0.22008256614208221
visibility: 0.9951605200767517
","x: 343.7353820800781
y: 224.1670379638672
z: -0.27249041199684143
visibility: 0.9987455606460571
","x: 339.3049621582031
y: 222.7436981201172
z: -0.2832401990890503
visibility: 0.9988980293273926
","x: 353.2090759277344
y: 258.77752685546875
z: -0.07575201988220215
visibility: 0.9995974898338318
","x: 318.24676513671875
y: 250.03387451171875
z: -0.15740971267223358
visibility: 0.9997320771217346
","x: 353.57977294921875
y: 311.286376953125
z: 0.002270649652928114
visibility: 0.6455801725387573
","x: 314.65081787109375
y: 305.8926086425781
z: -0.14555202424526215
visibility: 0.9813708662986755
","x: 356.17010498046875
y: 357.00994873046875
z: -0.09758014976978302
visibility: 0.4370724856853485
","x: 318.69512939453125
y: 351.4931640625
z: -0.2222573310136795
visibility: 0.8930728435516357
","x: 356.70660400390625
y: 370.7955322265625
z: -0.12131844460964203
visibility: 0.363455593585968
","x: 317.24444580078125
y: 368.6394958496094
z: -0.2535642981529236
visibility: 0.813101053237915
","x: 357.82763671875
y: 376.2834167480469
z: -0.15524330735206604
visibility: 0.3919049799442291
","x: 321.7987976074219
y: 367.6660461425781
z: -0.2695007026195526
visibility: 0.8159450888633728
","x: 353.7519836425781
y: 365.1422424316406
z: -0.11440171301364899
visibility: 0.38300612568855286
","x: 323.4235534667969
y: 361.0434265136719
z: -0.2295958697795868
visibility: 0.7625735998153687
","x: 347.2490234375
y: 359.7786865234375
z: 0.021763186901807785
visibility: 0.9995399713516235
","x: 325.7027587890625
y: 360.1788635253906
z: -0.02173989824950695
visibility: 0.9991624355316162
","x: 356.4185485839844
y: 430.9355163574219
z: -0.14196443557739258
visibility: 0.9885141253471375
","x: 326.8007507324219
y: 439.9693298339844
z: -0.024103472009301186
visibility: 0.9806458353996277
","x: 343.2684326171875
y: 498.729736328125
z: 0.07188573479652405
visibility: 0.9759426712989807
","x: 329.5398864746094
y: 505.29638671875
z: 0.19775186479091644
visibility: 0.9713873863220215
","x: 338.2228698730469
y: 506.2408447265625
z: 0.08837176859378815
visibility: 0.8597337603569031
","x: 329.4263916015625
y: 512.8956298828125
z: 0.2132747620344162
visibility: 0.7546729445457458
","x: 344.4567565917969
y: 523.5709228515625
z: -0.04176611453294754
visibility: 0.9778314828872681
","x: 333.4109191894531
y: 526.8053588867188
z: 0.08561505377292633
visibility: 0.9636864066123962
",,,,,,,,,,,,,,,,,,,,,,,,,,,,,,,,,,,,,,,,,,
1,"x: 340.5217590332031
y: 212.8497314453125
z: -0.32116007804870605
visibility: 0.9994402527809143
","x: 342.8912658691406
y: 206.35687255859375
z: -0.30453330278396606
visibility: 0.9975511431694031
","x: 343.9411315917969
y: 206.806396484375
z: -0.30455395579338074
visibility: 0.9975986480712891
","x: 344.9844970703125
y: 207.26715087890625
z: -0.30459457635879517
visibility: 0.9975249767303467
","x: 338.95855712890625
y: 204.7022247314453
z: -0.3117505609989166
visibility: 0.9977295398712158
","x: 337.30615234375
y: 204.03948974609375
z: -0.31176167726516724
visibility: 0.9978344440460205
","x: 335.7152404785156
y: 203.40945434570312
z: -0.31177884340286255
visibility: 0.9977644681930542
","x: 345.65045166015625
y: 210.95584106445312
z: -0.19079169631004333
visibility: 0.9943447113037109
","x: 332.40228271484375
y: 205.56863403320312
z: -0.22059126198291779
visibility: 0.9955265522003174
","x: 342.0019836425781
y: 219.789306640625
z: -0.2764061987400055
visibility: 0.9988571405410767
","x: 336.9668884277344
y: 218.76251220703125
z: -0.2851499617099762
visibility: 0.9989917278289795
","x: 352.74951171875
y: 258.5378723144531
z: -0.10300673544406891
visibility: 0.9996336698532104
","x: 315.2652587890625
y: 249.22433471679688
z: -0.14387421309947968
visibility: 0.9997427463531494
","x: 357.9914855957031
y: 309.01690673828125
z: -0.03544064983725548
visibility: 0.6789097189903259
","x: 308.4017028808594
y: 305.0597839355469
z: -0.09964682161808014
visibility: 0.9779310822486877
","x: 369.1143493652344
y: 344.01361083984375
z: -0.12587782740592957
visibility: 0.4898398220539093
","x: 305.7654724121094
y: 350.8813171386719
z: -0.16772401332855225
visibility: 0.8917454481124878
","x: 372.946533203125
y: 358.4071044921875
z: -0.14969632029533386
visibility: 0.41945475339889526
","x: 304.6404113769531
y: 366.061279296875
z: -0.19233843684196472
visibility: 0.8127725720405579
","x: 372.0819091796875
y: 358.088623046875
z: -0.18466687202453613
visibility: 0.44597142934799194
","x: 307.3562927246094
y: 365.0050354003906
z: -0.22648246586322784
visibility: 0.8166975975036621
","x: 370.37359619140625
y: 352.9858093261719
z: -0.14210475981235504
visibility: 0.4368606209754944
","x: 308.2012634277344
y: 359.25152587890625
z: -0.18315133452415466
visibility: 0.7666248679161072
","x: 345.1769104003906
y: 359.533203125
z: 0.016535580158233643
visibility: 0.999549925327301
","x: 323.2033996582031
y: 359.33941650390625
z: -0.01659366860985756
visibility: 0.9991873502731323
","x: 352.8277893066406
y: 430.2642822265625
z: -0.005578408017754555
visibility: 0.9885398149490356
","x: 326.22186279296875
y: 437.8796691894531
z: 0.005446190945804119
visibility: 0.9808844923973083
","x: 344.6485290527344
y: 498.9237060546875
z: 0.18108893930912018
visibility: 0.976909875869751
","x: 329.6361389160156
y: 503.68597412109375
z: 0.20314374566078186
visibility: 0.9724215865135193
","x: 341.3667907714844
y: 506.855224609375
z: 0.1931985765695572
visibility: 0.8600921630859375
","x: 329.82147216796875
y: 511.841796875
z: 0.21583175659179688
visibility: 0.7574508190155029
","x: 346.0845031738281
y: 523.45166015625
z: 0.07107646763324738
visibility: 0.9783464074134827
","x: 333.15557861328125
y: 525.7463989257812
z: 0.09153598546981812
visibility: 0.9651547074317932
",,,,,,,,,,,,,,,,,,,,,,,,,,,,,,,,,,,,,,,,,,
2,"x: 340.2197570800781
y: 210.36720275878906
z: -0.28504443168640137
visibility: 0.9994887709617615
","x: 342.6812744140625
y: 203.45477294921875
z: -0.267761766910553
visibility: 0.9977658987045288
","x: 343.85638427734375
y: 203.91969299316406
z: -0.2677689492702484
visibility: 0.9978020787239075
","x: 344.9804992675781
y: 204.4399871826172
z: -0.2677482068538666
visibility: 0.9977282881736755
","x: 338.7113342285156
y: 202.10707092285156
z: -0.27499061822891235
visibility: 0.9979336261749268
","x: 337.1161804199219
y: 201.70187377929688
z: -0.2750133275985718
visibility: 0.9980279803276062
","x: 335.5248718261719
y: 201.32876586914062
z: -0.2750639021396637
visibility: 0.9979656338691711
","x: 345.820556640625
y: 208.41590881347656
z: -0.15305718779563904
visibility: 0.9947474002838135
","x: 332.4494323730469
y: 204.2196807861328
z: -0.18784795701503754
visibility: 0.9959402680397034
","x: 341.93658447265625
y: 217.60263061523438
z: -0.24080054461956024
visibility: 0.9989525675773621
","x: 336.97723388671875
y: 216.60333251953125
z: -0.2508745789527893
visibility: 0.9990838766098022
","x: 353.1729431152344
y: 256.5096740722656
z: -0.05608966946601868
visibility: 0.9996536374092102
","x: 315.62384033203125
y: 248.22653198242188
z: -0.125512957572937
visibility: 0.9997654557228088
","x: 357.5685729980469
y: 307.96771240234375
z: 0.005586110986769199
visibility: 0.6993870735168457
","x: 308.6916198730469
y: 303.8784484863281
z: -0.10020406544208527
visibility: 0.9792903065681458
","x: 365.18914794921875
y: 346.0499572753906
z: -0.10083166509866714
visibility: 0.5279043912887573
","x: 309.88946533203125
y: 346.7154235839844
z: -0.17698268592357635
visibility: 0.9008811116218567
","x: 367.24560546875
y: 360.40521240234375
z: -0.12776592373847961
visibility: 0.4576377272605896
","x: 306.44940185546875
y: 360.5390625
z: -0.20668259263038635
visibility: 0.8279195427894592
","x: 369.06304931640625
y: 358.7071533203125
z: -0.16156251728534698
visibility: 0.4826795756816864
","x: 311.4640197753906
y: 355.31866455078125
z: -0.23162230849266052
visibility: 0.8315508365631104
","x: 364.6494445800781
y: 352.9556579589844
z: -0.11709771305322647
visibility: 0.47290393710136414
","x: 313.2291564941406
y: 350.77313232421875
z: -0.18776628375053406
visibility: 0.7853160500526428
","x: 346.46405029296875
y: 359.2785339355469
z: 0.023044992238283157
visibility: 0.999555230140686
","x: 324.3822937011719
y: 359.426025390625
z: -0.02316262573003769
visibility: 0.9992437958717346
","x: 353.50079345703125
y: 430.202880859375
z: 0.04371810704469681
visibility: 0.9887006878852844
","x: 326.10479736328125
y: 437.4002380371094
z: -0.0035775532014667988
visibility: 0.9822406768798828
","x: 354.222900390625
y: 499.9371032714844
z: 0.22540755569934845
visibility: 0.9783089756965637
","x: 329.5837097167969
y: 502.9321594238281
z: 0.1520240604877472
visibility: 0.9745924472808838
","x: 350.9893798828125
y: 510.0938415527344
z: 0.2366735190153122
visibility: 0.8678416609764099
","x: 330.1076965332031
y: 511.0697937011719
z: 0.16162632405757904
visibility: 0.7705944776535034
","x: 363.56488037109375
y: 523.489990234375
z: 0.1258484125137329
visibility: 0.9793251752853394
","x: 331.8085632324219
y: 525.5977783203125
z: 0.03898090496659279
visibility: 0.9677197337150574
",,,,,,,,,,,,,,,,,,,,,,,,,,,,,,,,,,,,,,,,,,
3,"x: 340.2478332519531
y: 210.34532165527344
z: -0.2382691651582718
visibility: 0.99952632188797
","x: 343.06695556640625
y: 203.29144287109375
z: -0.2197544276714325
visibility: 0.9979599118232727
","x: 344.399169921875
y: 203.72052001953125
z: -0.21977198123931885
visibility: 0.9979867935180664
","x: 345.78118896484375
y: 204.23150634765625
z: -0.2197575569152832
visibility: 0.9979159832000732
","x: 339.0205078125
y: 202.12911987304688
z: -0.22469624876976013
visibility: 0.9981116056442261
","x: 337.5205078125
y: 201.7001495361328
z: -0.22473256289958954
visibility: 0.9981963634490967
","x: 335.9888000488281
y: 201.3047637939453
z: -0.22476868331432343
visibility: 0.998142659664154
","x: 347.5848693847656
y: 208.2867431640625
z: -0.10109806060791016
visibility: 0.9951784014701843
","x: 333.42864990234375
y: 203.74209594726562
z: -0.1246970072388649
visibility: 0.9963091015815735
","x: 342.26934814453125
y: 217.58755493164062
z: -0.19283518195152283
visibility: 0.9990349411964417
","x: 337.41839599609375
y: 216.6348114013672
z: -0.1999174952507019
visibility: 0.9991634488105774
","x: 355.8409423828125
y: 255.48464965820312
z: -0.02410195954144001
visibility: 0.9996482133865356
","x: 316.9654541015625
y: 247.08311462402344
z: -0.07113758474588394
visibility: 0.9997739195823669
","x: 357.19769287109375
y: 307.04815673828125
z: -0.01219424232840538
visibility: 0.709871768951416
","x: 309.2630310058594
y: 298.8885803222656
z: -0.1250409334897995
visibility: 0.9791398644447327
","x: 354.440673828125
y: 341.9125061035156
z: -0.1437070369720459
visibility: 0.5481194853782654
","x: 323.2767639160156
y: 311.2633972167969
z: -0.312772661447525
visibility: 0.9070801734924316
","x: 355.0909423828125
y: 357.1505126953125
z: -0.178953155875206
visibility: 0.47743698954582214
","x: 326.8099365234375
y: 315.3304138183594
z: -0.35739195346832275
visibility: 0.8389178514480591
","x: 352.5699768066406
y: 354.549072265625
z: -0.20291471481323242
visibility: 0.5008111000061035
","x: 329.13946533203125
y: 309.0585632324219
z: -0.3678261637687683
visibility: 0.84228515625
","x: 351.678955078125
y: 348.5714416503906
z: -0.1566009819507599
visibility: 0.4875255525112152
","x: 328.45477294921875
y: 307.31903076171875
z: -0.3202747702598572
visibility: 0.7983651757240295
","x: 348.55108642578125
y: 358.6410217285156
z: 0.019263243302702904
visibility: 0.9995470643043518
","x: 326.5091552734375
y: 359.4903564453125
z: -0.01937279663980007
visibility: 0.9992801547050476
","x: 357.49896240234375
y: 429.6658020019531
z: 0.012840266339480877
visibility: 0.9894558787345886
","x: 326.5866394042969
y: 437.5039978027344
z: -0.007532201707363129
visibility: 0.9834956526756287
","x: 364.5126953125
y: 500.8242492675781
z: 0.18399080634117126
visibility: 0.979983389377594
","x: 329.5818786621094
y: 503.0206298828125
z: 0.1586092710494995
visibility: 0.9765496850013733
","x: 361.0633239746094
y: 511.3775634765625
z: 0.1936074197292328
visibility: 0.8745900392532349
","x: 330.099853515625
y: 511.15185546875
z: 0.1685437709093094
visibility: 0.7812548875808716
","x: 372.8202819824219
y: 523.8776245117188
z: 0.06654688715934753
visibility: 0.9804749488830566
","x: 331.5744323730469
y: 525.6232299804688
z: 0.03998725861310959
visibility: 0.9699320793151855
","x: 328.6102294921875
y: 310.7564697265625
z: 0.0
","x: 329.37799072265625
y: 305.1680908203125
z: -0.0019855063874274492
","x: 331.1434631347656
y: 300.3186950683594
z: -0.00408175028860569
","x: 332.7532043457031
y: 297.8949279785156
z: -0.006468352396041155
","x: 334.2695007324219
y: 296.2441711425781
z: -0.008394955657422543
","x: 335.5505676269531
y: 302.00482177734375
z: -0.003557518357411027
","x: 336.2715759277344
y: 301.18023681640625
z: -0.007397368550300598
","x: 333.52667236328125
y: 301.6287841796875
z: -0.008605249226093292
","x: 331.3451843261719
y: 302.1492919921875
z: -0.008822855539619923
","x: 335.5989685058594
y: 306.7667541503906
z: -0.004660956095904112
","x: 335.84527587890625
y: 306.04669189453125
z: -0.008850271813571453
","x: 332.95623779296875
y: 305.8529968261719
z: -0.008910566568374634
","x: 330.79901123046875
y: 306.1261901855469
z: -0.008190276101231575
","x: 335.10223388671875
y: 311.3308410644531
z: -0.006156977266073227
","x: 334.9661865234375
y: 310.3937683105469
z: -0.009871375747025013
","x: 332.4193115234375
y: 309.82965087890625
z: -0.008508743718266487
","x: 330.65655517578125
y: 309.9917297363281
z: -0.006818728521466255
","x: 334.2735900878906
y: 315.6576232910156
z: -0.007985183969140053
","x: 334.3426513671875
y: 314.57989501953125
z: -0.010187553241848946
","x: 332.5487976074219
y: 313.87091064453125
z: -0.009269571863114834
","x: 331.2098388671875
y: 313.9228515625
z: -0.007971138693392277
",,,,,,,,,,,,,,,,,,,,,
4,"x: 340.2478332519531
y: 210.34532165527344
z: -0.2382691651582718
visibility: 0.99952632188797
","x: 343.06695556640625
y: 203.29144287109375
z: -0.2197544276714325
visibility: 0.9979599118232727
","x: 344.399169921875
y: 203.72052001953125
z: -0.21977198123931885
visibility: 0.9979867935180664
","x: 345.78118896484375
y: 204.23150634765625
z: -0.2197575569152832
visibility: 0.9979159832000732
","x: 339.0205078125
y: 202.12911987304688
z: -0.22469624876976013
visibility: 0.9981116056442261
","x: 337.5205078125
y: 201.7001495361328
z: -0.22473256289958954
visibility: 0.9981963634490967
","x: 335.9888000488281
y: 201.3047637939453
z: -0.22476868331432343
visibility: 0.998142659664154
","x: 347.5848693847656
y: 208.2867431640625
z: -0.10109806060791016
visibility: 0.9951784014701843
","x: 333.42864990234375
y: 203.74209594726562
z: -0.1246970072388649
visibility: 0.9963091015815735
","x: 342.26934814453125
y: 217.58755493164062
z: -0.19283518195152283
visibility: 0.9990349411964417
","x: 337.41839599609375
y: 216.6348114013672
z: -0.1999174952507019
visibility: 0.9991634488105774
","x: 355.8409423828125
y: 255.48464965820312
z: -0.02410195954144001
visibility: 0.9996482133865356
","x: 316.9654541015625
y: 247.08311462402344
z: -0.07113758474588394
visibility: 0.9997739195823669
","x: 357.19769287109375
y: 307.04815673828125
z: -0.01219424232840538
visibility: 0.709871768951416
","x: 309.2630310058594
y: 298.8885803222656
z: -0.1250409334897995
visibility: 0.9791398644447327
","x: 354.440673828125
y: 341.9125061035156
z: -0.1437070369720459
visibility: 0.5481194853782654
","x: 323.2767639160156
y: 311.2633972167969
z: -0.312772661447525
visibility: 0.9070801734924316
","x: 355.0909423828125
y: 357.1505126953125
z: -0.178953155875206
visibility: 0.47743698954582214
","x: 326.8099365234375
y: 315.3304138183594
z: -0.35739195346832275
visibility: 0.8389178514480591
","x: 352.5699768066406
y: 354.549072265625
z: -0.20291471481323242
visibility: 0.5008111000061035
","x: 329.13946533203125
y: 309.0585632324219
z: -0.3678261637687683
visibility: 0.84228515625
","x: 351.678955078125
y: 348.5714416503906
z: -0.1566009819507599
visibility: 0.4875255525112152
","x: 328.45477294921875
y: 307.31903076171875
z: -0.3202747702598572
visibility: 0.7983651757240295
","x: 348.55108642578125
y: 358.6410217285156
z: 0.019263243302702904
visibility: 0.9995470643043518
","x: 326.5091552734375
y: 359.4903564453125
z: -0.01937279663980007
visibility: 0.9992801547050476
","x: 357.49896240234375
y: 429.6658020019531
z: 0.012840266339480877
visibility: 0.9894558787345886
","x: 326.5866394042969
y: 437.5039978027344
z: -0.007532201707363129
visibility: 0.9834956526756287
","x: 364.5126953125
y: 500.8242492675781
z: 0.18399080634117126
visibility: 0.979983389377594
","x: 329.5818786621094
y: 503.0206298828125
z: 0.1586092710494995
visibility: 0.9765496850013733
","x: 361.0633239746094
y: 511.3775634765625
z: 0.1936074197292328
visibility: 0.8745900392532349
","x: 330.099853515625
y: 511.15185546875
z: 0.1685437709093094
visibility: 0.7812548875808716
","x: 372.8202819824219
y: 523.8776245117188
z: 0.06654688715934753
visibility: 0.9804749488830566
","x: 331.5744323730469
y: 525.6232299804688
z: 0.03998725861310959
visibility: 0.9699320793151855
","x: 328.6102294921875
y: 310.7564697265625
z: 0.0
","x: 329.37799072265625
y: 305.1680908203125
z: -0.0019855063874274492
","x: 331.1434631347656
y: 300.3186950683594
z: -0.00408175028860569
","x: 332.7532043457031
y: 297.8949279785156
z: -0.006468352396041155
","x: 334.2695007324219
y: 296.2441711425781
z: -0.008394955657422543
","x: 335.5505676269531
y: 302.00482177734375
z: -0.003557518357411027
","x: 336.2715759277344
y: 301.18023681640625
z: -0.007397368550300598
","x: 333.52667236328125
y: 301.6287841796875
z: -0.008605249226093292
","x: 331.3451843261719
y: 302.1492919921875
z: -0.008822855539619923
","x: 335.5989685058594
y: 306.7667541503906
z: -0.004660956095904112
","x: 335.84527587890625
y: 306.04669189453125
z: -0.008850271813571453
","x: 332.95623779296875
y: 305.8529968261719
z: -0.008910566568374634
","x: 330.79901123046875
y: 306.1261901855469
z: -0.008190276101231575
","x: 335.10223388671875
y: 311.3308410644531
z: -0.006156977266073227
","x: 334.9661865234375
y: 310.3937683105469
z: -0.009871375747025013
","x: 332.4193115234375
y: 309.82965087890625
z: -0.008508743718266487
","x: 330.65655517578125
y: 309.9917297363281
z: -0.006818728521466255
","x: 334.2735900878906
y: 315.6576232910156
z: -0.007985183969140053
","x: 334.3426513671875
y: 314.57989501953125
z: -0.010187553241848946
","x: 332.5487976074219
y: 313.87091064453125
z: -0.009269571863114834
","x: 331.2098388671875
y: 313.9228515625
z: -0.007971138693392277
",,,,,,,,,,,,,,,,,,,,,
5,"x: 343.13983154296875
y: 210.5419921875
z: -0.21272332966327667
visibility: 0.9995324611663818
","x: 345.7850646972656
y: 203.44789123535156
z: -0.19541795551776886
visibility: 0.9980664253234863
","x: 347.1365661621094
y: 203.8411865234375
z: -0.1954326629638672
visibility: 0.9980858564376831
","x: 348.49005126953125
y: 204.31634521484375
z: -0.19540321826934814
visibility: 0.998007595539093
","x: 341.5492248535156
y: 202.26210021972656
z: -0.20159825682640076
visibility: 0.9981894493103027
","x: 340.08648681640625
y: 201.78439331054688
z: -0.20163384079933167
visibility: 0.9982784390449524
","x: 338.591064453125
y: 201.34375
z: -0.20168817043304443
visibility: 0.9982282519340515
","x: 350.0654296875
y: 208.00433349609375
z: -0.08034513890743256
visibility: 0.9954471588134766
","x: 336.3271789550781
y: 203.4786834716797
z: -0.10855656862258911
visibility: 0.996502697467804
","x: 345.128173828125
y: 217.658203125
z: -0.16775615513324738
visibility: 0.999058723449707
","x: 340.57977294921875
y: 216.75387573242188
z: -0.17622846364974976
visibility: 0.999181866645813
","x: 359.5187683105469
y: 252.16331481933594
z: 0.0007586352294310927
visibility: 0.9996399283409119
","x: 320.751708984375
y: 246.62802124023438
z: -0.06539614498615265
visibility: 0.9997243881225586
","x: 359.458740234375
y: 306.7928771972656
z: 0.03072836436331272
visibility: 0.7195528149604797
","x: 317.2516784667969
y: 297.4613037109375
z: -0.17876121401786804
visibility: 0.9787960052490234
","x: 355.96026611328125
y: 344.0794372558594
z: -0.04909484460949898
visibility: 0.56944739818573
","x: 332.4879455566406
y: 275.53143310546875
z: -0.3810139298439026
visibility: 0.9138326644897461
","x: 355.5681457519531
y: 359.02850341796875
z: -0.06799948960542679
visibility: 0.49565088748931885
","x: 337.8486328125
y: 267.1478271484375
z: -0.42511487007141113
visibility: 0.8500670194625854
","x: 354.3138122558594
y: 356.25836181640625
z: -0.09095705300569534
visibility: 0.5169341564178467
","x: 337.3489074707031
y: 259.1769104003906
z: -0.4245416522026062
visibility: 0.8528286218643188
","x: 352.4852294921875
y: 350.3662109375
z: -0.059474993497133255
visibility: 0.5011559724807739
","x: 336.25689697265625
y: 261.831787109375
z: -0.3848050534725189
visibility: 0.810575008392334
","x: 352.60223388671875
y: 358.4347229003906
z: 0.018884073942899704
visibility: 0.9995487928390503
","x: 329.9466247558594
y: 359.4969482421875
z: -0.018988946452736855
visibility: 0.9992973208427429
","x: 360.653564453125
y: 429.96148681640625
z: -0.0016848926898092031
visibility: 0.9902376532554626
","x: 328.017822265625
y: 437.52325439453125
z: -0.004265967756509781
visibility: 0.9846158027648926
","x: 367.2924499511719
y: 501.9626159667969
z: 0.16827794909477234
visibility: 0.9816063642501831
","x: 329.3888244628906
y: 502.8483581542969
z: 0.1699853390455246
visibility: 0.9783119559288025
","x: 364.522216796875
y: 512.0020751953125
z: 0.17762985825538635
visibility: 0.8804414868354797
","x: 329.85552978515625
y: 511.0220642089844
z: 0.181736558675766
visibility: 0.7903967499732971
","x: 373.3544616699219
y: 524.9652709960938
z: 0.04611177369952202
visibility: 0.9817104935646057
","x: 331.3396301269531
y: 525.6099243164062
z: 0.05390641838312149
visibility: 0.9720401167869568
","x: 337.5926208496094
y: 273.7356262207031
z: 0.0
","x: 338.40167236328125
y: 264.78118896484375
z: 0.0012010722421109676
","x: 340.1246643066406
y: 256.7098388671875
z: -0.0003336340596433729
","x: 341.67041015625
y: 251.8130340576172
z: -0.0025518606416881084
","x: 342.7828369140625
y: 248.216796875
z: -0.004229138605296612
","x: 340.39013671875
y: 255.75283813476562
z: -0.005627626087516546
","x: 345.84136962890625
y: 250.84349060058594
z: -0.008822509087622166
","x: 344.361328125
y: 253.12261962890625
z: -0.008363237604498863
","x: 342.15338134765625
y: 254.93125915527344
z: -0.007458859588950872
","x: 341.1573791503906
y: 260.1911926269531
z: -0.008231858722865582
","x: 346.4130859375
y: 255.56072998046875
z: -0.011721955612301826
","x: 344.79302978515625
y: 257.328857421875
z: -0.00991374533623457
","x: 342.7831115722656
y: 259.2415466308594
z: -0.007940180599689484
","x: 341.9697570800781
y: 264.8948974609375
z: -0.010544068180024624
","x: 346.49713134765625
y: 260.71466064453125
z: -0.013169417157769203
","x: 344.9178161621094
y: 261.899169921875
z: -0.010021072812378407
","x: 343.1304931640625
y: 263.4609680175781
z: -0.007474299054592848
","x: 342.874755859375
y: 269.3759765625
z: -0.012820075266063213
","x: 345.9700622558594
y: 266.07293701171875
z: -0.014212783426046371
","x: 344.70147705078125
y: 266.719482421875
z: -0.01203178707510233
","x: 343.22979736328125
y: 268.01605224609375
z: -0.010010804980993271
",,,,,,,,,,,,,,,,,,,,,
6,"x: 343.13983154296875
y: 210.5419921875
z: -0.21272332966327667
visibility: 0.9995324611663818
","x: 345.7850646972656
y: 203.44789123535156
z: -0.19541795551776886
visibility: 0.9980664253234863
","x: 347.1365661621094
y: 203.8411865234375
z: -0.1954326629638672
visibility: 0.9980858564376831
","x: 348.49005126953125
y: 204.31634521484375
z: -0.19540321826934814
visibility: 0.998007595539093
","x: 341.5492248535156
y: 202.26210021972656
z: -0.20159825682640076
visibility: 0.9981894493103027
","x: 340.08648681640625
y: 201.78439331054688
z: -0.20163384079933167
visibility: 0.9982784390449524
","x: 338.591064453125
y: 201.34375
z: -0.20168817043304443
visibility: 0.9982282519340515
","x: 350.0654296875
y: 208.00433349609375
z: -0.08034513890743256
visibility: 0.9954471588134766
","x: 336.3271789550781
y: 203.4786834716797
z: -0.10855656862258911
visibility: 0.996502697467804
","x: 345.128173828125
y: 217.658203125
z: -0.16775615513324738
visibility: 0.999058723449707
","x: 340.57977294921875
y: 216.75387573242188
z: -0.17622846364974976
visibility: 0.999181866645813
","x: 359.5187683105469
y: 252.16331481933594
z: 0.0007586352294310927
visibility: 0.9996399283409119
","x: 320.751708984375
y: 246.62802124023438
z: -0.06539614498615265
visibility: 0.9997243881225586
","x: 359.458740234375
y: 306.7928771972656
z: 0.03072836436331272
visibility: 0.7195528149604797
","x: 317.2516784667969
y: 297.4613037109375
z: -0.17876121401786804
visibility: 0.9787960052490234
","x: 355.96026611328125
y: 344.0794372558594
z: -0.04909484460949898
visibility: 0.56944739818573
","x: 332.4879455566406
y: 275.53143310546875
z: -0.3810139298439026
visibility: 0.9138326644897461
","x: 355.5681457519531
y: 359.02850341796875
z: -0.06799948960542679
visibility: 0.49565088748931885
","x: 337.8486328125
y: 267.1478271484375
z: -0.42511487007141113
visibility: 0.8500670194625854
","x: 354.3138122558594
y: 356.25836181640625
z: -0.09095705300569534
visibility: 0.5169341564178467
","x: 337.3489074707031
y: 259.1769104003906
z: -0.4245416522026062
visibility: 0.8528286218643188
","x: 352.4852294921875
y: 350.3662109375
z: -0.059474993497133255
visibility: 0.5011559724807739
","x: 336.25689697265625
y: 261.831787109375
z: -0.3848050534725189
visibility: 0.810575008392334
","x: 352.60223388671875
y: 358.4347229003906
z: 0.018884073942899704
visibility: 0.9995487928390503
","x: 329.9466247558594
y: 359.4969482421875
z: -0.018988946452736855
visibility: 0.9992973208427429
","x: 360.653564453125
y: 429.96148681640625
z: -0.0016848926898092031
visibility: 0.9902376532554626
","x: 328.017822265625
y: 437.52325439453125
z: -0.004265967756509781
visibility: 0.9846158027648926
","x: 367.2924499511719
y: 501.9626159667969
z: 0.16827794909477234
visibility: 0.9816063642501831
","x: 329.3888244628906
y: 502.8483581542969
z: 0.1699853390455246
visibility: 0.9783119559288025
","x: 364.522216796875
y: 512.0020751953125
z: 0.17762985825538635
visibility: 0.8804414868354797
","x: 329.85552978515625
y: 511.0220642089844
z: 0.181736558675766
visibility: 0.7903967499732971
","x: 373.3544616699219
y: 524.9652709960938
z: 0.04611177369952202
visibility: 0.9817104935646057
","x: 331.3396301269531
y: 525.6099243164062
z: 0.05390641838312149
visibility: 0.9720401167869568
","x: 337.5926208496094
y: 273.7356262207031
z: 0.0
","x: 338.40167236328125
y: 264.78118896484375
z: 0.0012010722421109676
","x: 340.1246643066406
y: 256.7098388671875
z: -0.0003336340596433729
","x: 341.67041015625
y: 251.8130340576172
z: -0.0025518606416881084
","x: 342.7828369140625
y: 248.216796875
z: -0.004229138605296612
","x: 340.39013671875
y: 255.75283813476562
z: -0.005627626087516546
","x: 345.84136962890625
y: 250.84349060058594
z: -0.008822509087622166
","x: 344.361328125
y: 253.12261962890625
z: -0.008363237604498863
","x: 342.15338134765625
y: 254.93125915527344
z: -0.007458859588950872
","x: 341.1573791503906
y: 260.1911926269531
z: -0.008231858722865582
","x: 346.4130859375
y: 255.56072998046875
z: -0.011721955612301826
","x: 344.79302978515625
y: 257.328857421875
z: -0.00991374533623457
","x: 342.7831115722656
y: 259.2415466308594
z: -0.007940180599689484
","x: 341.9697570800781
y: 264.8948974609375
z: -0.010544068180024624
","x: 346.49713134765625
y: 260.71466064453125
z: -0.013169417157769203
","x: 344.9178161621094
y: 261.899169921875
z: -0.010021072812378407
","x: 343.1304931640625
y: 263.4609680175781
z: -0.007474299054592848
","x: 342.874755859375
y: 269.3759765625
z: -0.012820075266063213
","x: 345.9700622558594
y: 266.07293701171875
z: -0.014212783426046371
","x: 344.70147705078125
y: 266.719482421875
z: -0.01203178707510233
","x: 343.22979736328125
y: 268.01605224609375
z: -0.010010804980993271
",,,,,,,,,,,,,,,,,,,,,
7,"x: 351.5250549316406
y: 211.1779022216797
z: -0.21629536151885986
visibility: 0.9995694756507874
","x: 353.3127136230469
y: 203.65390014648438
z: -0.1979552060365677
visibility: 0.998235821723938
","x: 354.34832763671875
y: 203.9340362548828
z: -0.19793890416622162
visibility: 0.9982492923736572
","x: 355.28240966796875
y: 204.5699462890625
z: -0.19789649546146393
visibility: 0.9981797337532043
","x: 349.5760803222656
y: 202.89442443847656
z: -0.2092173993587494
visibility: 0.9983392953872681
","x: 348.06036376953125
y: 202.4079132080078
z: -0.20924720168113708
visibility: 0.9984220862388611
","x: 346.4788818359375
y: 201.98587036132812
z: -0.20927727222442627
visibility: 0.9983718395233154
","x: 355.74151611328125
y: 207.93405151367188
z: -0.0806976705789566
visibility: 0.9958541989326477
","x: 343.76141357421875
y: 203.68263244628906
z: -0.13139155507087708
visibility: 0.9967854022979736
","x: 352.8128662109375
y: 217.7790069580078
z: -0.1702573448419571
visibility: 0.9991382360458374
","x: 348.9248352050781
y: 218.03892517089844
z: -0.1853710114955902
visibility: 0.9992385506629944
","x: 365.9713439941406
y: 248.79953002929688
z: 0.004694937728345394
visibility: 0.9996702671051025
","x: 328.8531494140625
y: 245.4307403564453
z: -0.09587132185697556
visibility: 0.999702513217926
","x: 370.2509460449219
y: 306.68316650390625
z: 0.05434613302350044
visibility: 0.7448733448982239
","x: 334.9830627441406
y: 285.5222473144531
z: -0.27231454849243164
visibility: 0.9800131320953369
","x: 378.1385803222656
y: 345.2848815917969
z: 0.00583549914881587
visibility: 0.6103746294975281
","x: 348.1616516113281
y: 233.3785400390625
z: -0.45476585626602173
visibility: 0.9218103885650635
","x: 382.9580383300781
y: 359.81951904296875
z: -0.004411028232425451
visibility: 0.5408856868743896
","x: 351.5577392578125
y: 219.9234619140625
z: -0.5006770491600037
visibility: 0.8634206652641296
","x: 382.8878479003906
y: 358.7102966308594
z: -0.03177356719970703
visibility: 0.560418426990509
","x: 350.23419189453125
y: 216.84710693359375
z: -0.49858641624450684
visibility: 0.8657257556915283
","x: 380.7100830078125
y: 351.5538024902344
z: -0.005887581501156092
visibility: 0.545322060585022
","x: 349.27691650390625
y: 221.3968505859375
z: -0.45874840021133423
visibility: 0.8264246582984924
","x: 360.0403137207031
y: 358.4447937011719
z: 0.02357451058924198
visibility: 0.999584972858429
","x: 338.26885986328125
y: 359.4434814453125
z: -0.023718450218439102
visibility: 0.9993509650230408
","x: 365.0900573730469
y: 431.5194091796875
z: 0.025992941111326218
visibility: 0.9909824728965759
","x: 333.04986572265625
y: 436.4410400390625
z: 0.006435580551624298
visibility: 0.9856699705123901
","x: 367.8743896484375
y: 503.3604736328125
z: 0.1934937834739685
visibility: 0.9831735491752625
","x: 329.501708984375
y: 502.72283935546875
z: 0.19240465760231018
visibility: 0.9800155758857727
","x: 365.0978088378906
y: 512.7381591796875
z: 0.20324070751667023
visibility: 0.8880346417427063
","x: 329.9878234863281
y: 510.3876037597656
z: 0.2048809826374054
visibility: 0.8007891774177551
","x: 372.4893798828125
y: 525.2147216796875
z: 0.07744257152080536
visibility: 0.9830838441848755
","x: 331.33782958984375
y: 525.6152954101562
z: 0.08212906867265701
visibility: 0.9742098450660706
",,,,,,,,,,,,,,,,,,,,,,,,,,,,,,,,,,,,,,,,,,
8,"x: 358.6001892089844
y: 211.30197143554688
z: -0.22577878832817078
visibility: 0.999600887298584
","x: 359.9805908203125
y: 203.93540954589844
z: -0.20490248501300812
visibility: 0.9983842968940735
","x: 360.7969665527344
y: 204.20387268066406
z: -0.20487084984779358
visibility: 0.9983880519866943
","x: 361.5406494140625
y: 204.7275390625
z: -0.20483657717704773
visibility: 0.9983265995979309
","x: 356.6383361816406
y: 203.1229248046875
z: -0.21779784560203552
visibility: 0.9984754323959351
","x: 355.15594482421875
y: 202.621826171875
z: -0.21783462166786194
visibility: 0.9985535144805908
","x: 353.53399658203125
y: 202.18157958984375
z: -0.21785597503185272
visibility: 0.998503565788269
","x: 361.7969970703125
y: 207.90753173828125
z: -0.08326435834169388
visibility: 0.9961957931518555
","x: 350.1482849121094
y: 203.89427185058594
z: -0.14218367636203766
visibility: 0.9970462322235107
","x: 359.9687194824219
y: 218.11703491210938
z: -0.1790889948606491
visibility: 0.999199628829956
","x: 356.0972900390625
y: 218.1675567626953
z: -0.19636037945747375
visibility: 0.9992788434028625
","x: 370.6246337890625
y: 249.59356689453125
z: 0.008908521384000778
visibility: 0.9996893405914307
","x: 335.2125549316406
y: 244.28260803222656
z: -0.12923231720924377
visibility: 0.9996827840805054
","x: 380.8914489746094
y: 301.0150146484375
z: 0.062001071870326996
visibility: 0.7658636569976807
","x: 343.1981506347656
y: 279.16754150390625
z: -0.31271737813949585
visibility: 0.981316864490509
","x: 391.92816162109375
y: 342.99993896484375
z: 0.019014474004507065
visibility: 0.6463764905929565
","x: 354.595703125
y: 232.88259887695312
z: -0.49513834714889526
visibility: 0.9291548728942871
","x: 396.641845703125
y: 356.38232421875
z: 0.011038334108889103
visibility: 0.5799910426139832
","x: 356.87060546875
y: 220.45541381835938
z: -0.5420407652854919
visibility: 0.8758401870727539
","x: 396.69342041015625
y: 356.20892333984375
z: -0.016239166259765625
visibility: 0.5981451272964478
","x: 355.1796569824219
y: 217.18101501464844
z: -0.5395293831825256
visibility: 0.8777909278869629
","x: 394.3649597167969
y: 351.11474609375
z: 0.0069146170280873775
visibility: 0.5837028622627258
","x: 354.6511535644531
y: 221.0586395263672
z: -0.49906936287879944
visibility: 0.8414055109024048
","x: 366.196044921875
y: 357.9747314453125
z: 0.034620340913534164
visibility: 0.9996162056922913
","x: 344.992431640625
y: 358.1300048828125
z: -0.034759555011987686
visibility: 0.9994008541107178
","x: 369.2311706542969
y: 431.8052673339844
z: 0.040570903569459915
visibility: 0.9914177060127258
","x: 337.9996032714844
y: 433.4176330566406
z: -0.013369077816605568
visibility: 0.9865950345993042
","x: 368.194091796875
y: 503.795654296875
z: 0.19702567160129547
visibility: 0.9844119548797607
","x: 330.6573791503906
y: 502.1728515625
z: 0.1488971710205078
visibility: 0.9815571904182434
","x: 365.3757629394531
y: 513.8948974609375
z: 0.20579774677753448
visibility: 0.8946512341499329
","x: 331.5083312988281
y: 508.8836669921875
z: 0.15914300084114075
visibility: 0.8102332949638367
","x: 373.3279724121094
y: 525.7854614257812
z: 0.09158282727003098
visibility: 0.9841110110282898
","x: 331.39208984375
y: 525.1072387695312
z: 0.04029817134141922
visibility: 0.9761775135993958
",,,,,,,,,,,,,,,,,,,,,,,,,,,,,,,,,,,,,,,,,,
9,"x: 362.9370422363281
y: 212.019775390625
z: -0.24054285883903503
visibility: 0.9996323585510254
","x: 364.3531494140625
y: 204.29171752929688
z: -0.21906569600105286
visibility: 0.9985271692276001
","x: 365.1800231933594
y: 204.358642578125
z: -0.21902771294116974
visibility: 0.9985233545303345
","x: 365.8665771484375
y: 204.7816619873047
z: -0.21899418532848358
visibility: 0.9984697103500366
","x: 360.788330078125
y: 203.76898193359375
z: -0.23131708800792694
visibility: 0.9986094236373901
","x: 359.0892333984375
y: 203.20526123046875
z: -0.231352761387825
visibility: 0.9986810684204102
","x: 357.3493957519531
y: 202.7132568359375
z: -0.23137430846691132
visibility: 0.9986329078674316
","x: 365.868408203125
y: 208.0599365234375
z: -0.09233897179365158
visibility: 0.9965211749076843
","x: 353.6407470703125
y: 203.9832305908203
z: -0.1493200957775116
visibility: 0.9973065257072449
","x: 364.104248046875
y: 218.85958862304688
z: -0.1922079622745514
visibility: 0.9992567896842957
","x: 359.91766357421875
y: 219.70785522460938
z: -0.20848743617534637
visibility: 0.9993177652359009
","x: 373.759765625
y: 249.06832885742188
z: 0.00834826659411192
visibility: 0.9997097253799438
","x: 339.99029541015625
y: 243.4825439453125
z: -0.14517883956432343
visibility: 0.9996687173843384
","x: 386.37286376953125
y: 297.5722961425781
z: 0.06143411993980408
visibility: 0.7848905324935913
","x: 347.23724365234375
y: 279.77880859375
z: -0.323700487613678
visibility: 0.9827369451522827
","x: 399.79266357421875
y: 340.0440673828125
z: 0.011294150725007057
visibility: 0.6793652772903442
","x: 358.03204345703125
y: 235.00323486328125
z: -0.49578848481178284
visibility: 0.9357759952545166
","x: 405.1387023925781
y: 352.46600341796875
z: 0.0019955819007009268
visibility: 0.6165931820869446
","x: 360.6263427734375
y: 221.68984985351562
z: -0.5409348011016846
visibility: 0.8868647217750549
","x: 404.96087646484375
y: 352.85113525390625
z: -0.025722388178110123
visibility: 0.6334866881370544
","x: 358.91949462890625
y: 218.72845458984375
z: -0.5401707887649536
visibility: 0.8884844779968262
","x: 402.5666809082031
y: 348.98663330078125
z: -0.0012989129172638059
visibility: 0.6196212768554688
","x: 358.2627868652344
y: 222.5714874267578
z: -0.499946653842926
visibility: 0.8546794056892395
","x: 370.5675354003906
y: 356.6968994140625
z: 0.04100172594189644
visibility: 0.9996471405029297
","x: 350.7315979003906
y: 356.3424987792969
z: -0.04109974950551987
visibility: 0.9994468688964844
","x: 371.0607604980469
y: 431.16943359375
z: 0.01942286267876625
visibility: 0.9916092157363892
","x: 343.03057861328125
y: 431.2181091308594
z: -0.010167046450078487
visibility: 0.9871125817298889
","x: 368.22454833984375
y: 505.1733703613281
z: 0.1345030516386032
visibility: 0.9854690432548523
","x: 331.5482177734375
y: 499.7716064453125
z: 0.15155242383480072
visibility: 0.9825916886329651
","x: 364.69683837890625
y: 515.1918334960938
z: 0.13644534349441528
visibility: 0.9014391899108887
","x: 331.54248046875
y: 505.7142333984375
z: 0.1611669659614563
visibility: 0.81570965051651
","x: 373.6831970214844
y: 527.4117431640625
z: 0.021319029852747917
visibility: 0.9850391149520874
","x: 332.01068115234375
y: 524.74365234375
z: 0.04510829225182533
visibility: 0.9775881171226501
",,,,,,,,,,,,,,,,,,,,,,,,,,,,,,,,,,,,,,,,,,
10,"x: 367.3621826171875
y: 214.24295043945312
z: -0.2432679682970047
visibility: 0.9996576905250549
","x: 368.5182800292969
y: 206.3050994873047
z: -0.22239497303962708
visibility: 0.9986498951911926
","x: 369.3348693847656
y: 205.9873809814453
z: -0.222365140914917
visibility: 0.9986397624015808
","x: 370.0230712890625
y: 205.9639892578125
z: -0.2223307341337204
visibility: 0.9985910058021545
","x: 365.13330078125
y: 206.3434600830078
z: -0.23423393070697784
visibility: 0.9987223744392395
","x: 363.4748840332031
y: 205.78158569335938
z: -0.23427660763263702
visibility: 0.9987900853157043
","x: 361.70635986328125
y: 205.228271484375
z: -0.23430165648460388
visibility: 0.9987421631813049
","x: 369.8710632324219
y: 208.35687255859375
z: -0.09687106311321259
visibility: 0.9968096017837524
","x: 357.89593505859375
y: 205.67787170410156
z: -0.1507371962070465
visibility: 0.9975360035896301
","x: 368.5956115722656
y: 220.95147705078125
z: -0.19477060437202454
visibility: 0.9993101954460144
","x: 364.6757507324219
y: 222.39697265625
z: -0.2103850096464157
visibility: 0.9993528723716736
","x: 379.0301208496094
y: 249.09716796875
z: 0.003337600501254201
visibility: 0.9997295141220093
","x: 344.0011291503906
y: 243.76287841796875
z: -0.14766183495521545
visibility: 0.9996660947799683
","x: 387.59130859375
y: 298.8332214355469
z: 0.06288959085941315
visibility: 0.8001928925514221
","x: 352.82342529296875
y: 283.59765625
z: -0.3105660080909729
visibility: 0.9840608239173889
","x: 396.2455749511719
y: 340.2364501953125
z: 0.027508476749062538
visibility: 0.7069116234779358
","x: 363.8937072753906
y: 237.75457763671875
z: -0.46861258149147034
visibility: 0.9416835308074951
","x: 399.13238525390625
y: 355.1297607421875
z: 0.021483371034264565
visibility: 0.6457666158676147
","x: 366.0169677734375
y: 225.42050170898438
z: -0.5112060308456421
visibility: 0.8966879844665527
","x: 398.4825439453125
y: 354.92120361328125
z: -0.0035926387645304203
visibility: 0.6614583730697632
","x: 363.80499267578125
y: 222.49769592285156
z: -0.5097754001617432
visibility: 0.8979660272598267
","x: 396.9136047363281
y: 352.87725830078125
z: 0.017152054235339165
visibility: 0.6476467847824097
","x: 363.0279235839844
y: 226.1758575439453
z: -0.47180041670799255
visibility: 0.8663269877433777
","x: 375.96990966796875
y: 357.833251953125
z: 0.042961131781339645
visibility: 0.9996778964996338
","x: 355.8798522949219
y: 356.67724609375
z: -0.04303738847374916
visibility: 0.9994922280311584
","x: 375.1824951171875
y: 433.2426452636719
z: 0.012231766246259212
visibility: 0.9915401935577393
","x: 348.8393249511719
y: 431.9360046386719
z: -0.004926394671201706
visibility: 0.9876152873039246
","x: 368.68212890625
y: 505.31365966796875
z: 0.13782888650894165
visibility: 0.9862418174743652
","x: 335.2261962890625
y: 496.47332763671875
z: 0.17672815918922424
visibility: 0.9832423329353333
","x: 365.3205261230469
y: 515.1489868164062
z: 0.14353540539741516
visibility: 0.9079214334487915
","x: 334.58978271484375
y: 500.89337158203125
z: 0.18983261287212372
visibility: 0.8206166625022888
","x: 373.84619140625
y: 528.00146484375
z: 0.03169630840420723
visibility: 0.9857445955276489
","x: 333.2369079589844
y: 523.9336547851562
z: 0.09093545377254486
visibility: 0.9785267114639282
",,,,,,,,,,,,,,,,,,,,,,,,,,,,,,,,,,,,,,,,,,
11,"x: 367.89801025390625
y: 214.3118438720703
z: -0.2232222855091095
visibility: 0.9996536374092102
","x: 369.4723815917969
y: 206.37509155273438
z: -0.2019423544406891
visibility: 0.9987010359764099
","x: 370.52911376953125
y: 206.0449981689453
z: -0.20191772282123566
visibility: 0.9986684322357178
","x: 371.4855651855469
y: 205.9934844970703
z: -0.2019048035144806
visibility: 0.9986373782157898
","x: 365.6545104980469
y: 206.47723388671875
z: -0.21224454045295715
visibility: 0.998773455619812
","x: 364.1614074707031
y: 206.052490234375
z: -0.21229156851768494
visibility: 0.9988448023796082
","x: 362.68072509765625
y: 205.7216796875
z: -0.21236833930015564
visibility: 0.998799741268158
","x: 372.4356689453125
y: 208.49403381347656
z: -0.07553175091743469
visibility: 0.996925950050354
","x: 360.73138427734375
y: 207.46981811523438
z: -0.12049355357885361
visibility: 0.9976714849472046
","x: 370.15966796875
y: 221.23268127441406
z: -0.17452263832092285
visibility: 0.9993330240249634
","x: 365.81475830078125
y: 222.439453125
z: -0.1877032369375229
visibility: 0.9993491768836975
","x: 382.2237854003906
y: 249.27301025390625
z: 0.03129022195935249
visibility: 0.9997386932373047
","x: 347.6724853515625
y: 243.5251007080078
z: -0.1382262110710144
visibility: 0.9996465444564819
","x: 393.6838073730469
y: 295.13153076171875
z: 0.09534092992544174
visibility: 0.8059593439102173
","x: 347.45233154296875
y: 276.7528991699219
z: -0.31358760595321655
visibility: 0.9854521155357361
","x: 402.33489990234375
y: 332.6171569824219
z: 0.06626161932945251
visibility: 0.7249701023101807
","x: 363.0921936035156
y: 238.0732879638672
z: -0.48866719007492065
visibility: 0.9470783472061157
","x: 405.29425048828125
y: 346.0120849609375
z: 0.06258491426706314
visibility: 0.6623579859733582
","x: 366.5064697265625
y: 225.07810974121094
z: -0.5349022150039673
visibility: 0.9055383205413818
","x: 404.1763916015625
y: 347.30084228515625
z: 0.038673628121614456
visibility: 0.6775721311569214
","x: 365.6711120605469
y: 222.38055419921875
z: -0.5277600288391113
visibility: 0.9064316749572754
","x: 402.4420166015625
y: 343.8203430175781
z: 0.05649048089981079
visibility: 0.6622918844223022
","x: 364.8565979003906
y: 226.52972412109375
z: -0.48967212438583374
visibility: 0.87662672996521
","x: 376.6482238769531
y: 358.3692626953125
z: 0.04203305393457413
visibility: 0.9997084736824036
","x: 356.19989013671875
y: 356.10894775390625
z: -0.04205017536878586
visibility: 0.9995372891426086
","x: 377.9850158691406
y: 434.0016174316406
z: -0.041339121758937836
visibility: 0.9915691018104553
","x: 355.3230895996094
y: 425.9795837402344
z: 0.007613184861838818
visibility: 0.9875346422195435
","x: 369.1400451660156
y: 505.07977294921875
z: 0.08635003864765167
visibility: 0.9868718385696411
","x: 342.1341247558594
y: 488.12066650390625
z: 0.2839107811450958
visibility: 0.9811269044876099
","x: 365.8755187988281
y: 514.6781616210938
z: 0.09425273537635803
visibility: 0.9124470949172974
","x: 340.5099182128906
y: 491.3470458984375
z: 0.30782002210617065
visibility: 0.8116977214813232
","x: 372.55718994140625
y: 528.5491333007812
z: -0.0196220725774765
visibility: 0.9864336848258972
","x: 341.1182556152344
y: 518.0858154296875
z: 0.22319336235523224
visibility: 0.9777539968490601
",,,,,,,,,,,,,,,,,,,,,,,,,,,,,,,,,,,,,,,,,,
12,"x: 369.68646240234375
y: 208.7395477294922
z: -0.26684629917144775
visibility: 0.9996643662452698
","x: 371.2505187988281
y: 201.6162872314453
z: -0.24358251690864563
visibility: 0.9987763166427612
","x: 372.33721923828125
y: 201.6350555419922
z: -0.24358192086219788
visibility: 0.9987302422523499
","x: 373.32818603515625
y: 201.79705810546875
z: -0.24358704686164856
visibility: 0.9987025260925293
","x: 367.5017395019531
y: 201.37742614746094
z: -0.24983465671539307
visibility: 0.9988380670547485
","x: 366.0742492675781
y: 201.18467712402344
z: -0.24987530708312988
visibility: 0.9989054799079895
","x: 364.7236633300781
y: 201.0628662109375
z: -0.24993126094341278
visibility: 0.9988663196563721
","x: 373.7114562988281
y: 205.15708923339844
z: -0.10348568111658096
visibility: 0.997077226638794
","x: 362.1771545410156
y: 203.7460479736328
z: -0.13373607397079468
visibility: 0.9978296160697937
","x: 371.3465881347656
y: 216.67361450195312
z: -0.21532896161079407
visibility: 0.9993734359741211
","x: 366.9148864746094
y: 216.06361389160156
z: -0.22411397099494934
visibility: 0.9993928074836731
","x: 384.8682861328125
y: 246.87997436523438
z: -0.01607651636004448
visibility: 0.9997525811195374
","x: 346.7552795410156
y: 241.51573181152344
z: -0.12430878728628159
visibility: 0.9996448755264282
","x: 402.1878662109375
y: 278.9022521972656
z: -0.07826901227235794
visibility: 0.8224427700042725
","x: 330.97943115234375
y: 244.54766845703125
z: -0.2897236943244934
visibility: 0.9868181943893433
","x: 416.4544372558594
y: 299.06781005859375
z: -0.26308318972587585
visibility: 0.7488813400268555
","x: 354.401611328125
y: 224.1505126953125
z: -0.46681785583496094
visibility: 0.9518182873725891
","x: 420.65850830078125
y: 306.6546325683594
z: -0.2995602488517761
visibility: 0.6878367066383362
","x: 359.715087890625
y: 212.86532592773438
z: -0.5126909613609314
visibility: 0.9125596284866333
","x: 419.1200256347656
y: 307.50372314453125
z: -0.31509050726890564
visibility: 0.7022123336791992
","x: 360.7282409667969
y: 212.9635009765625
z: -0.5006549954414368
visibility: 0.9129812717437744
","x: 417.2269287109375
y: 305.9144287109375
z: -0.27439361810684204
visibility: 0.686676025390625
","x: 359.3695068359375
y: 217.8828582763672
z: -0.465625524520874
visibility: 0.8844731450080872
","x: 376.7700500488281
y: 355.8985900878906
z: 0.028551658615469933
visibility: 0.9997138381004333
","x: 356.00506591796875
y: 353.9727478027344
z: -0.02855953946709633
visibility: 0.999534547328949
","x: 377.0535583496094
y: 431.93585205078125
z: -0.03832188993692398
visibility: 0.9901561141014099
","x: 355.370849609375
y: 427.6813049316406
z: 0.00414911936968565
visibility: 0.9871222972869873
","x: 368.9361877441406
y: 504.640869140625
z: 0.1643885374069214
visibility: 0.9859903454780579
","x: 353.7486877441406
y: 488.7630615234375
z: 0.23677006363868713
visibility: 0.9804688692092896
","x: 366.00421142578125
y: 513.8059692382812
z: 0.1785162389278412
visibility: 0.9115514159202576
","x: 353.5560302734375
y: 494.53857421875
z: 0.25398775935173035
visibility: 0.8094354271888733
","x: 370.9828186035156
y: 528.385986328125
z: 0.05671376734972
visibility: 0.9856985211372375
","x: 356.0154724121094
y: 520.2843017578125
z: 0.18003423511981964
visibility: 0.9773662090301514
",,,,,,,,,,,,,,,,,,,,,,,,,,,,,,,,,,,,,,,,,,
13,"x: 369.5735778808594
y: 202.59515380859375
z: -0.24144987761974335
visibility: 0.9996894598007202
","x: 371.4992370605469
y: 195.50149536132812
z: -0.2192954272031784
visibility: 0.9988785982131958
","x: 372.8081359863281
y: 195.51512145996094
z: -0.21926060318946838
visibility: 0.9988275766372681
","x: 374.06170654296875
y: 195.57908630371094
z: -0.2192535698413849
visibility: 0.9988014698028564
","x: 367.3811950683594
y: 195.30618286132812
z: -0.22645170986652374
visibility: 0.9989378452301025
","x: 365.92364501953125
y: 195.12673950195312
z: -0.22648653388023376
visibility: 0.9989999532699585
","x: 364.5008850097656
y: 194.96826171875
z: -0.22653332352638245
visibility: 0.9989681243896484
","x: 374.9670715332031
y: 198.86061096191406
z: -0.08880124986171722
visibility: 0.9973008632659912
","x: 361.8564758300781
y: 198.27389526367188
z: -0.12409843504428864
visibility: 0.9980344176292419
","x: 371.7961730957031
y: 210.24984741210938
z: -0.19264629483222961
visibility: 0.9994258880615234
","x: 367.2661437988281
y: 209.54296875
z: -0.20282098650932312
visibility: 0.9994482398033142
","x: 385.8777770996094
y: 241.82162475585938
z: 0.0001245305174961686
visibility: 0.9997462630271912
","x: 348.2137756347656
y: 236.57290649414062
z: -0.1018739715218544
visibility: 0.9996655583381653
","x: 405.3170471191406
y: 265.87152099609375
z: -0.057790130376815796
visibility: 0.8365899920463562
","x: 324.6558837890625
y: 234.2931365966797
z: -0.2727220952510834
visibility: 0.9880924820899963
","x: 416.02752685546875
y: 262.5057678222656
z: -0.2202039211988449
visibility: 0.7701102495193481
","x: 347.4288024902344
y: 210.28353881835938
z: -0.4396553933620453
visibility: 0.9564045667648315
","x: 421.29791259765625
y: 264.81597900390625
z: -0.247980996966362
visibility: 0.7092435359954834
","x: 355.9075012207031
y: 202.093505859375
z: -0.48024457693099976
visibility: 0.920117199420929
","x: 420.5892333984375
y: 263.5081787109375
z: -0.2527777850627899
visibility: 0.7225087881088257
","x: 356.7904052734375
y: 203.97604370117188
z: -0.4719676077365875
visibility: 0.9203416705131531
","x: 417.2835388183594
y: 262.8139953613281
z: -0.22714801132678986
visibility: 0.7068105936050415
","x: 355.8188781738281
y: 207.92921447753906
z: -0.43823933601379395
visibility: 0.8939540982246399
","x: 378.5104064941406
y: 351.91607666015625
z: 0.02583431825041771
visibility: 0.9996833801269531
","x: 358.70196533203125
y: 350.2542724609375
z: -0.02591470442712307
visibility: 0.9995121359825134
","x: 377.0934753417969
y: 430.9415283203125
z: -0.00744836637750268
visibility: 0.9888582229614258
","x: 356.3894348144531
y: 428.5032653808594
z: -0.026993919163942337
visibility: 0.9865727424621582
","x: 369.58734130859375
y: 504.185546875
z: 0.1902143657207489
visibility: 0.9849117994308472
","x: 354.2117919921875
y: 493.9665222167969
z: 0.14869746565818787
visibility: 0.9795743227005005
","x: 367.1019287109375
y: 512.5083618164062
z: 0.20379063487052917
visibility: 0.9053952097892761
","x: 353.824951171875
y: 503.087890625
z: 0.16011978685855865
visibility: 0.8013394474983215
","x: 370.24908447265625
y: 528.3313598632812
z: 0.08565382659435272
visibility: 0.9845606684684753
","x: 357.0462646484375
y: 523.0181274414062
z: 0.036275383085012436
visibility: 0.9764364361763
",,,,,,,,,,,,,,,,,,,,,,,,,,,,,,,,,,,,,,,,,,
14,"x: 370.6452941894531
y: 203.9228973388672
z: -0.24127621948719025
visibility: 0.9997200965881348
","x: 372.6639404296875
y: 196.8677520751953
z: -0.21800439059734344
visibility: 0.998989462852478
","x: 373.6465148925781
y: 196.929443359375
z: -0.21792873740196228
visibility: 0.998942494392395
","x: 374.5775451660156
y: 197.006103515625
z: -0.21793317794799805
visibility: 0.9989188313484192
","x: 369.1527404785156
y: 196.0000762939453
z: -0.22835500538349152
visibility: 0.999043345451355
","x: 367.7651062011719
y: 195.36798095703125
z: -0.2283736914396286
visibility: 0.9990993142127991
","x: 366.3192138671875
y: 194.6818389892578
z: -0.2284175455570221
visibility: 0.9990708231925964
","x: 374.29888916015625
y: 199.24899291992188
z: -0.08087539672851562
visibility: 0.9975659251213074
","x: 362.6253662109375
y: 195.9290313720703
z: -0.13101878762245178
visibility: 0.9982302188873291
","x: 371.2784118652344
y: 210.88905334472656
z: -0.18976213037967682
visibility: 0.9994812607765198
","x: 367.79302978515625
y: 209.66015625
z: -0.2042074203491211
visibility: 0.9995022416114807
","x: 381.9669189453125
y: 241.44308471679688
z: 0.04849599674344063
visibility: 0.9997624158859253
","x: 347.65618896484375
y: 233.61306762695312
z: -0.10536815971136093
visibility: 0.9996943473815918
","x: 397.4578857421875
y: 267.2575988769531
z: 0.211687833070755
visibility: 0.8490562438964844
","x: 326.18194580078125
y: 244.8275909423828
z: -0.2781001329421997
visibility: 0.9892396926879883
","x: 415.2032775878906
y: 261.3348083496094
z: 0.2954992651939392
visibility: 0.7916737794876099
","x: 346.15887451171875
y: 213.70314025878906
z: -0.44919657707214355
visibility: 0.9606578946113586
","x: 420.7415771484375
y: 261.8252258300781
z: 0.31749218702316284
visibility: 0.7340704202651978
","x: 354.0740051269531
y: 203.0257568359375
z: -0.4862093925476074
visibility: 0.927528977394104
","x: 421.09979248046875
y: 259.48870849609375
z: 0.30006158351898193
visibility: 0.7464798092842102
","x: 354.2442626953125
y: 203.78944396972656
z: -0.47413912415504456
visibility: 0.9276678562164307
","x: 418.74212646484375
y: 260.36187744140625
z: 0.2911244034767151
visibility: 0.7316412925720215
","x: 353.4313659667969
y: 208.01202392578125
z: -0.44760528206825256
visibility: 0.9034135341644287
","x: 379.10638427734375
y: 349.7007751464844
z: 0.03539513424038887
visibility: 0.9996662735939026
","x: 359.8656921386719
y: 349.19866943359375
z: -0.035622384399175644
visibility: 0.9994900226593018
","x: 377.0408020019531
y: 430.49627685546875
z: -0.0026298831216990948
visibility: 0.9870153665542603
","x: 357.8568115234375
y: 429.07611083984375
z: -0.04249050095677376
visibility: 0.983178973197937
","x: 368.9706726074219
y: 504.1324157714844
z: 0.1835050880908966
visibility: 0.9832281470298767
","x: 352.78094482421875
y: 498.4437255859375
z: 0.10951121896505356
visibility: 0.9769842624664307
","x: 365.5390625
y: 512.7190551757812
z: 0.1872968226671219
visibility: 0.9034733772277832
","x: 351.6502990722656
y: 509.6085205078125
z: 0.1188528910279274
visibility: 0.7926260828971863
","x: 371.40960693359375
y: 528.4346313476562
z: 0.06918656080961227
visibility: 0.9836885333061218
","x: 358.6658020019531
y: 524.0787963867188
z: -0.0008761798962950706
visibility: 0.9751002192497253
",,,,,,,,,,,,,,,,,,,,,,,,,,,,,,,,,,,,,,,,,,
15,"x: 377.5401916503906
y: 229.06919860839844
z: -0.2527693212032318
visibility: 0.9997121095657349
","x: 379.638916015625
y: 221.39584350585938
z: -0.22995522618293762
visibility: 0.9990166425704956
","x: 380.858642578125
y: 221.6969451904297
z: -0.23000161349773407
visibility: 0.9989593029022217
","x: 382.02838134765625
y: 222.0398712158203
z: -0.2300611287355423
visibility: 0.9989258050918579
","x: 375.68218994140625
y: 220.20635986328125
z: -0.24567636847496033
visibility: 0.9990569949150085
","x: 374.0879821777344
y: 219.6491241455078
z: -0.24570195376873016
visibility: 0.9991025328636169
","x: 372.5927734375
y: 219.11390686035156
z: -0.2457229346036911
visibility: 0.9990533590316772
","x: 382.097900390625
y: 222.6705780029297
z: -0.08418415486812592
visibility: 0.997535765171051
","x: 369.38507080078125
y: 218.41302490234375
z: -0.1635838896036148
visibility: 0.9982524514198303
","x: 378.2314147949219
y: 236.47386169433594
z: -0.19735458493232727
visibility: 0.999270498752594
","x: 374.00201416015625
y: 235.33786010742188
z: -0.21944892406463623
visibility: 0.9993378520011902
","x: 385.6032409667969
y: 257.6682434082031
z: 0.030529504641890526
visibility: 0.9996203184127808
","x: 354.0502014160156
y: 258.8500671386719
z: -0.14432808756828308
visibility: 0.99955815076828
","x: 388.49969482421875
y: 309.7159118652344
z: 0.10832083225250244
visibility: 0.7791379690170288
","x: 353.0766296386719
y: 312.7990417480469
z: -0.22637856006622314
visibility: 0.9730390310287476
","x: 398.828369140625
y: 344.8238525390625
z: 0.06473575532436371
visibility: 0.7352111339569092
","x: 359.6671447753906
y: 309.5484619140625
z: -0.3647211790084839
visibility: 0.9290229082107544
","x: 404.2182922363281
y: 355.8041076660156
z: 0.05878043174743652
visibility: 0.6840527057647705
","x: 360.7210998535156
y: 310.068115234375
z: -0.39948946237564087
visibility: 0.8980427980422974
","x: 404.8918762207031
y: 355.99432373046875
z: 0.042102664709091187
visibility: 0.6973397135734558
","x: 356.8523864746094
y: 304.0643005371094
z: -0.4124782979488373
visibility: 0.8999974131584167
","x: 403.84039306640625
y: 351.4017028808594
z: 0.05662502720952034
visibility: 0.6834975481033325
","x: 356.89990234375
y: 303.73651123046875
z: -0.3728383183479309
visibility: 0.8724467754364014
","x: 379.292236328125
y: 366.175048828125
z: 0.06507207453250885
visibility: 0.9995676875114441
","x: 359.43695068359375
y: 369.1229248046875
z: -0.06512261182069778
visibility: 0.9992400407791138
","x: 386.900634765625
y: 437.88043212890625
z: 0.029105912894010544
visibility: 0.9795247316360474
","x: 366.9923400878906
y: 444.3426513671875
z: -0.05998389795422554
visibility: 0.9829786419868469
","x: 372.6232604980469
y: 506.0486145019531
z: 0.1679643988609314
visibility: 0.9797071814537048
","x: 355.2032165527344
y: 504.0775146484375
z: 0.11343343555927277
visibility: 0.9766736030578613
","x: 366.8102722167969
y: 516.126220703125
z: 0.1756814569234848
visibility: 0.9031781554222107
","x: 352.1579895019531
y: 515.644287109375
z: 0.12606002390384674
visibility: 0.7953028082847595
","x: 384.7323303222656
y: 529.2826538085938
z: 0.08371177315711975
visibility: 0.9812196493148804
","x: 365.9411315917969
y: 526.1583251953125
z: 0.031102046370506287
visibility: 0.9743154048919678
",,,,,,,,,,,,,,,,,,,,,,,,,,,,,,,,,,,,,,,,,,
16,"x: 396.4866943359375
y: 322.07379150390625
z: -0.2811673879623413
visibility: 0.9996047019958496
","x: 398.7435302734375
y: 313.9180603027344
z: -0.2585631310939789
visibility: 0.9988787174224854
","x: 399.4538879394531
y: 313.87200927734375
z: -0.25855839252471924
visibility: 0.9986979365348816
","x: 400.174560546875
y: 313.7276306152344
z: -0.2586337625980377
visibility: 0.998622477054596
","x: 395.6072082519531
y: 311.9217834472656
z: -0.28453385829925537
visibility: 0.9990522265434265
","x: 394.030517578125
y: 310.445068359375
z: -0.2846090793609619
visibility: 0.9991078972816467
","x: 392.3934326171875
y: 308.8200988769531
z: -0.2847086191177368
visibility: 0.9990894794464111
","x: 396.5013122558594
y: 310.73382568359375
z: -0.13535577058792114
visibility: 0.9969773292541504
","x: 386.87646484375
y: 305.6915283203125
z: -0.25469136238098145
visibility: 0.9983750581741333
","x: 394.5184326171875
y: 327.5911865234375
z: -0.2326357364654541
visibility: 0.9984542727470398
","x: 391.2842102050781
y: 325.6979675292969
z: -0.26748448610305786
visibility: 0.9992802739143372
","x: 387.1150817871094
y: 326.896484375
z: 0.02336597815155983
visibility: 0.9987730979919434
","x: 361.93670654296875
y: 331.7191162109375
z: -0.24814817309379578
visibility: 0.9995713829994202
","x: 388.1471252441406
y: 346.69000244140625
z: 0.17219673097133636
visibility: 0.708347737789154
","x: 347.042236328125
y: 386.4297790527344
z: -0.287983775138855
visibility: 0.9751780033111572
","x: 398.37762451171875
y: 351.17724609375
z: 0.22653146088123322
visibility: 0.6723694205284119
","x: 368.4530334472656
y: 407.7160339355469
z: -0.3246230483055115
visibility: 0.9341458082199097
","x: 401.3297424316406
y: 353.00592041015625
z: 0.24513189494609833
visibility: 0.6279093623161316
","x: 373.65985107421875
y: 416.3015441894531
z: -0.34943121671676636
visibility: 0.9037737250328064
","x: 403.8847961425781
y: 351.9567565917969
z: 0.22674918174743652
visibility: 0.6403986215591431
","x: 375.5982360839844
y: 411.295166015625
z: -0.3467223644256592
visibility: 0.9057646989822388
","x: 403.3171691894531
y: 352.2938537597656
z: 0.2204401046037674
visibility: 0.6285231113433838
","x: 373.4327392578125
y: 407.42626953125
z: -0.32069820165634155
visibility: 0.8772550821304321
","x: 378.8349609375
y: 420.2456970214844
z: 0.08375198394060135
visibility: 0.999556303024292
","x: 356.7290954589844
y: 424.1625671386719
z: -0.08370644599199295
visibility: 0.9992324113845825
","x: 396.8077087402344
y: 446.6312255859375
z: -0.06886521726846695
visibility: 0.9693830013275146
","x: 378.4454040527344
y: 463.0597229003906
z: -0.2199132740497589
visibility: 0.9825692176818848
","x: 373.02105712890625
y: 504.48956298828125
z: 0.055582381784915924
visibility: 0.9658516049385071
","x: 360.80841064453125
y: 508.3663635253906
z: -0.04174378886818886
visibility: 0.973206102848053
","x: 366.9978942871094
y: 511.4742736816406
z: 0.0661703422665596
visibility: 0.8977126479148865
","x: 353.86669921875
y: 518.7662353515625
z: -0.023369397968053818
visibility: 0.7982810735702515
","x: 386.12750244140625
y: 527.140625
z: 0.028570180758833885
visibility: 0.971697986125946
","x: 375.6331481933594
y: 528.3495483398438
z: -0.06841705739498138
visibility: 0.9708748459815979
",,,,,,,,,,,,,,,,,,,,,,,,,,,,,,,,,,,,,,,,,,
17,"x: 400.238525390625
y: 368.777587890625
z: -0.15265986323356628
visibility: 0.9994416832923889
","x: 401.93719482421875
y: 360.861083984375
z: -0.14389654994010925
visibility: 0.9987701773643494
","x: 402.11993408203125
y: 360.27569580078125
z: -0.14391574263572693
visibility: 0.9985851049423218
","x: 402.3307800292969
y: 359.55560302734375
z: -0.1439257562160492
visibility: 0.9985522031784058
","x: 400.56207275390625
y: 360.1889343261719
z: -0.17575368285179138
visibility: 0.9989563226699829
","x: 399.6634826660156
y: 359.1990966796875
z: -0.17587697505950928
visibility: 0.9990167617797852
","x: 398.6972351074219
y: 358.10626220703125
z: -0.17597666382789612
visibility: 0.9989928007125854
","x: 397.5025939941406
y: 352.40545654296875
z: -0.08637091517448425
visibility: 0.9970424771308899
","x: 392.6983642578125
y: 352.2445068359375
z: -0.22582170367240906
visibility: 0.9982451796531677
","x: 397.3444519042969
y: 372.775146484375
z: -0.12670312821865082
visibility: 0.9980209469795227
","x: 395.6860656738281
y: 371.7085266113281
z: -0.17010316252708435
visibility: 0.998938262462616
","x: 386.3059997558594
y: 360.8050842285156
z: 0.017135467380285263
visibility: 0.9987655282020569
","x: 366.8891906738281
y: 374.9780578613281
z: -0.24785704910755157
visibility: 0.9994585514068604
","x: 379.4647216796875
y: 401.7019348144531
z: 0.12749262154102325
visibility: 0.6430945992469788
","x: 360.3771667480469
y: 418.0334167480469
z: -0.33116260170936584
visibility: 0.9591277241706848
","x: 388.134521484375
y: 430.9796447753906
z: 0.13131962716579437
visibility: 0.614902913570404
","x: 373.0505676269531
y: 401.2478332519531
z: -0.35642164945602417
visibility: 0.9220190048217773
","x: 390.9808349609375
y: 440.1054382324219
z: 0.14260932803153992
visibility: 0.5782139301300049
","x: 376.816650390625
y: 398.83282470703125
z: -0.3942224085330963
visibility: 0.8923751711845398
","x: 391.9442138671875
y: 438.3241271972656
z: 0.12101827561855316
visibility: 0.5907495021820068
","x: 376.53497314453125
y: 389.9568176269531
z: -0.39155152440071106
visibility: 0.8956058621406555
","x: 390.4833984375
y: 435.04132080078125
z: 0.12349877506494522
visibility: 0.5805804133415222
","x: 375.07135009765625
y: 390.6286315917969
z: -0.36057502031326294
visibility: 0.8596945405006409
","x: 368.7823791503906
y: 446.1152648925781
z: 0.09176130592823029
visibility: 0.9995825886726379
","x: 355.5398864746094
y: 457.0406799316406
z: -0.09168832004070282
visibility: 0.9992803931236267
","x: 399.1134338378906
y: 447.3994140625
z: 0.06798644363880157
visibility: 0.9467167258262634
","x: 385.27105712890625
y: 464.7113037109375
z: -0.17640551924705505
visibility: 0.9813440442085266
","x: 373.0695495605469
y: 500.8639831542969
z: 0.16924871504306793
visibility: 0.9377651214599609
","x: 359.8885498046875
y: 509.22723388671875
z: 0.017952563241124153
visibility: 0.9620230793952942
","x: 369.9994812011719
y: 510.8749694824219
z: 0.17926514148712158
visibility: 0.87718665599823
","x: 351.7804260253906
y: 517.2664184570312
z: 0.04020247980952263
visibility: 0.7961128950119019
","x: 385.6234130859375
y: 523.031005859375
z: 0.18305131793022156
visibility: 0.9480472803115845
","x: 370.98724365234375
y: 532.14306640625
z: 0.03668026998639107
visibility: 0.9569366574287415
",,,,,,,,,,,,,,,,,,,,,,,,,,,,,,,,,,,,,,,,,,
18,"x: 402.3331298828125
y: 383.0731201171875
z: -0.2840593457221985
visibility: 0.9994697570800781
","x: 403.65728759765625
y: 374.83270263671875
z: -0.2698665261268616
visibility: 0.9988723993301392
","x: 404.12042236328125
y: 374.0936584472656
z: -0.2698475420475006
visibility: 0.998699426651001
","x: 404.5772705078125
y: 373.2178955078125
z: -0.269893616437912
visibility: 0.9986702799797058
","x: 401.207275390625
y: 374.9383544921875
z: -0.2989449203014374
visibility: 0.9990506768226624
","x: 399.74267578125
y: 374.29986572265625
z: -0.2990800738334656
visibility: 0.9991062879562378
","x: 398.136474609375
y: 373.58624267578125
z: -0.29918593168258667
visibility: 0.9990859031677246
","x: 400.6145324707031
y: 368.5966796875
z: -0.1805795580148697
visibility: 0.9973068833351135
","x: 392.0171813964844
y: 371.00958251953125
z: -0.3071189522743225
visibility: 0.9984151124954224
","x: 400.96917724609375
y: 388.14508056640625
z: -0.24742074310779572
visibility: 0.9981463551521301
","x: 398.16156005859375
y: 388.17498779296875
z: -0.28557345271110535
visibility: 0.999013364315033
","x: 384.736083984375
y: 383.6672668457031
z: -0.04840421304106712
visibility: 0.9987742304801941
","x: 369.97833251953125
y: 398.68963623046875
z: -0.3109280467033386
visibility: 0.999487578868866
","x: 378.356201171875
y: 411.55169677734375
z: 0.12838967144489288
visibility: 0.5815269351005554
","x: 351.8594970703125
y: 450.109375
z: -0.36669957637786865
visibility: 0.9567465782165527
","x: 387.45733642578125
y: 418.3320617675781
z: 0.20025129616260529
visibility: 0.5590803623199463
","x: 370.3493347167969
y: 461.20660400390625
z: -0.39402422308921814
visibility: 0.9142971634864807
","x: 388.1559753417969
y: 426.6451721191406
z: 0.22431199252605438
visibility: 0.530249834060669
","x: 374.56170654296875
y: 465.885009765625
z: -0.4225124716758728
visibility: 0.8833252191543579
","x: 390.31622314453125
y: 424.571044921875
z: 0.20034918189048767
visibility: 0.5424944758415222
","x: 376.6773376464844
y: 455.4275817871094
z: -0.422637403011322
visibility: 0.8876979947090149
","x: 389.1316223144531
y: 424.0703125
z: 0.19368216395378113
visibility: 0.5336598753929138
","x: 375.10321044921875
y: 452.6548767089844
z: -0.3933893144130707
visibility: 0.8409128189086914
","x: 369.08001708984375
y: 461.4796447753906
z: 0.08308111131191254
visibility: 0.9996113777160645
","x: 355.1573181152344
y: 472.549560546875
z: -0.08315831422805786
visibility: 0.9993387460708618
","x: 395.2795715332031
y: 449.0823669433594
z: 0.006402165628969669
visibility: 0.917266309261322
","x: 384.2941589355469
y: 467.5761413574219
z: -0.2326633185148239
visibility: 0.9807209372520447
","x: 372.1866455078125
y: 500.1899719238281
z: 0.12475346028804779
visibility: 0.8922775387763977
","x: 360.208251953125
y: 510.1583557128906
z: -0.013344237580895424
visibility: 0.9323905110359192
","x: 368.6182861328125
y: 506.46612548828125
z: 0.13634148240089417
visibility: 0.8445169925689697
","x: 353.5290832519531
y: 516.8150634765625
z: 0.01117935311049223
visibility: 0.7764768004417419
","x: 380.2458190917969
y: 518.923095703125
z: 0.1232876405119896
visibility: 0.9036818146705627
","x: 366.5044860839844
y: 532.709228515625
z: 0.02126174420118332
visibility: 0.9237315654754639
",,,,,,,,,,,,,,,,,,,,,,,,,,,,,,,,,,,,,,,,,,
19,"x: 400.3486633300781
y: 362.5331115722656
z: -0.36167487502098083
visibility: 0.9995028376579285
","x: 402.2026062011719
y: 354.19775390625
z: -0.33988749980926514
visibility: 0.9989473819732666
","x: 403.1966552734375
y: 353.8923645019531
z: -0.3398837149143219
visibility: 0.9987762570381165
","x: 404.1363830566406
y: 353.5968017578125
z: -0.339972585439682
visibility: 0.9987447261810303
","x: 398.42803955078125
y: 354.35858154296875
z: -0.3602162301540375
visibility: 0.999121904373169
","x: 396.650146484375
y: 354.238525390625
z: -0.3602655529975891
visibility: 0.9991729855537415
","x: 394.68756103515625
y: 354.15826416015625
z: -0.3603225350379944
visibility: 0.9991572499275208
","x: 402.25372314453125
y: 353.88232421875
z: -0.21118636429309845
visibility: 0.9974852204322815
","x: 389.0052185058594
y: 354.64422607421875
z: -0.30302852392196655
visibility: 0.9985522031784058
","x: 400.853515625
y: 369.2602233886719
z: -0.311367392539978
visibility: 0.9982923269271851
","x: 396.49749755859375
y: 370.47900390625
z: -0.3380691111087799
visibility: 0.9990935325622559
","x: 397.36334228515625
y: 373.11993408203125
z: -0.06354176253080368
visibility: 0.9988623261451721
","x: 369.9341735839844
y: 381.19183349609375
z: -0.26949241757392883
visibility: 0.9993370175361633
","x: 409.14422607421875
y: 391.7046813964844
z: 0.11895731836557388
visibility: 0.6035608649253845
","x: 349.7116394042969
y: 434.99749755859375
z: -0.34634336829185486
visibility: 0.9584142565727234
","x: 420.93017578125
y: 410.0852966308594
z: 0.1561746597290039
visibility: 0.595176637172699
","x: 365.7611083984375
y: 451.2667236328125
z: -0.4248017370700836
visibility: 0.9159823060035706
","x: 425.9041748046875
y: 415.97796630859375
z: 0.17295946180820465
visibility: 0.5686277151107788
","x: 370.00299072265625
y: 460.0501708984375
z: -0.45254579186439514
visibility: 0.8831416964530945
","x: 424.27667236328125
y: 417.76312255859375
z: 0.14796866476535797
visibility: 0.5814028382301331
","x: 371.50885009765625
y: 454.5250244140625
z: -0.460381418466568
visibility: 0.887878954410553
","x: 421.3282470703125
y: 415.85614013671875
z: 0.14906561374664307
visibility: 0.5734128952026367
","x: 370.4493408203125
y: 451.55963134765625
z: -0.42698344588279724
visibility: 0.8405296206474304
","x: 374.87841796875
y: 452.57867431640625
z: 0.0821835845708847
visibility: 0.99961918592453
","x: 358.2480773925781
y: 454.1473693847656
z: -0.08190210163593292
visibility: 0.9992015957832336
","x: 394.1924743652344
y: 448.1759033203125
z: -0.1665375828742981
visibility: 0.9185963273048401
","x: 381.570068359375
y: 460.9227294921875
z: -0.28002864122390747
visibility: 0.9789575934410095
","x: 372.3146667480469
y: 500.76165771484375
z: -0.021092846989631653
visibility: 0.8914130330085754
","x: 359.96490478515625
y: 509.4331359863281
z: -0.09579949080944061
visibility: 0.9269729852676392
","x: 368.9997863769531
y: 507.0257873535156
z: -0.00887745339423418
visibility: 0.8466607332229614
","x: 354.9347229003906
y: 516.2723388671875
z: -0.07751232385635376
visibility: 0.7771380543708801
","x: 383.08624267578125
y: 520.2815551757812
z: -0.07139725983142853
visibility: 0.9053055047988892
","x: 367.9629821777344
y: 532.1765747070312
z: -0.14305336773395538
visibility: 0.9215307831764221
",,,,,,,,,,,,,,,,,,,,,,,,,,,,,,,,,,,,,,,,,,
20,"x: 399.1892395019531
y: 349.7957763671875
z: -0.2506774365901947
visibility: 0.9995076656341553
","x: 400.69268798828125
y: 341.029541015625
z: -0.2291422188282013
visibility: 0.9989739656448364
","x: 401.3039245605469
y: 340.94305419921875
z: -0.2292497158050537
visibility: 0.9988235235214233
","x: 401.85516357421875
y: 340.8072509765625
z: -0.229402095079422
visibility: 0.998791515827179
","x: 397.39129638671875
y: 340.52569580078125
z: -0.25506430864334106
visibility: 0.9991310238838196
","x: 395.5727233886719
y: 340.161376953125
z: -0.255097359418869
visibility: 0.9991821050643921
","x: 393.6488952636719
y: 339.79473876953125
z: -0.2551238536834717
visibility: 0.9991486668586731
","x: 398.40289306640625
y: 339.9469299316406
z: -0.11764781177043915
visibility: 0.9976375699043274
","x: 387.8044738769531
y: 338.9443359375
z: -0.2443746030330658
visibility: 0.9986258745193481
","x: 398.1547546386719
y: 356.1996154785156
z: -0.207230806350708
visibility: 0.9984027743339539
","x: 394.0625915527344
y: 356.6396789550781
z: -0.24198587238788605
visibility: 0.9991474747657776
","x: 396.85577392578125
y: 365.69940185546875
z: -0.016541700810194016
visibility: 0.9989648461341858
","x: 366.0332336425781
y: 363.8743591308594
z: -0.253101646900177
visibility: 0.9992402195930481
","x: 410.6973876953125
y: 393.717041015625
z: 0.06039741635322571
visibility: 0.6403466463088989
","x: 352.42962646484375
y: 417.16180419921875
z: -0.2886306643486023
visibility: 0.9601702690124512
","x: 430.5898132324219
y: 394.519775390625
z: 0.0004687521141022444
visibility: 0.6344935894012451
","x: 367.6841125488281
y: 437.2276306152344
z: -0.3643960952758789
visibility: 0.920498251914978
","x: 437.3353271484375
y: 397.5747375488281
z: -0.01000016275793314
visibility: 0.6092165112495422
","x: 370.5083923339844
y: 445.658935546875
z: -0.39685073494911194
visibility: 0.8887233138084412
","x: 436.5340576171875
y: 396.4537353515625
z: -0.03221019729971886
visibility: 0.621157169342041
","x: 373.9090881347656
y: 438.7634582519531
z: -0.4088277220726013
visibility: 0.8934246301651001
","x: 433.686767578125
y: 395.447998046875
z: -0.011074649170041084
visibility: 0.613815188407898
","x: 373.3548583984375
y: 435.7889404296875
z: -0.3693004846572876
visibility: 0.8468445539474487
","x: 373.94036865234375
y: 437.0736083984375
z: 0.07526811212301254
visibility: 0.9996452331542969
","x: 354.6523742675781
y: 435.9412841796875
z: -0.07515775412321091
visibility: 0.9992284178733826
","x: 395.3749084472656
y: 451.660888671875
z: -0.14062118530273438
visibility: 0.9213369488716125
","x: 377.8354797363281
y: 460.22906494140625
z: -0.2891327738761902
visibility: 0.9798606634140015
","x: 373.7267761230469
y: 501.9596862792969
z: 0.0052678873762488365
visibility: 0.8940343260765076
","x: 358.5769958496094
y: 509.1740417480469
z: -0.11196845769882202
visibility: 0.9320253729820251
","x: 370.0516357421875
y: 508.1790771484375
z: 0.01712362840771675
visibility: 0.8552190661430359
","x: 353.556396484375
y: 516.0384521484375
z: -0.09613459557294846
visibility: 0.7918082475662231
","x: 385.4444274902344
y: 522.4193115234375
z: -0.03980058804154396
visibility: 0.9085826277732849
","x: 365.9998474121094
y: 531.6205444335938
z: -0.16830751299858093
visibility: 0.9266220927238464
",,,,,,,,,,,,,,,,,,,,,,,,,,,,,,,,,,,,,,,,,,
21,"x: 394.7884826660156
y: 296.58502197265625
z: -0.379722535610199
visibility: 0.9995332360267639
","x: 396.9921569824219
y: 285.7886962890625
z: -0.36111870408058167
visibility: 0.9989938139915466
","x: 397.95587158203125
y: 286.3077392578125
z: -0.3611946403980255
visibility: 0.9988650679588318
","x: 398.8501281738281
y: 286.710693359375
z: -0.36128169298171997
visibility: 0.998816728591919
","x: 393.2825622558594
y: 284.6572265625
z: -0.3756105303764343
visibility: 0.9991427063941956
","x: 391.5870056152344
y: 284.4371643066406
z: -0.37571460008621216
visibility: 0.9991999864578247
","x: 389.777587890625
y: 284.0200500488281
z: -0.3757827579975128
visibility: 0.9991692304611206
","x: 397.7767333984375
y: 289.252685546875
z: -0.23979055881500244
visibility: 0.9977378249168396
","x: 384.588623046875
y: 285.0465087890625
z: -0.30522510409355164
visibility: 0.9987304210662842
","x: 394.9325866699219
y: 304.274169921875
z: -0.3313499391078949
visibility: 0.9985378980636597
","x: 390.2887878417969
y: 304.4283447265625
z: -0.3504268527030945
visibility: 0.9992228150367737
","x: 399.37933349609375
y: 333.73492431640625
z: -0.12410620599985123
visibility: 0.9990241527557373
","x: 363.9153137207031
y: 311.6261901855469
z: -0.2691585123538971
visibility: 0.9993128776550293
","x: 405.34979248046875
y: 374.7176818847656
z: -0.15384541451931
visibility: 0.6484930515289307
","x: 361.4700622558594
y: 364.1955261230469
z: -0.3225969076156616
visibility: 0.9635558724403381
","x: 391.5660095214844
y: 396.3594970703125
z: -0.3112744987010956
visibility: 0.607124388217926
","x: 378.7008056640625
y: 403.8441467285156
z: -0.4071663022041321
visibility: 0.9257065057754517
","x: 387.8571472167969
y: 406.734375
z: -0.3478879928588867
visibility: 0.5822539329528809
","x: 380.9186096191406
y: 402.73577880859375
z: -0.44884783029556274
visibility: 0.8950493335723877
","x: 388.337158203125
y: 401.1617431640625
z: -0.3638239800930023
visibility: 0.5923282504081726
","x: 384.7991943359375
y: 396.8582458496094
z: -0.4536714553833008
visibility: 0.8989037275314331
","x: 387.6156921386719
y: 398.4838562011719
z: -0.3229382634162903
visibility: 0.5836318135261536
","x: 383.96624755859375
y: 395.93572998046875
z: -0.40996116399765015
visibility: 0.851957380771637
","x: 374.7384948730469
y: 397.35040283203125
z: 0.04727558419108391
visibility: 0.9996353387832642
","x: 353.7942810058594
y: 387.8406066894531
z: -0.047153621912002563
visibility: 0.9992780685424805
","x: 397.54595947265625
y: 431.0061340332031
z: -0.17164000868797302
visibility: 0.9281489849090576
","x: 353.4658203125
y: 442.20477294921875
z: -0.2809300124645233
visibility: 0.9814594388008118
","x: 398.218994140625
y: 502.14971923828125
z: -0.028974229469895363
visibility: 0.9031792283058167
","x: 336.4012451171875
y: 507.98284912109375
z: -0.1455356329679489
visibility: 0.9383818507194519
","x: 392.9032897949219
y: 514.026123046875
z: -0.020054446533322334
visibility: 0.8665249347686768
","x: 336.0030822753906
y: 514.5787963867188
z: -0.13789759576320648
visibility: 0.8060609698295593
","x: 412.7071838378906
y: 522.6853637695312
z: -0.1145012155175209
visibility: 0.9154127240180969
","x: 332.13800048828125
y: 531.4288940429688
z: -0.2714117765426636
visibility: 0.9327333569526672
","x: 380.24053955078125
y: 391.3412170410156
z: 0.0
","x: 384.8824462890625
y: 390.24713134765625
z: 0.0012025503674522042
","x: 387.71063232421875
y: 388.43536376953125
z: 4.2400155507493764e-05
","x: 389.41949462890625
y: 387.428466796875
z: -0.0021396635565906763
","x: 389.9969177246094
y: 385.9933776855469
z: -0.00418840954080224
","x: 387.08575439453125
y: 379.5061950683594
z: -0.0007887420360930264
","x: 388.7548522949219
y: 376.27947998046875
z: -0.004389222711324692
","x: 390.6510009765625
y: 377.4592590332031
z: -0.006741129793226719
","x: 391.9239501953125
y: 379.3133850097656
z: -0.007988366298377514
","x: 385.51678466796875
y: 379.5166015625
z: -0.003740256652235985
","x: 386.9677429199219
y: 376.7480163574219
z: -0.007654092740267515
","x: 388.7674560546875
y: 379.5098876953125
z: -0.008962394669651985
","x: 389.6146240234375
y: 382.5340576171875
z: -0.009466486051678658
","x: 383.8481750488281
y: 380.76190185546875
z: -0.006886922754347324
","x: 385.32098388671875
y: 378.6454772949219
z: -0.010221028700470924
","x: 387.1305847167969
y: 381.3789367675781
z: -0.010009394027292728
","x: 387.9801025390625
y: 384.42803955078125
z: -0.009462685324251652
","x: 382.26953125
y: 383.10430908203125
z: -0.010131512768566608
","x: 383.6190490722656
y: 381.31329345703125
z: -0.012476475909352303
","x: 385.11895751953125
y: 382.6319580078125
z: -0.012154904194176197
","x: 385.92181396484375
y: 384.5657043457031
z: -0.011587660759687424
",,,,,,,,,,,,,,,,,,,,,
22,"x: 394.7884826660156
y: 296.58502197265625
z: -0.379722535610199
visibility: 0.9995332360267639
","x: 396.9921569824219
y: 285.7886962890625
z: -0.36111870408058167
visibility: 0.9989938139915466
","x: 397.95587158203125
y: 286.3077392578125
z: -0.3611946403980255
visibility: 0.9988650679588318
","x: 398.8501281738281
y: 286.710693359375
z: -0.36128169298171997
visibility: 0.998816728591919
","x: 393.2825622558594
y: 284.6572265625
z: -0.3756105303764343
visibility: 0.9991427063941956
","x: 391.5870056152344
y: 284.4371643066406
z: -0.37571460008621216
visibility: 0.9991999864578247
","x: 389.777587890625
y: 284.0200500488281
z: -0.3757827579975128
visibility: 0.9991692304611206
","x: 397.7767333984375
y: 289.252685546875
z: -0.23979055881500244
visibility: 0.9977378249168396
","x: 384.588623046875
y: 285.0465087890625
z: -0.30522510409355164
visibility: 0.9987304210662842
","x: 394.9325866699219
y: 304.274169921875
z: -0.3313499391078949
visibility: 0.9985378980636597
","x: 390.2887878417969
y: 304.4283447265625
z: -0.3504268527030945
visibility: 0.9992228150367737
","x: 399.37933349609375
y: 333.73492431640625
z: -0.12410620599985123
visibility: 0.9990241527557373
","x: 363.9153137207031
y: 311.6261901855469
z: -0.2691585123538971
visibility: 0.9993128776550293
","x: 405.34979248046875
y: 374.7176818847656
z: -0.15384541451931
visibility: 0.6484930515289307
","x: 361.4700622558594
y: 364.1955261230469
z: -0.3225969076156616
visibility: 0.9635558724403381
","x: 391.5660095214844
y: 396.3594970703125
z: -0.3112744987010956
visibility: 0.607124388217926
","x: 378.7008056640625
y: 403.8441467285156
z: -0.4071663022041321
visibility: 0.9257065057754517
","x: 387.8571472167969
y: 406.734375
z: -0.3478879928588867
visibility: 0.5822539329528809
","x: 380.9186096191406
y: 402.73577880859375
z: -0.44884783029556274
visibility: 0.8950493335723877
","x: 388.337158203125
y: 401.1617431640625
z: -0.3638239800930023
visibility: 0.5923282504081726
","x: 384.7991943359375
y: 396.8582458496094
z: -0.4536714553833008
visibility: 0.8989037275314331
","x: 387.6156921386719
y: 398.4838562011719
z: -0.3229382634162903
visibility: 0.5836318135261536
","x: 383.96624755859375
y: 395.93572998046875
z: -0.40996116399765015
visibility: 0.851957380771637
","x: 374.7384948730469
y: 397.35040283203125
z: 0.04727558419108391
visibility: 0.9996353387832642
","x: 353.7942810058594
y: 387.8406066894531
z: -0.047153621912002563
visibility: 0.9992780685424805
","x: 397.54595947265625
y: 431.0061340332031
z: -0.17164000868797302
visibility: 0.9281489849090576
","x: 353.4658203125
y: 442.20477294921875
z: -0.2809300124645233
visibility: 0.9814594388008118
","x: 398.218994140625
y: 502.14971923828125
z: -0.028974229469895363
visibility: 0.9031792283058167
","x: 336.4012451171875
y: 507.98284912109375
z: -0.1455356329679489
visibility: 0.9383818507194519
","x: 392.9032897949219
y: 514.026123046875
z: -0.020054446533322334
visibility: 0.8665249347686768
","x: 336.0030822753906
y: 514.5787963867188
z: -0.13789759576320648
visibility: 0.8060609698295593
","x: 412.7071838378906
y: 522.6853637695312
z: -0.1145012155175209
visibility: 0.9154127240180969
","x: 332.13800048828125
y: 531.4288940429688
z: -0.2714117765426636
visibility: 0.9327333569526672
","x: 380.24053955078125
y: 391.3412170410156
z: 0.0
","x: 384.8824462890625
y: 390.24713134765625
z: 0.0012025503674522042
","x: 387.71063232421875
y: 388.43536376953125
z: 4.2400155507493764e-05
","x: 389.41949462890625
y: 387.428466796875
z: -0.0021396635565906763
","x: 389.9969177246094
y: 385.9933776855469
z: -0.00418840954080224
","x: 387.08575439453125
y: 379.5061950683594
z: -0.0007887420360930264
","x: 388.7548522949219
y: 376.27947998046875
z: -0.004389222711324692
","x: 390.6510009765625
y: 377.4592590332031
z: -0.006741129793226719
","x: 391.9239501953125
y: 379.3133850097656
z: -0.007988366298377514
","x: 385.51678466796875
y: 379.5166015625
z: -0.003740256652235985
","x: 386.9677429199219
y: 376.7480163574219
z: -0.007654092740267515
","x: 388.7674560546875
y: 379.5098876953125
z: -0.008962394669651985
","x: 389.6146240234375
y: 382.5340576171875
z: -0.009466486051678658
","x: 383.8481750488281
y: 380.76190185546875
z: -0.006886922754347324
","x: 385.32098388671875
y: 378.6454772949219
z: -0.010221028700470924
","x: 387.1305847167969
y: 381.3789367675781
z: -0.010009394027292728
","x: 387.9801025390625
y: 384.42803955078125
z: -0.009462685324251652
","x: 382.26953125
y: 383.10430908203125
z: -0.010131512768566608
","x: 383.6190490722656
y: 381.31329345703125
z: -0.012476475909352303
","x: 385.11895751953125
y: 382.6319580078125
z: -0.012154904194176197
","x: 385.92181396484375
y: 384.5657043457031
z: -0.011587660759687424
",,,,,,,,,,,,,,,,,,,,,
23,"x: 391.3856506347656
y: 254.39767456054688
z: -0.32595348358154297
visibility: 0.9995793700218201
","x: 395.4414367675781
y: 252.35704040527344
z: -0.3084094524383545
visibility: 0.9990924596786499
","x: 397.58587646484375
y: 253.42092895507812
z: -0.3083798289299011
visibility: 0.9989753365516663
","x: 398.0873107910156
y: 254.19515991210938
z: -0.30840641260147095
visibility: 0.9989312291145325
","x: 389.3351745605469
y: 248.6934814453125
z: -0.31402555108070374
visibility: 0.9992271065711975
","x: 387.3864440917969
y: 247.5560760498047
z: -0.3140851855278015
visibility: 0.9992778897285461
","x: 385.65313720703125
y: 246.50332641601562
z: -0.3141176402568817
visibility: 0.9992504119873047
","x: 395.1997985839844
y: 255.791015625
z: -0.19790062308311462
visibility: 0.9979619979858398
","x: 382.78448486328125
y: 246.02699279785156
z: -0.20334288477897644
visibility: 0.9988559484481812
","x: 394.4095458984375
y: 260.4044189453125
z: -0.28331810235977173
visibility: 0.9986838102340698
","x: 387.5030822753906
y: 257.9716796875
z: -0.2918054461479187
visibility: 0.9993003606796265
","x: 398.6091613769531
y: 288.5312194824219
z: -0.14347748458385468
visibility: 0.9991200566291809
","x: 362.611083984375
y: 273.7532653808594
z: -0.1419018805027008
visibility: 0.999380886554718
","x: 415.98333740234375
y: 321.61419677734375
z: -0.3354957401752472
visibility: 0.6835783123970032
","x: 334.2231140136719
y: 266.1927490234375
z: -0.32114502787590027
visibility: 0.9671722650527954
","x: 394.1168212890625
y: 313.980224609375
z: -0.5119983553886414
visibility: 0.6458083987236023
","x: 359.56805419921875
y: 280.86773681640625
z: -0.46698370575904846
visibility: 0.9328053593635559
","x: 387.65777587890625
y: 316.1553039550781
z: -0.5513426065444946
visibility: 0.6202039122581482
","x: 367.9905700683594
y: 289.3612976074219
z: -0.5002745389938354
visibility: 0.9037164449691772
","x: 386.2320861816406
y: 309.6722106933594
z: -0.5243611335754395
visibility: 0.6283033490180969
","x: 371.85247802734375
y: 287.7099304199219
z: -0.4768811762332916
visibility: 0.9065629243850708
","x: 387.7690124511719
y: 308.9072570800781
z: -0.5044003129005432
visibility: 0.6170851588249207
","x: 369.7396545410156
y: 285.93670654296875
z: -0.45943570137023926
visibility: 0.8627583980560303
","x: 378.23797607421875
y: 381.8133850097656
z: 0.00996122695505619
visibility: 0.999640941619873
","x: 354.1044616699219
y: 376.1734619140625
z: -0.010245347395539284
visibility: 0.999342679977417
","x: 399.4306640625
y: 432.6884460449219
z: -0.1106250062584877
visibility: 0.934853196144104
","x: 332.1800537109375
y: 444.5901794433594
z: -0.12228838354349136
visibility: 0.9824574589729309
","x: 415.20166015625
y: 503.1051940917969
z: 0.05817354843020439
visibility: 0.9113878607749939
","x: 310.0365295410156
y: 507.6657409667969
z: 0.023609258234500885
visibility: 0.9440186023712158
","x: 412.67034912109375
y: 514.4152221679688
z: 0.07824861258268356
visibility: 0.874553918838501
","x: 309.0705261230469
y: 515.144775390625
z: 0.02890970930457115
visibility: 0.8168098330497742
","x: 423.7297058105469
y: 523.0005493164062
z: -0.020169544965028763
visibility: 0.9215512871742249
","x: 304.24627685546875
y: 529.2901000976562
z: -0.10686236619949341
visibility: 0.9368539452552795
",,,,,,,,,,,,,,,,,,,,,,"x: 391.1529541015625
y: 308.3658447265625
z: 0.0
","x: 388.1275634765625
y: 304.6153869628906
z: 0.0012452672235667706
","x: 384.267822265625
y: 303.1334228515625
z: 0.00033199795871041715
","x: 381.15399169921875
y: 303.96307373046875
z: -0.0007691814680583775
","x: 378.8981628417969
y: 305.6103820800781
z: -0.0018523999024182558
","x: 383.6540222167969
y: 300.99395751953125
z: -0.005082329269498587
","x: 378.2059326171875
y: 301.8655090332031
z: -0.0073395478539168835
","x: 375.7744140625
y: 304.1419677734375
z: -0.007464268710464239
","x: 374.41082763671875
y: 306.50921630859375
z: -0.007283052895218134
","x: 384.0663757324219
y: 303.9172058105469
z: -0.006993358489125967
","x: 378.3692321777344
y: 305.1325988769531
z: -0.009524527005851269
","x: 375.6616516113281
y: 307.8232116699219
z: -0.009092018008232117
","x: 374.112548828125
y: 310.3348388671875
z: -0.008625811897218227
","x: 384.64715576171875
y: 307.6578063964844
z: -0.00847635231912136
","x: 379.6139831542969
y: 309.3023376464844
z: -0.010695667937397957
","x: 377.41497802734375
y: 311.9561767578125
z: -0.00987141765654087
","x: 376.107177734375
y: 314.2946472167969
z: -0.009146268479526043
","x: 385.370849609375
y: 311.873046875
z: -0.009764674119651318
","x: 381.79949951171875
y: 313.5418701171875
z: -0.01145199965685606
","x: 380.1239929199219
y: 315.31976318359375
z: -0.011012636125087738
","x: 379.0769958496094
y: 316.9978332519531
z: -0.010494979098439217
"
24,"x: 391.3856506347656
y: 254.39767456054688
z: -0.32595348358154297
visibility: 0.9995793700218201
","x: 395.4414367675781
y: 252.35704040527344
z: -0.3084094524383545
visibility: 0.9990924596786499
","x: 397.58587646484375
y: 253.42092895507812
z: -0.3083798289299011
visibility: 0.9989753365516663
","x: 398.0873107910156
y: 254.19515991210938
z: -0.30840641260147095
visibility: 0.9989312291145325
","x: 389.3351745605469
y: 248.6934814453125
z: -0.31402555108070374
visibility: 0.9992271065711975
","x: 387.3864440917969
y: 247.5560760498047
z: -0.3140851855278015
visibility: 0.9992778897285461
","x: 385.65313720703125
y: 246.50332641601562
z: -0.3141176402568817
visibility: 0.9992504119873047
","x: 395.1997985839844
y: 255.791015625
z: -0.19790062308311462
visibility: 0.9979619979858398
","x: 382.78448486328125
y: 246.02699279785156
z: -0.20334288477897644
visibility: 0.9988559484481812
","x: 394.4095458984375
y: 260.4044189453125
z: -0.28331810235977173
visibility: 0.9986838102340698
","x: 387.5030822753906
y: 257.9716796875
z: -0.2918054461479187
visibility: 0.9993003606796265
","x: 398.6091613769531
y: 288.5312194824219
z: -0.14347748458385468
visibility: 0.9991200566291809
","x: 362.611083984375
y: 273.7532653808594
z: -0.1419018805027008
visibility: 0.999380886554718
","x: 415.98333740234375
y: 321.61419677734375
z: -0.3354957401752472
visibility: 0.6835783123970032
","x: 334.2231140136719
y: 266.1927490234375
z: -0.32114502787590027
visibility: 0.9671722650527954
","x: 394.1168212890625
y: 313.980224609375
z: -0.5119983553886414
visibility: 0.6458083987236023
","x: 359.56805419921875
y: 280.86773681640625
z: -0.46698370575904846
visibility: 0.9328053593635559
","x: 387.65777587890625
y: 316.1553039550781
z: -0.5513426065444946
visibility: 0.6202039122581482
","x: 367.9905700683594
y: 289.3612976074219
z: -0.5002745389938354
visibility: 0.9037164449691772
","x: 386.2320861816406
y: 309.6722106933594
z: -0.5243611335754395
visibility: 0.6283033490180969
","x: 371.85247802734375
y: 287.7099304199219
z: -0.4768811762332916
visibility: 0.9065629243850708
","x: 387.7690124511719
y: 308.9072570800781
z: -0.5044003129005432
visibility: 0.6170851588249207
","x: 369.7396545410156
y: 285.93670654296875
z: -0.45943570137023926
visibility: 0.8627583980560303
","x: 378.23797607421875
y: 381.8133850097656
z: 0.00996122695505619
visibility: 0.999640941619873
","x: 354.1044616699219
y: 376.1734619140625
z: -0.010245347395539284
visibility: 0.999342679977417
","x: 399.4306640625
y: 432.6884460449219
z: -0.1106250062584877
visibility: 0.934853196144104
","x: 332.1800537109375
y: 444.5901794433594
z: -0.12228838354349136
visibility: 0.9824574589729309
","x: 415.20166015625
y: 503.1051940917969
z: 0.05817354843020439
visibility: 0.9113878607749939
","x: 310.0365295410156
y: 507.6657409667969
z: 0.023609258234500885
visibility: 0.9440186023712158
","x: 412.67034912109375
y: 514.4152221679688
z: 0.07824861258268356
visibility: 0.874553918838501
","x: 309.0705261230469
y: 515.144775390625
z: 0.02890970930457115
visibility: 0.8168098330497742
","x: 423.7297058105469
y: 523.0005493164062
z: -0.020169544965028763
visibility: 0.9215512871742249
","x: 304.24627685546875
y: 529.2901000976562
z: -0.10686236619949341
visibility: 0.9368539452552795
",,,,,,,,,,,,,,,,,,,,,,"x: 391.1529541015625
y: 308.3658447265625
z: 0.0
","x: 388.1275634765625
y: 304.6153869628906
z: 0.0012452672235667706
","x: 384.267822265625
y: 303.1334228515625
z: 0.00033199795871041715
","x: 381.15399169921875
y: 303.96307373046875
z: -0.0007691814680583775
","x: 378.8981628417969
y: 305.6103820800781
z: -0.0018523999024182558
","x: 383.6540222167969
y: 300.99395751953125
z: -0.005082329269498587
","x: 378.2059326171875
y: 301.8655090332031
z: -0.0073395478539168835
","x: 375.7744140625
y: 304.1419677734375
z: -0.007464268710464239
","x: 374.41082763671875
y: 306.50921630859375
z: -0.007283052895218134
","x: 384.0663757324219
y: 303.9172058105469
z: -0.006993358489125967
","x: 378.3692321777344
y: 305.1325988769531
z: -0.009524527005851269
","x: 375.6616516113281
y: 307.8232116699219
z: -0.009092018008232117
","x: 374.112548828125
y: 310.3348388671875
z: -0.008625811897218227
","x: 384.64715576171875
y: 307.6578063964844
z: -0.00847635231912136
","x: 379.6139831542969
y: 309.3023376464844
z: -0.010695667937397957
","x: 377.41497802734375
y: 311.9561767578125
z: -0.00987141765654087
","x: 376.107177734375
y: 314.2946472167969
z: -0.009146268479526043
","x: 385.370849609375
y: 311.873046875
z: -0.009764674119651318
","x: 381.79949951171875
y: 313.5418701171875
z: -0.01145199965685606
","x: 380.1239929199219
y: 315.31976318359375
z: -0.011012636125087738
","x: 379.0769958496094
y: 316.9978332519531
z: -0.010494979098439217
"
25,"x: 364.8975830078125
y: 228.30056762695312
z: -0.3159467577934265
visibility: 0.9996213912963867
","x: 368.92431640625
y: 221.49049377441406
z: -0.303321897983551
visibility: 0.9991830587387085
","x: 371.1007385253906
y: 222.0689239501953
z: -0.30333927273750305
visibility: 0.9990776181221008
","x: 372.8397521972656
y: 222.6678466796875
z: -0.30337977409362793
visibility: 0.9990379214286804
","x: 363.580322265625
y: 219.7361602783203
z: -0.30008789896965027
visibility: 0.9993042349815369
","x: 362.27667236328125
y: 219.22674560546875
z: -0.30012884736061096
visibility: 0.9993498921394348
","x: 361.1505432128906
y: 218.80557250976562
z: -0.3001410663127899
visibility: 0.999325156211853
","x: 375.7620544433594
y: 226.31430053710938
z: -0.20469185709953308
visibility: 0.9981656670570374
","x: 361.32958984375
y: 220.74745178222656
z: -0.17357568442821503
visibility: 0.9989700317382812
","x: 368.4437255859375
y: 237.1463165283203
z: -0.27705031633377075
visibility: 0.9988154172897339
","x: 362.1732482910156
y: 235.44053649902344
z: -0.2784302532672882
visibility: 0.999370276927948
","x: 390.4795837402344
y: 276.66680908203125
z: -0.1388632208108902
visibility: 0.9992077350616455
","x: 346.4123229980469
y: 256.9183654785156
z: -0.08918628096580505
visibility: 0.9994426369667053
","x: 389.4844665527344
y: 325.2877502441406
z: -0.20466525852680206
visibility: 0.714857280254364
","x: 325.8326416015625
y: 285.978515625
z: -0.14458361268043518
visibility: 0.9690269231796265
","x: 375.86834716796875
y: 343.1451110839844
z: -0.3720586597919464
visibility: 0.6802937984466553
","x: 331.9617614746094
y: 313.79730224609375
z: -0.34657108783721924
visibility: 0.9370267987251282
","x: 372.4104919433594
y: 336.87200927734375
z: -0.41947856545448303
visibility: 0.6559545993804932
","x: 332.0196838378906
y: 326.150634765625
z: -0.39193663001060486
visibility: 0.9087662100791931
","x: 367.8672790527344
y: 343.2374267578125
z: -0.43493229150772095
visibility: 0.6632756590843201
","x: 337.39776611328125
y: 323.6990051269531
z: -0.40276843309402466
visibility: 0.9113062620162964
","x: 368.4278564453125
y: 343.63287353515625
z: -0.3809170424938202
visibility: 0.6517457365989685
","x: 338.1944580078125
y: 320.28076171875
z: -0.3556063175201416
visibility: 0.8706946969032288
","x: 375.02752685546875
y: 372.9107360839844
z: -0.008964933454990387
visibility: 0.9996625185012817
","x: 348.7331237792969
y: 370.799560546875
z: 0.008759860880672932
visibility: 0.9994074106216431
","x: 398.4830017089844
y: 435.41363525390625
z: 0.05045956373214722
visibility: 0.9411660432815552
","x: 328.7959289550781
y: 443.9938659667969
z: -0.042193349450826645
visibility: 0.9840545654296875
","x: 416.5684509277344
y: 503.4820251464844
z: 0.28540512919425964
visibility: 0.9198180437088013
","x: 311.5367126464844
y: 507.77880859375
z: 0.10979495197534561
visibility: 0.9494315385818481
","x: 413.6405944824219
y: 514.92822265625
z: 0.3036530911922455
visibility: 0.8812689781188965
","x: 312.8697204589844
y: 517.6412353515625
z: 0.11882444471120834
visibility: 0.8316107392311096
","x: 423.4228515625
y: 523.5219116210938
z: 0.19715312123298645
visibility: 0.9283321499824524
","x: 300.07421875
y: 529.18896484375
z: -0.010320459492504597
visibility: 0.9424545168876648
","x: 329.6366271972656
y: 314.71368408203125
z: 0.0
","x: 333.1408996582031
y: 314.2013244628906
z: -0.0022178299259394407
","x: 336.14068603515625
y: 316.5675354003906
z: -0.004450356587767601
","x: 338.5462951660156
y: 318.9936828613281
z: -0.006705972831696272
","x: 340.73089599609375
y: 319.8447265625
z: -0.008914836682379246
","x: 334.91168212890625
y: 327.25164794921875
z: -0.003064113901928067
","x: 336.75360107421875
y: 332.5397033691406
z: -0.005272576119750738
","x: 337.9027404785156
y: 335.581787109375
z: -0.006254217587411404
","x: 338.76995849609375
y: 337.5872497558594
z: -0.00670597841963172
","x: 332.9452819824219
y: 330.2262878417969
z: -0.0036076060496270657
","x: 334.98114013671875
y: 337.8082275390625
z: -0.005292115267366171
","x: 336.1461486816406
y: 341.73748779296875
z: -0.005975068546831608
","x: 337.08990478515625
y: 344.534423828125
z: -0.0064987195655703545
","x: 331.02313232421875
y: 331.6598205566406
z: -0.004413803108036518
","x: 332.7480773925781
y: 339.0278625488281
z: -0.006562265567481518
","x: 333.7446594238281
y: 342.81982421875
z: -0.007451796904206276
