uscmakers/ReverseChoreography/data/9_sad_girlz_luv_money_amaarae.csv
,NOSE,LEFT_EYE_INNER,LEFT_EYE,LEFT_EYE_OUTER,RIGHT_EYE_INNER,RIGHT_EYE,RIGHT_EYE_OUTER,LEFT_EAR,RIGHT_EAR,MOUTH_LEFT,MOUTH_RIGHT,LEFT_SHOULDER,RIGHT_SHOULDER,LEFT_ELBOW,RIGHT_ELBOW,LEFT_WRIST,RIGHT_WRIST,LEFT_PINKY,RIGHT_PINKY,LEFT_INDEX,RIGHT_INDEX,LEFT_THUMB,RIGHT_THUMB,LEFT_HIP,RIGHT_HIP,LEFT_KNEE,RIGHT_KNEE,LEFT_ANKLE,RIGHT_ANKLE,LEFT_HEEL,RIGHT_HEEL,LEFT_FOOT_INDEX,RIGHT_FOOT_INDEX,WRIST,THUMB_CPC,THUMB_MCP,THUMB_IP,THUMB_TIP,INDEX_FINGER_MCP,INDEX_FINGER_PIP,INDEX_FINGER_DIP,INDEX_FINGER_TIP,MIDDLE_FINGER_MCP,MIDDLE_FINGER_PIP,MIDDLE_FINGER_DIP,MIDDLE_FINGER_TIP,RING_FINGER_PIP,RING_FINGER_DIP,RING_FINGER_TIP,RING_FINGER_MCP,PINKY_MCP,PINKY_PIP,PINKY_DIP,PINKY_TIP,WRIST2,THUMB_CPC2,THUMB_MCP2,THUMB_IP2,THUMB_TIP2,INDEX_FINGER_MCP2,INDEX_FINGER_PIP2,INDEX_FINGER_DIP2,INDEX_FINGER_TIP2,MIDDLE_FINGER_MCP2,MIDDLE_FINGER_PIP2,MIDDLE_FINGER_DIP2,MIDDLE_FINGER_TIP2,RING_FINGER_PIP2,RING_FINGER_DIP2,RING_FINGER_TIP2,RING_FINGER_MCP2,PINKY_MCP2,PINKY_PIP2,PINKY_DIP2,PINKY_TIP2
0,"x: 255.05136108398438
y: 215.2516326904297
z: -0.31535467505455017
visibility: 0.9999740123748779
","x: 257.582275390625
y: 207.33168029785156
z: -0.3005131483078003
visibility: 0.9999160766601562
","x: 258.9040832519531
y: 207.3502197265625
z: -0.30050650238990784
visibility: 0.9999107122421265
","x: 260.30419921875
y: 207.31661987304688
z: -0.3004709780216217
visibility: 0.99988853931427
","x: 253.5915985107422
y: 206.19174194335938
z: -0.3057725727558136
visibility: 0.9999200105667114
","x: 252.11520385742188
y: 205.53836059570312
z: -0.3058018088340759
visibility: 0.9999221563339233
","x: 250.49302673339844
y: 204.9167022705078
z: -0.30580127239227295
visibility: 0.9999176263809204
","x: 261.53961181640625
y: 210.10311889648438
z: -0.1843772977590561
visibility: 0.9997739195823669
","x: 246.9921112060547
y: 206.11492919921875
z: -0.20904776453971863
visibility: 0.9998612403869629
","x: 256.5746765136719
y: 222.271484375
z: -0.2690216600894928
visibility: 0.9999158382415771
","x: 252.04644775390625
y: 221.50657653808594
z: -0.2763109505176544
visibility: 0.9999457597732544
","x: 271.0867919921875
y: 251.2797393798828
z: -0.10379066318273544
visibility: 0.9999200105667114
","x: 229.96710205078125
y: 248.35546875
z: -0.12446482479572296
visibility: 0.9999428987503052
","x: 274.7414855957031
y: 301.8854064941406
z: -0.10202954709529877
visibility: 0.9527738690376282
","x: 222.3408203125
y: 299.46435546875
z: -0.16680391132831573
visibility: 0.9866321682929993
","x: 278.4902038574219
y: 330.61077880859375
z: -0.27040940523147583
visibility: 0.9534714221954346
","x: 233.58871459960938
y: 324.9219970703125
z: -0.3379629850387573
visibility: 0.9833759665489197
","x: 281.8039245605469
y: 343.0574951171875
z: -0.3110329210758209
visibility: 0.9305741786956787
","x: 235.52590942382812
y: 336.70196533203125
z: -0.3799492120742798
visibility: 0.9670193791389465
","x: 281.4326171875
y: 340.99578857421875
z: -0.34193751215934753
visibility: 0.9373536109924316
","x: 238.86827087402344
y: 329.57354736328125
z: -0.39826157689094543
visibility: 0.9684075713157654
","x: 279.23309326171875
y: 336.2887268066406
z: -0.28746315836906433
visibility: 0.9248335361480713
","x: 238.59869384765625
y: 325.4191589355469
z: -0.34818390011787415
visibility: 0.9590921998023987
","x: 263.7196960449219
y: 357.9599609375
z: -0.005890769883990288
visibility: 0.9996033310890198
","x: 239.74545288085938
y: 359.9557800292969
z: 0.005856253672391176
visibility: 0.9997389912605286
","x: 270.6343688964844
y: 429.3262939453125
z: 0.03957335278391838
visibility: 0.99755859375
","x: 230.48809814453125
y: 432.55328369140625
z: 0.049811508506536484
visibility: 0.9969802498817444
","x: 278.1017150878906
y: 503.1485595703125
z: 0.20395252108573914
visibility: 0.9963777661323547
","x: 222.99591064453125
y: 503.8775329589844
z: 0.21005241572856903
visibility: 0.9971678853034973
","x: 277.10540771484375
y: 512.4281005859375
z: 0.212459996342659
visibility: 0.9241381287574768
","x: 225.30857849121094
y: 516.0064086914062
z: 0.21904902160167694
visibility: 0.9561643004417419
","x: 278.1579895019531
y: 528.497802734375
z: 0.08882026374340057
visibility: 0.9938424825668335
","x: 212.66542053222656
y: 524.104248046875
z: 0.10192914307117462
visibility: 0.9945809245109558
",,,,,,,,,,,,,,,,,,,,,,,,,,,,,,,,,,,,,,,,,,
1,"x: 251.6005096435547
y: 224.39639282226562
z: -0.2983837425708771
visibility: 0.999975860118866
","x: 255.0211944580078
y: 218.32827758789062
z: -0.2844564616680145
visibility: 0.9999210238456726
","x: 256.5108947753906
y: 218.64768981933594
z: -0.28449103236198425
visibility: 0.9999162554740906
","x: 258.01873779296875
y: 218.9816131591797
z: -0.28449150919914246
visibility: 0.9998959898948669
","x: 251.10731506347656
y: 217.37062072753906
z: -0.28186896443367004
visibility: 0.9999241828918457
","x: 249.85293579101562
y: 217.08482360839844
z: -0.2819095253944397
visibility: 0.9999258518218994
","x: 248.57594299316406
y: 216.8716583251953
z: -0.28190597891807556
visibility: 0.9999210834503174
","x: 260.7910461425781
y: 222.19845581054688
z: -0.1841878741979599
visibility: 0.9997910261154175
","x: 246.996826171875
y: 219.49586486816406
z: -0.17287662625312805
visibility: 0.9998636245727539
","x: 254.3046875
y: 231.3159942626953
z: -0.26063308119773865
visibility: 0.9999220371246338
","x: 249.25094604492188
y: 231.08428955078125
z: -0.25705257058143616
visibility: 0.9999473690986633
","x: 271.1442565917969
y: 265.4312744140625
z: -0.12157821655273438
visibility: 0.9999233484268188
","x: 233.41372680664062
y: 267.64349365234375
z: -0.08249229192733765
visibility: 0.9999392032623291
","x: 278.7557373046875
y: 316.2847900390625
z: -0.12462133169174194
visibility: 0.9559891223907471
","x: 232.3292999267578
y: 322.46966552734375
z: -0.08536867797374725
visibility: 0.9796110987663269
","x: 294.2101745605469
y: 343.4549560546875
z: -0.2717306911945343
visibility: 0.9544327855110168
","x: 219.7144317626953
y: 332.3940734863281
z: -0.2550995945930481
visibility: 0.9829918742179871
","x: 300.7795715332031
y: 354.3299560546875
z: -0.30966395139694214
visibility: 0.9308834075927734
","x: 214.34666442871094
y: 337.01617431640625
z: -0.2918010950088501
visibility: 0.9672008752822876
","x: 300.9593811035156
y: 349.4735107421875
z: -0.3402380347251892
visibility: 0.937840461730957
","x: 212.98648071289062
y: 330.64288330078125
z: -0.3253040909767151
visibility: 0.968877911567688
","x: 298.342529296875
y: 346.12139892578125
z: -0.28851497173309326
visibility: 0.9259456992149353
","x: 214.9510955810547
y: 329.09393310546875
z: -0.274492084980011
visibility: 0.9600207805633545
","x: 263.6458435058594
y: 369.72552490234375
z: -0.021696817129850388
visibility: 0.9996272921562195
","x: 240.79782104492188
y: 371.41949462890625
z: 0.02159683220088482
visibility: 0.9997498989105225
","x: 270.8446350097656
y: 438.0809020996094
z: -0.06296743452548981
visibility: 0.9976030588150024
","x: 229.75421142578125
y: 440.84466552734375
z: 0.034134555608034134
visibility: 0.9970463514328003
","x: 281.3972473144531
y: 505.17352294921875
z: 0.09655457735061646
visibility: 0.9965322017669678
","x: 234.17864990234375
y: 502.677490234375
z: 0.25093623995780945
visibility: 0.9971750378608704
","x: 280.97479248046875
y: 513.7559814453125
z: 0.10440950095653534
visibility: 0.9253588318824768
","x: 238.94741821289062
y: 511.8183898925781
z: 0.2664381265640259
visibility: 0.9577722549438477
","x: 284.6515808105469
y: 528.3206787109375
z: -0.023294949904084206
visibility: 0.9940716028213501
","x: 223.4388427734375
y: 523.3055419921875
z: 0.17128726840019226
visibility: 0.9946776032447815
","x: 218.085205078125
y: 340.28533935546875
z: 0.0
","x: 218.2748260498047
y: 337.23370361328125
z: -0.003896723035722971
","x: 217.0423126220703
y: 333.7986755371094
z: -0.006609679199755192
","x: 215.0648193359375
y: 333.29168701171875
z: -0.009009525179862976
","x: 212.98414611816406
y: 334.0742492675781
z: -0.011447951197624207
","x: 212.9966278076172
y: 328.20928955078125
z: -0.005417001433670521
","x: 209.49566650390625
y: 324.92156982421875
z: -0.008291089907288551
","x: 207.00962829589844
y: 323.65301513671875
z: -0.010478013195097446
","x: 204.9518585205078
y: 323.156982421875
z: -0.011969149112701416
","x: 211.7804412841797
y: 330.23699951171875
z: -0.005434049293398857
","x: 208.45135498046875
y: 326.6363525390625
z: -0.007983573712408543
","x: 205.9325714111328
y: 324.89581298828125
z: -0.009975559078156948
","x: 203.79026794433594
y: 323.92144775390625
z: -0.011576239950954914
","x: 211.17388916015625
y: 333.2236328125
z: -0.00577543955296278
","x: 207.74330139160156
y: 330.316650390625
z: -0.008311635814607143
","x: 205.4685821533203
y: 328.9842529296875
z: -0.010264204815030098
","x: 203.63494873046875
y: 328.29901123046875
z: -0.011761111207306385
","x: 211.04449462890625
y: 337.082275390625
z: -0.006467755883932114
","x: 208.3814697265625
y: 335.33160400390625
z: -0.008532230742275715
","x: 206.70704650878906
y: 334.6875305175781
z: -0.009800586849451065
","x: 205.35792541503906
y: 334.39947509765625
z: -0.010834085755050182
",,,,,,,,,,,,,,,,,,,,,
2,"x: 251.6005096435547
y: 224.39639282226562
z: -0.2983837425708771
visibility: 0.999975860118866
","x: 255.0211944580078
y: 218.32827758789062
z: -0.2844564616680145
visibility: 0.9999210238456726
","x: 256.5108947753906
y: 218.64768981933594
z: -0.28449103236198425
visibility: 0.9999162554740906
","x: 258.01873779296875
y: 218.9816131591797
z: -0.28449150919914246
visibility: 0.9998959898948669
","x: 251.10731506347656
y: 217.37062072753906
z: -0.28186896443367004
visibility: 0.9999241828918457
","x: 249.85293579101562
y: 217.08482360839844
z: -0.2819095253944397
visibility: 0.9999258518218994
","x: 248.57594299316406
y: 216.8716583251953
z: -0.28190597891807556
visibility: 0.9999210834503174
","x: 260.7910461425781
y: 222.19845581054688
z: -0.1841878741979599
visibility: 0.9997910261154175
","x: 246.996826171875
y: 219.49586486816406
z: -0.17287662625312805
visibility: 0.9998636245727539
","x: 254.3046875
y: 231.3159942626953
z: -0.26063308119773865
visibility: 0.9999220371246338
","x: 249.25094604492188
y: 231.08428955078125
z: -0.25705257058143616
visibility: 0.9999473690986633
","x: 271.1442565917969
y: 265.4312744140625
z: -0.12157821655273438
visibility: 0.9999233484268188
","x: 233.41372680664062
y: 267.64349365234375
z: -0.08249229192733765
visibility: 0.9999392032623291
","x: 278.7557373046875
y: 316.2847900390625
z: -0.12462133169174194
visibility: 0.9559891223907471
","x: 232.3292999267578
y: 322.46966552734375
z: -0.08536867797374725
visibility: 0.9796110987663269
","x: 294.2101745605469
y: 343.4549560546875
z: -0.2717306911945343
visibility: 0.9544327855110168
","x: 219.7144317626953
y: 332.3940734863281
z: -0.2550995945930481
visibility: 0.9829918742179871
","x: 300.7795715332031
y: 354.3299560546875
z: -0.30966395139694214
visibility: 0.9308834075927734
","x: 214.34666442871094
y: 337.01617431640625
z: -0.2918010950088501
visibility: 0.9672008752822876
","x: 300.9593811035156
y: 349.4735107421875
z: -0.3402380347251892
visibility: 0.937840461730957
","x: 212.98648071289062
y: 330.64288330078125
z: -0.3253040909767151
visibility: 0.968877911567688
","x: 298.342529296875
y: 346.12139892578125
z: -0.28851497173309326
visibility: 0.9259456992149353
","x: 214.9510955810547
y: 329.09393310546875
z: -0.274492084980011
visibility: 0.9600207805633545
","x: 263.6458435058594
y: 369.72552490234375
z: -0.021696817129850388
visibility: 0.9996272921562195
","x: 240.79782104492188
y: 371.41949462890625
z: 0.02159683220088482
visibility: 0.9997498989105225
","x: 270.8446350097656
y: 438.0809020996094
z: -0.06296743452548981
visibility: 0.9976030588150024
","x: 229.75421142578125
y: 440.84466552734375
z: 0.034134555608034134
visibility: 0.9970463514328003
","x: 281.3972473144531
y: 505.17352294921875
z: 0.09655457735061646
visibility: 0.9965322017669678
","x: 234.17864990234375
y: 502.677490234375
z: 0.25093623995780945
visibility: 0.9971750378608704
","x: 280.97479248046875
y: 513.7559814453125
z: 0.10440950095653534
visibility: 0.9253588318824768
","x: 238.94741821289062
y: 511.8183898925781
z: 0.2664381265640259
visibility: 0.9577722549438477
","x: 284.6515808105469
y: 528.3206787109375
z: -0.023294949904084206
visibility: 0.9940716028213501
","x: 223.4388427734375
y: 523.3055419921875
z: 0.17128726840019226
visibility: 0.9946776032447815
","x: 218.085205078125
y: 340.28533935546875
z: 0.0
","x: 218.2748260498047
y: 337.23370361328125
z: -0.003896723035722971
","x: 217.0423126220703
y: 333.7986755371094
z: -0.006609679199755192
","x: 215.0648193359375
y: 333.29168701171875
z: -0.009009525179862976
","x: 212.98414611816406
y: 334.0742492675781
z: -0.011447951197624207
","x: 212.9966278076172
y: 328.20928955078125
z: -0.005417001433670521
","x: 209.49566650390625
y: 324.92156982421875
z: -0.008291089907288551
","x: 207.00962829589844
y: 323.65301513671875
z: -0.010478013195097446
","x: 204.9518585205078
y: 323.156982421875
z: -0.011969149112701416
","x: 211.7804412841797
y: 330.23699951171875
z: -0.005434049293398857
","x: 208.45135498046875
y: 326.6363525390625
z: -0.007983573712408543
","x: 205.9325714111328
y: 324.89581298828125
z: -0.009975559078156948
","x: 203.79026794433594
y: 323.92144775390625
z: -0.011576239950954914
","x: 211.17388916015625
y: 333.2236328125
z: -0.00577543955296278
","x: 207.74330139160156
y: 330.316650390625
z: -0.008311635814607143
","x: 205.4685821533203
y: 328.9842529296875
z: -0.010264204815030098
","x: 203.63494873046875
y: 328.29901123046875
z: -0.011761111207306385
","x: 211.04449462890625
y: 337.082275390625
z: -0.006467755883932114
","x: 208.3814697265625
y: 335.33160400390625
z: -0.008532230742275715
","x: 206.70704650878906
y: 334.6875305175781
z: -0.009800586849451065
","x: 205.35792541503906
y: 334.39947509765625
z: -0.010834085755050182
",,,,,,,,,,,,,,,,,,,,,
3,"x: 250.9413299560547
y: 227.31680297851562
z: -0.23510996997356415
visibility: 0.9999780654907227
","x: 254.12466430664062
y: 220.88711547851562
z: -0.22055867314338684
visibility: 0.9999280571937561
","x: 255.4139862060547
y: 221.42584228515625
z: -0.22059214115142822
visibility: 0.9999237656593323
","x: 256.67816162109375
y: 222.0087432861328
z: -0.22059659659862518
visibility: 0.999905526638031
","x: 250.25144958496094
y: 219.39979553222656
z: -0.22057375311851501
visibility: 0.9999308586120605
","x: 248.85520935058594
y: 218.97805786132812
z: -0.22057220339775085
visibility: 0.9999321699142456
","x: 247.5647735595703
y: 218.59434509277344
z: -0.22053639590740204
visibility: 0.9999275803565979
","x: 259.17425537109375
y: 225.47010803222656
z: -0.12493567168712616
visibility: 0.9998103976249695
","x: 245.86337280273438
y: 221.49888610839844
z: -0.12545029819011688
visibility: 0.9998744130134583
","x: 253.38677978515625
y: 234.2823028564453
z: -0.19904300570487976
visibility: 0.9999291300773621
","x: 248.05775451660156
y: 233.62188720703125
z: -0.19917872548103333
visibility: 0.9999516606330872
","x: 269.94891357421875
y: 267.4932556152344
z: -0.07260586321353912
visibility: 0.9999300837516785
","x: 231.6759033203125
y: 265.8612365722656
z: -0.04996180906891823
visibility: 0.9999425411224365
","x: 279.65899658203125
y: 312.9620666503906
z: -0.08866623044013977
visibility: 0.9599475860595703
","x: 224.48959350585938
y: 315.5208740234375
z: -0.06360502541065216
visibility: 0.9798708558082581
","x: 296.3762512207031
y: 342.5674133300781
z: -0.23732002079486847
visibility: 0.9586215019226074
","x: 206.10537719726562
y: 332.248291015625
z: -0.21422722935676575
visibility: 0.9839403033256531
","x: 303.2250671386719
y: 351.99639892578125
z: -0.270512193441391
visibility: 0.9369108080863953
","x: 199.98243713378906
y: 338.8055114746094
z: -0.2463923990726471
visibility: 0.9689068794250488
","x: 303.0382385253906
y: 346.4786071777344
z: -0.3028857707977295
visibility: 0.9433333873748779
","x: 200.32020568847656
y: 335.7825927734375
z: -0.27897801995277405
visibility: 0.9706611633300781
","x: 300.56060791015625
y: 344.07659912109375
z: -0.2546706795692444
visibility: 0.9324196577072144
","x: 203.01942443847656
y: 333.4888916015625
z: -0.23264729976654053
visibility: 0.9624969959259033
","x: 262.12713623046875
y: 367.4353332519531
z: -0.01480034738779068
visibility: 0.9996528625488281
","x: 240.245361328125
y: 369.0668029785156
z: 0.01479091215878725
visibility: 0.9997637271881104
","x: 269.9320068359375
y: 435.9211730957031
z: -0.04669415205717087
visibility: 0.9976935982704163
","x: 231.23736572265625
y: 439.83465576171875
z: 0.006229284219443798
visibility: 0.9971663951873779
","x: 279.696533203125
y: 505.106689453125
z: 0.023502148687839508
visibility: 0.9966914057731628
","x: 235.13955688476562
y: 502.65277099609375
z: 0.14122696220874786
visibility: 0.9972342848777771
","x: 277.6190185546875
y: 513.8182373046875
z: 0.022389886900782585
visibility: 0.9285455942153931
","x: 239.47531127929688
y: 511.7585754394531
z: 0.14656487107276917
visibility: 0.9583476781845093
","x: 284.6971740722656
y: 527.6644287109375
z: -0.09965702146291733
visibility: 0.9942964911460876
","x: 224.88497924804688
y: 522.7239379882812
z: 0.04677067697048187
visibility: 0.9947725534439087
",,,,,,,,,,,,,,,,,,,,,,,,,,,,,,,,,,,,,,,,,,
4,"x: 250.42010498046875
y: 228.50477600097656
z: -0.26144081354141235
visibility: 0.9999794960021973
","x: 253.3290252685547
y: 222.07763671875
z: -0.24457666277885437
visibility: 0.999932587146759
","x: 254.5357666015625
y: 222.6058349609375
z: -0.24460217356681824
visibility: 0.9999287128448486
","x: 255.59303283691406
y: 223.13011169433594
z: -0.24463626742362976
visibility: 0.9999122619628906
","x: 249.3771209716797
y: 220.42955017089844
z: -0.24600382149219513
visibility: 0.9999347925186157
","x: 247.9222869873047
y: 219.91619873046875
z: -0.24602743983268738
visibility: 0.9999353885650635
","x: 246.5984344482422
y: 219.5108184814453
z: -0.24600572884082794
visibility: 0.9999300241470337
","x: 257.3919372558594
y: 226.8586883544922
z: -0.14177438616752625
visibility: 0.9998264312744141
","x: 244.6107635498047
y: 222.82461547851562
z: -0.15018968284130096
visibility: 0.9998787641525269
","x: 252.64492797851562
y: 235.4661865234375
z: -0.223139688372612
visibility: 0.99993497133255
","x: 247.18783569335938
y: 235.1221923828125
z: -0.22561845183372498
visibility: 0.9999546408653259
","x: 268.2717590332031
y: 271.6711120605469
z: -0.08479587733745575
visibility: 0.9999354481697083
","x: 228.05160522460938
y: 265.8379211425781
z: -0.0777345523238182
visibility: 0.9999406337738037
","x: 282.6059265136719
y: 311.58935546875
z: -0.09326580166816711
visibility: 0.9634490609169006
","x: 212.53038024902344
y: 307.3101501464844
z: -0.08129625022411346
visibility: 0.9803920388221741
","x: 299.6718444824219
y: 345.5054016113281
z: -0.23849961161613464
visibility: 0.9618317484855652
","x: 200.5157470703125
y: 331.2101745605469
z: -0.2432110607624054
visibility: 0.9825148582458496
","x: 305.57354736328125
y: 355.614990234375
z: -0.2693588137626648
visibility: 0.9409126043319702
","x: 197.77713012695312
y: 338.79449462890625
z: -0.3049520254135132
visibility: 0.9660768508911133
","x: 305.7574768066406
y: 353.662353515625
z: -0.3014110028743744
visibility: 0.9471089839935303
","x: 199.91249084472656
y: 337.2989196777344
z: -0.3305254876613617
visibility: 0.9684063196182251
","x: 303.1881103515625
y: 350.5685119628906
z: -0.2550598084926605
visibility: 0.9368470907211304
","x: 201.74551391601562
y: 334.1078186035156
z: -0.24275994300842285
visibility: 0.9602149724960327
","x: 259.29254150390625
y: 368.6886901855469
z: -0.000834511942230165
visibility: 0.9996806383132935
","x: 238.39727783203125
y: 369.4125671386719
z: 0.000867394614033401
visibility: 0.9997759461402893
","x: 267.54034423828125
y: 434.9547119140625
z: -0.159975066781044
visibility: 0.9976803660392761
","x: 233.06683349609375
y: 439.164794921875
z: -0.01853281632065773
visibility: 0.9969337582588196
","x: 262.0308532714844
y: 504.1412353515625
z: -0.054980479180812836
visibility: 0.9965986609458923
","x: 234.64874267578125
y: 502.0233459472656
z: 0.13443900644779205
visibility: 0.9967684745788574
","x: 259.2431945800781
y: 512.5223388671875
z: -0.051170699298381805
visibility: 0.9321178197860718
","x: 238.92921447753906
y: 510.8805847167969
z: 0.14116568863391876
visibility: 0.9538623690605164
","x: 266.5926818847656
y: 526.5244140625
z: -0.1749970018863678
visibility: 0.994297981262207
","x: 226.67529296875
y: 521.9885864257812
z: 0.03481949120759964
visibility: 0.9939791560173035
","x: 198.6007537841797
y: 333.67144775390625
z: 0.0
","x: 201.09619140625
y: 333.6731262207031
z: -0.002356791403144598
","x: 203.55274963378906
y: 334.4510192871094
z: -0.0051161181181669235
","x: 205.50929260253906
y: 334.93792724609375
z: -0.007662917021661997
","x: 207.03097534179688
y: 335.634033203125
z: -0.010196339339017868
","x: 201.76904296875
y: 337.0069580078125
z: -0.00641164043918252
","x: 202.14894104003906
y: 342.11126708984375
z: -0.008717821910977364
","x: 202.07106018066406
y: 345.67572021484375
z: -0.009701183997094631
","x: 201.9876251220703
y: 348.2095947265625
z: -0.010152249597012997
","x: 199.7696075439453
y: 337.3765563964844
z: -0.006396159529685974
","x: 200.41500854492188
y: 342.2778015136719
z: -0.008392713963985443
","x: 200.61349487304688
y: 345.98431396484375
z: -0.008390593342483044
","x: 200.7848663330078
y: 348.823486328125
z: -0.008400355465710163
","x: 197.82691955566406
y: 337.8511047363281
z: -0.006212047301232815
","x: 198.41653442382812
y: 342.76300048828125
z: -0.007889434695243835
","x: 198.95382690429688
y: 346.21502685546875
z: -0.0073848143219947815
","x: 199.36642456054688
y: 348.53204345703125
z: -0.007036926224827766
","x: 196.0144500732422
y: 338.2548828125
z: -0.006192052736878395
","x: 196.48831176757812
y: 342.22418212890625
z: -0.007158124819397926
","x: 197.01519775390625
y: 344.6130065917969
z: -0.0068131801672279835
","x: 197.43507385253906
y: 346.05938720703125
z: -0.0065796468406915665
",,,,,,,,,,,,,,,,,,,,,
5,"x: 250.42010498046875
y: 228.50477600097656
z: -0.26144081354141235
visibility: 0.9999794960021973
","x: 253.3290252685547
y: 222.07763671875
z: -0.24457666277885437
visibility: 0.999932587146759
","x: 254.5357666015625
y: 222.6058349609375
z: -0.24460217356681824
visibility: 0.9999287128448486
","x: 255.59303283691406
y: 223.13011169433594
z: -0.24463626742362976
visibility: 0.9999122619628906
","x: 249.3771209716797
y: 220.42955017089844
z: -0.24600382149219513
visibility: 0.9999347925186157
","x: 247.9222869873047
y: 219.91619873046875
z: -0.24602743983268738
visibility: 0.9999353885650635
","x: 246.5984344482422
y: 219.5108184814453
z: -0.24600572884082794
visibility: 0.9999300241470337
","x: 257.3919372558594
y: 226.8586883544922
z: -0.14177438616752625
visibility: 0.9998264312744141
","x: 244.6107635498047
y: 222.82461547851562
z: -0.15018968284130096
visibility: 0.9998787641525269
","x: 252.64492797851562
y: 235.4661865234375
z: -0.223139688372612
visibility: 0.99993497133255
","x: 247.18783569335938
y: 235.1221923828125
z: -0.22561845183372498
visibility: 0.9999546408653259
","x: 268.2717590332031
y: 271.6711120605469
z: -0.08479587733745575
visibility: 0.9999354481697083
","x: 228.05160522460938
y: 265.8379211425781
z: -0.0777345523238182
visibility: 0.9999406337738037
","x: 282.6059265136719
y: 311.58935546875
z: -0.09326580166816711
visibility: 0.9634490609169006
","x: 212.53038024902344
y: 307.3101501464844
z: -0.08129625022411346
visibility: 0.9803920388221741
","x: 299.6718444824219
y: 345.5054016113281
z: -0.23849961161613464
visibility: 0.9618317484855652
","x: 200.5157470703125
y: 331.2101745605469
z: -0.2432110607624054
visibility: 0.9825148582458496
","x: 305.57354736328125
y: 355.614990234375
z: -0.2693588137626648
visibility: 0.9409126043319702
","x: 197.77713012695312
y: 338.79449462890625
z: -0.3049520254135132
visibility: 0.9660768508911133
","x: 305.7574768066406
y: 353.662353515625
z: -0.3014110028743744
visibility: 0.9471089839935303
","x: 199.91249084472656
y: 337.2989196777344
z: -0.3305254876613617
visibility: 0.9684063196182251
","x: 303.1881103515625
y: 350.5685119628906
z: -0.2550598084926605
visibility: 0.9368470907211304
","x: 201.74551391601562
y: 334.1078186035156
z: -0.24275994300842285
visibility: 0.9602149724960327
","x: 259.29254150390625
y: 368.6886901855469
z: -0.000834511942230165
visibility: 0.9996806383132935
","x: 238.39727783203125
y: 369.4125671386719
z: 0.000867394614033401
visibility: 0.9997759461402893
","x: 267.54034423828125
y: 434.9547119140625
z: -0.159975066781044
visibility: 0.9976803660392761
","x: 233.06683349609375
y: 439.164794921875
z: -0.01853281632065773
visibility: 0.9969337582588196
","x: 262.0308532714844
y: 504.1412353515625
z: -0.054980479180812836
visibility: 0.9965986609458923
","x: 234.64874267578125
y: 502.0233459472656
z: 0.13443900644779205
visibility: 0.9967684745788574
","x: 259.2431945800781
y: 512.5223388671875
z: -0.051170699298381805
visibility: 0.9321178197860718
","x: 238.92921447753906
y: 510.8805847167969
z: 0.14116568863391876
visibility: 0.9538623690605164
","x: 266.5926818847656
y: 526.5244140625
z: -0.1749970018863678
visibility: 0.994297981262207
","x: 226.67529296875
y: 521.9885864257812
z: 0.03481949120759964
visibility: 0.9939791560173035
","x: 198.6007537841797
y: 333.67144775390625
z: 0.0
","x: 201.09619140625
y: 333.6731262207031
z: -0.002356791403144598
","x: 203.55274963378906
y: 334.4510192871094
z: -0.0051161181181669235
","x: 205.50929260253906
y: 334.93792724609375
z: -0.007662917021661997
","x: 207.03097534179688
y: 335.634033203125
z: -0.010196339339017868
","x: 201.76904296875
y: 337.0069580078125
z: -0.00641164043918252
","x: 202.14894104003906
y: 342.11126708984375
z: -0.008717821910977364
","x: 202.07106018066406
y: 345.67572021484375
z: -0.009701183997094631
","x: 201.9876251220703
y: 348.2095947265625
z: -0.010152249597012997
","x: 199.7696075439453
y: 337.3765563964844
z: -0.006396159529685974
","x: 200.41500854492188
y: 342.2778015136719
z: -0.008392713963985443
","x: 200.61349487304688
y: 345.98431396484375
z: -0.008390593342483044
","x: 200.7848663330078
y: 348.823486328125
z: -0.008400355465710163
","x: 197.82691955566406
y: 337.8511047363281
z: -0.006212047301232815
","x: 198.41653442382812
y: 342.76300048828125
z: -0.007889434695243835
","x: 198.95382690429688
y: 346.21502685546875
z: -0.0073848143219947815
","x: 199.36642456054688
y: 348.53204345703125
z: -0.007036926224827766
","x: 196.0144500732422
y: 338.2548828125
z: -0.006192052736878395
","x: 196.48831176757812
y: 342.22418212890625
z: -0.007158124819397926
","x: 197.01519775390625
y: 344.6130065917969
z: -0.0068131801672279835
","x: 197.43507385253906
y: 346.05938720703125
z: -0.0065796468406915665
",,,,,,,,,,,,,,,,,,,,,
6,"x: 250.6844940185547
y: 226.63592529296875
z: -0.3090474605560303
visibility: 0.9999809861183167
","x: 253.44984436035156
y: 220.0824737548828
z: -0.2925049662590027
visibility: 0.9999376535415649
","x: 254.6335906982422
y: 220.53643798828125
z: -0.2925039827823639
visibility: 0.9999340772628784
","x: 255.79078674316406
y: 221.00013732910156
z: -0.2925635874271393
visibility: 0.9999191761016846
","x: 249.39108276367188
y: 218.59841918945312
z: -0.29345226287841797
visibility: 0.9999397993087769
","x: 247.82945251464844
y: 218.1155548095703
z: -0.29350754618644714
visibility: 0.999940037727356
","x: 246.38406372070312
y: 217.7506866455078
z: -0.2934834361076355
visibility: 0.999934732913971
","x: 257.4906921386719
y: 224.5155029296875
z: -0.19224922358989716
visibility: 0.9998416900634766
","x: 243.99267578125
y: 220.80506896972656
z: -0.20057964324951172
visibility: 0.9998876452445984
","x: 252.84518432617188
y: 233.67007446289062
z: -0.27198177576065063
visibility: 0.9999406337738037
","x: 247.4302215576172
y: 233.2598114013672
z: -0.27441519498825073
visibility: 0.9999582171440125
","x: 268.0229187011719
y: 271.0625915527344
z: -0.1348554790019989
visibility: 0.999940037727356
","x: 227.48703002929688
y: 263.324951171875
z: -0.12459379434585571
visibility: 0.9999433159828186
","x: 282.982421875
y: 311.08416748046875
z: -0.14396344125270844
visibility: 0.9668013453483582
","x: 209.74986267089844
y: 302.84375
z: -0.14762572944164276
visibility: 0.9815389513969421
","x: 297.0857849121094
y: 350.4721374511719
z: -0.26469969749450684
visibility: 0.9648299217224121
","x: 203.97328186035156
y: 334.82806396484375
z: -0.26700958609580994
visibility: 0.9820824861526489
","x: 301.03887939453125
y: 365.2580261230469
z: -0.2901243567466736
visibility: 0.9445842504501343
","x: 201.39659118652344
y: 347.3779602050781
z: -0.3221311569213867
visibility: 0.9645218253135681
","x: 300.0977783203125
y: 364.7380065917969
z: -0.3208514451980591
visibility: 0.9504769444465637
","x: 205.66184997558594
y: 347.6336975097656
z: -0.34625935554504395
visibility: 0.9671072363853455
","x: 298.06597900390625
y: 360.0133056640625
z: -0.279069721698761
visibility: 0.9407504796981812
","x: 207.09317016601562
y: 343.3768310546875
z: -0.27306467294692993
visibility: 0.9587258100509644
","x: 259.1164855957031
y: 368.0743713378906
z: -0.00018777584773488343
visibility: 0.9997031688690186
","x: 238.35227966308594
y: 369.0040283203125
z: 0.00017845371621660888
visibility: 0.9997879862785339
","x: 261.7633056640625
y: 432.9503173828125
z: -0.14602109789848328
visibility: 0.9975835084915161
","x: 233.6510467529297
y: 438.1134033203125
z: -0.013460462912917137
visibility: 0.9966970682144165
","x: 256.1750183105469
y: 502.0692138671875
z: -0.03466905653476715
visibility: 0.9964300990104675
","x: 234.7028045654297
y: 501.98846435546875
z: 0.1211998239159584
visibility: 0.9964920282363892
","x: 252.92518615722656
y: 511.6412353515625
z: -0.030435409396886826
visibility: 0.9348039627075195
","x: 239.5755157470703
y: 511.1822509765625
z: 0.12577906250953674
visibility: 0.9517923593521118
","x: 262.6099853515625
y: 525.2442626953125
z: -0.14726483821868896
visibility: 0.9941510558128357
","x: 225.36190795898438
y: 521.30517578125
z: 0.01983090117573738
visibility: 0.9934952855110168
",,,,,,,,,,,,,,,,,,,,,,,,,,,,,,,,,,,,,,,,,,
7,"x: 251.56805419921875
y: 225.93679809570312
z: -0.3810233175754547
visibility: 0.9999803304672241
","x: 253.84408569335938
y: 219.65476989746094
z: -0.3653593063354492
visibility: 0.9999363422393799
","x: 254.97991943359375
y: 220.1902618408203
z: -0.3653901517391205
visibility: 0.9999338984489441
","x: 256.02423095703125
y: 220.75177001953125
z: -0.36548152565956116
visibility: 0.9999212622642517
","x: 250.03555297851562
y: 218.11032104492188
z: -0.365980327129364
visibility: 0.9999354481697083
","x: 248.56698608398438
y: 217.65859985351562
z: -0.36600932478904724
visibility: 0.9999329447746277
","x: 247.1157684326172
y: 217.33184814453125
z: -0.365981787443161
visibility: 0.9999247789382935
","x: 257.8262634277344
y: 224.3944549560547
z: -0.2622411847114563
visibility: 0.999850332736969
","x: 244.10443115234375
y: 220.67352294921875
z: -0.2653522789478302
visibility: 0.999870240688324
","x: 253.46517944335938
y: 233.18118286132812
z: -0.34211429953575134
visibility: 0.999944269657135
","x: 248.30137634277344
y: 232.498779296875
z: -0.3430386483669281
visibility: 0.9999580383300781
","x: 268.0157775878906
y: 272.90472412109375
z: -0.2010820358991623
visibility: 0.999945342540741
","x: 227.62374877929688
y: 262.8025207519531
z: -0.16490620374679565
visibility: 0.9999412298202515
","x: 284.8053894042969
y: 310.78045654296875
z: -0.2180696278810501
visibility: 0.969833493232727
","x: 209.9718475341797
y: 301.93060302734375
z: -0.10740111023187637
visibility: 0.9823298454284668
","x: 299.9132080078125
y: 348.51953125
z: -0.35863107442855835
visibility: 0.9674232602119446
","x: 202.5451202392578
y: 343.2578125
z: -0.13699586689472198
visibility: 0.978815495967865
","x: 304.935546875
y: 362.05364990234375
z: -0.3923347592353821
visibility: 0.9478236436843872
","x: 199.39501953125
y: 355.22100830078125
z: -0.15060089528560638
visibility: 0.9560128450393677
","x: 303.4954833984375
y: 360.6959228515625
z: -0.4257984161376953
visibility: 0.9534446001052856
","x: 203.5715789794922
y: 356.38079833984375
z: -0.18336643278598785
visibility: 0.9596651196479797
","x: 301.1521301269531
y: 355.8293151855469
z: -0.37512385845184326
visibility: 0.9438918828964233
","x: 205.5483856201172
y: 352.42327880859375
z: -0.1507471352815628
visibility: 0.9507659077644348
","x: 257.8533020019531
y: 367.309814453125
z: -0.0023893096949905157
visibility: 0.999721884727478
","x: 236.5317840576172
y: 368.2035827636719
z: 0.0024827620945870876
visibility: 0.9997769594192505
","x: 258.0554504394531
y: 432.7734680175781
z: -0.15464486181735992
visibility: 0.9975408315658569
","x: 233.33596801757812
y: 438.627685546875
z: 0.020888619124889374
visibility: 0.996313214302063
","x: 252.11209106445312
y: 499.651611328125
z: -0.015254063531756401
visibility: 0.9965062141418457
","x: 234.66880798339844
y: 501.85162353515625
z: 0.20370936393737793
visibility: 0.9959359765052795
","x: 249.6444854736328
y: 509.12823486328125
z: -0.008916188031435013
visibility: 0.9337224364280701
","x: 239.30374145507812
y: 510.8851318359375
z: 0.21230840682983398
visibility: 0.9479786157608032
","x: 254.11648559570312
y: 524.286376953125
z: -0.1484488993883133
visibility: 0.9942066073417664
","x: 226.38418579101562
y: 521.1771240234375
z: 0.09118001908063889
visibility: 0.9929311275482178
",,,,,,,,,,,,,,,,,,,,,,,,,,,,,,,,,,,,,,,,,,
8,"x: 255.07896423339844
y: 240.36978149414062
z: -0.3427274525165558
visibility: 0.9999797940254211
","x: 256.8377380371094
y: 233.11764526367188
z: -0.3272063136100769
visibility: 0.999932587146759
","x: 257.8467712402344
y: 233.09286499023438
z: -0.32722771167755127
visibility: 0.9999304413795471
","x: 258.7387390136719
y: 233.0612335205078
z: -0.32725971937179565
visibility: 0.9999162554740906
","x: 253.25274658203125
y: 232.384521484375
z: -0.33102738857269287
visibility: 0.9999311566352844
","x: 251.81021118164062
y: 231.8216094970703
z: -0.33106034994125366
visibility: 0.9999287128448486
","x: 250.3013458251953
y: 231.25711059570312
z: -0.33106034994125366
visibility: 0.9999184608459473
","x: 258.8992919921875
y: 234.08876037597656
z: -0.22084537148475647
visibility: 0.999836266040802
","x: 245.81588745117188
y: 231.718505859375
z: -0.23952671885490417
visibility: 0.999864399433136
","x: 255.75860595703125
y: 246.13319396972656
z: -0.3013451397418976
visibility: 0.9999435544013977
","x: 251.61180114746094
y: 245.31613159179688
z: -0.3061642050743103
visibility: 0.9999573230743408
","x: 267.7828674316406
y: 275.5992431640625
z: -0.16423772275447845
visibility: 0.999947190284729
","x: 228.63931274414062
y: 270.5162353515625
z: -0.15685559809207916
visibility: 0.9999418258666992
","x: 275.3242492675781
y: 321.18353271484375
z: -0.1534545123577118
visibility: 0.9680633544921875
","x: 215.72483825683594
y: 316.3292236328125
z: -0.15648967027664185
visibility: 0.9829796552658081
","x: 291.1355285644531
y: 347.40167236328125
z: -0.3160701394081116
visibility: 0.9672251343727112
","x: 208.3795928955078
y: 352.67156982421875
z: -0.25821274518966675
visibility: 0.9786282181739807
","x: 297.6748046875
y: 360.1640625
z: -0.3500143885612488
visibility: 0.9474558234214783
","x: 205.3295135498047
y: 361.5932922363281
z: -0.2854173481464386
visibility: 0.9559114575386047
","x: 300.4644470214844
y: 358.5191650390625
z: -0.38226181268692017
visibility: 0.9533868432044983
","x: 206.68612670898438
y: 360.5311584472656
z: -0.3216037452220917
visibility: 0.9597418308258057
","x: 297.5166931152344
y: 353.11029052734375
z: -0.33121010661125183
visibility: 0.9438278079032898
","x: 208.71876525878906
y: 357.7940368652344
z: -0.27495595812797546
visibility: 0.9509420394897461
","x: 258.4586181640625
y: 370.98736572265625
z: 0.008999756537377834
visibility: 0.9997309446334839
","x: 237.1351776123047
y: 370.5046081542969
z: -0.008957496844232082
visibility: 0.9997705817222595
","x: 257.7944641113281
y: 437.47747802734375
z: -0.036086030304431915
visibility: 0.9970807433128357
","x: 237.1560516357422
y: 439.5477294921875
z: 0.025048453360795975
visibility: 0.9955304861068726
","x: 252.17385864257812
y: 499.81793212890625
z: 0.13076815009117126
visibility: 0.9957993030548096
","x: 235.18894958496094
y: 498.9571838378906
z: 0.23860995471477509
visibility: 0.9946825504302979
","x: 249.89682006835938
y: 509.06817626953125
z: 0.14096859097480774
visibility: 0.932200014591217
","x: 238.2530975341797
y: 505.5425720214844
z: 0.252399742603302
visibility: 0.9338743090629578
","x: 253.120849609375
y: 524.4259033203125
z: 0.026294995099306107
visibility: 0.9936128854751587
","x: 231.40951538085938
y: 521.1044921875
z: 0.14034301042556763
visibility: 0.9915456175804138
",,,,,,,,,,,,,,,,,,,,,,,,,,,,,,,,,,,,,,,,,,
9,"x: 252.48873901367188
y: 236.6820526123047
z: -0.19933322072029114
visibility: 0.9999616146087646
","x: 254.97567749023438
y: 229.55711364746094
z: -0.18518663942813873
visibility: 0.9998943209648132
","x: 256.36627197265625
y: 229.65228271484375
z: -0.185246080160141
visibility: 0.9998888969421387
","x: 257.6295471191406
y: 229.74974060058594
z: -0.18524104356765747
visibility: 0.9998732805252075
","x: 251.003173828125
y: 228.24749755859375
z: -0.18171243369579315
visibility: 0.9999081492424011
","x: 249.7006072998047
y: 227.3648681640625
z: -0.18174467980861664
visibility: 0.9999052882194519
","x: 248.42408752441406
y: 226.5413055419922
z: -0.18182194232940674
visibility: 0.9999001026153564
","x: 258.94158935546875
y: 232.12937927246094
z: -0.09622262418270111
visibility: 0.9997537732124329
","x: 245.77197265625
y: 227.5942840576172
z: -0.07961637526750565
visibility: 0.9998242259025574
","x: 254.61178588867188
y: 242.3289337158203
z: -0.16503724455833435
visibility: 0.9998769760131836
","x: 250.03378295898438
y: 241.05487060546875
z: -0.16041779518127441
visibility: 0.9999161958694458
","x: 268.6769714355469
y: 267.3377685546875
z: -0.06761294603347778
visibility: 0.9996148347854614
","x: 232.7672576904297
y: 267.5884704589844
z: -0.037087731063365936
visibility: 0.9999163150787354
","x: 255.9896240234375
y: 301.5765075683594
z: -0.11191247403621674
visibility: 0.9578037261962891
","x: 235.28607177734375
y: 314.6062927246094
z: -0.077748142182827
visibility: 0.9738857746124268
","x: 234.97154235839844
y: 314.32647705078125
z: -0.1679837852716446
visibility: 0.9446993470191956
","x: 252.2196044921875
y: 342.65203857421875
z: -0.18112416565418243
visibility: 0.9524001479148865
","x: 227.0229034423828
y: 323.45452880859375
z: -0.19728747010231018
visibility: 0.9224951863288879
","x: 255.2493896484375
y: 354.8327941894531
z: -0.21111388504505157
visibility: 0.9262678623199463
","x: 225.96791076660156
y: 320.195068359375
z: -0.20003430545330048
visibility: 0.9284574389457703
","x: 255.69642639160156
y: 348.29046630859375
z: -0.2204173058271408
visibility: 0.9286227226257324
","x: 228.8097686767578
y: 316.68798828125
z: -0.1697331964969635
visibility: 0.9108766317367554
","x: 254.5689239501953
y: 344.8373107910156
z: -0.18658989667892456
visibility: 0.9137959480285645
","x: 258.7963562011719
y: 368.01165771484375
z: 0.005779591854661703
visibility: 0.9995161890983582
","x: 237.30152893066406
y: 364.49639892578125
z: -0.005769164301455021
visibility: 0.999718189239502
","x: 258.64453125
y: 437.03173828125
z: -0.042256321758031845
visibility: 0.9931088089942932
","x: 238.4460906982422
y: 431.66998291015625
z: -0.12601682543754578
visibility: 0.9951238036155701
","x: 251.69528198242188
y: 501.4539794921875
z: 0.024672934785485268
visibility: 0.9886850714683533
","x: 235.08956909179688
y: 500.0188903808594
z: -0.09612233936786652
visibility: 0.9935110211372375
","x: 248.7654571533203
y: 515.2379150390625
z: 0.024790223687887192
visibility: 0.9224159121513367
","x: 237.64013671875
y: 513.3643188476562
z: -0.09957011044025421
visibility: 0.9142371416091919
","x: 253.26226806640625
y: 520.7802734375
z: -0.0768708810210228
visibility: 0.9883026480674744
","x: 235.7918243408203
y: 516.3109130859375
z: -0.220737025141716
visibility: 0.9895473122596741
","x: 253.06614685058594
y: 338.9879150390625
z: 0.0
","x: 255.19259643554688
y: 335.03271484375
z: -0.004584456793963909
","x: 257.7637939453125
y: 333.7570495605469
z: -0.008031404577195644
","x: 260.1172790527344
y: 334.82635498046875
z: -0.010348459705710411
","x: 261.8056335449219
y: 337.68231201171875
z: -0.012175369076430798
","x: 254.980712890625
y: 340.3731689453125
z: -0.012310986407101154
","x: 259.7380065917969
y: 342.9773254394531
z: -0.015480393543839455
","x: 262.05767822265625
y: 340.5745849609375
z: -0.01503760926425457
","x: 262.9664611816406
y: 337.9318542480469
z: -0.014075856655836105
","x: 254.6539306640625
y: 344.75
z: -0.010899735614657402
","x: 260.2262878417969
y: 346.7274475097656
z: -0.013713364489376545
","x: 262.5727233886719
y: 343.5133056640625
z: -0.012138902209699154
","x: 263.0674133300781
y: 340.4318542480469
z: -0.010716904886066914
","x: 255.02357482910156
y: 347.628173828125
z: -0.009255621582269669
","x: 260.356201171875
y: 348.8188171386719
z: -0.011840544641017914
","x: 262.346435546875
y: 345.62481689453125
z: -0.010329035110771656
","x: 262.81365966796875
y: 342.7267761230469
z: -0.008911137469112873
","x: 255.87896728515625
y: 349.46990966796875
z: -0.007787482813000679
","x: 260.18560791015625
y: 349.85601806640625
z: -0.009664390236139297
","x: 261.98248291015625
y: 347.3302001953125
z: -0.009148683398962021
","x: 262.6309509277344
y: 344.78253173828125
z: -0.008338229730725288
","x: 233.34213256835938
y: 312.9322204589844
z: 0.0
","x: 229.07664489746094
y: 314.2016906738281
z: 0.001276287715882063
","x: 225.40684509277344
y: 317.3538818359375
z: 0.0006597678875550628
","x: 223.52255249023438
y: 321.76922607421875
z: -0.0003240890218876302
","x: 222.56732177734375
y: 325.71575927734375
z: -0.001267779152840376
","x: 223.0774688720703
y: 316.2723388671875
z: -0.0018719936488196254
","x: 218.24948120117188
y: 319.92620849609375
z: -0.003634988097473979
","x: 216.31369018554688
y: 323.1209716796875
z: -0.004023393616080284
","x: 215.27081298828125
y: 325.9533386230469
z: -0.004071702715009451
","x: 224.1774139404297
y: 318.8542785644531
z: -0.003912850748747587
","x: 219.12095642089844
y: 323.1266784667969
z: -0.005427633877843618
","x: 216.8670196533203
y: 326.3076171875
z: -0.0052833110094070435
","x: 215.4128875732422
y: 329.0704650878906
z: -0.0052548362873494625
","x: 225.73837280273438
y: 321.5933532714844
z: -0.005836348049342632
","x: 221.12730407714844
y: 325.728515625
z: -0.007573227398097515
","x: 218.70347595214844
y: 328.627685546875
z: -0.007601468823850155
","x: 217.01205444335938
y: 331.15728759765625
z: -0.007634829264134169
","x: 227.653564453125
y: 324.41253662109375
z: -0.007663327269256115
","x: 224.59246826171875
y: 327.0648498535156
z: -0.009032543748617172
","x: 223.264404296875
y: 328.6433410644531
z: -0.008931263349950314
","x: 222.41513061523438
y: 330.1286315917969
z: -0.008843549527227879
"
10,"x: 252.48873901367188
y: 236.6820526123047
z: -0.19933322072029114
visibility: 0.9999616146087646
","x: 254.97567749023438
y: 229.55711364746094
z: -0.18518663942813873
visibility: 0.9998943209648132
","x: 256.36627197265625
y: 229.65228271484375
z: -0.185246080160141
visibility: 0.9998888969421387
","x: 257.6295471191406
y: 229.74974060058594
z: -0.18524104356765747
visibility: 0.9998732805252075
","x: 251.003173828125
y: 228.24749755859375
z: -0.18171243369579315
visibility: 0.9999081492424011
","x: 249.7006072998047
y: 227.3648681640625
z: -0.18174467980861664
visibility: 0.9999052882194519
","x: 248.42408752441406
y: 226.5413055419922
z: -0.18182194232940674
visibility: 0.9999001026153564
","x: 258.94158935546875
y: 232.12937927246094
z: -0.09622262418270111
visibility: 0.9997537732124329
","x: 245.77197265625
y: 227.5942840576172
z: -0.07961637526750565
visibility: 0.9998242259025574
","x: 254.61178588867188
y: 242.3289337158203
z: -0.16503724455833435
visibility: 0.9998769760131836
","x: 250.03378295898438
y: 241.05487060546875
z: -0.16041779518127441
visibility: 0.9999161958694458
","x: 268.6769714355469
y: 267.3377685546875
z: -0.06761294603347778
visibility: 0.9996148347854614
","x: 232.7672576904297
y: 267.5884704589844
z: -0.037087731063365936
visibility: 0.9999163150787354
","x: 255.9896240234375
y: 301.5765075683594
z: -0.11191247403621674
visibility: 0.9578037261962891
","x: 235.28607177734375
y: 314.6062927246094
z: -0.077748142182827
visibility: 0.9738857746124268
","x: 234.97154235839844
y: 314.32647705078125
z: -0.1679837852716446
visibility: 0.9446993470191956
","x: 252.2196044921875
y: 342.65203857421875
z: -0.18112416565418243
visibility: 0.9524001479148865
","x: 227.0229034423828
y: 323.45452880859375
z: -0.19728747010231018
visibility: 0.9224951863288879
","x: 255.2493896484375
y: 354.8327941894531
z: -0.21111388504505157
visibility: 0.9262678623199463
","x: 225.96791076660156
y: 320.195068359375
z: -0.20003430545330048
visibility: 0.9284574389457703
","x: 255.69642639160156
y: 348.29046630859375
z: -0.2204173058271408
visibility: 0.9286227226257324
","x: 228.8097686767578
y: 316.68798828125
z: -0.1697331964969635
visibility: 0.9108766317367554
","x: 254.5689239501953
y: 344.8373107910156
z: -0.18658989667892456
visibility: 0.9137959480285645
","x: 258.7963562011719
y: 368.01165771484375
z: 0.005779591854661703
visibility: 0.9995161890983582
","x: 237.30152893066406
y: 364.49639892578125
z: -0.005769164301455021
visibility: 0.999718189239502
","x: 258.64453125
y: 437.03173828125
z: -0.042256321758031845
visibility: 0.9931088089942932
","x: 238.4460906982422
y: 431.66998291015625
z: -0.12601682543754578
visibility: 0.9951238036155701
","x: 251.69528198242188
y: 501.4539794921875
z: 0.024672934785485268
visibility: 0.9886850714683533
","x: 235.08956909179688
y: 500.0188903808594
z: -0.09612233936786652
visibility: 0.9935110211372375
","x: 248.7654571533203
y: 515.2379150390625
z: 0.024790223687887192
visibility: 0.9224159121513367
","x: 237.64013671875
y: 513.3643188476562
z: -0.09957011044025421
visibility: 0.9142371416091919
","x: 253.26226806640625
y: 520.7802734375
z: -0.0768708810210228
visibility: 0.9883026480674744
","x: 235.7918243408203
y: 516.3109130859375
z: -0.220737025141716
visibility: 0.9895473122596741
","x: 253.06614685058594
y: 338.9879150390625
z: 0.0
","x: 255.19259643554688
y: 335.03271484375
z: -0.004584456793963909
","x: 257.7637939453125
y: 333.7570495605469
z: -0.008031404577195644
","x: 260.1172790527344
y: 334.82635498046875
z: -0.010348459705710411
","x: 261.8056335449219
y: 337.68231201171875
z: -0.012175369076430798
","x: 254.980712890625
y: 340.3731689453125
z: -0.012310986407101154
","x: 259.7380065917969
y: 342.9773254394531
z: -0.015480393543839455
","x: 262.05767822265625
y: 340.5745849609375
z: -0.01503760926425457
","x: 262.9664611816406
y: 337.9318542480469
z: -0.014075856655836105
","x: 254.6539306640625
y: 344.75
z: -0.010899735614657402
","x: 260.2262878417969
y: 346.7274475097656
z: -0.013713364489376545
","x: 262.5727233886719
y: 343.5133056640625
z: -0.012138902209699154
","x: 263.0674133300781
y: 340.4318542480469
z: -0.010716904886066914
","x: 255.02357482910156
y: 347.628173828125
z: -0.009255621582269669
","x: 260.356201171875
y: 348.8188171386719
z: -0.011840544641017914
","x: 262.346435546875
y: 345.62481689453125
z: -0.010329035110771656
","x: 262.81365966796875
y: 342.7267761230469
z: -0.008911137469112873
","x: 255.87896728515625
y: 349.46990966796875
z: -0.007787482813000679
","x: 260.18560791015625
y: 349.85601806640625
z: -0.009664390236139297
","x: 261.98248291015625
y: 347.3302001953125
z: -0.009148683398962021
","x: 262.6309509277344
y: 344.78253173828125
z: -0.008338229730725288
","x: 233.34213256835938
y: 312.9322204589844
z: 0.0
","x: 229.07664489746094
y: 314.2016906738281
z: 0.001276287715882063
","x: 225.40684509277344
y: 317.3538818359375
z: 0.0006597678875550628
","x: 223.52255249023438
y: 321.76922607421875
z: -0.0003240890218876302
","x: 222.56732177734375
y: 325.71575927734375
z: -0.001267779152840376
","x: 223.0774688720703
y: 316.2723388671875
z: -0.0018719936488196254
","x: 218.24948120117188
y: 319.92620849609375
z: -0.003634988097473979
","x: 216.31369018554688
y: 323.1209716796875
z: -0.004023393616080284
","x: 215.27081298828125
y: 325.9533386230469
z: -0.004071702715009451
","x: 224.1774139404297
y: 318.8542785644531
z: -0.003912850748747587
","x: 219.12095642089844
y: 323.1266784667969
z: -0.005427633877843618
","x: 216.8670196533203
y: 326.3076171875
z: -0.0052833110094070435
","x: 215.4128875732422
y: 329.0704650878906
z: -0.0052548362873494625
","x: 225.73837280273438
y: 321.5933532714844
z: -0.005836348049342632
","x: 221.12730407714844
y: 325.728515625
z: -0.007573227398097515
","x: 218.70347595214844
y: 328.627685546875
z: -0.007601468823850155
","x: 217.01205444335938
y: 331.15728759765625
z: -0.007634829264134169
","x: 227.653564453125
y: 324.41253662109375
z: -0.007663327269256115
","x: 224.59246826171875
y: 327.0648498535156
z: -0.009032543748617172
","x: 223.264404296875
y: 328.6433410644531
z: -0.008931263349950314
","x: 222.41513061523438
y: 330.1286315917969
z: -0.008843549527227879
"
11,"x: 252.48873901367188
y: 236.6820526123047
z: -0.19933322072029114
visibility: 0.9999616146087646
","x: 254.97567749023438
y: 229.55711364746094
z: -0.18518663942813873
visibility: 0.9998943209648132
","x: 256.36627197265625
y: 229.65228271484375
z: -0.185246080160141
visibility: 0.9998888969421387
","x: 257.6295471191406
y: 229.74974060058594
z: -0.18524104356765747
visibility: 0.9998732805252075
","x: 251.003173828125
y: 228.24749755859375
z: -0.18171243369579315
visibility: 0.9999081492424011
","x: 249.7006072998047
y: 227.3648681640625
z: -0.18174467980861664
visibility: 0.9999052882194519
","x: 248.42408752441406
y: 226.5413055419922
z: -0.18182194232940674
visibility: 0.9999001026153564
","x: 258.94158935546875
y: 232.12937927246094
z: -0.09622262418270111
visibility: 0.9997537732124329
","x: 245.77197265625
y: 227.5942840576172
z: -0.07961637526750565
visibility: 0.9998242259025574
","x: 254.61178588867188
y: 242.3289337158203
z: -0.16503724455833435
visibility: 0.9998769760131836
","x: 250.03378295898438
y: 241.05487060546875
z: -0.16041779518127441
visibility: 0.9999161958694458
","x: 268.6769714355469
y: 267.3377685546875
z: -0.06761294603347778
visibility: 0.9996148347854614
","x: 232.7672576904297
y: 267.5884704589844
z: -0.037087731063365936
visibility: 0.9999163150787354
","x: 255.9896240234375
y: 301.5765075683594
z: -0.11191247403621674
visibility: 0.9578037261962891
","x: 235.28607177734375
y: 314.6062927246094
z: -0.077748142182827
visibility: 0.9738857746124268
","x: 234.97154235839844
y: 314.32647705078125
z: -0.1679837852716446
visibility: 0.9446993470191956
","x: 252.2196044921875
y: 342.65203857421875
z: -0.18112416565418243
visibility: 0.9524001479148865
","x: 227.0229034423828
y: 323.45452880859375
z: -0.19728747010231018
visibility: 0.9224951863288879
","x: 255.2493896484375
y: 354.8327941894531
z: -0.21111388504505157
visibility: 0.9262678623199463
","x: 225.96791076660156
y: 320.195068359375
z: -0.20003430545330048
visibility: 0.9284574389457703
","x: 255.69642639160156
y: 348.29046630859375
z: -0.2204173058271408
visibility: 0.9286227226257324
","x: 228.8097686767578
y: 316.68798828125
z: -0.1697331964969635
visibility: 0.9108766317367554
","x: 254.5689239501953
y: 344.8373107910156
z: -0.18658989667892456
visibility: 0.9137959480285645
","x: 258.7963562011719
y: 368.01165771484375
z: 0.005779591854661703
visibility: 0.9995161890983582
","x: 237.30152893066406
y: 364.49639892578125
z: -0.005769164301455021
visibility: 0.999718189239502
","x: 258.64453125
y: 437.03173828125
z: -0.042256321758031845
visibility: 0.9931088089942932
","x: 238.4460906982422
y: 431.66998291015625
z: -0.12601682543754578
visibility: 0.9951238036155701
","x: 251.69528198242188
y: 501.4539794921875
z: 0.024672934785485268
visibility: 0.9886850714683533
","x: 235.08956909179688
y: 500.0188903808594
z: -0.09612233936786652
visibility: 0.9935110211372375
","x: 248.7654571533203
y: 515.2379150390625
z: 0.024790223687887192
visibility: 0.9224159121513367
","x: 237.64013671875
y: 513.3643188476562
z: -0.09957011044025421
visibility: 0.9142371416091919
","x: 253.26226806640625
y: 520.7802734375
z: -0.0768708810210228
visibility: 0.9883026480674744
","x: 235.7918243408203
y: 516.3109130859375
z: -0.220737025141716
visibility: 0.9895473122596741
","x: 253.06614685058594
y: 338.9879150390625
z: 0.0
","x: 255.19259643554688
y: 335.03271484375
z: -0.004584456793963909
","x: 257.7637939453125
y: 333.7570495605469
z: -0.008031404577195644
","x: 260.1172790527344
y: 334.82635498046875
z: -0.010348459705710411
","x: 261.8056335449219
y: 337.68231201171875
z: -0.012175369076430798
","x: 254.980712890625
y: 340.3731689453125
z: -0.012310986407101154
","x: 259.7380065917969
y: 342.9773254394531
z: -0.015480393543839455
","x: 262.05767822265625
y: 340.5745849609375
z: -0.01503760926425457
","x: 262.9664611816406
y: 337.9318542480469
z: -0.014075856655836105
","x: 254.6539306640625
y: 344.75
z: -0.010899735614657402
","x: 260.2262878417969
y: 346.7274475097656
z: -0.013713364489376545
","x: 262.5727233886719
y: 343.5133056640625
z: -0.012138902209699154
","x: 263.0674133300781
y: 340.4318542480469
z: -0.010716904886066914
","x: 255.02357482910156
y: 347.628173828125
z: -0.009255621582269669
","x: 260.356201171875
y: 348.8188171386719
z: -0.011840544641017914
","x: 262.346435546875
y: 345.62481689453125
z: -0.010329035110771656
","x: 262.81365966796875
y: 342.7267761230469
z: -0.008911137469112873
","x: 255.87896728515625
y: 349.46990966796875
z: -0.007787482813000679
","x: 260.18560791015625
y: 349.85601806640625
z: -0.009664390236139297
","x: 261.98248291015625
y: 347.3302001953125
z: -0.009148683398962021
","x: 262.6309509277344
y: 344.78253173828125
z: -0.008338229730725288
","x: 233.34213256835938
y: 312.9322204589844
z: 0.0
","x: 229.07664489746094
y: 314.2016906738281
z: 0.001276287715882063
","x: 225.40684509277344
y: 317.3538818359375
z: 0.0006597678875550628
","x: 223.52255249023438
y: 321.76922607421875
z: -0.0003240890218876302
","x: 222.56732177734375
y: 325.71575927734375
z: -0.001267779152840376
","x: 223.0774688720703
y: 316.2723388671875
z: -0.0018719936488196254
","x: 218.24948120117188
y: 319.92620849609375
z: -0.003634988097473979
","x: 216.31369018554688
y: 323.1209716796875
z: -0.004023393616080284
","x: 215.27081298828125
y: 325.9533386230469
z: -0.004071702715009451
","x: 224.1774139404297
y: 318.8542785644531
z: -0.003912850748747587
","x: 219.12095642089844
y: 323.1266784667969
z: -0.005427633877843618
","x: 216.8670196533203
y: 326.3076171875
z: -0.0052833110094070435
","x: 215.4128875732422
y: 329.0704650878906
z: -0.0052548362873494625
","x: 225.73837280273438
y: 321.5933532714844
z: -0.005836348049342632
","x: 221.12730407714844
y: 325.728515625
z: -0.007573227398097515
","x: 218.70347595214844
y: 328.627685546875
z: -0.007601468823850155
","x: 217.01205444335938
y: 331.15728759765625
z: -0.007634829264134169
","x: 227.653564453125
y: 324.41253662109375
z: -0.007663327269256115
","x: 224.59246826171875
y: 327.0648498535156
z: -0.009032543748617172
","x: 223.264404296875
y: 328.6433410644531
z: -0.008931263349950314
","x: 222.41513061523438
y: 330.1286315917969
z: -0.008843549527227879
"
12,"x: 249.17416381835938
y: 223.2469482421875
z: -0.09317516535520554
visibility: 0.9999407529830933
","x: 252.33758544921875
y: 216.38206481933594
z: -0.08056033402681351
visibility: 0.9998600482940674
","x: 254.01976013183594
y: 216.67527770996094
z: -0.08064030855894089
visibility: 0.9998542666435242
","x: 255.45492553710938
y: 217.09539794921875
z: -0.0806296244263649
visibility: 0.9998413920402527
","x: 248.02005004882812
y: 215.41476440429688
z: -0.07346949726343155
visibility: 0.9998829364776611
","x: 246.83607482910156
y: 214.92750549316406
z: -0.07348503172397614
visibility: 0.9998787045478821
","x: 245.79385375976562
y: 214.52902221679688
z: -0.07354847341775894
visibility: 0.9998781085014343
","x: 257.7152099609375
y: 219.97393798828125
z: -0.003746556118130684
visibility: 0.9997134208679199
","x: 245.2449188232422
y: 216.59603881835938
z: 0.02904125675559044
visibility: 0.9997843503952026
","x: 252.2815399169922
y: 230.39346313476562
z: -0.06384573876857758
visibility: 0.9998128414154053
","x: 246.96533203125
y: 229.3699493408203
z: -0.054605089128017426
visibility: 0.9998652935028076
","x: 268.1767883300781
y: 249.61883544921875
z: -0.011912977322936058
visibility: 0.9995783567428589
","x: 235.14511108398438
y: 261.2625732421875
z: 0.07746762782335281
visibility: 0.9998893141746521
","x: 250.58590698242188
y: 272.8741455078125
z: -0.10187454521656036
visibility: 0.9536410570144653
","x: 232.21376037597656
y: 295.34375
z: -0.0225383248180151
visibility: 0.9391435384750366
","x: 225.47218322753906
y: 282.9544677734375
z: -0.15985789895057678
visibility: 0.9341044425964355
","x: 244.689453125
y: 300.7982482910156
z: -0.18910856544971466
visibility: 0.907922089099884
","x: 216.80003356933594
y: 289.1214904785156
z: -0.18886029720306396
visibility: 0.9089350700378418
","x: 247.90093994140625
y: 305.9605712890625
z: -0.22138741612434387
visibility: 0.8787834644317627
","x: 215.66537475585938
y: 287.1295471191406
z: -0.18592426180839539
visibility: 0.9144240617752075
","x: 248.7667999267578
y: 300.5906066894531
z: -0.22304391860961914
visibility: 0.878652811050415
","x: 219.2761688232422
y: 285.46356201171875
z: -0.15935395658016205
visibility: 0.8875280618667603
","x: 248.10293579101562
y: 299.2652587890625
z: -0.19412751495838165
visibility: 0.859053373336792
","x: 259.5370788574219
y: 359.7821044921875
z: -0.006093540228903294
visibility: 0.9994964003562927
","x: 238.8186492919922
y: 356.2726135253906
z: 0.0061234463937580585
visibility: 0.9997262954711914
","x: 259.1748046875
y: 434.22735595703125
z: -0.03578982502222061
visibility: 0.991597056388855
","x: 237.1929168701172
y: 420.29901123046875
z: -0.1466372311115265
visibility: 0.9951474666595459
","x: 252.67518615722656
y: 502.1099853515625
z: 0.02918129786849022
visibility: 0.9871702790260315
","x: 234.88125610351562
y: 493.5077209472656
z: -0.10102982819080353
visibility: 0.9935511350631714
","x: 250.0718536376953
y: 516.542724609375
z: 0.02831670083105564
visibility: 0.9135780334472656
","x: 235.5224151611328
y: 510.49310302734375
z: -0.10334905236959457
visibility: 0.9076331257820129
","x: 252.39950561523438
y: 520.0103759765625
z: -0.08615636825561523
visibility: 0.9866514801979065
","x: 231.55589294433594
y: 515.3199462890625
z: -0.22372564673423767
visibility: 0.989634096622467
",,,,,,,,,,,,,,,,,,,,,,,,,,,,,,,,,,,,,,,,,,
13,"x: 245.8290252685547
y: 219.62701416015625
z: -0.12221081554889679
visibility: 0.9999117255210876
","x: 248.5921630859375
y: 213.32376098632812
z: -0.10995451360940933
visibility: 0.9997984170913696
","x: 250.34048461914062
y: 213.37872314453125
z: -0.1099613755941391
visibility: 0.9997764229774475
","x: 252.0123748779297
y: 213.55368041992188
z: -0.10991737991571426
visibility: 0.9997400045394897
","x: 244.6962890625
y: 213.0453338623047
z: -0.10349897295236588
visibility: 0.9998496174812317
","x: 243.7443389892578
y: 212.841552734375
z: -0.10351898521184921
visibility: 0.9998482465744019
","x: 242.81491088867188
y: 212.64401245117188
z: -0.10356267541646957
visibility: 0.9998579025268555
","x: 255.34999084472656
y: 216.37213134765625
z: -0.0300900898873806
visibility: 0.9995946884155273
","x: 243.47354125976562
y: 214.74708557128906
z: 0.0005804248503409326
visibility: 0.9997690320014954
","x: 249.40541076660156
y: 226.58348083496094
z: -0.09168188273906708
visibility: 0.9997514486312866
","x: 244.5036163330078
y: 226.38986206054688
z: -0.08282310515642166
visibility: 0.9998335838317871
","x: 267.48968505859375
y: 244.3422088623047
z: -0.022365503013134003
visibility: 0.9995017051696777
","x: 234.23977661132812
y: 258.1788024902344
z: 0.03599538654088974
visibility: 0.9998846054077148
","x: 259.5116271972656
y: 252.05789184570312
z: -0.14462266862392426
visibility: 0.9480727910995483
","x: 222.05889892578125
y: 289.3720397949219
z: -0.07642029970884323
visibility: 0.944335401058197
","x: 238.66404724121094
y: 258.31915283203125
z: -0.24531808495521545
visibility: 0.9173429608345032
","x: 238.86373901367188
y: 287.5211181640625
z: -0.19079677760601044
visibility: 0.9155420660972595
","x: 233.9384307861328
y: 256.725830078125
z: -0.28462159633636475
visibility: 0.883091390132904
","x: 245.57968139648438
y: 293.44854736328125
z: -0.2568640112876892
visibility: 0.8866862058639526
","x: 232.76747131347656
y: 259.03680419921875
z: -0.24048784375190735
visibility: 0.8863593339920044
","x: 247.76370239257812
y: 289.78826904296875
z: -0.26452937722206116
visibility: 0.886060893535614
","x: 234.56207275390625
y: 260.1272277832031
z: -0.23006275296211243
visibility: 0.856416642665863
","x: 246.05804443359375
y: 287.1506042480469
z: -0.23061077296733856
visibility: 0.8660643696784973
","x: 260.30047607421875
y: 354.41534423828125
z: -0.01969987154006958
visibility: 0.9995118975639343
","x: 240.5150146484375
y: 351.21234130859375
z: 0.019652342423796654
visibility: 0.9997303485870361
","x: 259.753173828125
y: 434.1650085449219
z: -0.048402078449726105
visibility: 0.9914684295654297
","x: 237.0030517578125
y: 421.3107604980469
z: -0.01605966128408909
visibility: 0.9949464797973633
","x: 252.1297607421875
y: 502.25543212890625
z: 0.0466885045170784
visibility: 0.9874861240386963
","x: 236.16366577148438
y: 494.24945068359375
z: 0.03537559509277344
visibility: 0.9932503700256348
","x: 249.91830444335938
y: 516.1282958984375
z: 0.04939204826951027
visibility: 0.9137086868286133
","x: 238.69322204589844
y: 507.2528381347656
z: 0.03859524056315422
visibility: 0.908669650554657
","x: 251.79827880859375
y: 520.4957275390625
z: -0.07043055444955826
visibility: 0.9865801334381104
","x: 230.7846221923828
y: 516.0850830078125
z: -0.011852794326841831
visibility: 0.9891176819801331
","x: 240.3921356201172
y: 288.75146484375
z: 0.0
","x: 244.2477569580078
y: 286.640869140625
z: 0.0006715886993333697
","x: 248.22421264648438
y: 287.6640625
z: 0.00026895850896835327
","x: 250.81546020507812
y: 290.60198974609375
z: -0.0003735472564585507
","x: 252.42239379882812
y: 293.44439697265625
z: -0.0009548188536427915
","x: 249.48165893554688
y: 287.7603759765625
z: -0.0019964692182838917
","x: 253.15286254882812
y: 291.7779846191406
z: -0.003560945624485612
","x: 254.86453247070312
y: 295.07696533203125
z: -0.003932633902877569
","x: 255.90028381347656
y: 297.6436767578125
z: -0.003941768314689398
","x: 248.34677124023438
y: 290.8865966796875
z: -0.0033043846487998962
","x: 252.05975341796875
y: 295.2313232421875
z: -0.004809204023331404
","x: 254.0755157470703
y: 298.6664123535156
z: -0.00482530239969492
","x: 255.41622924804688
y: 301.2070007324219
z: -0.004759910516440868
","x: 246.8868865966797
y: 294.16815185546875
z: -0.004491664469242096
","x: 250.16064453125
y: 298.55755615234375
z: -0.005975131411105394
","x: 252.07989501953125
y: 301.34222412109375
z: -0.005882784258574247
","x: 253.45713806152344
y: 303.1636962890625
z: -0.005728204268962145
","x: 245.16661071777344
y: 297.4141845703125
z: -0.005642337258905172
","x: 247.5624542236328
y: 300.9866027832031
z: -0.006871090270578861
","x: 248.95974731445312
y: 302.82916259765625
z: -0.006890853866934776
","x: 250.1089324951172
y: 304.0279846191406
z: -0.006762167904525995
",,,,,,,,,,,,,,,,,,,,,
14,"x: 245.8290252685547
y: 219.62701416015625
z: -0.12221081554889679
visibility: 0.9999117255210876
","x: 248.5921630859375
y: 213.32376098632812
z: -0.10995451360940933
visibility: 0.9997984170913696
","x: 250.34048461914062
y: 213.37872314453125
z: -0.1099613755941391
visibility: 0.9997764229774475
","x: 252.0123748779297
y: 213.55368041992188
z: -0.10991737991571426
visibility: 0.9997400045394897
","x: 244.6962890625
y: 213.0453338623047
z: -0.10349897295236588
visibility: 0.9998496174812317
","x: 243.7443389892578
y: 212.841552734375
z: -0.10351898521184921
visibility: 0.9998482465744019
","x: 242.81491088867188
y: 212.64401245117188
z: -0.10356267541646957
visibility: 0.9998579025268555
","x: 255.34999084472656
y: 216.37213134765625
z: -0.0300900898873806
visibility: 0.9995946884155273
","x: 243.47354125976562
y: 214.74708557128906
z: 0.0005804248503409326
visibility: 0.9997690320014954
","x: 249.40541076660156
y: 226.58348083496094
z: -0.09168188273906708
visibility: 0.9997514486312866
","x: 244.5036163330078
y: 226.38986206054688
z: -0.08282310515642166
visibility: 0.9998335838317871
","x: 267.48968505859375
y: 244.3422088623047
z: -0.022365503013134003
visibility: 0.9995017051696777
","x: 234.23977661132812
y: 258.1788024902344
z: 0.03599538654088974
visibility: 0.9998846054077148
","x: 259.5116271972656
y: 252.05789184570312
z: -0.14462266862392426
visibility: 0.9480727910995483
","x: 222.05889892578125
y: 289.3720397949219
z: -0.07642029970884323
visibility: 0.944335401058197
","x: 238.66404724121094
y: 258.31915283203125
z: -0.24531808495521545
visibility: 0.9173429608345032
","x: 238.86373901367188
y: 287.5211181640625
z: -0.19079677760601044
visibility: 0.9155420660972595
","x: 233.9384307861328
y: 256.725830078125
z: -0.28462159633636475
visibility: 0.883091390132904
","x: 245.57968139648438
y: 293.44854736328125
z: -0.2568640112876892
visibility: 0.8866862058639526
","x: 232.76747131347656
y: 259.03680419921875
z: -0.24048784375190735
visibility: 0.8863593339920044
","x: 247.76370239257812
y: 289.78826904296875
z: -0.26452937722206116
visibility: 0.886060893535614
","x: 234.56207275390625
y: 260.1272277832031
z: -0.23006275296211243
visibility: 0.856416642665863
","x: 246.05804443359375
y: 287.1506042480469
z: -0.23061077296733856
visibility: 0.8660643696784973
","x: 260.30047607421875
y: 354.41534423828125
z: -0.01969987154006958
visibility: 0.9995118975639343
","x: 240.5150146484375
y: 351.21234130859375
z: 0.019652342423796654
visibility: 0.9997303485870361
","x: 259.753173828125
y: 434.1650085449219
z: -0.048402078449726105
visibility: 0.9914684295654297
","x: 237.0030517578125
y: 421.3107604980469
z: -0.01605966128408909
visibility: 0.9949464797973633
","x: 252.1297607421875
y: 502.25543212890625
z: 0.0466885045170784
visibility: 0.9874861240386963
","x: 236.16366577148438
y: 494.24945068359375
z: 0.03537559509277344
visibility: 0.9932503700256348
","x: 249.91830444335938
y: 516.1282958984375
z: 0.04939204826951027
visibility: 0.9137086868286133
","x: 238.69322204589844
y: 507.2528381347656
z: 0.03859524056315422
visibility: 0.908669650554657
","x: 251.79827880859375
y: 520.4957275390625
z: -0.07043055444955826
visibility: 0.9865801334381104
","x: 230.7846221923828
y: 516.0850830078125
z: -0.011852794326841831
visibility: 0.9891176819801331
","x: 240.3921356201172
y: 288.75146484375
z: 0.0
","x: 244.2477569580078
y: 286.640869140625
z: 0.0006715886993333697
","x: 248.22421264648438
y: 287.6640625
z: 0.00026895850896835327
","x: 250.81546020507812
y: 290.60198974609375
z: -0.0003735472564585507
","x: 252.42239379882812
y: 293.44439697265625
z: -0.0009548188536427915
","x: 249.48165893554688
y: 287.7603759765625
z: -0.0019964692182838917
","x: 253.15286254882812
y: 291.7779846191406
z: -0.003560945624485612
","x: 254.86453247070312
y: 295.07696533203125
z: -0.003932633902877569
","x: 255.90028381347656
y: 297.6436767578125
z: -0.003941768314689398
","x: 248.34677124023438
y: 290.8865966796875
z: -0.0033043846487998962
","x: 252.05975341796875
y: 295.2313232421875
z: -0.004809204023331404
","x: 254.0755157470703
y: 298.6664123535156
z: -0.00482530239969492
","x: 255.41622924804688
y: 301.2070007324219
z: -0.004759910516440868
","x: 246.8868865966797
y: 294.16815185546875
z: -0.004491664469242096
","x: 250.16064453125
y: 298.55755615234375
z: -0.005975131411105394
","x: 252.07989501953125
y: 301.34222412109375
z: -0.005882784258574247
","x: 253.45713806152344
y: 303.1636962890625
z: -0.005728204268962145
","x: 245.16661071777344
y: 297.4141845703125
z: -0.005642337258905172
","x: 247.5624542236328
y: 300.9866027832031
z: -0.006871090270578861
","x: 248.95974731445312
y: 302.82916259765625
z: -0.006890853866934776
","x: 250.1089324951172
y: 304.0279846191406
z: -0.006762167904525995
",,,,,,,,,,,,,,,,,,,,,
15,"x: 245.1187744140625
y: 237.8804931640625
z: -0.26256778836250305
visibility: 0.9999189376831055
","x: 247.3416748046875
y: 231.92039489746094
z: -0.24789834022521973
visibility: 0.9998146295547485
","x: 248.9577178955078
y: 231.84400939941406
z: -0.24780841171741486
visibility: 0.9997929930686951
","x: 250.55001831054688
y: 231.7790985107422
z: -0.24781088531017303
visibility: 0.9997603297233582
","x: 243.33880615234375
y: 232.2051239013672
z: -0.24357116222381592
visibility: 0.9998621344566345
","x: 242.1959228515625
y: 232.35162353515625
z: -0.2435881644487381
visibility: 0.9998604655265808
","x: 241.10243225097656
y: 232.4215087890625
z: -0.24358856678009033
visibility: 0.9998700618743896
","x: 253.72679138183594
y: 233.18234252929688
z: -0.1575503945350647
visibility: 0.999625563621521
","x: 240.57432556152344
y: 233.41433715820312
z: -0.1385187804698944
visibility: 0.9997898936271667
","x: 248.6121063232422
y: 243.86602783203125
z: -0.22857780754566193
visibility: 0.9997731447219849
","x: 243.5817108154297
y: 243.94859313964844
z: -0.22312486171722412
visibility: 0.9998486638069153
","x: 266.3536376953125
y: 262.98211669921875
z: -0.11659499257802963
visibility: 0.9995182156562805
","x: 230.50927734375
y: 269.6170654296875
z: -0.1034650206565857
visibility: 0.9998915195465088
","x: 278.2815856933594
y: 271.8893127441406
z: -0.2877906858921051
visibility: 0.9529891610145569
","x: 205.66905212402344
y: 292.51690673828125
z: -0.272726833820343
visibility: 0.9498462677001953
","x: 261.2187194824219
y: 246.834716796875
z: -0.44606250524520874
visibility: 0.9243219494819641
","x: 225.17864990234375
y: 271.9741516113281
z: -0.44113191962242126
visibility: 0.9236983060836792
","x: 249.18016052246094
y: 240.1158905029297
z: -0.48289600014686584
visibility: 0.8890717029571533
","x: 232.17532348632812
y: 270.1041564941406
z: -0.4777957499027252
visibility: 0.8965601921081543
","x: 241.47686767578125
y: 240.722900390625
z: -0.4571511745452881
visibility: 0.8907909989356995
","x: 238.50994873046875
y: 270.5516662597656
z: -0.4559224545955658
visibility: 0.8956676125526428
","x: 239.98577880859375
y: 244.1426239013672
z: -0.44059354066848755
visibility: 0.8609585762023926
","x: 235.8921661376953
y: 272.1338195800781
z: -0.43746209144592285
visibility: 0.8767507076263428
","x: 259.4053039550781
y: 368.0233154296875
z: -0.010081824846565723
visibility: 0.9995387196540833
","x: 238.97366333007812
y: 367.5628356933594
z: 0.009739542379975319
visibility: 0.9997343420982361
","x: 260.1908874511719
y: 437.4181823730469
z: -0.14031991362571716
visibility: 0.9913730025291443
","x: 236.82704162597656
y: 434.6986389160156
z: -0.06657227128744125
visibility: 0.9940910339355469
","x: 251.9742431640625
y: 504.6853942871094
z: -0.012128660455346107
visibility: 0.9872721433639526
","x: 239.2159881591797
y: 501.43048095703125
z: 0.056443192064762115
visibility: 0.9919179081916809
","x: 250.26309204101562
y: 516.3455810546875
z: -0.00540087278932333
visibility: 0.9149410128593445
","x: 241.5087890625
y: 511.7452392578125
z: 0.06299830973148346
visibility: 0.9048739671707153
","x: 252.58563232421875
y: 524.6369018554688
z: -0.12108037620782852
visibility: 0.9863083362579346
","x: 236.5791015625
y: 525.7952880859375
z: -0.03883413225412369
visibility: 0.9878860116004944
",,,,,,,,,,,,,,,,,,,,,,,,,,,,,,,,,,,,,,,,,,
16,"x: 243.7821044921875
y: 238.78256225585938
z: -0.15098059177398682
visibility: 0.9998948574066162
","x: 246.44125366210938
y: 231.78762817382812
z: -0.14651894569396973
visibility: 0.999752938747406
","x: 248.14810180664062
y: 231.57814025878906
z: -0.14654472470283508
visibility: 0.9997313022613525
","x: 249.84786987304688
y: 231.378173828125
z: -0.14656342566013336
visibility: 0.9996968507766724
","x: 242.41392517089844
y: 231.81002807617188
z: -0.13412240147590637
visibility: 0.9997733235359192
","x: 241.35057067871094
y: 231.643310546875
z: -0.13412117958068848
visibility: 0.9997531175613403
","x: 240.3581085205078
y: 231.48501586914062
z: -0.13417062163352966
visibility: 0.999772310256958
","x: 253.10662841796875
y: 233.1583251953125
z: -0.09406278282403946
visibility: 0.9995307922363281
","x: 239.96417236328125
y: 233.21372985839844
z: -0.03673435002565384
visibility: 0.9995573163032532
","x: 247.20814514160156
y: 245.10983276367188
z: -0.12972494959831238
visibility: 0.9997171759605408
","x: 242.25563049316406
y: 244.90232849121094
z: -0.1136292815208435
visibility: 0.9997664093971252
","x: 265.9127502441406
y: 267.9097900390625
z: -0.07759055495262146
visibility: 0.999423086643219
","x: 230.14947509765625
y: 269.28125
z: 0.014632689766585827
visibility: 0.9997732639312744
","x: 268.1941833496094
y: 293.06610107421875
z: -0.2144637554883957
visibility: 0.953476071357727
","x: 216.11407470703125
y: 304.92901611328125
z: -0.09205417335033417
visibility: 0.9475517272949219
","x: 261.2249755859375
y: 259.4263916015625
z: -0.3675427734851837
visibility: 0.9299096465110779
","x: 222.74188232421875
y: 277.8785400390625
z: -0.3727215528488159
visibility: 0.928550124168396
","x: 256.9623718261719
y: 250.24411010742188
z: -0.4000808596611023
visibility: 0.8966721892356873
","x: 223.68756103515625
y: 268.3819580078125
z: -0.450591504573822
visibility: 0.9014500379562378
","x: 242.20318603515625
y: 247.99313354492188
z: -0.39293724298477173
visibility: 0.8977893590927124
","x: 225.62115478515625
y: 263.94793701171875
z: -0.34160348773002625
visibility: 0.9003241658210754
","x: 251.883544921875
y: 252.32623291015625
z: -0.3678205609321594
visibility: 0.868803083896637
","x: 225.93365478515625
y: 268.05743408203125
z: -0.34940800070762634
visibility: 0.8814800381660461
","x: 257.3174133300781
y: 371.3220520019531
z: -0.021862376481294632
visibility: 0.9994814395904541
","x: 237.440185546875
y: 371.20965576171875
z: 0.021683422848582268
visibility: 0.9996897578239441
","x: 254.902099609375
y: 442.31024169921875
z: -0.0478689931333065
visibility: 0.9900224804878235
","x: 234.84375
y: 440.7989807128906
z: -0.015376776456832886
visibility: 0.992613673210144
","x: 252.76991271972656
y: 504.5196838378906
z: 0.14308999478816986
visibility: 0.9850339293479919
","x: 239.55691528320312
y: 506.13104248046875
z: 0.14374381303787231
visibility: 0.9903803467750549
","x: 252.07151794433594
y: 514.213623046875
z: 0.1569267213344574
visibility: 0.8903000950813293
","x: 243.0726318359375
y: 515.166259765625
z: 0.15537457168102264
visibility: 0.9006307721138
","x: 251.157470703125
y: 526.0192260742188
z: 0.0586765818297863
visibility: 0.9838977456092834
","x: 236.48907470703125
y: 529.7322998046875
z: 0.06762123107910156
visibility: 0.9863711595535278
",,,,,,,,,,,,,,,,,,,,,,,,,,,,,,,,,,,,,,,,,,
17,"x: 244.0482940673828
y: 218.43374633789062
z: -0.13113151490688324
visibility: 0.9998776316642761
","x: 247.3114013671875
y: 211.6824493408203
z: -0.11816432327032089
visibility: 0.999736487865448
","x: 249.03982543945312
y: 212.09237670898438
z: -0.11821357160806656
visibility: 0.9997169375419617
","x: 250.73190307617188
y: 212.662109375
z: -0.1182948499917984
visibility: 0.9996870756149292
","x: 243.18499755859375
y: 210.85205078125
z: -0.111495241522789
visibility: 0.9997231364250183
","x: 242.09478759765625
y: 210.69241333007812
z: -0.11146235466003418
visibility: 0.9996744394302368
","x: 241.0653533935547
y: 210.618896484375
z: -0.11152150481939316
visibility: 0.9996891021728516
","x: 253.85244750976562
y: 217.26651000976562
z: -0.0344611257314682
visibility: 0.9995412230491638
","x: 240.63511657714844
y: 214.79505920410156
z: -0.0035153613425791264
visibility: 0.999320924282074
","x: 247.35446166992188
y: 227.1073760986328
z: -0.0996629074215889
visibility: 0.9997189044952393
","x: 242.18316650390625
y: 225.1692352294922
z: -0.09110333025455475
visibility: 0.9997365474700928
","x: 265.708740234375
y: 254.57411193847656
z: -0.0164200309664011
visibility: 0.999346911907196
","x: 230.17703247070312
y: 250.5838165283203
z: 0.042968735098838806
visibility: 0.9996631741523743
","x: 262.00897216796875
y: 292.9858093261719
z: -0.20212869346141815
visibility: 0.9517369866371155
","x: 226.40362548828125
y: 291.46405029296875
z: -0.07053867727518082
visibility: 0.9335135817527771
","x: 260.8753356933594
y: 248.0661163330078
z: -0.3504602015018463
visibility: 0.9327855110168457
","x: 223.98770141601562
y: 254.7809600830078
z: -0.3118017315864563
visibility: 0.9291632175445557
","x: 259.63067626953125
y: 239.67054748535156
z: -0.3856121003627777
visibility: 0.9010448455810547
","x: 224.19395446777344
y: 242.20050048828125
z: -0.3495960831642151
visibility: 0.9032459259033203
","x: 252.32852172851562
y: 236.90496826171875
z: -0.3827143907546997
visibility: 0.9020447134971619
","x: 225.41690063476562
y: 240.57981872558594
z: -0.31167498230934143
visibility: 0.901969850063324
","x: 256.8476257324219
y: 240.12420654296875
z: -0.353196918964386
visibility: 0.8732422590255737
","x: 225.9561767578125
y: 243.69834899902344
z: -0.3050869405269623
visibility: 0.8815644383430481
","x: 257.5469055175781
y: 351.2356872558594
z: -0.021218499168753624
visibility: 0.9995081424713135
","x: 237.1124725341797
y: 354.34368896484375
z: 0.021291576325893402
visibility: 0.9996767044067383
","x: 249.4136505126953
y: 381.225341796875
z: -0.3327868580818176
visibility: 0.990388035774231
","x: 235.02488708496094
y: 437.5340270996094
z: -0.04817577451467514
visibility: 0.989384114742279
","x: 252.7238006591797
y: 449.566162109375
z: -0.16336539387702942
visibility: 0.9794861078262329
","x: 239.98768615722656
y: 505.86016845703125
z: 0.06742165982723236
visibility: 0.9871651530265808
","x: 252.4606170654297
y: 450.7398681640625
z: -0.14787964522838593
visibility: 0.882570743560791
","x: 244.22535705566406
y: 515.368896484375
z: 0.07328716665506363
visibility: 0.8872620463371277
","x: 249.05584716796875
y: 473.95770263671875
z: -0.2288919985294342
visibility: 0.9801344275474548
","x: 236.69187927246094
y: 528.9043579101562
z: -0.03131701797246933
visibility: 0.97992342710495
",,,,,,,,,,,,,,,,,,,,,,,,,,,,,,,,,,,,,,,,,,
18,"x: 243.5903778076172
y: 216.56619262695312
z: -0.11703338474035263
visibility: 0.999863862991333
","x: 246.51734924316406
y: 209.46429443359375
z: -0.10783655941486359
visibility: 0.9997218251228333
","x: 248.10372924804688
y: 209.68588256835938
z: -0.10785422474145889
visibility: 0.9997065663337708
","x: 249.73794555664062
y: 210.017822265625
z: -0.1079038754105568
visibility: 0.9996731281280518
","x: 242.9097442626953
y: 208.89447021484375
z: -0.0999535545706749
visibility: 0.9996885061264038
","x: 242.00076293945312
y: 208.77549743652344
z: -0.09994623064994812
visibility: 0.9996244311332703
","x: 241.1175994873047
y: 208.76425170898438
z: -0.10002143681049347
visibility: 0.9996328353881836
","x: 253.62962341308594
y: 213.42413330078125
z: -0.0319223515689373
visibility: 0.9995583295822144
","x: 240.97657775878906
y: 212.4298095703125
z: 0.004670297261327505
visibility: 0.9992101788520813
","x: 246.93406677246094
y: 224.80557250976562
z: -0.08708486706018448
visibility: 0.9997199773788452
","x: 242.45721435546875
y: 223.3531494140625
z: -0.07686562091112137
visibility: 0.9997065663337708
","x: 266.1264343261719
y: 249.67164611816406
z: -0.008752538822591305
visibility: 0.9993267059326172
","x: 231.89064025878906
y: 247.15638732910156
z: 0.05789952352643013
visibility: 0.9996298551559448
","x: 260.3507385253906
y: 286.55157470703125
z: -0.13054677844047546
visibility: 0.9508479237556458
","x: 233.25498962402344
y: 293.087158203125
z: -0.054222531616687775
visibility: 0.9165484309196472
","x: 257.9803466796875
y: 243.19998168945312
z: -0.2602567970752716
visibility: 0.9347333908081055
","x: 230.42698669433594
y: 260.1856689453125
z: -0.27165189385414124
visibility: 0.9267556667327881
","x: 255.60183715820312
y: 231.47950744628906
z: -0.2890999913215637
visibility: 0.9033741354942322
","x: 228.37181091308594
y: 251.117919921875
z: -0.3024269938468933
visibility: 0.9010049700737
","x: 254.35301208496094
y: 229.7646942138672
z: -0.2850687801837921
visibility: 0.9042068719863892
","x: 227.9228973388672
y: 247.3293914794922
z: -0.2952776849269867
visibility: 0.8991744518280029
","x: 255.96871948242188
y: 233.2090606689453
z: -0.26042693853378296
visibility: 0.8750788569450378
","x: 230.1518096923828
y: 249.19473266601562
z: -0.2742583751678467
visibility: 0.8755936622619629
","x: 260.0329895019531
y: 343.808349609375
z: -0.020552128553390503
visibility: 0.9995354413986206
","x: 239.3240203857422
y: 348.5685729980469
z: 0.020645305514335632
visibility: 0.9996811151504517
","x: 248.92527770996094
y: 352.1490173339844
z: -0.34788790345191956
visibility: 0.9909877777099609
","x: 235.91407775878906
y: 437.0107421875
z: -0.04569575935602188
visibility: 0.9873493313789368
","x: 253.30615234375
y: 422.8602600097656
z: -0.24266362190246582
visibility: 0.9786648154258728
","x: 239.92523193359375
y: 505.97637939453125
z: 0.07311540842056274
visibility: 0.985636293888092
","x: 257.2372741699219
y: 426.6201477050781
z: -0.23444955050945282
visibility: 0.8844215869903564
","x: 244.09979248046875
y: 516.3302001953125
z: 0.07723696529865265
visibility: 0.8853841423988342
","x: 249.30113220214844
y: 446.8271179199219
z: -0.3278128206729889
visibility: 0.9800975322723389
","x: 236.14845275878906
y: 527.8404541015625
z: -0.02810775861144066
visibility: 0.9767236113548279
","x: 229.14236450195312
y: 256.4217529296875
z: 0.0
","x: 227.06118774414062
y: 252.41058349609375
z: -6.0345617384882644e-05
","x: 225.83302307128906
y: 248.5623321533203
z: -0.0010327561758458614
","x: 226.04151916503906
y: 246.75143432617188
z: -0.002465809928253293
","x: 227.0935516357422
y: 246.80580139160156
z: -0.0034563166555017233
","x: 228.48289489746094
y: 240.8218994140625
z: -0.001003788667730987
","x: 229.83888244628906
y: 236.8606719970703
z: -0.002553082536906004
","x: 229.91566467285156
y: 239.64404296875
z: -0.00287436880171299
","x: 229.32846069335938
y: 242.6337890625
z: -0.002852071076631546
","x: 230.79495239257812
y: 241.38961791992188
z: -0.002126822480931878
","x: 231.74505615234375
y: 239.78890991210938
z: -0.003424533409997821
","x: 231.55149841308594
y: 242.40682983398438
z: -0.0029346635565161705
","x: 230.89967346191406
y: 244.65853881835938
z: -0.0025118186604231596
","x: 232.92837524414062
y: 243.07009887695312
z: -0.0033283154480159283
","x: 233.40029907226562
y: 242.67112731933594
z: -0.004281750414520502
","x: 233.12147521972656
y: 244.86634826660156
z: -0.0033091590739786625
","x: 232.48202514648438
y: 246.7239532470703
z: -0.002554496983066201
","x: 234.73333740234375
y: 245.33668518066406
z: -0.00472947908565402
","x: 234.9529266357422
y: 244.9466094970703
z: -0.005118981935083866
","x: 234.57742309570312
y: 246.75994873046875
z: -0.004353838972747326
","x: 234.09765625
y: 248.55252075195312
z: -0.0036145213525742292
",,,,,,,,,,,,,,,,,,,,,
19,"x: 243.5903778076172
y: 216.56619262695312
z: -0.11703338474035263
visibility: 0.999863862991333
","x: 246.51734924316406
y: 209.46429443359375
z: -0.10783655941486359
visibility: 0.9997218251228333
","x: 248.10372924804688
y: 209.68588256835938
z: -0.10785422474145889
visibility: 0.9997065663337708
","x: 249.73794555664062
y: 210.017822265625
z: -0.1079038754105568
visibility: 0.9996731281280518
","x: 242.9097442626953
y: 208.89447021484375
z: -0.0999535545706749
visibility: 0.9996885061264038
","x: 242.00076293945312
y: 208.77549743652344
z: -0.09994623064994812
visibility: 0.9996244311332703
","x: 241.1175994873047
y: 208.76425170898438
z: -0.10002143681049347
visibility: 0.9996328353881836
","x: 253.62962341308594
y: 213.42413330078125
z: -0.0319223515689373
visibility: 0.9995583295822144
","x: 240.97657775878906
y: 212.4298095703125
z: 0.004670297261327505
visibility: 0.9992101788520813
","x: 246.93406677246094
y: 224.80557250976562
z: -0.08708486706018448
visibility: 0.9997199773788452
","x: 242.45721435546875
y: 223.3531494140625
z: -0.07686562091112137
visibility: 0.9997065663337708
","x: 266.1264343261719
y: 249.67164611816406
z: -0.008752538822591305
visibility: 0.9993267059326172
","x: 231.89064025878906
y: 247.15638732910156
z: 0.05789952352643013
visibility: 0.9996298551559448
","x: 260.3507385253906
y: 286.55157470703125
z: -0.13054677844047546
visibility: 0.9508479237556458
","x: 233.25498962402344
y: 293.087158203125
z: -0.054222531616687775
visibility: 0.9165484309196472
","x: 257.9803466796875
y: 243.19998168945312
z: -0.2602567970752716
visibility: 0.9347333908081055
","x: 230.42698669433594
y: 260.1856689453125
z: -0.27165189385414124
visibility: 0.9267556667327881
","x: 255.60183715820312
y: 231.47950744628906
z: -0.2890999913215637
visibility: 0.9033741354942322
","x: 228.37181091308594
y: 251.117919921875
z: -0.3024269938468933
visibility: 0.9010049700737
","x: 254.35301208496094
y: 229.7646942138672
z: -0.2850687801837921
visibility: 0.9042068719863892
","x: 227.9228973388672
y: 247.3293914794922
z: -0.2952776849269867
visibility: 0.8991744518280029
","x: 255.96871948242188
y: 233.2090606689453
z: -0.26042693853378296
visibility: 0.8750788569450378
","x: 230.1518096923828
y: 249.19473266601562
z: -0.2742583751678467
visibility: 0.8755936622619629
","x: 260.0329895019531
y: 343.808349609375
z: -0.020552128553390503
visibility: 0.9995354413986206
","x: 239.3240203857422
y: 348.5685729980469
z: 0.020645305514335632
visibility: 0.9996811151504517
","x: 248.92527770996094
y: 352.1490173339844
z: -0.34788790345191956
visibility: 0.9909877777099609
","x: 235.91407775878906
y: 437.0107421875
z: -0.04569575935602188
visibility: 0.9873493313789368
","x: 253.30615234375
y: 422.8602600097656
z: -0.24266362190246582
visibility: 0.9786648154258728
","x: 239.92523193359375
y: 505.97637939453125
z: 0.07311540842056274
visibility: 0.985636293888092
","x: 257.2372741699219
y: 426.6201477050781
z: -0.23444955050945282
visibility: 0.8844215869903564
","x: 244.09979248046875
y: 516.3302001953125
z: 0.07723696529865265
visibility: 0.8853841423988342
","x: 249.30113220214844
y: 446.8271179199219
z: -0.3278128206729889
visibility: 0.9800975322723389
","x: 236.14845275878906
y: 527.8404541015625
z: -0.02810775861144066
visibility: 0.9767236113548279
","x: 229.14236450195312
y: 256.4217529296875
z: 0.0
","x: 227.06118774414062
y: 252.41058349609375
z: -6.0345617384882644e-05
","x: 225.83302307128906
y: 248.5623321533203
z: -0.0010327561758458614
","x: 226.04151916503906
y: 246.75143432617188
z: -0.002465809928253293
","x: 227.0935516357422
y: 246.80580139160156
z: -0.0034563166555017233
","x: 228.48289489746094
y: 240.8218994140625
z: -0.001003788667730987
","x: 229.83888244628906
y: 236.8606719970703
z: -0.002553082536906004
","x: 229.91566467285156
y: 239.64404296875
z: -0.00287436880171299
","x: 229.32846069335938
y: 242.6337890625
z: -0.002852071076631546
","x: 230.79495239257812
y: 241.38961791992188
z: -0.002126822480931878
","x: 231.74505615234375
y: 239.78890991210938
z: -0.003424533409997821
","x: 231.55149841308594
y: 242.40682983398438
z: -0.0029346635565161705
","x: 230.89967346191406
y: 244.65853881835938
z: -0.0025118186604231596
","x: 232.92837524414062
y: 243.07009887695312
z: -0.0033283154480159283
","x: 233.40029907226562
y: 242.67112731933594
z: -0.004281750414520502
","x: 233.12147521972656
y: 244.86634826660156
z: -0.0033091590739786625
","x: 232.48202514648438
y: 246.7239532470703
z: -0.002554496983066201
","x: 234.73333740234375
y: 245.33668518066406
z: -0.00472947908565402
","x: 234.9529266357422
y: 244.9466094970703
z: -0.005118981935083866
","x: 234.57742309570312
y: 246.75994873046875
z: -0.004353838972747326
","x: 234.09765625
y: 248.55252075195312
z: -0.0036145213525742292
",,,,,,,,,,,,,,,,,,,,,
20,"x: 239.2174835205078
y: 218.314208984375
z: -0.11870546638965607
visibility: 0.9998757243156433
","x: 241.97950744628906
y: 211.33810424804688
z: -0.10763470083475113
visibility: 0.999744713306427
","x: 243.7227325439453
y: 211.53770446777344
z: -0.10763867944478989
visibility: 0.999731183052063
","x: 245.5738983154297
y: 211.82244873046875
z: -0.10762913525104523
visibility: 0.999701201915741
","x: 238.38943481445312
y: 210.3962860107422
z: -0.10001005232334137
visibility: 0.9997135996818542
","x: 237.3527069091797
y: 209.60470581054688
z: -0.10002602636814117
visibility: 0.9996545910835266
","x: 236.24659729003906
y: 209.33509826660156
z: -0.10007122904062271
visibility: 0.9996626377105713
","x: 250.24853515625
y: 214.21917724609375
z: -0.038652483373880386
visibility: 0.9995983839035034
","x: 236.7689208984375
y: 216.06832885742188
z: -0.0011259712046012282
visibility: 0.9992703795433044
","x: 242.47616577148438
y: 226.1715850830078
z: -0.09219881892204285
visibility: 0.9997460842132568
","x: 238.07762145996094
y: 224.52532958984375
z: -0.08188357949256897
visibility: 0.9997310042381287
","x: 264.1663513183594
y: 250.9412841796875
z: -0.03744767606258392
visibility: 0.9993908405303955
","x: 228.74465942382812
y: 265.55255126953125
z: 0.06024389714002609
visibility: 0.9996585249900818
","x: 257.5311584472656
y: 288.644287109375
z: -0.13445934653282166
visibility: 0.9543289542198181
","x: 230.39378356933594
y: 308.8609619140625
z: 0.027230504900217056
visibility: 0.9004532694816589
","x: 239.34759521484375
y: 285.9485168457031
z: -0.2528906762599945
visibility: 0.9389647245407104
","x: 235.39329528808594
y: 330.8368225097656
z: -0.0899527370929718
visibility: 0.9128069281578064
","x: 233.68817138671875
y: 289.9789123535156
z: -0.2852150797843933
visibility: 0.909300684928894
","x: 235.28677368164062
y: 338.6572570800781
z: -0.11416363716125488
visibility: 0.8851000070571899
","x: 233.0065155029297
y: 283.1982116699219
z: -0.280886709690094
visibility: 0.9099931120872498
","x: 236.3284149169922
y: 333.8067626953125
z: -0.1237851232290268
visibility: 0.8831425905227661
","x: 234.71676635742188
y: 282.4656066894531
z: -0.2520148754119873
visibility: 0.8815094828605652
","x: 237.0845947265625
y: 330.1015625
z: -0.0965552106499672
visibility: 0.8570061326026917
","x: 262.6094665527344
y: 348.4515075683594
z: -0.03408229723572731
visibility: 0.9995759129524231
","x: 241.5179443359375
y: 352.04388427734375
z: 0.03398629650473595
visibility: 0.9997076392173767
","x: 253.693115234375
y: 387.19561767578125
z: -0.2579525113105774
visibility: 0.9918235540390015
","x: 235.8660888671875
y: 436.742431640625
z: -0.04461730644106865
visibility: 0.9880265593528748
","x: 280.5787353515625
y: 447.50897216796875
z: -0.08767937123775482
visibility: 0.9804622530937195
","x: 239.4366912841797
y: 505.5697937011719
z: 0.07981358468532562
visibility: 0.9867516756057739
","x: 284.4022521972656
y: 448.5830078125
z: -0.07508955150842667
visibility: 0.8881061673164368
","x: 243.79666137695312
y: 516.338623046875
z: 0.08530429750680923
visibility: 0.8920683860778809
","x: 280.5118408203125
y: 478.88177490234375
z: -0.1788540631532669
visibility: 0.9816831946372986
","x: 236.4170379638672
y: 527.2342529296875
z: -0.01765294000506401
visibility: 0.9783322811126709
",,,,,,,,,,,,,,,,,,,,,,"x: 238.97129821777344
y: 304.62322998046875
z: 0.0
","x: 237.1867218017578
y: 296.2364196777344
z: -0.0013828411465510726
","x: 233.55267333984375
y: 289.96380615234375
z: -0.0028480899054557085
","x: 229.9375457763672
y: 287.76055908203125
z: -0.0042711119167506695
","x: 227.29055786132812
y: 289.0721130371094
z: -0.0050494796596467495
","x: 231.2450714111328
y: 295.01690673828125
z: -0.004930130206048489
","x: 225.79505920410156
y: 292.1354064941406
z: -0.007008511107414961
","x: 227.78732299804688
y: 292.66748046875
z: -0.0065260352566838264
","x: 230.24874877929688
y: 294.0050354003906
z: -0.005698909983038902
","x: 230.28294372558594
y: 300.41986083984375
z: -0.0052988785319030285
","x: 225.5079803466797
y: 297.5717468261719
z: -0.0073359692469239235
","x: 227.28831481933594
y: 297.4450378417969
z: -0.006198432762175798
","x: 229.5065460205078
y: 298.38946533203125
z: -0.0049508437514305115
","x: 229.69996643066406
y: 305.0705261230469
z: -0.005624458659440279
","x: 225.7843475341797
y: 302.41656494140625
z: -0.007072471082210541
","x: 227.1884765625
y: 301.9117736816406
z: -0.005520694889128208
","x: 228.93881225585938
y: 302.4494323730469
z: -0.004272990860044956
","x: 229.31234741210938
y: 308.8866882324219
z: -0.006120994221419096
","x: 226.22532653808594
y: 306.1938781738281
z: -0.00705877598375082
","x: 227.17808532714844
y: 305.5167236328125
z: -0.006174198351800442
","x: 228.63006591796875
y: 305.8680419921875
z: -0.005215213634073734
"
21,"x: 239.2174835205078
y: 218.314208984375
z: -0.11870546638965607
visibility: 0.9998757243156433
","x: 241.97950744628906
y: 211.33810424804688
z: -0.10763470083475113
visibility: 0.999744713306427
","x: 243.7227325439453
y: 211.53770446777344
z: -0.10763867944478989
visibility: 0.999731183052063
","x: 245.5738983154297
y: 211.82244873046875
z: -0.10762913525104523
visibility: 0.999701201915741
","x: 238.38943481445312
y: 210.3962860107422
z: -0.10001005232334137
visibility: 0.9997135996818542
","x: 237.3527069091797
y: 209.60470581054688
z: -0.10002602636814117
visibility: 0.9996545910835266
","x: 236.24659729003906
y: 209.33509826660156
z: -0.10007122904062271
visibility: 0.9996626377105713
","x: 250.24853515625
y: 214.21917724609375
z: -0.038652483373880386
visibility: 0.9995983839035034
","x: 236.7689208984375
y: 216.06832885742188
z: -0.0011259712046012282
visibility: 0.9992703795433044
","x: 242.47616577148438
y: 226.1715850830078
z: -0.09219881892204285
visibility: 0.9997460842132568
","x: 238.07762145996094
y: 224.52532958984375
z: -0.08188357949256897
visibility: 0.9997310042381287
","x: 264.1663513183594
y: 250.9412841796875
z: -0.03744767606258392
visibility: 0.9993908405303955
","x: 228.74465942382812
y: 265.55255126953125
z: 0.06024389714002609
visibility: 0.9996585249900818
","x: 257.5311584472656
y: 288.644287109375
z: -0.13445934653282166
visibility: 0.9543289542198181
","x: 230.39378356933594
y: 308.8609619140625
z: 0.027230504900217056
visibility: 0.9004532694816589
","x: 239.34759521484375
y: 285.9485168457031
z: -0.2528906762599945
visibility: 0.9389647245407104
","x: 235.39329528808594
y: 330.8368225097656
z: -0.0899527370929718
visibility: 0.9128069281578064
","x: 233.68817138671875
y: 289.9789123535156
z: -0.2852150797843933
visibility: 0.909300684928894
","x: 235.28677368164062
y: 338.6572570800781
z: -0.11416363716125488
visibility: 0.8851000070571899
","x: 233.0065155029297
y: 283.1982116699219
z: -0.280886709690094
visibility: 0.9099931120872498
","x: 236.3284149169922
y: 333.8067626953125
z: -0.1237851232290268
visibility: 0.8831425905227661
","x: 234.71676635742188
y: 282.4656066894531
z: -0.2520148754119873
visibility: 0.8815094828605652
","x: 237.0845947265625
y: 330.1015625
z: -0.0965552106499672
visibility: 0.8570061326026917
","x: 262.6094665527344
y: 348.4515075683594
z: -0.03408229723572731
visibility: 0.9995759129524231
","x: 241.5179443359375
y: 352.04388427734375
z: 0.03398629650473595
visibility: 0.9997076392173767
","x: 253.693115234375
y: 387.19561767578125
z: -0.2579525113105774
visibility: 0.9918235540390015
","x: 235.8660888671875
y: 436.742431640625
z: -0.04461730644106865
visibility: 0.9880265593528748
","x: 280.5787353515625
y: 447.50897216796875
z: -0.08767937123775482
visibility: 0.9804622530937195
","x: 239.4366912841797
y: 505.5697937011719
z: 0.07981358468532562
visibility: 0.9867516756057739
","x: 284.4022521972656
y: 448.5830078125
z: -0.07508955150842667
visibility: 0.8881061673164368
","x: 243.79666137695312
y: 516.338623046875
z: 0.08530429750680923
visibility: 0.8920683860778809
","x: 280.5118408203125
y: 478.88177490234375
z: -0.1788540631532669
visibility: 0.9816831946372986
","x: 236.4170379638672
y: 527.2342529296875
z: -0.01765294000506401
visibility: 0.9783322811126709
",,,,,,,,,,,,,,,,,,,,,,"x: 238.97129821777344
y: 304.62322998046875
z: 0.0
","x: 237.1867218017578
y: 296.2364196777344
z: -0.0013828411465510726
","x: 233.55267333984375
y: 289.96380615234375
z: -0.0028480899054557085
","x: 229.9375457763672
y: 287.76055908203125
z: -0.0042711119167506695
","x: 227.29055786132812
y: 289.0721130371094
z: -0.0050494796596467495
","x: 231.2450714111328
y: 295.01690673828125
z: -0.004930130206048489
","x: 225.79505920410156
y: 292.1354064941406
z: -0.007008511107414961
","x: 227.78732299804688
y: 292.66748046875
z: -0.0065260352566838264
","x: 230.24874877929688
y: 294.0050354003906
z: -0.005698909983038902
","x: 230.28294372558594
y: 300.41986083984375
z: -0.0052988785319030285
","x: 225.5079803466797
y: 297.5717468261719
z: -0.0073359692469239235
","x: 227.28831481933594
y: 297.4450378417969
z: -0.006198432762175798
","x: 229.5065460205078
y: 298.38946533203125
z: -0.0049508437514305115
","x: 229.69996643066406
y: 305.0705261230469
z: -0.005624458659440279
","x: 225.7843475341797
y: 302.41656494140625
z: -0.007072471082210541
","x: 227.1884765625
y: 301.9117736816406
z: -0.005520694889128208
","x: 228.93881225585938
y: 302.4494323730469
z: -0.004272990860044956
","x: 229.31234741210938
y: 308.8866882324219
z: -0.006120994221419096
","x: 226.22532653808594
y: 306.1938781738281
z: -0.00705877598375082
","x: 227.17808532714844
y: 305.5167236328125
z: -0.006174198351800442
","x: 228.63006591796875
y: 305.8680419921875
z: -0.005215213634073734
"
22,"x: 215.44049072265625
y: 293.6438293457031
z: -0.08427084237337112
visibility: 0.9998691082000732
","x: 215.14480590820312
y: 285.7126770019531
z: -0.10133956372737885
visibility: 0.999736487865448
","x: 215.65609741210938
y: 285.22296142578125
z: -0.10133950412273407
visibility: 0.9997250437736511
","x: 216.21109008789062
y: 284.65081787109375
z: -0.10129672288894653
visibility: 0.9997023940086365
","x: 214.86822509765625
y: 285.58612060546875
z: -0.07085934281349182
visibility: 0.9996940493583679
","x: 215.1824188232422
y: 285.0325927734375
z: -0.07082059979438782
visibility: 0.9996250867843628
","x: 215.54708862304688
y: 284.3252258300781
z: -0.07085800915956497
visibility: 0.9996365308761597
","x: 222.30224609375
y: 280.4383544921875
z: -0.14950014650821686
visibility: 0.999613344669342
","x: 221.63540649414062
y: 279.70367431640625
z: -0.010730909183621407
visibility: 0.9992221593856812
","x: 220.04249572753906
y: 297.3328857421875
z: -0.10059299319982529
visibility: 0.9997479319572449
","x: 219.72079467773438
y: 297.4618225097656
z: -0.06092148274183273
visibility: 0.9997177720069885
","x: 243.92721557617188
y: 299.978271484375
z: -0.21910183131694794
visibility: 0.9994515180587769
","x: 239.62887573242188
y: 294.99072265625
z: 0.064727284014225
visibility: 0.9996806383132935
","x: 259.8367614746094
y: 350.7603759765625
z: -0.2815604507923126
visibility: 0.9585360288619995
","x: 254.52249145507812
y: 340.9215087890625
z: 0.09388642758131027
visibility: 0.8144036531448364
","x: 261.2144775390625
y: 397.28521728515625
z: -0.2695268392562866
visibility: 0.9443966746330261
","x: 255.2721405029297
y: 381.44757080078125
z: 0.048570167273283005
visibility: 0.8253557085990906
","x: 263.29119873046875
y: 414.71063232421875
z: -0.30098530650138855
visibility: 0.916709840297699
","x: 253.10818481445312
y: 403.83135986328125
z: 0.050809282809495926
visibility: 0.8006903529167175
","x: 260.5912780761719
y: 417.295166015625
z: -0.29388508200645447
visibility: 0.9171620011329651
","x: 251.82684326171875
y: 405.3997802734375
z: 0.022347290068864822
visibility: 0.7990107536315918
","x: 260.2140197753906
y: 412.25079345703125
z: -0.2683367431163788
visibility: 0.8891690373420715
","x: 252.7058868408203
y: 399.61968994140625
