uscmakers/ReverseChoreography/data/9_skeletons_keshi.csv
,NOSE,LEFT_EYE_INNER,LEFT_EYE,LEFT_EYE_OUTER,RIGHT_EYE_INNER,RIGHT_EYE,RIGHT_EYE_OUTER,LEFT_EAR,RIGHT_EAR,MOUTH_LEFT,MOUTH_RIGHT,LEFT_SHOULDER,RIGHT_SHOULDER,LEFT_ELBOW,RIGHT_ELBOW,LEFT_WRIST,RIGHT_WRIST,LEFT_PINKY,RIGHT_PINKY,LEFT_INDEX,RIGHT_INDEX,LEFT_THUMB,RIGHT_THUMB,LEFT_HIP,RIGHT_HIP,LEFT_KNEE,RIGHT_KNEE,LEFT_ANKLE,RIGHT_ANKLE,LEFT_HEEL,RIGHT_HEEL,LEFT_FOOT_INDEX,RIGHT_FOOT_INDEX,WRIST2,THUMB_CPC2,THUMB_MCP2,THUMB_IP2,THUMB_TIP2,INDEX_FINGER_MCP2,INDEX_FINGER_PIP2,INDEX_FINGER_DIP2,INDEX_FINGER_TIP2,MIDDLE_FINGER_MCP2,MIDDLE_FINGER_PIP2,MIDDLE_FINGER_DIP2,MIDDLE_FINGER_TIP2,RING_FINGER_PIP2,RING_FINGER_DIP2,RING_FINGER_TIP2,RING_FINGER_MCP2,PINKY_MCP2,PINKY_PIP2,PINKY_DIP2,PINKY_TIP2,WRIST,THUMB_CPC,THUMB_MCP,THUMB_IP,THUMB_TIP,INDEX_FINGER_MCP,INDEX_FINGER_PIP,INDEX_FINGER_DIP,INDEX_FINGER_TIP,MIDDLE_FINGER_MCP,MIDDLE_FINGER_PIP,MIDDLE_FINGER_DIP,MIDDLE_FINGER_TIP,RING_FINGER_PIP,RING_FINGER_DIP,RING_FINGER_TIP,RING_FINGER_MCP,PINKY_MCP,PINKY_PIP,PINKY_DIP,PINKY_TIP
0,"x: 327.22637939453125
y: 200.27822875976562
z: -0.3335455358028412
visibility: 0.9999866485595703
","x: 329.194091796875
y: 192.21376037597656
z: -0.3167034387588501
visibility: 0.9999514818191528
","x: 330.2146911621094
y: 192.01953125
z: -0.3167237639427185
visibility: 0.9999338388442993
","x: 331.1968994140625
y: 191.74588012695312
z: -0.3167611360549927
visibility: 0.999933123588562
","x: 325.1949768066406
y: 191.87713623046875
z: -0.32747089862823486
visibility: 0.9999730587005615
","x: 323.43084716796875
y: 191.47341918945312
z: -0.32749924063682556
visibility: 0.9999692440032959
","x: 321.62164306640625
y: 191.03843688964844
z: -0.3275461494922638
visibility: 0.9999737739562988
","x: 331.08563232421875
y: 192.5865020751953
z: -0.19610735774040222
visibility: 0.9998515844345093
","x: 316.859375
y: 192.11514282226562
z: -0.245240718126297
visibility: 0.9999576807022095
","x: 328.59075927734375
y: 206.9803009033203
z: -0.28557613492012024
visibility: 0.9999672174453735
","x: 323.2528076171875
y: 207.3517608642578
z: -0.2998851537704468
visibility: 0.9999818801879883
","x: 339.41217041015625
y: 234.65585327148438
z: -0.08828289061784744
visibility: 0.9998779296875
","x: 302.6347961425781
y: 241.46888732910156
z: -0.16217206418514252
visibility: 0.9999443292617798
","x: 349.5042724609375
y: 282.93048095703125
z: -0.002506477991119027
visibility: 0.9115089774131775
","x: 302.6508483886719
y: 300.0838623046875
z: -0.1300673633813858
visibility: 0.98686683177948
","x: 362.8380126953125
y: 307.3085632324219
z: -0.1016061082482338
visibility: 0.897450864315033
","x: 308.8641052246094
y: 346.5115661621094
z: -0.21299055218696594
visibility: 0.9701026678085327
","x: 367.74609375
y: 316.5030822753906
z: -0.12597441673278809
visibility: 0.8438303470611572
","x: 309.34747314453125
y: 361.9588928222656
z: -0.24205061793327332
visibility: 0.9379851222038269
","x: 368.1485900878906
y: 314.71954345703125
z: -0.16381679475307465
visibility: 0.8609024882316589
","x: 313.2884216308594
y: 359.8623962402344
z: -0.269938588142395
visibility: 0.9415816068649292
","x: 364.8862609863281
y: 312.0411071777344
z: -0.11958382278680801
visibility: 0.8323960900306702
","x: 313.9597473144531
y: 353.9033508300781
z: -0.22411787509918213
visibility: 0.9184929728507996
","x: 337.6811828613281
y: 340.73089599609375
z: 0.004670585040003061
visibility: 0.9975389242172241
","x: 316.1942138671875
y: 342.8863525390625
z: -0.004668143577873707
visibility: 0.9982535243034363
","x: 336.97845458984375
y: 419.40045166015625
z: -0.030195394530892372
visibility: 0.983237624168396
","x: 318.3687744140625
y: 431.1822509765625
z: -0.017719799652695656
visibility: 0.971376359462738
","x: 338.2834777832031
y: 504.2718811035156
z: 0.09113023430109024
visibility: 0.9811181426048279
","x: 325.03204345703125
y: 512.0585327148438
z: 0.09393434971570969
visibility: 0.9791305661201477
","x: 337.5286865234375
y: 516.5628662109375
z: 0.0951155573129654
visibility: 0.8072484731674194
","x: 327.01007080078125
y: 524.1893920898438
z: 0.09656776487827301
visibility: 0.8453473448753357
","x: 339.4714050292969
y: 530.5865478515625
z: -0.03516606241464615
visibility: 0.9770243763923645
","x: 322.88629150390625
y: 535.708740234375
z: -0.03658391907811165
visibility: 0.974879264831543
",,,,,,,,,,,,,,,,,,,,,,,,,,,,,,,,,,,,,,,,,,
1,"x: 326.9662170410156
y: 199.154052734375
z: -0.3513168692588806
visibility: 0.9999867081642151
","x: 328.8095703125
y: 190.96560668945312
z: -0.33203497529029846
visibility: 0.9999510049819946
","x: 329.9415283203125
y: 190.98541259765625
z: -0.3320131301879883
visibility: 0.9999338984489441
","x: 330.98065185546875
y: 190.9224853515625
z: -0.3320462107658386
visibility: 0.9999314546585083
","x: 324.63165283203125
y: 190.06845092773438
z: -0.34542182087898254
visibility: 0.999973475933075
","x: 322.9244689941406
y: 189.55609130859375
z: -0.34547898173332214
visibility: 0.999970555305481
","x: 321.192626953125
y: 189.0924072265625
z: -0.34554141759872437
visibility: 0.99997478723526
","x: 331.02734375
y: 192.52259826660156
z: -0.20314356684684753
visibility: 0.999852180480957
","x: 316.8457946777344
y: 191.4694061279297
z: -0.2642778754234314
visibility: 0.9999601244926453
","x: 328.5329895019531
y: 205.88336181640625
z: -0.30059969425201416
visibility: 0.9999668598175049
","x: 323.25927734375
y: 205.625
z: -0.3187199532985687
visibility: 0.9999818801879883
","x: 339.39300537109375
y: 234.84774780273438
z: -0.08758887648582458
visibility: 0.9998577237129211
","x: 302.49481201171875
y: 240.94168090820312
z: -0.17679640650749207
visibility: 0.9999433755874634
","x: 349.8189392089844
y: 277.221435546875
z: 0.048945121467113495
visibility: 0.9120119214057922
","x: 302.8739013671875
y: 300.0790710449219
z: -0.1326628476381302
visibility: 0.987013041973114
","x: 354.2012939453125
y: 275.80438232421875
z: 0.05098424479365349
visibility: 0.8883591890335083
","x: 309.00970458984375
y: 345.5148010253906
z: -0.20429179072380066
visibility: 0.9698718190193176
","x: 353.76177978515625
y: 279.4345397949219
z: 0.04730326682329178
visibility: 0.8259389400482178
","x: 309.69305419921875
y: 360.58648681640625
z: -0.22716593742370605
visibility: 0.9375107884407043
","x: 353.1050720214844
y: 275.69146728515625
z: 0.024029294028878212
visibility: 0.8418009281158447
","x: 313.5384826660156
y: 358.4719543457031
z: -0.25611552596092224
visibility: 0.9410776495933533
","x: 352.2580871582031
y: 274.5119323730469
z: 0.04241563007235527
visibility: 0.8112499713897705
","x: 314.1757507324219
y: 353.05029296875
z: -0.2147647589445114
visibility: 0.9170830845832825
","x: 337.8682861328125
y: 341.7469482421875
z: 0.004640904255211353
visibility: 0.997596800327301
","x: 316.1980895996094
y: 343.9422607421875
z: -0.004647585563361645
visibility: 0.998282790184021
","x: 336.3805236816406
y: 420.635498046875
z: -0.030654877424240112
visibility: 0.9832692742347717
","x: 318.5024719238281
y: 431.23577880859375
z: -0.02340545877814293
visibility: 0.9707038998603821
","x: 337.8377380371094
y: 504.3223876953125
z: 0.10886399447917938
visibility: 0.9813405275344849
","x: 325.04083251953125
y: 511.95599365234375
z: 0.1088937297463417
visibility: 0.9787968397140503
","x: 337.50006103515625
y: 516.3812866210938
z: 0.11488630622625351
visibility: 0.8074740171432495
","x: 327.0588684082031
y: 523.6717529296875
z: 0.1141391173005104
visibility: 0.8435513377189636
","x: 339.4445495605469
y: 530.5849609375
z: -0.019173355773091316
visibility: 0.9772700071334839
","x: 323.40283203125
y: 535.5621948242188
z: -0.022098105400800705
visibility: 0.9749045968055725
",,,,,,,,,,,,,,,,,,,,,,,,,,,,,,,,,,,,,,,,,,
2,"x: 326.9573974609375
y: 198.93585205078125
z: -0.36557045578956604
visibility: 0.9999846816062927
","x: 328.7626647949219
y: 190.85206604003906
z: -0.3477543890476227
visibility: 0.9999463558197021
","x: 329.87677001953125
y: 190.90782165527344
z: -0.34775233268737793
visibility: 0.9999293684959412
","x: 330.8965759277344
y: 190.8768310546875
z: -0.3477690815925598
visibility: 0.9999269843101501
","x: 324.6290588378906
y: 189.7809600830078
z: -0.35853928327560425
visibility: 0.9999685883522034
","x: 322.92449951171875
y: 189.1750946044922
z: -0.3586021959781647
visibility: 0.9999661445617676
","x: 321.1854248046875
y: 188.6136016845703
z: -0.3586655259132385
visibility: 0.9999707341194153
","x: 330.75262451171875
y: 192.6405029296875
z: -0.22188663482666016
visibility: 0.9998408555984497
","x: 316.8306579589844
y: 191.01646423339844
z: -0.27300432324409485
visibility: 0.9999530911445618
","x: 328.3551940917969
y: 205.61468505859375
z: -0.31583866477012634
visibility: 0.99996417760849
","x: 323.2723083496094
y: 205.15318298339844
z: -0.33081141114234924
visibility: 0.9999794960021973
","x: 339.3774108886719
y: 237.53753662109375
z: -0.11744294315576553
visibility: 0.9998488426208496
","x: 302.140380859375
y: 240.82183837890625
z: -0.18590758740901947
visibility: 0.9999396800994873
","x: 347.107666015625
y: 288.2369689941406
z: -0.04434625059366226
visibility: 0.9110105037689209
","x: 302.85406494140625
y: 299.8336486816406
z: -0.1539090871810913
visibility: 0.9870254993438721
","x: 349.87689208984375
y: 332.69464111328125
z: -0.13497981429100037
visibility: 0.8833422660827637
","x: 309.0311584472656
y: 342.7943115234375
z: -0.24431708455085754
visibility: 0.9698513150215149
","x: 349.69366455078125
y: 349.0404968261719
z: -0.16129276156425476
visibility: 0.8185782432556152
","x: 309.7815856933594
y: 357.02154541015625
z: -0.276154488325119
visibility: 0.9380159378051758
","x: 348.2492370605469
y: 348.6973571777344
z: -0.19487367570400238
visibility: 0.8343403339385986
","x: 313.5760498046875
y: 354.7353515625
z: -0.3032523989677429
visibility: 0.9415409564971924
","x: 347.3618469238281
y: 343.1496887207031
z: -0.15017250180244446
visibility: 0.8034644722938538
","x: 314.1882019042969
y: 349.93603515625
z: -0.25530293583869934
visibility: 0.9177011847496033
","x: 337.8714599609375
y: 341.981201171875
z: 0.004645209759473801
visibility: 0.9976981282234192
","x: 316.1712951660156
y: 344.1697998046875
z: -0.004652568604797125
visibility: 0.9983294606208801
","x: 335.3202209472656
y: 420.61029052734375
z: -0.030550995841622353
visibility: 0.9831745028495789
","x: 318.43939208984375
y: 430.7965087890625
z: -0.02280363067984581
visibility: 0.9706459045410156
","x: 336.9481201171875
y: 504.1402587890625
z: 0.10631783306598663
visibility: 0.9813557267189026
","x: 325.0190124511719
y: 511.476806640625
z: 0.10584042221307755
visibility: 0.9784954190254211
","x: 336.71856689453125
y: 515.6195068359375
z: 0.1116100400686264
visibility: 0.811512291431427
","x: 326.92462158203125
y: 523.1189575195312
z: 0.11127225309610367
visibility: 0.83738774061203
","x: 339.54693603515625
y: 530.5668334960938
z: -0.020596858114004135
visibility: 0.9775580763816833
","x: 324.12152099609375
y: 534.7998046875
z: -0.028031637892127037
visibility: 0.9747639894485474
",,,,,,,,,,,,,,,,,,,,,,,,,,,,,,,,,,,,,,,,,,
3,"x: 326.40631103515625
y: 198.03924560546875
z: -0.269591748714447
visibility: 0.9999858140945435
","x: 328.0580749511719
y: 189.8534393310547
z: -0.25012996792793274
visibility: 0.9999505877494812
","x: 329.24322509765625
y: 189.9551239013672
z: -0.25012731552124023
visibility: 0.9999352693557739
","x: 330.33160400390625
y: 189.96682739257812
z: -0.25014811754226685
visibility: 0.9999328851699829
","x: 323.849853515625
y: 188.69866943359375
z: -0.2585526406764984
visibility: 0.9999709129333496
","x: 322.09649658203125
y: 188.10421752929688
z: -0.2585800588130951
visibility: 0.9999687671661377
","x: 320.3468322753906
y: 187.59124755859375
z: -0.2586100697517395
visibility: 0.999972939491272
","x: 330.3788757324219
y: 192.2866668701172
z: -0.12488345801830292
visibility: 0.999853789806366
","x: 316.2776184082031
y: 190.41619873046875
z: -0.16484585404396057
visibility: 0.999957263469696
","x: 327.9420471191406
y: 204.8116455078125
z: -0.22120492160320282
visibility: 0.9999668598175049
","x: 323.08966064453125
y: 204.323486328125
z: -0.23304331302642822
visibility: 0.9999811053276062
","x: 339.5832214355469
y: 235.4502716064453
z: -0.04129798710346222
visibility: 0.9998527765274048
","x: 302.1448059082031
y: 240.68026733398438
z: -0.07478921115398407
visibility: 0.9999390244483948
","x: 357.61846923828125
y: 252.09059143066406
z: -0.11314916610717773
visibility: 0.9191445112228394
","x: 302.7030944824219
y: 299.533203125
z: -0.02002248726785183
visibility: 0.9866956472396851
","x: 352.8270263671875
y: 207.8587188720703
z: -0.3082329034805298
visibility: 0.8932817578315735
","x: 309.0318603515625
y: 339.5009765625
z: -0.05030990391969681
visibility: 0.9690117239952087
","x: 354.34368896484375
y: 195.470458984375
z: -0.346385657787323
visibility: 0.8310915231704712
","x: 309.7806701660156
y: 353.95489501953125
z: -0.060010116547346115
visibility: 0.9353026747703552
","x: 351.32952880859375
y: 193.48028564453125
z: -0.3432968854904175
visibility: 0.8449915051460266
","x: 313.5680236816406
y: 351.0729675292969
z: -0.0823281854391098
visibility: 0.9387416243553162
","x: 350.64923095703125
y: 198.5469970703125
z: -0.3124755620956421
visibility: 0.8148849606513977
","x: 314.1624755859375
y: 346.1486511230469
z: -0.0566696934401989
visibility: 0.9143720865249634
","x: 337.94476318359375
y: 341.2662048339844
z: -0.0029949659947305918
visibility: 0.9978432059288025
","x: 316.1531677246094
y: 343.1316833496094
z: 0.0029391255229711533
visibility: 0.9984120726585388
","x: 333.6644287109375
y: 419.7439270019531
z: -0.03932955488562584
visibility: 0.9818654656410217
","x: 317.9388427734375
y: 426.93487548828125
z: -0.022015579044818878
visibility: 0.9695433378219604
","x: 336.092529296875
y: 504.304931640625
z: 0.05352010205388069
visibility: 0.980907678604126
","x: 324.9561462402344
y: 510.6356506347656
z: 0.08137296140193939
visibility: 0.9774051904678345
","x: 336.0497131347656
y: 515.8745727539062
z: 0.05591190978884697
visibility: 0.8150728344917297
","x: 326.82061767578125
y: 522.5590209960938
z: 0.0835518091917038
visibility: 0.8338147401809692
","x: 339.1788635253906
y: 530.6588134765625
z: -0.06885842978954315
visibility: 0.9776540398597717
","x: 324.095703125
y: 534.30029296875
z: -0.04200439900159836
visibility: 0.9738093614578247
",,,,,,,,,,,,,,,,,,,,,,,,,,,,,,,,,,,,,,,,,,
4,"x: 325.5031433105469
y: 196.77671813964844
z: -0.24975702166557312
visibility: 0.9999859929084778
","x: 327.0476989746094
y: 188.74484252929688
z: -0.23033671081066132
visibility: 0.9999517798423767
","x: 328.3232727050781
y: 188.88461303710938
z: -0.23035132884979248
visibility: 0.999937891960144
","x: 329.494873046875
y: 188.95285034179688
z: -0.23037008941173553
visibility: 0.9999350905418396
","x: 322.7984313964844
y: 187.75204467773438
z: -0.2349906861782074
visibility: 0.9999712109565735
","x: 321.1260681152344
y: 187.32496643066406
z: -0.23501081764698029
visibility: 0.999969482421875
","x: 319.4948425292969
y: 186.98143005371094
z: -0.2350415736436844
visibility: 0.999973475933075
","x: 330.1097412109375
y: 191.818603515625
z: -0.1085396260023117
visibility: 0.9998601078987122
","x: 315.98345947265625
y: 190.2843017578125
z: -0.13122722506523132
visibility: 0.9999597668647766
","x: 327.42596435546875
y: 203.74208068847656
z: -0.2031157910823822
visibility: 0.9999673962593079
","x: 322.79656982421875
y: 203.38096618652344
z: -0.2099495232105255
visibility: 0.9999814033508301
","x: 340.03411865234375
y: 232.08059692382812
z: -0.04020095616579056
visibility: 0.9998514652252197
","x: 302.5271301269531
y: 240.01153564453125
z: -0.03436579555273056
visibility: 0.9999352693557739
","x: 363.68963623046875
y: 238.67135620117188
z: -0.15080735087394714
visibility: 0.9268753528594971
","x: 302.2481689453125
y: 297.1877746582031
z: 0.014923488721251488
visibility: 0.9855552315711975
","x: 346.2950134277344
y: 201.67758178710938
z: -0.3492059111595154
visibility: 0.902386486530304
","x: 307.3946533203125
y: 337.4823303222656
z: -0.039586011320352554
visibility: 0.9669343829154968
","x: 342.9248962402344
y: 192.53431701660156
z: -0.39151662588119507
visibility: 0.8416846990585327
","x: 308.0609130859375
y: 351.97125244140625
z: -0.054136551916599274
visibility: 0.9303021430969238
","x: 339.75811767578125
y: 193.2786865234375
z: -0.37933698296546936
visibility: 0.8535036444664001
","x: 311.5204772949219
y: 348.9101867675781
z: -0.07520362734794617
visibility: 0.9334704279899597
","x: 340.04541015625
y: 197.70205688476562
z: -0.3495820164680481
visibility: 0.8235595226287842
","x: 312.1809997558594
y: 343.91943359375
z: -0.046420976519584656
visibility: 0.9076987504959106
","x: 337.8296203613281
y: 340.6776123046875
z: -0.012126728892326355
visibility: 0.9979843497276306
","x: 315.8561706542969
y: 341.67529296875
z: 0.012042921967804432
visibility: 0.9984779953956604
","x: 332.3961181640625
y: 419.32867431640625
z: -0.04143686592578888
visibility: 0.9795400500297546
","x: 317.2267761230469
y: 425.2552490234375
z: -0.00924871675670147
visibility: 0.9675706028938293
","x: 335.6335144042969
y: 504.64105224609375
z: 0.031371645629405975
visibility: 0.9800992012023926
","x: 324.97393798828125
y: 510.2674865722656
z: 0.07762112468481064
visibility: 0.9756224751472473
","x: 335.83880615234375
y: 516.6270751953125
z: 0.03166511282324791
visibility: 0.8165573477745056
","x: 326.8523254394531
y: 522.4393310546875
z: 0.07847750931978226
visibility: 0.830012857913971
","x: 338.892578125
y: 530.8161010742188
z: -0.09638062119483948
visibility: 0.9773741364479065
","x: 324.0693054199219
y: 534.19091796875
z: -0.04586655646562576
visibility: 0.9722558856010437
",,,,,,,,,,,,,,,,,,,,,,,,,,,,,,,,,,,,,,,,,,
5,"x: 325.3004150390625
y: 196.49212646484375
z: -0.25913551449775696
visibility: 0.9999856948852539
","x: 326.7909240722656
y: 188.4935302734375
z: -0.23986494541168213
visibility: 0.9999505281448364
","x: 328.0484619140625
y: 188.5981903076172
z: -0.23987872898578644
visibility: 0.9999381899833679
","x: 329.21783447265625
y: 188.64593505859375
z: -0.23989638686180115
visibility: 0.9999348521232605
","x: 322.68365478515625
y: 187.56979370117188
z: -0.24367991089820862
visibility: 0.9999696016311646
","x: 321.032958984375
y: 187.14669799804688
z: -0.24369969964027405
visibility: 0.999968409538269
","x: 319.3975524902344
y: 186.80711364746094
z: -0.24372999370098114
visibility: 0.9999722838401794
","x: 330.0025939941406
y: 191.79257202148438
z: -0.12042298167943954
visibility: 0.9998630881309509
","x: 315.8872375488281
y: 190.2578887939453
z: -0.1387452781200409
visibility: 0.9999603629112244
","x: 327.25347900390625
y: 203.59188842773438
z: -0.21360042691230774
visibility: 0.9999676942825317
","x: 322.7514953613281
y: 203.3295440673828
z: -0.21922209858894348
visibility: 0.999981164932251
","x: 340.1468200683594
y: 230.54359436035156
z: -0.05624796822667122
visibility: 0.9998569488525391
","x: 302.6178283691406
y: 239.9586639404297
z: -0.041730452328920364
visibility: 0.9999336004257202
","x: 366.77508544921875
y: 236.5186767578125
z: -0.18253646790981293
visibility: 0.9339874982833862
","x: 301.13922119140625
y: 296.986328125
z: 0.006030752323567867
visibility: 0.9844881892204285
","x: 344.201904296875
y: 207.9279327392578
z: -0.38248077034950256
visibility: 0.9110963940620422
","x: 305.2699279785156
y: 338.4002990722656
z: -0.05532054230570793
visibility: 0.9652724266052246
","x: 337.795654296875
y: 200.55116271972656
z: -0.42598897218704224
visibility: 0.8527557849884033
","x: 305.50457763671875
y: 353.099853515625
z: -0.07195162773132324
visibility: 0.9265218377113342
","x: 334.28118896484375
y: 201.20120239257812
z: -0.4127235412597656
visibility: 0.8628621101379395
","x: 308.52166748046875
y: 350.2334289550781
z: -0.09511926025152206
visibility: 0.9295212030410767
","x: 335.603271484375
y: 204.93304443359375
z: -0.3820638060569763
visibility: 0.8335614204406738
","x: 309.6131591796875
y: 344.9528503417969
z: -0.06365499645471573
visibility: 0.9027501344680786
","x: 337.4280700683594
y: 340.68280029296875
z: -0.01396312564611435
visibility: 0.9981377124786377
","x: 315.0182800292969
y: 341.5931701660156
z: 0.013842110522091389
visibility: 0.9985679388046265
","x: 331.6750183105469
y: 419.7431945800781
z: -0.038646288216114044
visibility: 0.9786703586578369
","x: 317.02667236328125
y: 425.80206298828125
z: 0.001971128862351179
visibility: 0.9673340320587158
","x: 335.4576416015625
y: 504.6490783691406
z: 0.05508462339639664
visibility: 0.9798431992530823
","x: 325.06732177734375
y: 509.6436767578125
z: 0.10245953500270844
visibility: 0.9748911261558533
","x: 335.80755615234375
y: 516.3718872070312
z: 0.057518549263477325
visibility: 0.8172813653945923
","x: 327.07415771484375
y: 521.3374633789062
z: 0.10500676929950714
visibility: 0.8267746567726135
","x: 338.8143005371094
y: 530.8226928710938
z: -0.07183118164539337
visibility: 0.9774215221405029
","x: 324.05084228515625
y: 534.1957397460938
z: -0.020244937390089035
visibility: 0.9716641902923584
",,,,,,,,,,,,,,,,,,,,,,,,,,,,,,,,,,,,,,,,,,
6,"x: 325.0152587890625
y: 197.389404296875
z: -0.26317939162254333
visibility: 0.9999868869781494
","x: 326.6327819824219
y: 189.41314697265625
z: -0.2444932460784912
visibility: 0.9999547600746155
","x: 327.9058532714844
y: 189.50767517089844
z: -0.24451084434986115
visibility: 0.9999436736106873
","x: 329.0801086425781
y: 189.52557373046875
z: -0.24454441666603088
visibility: 0.9999406337738037
","x: 322.5460510253906
y: 188.26805114746094
z: -0.2491997480392456
visibility: 0.9999719262123108
","x: 320.8673400878906
y: 187.67425537109375
z: -0.24919798970222473
visibility: 0.9999708533287048
","x: 319.1857604980469
y: 187.17257690429688
z: -0.24919414520263672
visibility: 0.999974250793457
","x: 329.8800354003906
y: 192.49253845214844
z: -0.12416716665029526
visibility: 0.9998756051063538
","x: 315.30718994140625
y: 190.7327117919922
z: -0.14683379232883453
visibility: 0.9999638199806213
","x: 326.8495178222656
y: 204.49554443359375
z: -0.21693766117095947
visibility: 0.999970555305481
","x: 322.23486328125
y: 204.01986694335938
z: -0.2237580269575119
visibility: 0.9999827742576599
","x: 340.1617736816406
y: 230.85293579101562
z: -0.05445314571261406
visibility: 0.9998701214790344
","x: 302.1492614746094
y: 240.11061096191406
z: -0.044492337852716446
visibility: 0.9999369382858276
","x: 367.1637268066406
y: 245.16323852539062
z: -0.16099467873573303
visibility: 0.9404816627502441
","x: 299.65362548828125
y: 296.9934387207031
z: 0.02454415336251259
visibility: 0.9847036004066467
","x: 353.9201965332031
y: 209.8701171875
z: -0.3810274004936218
visibility: 0.9197781682014465
","x: 302.72265625
y: 338.7234191894531
z: -0.01639688014984131
visibility: 0.9666465520858765
","x: 349.5618896484375
y: 196.7557373046875
z: -0.4261847138404846
visibility: 0.8665728569030762
","x: 302.5756530761719
y: 353.6976623535156
z: -0.02871784195303917
visibility: 0.9286560416221619
","x: 344.1847839355469
y: 195.30484008789062
z: -0.4232865273952484
visibility: 0.8756274580955505
","x: 305.495849609375
y: 351.0087890625
z: -0.05299847200512886
visibility: 0.9315726161003113
","x: 345.7541809082031
y: 200.01303100585938
z: -0.38546961545944214
visibility: 0.8486942052841187
","x: 306.736572265625
y: 345.6591491699219
z: -0.024641215801239014
visibility: 0.9056898355484009
","x: 336.3737487792969
y: 340.68487548828125
z: -0.013949215412139893
visibility: 0.9982990622520447
","x: 313.59857177734375
y: 341.60760498046875
z: 0.01388045959174633
visibility: 0.9986758828163147
","x: 331.0325012207031
y: 420.3317565917969
z: -0.029060229659080505
visibility: 0.9782426953315735
","x: 316.4585266113281
y: 426.1500549316406
z: 0.009990192949771881
visibility: 0.967441976070404
","x: 335.15155029296875
y: 504.6075134277344
z: 0.06738850474357605
visibility: 0.9798927307128906
","x: 324.9458923339844
y: 508.87371826171875
z: 0.11997219175100327
visibility: 0.9741625189781189
","x: 335.4568786621094
y: 515.999267578125
z: 0.07163762301206589
visibility: 0.8186455368995667
","x: 327.0288391113281
y: 520.2833251953125
z: 0.1234365850687027
visibility: 0.8237267732620239
","x: 338.66473388671875
y: 530.8758544921875
z: -0.05316688492894173
visibility: 0.9776051044464111
","x: 324.0355529785156
y: 534.2052612304688
z: 0.0019274808000773191
visibility: 0.9708812236785889
",,,,,,,,,,,,,,,,,,,,,,,,,,,,,,,,,,,,,,,,,,
7,"x: 323.8043518066406
y: 197.11790466308594
z: -0.25663822889328003
visibility: 0.9999880194664001
","x: 325.74627685546875
y: 189.32769775390625
z: -0.23783710598945618
visibility: 0.9999586939811707
","x: 327.0408020019531
y: 189.45664978027344
z: -0.23786132037639618
visibility: 0.9999487996101379
","x: 328.2674560546875
y: 189.51315307617188
z: -0.23789748549461365
visibility: 0.9999459385871887
","x: 321.6426086425781
y: 188.14918518066406
z: -0.24074247479438782
visibility: 0.9999741315841675
","x: 320.009521484375
y: 187.56307983398438
z: -0.24073278903961182
visibility: 0.9999731779098511
","x: 318.31158447265625
y: 187.0773468017578
z: -0.24071478843688965
visibility: 0.9999760985374451
","x: 329.615234375
y: 192.57272338867188
z: -0.11988814920186996
visibility: 0.9998871684074402
","x: 314.36236572265625
y: 190.65423583984375
z: -0.13401196897029877
visibility: 0.999967098236084
","x: 326.0209045410156
y: 204.20103454589844
z: -0.21183066070079803
visibility: 0.9999732375144958
","x: 321.01611328125
y: 203.69659423828125
z: -0.2161874771118164
visibility: 0.9999843239784241
","x: 340.28497314453125
y: 231.09361267089844
z: -0.05025138333439827
visibility: 0.9998816847801208
","x: 301.42529296875
y: 240.10797119140625
z: -0.03434545546770096
visibility: 0.9999405741691589
","x: 367.34344482421875
y: 241.9803466796875
z: -0.1494164913892746
visibility: 0.9462763071060181
","x: 298.40997314453125
y: 297.0134582519531
z: 0.047969572246074677
visibility: 0.9846290946006775
","x: 365.46209716796875
y: 200.63922119140625
z: -0.35752758383750916
visibility: 0.9274149537086487
","x: 301.1326599121094
y: 339.0557556152344
z: 0.027956092730164528
visibility: 0.9675503969192505
","x: 365.3664245605469
y: 186.5752410888672
z: -0.3998962640762329
visibility: 0.8784202933311462
","x: 301.0632629394531
y: 354.077880859375
z: 0.020907895639538765
visibility: 0.929766833782196
","x: 361.89642333984375
y: 183.39759826660156
z: -0.4013703465461731
visibility: 0.8865601420402527
","x: 303.8382873535156
y: 351.47650146484375
z: -0.004010661039501429
visibility: 0.9326779246330261
","x: 361.2540283203125
y: 189.05865478515625
z: -0.3640933036804199
visibility: 0.8616469502449036
","x: 305.0320129394531
y: 346.1480407714844
z: 0.019692471250891685
visibility: 0.9077577590942383
","x: 335.5524597167969
y: 340.60223388671875
z: -0.015574069693684578
visibility: 0.99844890832901
","x: 312.9727783203125
y: 341.530517578125
z: 0.015569803304970264
visibility: 0.9987812638282776
","x: 329.6962890625
y: 420.3241271972656
z: -0.029253249987959862
visibility: 0.977884829044342
","x: 315.782958984375
y: 425.9939270019531
z: 0.01161966472864151
visibility: 0.9680147767066956
","x: 334.5396423339844
y: 504.4708251953125
z: 0.07238192856311798
visibility: 0.9800993204116821
","x: 324.8700866699219
y: 508.2327575683594
z: 0.12747663259506226
visibility: 0.9741383194923401
","x: 335.1367492675781
y: 514.9521484375
z: 0.07813887298107147
visibility: 0.8224054574966431
","x: 327.0396728515625
y: 519.2100830078125
z: 0.1313607096672058
visibility: 0.8250922560691833
","x: 338.4554138183594
y: 530.8687133789062
z: -0.044359270483255386
visibility: 0.9779400825500488
","x: 323.8836975097656
y: 534.1788330078125
z: 0.009799709543585777
visibility: 0.9707983732223511
",,,,,,,,,,,,,,,,,,,,,,,,,,,,,,,,,,,,,,,,,,
8,"x: 322.98724365234375
y: 197.12538146972656
z: -0.23048965632915497
visibility: 0.9999889731407166
","x: 325.2205810546875
y: 189.31283569335938
z: -0.21239010989665985
visibility: 0.9999619126319885
","x: 326.5628356933594
y: 189.41494750976562
z: -0.21242201328277588
visibility: 0.9999532103538513
","x: 327.8657531738281
y: 189.46336364746094
z: -0.2124333679676056
visibility: 0.9999504089355469
","x: 320.87701416015625
y: 188.207275390625
z: -0.21348801255226135
visibility: 0.999975860118866
","x: 319.1741943359375
y: 187.62835693359375
z: -0.21346624195575714
visibility: 0.9999749660491943
","x: 317.4475402832031
y: 187.14166259765625
z: -0.2134501039981842
visibility: 0.9999775290489197
","x: 329.4119567871094
y: 192.536376953125
z: -0.09875284135341644
visibility: 0.999897301197052
","x: 313.5227355957031
y: 190.64361572265625
z: -0.10292448848485947
visibility: 0.9999698996543884
","x: 325.47479248046875
y: 204.10829162597656
z: -0.18736079335212708
visibility: 0.9999756217002869
","x: 319.958251953125
y: 203.69911193847656
z: -0.18880656361579895
visibility: 0.9999856352806091
","x: 340.4629211425781
y: 230.89537048339844
z: -0.040993791073560715
visibility: 0.9998924136161804
","x: 301.167724609375
y: 240.11289978027344
z: -0.004183613695204258
visibility: 0.9999445676803589
","x: 365.4886779785156
y: 242.3118896484375
z: -0.16764971613883972
visibility: 0.9512152671813965
","x: 298.1256408691406
y: 296.8011474609375
z: 0.07942138612270355
visibility: 0.984981119632721
","x: 369.2684020996094
y: 212.0749053955078
z: -0.42066583037376404
visibility: 0.9338210821151733
","x: 301.13604736328125
y: 338.6442565917969
z: 0.06491757929325104
visibility: 0.9693231582641602
","x: 370.4989929199219
y: 204.67376708984375
z: -0.46901512145996094
visibility: 0.8883931040763855
","x: 301.1604919433594
y: 353.80804443359375
z: 0.05823403596878052
visibility: 0.9328560829162598
","x: 366.6611328125
y: 201.94161987304688
z: -0.47576579451560974
visibility: 0.8957958817481995
","x: 304.0038757324219
y: 351.45068359375
z: 0.03283051773905754
visibility: 0.9357091188430786
","x: 366.1820983886719
y: 205.7017822265625
z: -0.4304637312889099
visibility: 0.8724405169487
","x: 305.1536865234375
y: 346.1927490234375
z: 0.056809455156326294
visibility: 0.9121847748756409
","x: 335.37591552734375
y: 341.0601806640625
z: -0.021646013483405113
visibility: 0.9985878467559814
","x: 312.9184875488281
y: 342.03533935546875
z: 0.021680695936083794
visibility: 0.9988788366317749
","x: 328.7163391113281
y: 420.5226135253906
z: -0.031752556562423706
visibility: 0.9778022170066833
","x: 315.3911437988281
y: 426.1509704589844
z: 0.014650322496891022
visibility: 0.9687018990516663
","x: 333.78167724609375
y: 504.2044677734375
z: 0.07293446362018585
visibility: 0.9805845618247986
","x: 324.8561706542969
y: 507.5707702636719
z: 0.1308635175228119
visibility: 0.9743714928627014
","x: 334.9676208496094
y: 514.1935424804688
z: 0.07826415449380875
visibility: 0.8204461336135864
","x: 327.1488037109375
y: 518.03173828125
z: 0.1345256119966507
visibility: 0.828551709651947
","x: 333.7101745605469
y: 531.30517578125
z: -0.04867425560951233
visibility: 0.978446364402771
","x: 322.9852600097656
y: 534.1845092773438
z: 0.0095225740224123
visibility: 0.9713090658187866
","x: 371.5902099609375
y: 204.1699981689453
z: 0.0
","x: 368.6150207519531
y: 203.09934997558594
z: -0.0013545809779316187
","x: 365.8806457519531
y: 201.13223266601562
z: -0.003994368948042393
","x: 364.02606201171875
y: 199.9561309814453
z: -0.006882938556373119
","x: 362.7753601074219
y: 199.11773681640625
z: -0.009173383004963398
","x: 366.43603515625
y: 190.7178955078125
z: -0.0029859018977731466
","x: 365.5056457519531
y: 194.93447875976562
z: -0.006149443797767162
","x: 365.8792419433594
y: 198.69509887695312
z: -0.0073843146674335
","x: 366.38690185546875
y: 199.52206420898438
z: -0.007973764091730118
","x: 368.93084716796875
y: 190.97036743164062
z: -0.004524169489741325
","x: 368.032958984375
y: 197.7229461669922
z: -0.007556485943496227
","x: 368.0498962402344
y: 200.62728881835938
z: -0.0071485345251858234
","x: 368.1888427734375
y: 200.32118225097656
z: -0.006806455086916685
","x: 371.2771911621094
y: 192.8802490234375
z: -0.006347512360662222
","x: 370.4441833496094
y: 199.806640625
z: -0.008380196988582611
","x: 370.2432861328125
y: 202.01068115234375
z: -0.007046040613204241
","x: 370.25
y: 201.3644561767578
z: -0.00610203156247735
","x: 373.3567810058594
y: 195.4926300048828
z: -0.00848247017711401
","x: 372.4911193847656
y: 201.2044677734375
z: -0.008742323145270348
","x: 372.0645751953125
y: 202.82516479492188
z: -0.007754701655358076
","x: 371.9921875
y: 202.2399139404297
z: -0.007163147442042828
",,,,,,,,,,,,,,,,,,,,,
9,"x: 322.98724365234375
y: 197.12538146972656
z: -0.23048965632915497
visibility: 0.9999889731407166
","x: 325.2205810546875
y: 189.31283569335938
z: -0.21239010989665985
visibility: 0.9999619126319885
","x: 326.5628356933594
y: 189.41494750976562
z: -0.21242201328277588
visibility: 0.9999532103538513
","x: 327.8657531738281
y: 189.46336364746094
z: -0.2124333679676056
visibility: 0.9999504089355469
","x: 320.87701416015625
y: 188.207275390625
z: -0.21348801255226135
visibility: 0.999975860118866
","x: 319.1741943359375
y: 187.62835693359375
z: -0.21346624195575714
visibility: 0.9999749660491943
","x: 317.4475402832031
y: 187.14166259765625
z: -0.2134501039981842
visibility: 0.9999775290489197
","x: 329.4119567871094
y: 192.536376953125
z: -0.09875284135341644
visibility: 0.999897301197052
","x: 313.5227355957031
y: 190.64361572265625
z: -0.10292448848485947
visibility: 0.9999698996543884
","x: 325.47479248046875
y: 204.10829162597656
z: -0.18736079335212708
visibility: 0.9999756217002869
","x: 319.958251953125
y: 203.69911193847656
z: -0.18880656361579895
visibility: 0.9999856352806091
","x: 340.4629211425781
y: 230.89537048339844
z: -0.040993791073560715
visibility: 0.9998924136161804
","x: 301.167724609375
y: 240.11289978027344
z: -0.004183613695204258
visibility: 0.9999445676803589
","x: 365.4886779785156
y: 242.3118896484375
z: -0.16764971613883972
visibility: 0.9512152671813965
","x: 298.1256408691406
y: 296.8011474609375
z: 0.07942138612270355
visibility: 0.984981119632721
","x: 369.2684020996094
y: 212.0749053955078
z: -0.42066583037376404
visibility: 0.9338210821151733
","x: 301.13604736328125
y: 338.6442565917969
z: 0.06491757929325104
visibility: 0.9693231582641602
","x: 370.4989929199219
y: 204.67376708984375
z: -0.46901512145996094
visibility: 0.8883931040763855
","x: 301.1604919433594
y: 353.80804443359375
z: 0.05823403596878052
visibility: 0.9328560829162598
","x: 366.6611328125
y: 201.94161987304688
z: -0.47576579451560974
visibility: 0.8957958817481995
","x: 304.0038757324219
y: 351.45068359375
z: 0.03283051773905754
visibility: 0.9357091188430786
","x: 366.1820983886719
y: 205.7017822265625
z: -0.4304637312889099
visibility: 0.8724405169487
","x: 305.1536865234375
y: 346.1927490234375
z: 0.056809455156326294
visibility: 0.9121847748756409
","x: 335.37591552734375
y: 341.0601806640625
z: -0.021646013483405113
visibility: 0.9985878467559814
","x: 312.9184875488281
y: 342.03533935546875
z: 0.021680695936083794
visibility: 0.9988788366317749
","x: 328.7163391113281
y: 420.5226135253906
z: -0.031752556562423706
visibility: 0.9778022170066833
","x: 315.3911437988281
y: 426.1509704589844
z: 0.014650322496891022
visibility: 0.9687018990516663
","x: 333.78167724609375
y: 504.2044677734375
z: 0.07293446362018585
visibility: 0.9805845618247986
","x: 324.8561706542969
y: 507.5707702636719
z: 0.1308635175228119
visibility: 0.9743714928627014
","x: 334.9676208496094
y: 514.1935424804688
z: 0.07826415449380875
visibility: 0.8204461336135864
","x: 327.1488037109375
y: 518.03173828125
z: 0.1345256119966507
visibility: 0.828551709651947
","x: 333.7101745605469
y: 531.30517578125
z: -0.04867425560951233
visibility: 0.978446364402771
","x: 322.9852600097656
y: 534.1845092773438
z: 0.0095225740224123
visibility: 0.9713090658187866
","x: 371.5902099609375
y: 204.1699981689453
z: 0.0
","x: 368.6150207519531
y: 203.09934997558594
z: -0.0013545809779316187
","x: 365.8806457519531
y: 201.13223266601562
z: -0.003994368948042393
","x: 364.02606201171875
y: 199.9561309814453
z: -0.006882938556373119
","x: 362.7753601074219
y: 199.11773681640625
z: -0.009173383004963398
","x: 366.43603515625
y: 190.7178955078125
z: -0.0029859018977731466
","x: 365.5056457519531
y: 194.93447875976562
z: -0.006149443797767162
","x: 365.8792419433594
y: 198.69509887695312
z: -0.0073843146674335
","x: 366.38690185546875
y: 199.52206420898438
z: -0.007973764091730118
","x: 368.93084716796875
y: 190.97036743164062
z: -0.004524169489741325
","x: 368.032958984375
y: 197.7229461669922
z: -0.007556485943496227
","x: 368.0498962402344
y: 200.62728881835938
z: -0.0071485345251858234
","x: 368.1888427734375
y: 200.32118225097656
z: -0.006806455086916685
","x: 371.2771911621094
y: 192.8802490234375
z: -0.006347512360662222
","x: 370.4441833496094
y: 199.806640625
z: -0.008380196988582611
","x: 370.2432861328125
y: 202.01068115234375
z: -0.007046040613204241
","x: 370.25
y: 201.3644561767578
z: -0.00610203156247735
","x: 373.3567810058594
y: 195.4926300048828
z: -0.00848247017711401
","x: 372.4911193847656
y: 201.2044677734375
z: -0.008742323145270348
","x: 372.0645751953125
y: 202.82516479492188
z: -0.007754701655358076
","x: 371.9921875
y: 202.2399139404297
z: -0.007163147442042828
",,,,,,,,,,,,,,,,,,,,,
10,"x: 321.1805725097656
y: 196.72763061523438
z: -0.25394362211227417
visibility: 0.9999862909317017
","x: 323.41033935546875
y: 188.9667510986328
z: -0.2442064732313156
visibility: 0.9999452233314514
","x: 324.7905578613281
y: 188.98069763183594
z: -0.24427466094493866
visibility: 0.9999412298202515
","x: 326.06854248046875
y: 188.9914093017578
z: -0.24421902000904083
visibility: 0.999934732913971
","x: 319.12445068359375
y: 188.1904296875
z: -0.21469226479530334
visibility: 0.9999614953994751
","x: 317.53033447265625
y: 187.671142578125
z: -0.2146255522966385
visibility: 0.9999624490737915
","x: 316.0307922363281
y: 187.1980438232422
z: -0.21463951468467712
visibility: 0.9999646544456482
","x: 327.7453308105469
y: 192.01651000976562
z: -0.14566358923912048
visibility: 0.9998767971992493
","x: 312.8606872558594
y: 190.580810546875
z: -0.14214357733726501
visibility: 0.9999545812606812
","x: 323.76141357421875
y: 203.65541076660156
z: -0.22104167938232422
visibility: 0.9999719858169556
","x: 318.2974548339844
y: 203.47723388671875
z: -0.20154428482055664
visibility: 0.9999819397926331
","x: 340.4632873535156
y: 227.79733276367188
z: -0.09560154378414154
visibility: 0.9998990893363953
","x: 300.609375
y: 240.2411651611328
z: -0.044754233211278915
visibility: 0.9999427199363708
","x: 364.1956787109375
y: 229.46038818359375
z: -0.20129969716072083
visibility: 0.9554411768913269
","x: 297.1502685546875
y: 297.2469177246094
z: 0.02971149981021881
visibility: 0.985705554485321
","x: 363.68975830078125
y: 232.3225555419922
z: -0.4354027807712555
visibility: 0.9380455613136292
","x: 300.96331787109375
y: 338.8133544921875
z: -0.07488615065813065
visibility: 0.9713800549507141
","x: 362.1811828613281
y: 238.18121337890625
z: -0.48693370819091797
visibility: 0.8942185044288635
","x: 301.5295715332031
y: 353.93194580078125
z: -0.10186002403497696
visibility: 0.9368822574615479
","x: 358.0732727050781
y: 236.6767120361328
z: -0.49894899129867554
visibility: 0.9011446237564087
","x: 304.494140625
y: 351.224365234375
z: -0.1301303207874298
visibility: 0.9396087527275085
","x: 358.3498229980469
y: 235.51309204101562
z: -0.44565892219543457
visibility: 0.8783507943153381
","x: 305.375244140625
y: 345.9422607421875
z: -0.08632625639438629
visibility: 0.9174160957336426
","x: 335.3561096191406
y: 341.53155517578125
z: -0.02534228190779686
visibility: 0.9986889958381653
","x: 313.055908203125
y: 343.84466552734375
z: 0.0253446064889431
visibility: 0.9989246129989624
","x: 328.5805358886719
y: 420.5428466796875
z: -0.05920439958572388
visibility: 0.9774273633956909
","x: 315.45635986328125
y: 426.5352783203125
z: 0.00931767001748085
visibility: 0.9686068892478943
","x: 333.14080810546875
y: 503.5024719238281
z: 0.053587406873703
visibility: 0.9809150695800781
","x: 324.91693115234375
y: 506.9946594238281
z: 0.12264291942119598
visibility: 0.9745141267776489
","x: 334.2805480957031
y: 512.8104248046875
z: 0.05761301517486572
visibility: 0.8205404877662659
","x: 327.353271484375
y: 517.2266845703125
z: 0.12610384821891785
visibility: 0.8329851627349854
","x: 333.91552734375
y: 531.3026123046875
z: -0.07601846009492874
visibility: 0.9786152839660645
","x: 322.983642578125
y: 534.050048828125
z: 0.0005288077518343925
visibility: 0.971596896648407
",,,,,,,,,,,,,,,,,,,,,,,,,,,,,,,,,,,,,,,,,,
11,"x: 319.4936218261719
y: 197.8121795654297
z: -0.3280157446861267
visibility: 0.9999852776527405
","x: 321.1504821777344
y: 189.47760009765625
z: -0.31422358751296997
visibility: 0.9999440908432007
","x: 322.3299865722656
y: 189.19183349609375
z: -0.31426042318344116
visibility: 0.9999415278434753
","x: 323.4310302734375
y: 189.03253173828125
z: -0.3143105208873749
visibility: 0.999935507774353
","x: 317.5209045410156
y: 189.4281768798828
z: -0.31057995557785034
visibility: 0.9999580979347229
","x: 316.19390869140625
y: 188.94935607910156
z: -0.3106003403663635
visibility: 0.999958872795105
","x: 314.8856201171875
y: 188.44261169433594
z: -0.310608446598053
visibility: 0.9999603629112244
","x: 324.7652893066406
y: 191.8062744140625
z: -0.19866374135017395
visibility: 0.9998835921287537
","x: 311.9190673828125
y: 190.89430236816406
z: -0.19209906458854675
visibility: 0.9999507665634155
","x: 321.94866943359375
y: 204.2161407470703
z: -0.2824074625968933
visibility: 0.9999734163284302
","x: 317.07476806640625
y: 204.61395263671875
z: -0.27889296412467957
visibility: 0.999981701374054
","x: 340.4328308105469
y: 225.80166625976562
z: -0.13378818333148956
visibility: 0.9999085068702698
","x: 299.6377258300781
y: 240.77955627441406
z: -0.061025433242321014
visibility: 0.9999444484710693
","x: 364.4951477050781
y: 236.61282348632812
z: -0.2412503957748413
visibility: 0.9598047733306885
","x: 297.2768249511719
y: 298.4195251464844
z: 0.0038053609896451235
visibility: 0.9856856465339661
","x: 350.7914123535156
y: 246.9290008544922
z: -0.47665220499038696
visibility: 0.9438561797142029
","x: 301.5556945800781
y: 340.2559814453125
z: -0.11506786197423935
visibility: 0.9719975590705872
","x: 345.5054931640625
y: 251.17340087890625
z: -0.5318684577941895
visibility: 0.9035093188285828
","x: 302.1383361816406
y: 355.451171875
z: -0.1421181857585907
visibility: 0.9382423162460327
","x: 341.65264892578125
y: 247.0471954345703
z: -0.5322090983390808
visibility: 0.9097015261650085
","x: 305.2019958496094
y: 352.70501708984375
z: -0.17173808813095093
visibility: 0.9409216046333313
","x: 342.61822509765625
y: 245.64027404785156
z: -0.4812595248222351
visibility: 0.888139545917511
","x: 306.0445556640625
y: 347.5570068359375
z: -0.1273699849843979
visibility: 0.9188382625579834
","x: 335.8623962402344
y: 340.7499694824219
z: -0.031165529042482376
visibility: 0.9987825751304626
","x: 313.1400146484375
y: 343.83782958984375
z: 0.03118797577917576
visibility: 0.9989736080169678
","x: 328.9414978027344
y: 418.866943359375
z: -0.08464235067367554
visibility: 0.9779790043830872
","x: 315.52838134765625
y: 426.6261291503906
z: 0.007128128316253424
visibility: 0.9670717120170593
","x: 333.1698303222656
y: 502.45489501953125
z: 0.03432696312665939
visibility: 0.981389045715332
","x: 324.9274597167969
y: 506.88275146484375
z: 0.12053696066141129
visibility: 0.9739769697189331
","x: 334.3017883300781
y: 511.4372253417969
z: 0.0393279604613781
visibility: 0.8239703178405762
","x: 327.5398254394531
y: 517.1416625976562
z: 0.12398330867290497
visibility: 0.8356034755706787
","x: 334.13037109375
y: 531.15576171875
z: -0.0945882648229599
visibility: 0.9789592623710632
","x: 322.780029296875
y: 533.9087524414062
z: -0.0021601312328130007
visibility: 0.9710529446601868
","x: 346.8264465332031
y: 243.99949645996094
z: 0.0
","x: 342.6779479980469
y: 240.47959899902344
z: 0.0017642914317548275
","x: 338.40509033203125
y: 241.6040802001953
z: 0.0015810447512194514
","x: 336.0992431640625
y: 246.0408172607422
z: 0.0009150438127107918
","x: 335.43206787109375
y: 249.88204956054688
z: 0.0006863297312520444
","x: 336.52166748046875
y: 243.35472106933594
z: -0.0013293367810547352
","x: 332.6625061035156
y: 248.0734405517578
z: -0.0019631097093224525
","x: 333.8474426269531
y: 248.89845275878906
z: -0.0008450374589301646
","x: 335.54034423828125
y: 247.8838348388672
z: 0.0002298422041349113
","x: 337.49383544921875
y: 247.56483459472656
z: -0.0029946693684905767
","x: 334.4521484375
y: 251.8504638671875
z: -0.0025080887135118246
","x: 335.656982421875
y: 251.81787109375
z: -0.00047140062088146806
","x: 336.9403076171875
y: 250.36871337890625
z: 0.0007822585175745189
","x: 338.84600830078125
y: 251.55348205566406
z: -0.004468890372663736
","x: 336.16302490234375
y: 255.27676391601562
z: -0.003733114106580615
","x: 337.31939697265625
y: 254.73770141601562
z: -0.0015136864967644215
","x: 338.453125
y: 253.22344970703125
z: -0.0003484295157250017
","x: 340.38958740234375
y: 255.18670654296875
z: -0.005901717115193605
","x: 337.6859436035156
y: 258.1669006347656
z: -0.005358520429581404
","x: 338.44305419921875
y: 257.20306396484375
z: -0.0037404964677989483
","x: 339.62274169921875
y: 255.68966674804688
z: -0.002584678353741765
",,,,,,,,,,,,,,,,,,,,,
12,"x: 319.4936218261719
y: 197.8121795654297
z: -0.3280157446861267
visibility: 0.9999852776527405
","x: 321.1504821777344
y: 189.47760009765625
z: -0.31422358751296997
visibility: 0.9999440908432007
","x: 322.3299865722656
y: 189.19183349609375
z: -0.31426042318344116
visibility: 0.9999415278434753
","x: 323.4310302734375
y: 189.03253173828125
z: -0.3143105208873749
visibility: 0.999935507774353
","x: 317.5209045410156
y: 189.4281768798828
z: -0.31057995557785034
visibility: 0.9999580979347229
","x: 316.19390869140625
y: 188.94935607910156
z: -0.3106003403663635
visibility: 0.999958872795105
","x: 314.8856201171875
y: 188.44261169433594
z: -0.310608446598053
visibility: 0.9999603629112244
","x: 324.7652893066406
y: 191.8062744140625
z: -0.19866374135017395
visibility: 0.9998835921287537
","x: 311.9190673828125
y: 190.89430236816406
z: -0.19209906458854675
visibility: 0.9999507665634155
","x: 321.94866943359375
y: 204.2161407470703
z: -0.2824074625968933
visibility: 0.9999734163284302
","x: 317.07476806640625
y: 204.61395263671875
z: -0.27889296412467957
visibility: 0.999981701374054
","x: 340.4328308105469
y: 225.80166625976562
z: -0.13378818333148956
visibility: 0.9999085068702698
","x: 299.6377258300781
y: 240.77955627441406
z: -0.061025433242321014
visibility: 0.9999444484710693
","x: 364.4951477050781
y: 236.61282348632812
z: -0.2412503957748413
visibility: 0.9598047733306885
","x: 297.2768249511719
y: 298.4195251464844
z: 0.0038053609896451235
visibility: 0.9856856465339661
","x: 350.7914123535156
y: 246.9290008544922
z: -0.47665220499038696
visibility: 0.9438561797142029
","x: 301.5556945800781
y: 340.2559814453125
z: -0.11506786197423935
visibility: 0.9719975590705872
","x: 345.5054931640625
y: 251.17340087890625
z: -0.5318684577941895
visibility: 0.9035093188285828
","x: 302.1383361816406
y: 355.451171875
z: -0.1421181857585907
visibility: 0.9382423162460327
","x: 341.65264892578125
y: 247.0471954345703
z: -0.5322090983390808
visibility: 0.9097015261650085
","x: 305.2019958496094
y: 352.70501708984375
z: -0.17173808813095093
visibility: 0.9409216046333313
","x: 342.61822509765625
y: 245.64027404785156
z: -0.4812595248222351
visibility: 0.888139545917511
","x: 306.0445556640625
y: 347.5570068359375
z: -0.1273699849843979
visibility: 0.9188382625579834
","x: 335.8623962402344
y: 340.7499694824219
z: -0.031165529042482376
visibility: 0.9987825751304626
","x: 313.1400146484375
y: 343.83782958984375
z: 0.03118797577917576
visibility: 0.9989736080169678
","x: 328.9414978027344
y: 418.866943359375
z: -0.08464235067367554
visibility: 0.9779790043830872
","x: 315.52838134765625
y: 426.6261291503906
z: 0.007128128316253424
visibility: 0.9670717120170593
","x: 333.1698303222656
y: 502.45489501953125
z: 0.03432696312665939
visibility: 0.981389045715332
","x: 324.9274597167969
y: 506.88275146484375
z: 0.12053696066141129
visibility: 0.9739769697189331
","x: 334.3017883300781
y: 511.4372253417969
z: 0.0393279604613781
visibility: 0.8239703178405762
","x: 327.5398254394531
y: 517.1416625976562
z: 0.12398330867290497
visibility: 0.8356034755706787
","x: 334.13037109375
y: 531.15576171875
z: -0.0945882648229599
visibility: 0.9789592623710632
","x: 322.780029296875
y: 533.9087524414062
z: -0.0021601312328130007
visibility: 0.9710529446601868
","x: 346.8264465332031
y: 243.99949645996094
z: 0.0
","x: 342.6779479980469
y: 240.47959899902344
z: 0.0017642914317548275
","x: 338.40509033203125
y: 241.6040802001953
z: 0.0015810447512194514
","x: 336.0992431640625
y: 246.0408172607422
z: 0.0009150438127107918
","x: 335.43206787109375
y: 249.88204956054688
z: 0.0006863297312520444
","x: 336.52166748046875
y: 243.35472106933594
z: -0.0013293367810547352
","x: 332.6625061035156
y: 248.0734405517578
z: -0.0019631097093224525
","x: 333.8474426269531
y: 248.89845275878906
z: -0.0008450374589301646
","x: 335.54034423828125
y: 247.8838348388672
z: 0.0002298422041349113
","x: 337.49383544921875
y: 247.56483459472656
z: -0.0029946693684905767
","x: 334.4521484375
y: 251.8504638671875
z: -0.0025080887135118246
","x: 335.656982421875
y: 251.81787109375
z: -0.00047140062088146806
","x: 336.9403076171875
y: 250.36871337890625
z: 0.0007822585175745189
","x: 338.84600830078125
y: 251.55348205566406
z: -0.004468890372663736
","x: 336.16302490234375
y: 255.27676391601562
z: -0.003733114106580615
","x: 337.31939697265625
y: 254.73770141601562
z: -0.0015136864967644215
","x: 338.453125
y: 253.22344970703125
z: -0.0003484295157250017
","x: 340.38958740234375
y: 255.18670654296875
z: -0.005901717115193605
","x: 337.6859436035156
y: 258.1669006347656
z: -0.005358520429581404
","x: 338.44305419921875
y: 257.20306396484375
z: -0.0037404964677989483
","x: 339.62274169921875
y: 255.68966674804688
z: -0.002584678353741765
",,,,,,,,,,,,,,,,,,,,,
13,"x: 318.9064025878906
y: 201.1896514892578
z: -0.43779072165489197
visibility: 0.9999837875366211
","x: 320.5592956542969
y: 192.70123291015625
z: -0.426247775554657
visibility: 0.9999411702156067
","x: 321.7469482421875
y: 192.14964294433594
z: -0.42628711462020874
visibility: 0.9999403953552246
","x: 322.8589782714844
y: 191.6506805419922
z: -0.4263644218444824
visibility: 0.9999340176582336
","x: 316.7926330566406
y: 192.99624633789062
z: -0.4236659109592438
visibility: 0.9999505281448364
","x: 315.430908203125
y: 192.45948791503906
z: -0.4236961305141449
visibility: 0.9999504089355469
","x: 314.099609375
y: 191.8166961669922
z: -0.4237512946128845
visibility: 0.9999503493309021
","x: 323.9884033203125
y: 192.5163116455078
z: -0.3017658591270447
visibility: 0.9998864531517029
","x: 311.27301025390625
y: 192.65713500976562
z: -0.2881719768047333
visibility: 0.9999438524246216
","x: 321.3709411621094
y: 206.94297790527344
z: -0.38644322752952576
visibility: 0.9999746084213257
","x: 316.30242919921875
y: 208.005615234375
z: -0.38289758563041687
visibility: 0.9999815821647644
","x: 340.529052734375
y: 226.5042724609375
z: -0.20301060378551483
visibility: 0.9999169111251831
","x: 298.9050598144531
y: 240.76925659179688
z: -0.143533855676651
visibility: 0.9999483227729797
","x: 355.26751708984375
y: 276.8514404296875
z: -0.3054027259349823
visibility: 0.9633564352989197
","x: 297.3390197753906
y: 298.86590576171875
z: -0.07747209072113037
visibility: 0.9860981106758118
","x: 348.1062927246094
y: 263.0981750488281
z: -0.5784269571304321
visibility: 0.9485675692558289
","x: 301.9104309082031
y: 342.4401550292969
z: -0.18310026824474335
visibility: 0.9730741381645203
","x: 343.6105041503906
y: 262.3715515136719
z: -0.638706386089325
visibility: 0.9112303256988525
","x: 302.2544860839844
y: 357.6526184082031
z: -0.21085453033447266
visibility: 0.9404144287109375
","x: 341.847900390625
y: 253.5220947265625
z: -0.6472265124320984
visibility: 0.9168376922607422
","x: 305.4418640136719
y: 355.32598876953125
z: -0.24415257573127747
visibility: 0.9430117011070251
","x: 342.28173828125
y: 253.79844665527344
z: -0.5870826244354248
visibility: 0.8956619501113892
","x: 306.4054260253906
y: 350.42425537109375
z: -0.1966134011745453
visibility: 0.9214135408401489
","x: 335.9540710449219
y: 340.5433349609375
z: -0.029502952471375465
visibility: 0.9988579750061035
","x: 313.2220764160156
y: 343.8205261230469
z: 0.02956452965736389
visibility: 0.9990111589431763
","x: 329.0361022949219
y: 419.17523193359375
z: -0.07910346984863281
visibility: 0.9787540435791016
","x: 315.473388671875
y: 427.6614074707031
z: 0.018159035593271255
visibility: 0.9677305817604065
","x: 334.4537353515625
y: 502.1996765136719
z: 0.07708002626895905
visibility: 0.9822998642921448
","x: 324.8377380371094
y: 506.96588134765625
z: 0.1750190258026123
visibility: 0.9747107028961182
","x: 336.0142517089844
y: 511.4595031738281
z: 0.0862964317202568
visibility: 0.8276140689849854
","x: 327.7829895019531
y: 516.9689331054688
z: 0.18227675557136536
visibility: 0.8425381779670715
","x: 334.1978759765625
y: 531.40966796875
z: -0.07044349610805511
visibility: 0.9797335267066956
","x: 322.5231018066406
y: 534.5255126953125
z: 0.04334606975317001
visibility: 0.9719175100326538
","x: 347.2066345214844
y: 265.3094177246094
z: 0.0
","x: 347.4222412109375
y: 258.11590576171875
z: -0.0015591562259942293
","x: 345.3481140136719
y: 250.2152099609375
z: -0.003403457347303629
","x: 342.4205627441406
y: 245.65658569335938
z: -0.004799102898687124
","x: 339.5999755859375
y: 243.208251953125
z: -0.006149039138108492
","x: 344.8936767578125
y: 252.393798828125
z: -0.007036719471216202
","x: 340.50384521484375
y: 248.20159912109375
z: -0.008769521489739418
","x: 338.0057373046875
y: 246.7765655517578
z: -0.00840771570801735
","x: 336.3699951171875
y: 246.3639678955078
z: -0.007967871613800526
","x: 343.4432678222656
y: 256.84881591796875
z: -0.00745537830516696
","x: 338.1964111328125
y: 252.31399536132812
z: -0.009448381140828133
","x: 337.4591369628906
y: 251.70889282226562
z: -0.007862521335482597
","x: 338.033935546875
y: 252.2907257080078
z: -0.006345671601593494
","x: 342.08563232421875
y: 261.060302734375
z: -0.007689538411796093
","x: 337.5279541015625
y: 256.4541320800781
z: -0.009134561754763126
","x: 337.70391845703125
y: 256.23223876953125
z: -0.006888693664222956
","x: 338.8591613769531
y: 257.0764465332031
z: -0.005172234959900379
","x: 340.9117736816406
y: 265.02349853515625
z: -0.008045576512813568
","x: 337.6073303222656
y: 260.7004089355469
z: -0.009174861013889313
","x: 337.9635314941406
y: 260.260986328125
z: -0.007972534745931625
","x: 338.9853210449219
y: 260.9720458984375
z: -0.0067990487441420555
",,,,,,,,,,,,,,,,,,,,,
14,"x: 318.9064025878906
y: 201.1896514892578
z: -0.43779072165489197
visibility: 0.9999837875366211
","x: 320.5592956542969
y: 192.70123291015625
z: -0.426247775554657
visibility: 0.9999411702156067
","x: 321.7469482421875
y: 192.14964294433594
z: -0.42628711462020874
visibility: 0.9999403953552246
","x: 322.8589782714844
y: 191.6506805419922
z: -0.4263644218444824
visibility: 0.9999340176582336
","x: 316.7926330566406
y: 192.99624633789062
z: -0.4236659109592438
visibility: 0.9999505281448364
","x: 315.430908203125
y: 192.45948791503906
z: -0.4236961305141449
visibility: 0.9999504089355469
","x: 314.099609375
y: 191.8166961669922
z: -0.4237512946128845
visibility: 0.9999503493309021
","x: 323.9884033203125
y: 192.5163116455078
z: -0.3017658591270447
visibility: 0.9998864531517029
","x: 311.27301025390625
y: 192.65713500976562
z: -0.2881719768047333
visibility: 0.9999438524246216
","x: 321.3709411621094
y: 206.94297790527344
z: -0.38644322752952576
visibility: 0.9999746084213257
","x: 316.30242919921875
y: 208.005615234375
z: -0.38289758563041687
visibility: 0.9999815821647644
","x: 340.529052734375
y: 226.5042724609375
z: -0.20301060378551483
visibility: 0.9999169111251831
","x: 298.9050598144531
y: 240.76925659179688
z: -0.143533855676651
visibility: 0.9999483227729797
","x: 355.26751708984375
y: 276.8514404296875
z: -0.3054027259349823
visibility: 0.9633564352989197
","x: 297.3390197753906
y: 298.86590576171875
z: -0.07747209072113037
visibility: 0.9860981106758118
","x: 348.1062927246094
y: 263.0981750488281
z: -0.5784269571304321
visibility: 0.9485675692558289
","x: 301.9104309082031
y: 342.4401550292969
z: -0.18310026824474335
visibility: 0.9730741381645203
","x: 343.6105041503906
y: 262.3715515136719
z: -0.638706386089325
visibility: 0.9112303256988525
","x: 302.2544860839844
y: 357.6526184082031
z: -0.21085453033447266
visibility: 0.9404144287109375
","x: 341.847900390625
y: 253.5220947265625
z: -0.6472265124320984
visibility: 0.9168376922607422
","x: 305.4418640136719
y: 355.32598876953125
z: -0.24415257573127747
visibility: 0.9430117011070251
","x: 342.28173828125
y: 253.79844665527344
z: -0.5870826244354248
visibility: 0.8956619501113892
","x: 306.4054260253906
y: 350.42425537109375
z: -0.1966134011745453
visibility: 0.9214135408401489
","x: 335.9540710449219
y: 340.5433349609375
z: -0.029502952471375465
visibility: 0.9988579750061035
","x: 313.2220764160156
y: 343.8205261230469
z: 0.02956452965736389
visibility: 0.9990111589431763
","x: 329.0361022949219
y: 419.17523193359375
z: -0.07910346984863281
visibility: 0.9787540435791016
","x: 315.473388671875
y: 427.6614074707031
z: 0.018159035593271255
visibility: 0.9677305817604065
","x: 334.4537353515625
y: 502.1996765136719
z: 0.07708002626895905
visibility: 0.9822998642921448
","x: 324.8377380371094
y: 506.96588134765625
z: 0.1750190258026123
visibility: 0.9747107028961182
","x: 336.0142517089844
y: 511.4595031738281
z: 0.0862964317202568
visibility: 0.8276140689849854
","x: 327.7829895019531
y: 516.9689331054688
z: 0.18227675557136536
visibility: 0.8425381779670715
","x: 334.1978759765625
y: 531.40966796875
z: -0.07044349610805511
visibility: 0.9797335267066956
","x: 322.5231018066406
y: 534.5255126953125
z: 0.04334606975317001
visibility: 0.9719175100326538
","x: 347.2066345214844
y: 265.3094177246094
z: 0.0
","x: 347.4222412109375
y: 258.11590576171875
z: -0.0015591562259942293
","x: 345.3481140136719
y: 250.2152099609375
z: -0.003403457347303629
","x: 342.4205627441406
y: 245.65658569335938
z: -0.004799102898687124
","x: 339.5999755859375
y: 243.208251953125
z: -0.006149039138108492
","x: 344.8936767578125
y: 252.393798828125
z: -0.007036719471216202
","x: 340.50384521484375
y: 248.20159912109375
z: -0.008769521489739418
","x: 338.0057373046875
y: 246.7765655517578
z: -0.00840771570801735
","x: 336.3699951171875
y: 246.3639678955078
z: -0.007967871613800526
","x: 343.4432678222656
y: 256.84881591796875
z: -0.00745537830516696
","x: 338.1964111328125
y: 252.31399536132812
z: -0.009448381140828133
","x: 337.4591369628906
y: 251.70889282226562
z: -0.007862521335482597
","x: 338.033935546875
y: 252.2907257080078
z: -0.006345671601593494
","x: 342.08563232421875
y: 261.060302734375
z: -0.007689538411796093
","x: 337.5279541015625
y: 256.4541320800781
z: -0.009134561754763126
","x: 337.70391845703125
y: 256.23223876953125
z: -0.006888693664222956
","x: 338.8591613769531
y: 257.0764465332031
z: -0.005172234959900379
","x: 340.9117736816406
y: 265.02349853515625
z: -0.008045576512813568
","x: 337.6073303222656
y: 260.7004089355469
z: -0.009174861013889313
","x: 337.9635314941406
y: 260.260986328125
z: -0.007972534745931625
","x: 338.9853210449219
y: 260.9720458984375
z: -0.0067990487441420555
",,,,,,,,,,,,,,,,,,,,,
15,"x: 316.0045166015625
y: 204.80319213867188
z: -0.42944464087486267
visibility: 0.9999609589576721
","x: 318.7802734375
y: 196.14666748046875
z: -0.4166889190673828
visibility: 0.9998501539230347
","x: 320.32098388671875
y: 195.6401824951172
z: -0.41673022508621216
visibility: 0.9998537302017212
","x: 321.716796875
y: 195.1671142578125
z: -0.4167920649051666
visibility: 0.9998409748077393
","x: 314.0372619628906
y: 196.24478149414062
z: -0.4141082167625427
visibility: 0.9998616576194763
","x: 312.47760009765625
y: 195.64801025390625
z: -0.41416746377944946
visibility: 0.9998565912246704
","x: 311.1057434082031
y: 194.98446655273438
z: -0.4142431318759918
visibility: 0.9998691082000732
","x: 323.25921630859375
y: 195.81683349609375
z: -0.3039994239807129
visibility: 0.9997110962867737
","x: 309.3433532714844
y: 195.42584228515625
z: -0.2899569869041443
visibility: 0.9997720122337341
","x: 318.8976745605469
y: 211.78712463378906
z: -0.3837467133998871
visibility: 0.999944269657135
","x: 313.0800476074219
y: 212.23834228515625
z: -0.380109965801239
visibility: 0.9999592900276184
","x: 339.48492431640625
y: 236.1044464111328
z: -0.2212490737438202
visibility: 0.999908983707428
","x: 295.9366760253906
y: 243.34494018554688
z: -0.17007745802402496
visibility: 0.9999442100524902
","x: 340.59100341796875
y: 299.4334716796875
z: -0.22939567267894745
visibility: 0.9608673453330994
","x: 295.7787780761719
y: 301.8126525878906
z: -0.11433079093694687
visibility: 0.9834309220314026
","x: 337.1291198730469
y: 344.01715087890625
z: -0.3890603184700012
visibility: 0.9339223504066467
","x: 300.91693115234375
y: 351.9752197265625
z: -0.21638409793376923
visibility: 0.9684419631958008
","x: 336.9454650878906
y: 358.3873291015625
z: -0.4322376847267151
visibility: 0.8949676156044006
","x: 302.02239990234375
y: 368.38299560546875
z: -0.2509983479976654
visibility: 0.9346721172332764
","x: 332.7546691894531
y: 357.6136779785156
z: -0.5101343989372253
visibility: 0.9004364013671875
","x: 304.8611755371094
y: 366.2273864746094
z: -0.28447872400283813
visibility: 0.9377166628837585
","x: 332.1517333984375
y: 352.2936706542969
z: -0.4109620451927185
visibility: 0.875988245010376
","x: 305.49139404296875
y: 359.7757263183594
z: -0.23149427771568298
visibility: 0.9162130951881409
","x: 335.9059143066406
y: 345.83001708984375
z: -0.02914341352880001
visibility: 0.99891197681427
","x: 312.9058532714844
y: 352.4524230957031
z: 0.029285628348588943
visibility: 0.9990738034248352
","x: 341.4488525390625
y: 426.1507568359375
z: -0.023669486865401268
visibility: 0.9805285930633545
","x: 315.39654541015625
y: 435.66717529296875
z: 0.010586360469460487
visibility: 0.970557451248169
","x: 350.3123474121094
y: 501.7404479980469
z: 0.2009550780057907
visibility: 0.9837508797645569
","x: 324.8585510253906
y: 507.44500732421875
z: 0.19723647832870483
visibility: 0.9768754839897156
","x: 349.90545654296875
y: 507.8678894042969
z: 0.21458061039447784
visibility: 0.8339036703109741
","x: 328.2011413574219
y: 517.1273193359375
z: 0.20892640948295593
visibility: 0.8525356650352478
","x: 350.8809814453125
y: 531.4014892578125
z: 0.0712064579129219
visibility: 0.9811820387840271
","x: 321.9618835449219
y: 535.2579345703125
z: 0.07416562736034393
visibility: 0.9741016626358032
",,,,,,,,,,,,,,,,,,,,,,,,,,,,,,,,,,,,,,,,,,
16,"x: 310.3274230957031
y: 204.62982177734375
z: -0.37328046560287476
visibility: 0.9999520778656006
","x: 313.937744140625
y: 196.11265563964844
z: -0.3605591654777527
visibility: 0.9998195171356201
","x: 315.7456359863281
y: 195.85958862304688
z: -0.3605958819389343
visibility: 0.999830424785614
","x: 317.50921630859375
y: 195.7682647705078
z: -0.3606450855731964
visibility: 0.9998202919960022
","x: 309.6790466308594
y: 195.961181640625
z: -0.3589199185371399
visibility: 0.9998175501823425
","x: 308.5876159667969
y: 195.4444580078125
z: -0.3589552342891693
visibility: 0.9998027682304382
","x: 307.5160827636719
y: 194.92449951171875
z: -0.3590012788772583
visibility: 0.9998061656951904
","x: 320.57171630859375
y: 198.68431091308594
z: -0.26989632844924927
visibility: 0.9996843338012695
","x: 307.7020568847656
y: 197.08421325683594
z: -0.2441444844007492
visibility: 0.9996264576911926
","x: 313.4924011230469
y: 212.30938720703125
z: -0.3336471915245056
visibility: 0.9999343156814575
","x: 308.5877380371094
y: 212.21397399902344
z: -0.32810503244400024
visibility: 0.9999416470527649
","x: 337.4854431152344
y: 244.0630340576172
z: -0.23192033171653748
visibility: 0.9999136924743652
","x: 295.3572998046875
y: 248.30282592773438
z: -0.132155179977417
visibility: 0.9999387860298157
","x: 331.088134765625
y: 301.51348876953125
z: -0.25304093956947327
visibility: 0.963837742805481
","x: 291.1278076171875
y: 304.4595947265625
z: -0.08107464015483856
visibility: 0.9768412709236145
","x: 314.08831787109375
y: 346.384765625
z: -0.364802747964859
visibility: 0.9382063150405884
","x: 291.959716796875
y: 350.5386962890625
z: -0.1598156988620758
visibility: 0.9581389427185059
","x: 311.7266845703125
y: 362.41534423828125
z: -0.4064950942993164
visibility: 0.9007626175880432
","x: 292.73638916015625
y: 366.4965515136719
z: -0.18493928015232086
visibility: 0.9206627607345581
","x: 308.3616638183594
y: 359.98858642578125
z: -0.4476719796657562
visibility: 0.9056930541992188
","x: 295.5950622558594
y: 365.282958984375
z: -0.2146667242050171
visibility: 0.9241066575050354
","x: 308.4343566894531
y: 355.7760925292969
z: -0.3763730823993683
visibility: 0.8806532025337219
","x: 296.4037170410156
y: 359.2242736816406
z: -0.17093373835086823
visibility: 0.9025429487228394
","x: 336.33697509765625
y: 349.759765625
z: -0.026991570368409157
visibility: 0.9990026354789734
","x: 312.8714599609375
y: 357.02093505859375
z: 0.027160609140992165
visibility: 0.999149739742279
","x: 353.8957824707031
y: 426.2536926269531
z: -0.02889092266559601
visibility: 0.9822655320167542
","x: 315.4179992675781
y: 438.3150939941406
z: 0.013799319043755531
visibility: 0.9731833934783936
","x: 371.54443359375
y: 500.5657958984375
z: 0.13380464911460876
visibility: 0.9852290153503418
","x: 324.6948547363281
y: 508.1112060546875
z: 0.18577775359153748
visibility: 0.9789044857025146
","x: 371.1861877441406
y: 508.4803771972656
z: 0.14168621599674225
visibility: 0.8456021547317505
","x: 328.4560241699219
y: 518.2390747070312
z: 0.19462119042873383
visibility: 0.8618082404136658
","x: 380.891845703125
y: 529.3077392578125
z: 0.005187319125980139
visibility: 0.9827491044998169
","x: 321.921142578125
y: 535.4429931640625
z: 0.06931589543819427
visibility: 0.9761215448379517
","x: 309.07989501953125
y: 353.7905578613281
z: 0.0
","x: 305.32080078125
y: 355.1656799316406
z: 0.00035331258550286293
","x: 302.09246826171875
y: 360.5128173828125
z: -0.000895114557351917
","x: 300.7460632324219
y: 365.7066345214844
z: -0.0027332946192473173
","x: 300.5872802734375
y: 369.3761901855469
z: -0.0042898100800812244
","x: 300.9192199707031
y: 366.4590148925781
z: -0.0016661279369145632
","x: 299.3466796875
y: 375.54559326171875
z: -0.0038287686184048653
","x: 299.06549072265625
y: 380.8175048828125
z: -0.004881022032350302
","x: 299.20550537109375
y: 384.77581787109375
z: -0.005505996756255627
","x: 303.1737365722656
y: 367.54150390625
z: -0.0034560824278742075
","x: 302.3589172363281
y: 372.29736328125
z: -0.005779918283224106
","x: 303.11859130859375
y: 368.53741455078125
z: -0.00510337483137846
","x: 304.0065612792969
y: 365.0933532714844
z: -0.004026298876851797
","x: 305.6801452636719
y: 368.03143310546875
z: -0.00531905610114336
","x: 305.0392761230469
y: 372.41778564453125
z: -0.0068857609294354916
","x: 305.62164306640625
y: 368.3511047363281
z: -0.004787847865372896
","x: 306.2216491699219
y: 365.0831604003906
z: -0.0032115590292960405
","x: 308.23956298828125
y: 368.16558837890625
z: -0.007400884293019772
","x: 307.4397277832031
y: 372.7100830078125
z: -0.008030527271330357
","x: 307.8037414550781
y: 369.4102783203125
z: -0.006425616331398487
","x: 308.3116760253906
y: 366.3236083984375
z: -0.00506479199975729
",,,,,,,,,,,,,,,,,,,,,
17,"x: 310.3274230957031
y: 204.62982177734375
z: -0.37328046560287476
visibility: 0.9999520778656006
","x: 313.937744140625
y: 196.11265563964844
z: -0.3605591654777527
visibility: 0.9998195171356201
","x: 315.7456359863281
y: 195.85958862304688
z: -0.3605958819389343
visibility: 0.999830424785614
","x: 317.50921630859375
y: 195.7682647705078
z: -0.3606450855731964
visibility: 0.9998202919960022
","x: 309.6790466308594
y: 195.961181640625
z: -0.3589199185371399
visibility: 0.9998175501823425
","x: 308.5876159667969
y: 195.4444580078125
z: -0.3589552342891693
visibility: 0.9998027682304382
","x: 307.5160827636719
y: 194.92449951171875
z: -0.3590012788772583
visibility: 0.9998061656951904
","x: 320.57171630859375
y: 198.68431091308594
z: -0.26989632844924927
visibility: 0.9996843338012695
","x: 307.7020568847656
y: 197.08421325683594
z: -0.2441444844007492
visibility: 0.9996264576911926
","x: 313.4924011230469
y: 212.30938720703125
z: -0.3336471915245056
visibility: 0.9999343156814575
","x: 308.5877380371094
y: 212.21397399902344
z: -0.32810503244400024
visibility: 0.9999416470527649
","x: 337.4854431152344
y: 244.0630340576172
z: -0.23192033171653748
visibility: 0.9999136924743652
","x: 295.3572998046875
y: 248.30282592773438
z: -0.132155179977417
visibility: 0.9999387860298157
","x: 331.088134765625
y: 301.51348876953125
z: -0.25304093956947327
visibility: 0.963837742805481
","x: 291.1278076171875
y: 304.4595947265625
z: -0.08107464015483856
visibility: 0.9768412709236145
","x: 314.08831787109375
y: 346.384765625
z: -0.364802747964859
visibility: 0.9382063150405884
","x: 291.959716796875
y: 350.5386962890625
z: -0.1598156988620758
visibility: 0.9581389427185059
","x: 311.7266845703125
y: 362.41534423828125
z: -0.4064950942993164
visibility: 0.9007626175880432
","x: 292.73638916015625
y: 366.4965515136719
z: -0.18493928015232086
visibility: 0.9206627607345581
","x: 308.3616638183594
y: 359.98858642578125
z: -0.4476719796657562
visibility: 0.9056930541992188
","x: 295.5950622558594
y: 365.282958984375
z: -0.2146667242050171
visibility: 0.9241066575050354
","x: 308.4343566894531
y: 355.7760925292969
z: -0.3763730823993683
visibility: 0.8806532025337219
","x: 296.4037170410156
y: 359.2242736816406
z: -0.17093373835086823
visibility: 0.9025429487228394
","x: 336.33697509765625
y: 349.759765625
z: -0.026991570368409157
visibility: 0.9990026354789734
","x: 312.8714599609375
y: 357.02093505859375
z: 0.027160609140992165
visibility: 0.999149739742279
","x: 353.8957824707031
y: 426.2536926269531
z: -0.02889092266559601
visibility: 0.9822655320167542
","x: 315.4179992675781
y: 438.3150939941406
z: 0.013799319043755531
visibility: 0.9731833934783936
","x: 371.54443359375
y: 500.5657958984375
z: 0.13380464911460876
visibility: 0.9852290153503418
","x: 324.6948547363281
y: 508.1112060546875
z: 0.18577775359153748
visibility: 0.9789044857025146
","x: 371.1861877441406
y: 508.4803771972656
z: 0.14168621599674225
visibility: 0.8456021547317505
","x: 328.4560241699219
y: 518.2390747070312
z: 0.19462119042873383
visibility: 0.8618082404136658
","x: 380.891845703125
y: 529.3077392578125
z: 0.005187319125980139
visibility: 0.9827491044998169
","x: 321.921142578125
y: 535.4429931640625
z: 0.06931589543819427
visibility: 0.9761215448379517
","x: 309.07989501953125
y: 353.7905578613281
z: 0.0
","x: 305.32080078125
y: 355.1656799316406
z: 0.00035331258550286293
","x: 302.09246826171875
y: 360.5128173828125
z: -0.000895114557351917
","x: 300.7460632324219
y: 365.7066345214844
z: -0.0027332946192473173
","x: 300.5872802734375
y: 369.3761901855469
z: -0.0042898100800812244
","x: 300.9192199707031
y: 366.4590148925781
z: -0.0016661279369145632
","x: 299.3466796875
y: 375.54559326171875
z: -0.0038287686184048653
","x: 299.06549072265625
y: 380.8175048828125
z: -0.004881022032350302
","x: 299.20550537109375
y: 384.77581787109375
z: -0.005505996756255627
","x: 303.1737365722656
y: 367.54150390625
z: -0.0034560824278742075
","x: 302.3589172363281
y: 372.29736328125
z: -0.005779918283224106
","x: 303.11859130859375
y: 368.53741455078125
z: -0.00510337483137846
","x: 304.0065612792969
y: 365.0933532714844
z: -0.004026298876851797
","x: 305.6801452636719
y: 368.03143310546875
z: -0.00531905610114336
","x: 305.0392761230469
y: 372.41778564453125
z: -0.0068857609294354916
","x: 305.62164306640625
y: 368.3511047363281
z: -0.004787847865372896
","x: 306.2216491699219
y: 365.0831604003906
z: -0.0032115590292960405
","x: 308.23956298828125
y: 368.16558837890625
z: -0.007400884293019772
","x: 307.4397277832031
y: 372.7100830078125
z: -0.008030527271330357
","x: 307.8037414550781
y: 369.4102783203125
z: -0.006425616331398487
","x: 308.3116760253906
y: 366.3236083984375
z: -0.00506479199975729
",,,,,,,,,,,,,,,,,,,,,
18,"x: 311.15673828125
y: 217.56326293945312
z: -0.30004745721817017
visibility: 0.9999459385871887
","x: 314.3686828613281
y: 210.03955078125
z: -0.28734827041625977
visibility: 0.999813973903656
","x: 316.13336181640625
y: 210.31515502929688
z: -0.28740155696868896
visibility: 0.9998204112052917
","x: 317.7413330078125
y: 210.6080322265625
z: -0.2874343991279602
visibility: 0.999809205532074
","x: 309.4067077636719
y: 208.7263641357422
z: -0.27893906831741333
visibility: 0.9998111128807068
","x: 308.0549011230469
y: 208.12864685058594
z: -0.2789898216724396
visibility: 0.9997880458831787
","x: 306.7322692871094
y: 207.66168212890625
z: -0.2789728045463562
visibility: 0.9997876286506653
","x: 319.9002685546875
y: 211.59375
z: -0.19063030183315277
visibility: 0.9996845126152039
","x: 306.1578369140625
y: 208.71751403808594
z: -0.1507333368062973
visibility: 0.999600350856781
","x: 314.2221984863281
y: 225.124755859375
z: -0.26197656989097595
visibility: 0.9999263286590576
","x: 308.4296569824219
y: 224.13949584960938
z: -0.2512606680393219
visibility: 0.999933660030365
","x: 333.32745361328125
y: 249.37925720214844
z: -0.1803543120622635
visibility: 0.9999142289161682
","x: 295.2800598144531
y: 254.1591033935547
z: -0.058428891003131866
visibility: 0.9999277591705322
","x: 314.483642578125
y: 292.23797607421875
z: -0.28477346897125244
visibility: 0.9663127660751343
","x: 279.60003662109375
y: 290.76885986328125
z: -0.18169844150543213
visibility: 0.964417040348053
","x: 280.83477783203125
y: 305.88751220703125
z: -0.38838616013526917
visibility: 0.942221999168396
","x: 278.0202941894531
y: 296.8114013671875
z: -0.4479193091392517
visibility: 0.9419655799865723
","x: 272.7302551269531
y: 312.48724365234375
z: -0.43452101945877075
visibility: 0.9060291647911072
","x: 273.32562255859375
y: 300.5570068359375
z: -0.5001674890518188
visibility: 0.9041455984115601
","x: 271.9090576171875
y: 309.9053039550781
z: -0.4412468373775482
visibility: 0.910293459892273
","x: 276.7733459472656
y: 298.5210266113281
z: -0.5061232447624207
visibility: 0.9070822596549988
","x: 274.81024169921875
y: 308.2956237792969
z: -0.3894333243370056
visibility: 0.8836454749107361
","x: 280.23626708984375
y: 297.29852294921875
z: -0.4589060842990875
visibility: 0.884192943572998
","x: 337.3139343261719
y: 359.7466735839844
z: -0.01793861761689186
visibility: 0.9990890026092529
","x: 312.8984069824219
y: 364.533935546875
z: 0.01776222325861454
visibility: 0.9992184042930603
","x: 366.42889404296875
y: 429.8612976074219
z: -0.0673229843378067
visibility: 0.983814001083374
","x: 315.4353942871094
y: 441.4828186035156
z: -0.030340079218149185
visibility: 0.9754334688186646
","x: 394.84124755859375
y: 500.052001953125
z: 0.09774813801050186
visibility: 0.9864422082901001
","x: 324.4545593261719
y: 509.5196838378906
z: 0.16917172074317932
visibility: 0.9805528521537781
","x: 394.52667236328125
y: 508.00439453125
z: 0.10662414133548737
visibility: 0.8529204726219177
","x: 328.45635986328125
y: 519.797119140625
z: 0.18096590042114258
visibility: 0.866929292678833
","x: 407.85626220703125
y: 527.6124267578125
z: -0.04035605117678642
visibility: 0.9837936162948608
","x: 321.9041748046875
y: 535.4349365234375
z: 0.053208012133836746
visibility: 0.9774383306503296
",,,,,,,,,,,,,,,,,,,,,,,,,,,,,,,,,,,,,,,,,,
19,"x: 309.3155517578125
y: 232.17877197265625
z: -0.24008910357952118
visibility: 0.9999451637268066
","x: 312.52337646484375
y: 224.87547302246094
z: -0.23041339218616486
visibility: 0.9998199343681335
","x: 314.1697998046875
y: 224.87057495117188
z: -0.23044688999652863
visibility: 0.9998254776000977
","x: 315.6483154296875
y: 224.9116668701172
z: -0.2304544895887375
visibility: 0.9998140931129456
","x: 308.2153625488281
y: 224.4412384033203
z: -0.2142627239227295
visibility: 0.9998139142990112
","x: 307.0093078613281
y: 224.20057678222656
z: -0.21428735554218292
visibility: 0.999783992767334
","x: 305.8490905761719
y: 224.00315856933594
z: -0.214285209774971
visibility: 0.9997831583023071
","x: 317.9431457519531
y: 226.1188507080078
z: -0.16316810250282288
visibility: 0.9996906518936157
","x: 305.7167663574219
y: 225.09555053710938
z: -0.08706687390804291
visibility: 0.999588131904602
","x: 311.9934387207031
y: 238.25050354003906
z: -0.21485614776611328
visibility: 0.9999149441719055
","x: 307.0859375
y: 238.01260375976562
z: -0.193350687623024
visibility: 0.999918520450592
","x: 329.76251220703125
y: 255.90211486816406
z: -0.19349749386310577
visibility: 0.9998753070831299
","x: 298.38800048828125
y: 263.9679260253906
z: 0.01131399441510439
visibility: 0.9998777508735657
","x: 305.8870849609375
y: 271.81231689453125
z: -0.33544453978538513
visibility: 0.9688356518745422
","x: 280.47857666015625
y: 263.9675598144531
z: 0.034828294068574905
visibility: 0.9587737321853638
","x: 277.8477783203125
y: 243.06033325195312
z: -0.4350739121437073
visibility: 0.9466904401779175
","x: 266.8749084472656
y: 237.00416564941406
z: -0.03993484005331993
visibility: 0.9399131536483765
","x: 269.42071533203125
y: 237.53305053710938
z: -0.4786173701286316
visibility: 0.9124261736869812
","x: 262.0332946777344
y: 231.8636474609375
z: -0.06205479055643082
visibility: 0.8988950252532959
","x: 269.3802795410156
y: 233.0081024169922
z: -0.47394147515296936
visibility: 0.9159913063049316
","x: 263.4043273925781
y: 229.05531311035156
z: -0.07038318365812302
visibility: 0.9007322192192078
","x: 271.99285888671875
y: 236.2773895263672
z: -0.4358723759651184
visibility: 0.8889369368553162
","x: 265.4451904296875
y: 231.41661071777344
z: -0.04941103607416153
visibility: 0.8795594573020935
","x: 340.9772033691406
y: 374.2281494140625
z: -0.034472741186618805
visibility: 0.9991695880889893
","x: 318.01922607421875
y: 381.76043701171875
z: 0.03421320766210556
visibility: 0.999287486076355
","x: 373.1106262207031
y: 436.58734130859375
z: -0.08859889209270477
visibility: 0.9851974248886108
","x: 315.4433898925781
y: 447.439697265625
z: -0.029507100582122803
visibility: 0.9776605367660522
","x: 403.19854736328125
y: 500.1700439453125
z: 0.09772276133298874
visibility: 0.9876245856285095
","x: 324.4560546875
y: 511.235595703125
z: 0.23521316051483154
visibility: 0.9821774363517761
","x: 404.2208251953125
y: 508.0105285644531
z: 0.10832719504833221
visibility: 0.8628299832344055
","x: 328.82049560546875
y: 520.7186279296875
z: 0.2535659074783325
visibility: 0.8764359354972839
","x: 412.890625
y: 527.3683471679688
z: -0.033503852784633636
visibility: 0.9850043654441833
","x: 321.9162902832031
y: 536.2535400390625
z: 0.13952496647834778
visibility: 0.9789321422576904
",,,,,,,,,,,,,,,,,,,,,,,,,,,,,,,,,,,,,,,,,,
20,"x: 309.88385009765625
y: 234.0091094970703
z: -0.23998284339904785
visibility: 0.9999469518661499
","x: 312.8015441894531
y: 226.43267822265625
z: -0.2329368144273758
visibility: 0.9998309016227722
","x: 314.2832336425781
y: 226.11436462402344
z: -0.23295478522777557
visibility: 0.9998353123664856
","x: 315.64324951171875
y: 225.74354553222656
z: -0.23295247554779053
visibility: 0.9998242855072021
","x: 308.6123046875
y: 225.9734344482422
z: -0.21846230328083038
visibility: 0.9998234510421753
","x: 307.3558654785156
y: 225.45623779296875
z: -0.21848586201667786
visibility: 0.9997907280921936
","x: 306.1522521972656
y: 224.99652099609375
z: -0.2184903621673584
visibility: 0.9997897744178772
","x: 317.432861328125
y: 225.52247619628906
z: -0.16211280226707458
visibility: 0.9997074604034424
","x: 305.4219970703125
y: 225.5418243408203
z: -0.0923420712351799
visibility: 0.9996034502983093
","x: 312.4717102050781
y: 238.99374389648438
z: -0.21128840744495392
visibility: 0.9999126195907593
","x: 307.46270751953125
y: 239.5933380126953
z: -0.19168022274971008
visibility: 0.9999127388000488
","x: 328.25146484375
y: 252.8063201904297
z: -0.18450607359409332
visibility: 0.9998610615730286
","x: 299.2015075683594
y: 259.98956298828125
z: 0.003516336902976036
visibility: 0.9998639225959778
","x: 306.698974609375
y: 263.1332702636719
z: -0.3496072590351105
visibility: 0.9706286787986755
","x: 281.8272705078125
y: 256.7590637207031
z: -0.009770216420292854
visibility: 0.9564646482467651
","x: 282.171630859375
y: 243.77200317382812
z: -0.47738558053970337
visibility: 0.9493642449378967
","x: 267.16668701171875
y: 234.29525756835938
z: -0.11108319461345673
visibility: 0.9398248195648193
","x: 272.3064270019531
y: 238.9933624267578
z: -0.5223056077957153
visibility: 0.9159210324287415
","x: 261.4703063964844
y: 229.07752990722656
z: -0.13767722249031067
visibility: 0.8977696299552917
","x: 272.3140563964844
y: 235.63784790039062
z: -0.5151364803314209
visibility: 0.9186756014823914
","x: 262.7579345703125
y: 227.25375366210938
z: -0.14994236826896667
visibility: 0.8989103436470032
","x: 274.9248046875
y: 238.81503295898438
z: -0.4784962236881256
visibility: 0.8900963068008423
","x: 264.9117736816406
y: 229.35385131835938
z: -0.12140019983053207
visibility: 0.8787285685539246
","x: 341.3054504394531
y: 368.99462890625
z: -0.0384233333170414
visibility: 0.9992437958717346
","x: 319.08551025390625
y: 378.0688781738281
z: 0.03813069686293602
visibility: 0.9993506669998169
","x: 372.1916809082031
y: 436.0279846191406
z: -0.09170962870121002
visibility: 0.9865597486495972
","x: 315.5689392089844
y: 446.291015625
z: 0.013537992723286152
visibility: 0.979773223400116
","x: 403.1208801269531
y: 499.8745422363281
z: 0.05538719892501831
visibility: 0.9887834191322327
","x: 324.45867919921875
y: 512.220703125
z: 0.24202099442481995
visibility: 0.9837665557861328
","x: 404.43853759765625
y: 506.8818359375
z: 0.06360344588756561
visibility: 0.8738306760787964
","x: 329.0188293457031
y: 521.1030883789062
z: 0.25857868790626526
visibility: 0.8862782716751099
","x: 412.87530517578125
y: 527.0206909179688
z: -0.07903383672237396
visibility: 0.9862987995147705
","x: 321.574951171875
y: 536.2227783203125
z: 0.14995095133781433
visibility: 0.9805575609207153
",,,,,,,,,,,,,,,,,,,,,,"x: 269.80718994140625
y: 230.5467987060547
z: 0.0
","x: 268.559326171875
y: 224.72735595703125
z: 0.0020888401195406914
","x: 265.8528137207031
y: 219.8306427001953
z: 0.0021070323418825865
","x: 263.1771240234375
y: 217.50958251953125
z: 0.0015379596734419465
","x: 260.9184875488281
y: 216.62738037109375
z: 0.0011130459606647491
","x: 264.5921630859375
y: 217.9027557373047
z: 0.00029523042030632496
","x: 260.51287841796875
y: 216.21932983398438
z: -0.0005386813427321613
","x: 258.4211120605469
y: 216.29774475097656
z: -0.00036685861414298415
","x: 257.24658203125
y: 216.58419799804688
z: -0.00013757089618593454
","x: 263.70184326171875
y: 220.915283203125
z: -0.0017618543934077024
","x: 258.8780212402344
y: 220.18165588378906
z: -0.0021306441631168127
","x: 257.007080078125
y: 220.89239501953125
z: -0.0013906358508393168
","x: 256.35467529296875
y: 221.48123168945312
z: -0.0009651456493884325
","x: 262.9930114746094
y: 224.927001953125
z: -0.00369938719086349
","x: 258.5251159667969
y: 225.62066650390625
z: -0.003956816159188747
","x: 257.5649719238281
y: 226.978759765625
z: -0.0030532304663211107
","x: 257.70294189453125
y: 227.4496612548828
z: -0.0025434792041778564
","x: 262.6900939941406
y: 229.4639434814453
z: -0.0055900136940181255
","x: 259.66082763671875
y: 230.97811889648438
z: -0.005836785305291414
","x: 259.7848815917969
y: 232.15223693847656
z: -0.005163928959518671
","x: 260.6701354980469
y: 232.48191833496094
z: -0.004609587602317333
"
21,"x: 309.88385009765625
y: 234.0091094970703
z: -0.23998284339904785
visibility: 0.9999469518661499
","x: 312.8015441894531
y: 226.43267822265625
z: -0.2329368144273758
visibility: 0.9998309016227722
","x: 314.2832336425781
y: 226.11436462402344
z: -0.23295478522777557
visibility: 0.9998353123664856
","x: 315.64324951171875
y: 225.74354553222656
z: -0.23295247554779053
visibility: 0.9998242855072021
","x: 308.6123046875
y: 225.9734344482422
z: -0.21846230328083038
visibility: 0.9998234510421753
","x: 307.3558654785156
y: 225.45623779296875
z: -0.21848586201667786
visibility: 0.9997907280921936
","x: 306.1522521972656
y: 224.99652099609375
z: -0.2184903621673584
visibility: 0.9997897744178772
","x: 317.432861328125
y: 225.52247619628906
z: -0.16211280226707458
visibility: 0.9997074604034424
","x: 305.4219970703125
y: 225.5418243408203
z: -0.0923420712351799
visibility: 0.9996034502983093
","x: 312.4717102050781
y: 238.99374389648438
z: -0.21128840744495392
visibility: 0.9999126195907593
","x: 307.46270751953125
y: 239.5933380126953
z: -0.19168022274971008
visibility: 0.9999127388000488
","x: 328.25146484375
y: 252.8063201904297
z: -0.18450607359409332
visibility: 0.9998610615730286
","x: 299.2015075683594
y: 259.98956298828125
z: 0.003516336902976036
visibility: 0.9998639225959778
","x: 306.698974609375
y: 263.1332702636719
z: -0.3496072590351105
visibility: 0.9706286787986755
","x: 281.8272705078125
y: 256.7590637207031
z: -0.009770216420292854
visibility: 0.9564646482467651
","x: 282.171630859375
y: 243.77200317382812
z: -0.47738558053970337
visibility: 0.9493642449378967
","x: 267.16668701171875
y: 234.29525756835938
z: -0.11108319461345673
visibility: 0.9398248195648193
","x: 272.3064270019531
y: 238.9933624267578
z: -0.5223056077957153
visibility: 0.9159210324287415
","x: 261.4703063964844
y: 229.07752990722656
z: -0.13767722249031067
visibility: 0.8977696299552917
","x: 272.3140563964844
y: 235.63784790039062
z: -0.5151364803314209
visibility: 0.9186756014823914
","x: 262.7579345703125
y: 227.25375366210938
z: -0.14994236826896667
visibility: 0.8989103436470032
","x: 274.9248046875
y: 238.81503295898438
z: -0.4784962236881256
visibility: 0.8900963068008423
","x: 264.9117736816406
y: 229.35385131835938
z: -0.12140019983053207
visibility: 0.8787285685539246
","x: 341.3054504394531
y: 368.99462890625
z: -0.0384233333170414
visibility: 0.9992437958717346
","x: 319.08551025390625
y: 378.0688781738281
z: 0.03813069686293602
visibility: 0.9993506669998169
","x: 372.1916809082031
y: 436.0279846191406
z: -0.09170962870121002
visibility: 0.9865597486495972
","x: 315.5689392089844
y: 446.291015625
z: 0.013537992723286152
visibility: 0.979773223400116
","x: 403.1208801269531
y: 499.8745422363281
z: 0.05538719892501831
visibility: 0.9887834191322327
","x: 324.45867919921875
y: 512.220703125
z: 0.24202099442481995
visibility: 0.9837665557861328
","x: 404.43853759765625
y: 506.8818359375
z: 0.06360344588756561
visibility: 0.8738306760787964
","x: 329.0188293457031
y: 521.1030883789062
z: 0.25857868790626526
visibility: 0.8862782716751099
","x: 412.87530517578125
y: 527.0206909179688
z: -0.07903383672237396
visibility: 0.9862987995147705
","x: 321.574951171875
y: 536.2227783203125
z: 0.14995095133781433
visibility: 0.9805575609207153
",,,,,,,,,,,,,,,,,,,,,,"x: 269.80718994140625
y: 230.5467987060547
z: 0.0
","x: 268.559326171875
y: 224.72735595703125
z: 0.0020888401195406914
","x: 265.8528137207031
y: 219.8306427001953
z: 0.0021070323418825865
","x: 263.1771240234375
y: 217.50958251953125
z: 0.0015379596734419465
","x: 260.9184875488281
y: 216.62738037109375
z: 0.0011130459606647491
","x: 264.5921630859375
y: 217.9027557373047
z: 0.00029523042030632496
","x: 260.51287841796875
y: 216.21932983398438
z: -0.0005386813427321613
","x: 258.4211120605469
y: 216.29774475097656
z: -0.00036685861414298415
","x: 257.24658203125
y: 216.58419799804688
z: -0.00013757089618593454
","x: 263.70184326171875
y: 220.915283203125
z: -0.0017618543934077024
","x: 258.8780212402344
y: 220.18165588378906
z: -0.0021306441631168127
","x: 257.007080078125
y: 220.89239501953125
z: -0.0013906358508393168
","x: 256.35467529296875
y: 221.48123168945312
z: -0.0009651456493884325
","x: 262.9930114746094
y: 224.927001953125
z: -0.00369938719086349
","x: 258.5251159667969
y: 225.62066650390625
z: -0.003956816159188747
","x: 257.5649719238281
y: 226.978759765625
z: -0.0030532304663211107
","x: 257.70294189453125
y: 227.4496612548828
z: -0.0025434792041778564
","x: 262.6900939941406
y: 229.4639434814453
z: -0.0055900136940181255
","x: 259.66082763671875
y: 230.97811889648438
z: -0.005836785305291414
","x: 259.7848815917969
y: 232.15223693847656
z: -0.005163928959518671
","x: 260.6701354980469
y: 232.48191833496094
z: -0.004609587602317333
"
22,"x: 307.33056640625
y: 230.7909393310547
z: -0.23719775676727295
visibility: 0.9999478459358215
","x: 310.4501037597656
y: 223.3108673095703
z: -0.23088917136192322
visibility: 0.9998396039009094
","x: 311.88555908203125
y: 223.1617431640625
z: -0.2309093177318573
visibility: 0.9998431205749512
","x: 313.32086181640625
y: 223.01901245117188
z: -0.23090068995952606
visibility: 0.999832808971405
","x: 307.1590576171875
y: 222.7914581298828
z: -0.21292133629322052
visibility: 0.9998311996459961
","x: 306.3606872558594
y: 222.33544921875
z: -0.21294042468070984
visibility: 0.9997966289520264
","x: 305.5618896484375
y: 221.92205810546875
z: -0.21293990314006805
visibility: 0.9997954368591309
","x: 316.0084228515625
y: 224.096923828125
z: -0.17119577527046204
visibility: 0.9997208714485168
","x: 305.81658935546875
y: 223.2928466796875
z: -0.08790093660354614
visibility: 0.9996115565299988
","x: 310.01007080078125
y: 236.8211212158203
z: -0.21449168026447296
visibility: 0.9999052882194519
","x: 305.90972900390625
y: 236.71531677246094
z: -0.19055135548114777
visibility: 0.9999028444290161
","x: 327.95391845703125
y: 252.76119995117188
z: -0.21003571152687073
visibility: 0.9998140335083008
","x: 299.51116943359375
y: 263.03778076171875
z: 0.0024500172585248947
visibility: 0.9998224973678589
","x: 305.91485595703125
y: 259.99163818359375
z: -0.37802356481552124
visibility: 0.972821056842804
","x: 281.2752685546875
y: 259.2490234375
z: -0.024466628208756447
visibility: 0.9513476490974426
","x: 281.2436218261719
y: 239.42239379882812
z: -0.4863053262233734
visibility: 0.9530723690986633
","x: 267.09344482421875
y: 232.86502075195312
z: -0.184256449341774
visibility: 0.9396228790283203
","x: 271.14697265625
y: 234.21856689453125
z: -0.5329433679580688
visibility: 0.9215427041053772
","x: 261.07525634765625
y: 227.8897705078125
z: -0.21839337050914764
visibility: 0.8967375755310059
","x: 270.92523193359375
y: 229.77418518066406
z: -0.5253337025642395
visibility: 0.9237629175186157
","x: 262.945556640625
y: 225.71189880371094
z: -0.22516870498657227
visibility: 0.8971579670906067
","x: 273.8274841308594
y: 232.3648223876953
z: -0.48656171560287476
visibility: 0.895195484161377
","x: 265.56964111328125
y: 228.27801513671875
z: -0.19563542306423187
visibility: 0.8776723146438599
","x: 341.90191650390625
y: 370.382568359375
z: -0.044106375426054
visibility: 0.9993104934692383
","x: 319.9446105957031
y: 381.6724853515625
z: 0.04381467401981354
visibility: 0.9994098544120789
","x: 372.135498046875
y: 435.7492370605469
z: -0.08380183577537537
visibility: 0.9877529740333557
","x: 315.7817687988281
y: 445.07098388671875
z: 0.004339015576988459
visibility: 0.9816614389419556
","x: 402.265869140625
y: 499.391845703125
z: 0.06842757761478424
visibility: 0.9898110628128052
","x: 324.6174011230469
y: 512.873046875
z: 0.21676912903785706
visibility: 0.9851922988891602
","x: 403.2761535644531
y: 506.4996032714844
z: 0.07652857899665833
visibility: 0.8831324577331543
","x: 329.48809814453125
y: 521.752685546875
z: 0.2322266846895218
visibility: 0.8951284885406494
","x: 411.94036865234375
y: 526.71826171875
z: -0.06454624235630035
visibility: 0.9874294400215149
","x: 319.79559326171875
y: 535.87451171875
z: 0.12322304397821426
visibility: 0.9820606112480164
",,,,,,,,,,,,,,,,,,,,,,,,,,,,,,,,,,,,,,,,,,
23,"x: 305.99664306640625
y: 226.18963623046875
z: -0.20334234833717346
visibility: 0.9999412298202515
","x: 309.4313659667969
y: 218.63217163085938
z: -0.200080007314682
visibility: 0.999833345413208
","x: 310.6835632324219
y: 218.61978149414062
z: -0.2001008689403534
visibility: 0.9998339414596558
","x: 312.0006103515625
y: 218.6903076171875
z: -0.20007996261119843
visibility: 0.9998235106468201
","x: 306.8377990722656
y: 218.0793914794922
z: -0.1803896427154541
visibility: 0.9998249411582947
","x: 306.2534484863281
y: 217.6842041015625
z: -0.18040795624256134
visibility: 0.9997826218605042
","x: 305.6449890136719
y: 217.34556579589844
z: -0.18043170869350433
visibility: 0.9997842907905579
","x: 315.2789611816406
y: 221.59324645996094
z: -0.15635235607624054
visibility: 0.9997037649154663
","x: 306.2926330566406
y: 219.55064392089844
z: -0.0642448291182518
visibility: 0.9995884299278259
","x: 308.1609191894531
y: 232.8612060546875
z: -0.18639005720615387
visibility: 0.9998734593391418
","x: 304.6921081542969
y: 232.68118286132812
z: -0.1602645218372345
visibility: 0.9998756051063538
","x: 326.5249328613281
y: 251.86917114257812
z: -0.19977106153964996
visibility: 0.9997007250785828
","x: 299.6188659667969
y: 264.25933837890625
z: 0.01427227258682251
visibility: 0.9997954964637756
","x: 300.5678405761719
y: 260.66943359375
z: -0.34990984201431274
visibility: 0.9743160605430603
","x: 278.8659362792969
y: 260.1533203125
z: -0.059593893587589264
visibility: 0.94940584897995
","x: 279.8810119628906
y: 237.72238159179688
z: -0.4456269145011902
visibility: 0.9551889300346375
","x: 268.579345703125
y: 229.28646850585938
z: -0.24032056331634521
visibility: 0.9404438734054565
","x: 270.90435791015625
y: 228.7205810546875
z: -0.4917631149291992
visibility: 0.9244965314865112
","x: 263.7055969238281
y: 220.54176330566406
z: -0.2782882750034332
visibility: 0.8961092233657837
","x: 272.2445983886719
y: 224.6173095703125
z: -0.5153478980064392
visibility: 0.9259622097015381
","x: 265.7095642089844
y: 219.43951416015625
z: -0.2770695984363556
visibility: 0.895378589630127
","x: 274.7308044433594
y: 228.30792236328125
z: -0.4514521658420563
visibility: 0.895965039730072
","x: 267.8658447265625
y: 223.21096801757812
z: -0.24897965788841248
visibility: 0.8760629892349243
","x: 341.457275390625
y: 369.4134216308594
z: -0.04478331655263901
visibility: 0.9993669390678406
","x: 319.64654541015625
y: 381.4925537109375
z: 0.044525932520627975
visibility: 0.9994634389877319
","x: 373.114990234375
y: 437.7292175292969
z: -0.07795621454715729
visibility: 0.9887937903404236
","x: 315.7267761230469
y: 445.25103759765625
z: 0.025705182924866676
visibility: 0.9833360910415649
","x: 401.7856750488281
y: 499.4665222167969
z: 0.07457195967435837
visibility: 0.9906982183456421
","x: 324.6226501464844
y: 512.8812255859375
z: 0.2616427540779114
visibility: 0.986459493637085
","x: 402.6399230957031
y: 506.7149353027344
z: 0.0824245736002922
visibility: 0.8910788297653198
","x: 329.6983947753906
y: 522.1209716796875
z: 0.2795383334159851
visibility: 0.9033356308937073
","x: 412.5196838378906
y: 526.8579711914062
z: -0.058685582131147385
visibility: 0.9884065985679626
","x: 319.141845703125
y: 536.2023315429688
z: 0.1791030466556549
visibility: 0.9833905696868896
",,,,,,,,,,,,,,,,,,,,,,,,,,,,,,,,,,,,,,,,,,
24,"x: 305.968994140625
y: 224.2501678466797
z: -0.15802155435085297
visibility: 0.9999245405197144
","x: 308.9076843261719
y: 216.643798828125
z: -0.16484233736991882
visibility: 0.9998225569725037
","x: 309.92633056640625
y: 216.6416015625
z: -0.16485929489135742
visibility: 0.999821662902832
","x: 311.0684814453125
y: 216.73448181152344
z: -0.16482959687709808
visibility: 0.9998098611831665
","x: 307.0019226074219
y: 216.1175537109375
z: -0.13920630514621735
visibility: 0.9998052716255188
","x: 306.6095886230469
y: 215.7462158203125
z: -0.13921931385993958
visibility: 0.9997497797012329
","x: 306.15087890625
y: 215.43124389648438
z: -0.13924168050289154
visibility: 0.9997519254684448
","x: 315.12548828125
y: 219.87144470214844
z: -0.15730127692222595
visibility: 0.999686062335968
","x: 307.4436950683594
y: 217.85545349121094
z: -0.04022039473056793
visibility: 0.9995105266571045
","x: 308.06573486328125
y: 231.09930419921875
z: -0.15407779812812805
visibility: 0.9998330473899841
","x: 305.1741943359375
y: 231.02731323242188
z: -0.12028161436319351
visibility: 0.9998223781585693
","x: 326.3105773925781
y: 251.57778930664062
z: -0.20714648067951202
visibility: 0.9996222257614136
","x: 300.82220458984375
y: 262.6693420410156
z: 0.03469212353229523
visibility: 0.9997521638870239
","x: 300.9579162597656
y: 261.9204406738281
z: -0.33808931708335876
visibility: 0.9751079678535461
","x: 280.7251281738281
y: 259.9704284667969
z: -0.04523002356290817
visibility: 0.9382054805755615
","x: 281.5042724609375
y: 236.0621337890625
z: -0.39802366495132446
visibility: 0.9567412734031677
","x: 270.79449462890625
y: 225.93545532226562
z: -0.22903673350811005
visibility: 0.939540445804596
","x: 274.70281982421875
y: 224.39263916015625
z: -0.4383018910884857
visibility: 0.9271800518035889
","x: 267.3113098144531
y: 215.99575805664062
z: -0.26316961646080017
visibility: 0.8949304223060608
","x: 276.42535400390625
y: 220.92318725585938
z: -0.43684497475624084
visibility: 0.9281103610992432
","x: 268.6641845703125
y: 213.71133422851562
z: -0.26720815896987915
visibility: 0.8935433626174927
","x: 278.5445861816406
y: 225.31793212890625
z: -0.39791855216026306
visibility: 0.8971644639968872
","x: 270.1546630859375
y: 217.47764587402344
z: -0.23935306072235107
visibility: 0.8745464086532593
","x: 340.50836181640625
y: 368.5846252441406
z: -0.05545993521809578
visibility: 0.999420166015625
","x: 319.4557189941406
y: 380.40875244140625
z: 0.05526893213391304
visibility: 0.9995107054710388
","x: 369.8622131347656
y: 436.7908935546875
z: -0.07617274671792984
visibility: 0.9897160530090332
","x: 315.6930236816406
y: 444.9906005859375
z: 0.13691066205501556
visibility: 0.9845572710037231
","x: 399.3904724121094
y: 499.218505859375
z: 0.0448051393032074
visibility: 0.9915012121200562
","x: 324.6428527832031
y: 513.5733642578125
z: 0.36584869027137756
visibility: 0.9873955249786377
","x: 400.5785217285156
y: 506.28253173828125
z: 0.04979487881064415
visibility: 0.8987079858779907
","x: 329.9355163574219
y: 523.56298828125
z: 0.3834693729877472
visibility: 0.9098813533782959
","x: 411.15692138671875
y: 526.658447265625
z: -0.08118234574794769
visibility: 0.9893016815185547
","x: 318.6239013671875
y: 536.1814575195312
z: 0.2996559739112854
visibility: 0.984306812286377
","x: 273.47119140625
y: 226.54995727539062
z: 0.0
","x: 273.0487976074219
y: 217.12887573242188
z: 0.005019977688789368
","x: 270.766845703125
y: 209.78915405273438
z: 0.00572668993845582
","x: 267.4170227050781
y: 206.96234130859375
z: 0.00512912729755044
","x: 264.58441162109375
y: 206.9785919189453
z: 0.005014287773519754
","x: 269.59881591796875
y: 203.3995819091797
z: 0.003007075749337673
","x: 263.79547119140625
y: 200.9561309814453
z: 0.0027748490683734417
","x: 263.0692138671875
y: 204.46351623535156
z: 0.0037857734132558107
","x: 264.0605773925781
y: 206.84805297851562
z: 0.00467942887917161
","x: 267.68048095703125
y: 205.48391723632812
z: -0.0005150366923771799
","x: 261.804443359375
y: 204.06002807617188
z: 0.000568042800296098
","x: 261.5917663574219
y: 208.018310546875
z: 0.002604240318760276
","x: 262.8916015625
y: 210.45494079589844
z: 0.003664919175207615
","x: 265.957275390625
y: 209.0410614013672
z: -0.0038073270116001368
","x: 260.7615661621094
y: 209.5780792236328
z: -0.00219559483230114
","x: 261.2448425292969
y: 213.3295440673828
z: -0.00014604411262553185
","x: 262.7459716796875
y: 215.17300415039062
z: 0.000648520712275058
","x: 264.4976806640625
y: 213.4815216064453
z: -0.00690366979688406
","x: 260.71514892578125
y: 215.00802612304688
z: -0.005192759446799755
","x: 261.1429443359375
