uscmakers/ReverseChoreography/data/9_slow_dancing_in_the_dark_joji.csv
,NOSE,LEFT_EYE_INNER,LEFT_EYE,LEFT_EYE_OUTER,RIGHT_EYE_INNER,RIGHT_EYE,RIGHT_EYE_OUTER,LEFT_EAR,RIGHT_EAR,MOUTH_LEFT,MOUTH_RIGHT,LEFT_SHOULDER,RIGHT_SHOULDER,LEFT_ELBOW,RIGHT_ELBOW,LEFT_WRIST,RIGHT_WRIST,LEFT_PINKY,RIGHT_PINKY,LEFT_INDEX,RIGHT_INDEX,LEFT_THUMB,RIGHT_THUMB,LEFT_HIP,RIGHT_HIP,LEFT_KNEE,RIGHT_KNEE,LEFT_ANKLE,RIGHT_ANKLE,LEFT_HEEL,RIGHT_HEEL,LEFT_FOOT_INDEX,RIGHT_FOOT_INDEX,WRIST,THUMB_CPC,THUMB_MCP,THUMB_IP,THUMB_TIP,INDEX_FINGER_MCP,INDEX_FINGER_PIP,INDEX_FINGER_DIP,INDEX_FINGER_TIP,MIDDLE_FINGER_MCP,MIDDLE_FINGER_PIP,MIDDLE_FINGER_DIP,MIDDLE_FINGER_TIP,RING_FINGER_PIP,RING_FINGER_DIP,RING_FINGER_TIP,RING_FINGER_MCP,PINKY_MCP,PINKY_PIP,PINKY_DIP,PINKY_TIP,WRIST2,THUMB_CPC2,THUMB_MCP2,THUMB_IP2,THUMB_TIP2,INDEX_FINGER_MCP2,INDEX_FINGER_PIP2,INDEX_FINGER_DIP2,INDEX_FINGER_TIP2,MIDDLE_FINGER_MCP2,MIDDLE_FINGER_PIP2,MIDDLE_FINGER_DIP2,MIDDLE_FINGER_TIP2,RING_FINGER_PIP2,RING_FINGER_DIP2,RING_FINGER_TIP2,RING_FINGER_MCP2,PINKY_MCP2,PINKY_PIP2,PINKY_DIP2,PINKY_TIP2
0,"x: 325.55523681640625
y: 199.3937530517578
z: -0.3807559907436371
visibility: 0.9997223019599915
","x: 327.629638671875
y: 191.8785400390625
z: -0.36336052417755127
visibility: 0.9986867308616638
","x: 328.71435546875
y: 192.0405731201172
z: -0.3633679151535034
visibility: 0.9988640546798706
","x: 329.8150939941406
y: 192.24203491210938
z: -0.36340197920799255
visibility: 0.9988516569137573
","x: 323.79559326171875
y: 191.24050903320312
z: -0.3673187792301178
visibility: 0.9987303614616394
","x: 322.21551513671875
y: 190.94271850585938
z: -0.36735621094703674
visibility: 0.998798131942749
","x: 320.7730407714844
y: 190.67449951171875
z: -0.36738431453704834
visibility: 0.9986143112182617
","x: 330.1522216796875
y: 196.51031494140625
z: -0.24731042981147766
visibility: 0.9978544116020203
","x: 317.0667419433594
y: 193.61935424804688
z: -0.2634372413158417
visibility: 0.9967765212059021
","x: 326.731689453125
y: 208.29812622070312
z: -0.3357945680618286
visibility: 0.999479353427887
","x: 322.09234619140625
y: 207.39266967773438
z: -0.3407067060470581
visibility: 0.9992578625679016
","x: 341.488525390625
y: 250.0999298095703
z: -0.1641845852136612
visibility: 0.9998904466629028
","x: 298.50958251953125
y: 243.2026824951172
z: -0.1748979538679123
visibility: 0.9996935129165649
","x: 346.44427490234375
y: 306.7640380859375
z: -0.10062716156244278
visibility: 0.9822544455528259
","x: 290.9679260253906
y: 301.85687255859375
z: -0.13245168328285217
visibility: 0.953005850315094
","x: 348.24432373046875
y: 357.04327392578125
z: -0.17780613899230957
visibility: 0.9510897994041443
","x: 289.25970458984375
y: 349.9874572753906
z: -0.2010684758424759
visibility: 0.9027710556983948
","x: 348.6833190917969
y: 373.1940002441406
z: -0.20131416618824005
visibility: 0.9013628363609314
","x: 287.4872131347656
y: 366.631591796875
z: -0.230092853307724
visibility: 0.8327410817146301
","x: 346.9168395996094
y: 373.31036376953125
z: -0.23665496706962585
visibility: 0.9081651568412781
","x: 288.7950439453125
y: 365.4945373535156
z: -0.26296377182006836
visibility: 0.840708315372467
","x: 345.6458435058594
y: 366.3743591308594
z: -0.19354966282844543
visibility: 0.8962939977645874
","x: 290.5898132324219
y: 359.71600341796875
z: -0.21642263233661652
visibility: 0.8208615779876709
","x: 328.2536315917969
y: 358.4249572753906
z: -0.005617793649435043
visibility: 0.9990444779396057
","x: 302.84814453125
y: 358.00860595703125
z: 0.005563418846577406
visibility: 0.9990372657775879
","x: 325.7550354003906
y: 436.66650390625
z: 0.009137417189776897
visibility: 0.9884210824966431
","x: 301.74664306640625
y: 437.78460693359375
z: 0.03443218767642975
visibility: 0.9812553524971008
","x: 319.12457275390625
y: 509.0722961425781
z: 0.19305634498596191
visibility: 0.9823420643806458
","x: 306.06231689453125
y: 512.087158203125
z: 0.21691708266735077
visibility: 0.9812207221984863
","x: 318.3061828613281
y: 518.6746826171875
z: 0.20341737568378448
visibility: 0.8075746893882751
","x: 308.63861083984375
y: 521.6089477539062
z: 0.22735266387462616
visibility: 0.8658974170684814
","x: 316.103271484375
y: 533.0165405273438
z: 0.0721711590886116
visibility: 0.9774386286735535
","x: 300.599365234375
y: 536.2579956054688
z: 0.10583679378032684
visibility: 0.979158341884613
",,,,,,,,,,,,,,,,,,,,,,,,,,,,,,,,,,,,,,,,,,
1,"x: 322.4274597167969
y: 197.8980712890625
z: -0.4042724668979645
visibility: 0.9997308850288391
","x: 323.6403503417969
y: 190.10162353515625
z: -0.3854062557220459
visibility: 0.9987432956695557
","x: 324.60382080078125
y: 190.36802673339844
z: -0.3854026198387146
visibility: 0.9989027976989746
","x: 325.5337829589844
y: 190.67999267578125
z: -0.38545167446136475
visibility: 0.9988974928855896
","x: 319.7939758300781
y: 189.20152282714844
z: -0.39794522523880005
visibility: 0.9987857341766357
","x: 318.1294250488281
y: 188.90994262695312
z: -0.39802151918411255
visibility: 0.9988565444946289
","x: 316.4736633300781
y: 188.6998748779297
z: -0.39809638261795044
visibility: 0.9986892342567444
","x: 324.48101806640625
y: 194.74754333496094
z: -0.25699883699417114
visibility: 0.9978830218315125
","x: 311.8854675292969
y: 192.17843627929688
z: -0.3146662712097168
visibility: 0.9969603419303894
","x: 323.24151611328125
y: 206.78659057617188
z: -0.35378149151802063
visibility: 0.9995091557502747
","x: 318.46661376953125
y: 206.12020874023438
z: -0.37070637941360474
visibility: 0.9993104934692383
","x: 334.8424987792969
y: 249.29710388183594
z: -0.15102089941501617
visibility: 0.9998893737792969
","x: 292.4174499511719
y: 243.37982177734375
z: -0.23546448349952698
visibility: 0.9996966123580933
","x: 341.0974426269531
y: 306.7850341796875
z: -0.0590757317841053
visibility: 0.9786310791969299
","x: 288.2889709472656
y: 302.78729248046875
z: -0.20154544711112976
visibility: 0.9554411768913269
","x: 346.1938781738281
y: 356.6147155761719
z: -0.13511832058429718
visibility: 0.9443336129188538
","x: 287.3360290527344
y: 350.0997619628906
z: -0.2712996006011963
visibility: 0.9031366109848022
","x: 347.6655578613281
y: 373.0870056152344
z: -0.1580934226512909
visibility: 0.8903417587280273
","x: 284.8913879394531
y: 366.8233947753906
z: -0.3038622736930847
visibility: 0.8332777619361877
","x: 345.73248291015625
y: 373.3068542480469
z: -0.19598403573036194
visibility: 0.8984577059745789
","x: 286.5405578613281
y: 366.7366943359375
z: -0.3342912793159485
visibility: 0.8410148620605469
","x: 344.1307678222656
y: 366.7347717285156
z: -0.15216165781021118
visibility: 0.8859118819236755
","x: 288.1800231933594
y: 360.9201354980469
z: -0.2843877971172333
visibility: 0.8189572095870972
","x: 326.7857666015625
y: 358.385009765625
z: 0.01625993475317955
visibility: 0.9990678429603577
","x: 302.4670715332031
y: 356.97039794921875
z: -0.016315024346113205
visibility: 0.9990266561508179
","x: 324.9370422363281
y: 438.4400634765625
z: 0.00706462562084198
visibility: 0.9876372814178467
","x: 300.6051025390625
y: 438.5045166015625
z: -0.0020491578616201878
visibility: 0.9797636270523071
","x: 318.7751770019531
y: 508.46429443359375
z: 0.26747554540634155
visibility: 0.9807842969894409
","x: 302.7418212890625
y: 512.0383911132812
z: 0.23288485407829285
visibility: 0.9802039861679077
","x: 316.7737731933594
y: 516.1751098632812
z: 0.28757745027542114
visibility: 0.8018611073493958
","x: 302.764404296875
y: 521.0570068359375
z: 0.24919405579566956
visibility: 0.8498784899711609
","x: 315.9642333984375
y: 533.8422241210938
z: 0.15627555549144745
visibility: 0.976139485836029
","x: 303.09796142578125
y: 538.514404296875
z: 0.10721848905086517
visibility: 0.9778992533683777
",,,,,,,,,,,,,,,,,,,,,,,,,,,,,,,,,,,,,,,,,,
2,"x: 318.810302734375
y: 197.2543182373047
z: -0.40975862741470337
visibility: 0.9997389316558838
","x: 319.38739013671875
y: 189.56358337402344
z: -0.390778124332428
visibility: 0.9987971186637878
","x: 320.1650085449219
y: 189.83238220214844
z: -0.39078035950660706
visibility: 0.9989449381828308
","x: 320.9079895019531
y: 190.1402130126953
z: -0.3908229470252991
visibility: 0.9989420175552368
","x: 315.743896484375
y: 188.7623291015625
z: -0.4030825197696686
visibility: 0.9988394379615784
","x: 314.0118713378906
y: 188.54840087890625
z: -0.403153657913208
visibility: 0.9989122152328491
","x: 312.23297119140625
y: 188.4131622314453
z: -0.40322262048721313
visibility: 0.9987595081329346
","x: 319.1333923339844
y: 194.14938354492188
z: -0.26273828744888306
visibility: 0.9979236721992493
","x: 306.9248046875
y: 192.08111572265625
z: -0.31994158029556274
visibility: 0.9971355199813843
","x: 319.1788635253906
y: 205.8798828125
z: -0.3597915768623352
visibility: 0.9995277523994446
","x: 314.6303405761719
y: 205.81805419921875
z: -0.37665244936943054
visibility: 0.9993525147438049
","x: 329.4535827636719
y: 248.8530731201172
z: -0.1536647081375122
visibility: 0.9998801946640015
","x: 288.4039001464844
y: 243.738525390625
z: -0.23509757220745087
visibility: 0.9996927976608276
","x: 336.2557373046875
y: 307.0262451171875
z: -0.0670696422457695
visibility: 0.9738509654998779
","x: 284.0347595214844
y: 303.4749450683594
z: -0.20075324177742004
visibility: 0.9571025371551514
","x: 341.0682678222656
y: 356.3167724609375
z: -0.13675913214683533
visibility: 0.9313263297080994
","x: 283.8716735839844
y: 349.00048828125
z: -0.26858872175216675
visibility: 0.9015821218490601
","x: 344.4320068359375
y: 372.84686279296875
z: -0.1573716253042221
visibility: 0.8713819980621338
","x: 282.0028991699219
y: 365.861328125
z: -0.29905086755752563
visibility: 0.8309296369552612
","x: 342.9349060058594
y: 373.35565185546875
z: -0.19491401314735413
visibility: 0.8810277581214905
","x: 283.61212158203125
y: 366.0772399902344
z: -0.3288617432117462
visibility: 0.8385966420173645
","x: 340.86468505859375
y: 367.2808532714844
z: -0.1535874754190445
visibility: 0.8684746026992798
","x: 285.2513732910156
y: 360.21484375
z: -0.2815396189689636
visibility: 0.814267635345459
","x: 322.8705139160156
y: 356.8597412109375
z: 0.014423067681491375
visibility: 0.9990589618682861
","x: 299.07086181640625
y: 353.9654846191406
z: -0.01446673832833767
visibility: 0.9989876747131348
","x: 323.124267578125
y: 434.96484375
z: 0.006106885150074959
visibility: 0.9870587587356567
","x: 299.0485534667969
y: 437.50897216796875
z: -0.01088634505867958
visibility: 0.9787970781326294
","x: 318.7553405761719
y: 508.27825927734375
z: 0.23397426307201385
visibility: 0.9804139733314514
","x: 302.1364440917969
y: 512.2005615234375
z: 0.20189101994037628
visibility: 0.9796754717826843
","x: 316.8251647949219
y: 515.8866577148438
z: 0.24844858050346375
visibility: 0.7999528646469116
","x: 302.33392333984375
y: 521.3870849609375
z: 0.2154005467891693
visibility: 0.8377339839935303
","x: 315.9803161621094
y: 534.1487426757812
z: 0.1171264797449112
visibility: 0.9758895039558411
","x: 304.0614929199219
y: 538.6058959960938
z: 0.0694694072008133
visibility: 0.9771400094032288
",,,,,,,,,,,,,,,,,,,,,,,,,,,,,,,,,,,,,,,,,,
3,"x: 313.9340515136719
y: 197.28689575195312
z: -0.42208537459373474
visibility: 0.9997512102127075
","x: 314.62200927734375
y: 189.73147583007812
z: -0.40228718519210815
visibility: 0.9988640546798706
","x: 315.5033264160156
y: 190.0749053955078
z: -0.40230846405029297
visibility: 0.998999834060669
","x: 316.3509216308594
y: 190.42832946777344
z: -0.4023813307285309
visibility: 0.9989998936653137
","x: 311.01287841796875
y: 188.78822326660156
z: -0.41071075201034546
visibility: 0.9988880157470703
","x: 309.3403015136719
y: 188.577880859375
z: -0.4107727110385895
visibility: 0.9989539980888367
","x: 307.6546325683594
y: 188.44235229492188
z: -0.4108343720436096
visibility: 0.9988085627555847
","x: 314.8959655761719
y: 194.2039794921875
z: -0.27640244364738464
visibility: 0.9980330467224121
","x: 302.609619140625
y: 192.21884155273438
z: -0.31602081656455994
visibility: 0.9972311854362488
","x: 314.4079284667969
y: 205.9600067138672
z: -0.3741275370121002
visibility: 0.9995595216751099
","x: 309.7660827636719
y: 205.84716796875
z: -0.3857978880405426
visibility: 0.999397873878479
","x: 325.4034118652344
y: 248.71450805664062
z: -0.1756121814250946
visibility: 0.999885618686676
","x: 283.7135009765625
y: 245.2891845703125
z: -0.23384395241737366
visibility: 0.9996939301490784
","x: 332.89263916015625
y: 306.97601318359375
z: -0.10753686726093292
visibility: 0.9728370904922485
","x: 277.4309387207031
y: 305.2231140136719
z: -0.20976006984710693
visibility: 0.9597336053848267
","x: 339.53192138671875
y: 353.68212890625
z: -0.19415438175201416
visibility: 0.928150475025177
","x: 275.6712951660156
y: 349.64422607421875
z: -0.2820712625980377
visibility: 0.9028883576393127
","x: 344.3365173339844
y: 370.7806091308594
z: -0.2198522984981537
visibility: 0.8670099377632141
","x: 272.392578125
y: 367.2582702636719
z: -0.31156495213508606
visibility: 0.8333526253700256
","x: 342.95037841796875
y: 372.0460205078125
z: -0.2574455142021179
visibility: 0.8770500421524048
","x: 274.3466491699219
y: 367.9194641113281
z: -0.3447721600532532
visibility: 0.8409233093261719
","x: 340.413330078125
y: 366.5476989746094
z: -0.21117405593395233
visibility: 0.8638741374015808
","x: 275.8753967285156
y: 362.7652282714844
z: -0.29691341519355774
visibility: 0.8150776624679565
","x: 316.2371520996094
y: 356.804931640625
z: 0.01533142663538456
visibility: 0.9991429448127747
","x: 293.4500732421875
y: 354.16278076171875
z: -0.01535689365118742
visibility: 0.999043881893158
","x: 322.12030029296875
y: 431.2633056640625
z: -0.15756802260875702
visibility: 0.9877824783325195
","x: 296.49102783203125
y: 436.857421875
z: 0.00230471626855433
visibility: 0.9791027903556824
","x: 317.3305358886719
y: 501.61395263671875
z: 0.055705856531858444
visibility: 0.9813491702079773
","x: 300.966796875
y: 511.33966064453125
z: 0.2436712086200714
visibility: 0.9791226387023926
","x: 313.6693420410156
y: 506.01641845703125
z: 0.07088392227888107
visibility: 0.811282217502594
","x: 300.8287353515625
y: 519.1603393554688
z: 0.25995659828186035
visibility: 0.8269961476325989
","x: 316.82183837890625
y: 533.73876953125
z: -0.07482249289751053
visibility: 0.9772457480430603
","x: 305.1219482421875
y: 538.7268676757812
z: 0.12048421055078506
visibility: 0.975936770439148
",,,,,,,,,,,,,,,,,,,,,,,,,,,,,,,,,,,,,,,,,,
4,"x: 309.6829528808594
y: 197.47012329101562
z: -0.4926627278327942
visibility: 0.9997722506523132
","x: 310.8515625
y: 190.17755126953125
z: -0.47223836183547974
visibility: 0.9989627003669739
","x: 312.0474853515625
y: 190.6503143310547
z: -0.4722670614719391
visibility: 0.9990864992141724
","x: 313.2374572753906
y: 191.1139678955078
z: -0.4723573625087738
visibility: 0.9990869164466858
","x: 306.620849609375
y: 189.12298583984375
z: -0.4781903326511383
visibility: 0.9989803433418274
","x: 304.8947448730469
y: 189.00949096679688
z: -0.4782680869102478
visibility: 0.9990409016609192
","x: 303.3153991699219
y: 189.00892639160156
z: -0.47830885648727417
visibility: 0.9989050626754761
","x: 312.8340148925781
y: 195.290771484375
z: -0.3409261405467987
visibility: 0.998196542263031
","x: 299.1954650878906
y: 193.82444763183594
z: -0.3704407811164856
visibility: 0.9974537491798401
","x: 311.2684631347656
y: 206.13076782226562
z: -0.4430061876773834
visibility: 0.9995978474617004
","x: 305.68341064453125
y: 206.22073364257812
z: -0.45173582434654236
visibility: 0.9994507431983948
","x: 323.6939697265625
y: 250.63986206054688
z: -0.2369523048400879
visibility: 0.9998939037322998
","x: 280.7410583496094
y: 250.77691650390625
z: -0.27521008253097534
visibility: 0.9997020363807678
","x: 333.5262145996094
y: 308.37628173828125
z: -0.18575192987918854
visibility: 0.9744452238082886
","x: 272.90167236328125
y: 309.413330078125
z: -0.2515053153038025
visibility: 0.9615710973739624
","x: 342.6822814941406
y: 352.8148193359375
z: -0.28642770648002625
visibility: 0.9326236248016357
","x: 269.49688720703125
y: 351.05706787109375
z: -0.3419824242591858
visibility: 0.9014096260070801
","x: 348.48883056640625
y: 369.9745178222656
z: -0.31864503026008606
visibility: 0.8738120794296265
","x: 266.2874755859375
y: 368.3729248046875
z: -0.37742123007774353
visibility: 0.8303660154342651
","x: 347.3172607421875
y: 370.8077697753906
z: -0.35684067010879517
visibility: 0.8835638761520386
","x: 268.33343505859375
y: 369.8286437988281
z: -0.4115017056465149
visibility: 0.8381494879722595
","x: 345.35638427734375
y: 366.0111083984375
z: -0.3042985796928406
visibility: 0.8705583810806274
","x: 269.9132080078125
y: 364.71685791015625
z: -0.35829150676727295
visibility: 0.8112801313400269
","x: 315.771240234375
y: 356.83599853515625
z: 0.014224144630134106
visibility: 0.9992052912712097
","x: 292.5517578125
y: 355.0869445800781
z: -0.014245716854929924
visibility: 0.9990782737731934
","x: 317.1671142578125
y: 431.81353759765625
z: -0.11328037083148956
visibility: 0.9874825477600098
","x: 294.871826171875
y: 437.18695068359375
z: 0.022112900391221046
visibility: 0.9793763756752014
","x: 314.62945556640625
y: 501.86639404296875
z: 0.20899789035320282
visibility: 0.9813576936721802
","x: 299.8145446777344
y: 511.3464660644531
z: 0.2884412705898285
visibility: 0.9786771535873413
","x: 311.5693359375
y: 506.8831787109375
z: 0.22823932766914368
visibility: 0.8160585165023804
","x: 299.9970703125
y: 518.8765258789062
z: 0.3065814971923828
visibility: 0.8189204931259155
","x: 316.7904052734375
y: 533.7987670898438
z: 0.0852241963148117
visibility: 0.9774656295776367
","x: 304.69610595703125
y: 538.7877197265625
z: 0.16215933859348297
visibility: 0.9749024510383606
",,,,,,,,,,,,,,,,,,,,,,,,,,,,,,,,,,,,,,,,,,
5,"x: 309.7388000488281
y: 197.79745483398438
z: -0.5176554322242737
visibility: 0.9997922778129578
","x: 310.4053649902344
y: 190.46653747558594
z: -0.49573665857315063
visibility: 0.9990577101707458
","x: 311.3108215332031
y: 190.93478393554688
z: -0.49576959013938904
visibility: 0.9991698861122131
","x: 312.2086181640625
y: 191.36376953125
z: -0.4958597719669342
visibility: 0.9991710782051086
","x: 306.5418701171875
y: 189.38992309570312
z: -0.5035585761070251
visibility: 0.9990683197975159
","x: 304.731201171875
y: 189.28871154785156
z: -0.5036363005638123
visibility: 0.9991219639778137
","x: 302.96142578125
y: 189.29690551757812
z: -0.5036678314208984
visibility: 0.9989951252937317
","x: 311.1046142578125
y: 195.46461486816406
z: -0.35713833570480347
visibility: 0.998358428478241
","x: 297.8598937988281
y: 194.2740478515625
z: -0.3954598307609558
visibility: 0.997642457485199
","x: 310.88568115234375
y: 206.64430236816406
z: -0.4651585519313812
visibility: 0.9996343851089478
","x: 305.9280700683594
y: 206.6051025390625
z: -0.4764834940433502
visibility: 0.9994985461235046
","x: 322.2475891113281
y: 250.59669494628906
z: -0.24933984875679016
visibility: 0.99990314245224
","x: 279.8349304199219
y: 251.078857421875
z: -0.2891616225242615
visibility: 0.9996901750564575
","x: 333.61151123046875
y: 308.1827697753906
z: -0.2062927931547165
visibility: 0.976044774055481
","x: 271.8270263671875
y: 309.1156311035156
z: -0.27111491560935974
visibility: 0.9633830189704895
","x: 346.5377502441406
y: 349.9194030761719
z: -0.3212994933128357
visibility: 0.9372825622558594
","x: 267.72015380859375
y: 351.60076904296875
z: -0.3581593930721283
visibility: 0.8991154432296753
","x: 352.22332763671875
y: 364.5444030761719
z: -0.3546901345252991
visibility: 0.8813914656639099
","x: 263.1763000488281
y: 370.2545166015625
z: -0.390976220369339
visibility: 0.826213002204895
","x: 350.9659729003906
y: 365.1526184082031
z: -0.39483851194381714
visibility: 0.8908348679542542
","x: 265.5943603515625
y: 371.8682861328125
z: -0.4248432517051697
visibility: 0.8344417214393616
","x: 349.1184387207031
y: 361.30450439453125
z: -0.3398672640323639
visibility: 0.8780329823493958
","x: 267.9187316894531
y: 366.34381103515625
z: -0.3737349510192871
visibility: 0.8051698803901672
","x: 314.86468505859375
y: 354.47882080078125
z: 0.012602590024471283
visibility: 0.9992748498916626
","x: 291.2168273925781
y: 354.00555419921875
z: -0.012610213831067085
visibility: 0.9990957975387573
","x: 314.6710205078125
y: 428.8216552734375
z: -0.1994614601135254
visibility: 0.9875425696372986
","x: 294.3552551269531
y: 436.1746826171875
z: -0.008875693194568157
visibility: 0.9783870577812195
","x: 313.3651428222656
y: 500.0311279296875
z: 0.006341538392007351
visibility: 0.9819945693016052
","x: 299.1958923339844
y: 510.9513854980469
z: 0.24334673583507538
visibility: 0.9769472479820251
","x: 310.9311218261719
y: 504.807861328125
z: 0.01926957629621029
visibility: 0.8231264352798462
","x: 299.6863708496094
y: 518.223388671875
z: 0.25957104563713074
visibility: 0.8038620948791504
","x: 316.23236083984375
y: 533.514404296875
z: -0.150362029671669
visibility: 0.9784753322601318
","x: 304.6113586425781
y: 538.7446899414062
z: 0.08894362300634384
visibility: 0.9723179936408997
",,,,,,,,,,,,,,,,,,,,,,,,,,,,,,,,,,,,,,,,,,
6,"x: 312.023681640625
y: 197.1784210205078
z: -0.46456533670425415
visibility: 0.9998091459274292
","x: 312.24420166015625
y: 189.5302734375
z: -0.44407638907432556
visibility: 0.9991374015808105
","x: 312.99481201171875
y: 189.811767578125
z: -0.44409847259521484
visibility: 0.999239444732666
","x: 313.7140197753906
y: 190.0753173828125
z: -0.44416728615760803
visibility: 0.9992391467094421
","x: 308.7045593261719
y: 188.82760620117188
z: -0.45548176765441895
visibility: 0.9991452693939209
","x: 306.94744873046875
y: 188.73388671875
z: -0.4555467665195465
visibility: 0.9991954565048218
","x: 305.0865173339844
y: 188.73797607421875
z: -0.45558443665504456
visibility: 0.9990760087966919
","x: 311.39532470703125
y: 194.11660766601562
z: -0.3185088038444519
visibility: 0.9984911680221558
","x: 299.041259765625
y: 193.54623413085938
z: -0.37650686502456665
visibility: 0.9978394508361816
","x: 312.6045837402344
y: 205.69570922851562
z: -0.4145781397819519
visibility: 0.9996649622917175
","x: 308.3100891113281
y: 205.95079040527344
z: -0.43068727850914
visibility: 0.9995424151420593
","x: 320.33514404296875
y: 248.04078674316406
z: -0.22360661625862122
visibility: 0.9999104738235474
","x: 279.49334716796875
y: 250.77561950683594
z: -0.2966232895851135
visibility: 0.9996905326843262
","x: 331.2183837890625
y: 302.62200927734375
z: -0.17538967728614807
visibility: 0.9755471348762512
","x: 272.270263671875
y: 307.1446533203125
z: -0.30577701330184937
visibility: 0.9652656316757202
","x: 346.39898681640625
y: 336.8299865722656
z: -0.2512487769126892
visibility: 0.940314769744873
","x: 270.15533447265625
y: 351.65606689453125
z: -0.3924904465675354
visibility: 0.8998879790306091
","x: 351.6549072265625
y: 351.59539794921875
z: -0.2796637713909149
visibility: 0.8868681192398071
","x: 267.4557189941406
y: 370.08770751953125
z: -0.4276657700538635
visibility: 0.8279445171356201
","x: 351.0280456542969
y: 352.369873046875
z: -0.31744351983070374
visibility: 0.8961543440818787
","x: 269.2516784667969
y: 371.70123291015625
z: -0.45548439025878906
visibility: 0.8359770178794861
","x: 348.6973876953125
y: 347.17083740234375
z: -0.26889050006866455
visibility: 0.8833412528038025
","x: 271.2940979003906
y: 366.2137145996094
z: -0.4052911400794983
visibility: 0.8042687773704529
","x: 313.5780029296875
y: 350.5139465332031
z: 0.021779613569378853
visibility: 0.9993285536766052
","x: 290.9302062988281
y: 351.01800537109375
z: -0.02176566794514656
visibility: 0.9990929961204529
","x: 315.0309753417969
y: 424.3035583496094
z: -0.12417328357696533
visibility: 0.9874932169914246
","x: 294.38580322265625
y: 434.8739929199219
z: -0.030494336038827896
visibility: 0.9771801829338074
","x: 312.3050842285156
y: 496.81201171875
z: 0.09255784749984741
visibility: 0.9820254445075989
","x: 299.20458984375
y: 510.7081604003906
z: 0.19500946998596191
visibility: 0.9762833714485168
","x: 309.45953369140625
y: 501.9882507324219
z: 0.10758940130472183
visibility: 0.8268882632255554
","x: 299.33538818359375
y: 518.3314208984375
z: 0.20875342190265656
visibility: 0.7941127419471741
","x: 315.98699951171875
y: 531.592529296875
z: -0.035657696425914764
visibility: 0.9789978265762329
","x: 304.4354553222656
y: 538.7103881835938
z: 0.059255629777908325
visibility: 0.9710888266563416
",,,,,,,,,,,,,,,,,,,,,,,,,,,,,,,,,,,,,,,,,,
7,"x: 313.34246826171875
y: 197.2301483154297
z: -0.3170149028301239
visibility: 0.9998200535774231
","x: 313.49127197265625
y: 189.58804321289062
z: -0.29556724429130554
visibility: 0.9991999864578247
","x: 314.164306640625
y: 189.84808349609375
z: -0.29558849334716797
visibility: 0.999289333820343
","x: 314.8004150390625
y: 190.08551025390625
z: -0.2956470251083374
visibility: 0.9992902278900146
","x: 310.0777587890625
y: 188.88658142089844
z: -0.3191431164741516
visibility: 0.9992095828056335
","x: 308.3388671875
y: 188.76651000976562
z: -0.3191896975040436
visibility: 0.9992548823356628
","x: 306.5289001464844
y: 188.7075958251953
z: -0.3192509114742279
visibility: 0.9991451501846313
","x: 312.1983642578125
y: 193.70542907714844
z: -0.16709250211715698
visibility: 0.9985959529876709
","x: 300.6605224609375
y: 192.17872619628906
z: -0.2769898772239685
visibility: 0.9980161190032959
","x: 313.7675476074219
y: 205.65518188476562
z: -0.2664642930030823
visibility: 0.9996885061264038
","x: 309.58624267578125
y: 205.8079833984375
z: -0.29802340269088745
visibility: 0.9995794296264648
","x: 318.4532775878906
y: 245.6956787109375
z: -0.05581449344754219
visibility: 0.9999129772186279
","x: 280.72772216796875
y: 246.00564575195312
z: -0.2440613955259323
visibility: 0.9996980428695679
","x: 327.0370788574219
y: 295.93017578125
z: 0.02919984981417656
visibility: 0.9609123468399048
","x: 272.8450622558594
y: 301.913818359375
z: -0.2596172094345093
visibility: 0.9679349064826965
","x: 339.9068603515625
y: 326.7802429199219
z: -0.061411838978528976
visibility: 0.9343578219413757
","x: 273.02734375
y: 345.60137939453125
z: -0.34722718596458435
visibility: 0.9057402610778809
","x: 343.938232421875
y: 339.65789794921875
z: -0.08419079333543777
visibility: 0.8791484832763672
","x: 270.3137512207031
y: 363.3829040527344
z: -0.3829035758972168
visibility: 0.8368531465530396
","x: 343.7342224121094
y: 339.4005126953125
z: -0.12233217060565948
visibility: 0.8902398347854614
","x: 270.8725891113281
y: 362.7406005859375
z: -0.4057575762271881
visibility: 0.8442779183387756
","x: 341.5217590332031
y: 335.38043212890625
z: -0.08038101345300674
visibility: 0.8763463497161865
","x: 273.614013671875
y: 356.18511962890625
z: -0.3578487038612366
visibility: 0.811543345451355
","x: 314.2097473144531
y: 351.3730163574219
z: 0.03680204972624779
visibility: 0.9993825554847717
","x: 292.29876708984375
y: 351.5240173339844
z: -0.03672958165407181
visibility: 0.9991339445114136
","x: 316.50604248046875
y: 424.428466796875
z: -0.15532466769218445
visibility: 0.9880015850067139
","x: 294.2236022949219
y: 436.9727783203125
z: -0.02947697974741459
visibility: 0.9763578176498413
","x: 313.0169982910156
y: 497.3962097167969
z: 0.04220372065901756
visibility: 0.9823135137557983
","x: 299.5937805175781
y: 510.8055419921875
z: 0.1834562122821808
visibility: 0.9763424396514893
","x: 309.9902648925781
y: 503.170166015625
z: 0.05642244964838028
visibility: 0.8356029391288757
","x: 299.6529846191406
y: 519.354248046875
z: 0.19604220986366272
visibility: 0.7921982407569885
","x: 316.4693908691406
y: 529.918212890625
z: -0.07983037084341049
visibility: 0.9799839854240417
","x: 305.60931396484375
y: 538.6832885742188
z: 0.0545225664973259
visibility: 0.9714962244033813
",,,,,,,,,,,,,,,,,,,,,,,,,,,,,,,,,,,,,,,,,,
8,"x: 313.71990966796875
y: 196.87318420410156
z: -0.2584301829338074
visibility: 0.9997920989990234
","x: 314.41168212890625
y: 189.2623291015625
z: -0.23789140582084656
visibility: 0.9991664290428162
","x: 315.07135009765625
y: 189.4505157470703
z: -0.23790156841278076
visibility: 0.999215304851532
","x: 315.6531982421875
y: 189.63113403320312
z: -0.23792175948619843
visibility: 0.9992043972015381
","x: 310.67572021484375
y: 188.50247192382812
z: -0.2624736428260803
visibility: 0.9992162585258484
","x: 308.81646728515625
y: 188.20428466796875
z: -0.26250189542770386
visibility: 0.9992619156837463
","x: 307.0035400390625
y: 187.8878173828125
z: -0.26257139444351196
visibility: 0.999169111251831
","x: 312.668701171875
y: 192.38607788085938
z: -0.1172935739159584
visibility: 0.9983004927635193
","x: 301.8618469238281
y: 189.566162109375
z: -0.22952508926391602
visibility: 0.9981359243392944
","x: 314.5191650390625
y: 204.68382263183594
z: -0.21066133677959442
visibility: 0.9996022582054138
","x: 309.73095703125
y: 204.29322814941406
z: -0.2430969774723053
visibility: 0.9995706677436829
","x: 315.18505859375
y: 242.60638427734375
z: 0.0030545417685061693
visibility: 0.999800980091095
","x: 282.3110656738281
y: 240.88800048828125
z: -0.21713247895240784
visibility: 0.9997137188911438
","x: 316.9042053222656
y: 295.242919921875
z: 0.09003470838069916
visibility: 0.882524311542511
","x: 274.79351806640625
y: 299.2920227050781
z: -0.241225928068161
visibility: 0.9706502556800842
","x: 329.538818359375
y: 331.33868408203125
z: 0.02239955961704254
visibility: 0.8672378063201904
","x: 282.24163818359375
y: 344.0184326171875
z: -0.2952137589454651
visibility: 0.9130000472068787
","x: 332.64013671875
y: 345.3537292480469
z: 0.010497578419744968
visibility: 0.8145014643669128
","x: 282.3710632324219
y: 359.808349609375
z: -0.3249930739402771
visibility: 0.8482527732849121
","x: 333.5501403808594
y: 344.3058776855469
z: -0.023228004574775696
visibility: 0.8269299268722534
","x: 285.499755859375
y: 357.601318359375
z: -0.33430713415145874
visibility: 0.8549535870552063
","x: 331.8430480957031
y: 338.8470153808594
z: 0.004904709290713072
visibility: 0.8138683438301086
","x: 286.5263366699219
y: 352.4815673828125
z: -0.29718273878097534
visibility: 0.8224062919616699
","x: 313.50726318359375
y: 351.0361328125
z: 0.04959375411272049
visibility: 0.9993681311607361
","x: 292.62628173828125
y: 351.759033203125
z: -0.04959092661738396
visibility: 0.9991024732589722
","x: 316.92828369140625
y: 424.615966796875
z: -0.08452063053846359
visibility: 0.9868152737617493
","x: 294.4098205566406
y: 436.97607421875
z: -0.031054457649588585
visibility: 0.9749943614006042
","x: 313.3620300292969
y: 497.9013366699219
z: 0.07446659356355667
visibility: 0.9812870621681213
","x: 299.6774597167969
y: 511.2669677734375
z: 0.12403950840234756
visibility: 0.9754130244255066
","x: 310.2596740722656
y: 506.95428466796875
z: 0.08306358754634857
visibility: 0.8415781259536743
","x: 299.4515380859375
y: 521.2899169921875
z: 0.1313716471195221
visibility: 0.7899496555328369
","x: 316.59149169921875
y: 530.10205078125
z: -0.041840530931949615
visibility: 0.9799751043319702
","x: 306.5467529296875
y: 538.5279541015625
z: 0.002702852711081505
visibility: 0.9712983965873718
",,,,,,,,,,,,,,,,,,,,,,,,,,,,,,,,,,,,,,,,,,
9,"x: 313.7503967285156
y: 195.95529174804688
z: -0.23633643984794617
visibility: 0.9997406005859375
","x: 314.9239501953125
y: 188.20936584472656
z: -0.21768227219581604
visibility: 0.9990437030792236
","x: 315.57958984375
y: 188.33616638183594
z: -0.21769492328166962
visibility: 0.9990416169166565
","x: 316.093017578125
y: 188.475341796875
z: -0.21769651770591736
visibility: 0.9989888668060303
","x: 310.91058349609375
y: 187.40843200683594
z: -0.24364259839057922
visibility: 0.9991709589958191
","x: 309.3009033203125
y: 186.9833526611328
z: -0.24368131160736084
visibility: 0.9992276430130005
","x: 307.5562744140625
y: 186.50640869140625
z: -0.24376635253429413
visibility: 0.9991546869277954
","x: 312.7961730957031
y: 190.70489501953125
z: -0.10208290815353394
visibility: 0.9976156949996948
","x: 302.4875183105469
y: 187.42413330078125
z: -0.22074134647846222
visibility: 0.9982376098632812
","x: 314.91131591796875
y: 203.4645233154297
z: -0.18984873592853546
visibility: 0.9995008707046509
","x: 309.9229736328125
y: 202.8103790283203
z: -0.2242470681667328
visibility: 0.9995671510696411
","x: 314.18597412109375
y: 238.66360473632812
z: 0.015332636423408985
visibility: 0.9997064471244812
","x: 282.9315490722656
y: 238.34259033203125
z: -0.20587976276874542
visibility: 0.9997358918190002
","x: 314.48907470703125
y: 293.2451477050781
z: 0.09381697326898575
visibility: 0.8128753304481506
","x: 275.54327392578125
y: 297.5015563964844
z: -0.22044579684734344
visibility: 0.9731904864311218
","x: 324.65460205078125
y: 332.1847229003906
z: 0.004205741453915834
visibility: 0.805194616317749
","x: 289.7566833496094
y: 340.6838684082031
z: -0.2501312494277954
visibility: 0.919825553894043
","x: 328.506591796875
y: 346.6377258300781
z: -0.012885761447250843
visibility: 0.755529522895813
","x: 290.74822998046875
y: 355.9852600097656
z: -0.2799198627471924
visibility: 0.8591974973678589
","x: 329.5651550292969
y: 346.2552185058594
z: -0.04578155279159546
visibility: 0.7691899538040161
","x: 294.26812744140625
y: 352.80267333984375
z: -0.2916339933872223
visibility: 0.8652334809303284
","x: 327.14337158203125
y: 341.23028564453125
z: -0.013519267551600933
visibility: 0.7567338943481445
","x: 294.3056945800781
y: 347.0736389160156
z: -0.2533334493637085
visibility: 0.833472728729248
","x: 314.66143798828125
y: 351.0671691894531
z: 0.054976098239421844
visibility: 0.9992168545722961
","x: 293.1249084472656
y: 352.06341552734375
z: -0.05493498966097832
visibility: 0.9990414381027222
","x: 317.6235656738281
y: 425.16912841796875
z: 0.022418472915887833
visibility: 0.9847185015678406
","x: 294.58062744140625
y: 437.6558837890625
z: -0.04710455238819122
visibility: 0.9750398993492126
","x: 313.4850769042969
y: 498.0923156738281
z: 0.20399704575538635
visibility: 0.9795526266098022
","x: 299.73724365234375
y: 511.368408203125
z: 0.12627723813056946
visibility: 0.9760584831237793
","x: 310.1839294433594
y: 507.50421142578125
z: 0.21545366942882538
visibility: 0.8469070196151733
","x: 299.37420654296875
y: 521.6417236328125
z: 0.13559368252754211
visibility: 0.7971405982971191
","x: 316.6416931152344
y: 530.2295532226562
z: 0.10953132063150406
visibility: 0.9792376756668091
","x: 306.4933166503906
y: 538.3850708007812
z: 0.006671914365142584
visibility: 0.9722033739089966
",,,,,,,,,,,,,,,,,,,,,,,,,,,,,,,,,,,,,,,,,,
10,"x: 314.3096618652344
y: 194.96234130859375
z: -0.21981504559516907
visibility: 0.999678909778595
","x: 315.14129638671875
y: 186.81153869628906
z: -0.2024385929107666
visibility: 0.9988818168640137
","x: 315.906005859375
y: 186.88235473632812
z: -0.20244503021240234
visibility: 0.9988226294517517
","x: 316.3816833496094
y: 186.97552490234375
z: -0.2024330198764801
visibility: 0.998725950717926
","x: 312.0614013671875
y: 186.02252197265625
z: -0.22974470257759094
visibility: 0.9991000294685364
","x: 310.67022705078125
y: 185.51724243164062
z: -0.22979912161827087
visibility: 0.9991743564605713
","x: 309.0242614746094
y: 184.93136596679688
z: -0.2299034148454666
visibility: 0.9991292357444763
","x: 312.4045104980469
y: 188.85943603515625
z: -0.09257811307907104
visibility: 0.9967604279518127
","x: 302.7176513671875
y: 185.48484802246094
z: -0.21701252460479736
visibility: 0.9983238577842712
","x: 315.1294860839844
y: 202.62342834472656
z: -0.17523494362831116
visibility: 0.9994165897369385
","x: 310.2810974121094
y: 201.91094970703125
z: -0.2113841325044632
visibility: 0.9995688796043396
","x: 314.7881164550781
y: 237.46583557128906
z: 0.024176109582185745
visibility: 0.9996182322502136
","x: 283.2060852050781
y: 234.78338623046875
z: -0.20788447558879852
visibility: 0.9997578263282776
","x: 315.82177734375
y: 294.8010559082031
z: 0.09643258899450302
visibility: 0.750906765460968
","x: 276.63287353515625
y: 294.4479064941406
z: -0.21416530013084412
visibility: 0.9755604863166809
","x: 324.23419189453125
y: 334.9694519042969
z: -0.002588788978755474
visibility: 0.7440852522850037
","x: 293.6472473144531
y: 334.3980712890625
z: -0.23465251922607422
visibility: 0.926471471786499
","x: 328.6553649902344
y: 349.65472412109375
z: -0.021730903536081314
visibility: 0.6978857517242432
","x: 295.4875793457031
y: 349.8774719238281
z: -0.2653477191925049
visibility: 0.8701704144477844
","x: 329.2260437011719
y: 349.5338439941406
z: -0.054729361087083817
visibility: 0.7122145295143127
","x: 299.68707275390625
y: 345.8782653808594
z: -0.2772354483604431
visibility: 0.875611424446106
","x: 326.0395202636719
y: 344.300048828125
z: -0.020784294232726097
visibility: 0.7008863687515259
","x: 299.61920166015625
y: 340.54071044921875
z: -0.23767678439617157
visibility: 0.8449971079826355
","x: 315.1724548339844
y: 351.3577880859375
z: 0.05814055725932121
visibility: 0.9990934133529663
","x: 293.5554504394531
y: 352.1127014160156
z: -0.058093659579753876
visibility: 0.9990057349205017
","x: 318.0218811035156
y: 425.3203125
z: 0.03859446197748184
visibility: 0.9834372997283936
","x: 294.65325927734375
y: 438.5152893066406
z: -0.05246029049158096
visibility: 0.9756035804748535
","x: 312.88751220703125
y: 499.0264892578125
z: 0.23776499927043915
visibility: 0.97867751121521
","x: 299.6892395019531
y: 511.43048095703125
z: 0.1385382115840912
visibility: 0.9770780205726624
","x: 308.7232360839844
y: 508.8116760253906
z: 0.2507854104042053
visibility: 0.8530845642089844
","x: 298.96624755859375
y: 521.6370239257812
z: 0.1496102660894394
visibility: 0.8058999180793762
","x: 316.6380615234375
y: 530.46533203125
z: 0.142670139670372
visibility: 0.9790924191474915
","x: 306.22808837890625
y: 538.37109375
z: 0.01892850548028946
visibility: 0.973525881767273
",,,,,,,,,,,,,,,,,,,,,,,,,,,,,,,,,,,,,,,,,,
11,"x: 314.6170349121094
y: 194.9864501953125
z: -0.19200441241264343
visibility: 0.9996751546859741
","x: 315.3105773925781
y: 187.0177001953125
z: -0.17083488404750824
visibility: 0.9989020824432373
","x: 315.9717102050781
y: 187.10568237304688
z: -0.17085453867912292
visibility: 0.9988083243370056
","x: 316.4273681640625
y: 187.21372985839844
z: -0.17085200548171997
visibility: 0.9987133741378784
","x: 312.3036193847656
y: 186.17750549316406
z: -0.19397765398025513
visibility: 0.999127209186554
","x: 310.8501281738281
y: 185.60365295410156
z: -0.19400961697101593
visibility: 0.9991961717605591
","x: 309.1834716796875
y: 184.91876220703125
z: -0.19409635663032532
visibility: 0.9991629719734192
","x: 312.9114074707031
y: 189.1970672607422
z: -0.04742303118109703
visibility: 0.9966615438461304
","x: 303.0946350097656
y: 185.06451416015625
z: -0.15481755137443542
visibility: 0.9984449744224548
","x: 314.55413818359375
y: 202.66549682617188
z: -0.14325624704360962
visibility: 0.99941486120224
","x: 310.58990478515625
y: 202.10044860839844
z: -0.17438171803951263
visibility: 0.9995877146720886
","x: 314.798828125
y: 235.15672302246094
z: 0.0694008320569992
visibility: 0.9996050000190735
","x: 283.32421875
y: 231.54051208496094
z: -0.14790000021457672
visibility: 0.9997766017913818
","x: 318.0957336425781
y: 290.3606262207031
z: 0.15423396229743958
visibility: 0.7140933275222778
","x: 276.9376525878906
y: 283.4609375
z: -0.19798988103866577
visibility: 0.9774787425994873
","x: 327.35430908203125
y: 328.9749755859375
z: 0.06689291447401047
visibility: 0.728630781173706
","x: 292.57720947265625
y: 309.51068115234375
z: -0.26757508516311646
visibility: 0.9326946139335632
","x: 331.2802429199219
y: 344.08868408203125
z: 0.05058544874191284
visibility: 0.6829932928085327
","x: 295.3367919921875
y: 322.0511474609375
z: -0.31003859639167786
visibility: 0.8809401392936707
","x: 331.6536560058594
y: 342.5712890625
z: 0.016322249546647072
visibility: 0.698840320110321
","x: 299.1460876464844
y: 316.1749572753906
z: -0.2899620532989502
visibility: 0.8858343362808228
","x: 330.30804443359375
y: 340.4429931640625
z: 0.04954453185200691
visibility: 0.687270998954773
","x: 298.9308166503906
y: 312.59808349609375
z: -0.2568887770175934
visibility: 0.8568728566169739
","x: 317.1895446777344
y: 351.5738220214844
z: 0.06265752017498016
visibility: 0.9991124868392944
","x: 296.5561218261719
y: 352.62017822265625
z: -0.0626639649271965
visibility: 0.9990390539169312
","x: 318.4300537109375
y: 430.87298583984375
z: 0.060826461762189865
visibility: 0.9809962511062622
","x: 295.8284912109375
y: 441.83538818359375
z: -0.03773539885878563
visibility: 0.9757264852523804
","x: 312.238037109375
y: 501.39813232421875
z: 0.2710403800010681
visibility: 0.9761574864387512
","x: 299.74896240234375
y: 512.2611694335938
z: 0.1551787555217743
visibility: 0.9778898358345032
","x: 307.47637939453125
y: 511.5780029296875
z: 0.2859601378440857
visibility: 0.8584735989570618
","x: 298.7884521484375
y: 522.4542236328125
z: 0.16693618893623352
visibility: 0.8147897124290466
","x: 317.3537902832031
y: 531.2293701171875
z: 0.18839749693870544
visibility: 0.978063702583313
","x: 306.5345764160156
y: 538.5194702148438
z: 0.03817763179540634
visibility: 0.9746266007423401
","x: 291.8446350097656
y: 309.0325012207031
z: 0.0
","x: 295.0353088378906
y: 304.9164123535156
z: -0.0021308530122041702
","x: 299.2335510253906
y: 303.4723205566406
z: -0.003597622038796544
","x: 301.79119873046875
y: 305.1319274902344
z: -0.005434179212898016
","x: 303.06939697265625
y: 308.20489501953125
z: -0.006823118310421705
","x: 301.0904235839844
y: 311.13177490234375
z: -0.001991476397961378
","x: 304.1505126953125
y: 313.5174255371094
z: -0.0054446132853627205
","x: 303.0343933105469
y: 310.9100036621094
z: -0.006315106060355902
","x: 301.349609375
y: 308.6531982421875
z: -0.006263706833124161
","x: 299.436279296875
y: 314.86181640625
z: -0.002774080727249384
","x: 302.03369140625
y: 316.6253356933594
z: -0.006597363390028477
","x: 299.9629211425781
y: 313.05718994140625
z: -0.006788054946810007
","x: 297.71826171875
y: 310.6261901855469
z: -0.005896279122680426
","x: 297.38763427734375
y: 318.1373291015625
z: -0.004124841652810574
","x: 298.8267517089844
y: 318.4832458496094
z: -0.007947665639221668
","x: 296.5926513671875
y: 314.7519226074219
z: -0.007123915012925863
","x: 294.751220703125
y: 312.9144592285156
z: -0.005446475464850664
","x: 294.9967956542969
y: 321.00958251953125
z: -0.005856221541762352
","x: 296.1799011230469
y: 321.3277587890625
z: -0.008414866402745247
","x: 294.71441650390625
y: 318.4728088378906
z: -0.007897656410932541
","x: 293.29443359375
y: 316.8976135253906
z: -0.006583330687135458
",,,,,,,,,,,,,,,,,,,,,
12,"x: 314.6170349121094
y: 194.9864501953125
z: -0.19200441241264343
visibility: 0.9996751546859741
","x: 315.3105773925781
y: 187.0177001953125
z: -0.17083488404750824
visibility: 0.9989020824432373
","x: 315.9717102050781
y: 187.10568237304688
z: -0.17085453867912292
visibility: 0.9988083243370056
","x: 316.4273681640625
y: 187.21372985839844
z: -0.17085200548171997
visibility: 0.9987133741378784
","x: 312.3036193847656
y: 186.17750549316406
z: -0.19397765398025513
visibility: 0.999127209186554
","x: 310.8501281738281
y: 185.60365295410156
z: -0.19400961697101593
visibility: 0.9991961717605591
","x: 309.1834716796875
y: 184.91876220703125
z: -0.19409635663032532
visibility: 0.9991629719734192
","x: 312.9114074707031
y: 189.1970672607422
z: -0.04742303118109703
visibility: 0.9966615438461304
","x: 303.0946350097656
y: 185.06451416015625
z: -0.15481755137443542
visibility: 0.9984449744224548
","x: 314.55413818359375
y: 202.66549682617188
z: -0.14325624704360962
visibility: 0.99941486120224
","x: 310.58990478515625
y: 202.10044860839844
z: -0.17438171803951263
visibility: 0.9995877146720886
","x: 314.798828125
y: 235.15672302246094
z: 0.0694008320569992
visibility: 0.9996050000190735
","x: 283.32421875
y: 231.54051208496094
z: -0.14790000021457672
visibility: 0.9997766017913818
","x: 318.0957336425781
y: 290.3606262207031
z: 0.15423396229743958
visibility: 0.7140933275222778
","x: 276.9376525878906
y: 283.4609375
z: -0.19798988103866577
visibility: 0.9774787425994873
","x: 327.35430908203125
y: 328.9749755859375
z: 0.06689291447401047
visibility: 0.728630781173706
","x: 292.57720947265625
y: 309.51068115234375
z: -0.26757508516311646
visibility: 0.9326946139335632
","x: 331.2802429199219
y: 344.08868408203125
z: 0.05058544874191284
visibility: 0.6829932928085327
","x: 295.3367919921875
y: 322.0511474609375
z: -0.31003859639167786
visibility: 0.8809401392936707
","x: 331.6536560058594
y: 342.5712890625
z: 0.016322249546647072
visibility: 0.698840320110321
","x: 299.1460876464844
y: 316.1749572753906
z: -0.2899620532989502
visibility: 0.8858343362808228
","x: 330.30804443359375
y: 340.4429931640625
z: 0.04954453185200691
visibility: 0.687270998954773
","x: 298.9308166503906
y: 312.59808349609375
z: -0.2568887770175934
visibility: 0.8568728566169739
","x: 317.1895446777344
y: 351.5738220214844
z: 0.06265752017498016
visibility: 0.9991124868392944
","x: 296.5561218261719
y: 352.62017822265625
z: -0.0626639649271965
visibility: 0.9990390539169312
","x: 318.4300537109375
y: 430.87298583984375
z: 0.060826461762189865
visibility: 0.9809962511062622
","x: 295.8284912109375
y: 441.83538818359375
z: -0.03773539885878563
visibility: 0.9757264852523804
","x: 312.238037109375
y: 501.39813232421875
z: 0.2710403800010681
visibility: 0.9761574864387512
","x: 299.74896240234375
y: 512.2611694335938
z: 0.1551787555217743
visibility: 0.9778898358345032
","x: 307.47637939453125
y: 511.5780029296875
z: 0.2859601378440857
visibility: 0.8584735989570618
","x: 298.7884521484375
y: 522.4542236328125
z: 0.16693618893623352
visibility: 0.8147897124290466
","x: 317.3537902832031
y: 531.2293701171875
z: 0.18839749693870544
visibility: 0.978063702583313
","x: 306.5345764160156
y: 538.5194702148438
z: 0.03817763179540634
visibility: 0.9746266007423401
","x: 291.8446350097656
y: 309.0325012207031
z: 0.0
","x: 295.0353088378906
y: 304.9164123535156
z: -0.0021308530122041702
","x: 299.2335510253906
y: 303.4723205566406
z: -0.003597622038796544
","x: 301.79119873046875
y: 305.1319274902344
z: -0.005434179212898016
","x: 303.06939697265625
y: 308.20489501953125
z: -0.006823118310421705
","x: 301.0904235839844
y: 311.13177490234375
z: -0.001991476397961378
","x: 304.1505126953125
y: 313.5174255371094
z: -0.0054446132853627205
","x: 303.0343933105469
y: 310.9100036621094
z: -0.006315106060355902
","x: 301.349609375
y: 308.6531982421875
z: -0.006263706833124161
","x: 299.436279296875
y: 314.86181640625
z: -0.002774080727249384
","x: 302.03369140625
y: 316.6253356933594
z: -0.006597363390028477
","x: 299.9629211425781
y: 313.05718994140625
z: -0.006788054946810007
","x: 297.71826171875
y: 310.6261901855469
z: -0.005896279122680426
","x: 297.38763427734375
y: 318.1373291015625
z: -0.004124841652810574
","x: 298.8267517089844
y: 318.4832458496094
z: -0.007947665639221668
","x: 296.5926513671875
y: 314.7519226074219
z: -0.007123915012925863
","x: 294.751220703125
y: 312.9144592285156
z: -0.005446475464850664
","x: 294.9967956542969
y: 321.00958251953125
z: -0.005856221541762352
","x: 296.1799011230469
y: 321.3277587890625
z: -0.008414866402745247
","x: 294.71441650390625
y: 318.4728088378906
z: -0.007897656410932541
","x: 293.29443359375
y: 316.8976135253906
z: -0.006583330687135458
",,,,,,,,,,,,,,,,,,,,,
13,"x: 315.6633605957031
y: 195.12319946289062
z: -0.18421944975852966
visibility: 0.9997007846832275
","x: 316.54376220703125
y: 187.1214599609375
z: -0.15952743589878082
visibility: 0.9989942312240601
","x: 317.03314208984375
y: 187.23716735839844
z: -0.15947365760803223
visibility: 0.9988991618156433
","x: 317.3519287109375
y: 187.36314392089844
z: -0.1594555526971817
visibility: 0.9988091588020325
","x: 313.953369140625
y: 186.27479553222656
z: -0.18334320187568665
visibility: 0.9992066621780396
","x: 312.53497314453125
y: 185.74920654296875
z: -0.18335244059562683
visibility: 0.9992694854736328
","x: 310.96875
y: 185.12545776367188
z: -0.18344205617904663
visibility: 0.9992398619651794
","x: 313.3757629394531
y: 189.486572265625
z: -0.025383224710822105
visibility: 0.9969269633293152
","x: 304.82305908203125
y: 185.2584991455078
z: -0.13799741864204407
visibility: 0.9985922574996948
","x: 314.6532897949219
y: 202.84727478027344
z: -0.13301315903663635
visibility: 0.9994401335716248
","x: 311.5307922363281
y: 202.22032165527344
z: -0.16572488844394684
visibility: 0.9996159672737122
","x: 315.3230895996094
y: 234.18234252929688
z: 0.09625638276338577
visibility: 0.9995704293251038
","x: 285.13677978515625
y: 225.857421875
z: -0.1408967524766922
visibility: 0.9997925758361816
","x: 319.7391662597656
y: 287.40911865234375
z: 0.2789241075515747
visibility: 0.6949702501296997
","x: 271.7006530761719
y: 258.3813171386719
z: -0.30945059657096863
visibility: 0.9796273112297058
","x: 336.89715576171875
y: 291.8948974609375
z: 0.3392225205898285
visibility: 0.7436522245407104
","x: 290.0635070800781
y: 252.45828247070312
z: -0.48869839310646057
visibility: 0.9392993450164795
","x: 342.01312255859375
y: 292.8084716796875
z: 0.35734567046165466
visibility: 0.6968920230865479
","x: 293.077880859375
y: 252.8233642578125
z: -0.5287869572639465
visibility: 0.8924256563186646
","x: 343.8252258300781
y: 287.9488220214844
z: 0.3255050778388977
visibility: 0.7135521173477173
","x: 295.60089111328125
y: 246.59185791015625
z: -0.5185297131538391
visibility: 0.8968216180801392
","x: 341.0307922363281
y: 288.5178527832031
z: 0.32784801721572876
visibility: 0.7025213837623596
","x: 295.5838928222656
y: 246.7432861328125
z: -0.4863513112068176
visibility: 0.8703321814537048
","x: 319.4469299316406
y: 348.7677307128906
z: 0.06433434784412384
visibility: 0.9991511106491089
","x: 298.4399108886719
y: 351.82763671875
z: -0.06440311670303345
visibility: 0.9990803003311157
","x: 320.8478088378906
y: 430.34735107421875
z: 0.02241775579750538
visibility: 0.9801623225212097
","x: 298.123291015625
y: 441.62286376953125
z: -0.032472237944602966
visibility: 0.9753443598747253
","x: 312.4751892089844
y: 502.385498046875
z: 0.24354414641857147
visibility: 0.9750107526779175
","x: 299.8185119628906
y: 512.072998046875
z: 0.13507883250713348
visibility: 0.9780305027961731
","x: 308.0706481933594
y: 513.0707397460938
z: 0.23065705597400665
visibility: 0.8662092089653015
","x: 298.9222106933594
y: 522.5186767578125
z: 0.14506928622722626
visibility: 0.8196004629135132
","x: 320.4306335449219
y: 531.4464721679688
z: 0.11536775529384613
visibility: 0.978072464466095
","x: 306.374755859375
y: 537.9451293945312
z: 0.022343439981341362
visibility: 0.9753350615501404
","x: 284.9544677734375
y: 253.2211151123047
z: 0.0
","x: 288.4783020019531
y: 248.20298767089844
z: 0.0011972790816798806
","x: 293.0001525878906
y: 245.84890747070312
z: -0.0003223962557967752
","x: 296.59356689453125
y: 247.49911499023438
z: -0.002662005601450801
","x: 299.0503845214844
y: 250.8712158203125
z: -0.004282769281417131
","x: 295.4935302734375
y: 246.8124542236328
z: -0.0014993924414739013
","x: 298.4728698730469
y: 246.17532348632812
z: -0.004635489080101252
","x: 297.0618591308594
y: 246.6973876953125
z: -0.00526207871735096
","x: 294.9838562011719
y: 247.15887451171875
z: -0.00515624089166522
","x: 295.1966552734375
y: 250.99996948242188
z: -0.004009028896689415
","x: 293.930908203125
y: 249.9661407470703
z: -0.0065522268414497375
","x: 291.47900390625
y: 249.6678924560547
z: -0.005577609408646822
","x: 289.7208251953125
y: 249.01007080078125
z: -0.004678412806242704
","x: 294.0635681152344
y: 255.09188842773438
z: -0.0065931277349591255
","x: 291.924560546875
y: 253.32655334472656
z: -0.00804043747484684
","x: 289.5171203613281
y: 252.59518432617188
z: -0.005738351959735155
","x: 288.10015869140625
y: 251.61990356445312
z: -0.004117727745324373
","x: 292.6191711425781
y: 258.79498291015625
z: -0.00936493743211031
","x: 291.0650939941406
y: 257.24542236328125
z: -0.009425660595297813
","x: 289.3984680175781
y: 256.4175109863281
z: -0.007617072202265263
","x: 288.51904296875
y: 255.88951110839844
z: -0.0061676581390202045
",,,,,,,,,,,,,,,,,,,,,
14,"x: 315.6633605957031
y: 195.12319946289062
z: -0.18421944975852966
visibility: 0.9997007846832275
","x: 316.54376220703125
y: 187.1214599609375
z: -0.15952743589878082
visibility: 0.9989942312240601
","x: 317.03314208984375
y: 187.23716735839844
z: -0.15947365760803223
visibility: 0.9988991618156433
","x: 317.3519287109375
y: 187.36314392089844
z: -0.1594555526971817
visibility: 0.9988091588020325
","x: 313.953369140625
y: 186.27479553222656
z: -0.18334320187568665
visibility: 0.9992066621780396
","x: 312.53497314453125
y: 185.74920654296875
z: -0.18335244059562683
visibility: 0.9992694854736328
","x: 310.96875
y: 185.12545776367188
z: -0.18344205617904663
visibility: 0.9992398619651794
","x: 313.3757629394531
y: 189.486572265625
z: -0.025383224710822105
visibility: 0.9969269633293152
","x: 304.82305908203125
y: 185.2584991455078
z: -0.13799741864204407
visibility: 0.9985922574996948
","x: 314.6532897949219
y: 202.84727478027344
z: -0.13301315903663635
visibility: 0.9994401335716248
","x: 311.5307922363281
y: 202.22032165527344
z: -0.16572488844394684
visibility: 0.9996159672737122
","x: 315.3230895996094
y: 234.18234252929688
z: 0.09625638276338577
visibility: 0.9995704293251038
","x: 285.13677978515625
y: 225.857421875
z: -0.1408967524766922
visibility: 0.9997925758361816
","x: 319.7391662597656
y: 287.40911865234375
z: 0.2789241075515747
visibility: 0.6949702501296997
","x: 271.7006530761719
y: 258.3813171386719
z: -0.30945059657096863
visibility: 0.9796273112297058
","x: 336.89715576171875
y: 291.8948974609375
z: 0.3392225205898285
visibility: 0.7436522245407104
","x: 290.0635070800781
y: 252.45828247070312
z: -0.48869839310646057
visibility: 0.9392993450164795
","x: 342.01312255859375
y: 292.8084716796875
z: 0.35734567046165466
visibility: 0.6968920230865479
","x: 293.077880859375
y: 252.8233642578125
z: -0.5287869572639465
visibility: 0.8924256563186646
","x: 343.8252258300781
y: 287.9488220214844
z: 0.3255050778388977
visibility: 0.7135521173477173
","x: 295.60089111328125
y: 246.59185791015625
z: -0.5185297131538391
visibility: 0.8968216180801392
","x: 341.0307922363281
y: 288.5178527832031
z: 0.32784801721572876
visibility: 0.7025213837623596
","x: 295.5838928222656
y: 246.7432861328125
z: -0.4863513112068176
visibility: 0.8703321814537048
","x: 319.4469299316406
y: 348.7677307128906
z: 0.06433434784412384
visibility: 0.9991511106491089
","x: 298.4399108886719
y: 351.82763671875
z: -0.06440311670303345
visibility: 0.9990803003311157
","x: 320.8478088378906
y: 430.34735107421875
z: 0.02241775579750538
visibility: 0.9801623225212097
","x: 298.123291015625
y: 441.62286376953125
z: -0.032472237944602966
visibility: 0.9753443598747253
","x: 312.4751892089844
y: 502.385498046875
z: 0.24354414641857147
visibility: 0.9750107526779175
","x: 299.8185119628906
y: 512.072998046875
z: 0.13507883250713348
visibility: 0.9780305027961731
","x: 308.0706481933594
y: 513.0707397460938
z: 0.23065705597400665
visibility: 0.8662092089653015
","x: 298.9222106933594
y: 522.5186767578125
z: 0.14506928622722626
visibility: 0.8196004629135132
","x: 320.4306335449219
y: 531.4464721679688
z: 0.11536775529384613
visibility: 0.978072464466095
","x: 306.374755859375
y: 537.9451293945312
z: 0.022343439981341362
visibility: 0.9753350615501404
","x: 284.9544677734375
y: 253.2211151123047
z: 0.0
","x: 288.4783020019531
y: 248.20298767089844
z: 0.0011972790816798806
","x: 293.0001525878906
y: 245.84890747070312
z: -0.0003223962557967752
","x: 296.59356689453125
y: 247.49911499023438
z: -0.002662005601450801
","x: 299.0503845214844
y: 250.8712158203125
z: -0.004282769281417131
","x: 295.4935302734375
y: 246.8124542236328
z: -0.0014993924414739013
","x: 298.4728698730469
y: 246.17532348632812
z: -0.004635489080101252
","x: 297.0618591308594
y: 246.6973876953125
z: -0.00526207871735096
","x: 294.9838562011719
y: 247.15887451171875
z: -0.00515624089166522
","x: 295.1966552734375
y: 250.99996948242188
z: -0.004009028896689415
","x: 293.930908203125
y: 249.9661407470703
z: -0.0065522268414497375
","x: 291.47900390625
y: 249.6678924560547
z: -0.005577609408646822
","x: 289.7208251953125
y: 249.01007080078125
z: -0.004678412806242704
","x: 294.0635681152344
y: 255.09188842773438
z: -0.0065931277349591255
","x: 291.924560546875
y: 253.32655334472656
z: -0.00804043747484684
","x: 289.5171203613281
y: 252.59518432617188
z: -0.005738351959735155
","x: 288.10015869140625
y: 251.61990356445312
z: -0.004117727745324373
","x: 292.6191711425781
y: 258.79498291015625
z: -0.00936493743211031
","x: 291.0650939941406
y: 257.24542236328125
z: -0.009425660595297813
","x: 289.3984680175781
y: 256.4175109863281
z: -0.007617072202265263
","x: 288.51904296875
y: 255.88951110839844
z: -0.0061676581390202045
",,,,,,,,,,,,,,,,,,,,,
15,"x: 316.4833068847656
y: 194.06854248046875
z: -0.2247404307126999
visibility: 0.9997298717498779
","x: 317.93060302734375
y: 186.7244110107422
z: -0.19724677503108978
visibility: 0.9990929365158081
","x: 318.63580322265625
y: 186.9328155517578
z: -0.19716382026672363
visibility: 0.9990057349205017
","x: 319.22894287109375
y: 187.1589813232422
z: -0.19717144966125488
visibility: 0.9989238381385803
","x: 315.0062561035156
y: 185.52484130859375
z: -0.2160344421863556
visibility: 0.9992852210998535
","x: 313.5481262207031
y: 184.86386108398438
z: -0.21603050827980042
visibility: 0.9993417859077454
","x: 312.04962158203125
y: 184.10891723632812
z: -0.21609151363372803
visibility: 0.9993152022361755
","x: 317.4747619628906
y: 189.4117431640625
z: -0.043789513409137726
visibility: 0.9972236156463623
","x: 306.77130126953125
y: 184.4711456298828
z: -0.132486030459404
visibility: 0.9987323880195618
","x: 316.01617431640625
y: 201.74093627929688
z: -0.1668187975883484
visibility: 0.9994887113571167
","x: 312.5501708984375
y: 200.5067596435547
z: -0.1927655190229416
visibility: 0.999652087688446
","x: 315.4215393066406
y: 234.78155517578125
z: 0.10986075550317764
visibility: 0.9995496273040771
","x: 287.9995422363281
y: 222.05526733398438
z: -0.12164396047592163
visibility: 0.999810516834259
","x: 320.151611328125
y: 286.60443115234375
z: 0.30762019753456116
visibility: 0.6925777196884155
","x: 268.6517028808594
y: 248.60806274414062
z: -0.3063099682331085
visibility: 0.9816179275512695
","x: 343.8633117675781
y: 268.7461242675781
z: 0.3925795257091522
visibility: 0.7655444145202637
","x: 285.1373291015625
y: 234.46014404296875
z: -0.49966326355934143
visibility: 0.9453127384185791
","x: 350.80828857421875
y: 264.3623046875
z: 0.42035549879074097
visibility: 0.7200692296028137
","x: 291.43597412109375
y: 230.75392150878906
z: -0.5350432991981506
visibility: 0.9029300212860107
","x: 351.7440490722656
y: 261.0473327636719
z: 0.3995966613292694
visibility: 0.7358879446983337
","x: 295.17388916015625
y: 226.96725463867188
z: -0.527266800403595
visibility: 0.9068804979324341
","x: 348.66937255859375
y: 262.56768798828125
z: 0.3867911994457245
visibility: 0.7251685261726379
","x: 294.1539306640625
y: 229.11317443847656
z: -0.49812713265419006
visibility: 0.8828310370445251
","x: 321.5106506347656
y: 345.8529968261719
z: 0.0666455328464508
visibility: 0.9992032647132874
","x: 300.45928955078125
y: 348.5209655761719
z: -0.06671986728906631
visibility: 0.9991399049758911
","x: 324.3049621582031
y: 426.3973693847656
z: 0.020084785297513008
visibility: 0.9790614247322083
","x: 301.068359375
y: 436.45880126953125
z: -0.03964855894446373
visibility: 0.9749749302864075
","x: 313.21563720703125
y: 504.0667724609375
z: 0.09043438732624054
visibility: 0.9739878177642822
","x: 300.2936706542969
y: 511.9294738769531
z: 0.10638091713190079
visibility: 0.9773444533348083
","x: 308.4610290527344
y: 517.1484985351562
z: 0.09222511202096939
visibility: 0.8752660751342773
","x: 299.0664978027344
y: 523.6213989257812
z: 0.11415626853704453
visibility: 0.823918879032135
","x: 325.7095947265625
y: 531.4708862304688
z: -0.016946425661444664
visibility: 0.9783312678337097
","x: 306.7088928222656
y: 535.158447265625
z: -0.008421842008829117
visibility: 0.9755064845085144
",,,,,,,,,,,,,,,,,,,,,,,,,,,,,,,,,,,,,,,,,,
16,"x: 320.6540222167969
y: 194.84661865234375
z: -0.1644178181886673
visibility: 0.9997528791427612
","x: 322.1429138183594
y: 187.62112426757812
z: -0.13967423141002655
visibility: 0.9991754293441772
","x: 322.8193664550781
y: 187.86180114746094
z: -0.13966622948646545
visibility: 0.999092161655426
","x: 323.40594482421875
y: 188.07650756835938
z: -0.13967186212539673
visibility: 0.9990187287330627
","x: 319.2382507324219
y: 185.83035278320312
z: -0.1606660932302475
visibility: 0.9993516802787781
","x: 317.8228759765625
y: 184.89202880859375
z: -0.16068923473358154
visibility: 0.9994019865989685
","x: 316.3556213378906
y: 184.29689025878906
z: -0.1607511341571808
visibility: 0.9993779063224792
","x: 321.1505432128906
y: 189.54495239257812
z: 0.0011770466808229685
visibility: 0.9974664449691772
","x: 311.27301025390625
y: 184.8162841796875
z: -0.0994422510266304
visibility: 0.9988527297973633
","x: 319.85498046875
y: 202.16061401367188
z: -0.11006716638803482
visibility: 0.9995232820510864
","x: 316.7624206542969
y: 200.5361328125
z: -0.1391468346118927
visibility: 0.9996790289878845
","x: 322.0755920410156
y: 235.56671142578125
z: 0.11635855585336685
visibility: 0.9995824694633484
","x: 291.84283447265625
y: 220.65147399902344
z: -0.0832652896642685
visibility: 0.9998243451118469
","x: 336.2150573730469
y: 280.7706298828125
z: 0.21084365248680115
visibility: 0.7012143135070801
","x: 270.33514404296875
y: 246.62393188476562
z: -0.2783142328262329
visibility: 0.9831891059875488
","x: 359.97491455078125
y: 279.220947265625
z: 0.1494145691394806
visibility: 0.7859072089195251
","x: 278.7215576171875
y: 253.00375366210938
z: -0.4600352346897125
visibility: 0.9504952430725098
","x: 366.6242370605469
y: 281.4345397949219
z: 0.1441303789615631
visibility: 0.7427650690078735
","x: 281.64453125
y: 258.0980224609375
z: -0.5033990144729614
visibility: 0.9118344187736511
","x: 366.8428649902344
y: 278.20965576171875
z: 0.11173716932535172
visibility: 0.7579566240310669
","x: 286.8456115722656
y: 254.82125854492188
z: -0.5044832229614258
visibility: 0.9153807163238525
","x: 363.9320373535156
y: 278.2356872558594
z: 0.13411453366279602
visibility: 0.7475273013114929
","x: 286.8882751464844
y: 253.4744110107422
z: -0.46394601464271545
visibility: 0.8931961059570312
","x: 323.32196044921875
y: 343.948974609375
z: 0.06567808985710144
visibility: 0.9992460012435913
","x: 302.0675964355469
y: 343.9064025878906
z: -0.06565901637077332
visibility: 0.9991772174835205
","x: 327.2197265625
y: 426.93109130859375
z: 0.009222681634128094
visibility: 0.9772535562515259
","x: 304.2589111328125
y: 435.4687194824219
z: -0.06111662834882736
visibility: 0.974970817565918
","x: 314.47845458984375
y: 507.8222961425781
z: 0.08111788332462311
visibility: 0.9725119471549988
","x: 300.7550964355469
y: 511.48699951171875
z: 0.05944780260324478
visibility: 0.9776896834373474
","x: 308.6920166015625
y: 520.5902709960938
z: 0.08462163060903549
visibility: 0.8820510506629944
","x: 299.3026123046875
y: 523.539306640625
z: 0.06416668742895126
visibility: 0.8292210102081299
","x: 326.10040283203125
y: 536.135986328125
z: -0.021120820194482803
visibility: 0.9778339266777039
","x: 306.6131591796875
y: 535.2874755859375
z: -0.05879906564950943
visibility: 0.9759960174560547
",,,,,,,,,,,,,,,,,,,,,,,,,,,,,,,,,,,,,,,,,,
17,"x: 325.1056213378906
y: 206.31646728515625
z: -0.32090315222740173
visibility: 0.9997761845588684
","x: 327.0811462402344
y: 198.677978515625
z: -0.3008417785167694
visibility: 0.9992538690567017
","x: 327.9458312988281
y: 198.72976684570312
z: -0.3008020520210266
visibility: 0.9991779327392578
","x: 328.7249450683594
y: 198.69520568847656
z: -0.3007851839065552
visibility: 0.9991113543510437
","x: 323.7166442871094
y: 196.90975952148438
z: -0.31738579273223877
visibility: 0.999413251876831
","x: 322.25958251953125
y: 195.64393615722656
z: -0.31745755672454834
visibility: 0.9994585514068604
","x: 320.70440673828125
y: 194.447998046875
z: -0.31748703122138977
visibility: 0.9994365572929382
","x: 327.1424865722656
y: 198.97012329101562
z: -0.15570756793022156
visibility: 0.997702956199646
","x: 316.1551208496094
y: 193.85398864746094
z: -0.2372320145368576
visibility: 0.9989629983901978
","x: 324.5727233886719
y: 213.155517578125
z: -0.26372113823890686
visibility: 0.9995673894882202
","x: 321.0136413574219
y: 211.6699981689453
z: -0.2873513698577881
visibility: 0.9997093081474304
","x: 331.72021484375
y: 244.1586456298828
z: -0.03333943337202072
visibility: 0.9996209740638733
","x: 294.7031555175781
y: 222.34373474121094
z: -0.14615654945373535
visibility: 0.999840259552002
","x: 346.1183776855469
y: 281.2769775390625
z: 0.007846830412745476
visibility: 0.7264304757118225
","x: 271.1070251464844
y: 259.584228515625
z: -0.24770000576972961
visibility: 0.9846754670143127
","x: 364.46905517578125
y: 306.4471740722656
z: -0.1506640762090683
visibility: 0.8052269220352173
","x: 275.30072021484375
y: 284.8396911621094
z: -0.41298431158065796
visibility: 0.95491623878479
","x: 369.47564697265625
y: 314.18438720703125
z: -0.1836802214384079
visibility: 0.7642085552215576
","x: 275.1849670410156
y: 301.23236083984375
z: -0.4544960558414459
visibility: 0.919218897819519
","x: 369.1472473144531
y: 314.0621337890625
z: -0.22355809807777405
visibility: 0.7786281704902649
","x: 279.60980224609375
y: 298.6531982421875
z: -0.4718320369720459
visibility: 0.9224838614463806
","x: 366.790283203125
y: 311.11328125
z: -0.17139489948749542
visibility: 0.76857590675354
","x: 280.6152648925781
y: 291.6056213378906
z: -0.42204195261001587
visibility: 0.9018433094024658
","x: 325.89532470703125
y: 348.5478515625
z: 0.05377846211194992
visibility: 0.9993034601211548
","x: 304.23577880859375
y: 346.66912841796875
z: -0.053806424140930176
visibility: 0.9992357492446899
","x: 327.86846923828125
y: 432.4786376953125
z: 0.0022488320246338844
visibility: 0.9780389070510864
","x: 306.5787353515625
y: 437.648681640625
z: -0.05215735360980034
visibility: 0.9765364527702332
","x: 315.1272277832031
y: 511.6370849609375
z: 0.10198943316936493
visibility: 0.97365802526474
","x: 302.26220703125
y: 511.417724609375
z: 0.1310497224330902
visibility: 0.9783384203910828
","x: 308.92962646484375
y: 523.9755859375
z: 0.09866121411323547
visibility: 0.8882966637611389
","x: 300.5002746582031
y: 523.26123046875
z: 0.14356866478919983
visibility: 0.8296982645988464
","x: 324.8093566894531
y: 539.8381958007812
z: -0.017328131943941116
visibility: 0.9788611531257629
","x: 307.54888916015625
y: 535.3590698242188
z: 0.02696997858583927
visibility: 0.9767166376113892
","x: 281.5780944824219
y: 280.83251953125
z: 0.0
","x: 278.0843200683594
y: 287.1644592285156
z: -9.593007416697219e-05
","x: 276.4532775878906
y: 294.61749267578125
z: -0.0016338342102244496
","x: 275.5357666015625
y: 299.1261901855469
z: -0.0040551237761974335
","x: 275.134033203125
y: 302.1844177246094
z: -0.006469498388469219
","x: 279.98675537109375
y: 304.6610107421875
z: -0.0011926855659112334
","x: 280.32696533203125
y: 313.4247131347656
z: -0.0049466718919575214
","x: 279.35052490234375
y: 318.009765625
z: -0.007375300861895084
","x: 278.2726135253906
y: 321.06768798828125
z: -0.008782298304140568
","x: 281.72686767578125
y: 303.22125244140625
z: -0.004086982924491167
","x: 282.2187194824219
y: 312.76483154296875
z: -0.00752739142626524
","x: 280.79833984375
y: 317.2463073730469
z: -0.009129001758992672
","x: 279.3088073730469
y: 319.90802001953125
z: -0.010120255872607231
","x: 283.1657409667969
y: 300.0794677734375
z: -0.007439522072672844
","x: 283.2441711425781
y: 308.61279296875
z: -0.010865549556910992
","x: 281.90191650390625
y: 313.1329345703125
z: -0.011962520889937878
","x: 280.5864562988281
y: 316.1091003417969
z: -0.012552996166050434
","x: 284.1543273925781
y: 295.1722412109375
z: -0.011021989397704601
","x: 283.8746643066406
y: 301.2154541015625
z: -0.013722068630158901
","x: 282.8665466308594
y: 304.6319885253906
z: -0.014413499273359776
","x: 281.73291015625
y: 306.9860534667969
z: -0.014780647121369839
",,,,,,,,,,,,,,,,,,,,,
18,"x: 325.1056213378906
y: 206.31646728515625
z: -0.32090315222740173
visibility: 0.9997761845588684
","x: 327.0811462402344
y: 198.677978515625
z: -0.3008417785167694
visibility: 0.9992538690567017
","x: 327.9458312988281
y: 198.72976684570312
z: -0.3008020520210266
visibility: 0.9991779327392578
","x: 328.7249450683594
y: 198.69520568847656
z: -0.3007851839065552
visibility: 0.9991113543510437
","x: 323.7166442871094
y: 196.90975952148438
z: -0.31738579273223877
visibility: 0.999413251876831
","x: 322.25958251953125
y: 195.64393615722656
z: -0.31745755672454834
visibility: 0.9994585514068604
","x: 320.70440673828125
y: 194.447998046875
z: -0.31748703122138977
visibility: 0.9994365572929382
","x: 327.1424865722656
y: 198.97012329101562
z: -0.15570756793022156
visibility: 0.997702956199646
","x: 316.1551208496094
y: 193.85398864746094
z: -0.2372320145368576
visibility: 0.9989629983901978
","x: 324.5727233886719
y: 213.155517578125
z: -0.26372113823890686
visibility: 0.9995673894882202
","x: 321.0136413574219
y: 211.6699981689453
z: -0.2873513698577881
visibility: 0.9997093081474304
","x: 331.72021484375
y: 244.1586456298828
z: -0.03333943337202072
visibility: 0.9996209740638733
","x: 294.7031555175781
y: 222.34373474121094
z: -0.14615654945373535
visibility: 0.999840259552002
","x: 346.1183776855469
y: 281.2769775390625
z: 0.007846830412745476
visibility: 0.7264304757118225
","x: 271.1070251464844
y: 259.584228515625
z: -0.24770000576972961
visibility: 0.9846754670143127
","x: 364.46905517578125
y: 306.4471740722656
z: -0.1506640762090683
visibility: 0.8052269220352173
","x: 275.30072021484375
y: 284.8396911621094
z: -0.41298431158065796
visibility: 0.95491623878479
","x: 369.47564697265625
y: 314.18438720703125
z: -0.1836802214384079
visibility: 0.7642085552215576
","x: 275.1849670410156
y: 301.23236083984375
z: -0.4544960558414459
visibility: 0.919218897819519
","x: 369.1472473144531
y: 314.0621337890625
z: -0.22355809807777405
visibility: 0.7786281704902649
","x: 279.60980224609375
y: 298.6531982421875
z: -0.4718320369720459
visibility: 0.9224838614463806
","x: 366.790283203125
y: 311.11328125
z: -0.17139489948749542
visibility: 0.76857590675354
","x: 280.6152648925781
y: 291.6056213378906
z: -0.42204195261001587
visibility: 0.9018433094024658
","x: 325.89532470703125
y: 348.5478515625
z: 0.05377846211194992
visibility: 0.9993034601211548
","x: 304.23577880859375
y: 346.66912841796875
z: -0.053806424140930176
visibility: 0.9992357492446899
","x: 327.86846923828125
y: 432.4786376953125
z: 0.0022488320246338844
visibility: 0.9780389070510864
","x: 306.5787353515625
y: 437.648681640625
z: -0.05215735360980034
visibility: 0.9765364527702332
","x: 315.1272277832031
y: 511.6370849609375
z: 0.10198943316936493
visibility: 0.97365802526474
","x: 302.26220703125
y: 511.417724609375
z: 0.1310497224330902
visibility: 0.9783384203910828
","x: 308.92962646484375
y: 523.9755859375
z: 0.09866121411323547
visibility: 0.8882966637611389
","x: 300.5002746582031
y: 523.26123046875
z: 0.14356866478919983
visibility: 0.8296982645988464
","x: 324.8093566894531
y: 539.8381958007812
z: -0.017328131943941116
visibility: 0.9788611531257629
","x: 307.54888916015625
y: 535.3590698242188
z: 0.02696997858583927
visibility: 0.9767166376113892
","x: 281.5780944824219
y: 280.83251953125
z: 0.0
","x: 278.0843200683594
y: 287.1644592285156
z: -9.593007416697219e-05
","x: 276.4532775878906
y: 294.61749267578125
z: -0.0016338342102244496
","x: 275.5357666015625
y: 299.1261901855469
z: -0.0040551237761974335
","x: 275.134033203125
y: 302.1844177246094
z: -0.006469498388469219
","x: 279.98675537109375
y: 304.6610107421875
z: -0.0011926855659112334
","x: 280.32696533203125
y: 313.4247131347656
z: -0.0049466718919575214
","x: 279.35052490234375
y: 318.009765625
z: -0.007375300861895084
","x: 278.2726135253906
y: 321.06768798828125
z: -0.008782298304140568
","x: 281.72686767578125
y: 303.22125244140625
z: -0.004086982924491167
","x: 282.2187194824219
y: 312.76483154296875
z: -0.00752739142626524
","x: 280.79833984375
y: 317.2463073730469
z: -0.009129001758992672
","x: 279.3088073730469
y: 319.90802001953125
z: -0.010120255872607231
","x: 283.1657409667969
y: 300.0794677734375
z: -0.007439522072672844
","x: 283.2441711425781
y: 308.61279296875
z: -0.010865549556910992
","x: 281.90191650390625
y: 313.1329345703125
z: -0.011962520889937878
","x: 280.5864562988281
y: 316.1091003417969
z: -0.012552996166050434
","x: 284.1543273925781
y: 295.1722412109375
z: -0.011021989397704601
","x: 283.8746643066406
y: 301.2154541015625
z: -0.013722068630158901
","x: 282.8665466308594
y: 304.6319885253906
z: -0.014413499273359776
","x: 281.73291015625
y: 306.9860534667969
z: -0.014780647121369839
",,,,,,,,,,,,,,,,,,,,,
19,"x: 329.8970947265625
y: 217.42189025878906
z: -0.4587903916835785
visibility: 0.9997935891151428
","x: 331.9347839355469
y: 208.73741149902344
z: -0.43879151344299316
visibility: 0.9993138909339905
","x: 332.7409362792969
y: 208.68507385253906
z: -0.4387916624546051
visibility: 0.9992450475692749
","x: 333.4404602050781
y: 208.53729248046875
z: -0.4388211667537689
visibility: 0.9991835355758667
","x: 328.7489929199219
y: 207.31365966796875
z: -0.4563705325126648
visibility: 0.9994580149650574
","x: 327.22760009765625
y: 206.1778106689453
z: -0.4564805030822754
visibility: 0.9994999766349792
","x: 325.5002746582031
y: 204.8973388671875
z: -0.4565122723579407
visibility: 0.9994763731956482
","x: 330.8946533203125
y: 207.1204376220703
z: -0.29038161039352417
visibility: 0.9978922605514526
","x: 319.55731201171875
y: 202.49769592285156
z: -0.3760278820991516
visibility: 0.9990447759628296
","x: 329.0599060058594
y: 223.90077209472656
z: -0.40004628896713257
visibility: 0.9996001720428467
","x: 325.07867431640625
y: 222.47430419921875
z: -0.42493852972984314
visibility: 0.9997314810752869
","x: 337.78643798828125
y: 250.8052978515625
z: -0.16811105608940125
visibility: 0.9996558427810669
","x: 296.1422119140625
y: 236.8929901123047
z: -0.2830960154533386
visibility: 0.999850869178772
","x: 349.67279052734375
y: 297.34063720703125
z: -0.14845678210258484
visibility: 0.7522994875907898
","x: 276.5499572753906
y: 284.07415771484375
z: -0.3473939895629883
visibility: 0.9855403304100037
","x: 363.8216857910156
y: 338.3742980957031
z: -0.2996048927307129
visibility: 0.8235324621200562
","x: 271.71600341796875
y: 321.76824951171875
z: -0.527092695236206
visibility: 0.9577721953392029
","x: 368.1136779785156
y: 354.7901916503906
z: -0.33559074997901917
visibility: 0.7849416136741638
","x: 268.8860778808594
y: 337.88702392578125
z: -0.5733579397201538
visibility: 0.9241594076156616
","x: 367.3590087890625
y: 354.6352844238281
z: -0.37188392877578735
visibility: 0.7983120679855347
","x: 271.3153381347656
y: 337.15869140625
z: -0.603178858757019
visibility: 0.9273607134819031
","x: 365.4296875
y: 349.79364013671875
z: -0.3187256455421448
visibility: 0.788766086101532
","x: 273.6134033203125
y: 330.52593994140625
z: -0.5431799292564392
visibility: 0.9075362682342529
","x: 327.2798156738281
y: 358.42449951171875
z: 0.04975529760122299
visibility: 0.9993287324905396
","x: 304.5523681640625
y: 354.78839111328125
z: -0.04979534447193146
visibility: 0.9992532730102539
","x: 329.1333312988281
y: 435.5712585449219
z: 0.018117893487215042
visibility: 0.9776419401168823
","x: 307.40838623046875
y: 437.6676940917969
z: -0.0893610343337059
visibility: 0.9775968194007874
","x: 316.28009033203125
y: 513.2078857421875
z: 0.16700993478298187
visibility: 0.9737931489944458
","x: 304.4020690917969
y: 513.3929443359375
z: 0.059356220066547394
visibility: 0.9789913296699524
","x: 309.6885986328125
y: 525.53125
z: 0.17318645119667053
visibility: 0.8913094997406006
","x: 302.6761474609375
y: 526.814453125
z: 0.06550315022468567
visibility: 0.8291369080543518
","x: 325.9822692871094
y: 539.856201171875
z: 0.05023394897580147
visibility: 0.9789210557937622
","x: 310.7033996582031
y: 535.4935302734375
z: -0.08006837218999863
visibility: 0.9773494601249695
",,,,,,,,,,,,,,,,,,,,,,,,,,,,,,,,,,,,,,,,,,
20,"x: 330.9088134765625
y: 220.07302856445312
z: -0.508672833442688
visibility: 0.9998123645782471
","x: 333.4602355957031
y: 212.3035430908203
z: -0.48692846298217773
visibility: 0.9993768334388733
","x: 334.5168151855469
y: 212.49639892578125
z: -0.4869542121887207
visibility: 0.9993149042129517
","x: 335.5624084472656
y: 212.64031982421875
z: -0.48702263832092285
visibility: 0.9992587566375732
","x: 329.66943359375
y: 210.70748901367188
z: -0.494398832321167
visibility: 0.9995055198669434
","x: 328.1021423339844
y: 209.75375366210938
z: -0.4945085048675537
visibility: 0.9995437264442444
","x: 326.3430480957031
y: 208.57383728027344
z: -0.49452680349349976
visibility: 0.9995212554931641
","x: 335.0810546875
y: 212.94668579101562
z: -0.34062549471855164
visibility: 0.9980893135070801
","x: 321.885498046875
y: 207.11036682128906
z: -0.3794325590133667
visibility: 0.9991303086280823
","x: 331.06036376953125
y: 227.34548950195312
z: -0.45250368118286133
visibility: 0.9996364712715149
","x: 326.4176330566406
y: 225.57066345214844
z: -0.4637937545776367
visibility: 0.9997559189796448
","x: 342.3919372558594
y: 260.694580078125
z: -0.22635090351104736
visibility: 0.9996867775917053
","x: 299.3940124511719
y: 244.71527099609375
z: -0.27593767642974854
visibility: 0.999862790107727
","x: 352.60089111328125
y: 314.4720764160156
z: -0.22637851536273956
visibility: 0.7749536037445068
","x: 282.904541015625
y: 297.8262634277344
z: -0.3030295968055725
visibility: 0.9863174557685852
","x: 364.024169921875
y: 361.0083312988281
z: -0.36889711022377014
visibility: 0.8380955457687378
","x: 272.2094421386719
y: 341.4621276855469
z: -0.4486989974975586
visibility: 0.959345281124115
","x: 366.9077453613281
y: 375.677490234375
z: -0.40611347556114197
visibility: 0.8003847002983093
","x: 268.381103515625
y: 357.6183776855469
z: -0.48867782950401306
visibility: 0.9267038702964783
","x: 365.8891906738281
y: 376.4554138183594
z: -0.4379941523075104
visibility: 0.8128256797790527
","x: 270.4747009277344
y: 358.5072021484375
z: -0.5158783197402954
visibility: 0.9299950003623962
","x: 364.2294616699219
y: 370.91790771484375
z: -0.3858168423175812
visibility: 0.802866518497467
","x: 272.86224365234375
y: 353.4554443359375
z: -0.46233439445495605
visibility: 0.9108624458312988
","x: 328.5694274902344
y: 361.7706604003906
z: 0.0333729013800621
visibility: 0.9993774890899658
","x: 304.84466552734375
y: 356.8115539550781
z: -0.03335469216108322
visibility: 0.9993023872375488
","x: 331.4010009765625
y: 435.3027038574219
z: -0.14186106622219086
visibility: 0.9773069024085999
","x: 308.4784240722656
y: 434.5768737792969
z: -0.20521721243858337
visibility: 0.9790124297142029
","x: 318.7323913574219
y: 514.5455322265625
z: 0.019404124468564987
visibility: 0.9739224314689636
","x: 307.89898681640625
y: 517.04541015625
z: -0.05779378488659859
visibility: 0.9796693325042725
","x: 313.2199401855469
y: 526.11962890625
z: 0.027441198006272316
visibility: 0.893893837928772
","x: 306.3374938964844
y: 530.743896484375
z: -0.052135974168777466
visibility: 0.8308831453323364
","x: 327.12774658203125
y: 539.872314453125
z: -0.10910242795944214
visibility: 0.9787448048591614
","x: 316.9288330078125
y: 537.341064453125
z: -0.2075076848268509
visibility: 0.977703332901001
",,,,,,,,,,,,,,,,,,,,,,,,,,,,,,,,,,,,,,,,,,
21,"x: 334.8149719238281
y: 227.13792419433594
z: -0.4279620051383972
visibility: 0.9998286366462708
","x: 337.1343078613281
y: 219.3541717529297
z: -0.4069734215736389
visibility: 0.9994310736656189
","x: 338.06842041015625
y: 219.66795349121094
z: -0.40700650215148926
visibility: 0.9993740320205688
","x: 338.9378967285156
y: 219.98948669433594
z: -0.40705710649490356
visibility: 0.9993236064910889
","x: 333.3434753417969
y: 217.73455810546875
z: -0.4191768765449524
visibility: 0.9995496273040771
","x: 331.61798095703125
y: 216.91317749023438
z: -0.4192740321159363
visibility: 0.9995839595794678
","x: 329.8224182128906
y: 215.99488830566406
z: -0.41931238770484924
visibility: 0.9995642304420471
","x: 338.2391052246094
y: 221.22621154785156
z: -0.27506110072135925
visibility: 0.9982551336288452
","x: 325.4167785644531
y: 214.99009704589844
z: -0.3330381512641907
visibility: 0.9992102384567261
","x: 335.0106201171875
y: 234.6483154296875
z: -0.3769873380661011
visibility: 0.9996674060821533
","x: 330.4388122558594
y: 233.07115173339844
z: -0.39388802647590637
visibility: 0.9997780323028564
","x: 344.42425537109375
y: 270.0975646972656
z: -0.1651410162448883
visibility: 0.9997084140777588
","x: 302.6832275390625
y: 253.23977661132812
z: -0.2579241991043091
visibility: 0.9998754262924194
","x: 352.32159423828125
y: 326.08868408203125
z: -0.12212415784597397
visibility: 0.7955608367919922
","x: 287.233642578125
y: 307.54290771484375
z: -0.2639163136482239
visibility: 0.9875521659851074
","x: 362.2885437011719
y: 374.8439025878906
z: -0.21100902557373047
visibility: 0.8508226275444031
","x: 272.4056091308594
y: 358.6950988769531
z: -0.3325994908809662
visibility: 0.9626502990722656
","x: 364.6092224121094
y: 389.4619445800781
z: -0.23699426651000977
visibility: 0.8128560781478882
","x: 271.73614501953125
y: 374.2921447753906
z: -0.362383097410202
visibility: 0.9320783615112305
","x: 363.4278869628906
y: 390.734130859375
z: -0.2680501341819763
visibility: 0.8245486617088318
","x: 274.14105224609375
y: 376.7434997558594
z: -0.3960217833518982
visibility: 0.935114324092865
","x: 362.04693603515625
y: 385.23846435546875
z: -0.2269081324338913
visibility: 0.8145590424537659
","x: 275.7685546875
y: 371.46551513671875
z: -0.34758153557777405
visibility: 0.9172663688659668
","x: 328.70452880859375
y: 366.6090087890625
z: 0.034962862730026245
visibility: 0.9993726015090942
","x: 305.89947509765625
y: 362.0174560546875
z: -0.03495782986283302
visibility: 0.9993433952331543
","x: 331.9056091308594
y: 437.302734375
z: -0.0898359939455986
visibility: 0.9738829135894775
","x: 310.1204833984375
y: 434.7900695800781
z: -0.21973052620887756
visibility: 0.9795803427696228
","x: 319.86932373046875
y: 513.9947509765625
z: -0.013173431158065796
visibility: 0.9690122008323669
","x: 315.176025390625
y: 522.9083251953125
z: -0.1939663141965866
visibility: 0.9785663485527039
","x: 315.0388488769531
y: 525.737060546875
z: -0.012715416960418224
visibility: 0.8921195864677429
","x: 314.6600036621094
y: 538.9631958007812
z: -0.20046722888946533
visibility: 0.8367636203765869
","x: 327.3023986816406
y: 535.804931640625
z: -0.11974625289440155
visibility: 0.9759446382522583
","x: 321.8472900390625
y: 537.1187133789062
z: -0.33799535036087036
visibility: 0.977383017539978
",,,,,,,,,,,,,,,,,,,,,,,,,,,,,,,,,,,,,,,,,,
22,"x: 336.52484130859375
y: 233.0506591796875
z: -0.4355367124080658
visibility: 0.9998438954353333
","x: 338.7098693847656
y: 225.48654174804688
z: -0.41180619597435
visibility: 0.9994847178459167
","x: 339.6114807128906
y: 225.72203063964844
z: -0.41182851791381836
visibility: 0.9994314908981323
","x: 340.44671630859375
y: 225.9364013671875
z: -0.4118754267692566
visibility: 0.9993876218795776
","x: 335.08392333984375
y: 224.11354064941406
z: -0.42479386925697327
visibility: 0.9995925426483154
","x: 333.3870849609375
y: 223.316162109375
z: -0.4248977303504944
visibility: 0.9996225833892822
","x: 331.6075134277344
y: 222.3995819091797
z: -0.42496299743652344
visibility: 0.9996058344841003
","x: 339.6326599121094
y: 226.55291748046875
z: -0.27329736948013306
visibility: 0.998417317867279
","x: 327.4445495605469
y: 221.26443481445312
z: -0.33603841066360474
visibility: 0.9992849230766296
","x: 336.41119384765625
y: 240.53814697265625
z: -0.38277897238731384
visibility: 0.9996975064277649
","x: 332.0054016113281
y: 239.06820678710938
z: -0.4010190963745117
visibility: 0.999798595905304
","x: 345.231689453125
y: 277.673583984375
z: -0.15709736943244934
visibility: 0.9997259974479675
","x: 304.0511169433594
y: 259.7585144042969
z: -0.26413100957870483
visibility: 0.9998862743377686
","x: 352.7507629394531
y: 336.4756774902344
z: -0.10701726377010345
visibility: 0.8118579983711243
","x: 289.4615173339844
y: 315.8999938964844
z: -0.2707943618297577
visibility: 0.988540530204773
","x: 360.86688232421875
y: 389.2779846191406
z: -0.18664492666721344
visibility: 0.8584304451942444
","x: 277.71417236328125
y: 368.4461669921875
z: -0.3427883982658386
visibility: 0.9651471972465515
","x: 362.9916687011719
y: 403.7437744140625
z: -0.20926253497600555
visibility: 0.8157925009727478
","x: 273.11309814453125
y: 385.1763610839844
z: -0.37223637104034424
visibility: 0.9357545971870422
","x: 361.7490234375
y: 404.9879150390625
z: -0.2416621744632721
visibility: 0.8272944688796997
","x: 276.12451171875
y: 387.8476257324219
z: -0.40168604254722595
visibility: 0.9385750889778137
","x: 360.2383117675781
y: 399.3965148925781
z: -0.2024276703596115
visibility: 0.8155593872070312
","x: 278.4250793457031
y: 382.56610107421875
z: -0.3556528389453888
visibility: 0.9210323095321655
","x: 329.1307067871094
y: 370.0928039550781
z: 0.03654269501566887
visibility: 0.9994198679924011
","x: 306.3930358886719
y: 365.75396728515625
z: -0.03651758283376694
visibility: 0.9993850588798523
","x: 332.8544006347656
y: 436.76519775390625
z: -0.2802051603794098
visibility: 0.9676892161369324
","x: 310.7974853515625
y: 433.06024169921875
z: -0.18237946927547455
visibility: 0.9750480055809021
","x: 322.1763000488281
y: 513.5843505859375
z: -0.3116922378540039
visibility: 0.957246720790863
","x: 319.4162292480469
y: 520.259033203125
z: -0.13475832343101501
visibility: 0.9688047766685486
","x: 317.9380798339844
y: 526.445068359375
z: -0.321313738822937
visibility: 0.8890098929405212
","x: 320.0953369140625
y: 535.8306274414062
z: -0.1395215094089508
visibility: 0.8189582228660583
","x: 328.2383728027344
y: 526.6935424804688
z: -0.46980467438697815
visibility: 0.9724704027175903
","x: 323.0896301269531
y: 527.983154296875
z: -0.28405243158340454
visibility: 0.9679047465324402
",,,,,,,,,,,,,,,,,,,,,,,,,,,,,,,,,,,,,,,,,,
23,"x: 336.8538818359375
y: 234.7813720703125
z: -0.4539434313774109
visibility: 0.999858558177948
","x: 339.50537109375
y: 227.36370849609375
z: -0.4300214648246765
visibility: 0.9995349049568176
","x: 340.5169982910156
y: 227.69921875
z: -0.4301246106624603
visibility: 0.9994862079620361
","x: 341.3951721191406
y: 228.03038024902344
z: -0.4302639365196228
visibility: 0.9994475245475769
","x: 335.4588317871094
y: 225.2930908203125
z: -0.4406593441963196
visibility: 0.9996321797370911
","x: 333.73565673828125
y: 224.19927978515625
z: -0.4407402575016022
visibility: 0.9996588826179504
","x: 332.0055236816406
y: 223.12986755371094
z: -0.44078749418258667
visibility: 0.99964439868927
","x: 340.6766052246094
y: 228.69932556152344
z: -0.2884010374546051
visibility: 0.9985690116882324
","x: 327.911376953125
y: 222.19805908203125
z: -0.3398568332195282
visibility: 0.9993550181388855
","x: 336.8536071777344
y: 241.69309997558594
z: -0.3994182050228119
visibility: 0.9997261166572571
","x: 332.263916015625
y: 239.88107299804688
z: -0.414405882358551
visibility: 0.9998180866241455
","x: 345.9960632324219
y: 278.6759338378906
z: -0.1778765320777893
visibility: 0.9997484683990479
","x: 304.43402099609375
y: 261.0068664550781
z: -0.24681356549263
visibility: 0.9998963475227356
","x: 351.3824157714844
y: 336.58135986328125
z: -0.14491026103496552
visibility: 0.8261606693267822
","x: 291.1597595214844
y: 317.06353759765625
z: -0.23619303107261658
visibility: 0.9879332780838013
","x: 359.7866516113281
y: 391.85595703125
z: -0.22973449528217316
visibility: 0.8597992658615112
","x: 281.7339172363281
y: 371.6048889160156
z: -0.3159236013889313
visibility: 0.9602846503257751
","x: 361.62908935546875
y: 406.94500732421875
z: -0.25720423460006714
visibility: 0.8123961687088013
","x: 277.40362548828125
y: 388.81597900390625
z: -0.3475353717803955
visibility: 0.9276449084281921
","x: 358.6190490722656
y: 407.92974853515625
z: -0.28645026683807373
visibility: 0.8233335018157959
","x: 279.7525634765625
y: 390.9879150390625
z: -0.3805786967277527
visibility: 0.9310904741287231
","x: 357.30389404296875
y: 401.78973388671875
z: -0.24413397908210754
visibility: 0.8083752393722534
","x: 281.99395751953125
y: 385.55377197265625
z: -0.3303059935569763
visibility: 0.9126548171043396
","x: 329.99102783203125
y: 367.9762268066406
z: 0.024963263422250748
visibility: 0.999458372592926
","x: 306.9326477050781
y: 363.82635498046875
z: -0.02490749955177307
visibility: 0.9994383454322815
","x: 333.72406005859375
y: 438.49493408203125
z: -0.1648598164319992
visibility: 0.9615054726600647
","x: 311.1123352050781
y: 409.592529296875
z: -0.39758622646331787
visibility: 0.9749781489372253
","x: 321.2080993652344
y: 513.3377685546875
z: -0.13589340448379517
visibility: 0.9534666538238525
","x: 324.8951721191406
y: 507.60272216796875
z: -0.4326260983943939
visibility: 0.9651398658752441
","x: 316.0587463378906
y: 525.7696533203125
z: -0.14197570085525513
visibility: 0.8796426057815552
","x: 326.9588928222656
y: 521.0244140625
z: -0.44364437460899353
visibility: 0.8187662363052368
","x: 326.1625061035156
y: 527.1925048828125
z: -0.28414368629455566
visibility: 0.9688049554824829
","x: 334.31451416015625
y: 520.0160522460938
z: -0.5939527750015259
visibility: 0.9673360586166382
",,,,,,,,,,,,,,,,,,,,,,,,,,,,,,,,,,,,,,,,,,
24,"x: 335.0469055175781
y: 229.71987915039062
z: -0.4675467610359192
visibility: 0.999868631362915
","x: 337.9182434082031
y: 222.51507568359375
z: -0.44604840874671936
visibility: 0.9995737075805664
","x: 339.0737609863281
y: 222.95936584472656
z: -0.44615569710731506
visibility: 0.9995279312133789
","x: 340.1534729003906
y: 223.45315551757812
z: -0.44632014632225037
visibility: 0.9994949698448181
","x: 333.9007873535156
y: 220.4337921142578
z: -0.4482945501804352
visibility: 0.9996611475944519
","x: 332.2669982910156
y: 219.3840789794922
z: -0.44839105010032654
visibility: 0.9996833801269531
","x: 330.613525390625
y: 218.37124633789062
z: -0.4484269618988037
visibility: 0.9996732473373413
","x: 340.3565368652344
y: 225.26406860351562
z: -0.3117028772830963
visibility: 0.9986769556999207
","x: 326.67486572265625
y: 218.50640869140625
z: -0.32543063163757324
visibility: 0.999410092830658
","x: 335.3917541503906
y: 237.11944580078125
z: -0.4154730439186096
visibility: 0.9997461438179016
","x: 330.87255859375
y: 235.2069854736328
z: -0.41907206177711487
visibility: 0.9998329877853394
","x: 346.7750549316406
y: 275.4344482421875
z: -0.2108483761548996
visibility: 0.99977046251297
","x: 304.81207275390625
y: 257.78619384765625
z: -0.2077866494655609
visibility: 0.9999046921730042
","x: 349.41644287109375
y: 331.53985595703125
z: -0.18822892010211945
visibility: 0.8398907780647278
","x: 291.90496826171875
y: 311.008056640625
z: -0.13194386661052704
visibility: 0.9842875599861145
","x: 348.6806335449219
y: 378.8856506347656
z: -0.2736440598964691
visibility: 0.865106999874115
","x: 283.39593505859375
y: 360.1673583984375
z: -0.17932625114917755
visibility: 0.9512110352516174
","x: 349.3348388671875
y: 394.92724609375
z: -0.3010188937187195
visibility: 0.8160992860794067
","x: 279.5250549316406
y: 375.5809326171875
z: -0.2017299234867096
visibility: 0.9149638414382935
","x: 347.5610656738281
y: 395.0348205566406
z: -0.32958728075027466
visibility: 0.8263479471206665
","x: 282.44012451171875
y: 378.0493469238281
z: -0.23646917939186096
visibility: 0.9200964570045471
","x: 346.3501892089844
y: 388.7041015625
z: -0.2865559458732605
visibility: 0.8078227639198303
","x: 284.0732727050781
y: 373.083984375
z: -0.19354452192783356
visibility: 0.902000904083252
","x: 330.1142578125
y: 363.0065612792969
z: 0.006590806879103184
visibility: 0.9994946718215942
","x: 307.0960693359375
y: 354.1627197265625
z: -0.006346421781927347
visibility: 0.9994899034500122
","x: 332.64923095703125
y: 438.4583740234375
z: -0.06174919754266739
visibility: 0.9522904753684998
","x: 315.7616271972656
y: 376.944580078125
z: -0.37794822454452515
visibility: 0.9732948541641235
","x: 320.69342041015625
y: 513.111572265625
z: 0.05366105958819389
visibility: 0.952164351940155
","x: 330.98284912109375
y: 467.80224609375
z: -0.3310372531414032
visibility: 0.9609619975090027
","x: 314.9927978515625
y: 525.7728271484375
z: 0.05623079463839531
visibility: 0.8654746413230896
","x: 333.76025390625
y: 478.91864013671875
z: -0.3321763873100281
visibility: 0.8127453923225403
","x: 326.7744140625
y: 530.6342163085938
z: -0.08718757331371307
visibility: 0.9625172019004822
","x: 334.07403564453125
y: 487.9257507324219
z: -0.481178343296051
visibility: 0.9658931493759155
",,,,,,,,,,,,,,,,,,,,,,,,,,,,,,,,,,,,,,,,,,
25,"x: 334.10699462890625
y: 227.25494384765625
z: -0.3828555941581726
visibility: 0.9998756647109985
","x: 336.2467041015625
y: 219.64891052246094
z: -0.36385542154312134
visibility: 0.9996098279953003
","x: 337.33489990234375
y: 220.06253051757812
z: -0.36407724022865295
visibility: 0.9995686411857605
","x: 338.4189453125
y: 220.54238891601562
z: -0.3642871677875519
visibility: 0.9995397329330444
","x: 332.4492492675781
y: 217.70570373535156
z: -0.36061039566993713
visibility: 0.9996872544288635
","x: 330.82025146484375
y: 216.7031707763672
z: -0.3606501817703247
visibility: 0.9997062683105469
","x: 329.1438903808594
y: 215.71128845214844
z: -0.36063283681869507
visibility: 0.9996994137763977
","x: 338.9239501953125
y: 222.5489959716797
z: -0.23592448234558105
visibility: 0.9987815618515015
","x: 324.9154357910156
y: 215.82449340820312
z: -0.22604981064796448
visibility: 0.9994601011276245
","x: 333.8942565917969
y: 235.116455078125
z: -0.3317040205001831
visibility: 0.9997606873512268
","x: 329.6459655761719
y: 232.93043518066406
z: -0.3279835283756256
visibility: 0.9998437762260437
","x: 345.5525817871094
y: 271.59161376953125
z: -0.17277750372886658
visibility: 0.9997844099998474
","x: 303.5289611816406
y: 255.09478759765625
z: -0.09573085606098175
visibility: 0.9999062418937683
","x: 349.3045654296875
y: 328.6986083984375
z: -0.13300549983978271
visibility: 0.8496389389038086
","x: 291.16217041015625
y: 307.304931640625
z: 0.017765847966074944
visibility: 0.9778833389282227
","x: 341.7718505859375
y: 374.5654602050781
z: -0.23508699238300323
visibility: 0.8525679111480713
","x: 283.72015380859375
y: 355.09515380859375
z: -0.015923108905553818
visibility: 0.9278891086578369
","x: 344.0133056640625
y: 389.9684143066406
z: -0.25939714908599854
visibility: 0.8039768934249878
","x: 279.7556457519531
y: 370.42535400390625
z: -0.026690592989325523
visibility: 0.8935918211936951
","x: 342.57012939453125
y: 387.51666259765625
z: -0.2873404622077942
visibility: 0.8127917051315308
","x: 282.4862060546875
y: 372.7647705078125
z: -0.06497887521982193
visibility: 0.9006352424621582
","x: 340.3689880371094
y: 381.6551513671875
z: -0.2477998435497284
visibility: 0.7916545867919922
","x: 284.0691833496094
y: 367.69293212890625
z: -0.0302085243165493
visibility: 0.8844520449638367
","x: 329.6295471191406
y: 359.7439270019531
z: 0.0011874837800860405
visibility: 0.9995123744010925
","x: 306.61224365234375
y: 350.0482177734375
z: -0.0008873174083419144
visibility: 0.9995248317718506
","x: 333.2041320800781
y: 431.43841552734375
z: -0.04051046818494797
visibility: 0.9542098045349121
","x: 321.5199890136719
y: 349.9450988769531
z: -0.4130679666996002
visibility: 0.974285364151001
","x: 320.5718688964844
y: 512.9566650390625
z: -0.020052116364240646
visibility: 0.9547208547592163
","x: 334.4068908691406
y: 425.162109375
z: -0.5450311899185181
visibility: 0.9546777606010437
","x: 313.68011474609375
y: 526.357666015625
z: -0.028483906760811806
visibility: 0.8715463876724243
","x: 335.3335876464844
y: 447.423583984375
z: -0.5624956488609314
visibility: 0.8246985077857971
","x: 327.5780334472656
y: 533.7049560546875
z: -0.12999656796455383
visibility: 0.9638286828994751
","x: 346.0577697753906
y: 428.10247802734375
z: -0.6709176898002625
visibility: 0.9678822755813599
",,,,,,,,,,,,,,,,,,,,,,,,,,,,,,,,,,,,,,,,,,
26,"x: 334.0037841796875
y: 226.99734497070312
z: -0.33969077467918396
visibility: 0.9998776912689209
","x: 335.4224548339844
y: 218.67068481445312
z: -0.3184664845466614
visibility: 0.9996367692947388
","x: 336.4759216308594
y: 219.41827392578125
z: -0.3186209797859192
visibility: 0.9995951056480408
","x: 337.57147216796875
y: 220.336669921875
z: -0.31877297163009644
visibility: 0.999573290348053
","x: 331.7933044433594
y: 216.40008544921875
z: -0.3187285363674164
visibility: 0.9997077584266663
","x: 330.2154235839844
y: 215.407470703125
z: -0.31879979372024536
visibility: 0.999722421169281
","x: 328.5599060058594
y: 214.62420654296875
z: -0.3188369572162628
visibility: 0.9997221827507019
","x: 338.36590576171875
y: 220.97801208496094
z: -0.18907468020915985
visibility: 0.9988414645195007
","x: 324.0465087890625
y: 215.3080596923828
z: -0.19108667969703674
visibility: 0.9995036125183105
","x: 333.1405029296875
y: 234.13450622558594
z: -0.2888485789299011
visibility: 0.9997624754905701
","x: 329.1712646484375
y: 232.54258728027344
z: -0.28948888182640076
visibility: 0.9998511075973511
","x: 345.1873474121094
y: 269.6367492675781
z: -0.0907127633690834
visibility: 0.9997687935829163
","x: 303.16064453125
y: 254.41925048828125
z: -0.08522336184978485
visibility: 0.9999087452888489
","x: 347.6243896484375
y: 325.7593994140625
z: -0.050090156495571136
visibility: 0.8250788450241089
","x: 291.4725341796875
y: 305.5308837890625
z: 0.0043677669018507
visibility: 0.9644690155982971
","x: 340.796630859375
y: 368.65948486328125
z: -0.10712374746799469
visibility: 0.7835896015167236
","x: 284.8912048339844
y: 355.39111328125
z: -0.02910277619957924
visibility: 0.8854553699493408
","x: 342.2748718261719
y: 383.1009521484375
z: -0.12127692997455597
visibility: 0.7396351099014282
","x: 281.58135986328125
y: 371.12725830078125
z: -0.04192763939499855
visibility: 0.8519152998924255
","x: 341.97125244140625
y: 381.58831787109375
z: -0.1475525051355362
visibility: 0.7472675442695618
","x: 284.13824462890625
y: 373.44134521484375
z: -0.07583026587963104
visibility: 0.861007809638977
","x: 340.07110595703125
y: 376.74200439453125
z: -0.11847585439682007
visibility: 0.7279888391494751
","x: 285.5469970703125
y: 368.20318603515625
z: -0.041974835097789764
visibility: 0.848540186882019
","x: 329.3529357910156
y: 355.94403076171875
z: 0.007922390475869179
visibility: 0.9995312690734863
","x: 306.9317932128906
y: 347.9579162597656
z: -0.007634996436536312
visibility: 0.9995563626289368
","x: 333.399658203125
y: 427.947021484375
z: -0.058079641312360764
visibility: 0.9493622183799744
","x: 322.2255859375
y: 345.8568115234375
z: -0.3973027765750885
visibility: 0.9723695516586304
","x: 320.186279296875
y: 512.8087158203125
z: -0.05344877764582634
visibility: 0.9524761438369751
","x: 337.4302062988281
y: 425.6885986328125
z: -0.45753398537635803
visibility: 0.9388038516044617
","x: 312.6761474609375
y: 526.3892211914062
z: -0.06096378713846207
visibility: 0.8663727641105652
","x: 335.7861022949219
y: 444.5714111328125
z: -0.4664750099182129
visibility: 0.8245145678520203
","x: 327.3258972167969
y: 534.320556640625
z: -0.17293551564216614
visibility: 0.9610028266906738
","x: 346.3945617675781
y: 436.4376220703125
z: -0.5766676068305969
visibility: 0.9658207893371582
",,,,,,,,,,,,,,,,,,,,,,,,,,,,,,,,,,,,,,,,,,
27,"x: 333.1580505371094
y: 220.10317993164062
z: -0.373183935880661
visibility: 0.9998890161514282
","x: 335.3448486328125
y: 212.66493225097656
z: -0.3593926429748535
visibility: 0.9996708631515503
","x: 336.7581481933594
y: 213.54849243164062
z: -0.359539270401001
visibility: 0.9996334314346313
","x: 338.2173156738281
y: 214.60696411132812
z: -0.3596600592136383
visibility: 0.999613881111145
","x: 331.336669921875
y: 210.6391143798828
z: -0.33315664529800415
visibility: 0.9997343420982361
