uscmakers/ReverseChoreography/data/9_thats_what_i_like_bruno_mars.csv
,NOSE,LEFT_EYE_INNER,LEFT_EYE,LEFT_EYE_OUTER,RIGHT_EYE_INNER,RIGHT_EYE,RIGHT_EYE_OUTER,LEFT_EAR,RIGHT_EAR,MOUTH_LEFT,MOUTH_RIGHT,LEFT_SHOULDER,RIGHT_SHOULDER,LEFT_ELBOW,RIGHT_ELBOW,LEFT_WRIST,RIGHT_WRIST,LEFT_PINKY,RIGHT_PINKY,LEFT_INDEX,RIGHT_INDEX,LEFT_THUMB,RIGHT_THUMB,LEFT_HIP,RIGHT_HIP,LEFT_KNEE,RIGHT_KNEE,LEFT_ANKLE,RIGHT_ANKLE,LEFT_HEEL,RIGHT_HEEL,LEFT_FOOT_INDEX,RIGHT_FOOT_INDEX,WRIST2,THUMB_CPC2,THUMB_MCP2,THUMB_IP2,THUMB_TIP2,INDEX_FINGER_MCP2,INDEX_FINGER_PIP2,INDEX_FINGER_DIP2,INDEX_FINGER_TIP2,MIDDLE_FINGER_MCP2,MIDDLE_FINGER_PIP2,MIDDLE_FINGER_DIP2,MIDDLE_FINGER_TIP2,RING_FINGER_PIP2,RING_FINGER_DIP2,RING_FINGER_TIP2,RING_FINGER_MCP2,PINKY_MCP2,PINKY_PIP2,PINKY_DIP2,PINKY_TIP2,WRIST,THUMB_CPC,THUMB_MCP,THUMB_IP,THUMB_TIP,INDEX_FINGER_MCP,INDEX_FINGER_PIP,INDEX_FINGER_DIP,INDEX_FINGER_TIP,MIDDLE_FINGER_MCP,MIDDLE_FINGER_PIP,MIDDLE_FINGER_DIP,MIDDLE_FINGER_TIP,RING_FINGER_PIP,RING_FINGER_DIP,RING_FINGER_TIP,RING_FINGER_MCP,PINKY_MCP,PINKY_PIP,PINKY_DIP,PINKY_TIP
0,"x: 287.2950134277344
y: 209.51414489746094
z: -0.24468085169792175
visibility: 0.9999629259109497
","x: 289.5443420410156
y: 202.1429443359375
z: -0.22429673373699188
visibility: 0.9999191761016846
","x: 290.8891296386719
y: 202.26402282714844
z: -0.22433653473854065
visibility: 0.9999102354049683
","x: 292.1748352050781
y: 202.36874389648438
z: -0.2243606150150299
visibility: 0.9999088048934937
","x: 285.4083557128906
y: 201.2963104248047
z: -0.22668595612049103
visibility: 0.9999102354049683
","x: 283.8669738769531
y: 200.9687957763672
z: -0.22669751942157745
visibility: 0.9998929500579834
","x: 282.3551940917969
y: 200.6996307373047
z: -0.22667065262794495
visibility: 0.9998886585235596
","x: 293.21466064453125
y: 204.46054077148438
z: -0.1038535088300705
visibility: 0.999840259552002
","x: 279.4576721191406
y: 202.64259338378906
z: -0.11561540514230728
visibility: 0.999782145023346
","x: 289.4527282714844
y: 217.76190185546875
z: -0.19965703785419464
visibility: 0.9999464750289917
","x: 284.16607666015625
y: 217.144775390625
z: -0.20305900275707245
visibility: 0.9999427795410156
","x: 304.23150634765625
y: 246.10189819335938
z: -0.054882682859897614
visibility: 0.9999558925628662
","x: 265.12908935546875
y: 249.80706787109375
z: -0.03135674074292183
visibility: 0.9997584223747253
","x: 304.990478515625
y: 292.74945068359375
z: -0.1182471364736557
visibility: 0.984483540058136
","x: 259.6953430175781
y: 299.83660888671875
z: -0.06160041689872742
visibility: 0.9638331532478333
","x: 289.8601989746094
y: 307.792724609375
z: -0.3254920244216919
visibility: 0.9883942604064941
","x: 269.73712158203125
y: 320.5853576660156
z: -0.24075499176979065
visibility: 0.9331961274147034
","x: 285.4774475097656
y: 321.1536865234375
z: -0.38040149211883545
visibility: 0.97850501537323
","x: 271.453125
y: 330.077392578125
z: -0.2838289737701416
visibility: 0.9024546146392822
","x: 281.5578308105469
y: 314.30438232421875
z: -0.3957390785217285
visibility: 0.979762852191925
","x: 272.8938903808594
y: 325.089111328125
z: -0.30266615748405457
visibility: 0.9056791067123413
","x: 282.45684814453125
y: 311.1602478027344
z: -0.3357000946998596
visibility: 0.9655107855796814
","x: 272.82550048828125
y: 321.0617370605469
z: -0.25153714418411255
visibility: 0.870833694934845
","x: 298.4847717285156
y: 350.0870056152344
z: -0.001868243096396327
visibility: 0.9995301961898804
","x: 276.661865234375
y: 352.83740234375
z: 0.0019232111517339945
visibility: 0.9994571805000305
","x: 295.9436340332031
y: 428.4490966796875
z: -0.060289591550827026
visibility: 0.9910101890563965
","x: 275.1606140136719
y: 430.0755310058594
z: -0.026675278320908546
visibility: 0.9861184358596802
","x: 287.23193359375
y: 501.1880798339844
z: 0.09909979999065399
visibility: 0.9858700037002563
","x: 276.203369140625
y: 501.5335388183594
z: 0.12149371951818466
visibility: 0.9844529032707214
","x: 285.2890930175781
y: 511.6437072753906
z: 0.1079084500670433
visibility: 0.911831796169281
","x: 277.0223693847656
y: 511.4200439453125
z: 0.1280210018157959
visibility: 0.8373566269874573
","x: 289.0322265625
y: 522.961669921875
z: -0.016230061650276184
visibility: 0.9813238978385925
","x: 273.761962890625
y: 523.2919921875
z: 0.0036594695411622524
visibility: 0.9744551777839661
",,,,,,,,,,,,,,,,,,,,,,,,,,,,,,,,,,,,,,,,,,
1,"x: 288.430419921875
y: 209.5610809326172
z: -0.3221890926361084
visibility: 0.9999638795852661
","x: 289.9555969238281
y: 202.22962951660156
z: -0.30622610449790955
visibility: 0.9999166131019592
","x: 291.0947265625
y: 202.3688507080078
z: -0.30621954798698425
visibility: 0.9999089241027832
","x: 292.2520446777344
y: 202.48876953125
z: -0.3062357008457184
visibility: 0.9999073147773743
","x: 286.2560119628906
y: 201.37393188476562
z: -0.3151119351387024
visibility: 0.9999092817306519
","x: 284.663330078125
y: 201.0252227783203
z: -0.31515389680862427
visibility: 0.9998937249183655
","x: 282.9913024902344
y: 200.7285919189453
z: -0.3151954114437103
visibility: 0.9998889565467834
","x: 292.7673034667969
y: 204.981689453125
z: -0.20016053318977356
visibility: 0.9998337626457214
","x: 279.271728515625
y: 202.8399658203125
z: -0.24274571239948273
visibility: 0.9997856020927429
","x: 289.8031921386719
y: 217.658935546875
z: -0.2808029353618622
visibility: 0.9999449253082275
","x: 285.1695556640625
y: 217.11761474609375
z: -0.29327359795570374
visibility: 0.9999415874481201
","x: 301.5024719238281
y: 253.51025390625
z: -0.11910410225391388
visibility: 0.9999447464942932
","x: 262.3276062011719
y: 250.53857421875
z: -0.16595077514648438
visibility: 0.9997650980949402
","x: 307.19793701171875
y: 309.74700927734375
z: -0.05936923623085022
visibility: 0.9818892478942871
","x: 259.1482238769531
y: 305.02264404296875
z: -0.13597968220710754
visibility: 0.9633763432502747
","x: 314.6915588378906
y: 354.107666015625
z: -0.11861608922481537
visibility: 0.9802804589271545
","x: 261.96453857421875
y: 348.5022277832031
z: -0.20355740189552307
visibility: 0.9297997951507568
","x: 318.23345947265625
y: 370.2108459472656
z: -0.13364452123641968
visibility: 0.9639119505882263
","x: 261.299072265625
y: 363.8168640136719
z: -0.22553515434265137
visibility: 0.8950145244598389
","x: 317.05072021484375
y: 371.3851623535156
z: -0.16639652848243713
visibility: 0.9668083190917969
","x: 263.48651123046875
y: 363.08331298828125
z: -0.25304853916168213
visibility: 0.898979127407074
","x: 315.7142333984375
y: 365.31427001953125
z: -0.1330413520336151
visibility: 0.9528681635856628
","x: 264.4255065917969
y: 357.71856689453125
z: -0.21541348099708557
visibility: 0.8650727868080139
","x: 292.70404052734375
y: 350.6671447753906
z: -0.0014479468809440732
visibility: 0.999471127986908
","x: 270.446533203125
y: 351.8165283203125
z: 0.0014529728796333075
visibility: 0.9994196891784668
","x: 290.20751953125
y: 428.48089599609375
z: -0.00729360431432724
visibility: 0.9901878237724304
","x: 269.0780944824219
y: 431.063720703125
z: -0.024525392800569534
visibility: 0.9854246973991394
","x: 286.0710754394531
y: 502.8717041015625
z: 0.09929181635379791
visibility: 0.9860559701919556
","x: 274.6158447265625
y: 504.003662109375
z: 0.10570655018091202
visibility: 0.984544575214386
","x: 285.2884521484375
y: 513.61865234375
z: 0.10514090955257416
visibility: 0.906513512134552
","x: 276.9889221191406
y: 513.9105224609375
z: 0.10997237265110016
visibility: 0.8391237854957581
","x: 284.7726745605469
y: 523.300048828125
z: -0.015515191480517387
visibility: 0.9816511869430542
","x: 270.18951416015625
y: 524.8390502929688
z: -0.007865240797400475
visibility: 0.9753078818321228
",,,,,,,,,,,,,,,,,,,,,,,,,,,,,,,,,,,,,,,,,,
2,"x: 288.3839416503906
y: 213.07553100585938
z: -0.3313116133213043
visibility: 0.999965488910675
","x: 289.7512512207031
y: 205.3284912109375
z: -0.31373676657676697
visibility: 0.9999171495437622
","x: 290.759765625
y: 205.41537475585938
z: -0.3137490749359131
visibility: 0.999910831451416
","x: 291.7389221191406
y: 205.5122528076172
z: -0.31378522515296936
visibility: 0.9999093413352966
","x: 286.1982421875
y: 204.6064910888672
z: -0.3210567533969879
visibility: 0.9999092817306519
","x: 284.57171630859375
y: 204.2426300048828
z: -0.32108816504478455
visibility: 0.9998948574066162
","x: 282.8307800292969
y: 203.8968048095703
z: -0.32111507654190063
visibility: 0.999889075756073
","x: 291.48577880859375
y: 208.48463439941406
z: -0.2037871778011322
visibility: 0.9998378157615662
","x: 278.36798095703125
y: 206.9225311279297
z: -0.23822243511676788
visibility: 0.9997878074645996
","x: 289.59796142578125
y: 220.55874633789062
z: -0.2892417311668396
visibility: 0.9999468922615051
","x: 285.14764404296875
y: 220.24996948242188
z: -0.29940956830978394
visibility: 0.9999427199363708
","x: 300.2616271972656
y: 259.0304870605469
z: -0.12764312326908112
visibility: 0.9999468922615051
","x: 260.9903564453125
y: 254.0210723876953
z: -0.16126984357833862
visibility: 0.999769389629364
","x: 309.4391784667969
y: 312.50274658203125
z: -0.07741700112819672
visibility: 0.9823578596115112
","x: 257.36669921875
y: 308.38958740234375
z: -0.14492502808570862
visibility: 0.9622200727462769
","x: 323.5585021972656
y: 351.75701904296875
z: -0.17285636067390442
visibility: 0.979584813117981
","x: 256.87255859375
y: 353.8496398925781
z: -0.2096281498670578
visibility: 0.9263981580734253
","x: 328.50567626953125
y: 364.40673828125
z: -0.19671252369880676
visibility: 0.961798906326294
","x: 255.89944458007812
y: 368.8415832519531
z: -0.2502557337284088
visibility: 0.8886876106262207
","x: 328.2911071777344
y: 364.5718688964844
z: -0.2304348200559616
visibility: 0.9652025103569031
","x: 258.04388427734375
y: 368.904296875
z: -0.26902833580970764
visibility: 0.893515944480896
","x: 326.1556091308594
y: 360.2099304199219
z: -0.18865951895713806
visibility: 0.9518364071846008
","x: 259.22357177734375
y: 364.04351806640625
z: -0.22392654418945312
visibility: 0.8603737354278564
","x: 289.23236083984375
y: 353.9083557128906
z: -0.0011038685915991664
visibility: 0.9994809031486511
","x: 267.0463562011719
y: 353.5281066894531
z: 0.0010741354199126363
visibility: 0.9994147419929504
","x: 289.658935546875
y: 430.410400390625
z: -0.023154061287641525
visibility: 0.9901382327079773
","x: 265.08709716796875
y: 433.9187927246094
z: -0.024957623332738876
visibility: 0.9853665828704834
","x: 285.8011779785156
y: 502.89752197265625
z: 0.09577599912881851
visibility: 0.9865146279335022
","x: 273.8638610839844
y: 504.1415710449219
z: 0.12729491293430328
visibility: 0.9845811128616333
","x: 285.2340087890625
y: 513.5499267578125
z: 0.10163228213787079
visibility: 0.9019920229911804
","x: 276.9280700683594
y: 513.677734375
z: 0.13501864671707153
visibility: 0.839767336845398
","x: 284.92742919921875
y: 524.2942504882812
z: -0.023694951087236404
visibility: 0.9822179079055786
","x: 269.8252868652344
y: 525.4273681640625
z: 0.01664980873465538
visibility: 0.9759451746940613
",,,,,,,,,,,,,,,,,,,,,,,,,,,,,,,,,,,,,,,,,,
3,"x: 289.1936950683594
y: 215.35919189453125
z: -0.2979050874710083
visibility: 0.9999669790267944
","x: 289.82940673828125
y: 207.36769104003906
z: -0.2794129550457001
visibility: 0.9999178647994995
","x: 290.7619323730469
y: 207.38824462890625
z: -0.27943485975265503
visibility: 0.9999129176139832
","x: 291.711181640625
y: 207.3922119140625
z: -0.2794632017612457
visibility: 0.9999111294746399
","x: 286.5740051269531
y: 206.93429565429688
z: -0.28580987453460693
visibility: 0.9999101161956787
","x: 285.00640869140625
y: 206.67843627929688
z: -0.2858341932296753
visibility: 0.999896228313446
","x: 283.2706298828125
y: 206.41964721679688
z: -0.28584882616996765
visibility: 0.9998884797096252
","x: 290.5752868652344
y: 210.6748809814453
z: -0.17121365666389465
visibility: 0.999843180179596
","x: 278.386474609375
y: 209.73171997070312
z: -0.20856669545173645
visibility: 0.9997903108596802
","x: 289.76171875
y: 222.39805603027344
z: -0.2554551661014557
visibility: 0.9999487400054932
","x: 285.91064453125
y: 222.74366760253906
z: -0.265014111995697
visibility: 0.9999436736106873
","x: 299.8133544921875
y: 262.2162780761719
z: -0.10434601455926895
visibility: 0.9999493360519409
","x: 260.4150085449219
y: 255.431884765625
z: -0.14283280074596405
visibility: 0.9997807741165161
","x: 309.8657531738281
y: 314.6860046386719
z: -0.053642500191926956
visibility: 0.9829382300376892
","x: 255.4893798828125
y: 308.4669189453125
z: -0.13182291388511658
visibility: 0.9631433486938477
","x: 324.701416015625
y: 353.7568359375
z: -0.1391616016626358
visibility: 0.9797499179840088
","x: 253.44857788085938
y: 351.9677734375
z: -0.20440056920051575
visibility: 0.927975594997406
","x: 329.5528259277344
y: 367.07763671875
z: -0.16040383279323578
visibility: 0.9613311290740967
","x: 251.67568969726562
y: 365.7775573730469
z: -0.22862441837787628
visibility: 0.8894455432891846
","x: 329.2245178222656
y: 367.3984375
z: -0.19476082921028137
visibility: 0.9650487303733826
","x: 254.78819274902344
y: 365.6195373535156
z: -0.25793522596359253
visibility: 0.894601583480835
","x: 327.3859558105469
y: 362.771484375
z: -0.15519320964813232
visibility: 0.9524272680282593
","x: 256.2417297363281
y: 361.172607421875
z: -0.2181916981935501
visibility: 0.8625308275222778
","x: 287.96624755859375
y: 356.4234619140625
z: 0.0015808057505637407
visibility: 0.9995002150535583
","x: 266.3337707519531
y: 354.9009704589844
z: -0.0016239496180787683
visibility: 0.9994291067123413
","x: 289.2391052246094
y: 430.10992431640625
z: -0.06300736963748932
visibility: 0.9902793169021606
","x: 264.7641296386719
y: 433.926025390625
z: -0.0172111839056015
visibility: 0.985413670539856
","x: 285.6079406738281
y: 502.4957580566406
z: 0.03916529193520546
visibility: 0.9869948625564575
","x: 273.97772216796875
y: 504.052001953125
z: 0.12676307559013367
visibility: 0.9847227334976196
","x: 285.2137451171875
y: 512.426513671875
z: 0.042391419410705566
visibility: 0.9036474227905273
","x: 277.1322326660156
y: 513.6041870117188
z: 0.13355207443237305
visibility: 0.843376100063324
","x: 285.2281494140625
y: 523.9946899414062
z: -0.08069006353616714
visibility: 0.9829753637313843
","x: 269.8860168457031
y: 525.404541015625
z: 0.017027901485562325
visibility: 0.9766469597816467
",,,,,,,,,,,,,,,,,,,,,,,,,,,,,,,,,,,,,,,,,,
4,"x: 290.6848449707031
y: 213.31407165527344
z: -0.2997003495693207
visibility: 0.999968409538269
","x: 290.63055419921875
y: 205.76882934570312
z: -0.2832973301410675
visibility: 0.999919593334198
","x: 291.3577575683594
y: 205.90371704101562
z: -0.28331688046455383
visibility: 0.9999154210090637
","x: 292.104248046875
y: 206.03302001953125
z: -0.2833452522754669
visibility: 0.9999136328697205
","x: 287.5025634765625
y: 205.4132843017578
z: -0.29518285393714905
visibility: 0.9999122619628906
","x: 285.93719482421875
y: 205.29415893554688
z: -0.29521360993385315
visibility: 0.9998994469642639
","x: 284.1730651855469
y: 205.12925720214844
z: -0.29524630308151245
visibility: 0.9998908042907715
","x: 290.6429443359375
y: 210.45550537109375
z: -0.1799573451280594
visibility: 0.999848484992981
","x: 278.6712341308594
y: 209.09487915039062
z: -0.2369721382856369
visibility: 0.9997965693473816
","x: 290.8459167480469
y: 220.45770263671875
z: -0.2593401372432709
visibility: 0.9999514818191528
","x: 287.1478576660156
y: 220.9606170654297
z: -0.2755584120750427
visibility: 0.9999462962150574
","x: 299.44134521484375
y: 260.2774963378906
z: -0.10274475812911987
visibility: 0.9999518394470215
","x: 259.5372314453125
y: 254.98248291015625
z: -0.17656376957893372
visibility: 0.9997914433479309
","x: 309.3558349609375
y: 313.9745788574219
z: -0.041317395865917206
visibility: 0.9831651449203491
","x: 254.61244201660156
y: 307.6437683105469
z: -0.16341765224933624
visibility: 0.9649114012718201
","x: 320.08447265625
y: 358.7713317871094
z: -0.11875174194574356
visibility: 0.979428768157959
","x: 252.35739135742188
y: 350.2114562988281
z: -0.20902326703071594
visibility: 0.9314877986907959
","x: 323.5468444824219
y: 371.98602294921875
z: -0.13920694589614868
visibility: 0.9599136710166931
","x: 250.7860565185547
y: 365.4115295410156
z: -0.24530963599681854
visibility: 0.8934811353683472
","x: 323.4454650878906
y: 371.79608154296875
z: -0.17330537736415863
visibility: 0.9640158414840698
","x: 253.9143524169922
y: 365.0191955566406
z: -0.2676507830619812
visibility: 0.8986714482307434
","x: 321.8291015625
y: 367.8919677734375
z: -0.13455316424369812
visibility: 0.9519732594490051
","x: 255.31304931640625
y: 359.7436828613281
z: -0.22612407803535461
visibility: 0.8677014112472534
","x: 287.3429260253906
y: 356.17529296875
z: 0.007738287094980478
visibility: 0.9995261430740356
","x: 265.8864440917969
y: 354.8569030761719
z: -0.0078063844703137875
visibility: 0.9994376301765442
","x: 288.8638000488281
y: 430.1825256347656
z: -0.06029420346021652
visibility: 0.9904831051826477
","x: 266.11712646484375
y: 434.671142578125
z: -0.004381925333291292
visibility: 0.9845339059829712
","x: 285.4835510253906
y: 502.5616455078125
z: 0.056280963122844696
visibility: 0.9875396490097046
","x: 274.0567626953125
y: 504.00433349609375
z: 0.13288447260856628
visibility: 0.984627366065979
","x: 285.0950012207031
y: 512.45458984375
z: 0.06060504913330078
visibility: 0.9039941430091858
","x: 277.0857238769531
y: 513.4999389648438
z: 0.13872437179088593
visibility: 0.8440372347831726
","x: 284.9054260253906
y: 524.0333862304688
z: -0.06378789246082306
visibility: 0.9837771654129028
","x: 270.08074951171875
y: 525.4644165039062
z: 0.019581221044063568
visibility: 0.9773380756378174
",,,,,,,,,,,,,,,,,,,,,,,,,,,,,,,,,,,,,,,,,,
5,"x: 290.7796936035156
y: 209.3349609375
z: -0.33521002531051636
visibility: 0.9999682307243347
","x: 290.7980651855469
y: 201.6842803955078
z: -0.31923049688339233
visibility: 0.9999163150787354
","x: 291.5357666015625
y: 201.8445587158203
z: -0.31924334168434143
visibility: 0.999911904335022
","x: 292.2547912597656
y: 202.0475616455078
z: -0.31927603483200073
visibility: 0.9999094009399414
","x: 287.6158447265625
y: 201.45729064941406
z: -0.33014267683029175
visibility: 0.9999112486839294
","x: 286.0531921386719
y: 201.45590209960938
z: -0.3301875591278076
visibility: 0.9998997449874878
","x: 284.33154296875
y: 201.42486572265625
z: -0.33022448420524597
visibility: 0.9998912215232849
","x: 290.7354736328125
y: 206.88345336914062
z: -0.21067416667938232
visibility: 0.9998376965522766
","x: 278.9426574707031
y: 205.50962829589844
z: -0.26147371530532837
visibility: 0.9998031258583069
","x: 291.1695861816406
y: 216.25921630859375
z: -0.2926655113697052
visibility: 0.999951183795929
","x: 287.47265625
y: 216.53114318847656
z: -0.3075798451900482
visibility: 0.9999476671218872
","x: 299.412841796875
y: 258.8445739746094
z: -0.12071450799703598
visibility: 0.999943733215332
","x: 259.51116943359375
y: 252.43690490722656
z: -0.18709862232208252
visibility: 0.9998023509979248
","x: 306.0792541503906
y: 314.7665100097656
z: -0.048223622143268585
visibility: 0.9789361953735352
","x: 254.01681518554688
y: 306.6976623535156
z: -0.154476135969162
visibility: 0.9665043950080872
","x: 315.65374755859375
y: 361.48687744140625
z: -0.11401939392089844
visibility: 0.9678387641906738
","x: 251.17047119140625
y: 349.52471923828125
z: -0.20980985462665558
visibility: 0.9319270253181458
","x: 315.37518310546875
y: 378.763671875
z: -0.1326369196176529
visibility: 0.9411616921424866
","x: 249.5193634033203
y: 364.9850158691406
z: -0.23525214195251465
visibility: 0.8921009302139282
","x: 314.011962890625
y: 380.4470520019531
z: -0.16615718603134155
visibility: 0.946881115436554
","x: 253.1624755859375
y: 364.6668701171875
z: -0.2640531361103058
visibility: 0.8976296782493591
","x: 313.20025634765625
y: 374.14178466796875
z: -0.12924008071422577
visibility: 0.934897780418396
","x: 254.42198181152344
y: 359.6497802734375
z: -0.22331824898719788
visibility: 0.8677536845207214
","x: 288.8655090332031
y: 355.34600830078125
z: 0.008955679833889008
visibility: 0.9994940161705017
","x: 267.3076171875
y: 352.1991271972656
z: -0.009005259722471237
visibility: 0.9994185566902161
","x: 289.5744934082031
y: 430.1702880859375
z: 0.00184804224409163
visibility: 0.9902222156524658
","x: 266.9804992675781
y: 432.9718322753906
z: -0.002686804858967662
visibility: 0.9837232828140259
","x: 285.6273193359375
y: 503.0619812011719
z: 0.13244172930717468
visibility: 0.9875222444534302
","x: 274.1136474609375
y: 504.1143493652344
z: 0.13451148569583893
visibility: 0.9844951629638672
","x: 285.1293640136719
y: 513.1406860351562
z: 0.1374201625585556
visibility: 0.8979137539863586
","x: 277.0389099121094
y: 514.1640625
z: 0.14005209505558014
visibility: 0.8418770432472229
","x: 285.12054443359375
y: 524.0593872070312
z: 0.01939946599304676
visibility: 0.983588695526123
","x: 269.78155517578125
y: 525.8167114257812
z: 0.018325086683034897
visibility: 0.977616012096405
",,,,,,,,,,,,,,,,,,,,,,,,,,,,,,,,,,,,,,,,,,
6,"x: 290.7407531738281
y: 206.52212524414062
z: -0.3353956937789917
visibility: 0.9999678730964661
","x: 290.8440856933594
y: 198.45556640625
z: -0.32004329562187195
visibility: 0.9999152421951294
","x: 291.5833740234375
y: 198.55673217773438
z: -0.3200756907463074
visibility: 0.9999110102653503
","x: 292.2956237792969
y: 198.719970703125
z: -0.32011663913726807
visibility: 0.9999083876609802
","x: 287.6200256347656
y: 198.3442840576172
z: -0.32777705788612366
visibility: 0.9999105334281921
","x: 286.062744140625
y: 198.35763549804688
z: -0.32781079411506653
visibility: 0.9998994469642639
","x: 284.35107421875
y: 198.35203552246094
z: -0.3278438448905945
visibility: 0.9998916983604431
","x: 290.6723327636719
y: 203.59463500976562
z: -0.2150990068912506
visibility: 0.9998409748077393
","x: 279.01556396484375
y: 202.04331970214844
z: -0.25046515464782715
visibility: 0.9998082518577576
","x: 291.17523193359375
y: 213.7706756591797
z: -0.2943069338798523
visibility: 0.9999524354934692
","x: 287.4013671875
y: 213.80796813964844
z: -0.30480527877807617
visibility: 0.99994957447052
","x: 298.9798583984375
y: 258.6715087890625
z: -0.1400419920682907
visibility: 0.9999416470527649
","x: 258.8446960449219
y: 250.6309814453125
z: -0.16535702347755432
visibility: 0.9998077154159546
","x: 297.88916015625
y: 312.546630859375
z: -0.06325618922710419
visibility: 0.9747551083564758
","x: 253.6534881591797
y: 306.3724060058594
z: -0.13985852897167206
visibility: 0.965076744556427
","x: 293.40533447265625
y: 356.342041015625
z: -0.1521257758140564
visibility: 0.9526720643043518
","x: 252.58843994140625
y: 349.92236328125
z: -0.168795645236969
visibility: 0.9239787459373474
","x: 293.56103515625
y: 373.0038146972656
z: -0.1769067794084549
visibility: 0.9210236668586731
","x: 251.95028686523438
y: 365.6543273925781
z: -0.19006159901618958
visibility: 0.8805473446846008
","x: 289.5673828125
y: 372.8460388183594
z: -0.20462965965270996
visibility: 0.9271789789199829
","x: 255.1729736328125
y: 365.36865234375
z: -0.22065743803977966
visibility: 0.8868184089660645
","x: 288.7271728515625
y: 367.33636474609375
z: -0.16430824995040894
visibility: 0.912464439868927
","x: 256.2493896484375
y: 360.2667236328125
z: -0.18172676861286163
visibility: 0.8576833009719849
","x: 288.7440185546875
y: 355.13250732421875
z: 0.004734901711344719
visibility: 0.999495267868042
","x: 266.7751159667969
y: 352.3251647949219
z: -0.004735521040856838
visibility: 0.9994245171546936
","x: 289.8716735839844
y: 432.0474548339844
z: -0.0076390220783650875
visibility: 0.9907054305076599
","x: 267.484130859375
y: 433.3095703125
z: 0.011944441124796867
visibility: 0.9839004278182983
","x: 285.88116455078125
y: 503.0863037109375
z: 0.1528138369321823
visibility: 0.9881990551948547
","x: 274.1241149902344
y: 504.2679443359375
z: 0.1684136688709259
visibility: 0.9851273894309998
","x: 285.2422790527344
y: 513.568603515625
z: 0.1609574556350708
visibility: 0.8993692994117737
","x: 277.1528625488281
y: 515.0671997070312
z: 0.17630673944950104
visibility: 0.8469428420066833
","x: 285.2639465332031
y: 524.11767578125
z: 0.04170398786664009
visibility: 0.9843957424163818
","x: 269.5338439941406
y: 526.5086669921875
z: 0.057748179882764816
visibility: 0.9786462783813477
",,,,,,,,,,,,,,,,,,,,,,,,,,,,,,,,,,,,,,,,,,
7,"x: 290.6216125488281
y: 203.82989501953125
z: -0.31590646505355835
visibility: 0.9999653100967407
","x: 290.8289489746094
y: 196.23236083984375
z: -0.29905620217323303
visibility: 0.9999088048934937
","x: 291.5338134765625
y: 196.346923828125
z: -0.2990877330303192
visibility: 0.9999054074287415
","x: 292.1910095214844
y: 196.5175018310547
z: -0.29912248253822327
visibility: 0.9999029636383057
","x: 287.56512451171875
y: 196.07470703125
z: -0.30625611543655396
visibility: 0.9999035000801086
","x: 286.02056884765625
y: 196.06524658203125
z: -0.3062836825847626
visibility: 0.999890148639679
","x: 284.32305908203125
y: 196.08010864257812
z: -0.3063052296638489
visibility: 0.9998809099197388
","x: 289.97021484375
y: 201.21969604492188
z: -0.1903717964887619
visibility: 0.9998380541801453
","x: 278.9971618652344
y: 199.7963104248047
z: -0.22365586459636688
visibility: 0.999789297580719
","x: 291.1271057128906
y: 211.25135803222656
z: -0.2739933431148529
visibility: 0.9999517202377319
","x: 287.3241271972656
y: 211.3040313720703
z: -0.28380879759788513
visibility: 0.9999479055404663
","x: 298.11651611328125
y: 253.6076202392578
z: -0.12563621997833252
visibility: 0.9999434351921082
","x: 258.4760437011719
y: 249.38406372070312
z: -0.1546807587146759
visibility: 0.9997926354408264
","x: 297.6937255859375
y: 305.9333190917969
z: -0.09957806766033173
visibility: 0.9750151634216309
","x: 253.5350341796875
y: 305.2218017578125
z: -0.08425906300544739
visibility: 0.9599837064743042
","x: 286.5927429199219
y: 338.66595458984375
z: -0.23018959164619446
visibility: 0.9525614976882935
","x: 254.07777404785156
y: 347.50909423828125
z: -0.16335681080818176
visibility: 0.9121965765953064
","x: 283.8000183105469
y: 355.65045166015625
z: -0.2701278030872345
visibility: 0.9204614162445068
","x: 253.4510498046875
y: 362.06524658203125
z: -0.19161836802959442
visibility: 0.8664893507957458
","x: 278.9296569824219
y: 351.9586181640625
z: -0.29448309540748596
visibility: 0.9263819456100464
","x: 256.2274475097656
y: 360.98406982421875
z: -0.2228810042142868
visibility: 0.8732285499572754
","x: 278.8701171875
y: 347.329345703125
z: -0.24178989231586456
visibility: 0.9095517992973328
","x: 257.5038146972656
y: 356.0838317871094
z: -0.17734985053539276
visibility: 0.8426781296730042
","x: 289.1814880371094
y: 353.59478759765625
z: -0.00017924950225278735
visibility: 0.9994882941246033
","x: 267.371337890625
y: 352.34759521484375
z: 0.00025206481222994626
visibility: 0.9994139075279236
","x: 290.1659851074219
y: 431.9583740234375
z: -0.017789699137210846
visibility: 0.9911811947822571
","x: 267.9189758300781
y: 434.486572265625
z: 0.012358325533568859
visibility: 0.9841678738594055
","x: 285.9638671875
y: 503.2812194824219
z: 0.1518571525812149
visibility: 0.9888059496879578
","x: 274.16326904296875
y: 504.6222229003906
z: 0.1782471239566803
visibility: 0.985736072063446
","x: 285.2434997558594
y: 513.9212646484375
z: 0.1609809696674347
visibility: 0.9019488096237183
","x: 277.1512145996094
y: 516.1951904296875
z: 0.18628612160682678
visibility: 0.8522273302078247
","x: 285.4886169433594
y: 523.8899536132812
z: 0.03360486030578613
visibility: 0.9851441979408264
","x: 269.30279541015625
y: 526.5319213867188
z: 0.06055374816060066
visibility: 0.9794850945472717
","x: 285.187744140625
y: 334.5274658203125
z: 0.0
","x: 279.6061096191406
y: 336.53887939453125
z: 0.0024462039582431316
","x: 275.0123596191406
y: 341.64935302734375
z: 0.0014960392145439982
","x: 272.4080810546875
y: 347.1981201171875
z: -0.0002503654395695776
","x: 271.203125
y: 351.584716796875
z: -0.0014205191982910037
","x: 272.9029541015625
y: 341.75347900390625
z: -0.0033857200760394335
","x: 269.52093505859375
y: 352.8211975097656
z: -0.005266494583338499
","x: 271.3560485839844
y: 353.7759704589844
z: -0.004218990448862314
","x: 272.9107360839844
y: 351.827880859375
z: -0.0030746967531740665
","x: 274.847412109375
y: 343.7557373046875
z: -0.006277432199567556
","x: 271.9134521484375
y: 355.28302001953125
z: -0.007530088536441326
","x: 273.541259765625
y: 355.4168395996094
z: -0.005251763854175806
","x: 274.8221740722656
y: 352.66986083984375
z: -0.003408318618312478
","x: 277.1833801269531
y: 346.0077209472656
z: -0.008894283324480057
","x: 274.4938659667969
y: 356.99432373046875
z: -0.009208515286445618
","x: 276.0909423828125
y: 356.6345520019531
z: -0.006085242610424757
","x: 277.38189697265625
y: 353.8230895996094
z: -0.004112709779292345
","x: 279.735107421875
y: 348.4454650878906
z: -0.011425385251641273
","x: 277.2747802734375
y: 357.5198059082031
z: -0.011142447590827942
","x: 278.0370178222656
y: 357.6379699707031
z: -0.008930699899792671
","x: 279.0365905761719
y: 355.3235168457031
z: -0.00733852107077837
",,,,,,,,,,,,,,,,,,,,,
8,"x: 290.6216125488281
y: 203.82989501953125
z: -0.31590646505355835
visibility: 0.9999653100967407
","x: 290.8289489746094
y: 196.23236083984375
z: -0.29905620217323303
visibility: 0.9999088048934937
","x: 291.5338134765625
y: 196.346923828125
z: -0.2990877330303192
visibility: 0.9999054074287415
","x: 292.1910095214844
y: 196.5175018310547
z: -0.29912248253822327
visibility: 0.9999029636383057
","x: 287.56512451171875
y: 196.07470703125
z: -0.30625611543655396
visibility: 0.9999035000801086
","x: 286.02056884765625
y: 196.06524658203125
z: -0.3062836825847626
visibility: 0.999890148639679
","x: 284.32305908203125
y: 196.08010864257812
z: -0.3063052296638489
visibility: 0.9998809099197388
","x: 289.97021484375
y: 201.21969604492188
z: -0.1903717964887619
visibility: 0.9998380541801453
","x: 278.9971618652344
y: 199.7963104248047
z: -0.22365586459636688
visibility: 0.999789297580719
","x: 291.1271057128906
y: 211.25135803222656
z: -0.2739933431148529
visibility: 0.9999517202377319
","x: 287.3241271972656
y: 211.3040313720703
z: -0.28380879759788513
visibility: 0.9999479055404663
","x: 298.11651611328125
y: 253.6076202392578
z: -0.12563621997833252
visibility: 0.9999434351921082
","x: 258.4760437011719
y: 249.38406372070312
z: -0.1546807587146759
visibility: 0.9997926354408264
","x: 297.6937255859375
y: 305.9333190917969
z: -0.09957806766033173
visibility: 0.9750151634216309
","x: 253.5350341796875
y: 305.2218017578125
z: -0.08425906300544739
visibility: 0.9599837064743042
","x: 286.5927429199219
y: 338.66595458984375
z: -0.23018959164619446
visibility: 0.9525614976882935
","x: 254.07777404785156
y: 347.50909423828125
z: -0.16335681080818176
visibility: 0.9121965765953064
","x: 283.8000183105469
y: 355.65045166015625
z: -0.2701278030872345
visibility: 0.9204614162445068
","x: 253.4510498046875
y: 362.06524658203125
z: -0.19161836802959442
visibility: 0.8664893507957458
","x: 278.9296569824219
y: 351.9586181640625
z: -0.29448309540748596
visibility: 0.9263819456100464
","x: 256.2274475097656
y: 360.98406982421875
z: -0.2228810042142868
visibility: 0.8732285499572754
","x: 278.8701171875
y: 347.329345703125
z: -0.24178989231586456
visibility: 0.9095517992973328
","x: 257.5038146972656
y: 356.0838317871094
z: -0.17734985053539276
visibility: 0.8426781296730042
","x: 289.1814880371094
y: 353.59478759765625
z: -0.00017924950225278735
visibility: 0.9994882941246033
","x: 267.371337890625
y: 352.34759521484375
z: 0.00025206481222994626
visibility: 0.9994139075279236
","x: 290.1659851074219
y: 431.9583740234375
z: -0.017789699137210846
visibility: 0.9911811947822571
","x: 267.9189758300781
y: 434.486572265625
z: 0.012358325533568859
visibility: 0.9841678738594055
","x: 285.9638671875
y: 503.2812194824219
z: 0.1518571525812149
visibility: 0.9888059496879578
","x: 274.16326904296875
y: 504.6222229003906
z: 0.1782471239566803
visibility: 0.985736072063446
","x: 285.2434997558594
y: 513.9212646484375
z: 0.1609809696674347
visibility: 0.9019488096237183
","x: 277.1512145996094
y: 516.1951904296875
z: 0.18628612160682678
visibility: 0.8522273302078247
","x: 285.4886169433594
y: 523.8899536132812
z: 0.03360486030578613
visibility: 0.9851441979408264
","x: 269.30279541015625
y: 526.5319213867188
z: 0.06055374816060066
visibility: 0.9794850945472717
","x: 285.187744140625
y: 334.5274658203125
z: 0.0
","x: 279.6061096191406
y: 336.53887939453125
z: 0.0024462039582431316
","x: 275.0123596191406
y: 341.64935302734375
z: 0.0014960392145439982
","x: 272.4080810546875
y: 347.1981201171875
z: -0.0002503654395695776
","x: 271.203125
y: 351.584716796875
z: -0.0014205191982910037
","x: 272.9029541015625
y: 341.75347900390625
z: -0.0033857200760394335
","x: 269.52093505859375
y: 352.8211975097656
z: -0.005266494583338499
","x: 271.3560485839844
y: 353.7759704589844
z: -0.004218990448862314
","x: 272.9107360839844
y: 351.827880859375
z: -0.0030746967531740665
","x: 274.847412109375
y: 343.7557373046875
z: -0.006277432199567556
","x: 271.9134521484375
y: 355.28302001953125
z: -0.007530088536441326
","x: 273.541259765625
y: 355.4168395996094
z: -0.005251763854175806
","x: 274.8221740722656
y: 352.66986083984375
z: -0.003408318618312478
","x: 277.1833801269531
y: 346.0077209472656
z: -0.008894283324480057
","x: 274.4938659667969
y: 356.99432373046875
z: -0.009208515286445618
","x: 276.0909423828125
y: 356.6345520019531
z: -0.006085242610424757
","x: 277.38189697265625
y: 353.8230895996094
z: -0.004112709779292345
","x: 279.735107421875
y: 348.4454650878906
z: -0.011425385251641273
","x: 277.2747802734375
y: 357.5198059082031
z: -0.011142447590827942
","x: 278.0370178222656
y: 357.6379699707031
z: -0.008930699899792671
","x: 279.0365905761719
y: 355.3235168457031
z: -0.00733852107077837
",,,,,,,,,,,,,,,,,,,,,
9,"x: 290.732177734375
y: 203.5956573486328
z: -0.2640794515609741
visibility: 0.9999604225158691
","x: 290.8103942871094
y: 196.13192749023438
z: -0.248153418302536
visibility: 0.9998970031738281
","x: 291.52667236328125
y: 196.20541381835938
z: -0.24822679162025452
visibility: 0.9998945593833923
","x: 292.1217956542969
y: 196.3021240234375
z: -0.24827364087104797
visibility: 0.9998921751976013
","x: 287.67169189453125
y: 195.8795166015625
z: -0.25621965527534485
visibility: 0.9998915791511536
","x: 286.18853759765625
y: 195.75946044921875
z: -0.25622978806495667
visibility: 0.9998748302459717
","x: 284.557861328125
y: 195.66732788085938
z: -0.25627535581588745
visibility: 0.9998637437820435
","x: 289.3054504394531
y: 200.34854125976562
z: -0.1501694768667221
visibility: 0.9998326301574707
","x: 279.05816650390625
y: 198.97210693359375
z: -0.186826691031456
visibility: 0.9997599720954895
","x: 291.0877685546875
y: 210.97886657714844
z: -0.22611038386821747
visibility: 0.9999493360519409
","x: 287.4656982421875
y: 210.9788360595703
z: -0.2367994785308838
visibility: 0.9999434947967529
","x: 297.7723388671875
y: 250.15806579589844
z: -0.11031949520111084
visibility: 0.999945878982544
","x: 258.4720764160156
y: 249.21551513671875
z: -0.10682406276464462
visibility: 0.9997827410697937
","x: 298.6936950683594
y: 301.45703125
z: -0.09783266484737396
visibility: 0.9757598638534546
","x: 253.54002380371094
y: 305.09832763671875
z: -0.06499546021223068
visibility: 0.956943690776825
","x: 283.5496826171875
y: 326.1971435546875
z: -0.23354382812976837
visibility: 0.9542108774185181
","x: 255.1175079345703
y: 346.8925476074219
z: -0.14501461386680603
visibility: 0.9065943956375122
","x: 279.2721862792969
y: 339.0085144042969
z: -0.27508407831192017
visibility: 0.9223101735115051
","x: 254.64883422851562
y: 361.49578857421875
z: -0.17293551564216614
visibility: 0.8594489097595215
","x: 274.67999267578125
y: 334.359619140625
z: -0.2931002974510193
visibility: 0.9278407096862793
","x: 257.2725830078125
y: 359.41278076171875
z: -0.201149582862854
visibility: 0.8660410046577454
","x: 274.99609375
y: 330.700439453125
z: -0.24283535778522491
visibility: 0.9094200134277344
","x: 258.3989562988281
y: 354.2720031738281
z: -0.15760073065757751
visibility: 0.8337899446487427
","x: 289.5896911621094
y: 353.2024841308594
z: -0.003978115972131491
visibility: 0.9994771480560303
","x: 267.7856750488281
y: 352.78466796875
z: 0.004082166589796543
visibility: 0.9993926286697388
","x: 290.61041259765625
y: 431.8558349609375
z: -0.04627618566155434
visibility: 0.9914810061454773
","x: 268.1851501464844
y: 435.9167785644531
z: 0.005806252360343933
visibility: 0.9836272597312927
","x: 286.3055725097656
y: 503.2719421386719
z: 0.141319140791893
visibility: 0.9890612959861755
","x: 274.280029296875
y: 504.84747314453125
z: 0.16459129750728607
visibility: 0.9857486486434937
","x: 285.3375549316406
y: 513.9603271484375
z: 0.1430099606513977
visibility: 0.9042761921882629
","x: 277.58355712890625
y: 517.2088012695312
z: 0.17204876244068146
visibility: 0.8555090427398682
","x: 285.5481262207031
y: 523.6773681640625
z: 0.01774318888783455
visibility: 0.985516369342804
","x: 269.3583984375
y: 526.5372314453125
z: 0.04933292046189308
visibility: 0.9794526100158691
","x: 280.0417175292969
y: 326.2068176269531
z: 0.0
","x: 275.5112609863281
y: 327.6417236328125
z: 0.0010986048728227615
","x: 271.5436706542969
y: 331.2039794921875
z: -0.0007029903354123235
","x: 269.3736267089844
y: 335.73626708984375
z: -0.0029329408425837755
","x: 268.77020263671875
y: 340.145263671875
z: -0.004894123412668705
","x: 270.09783935546875
y: 329.4864196777344
z: -0.006469134707003832
","x: 266.77557373046875
y: 338.86944580078125
z: -0.009270970709621906
","x: 267.6987609863281
y: 343.07537841796875
z: -0.00902621727436781
","x: 268.792236328125
y: 344.5528564453125
z: -0.008452163077890873
","x: 272.0201110839844
y: 330.32891845703125
z: -0.00901917926967144
","x: 268.9072570800781
y: 340.61163330078125
z: -0.011770287528634071
","x: 269.8769836425781
y: 344.46697998046875
z: -0.010222066193819046
","x: 271.05462646484375
y: 344.84136962890625
z: -0.00878218561410904
","x: 274.328857421875
y: 331.9091796875
z: -0.011217232793569565
","x: 271.41015625
y: 341.75665283203125
z: -0.012908048927783966
","x: 272.2438049316406
y: 344.8550720214844
z: -0.010258781723678112
","x: 273.2621765136719
y: 344.54803466796875
z: -0.008403643034398556
","x: 276.6543273925781
y: 333.8808898925781
z: -0.013388530351221561
","x: 274.205810546875
y: 341.8101501464844
z: -0.014282871037721634
","x: 274.21600341796875
y: 344.429443359375
z: -0.012569352053105831
","x: 274.6686096191406
y: 344.36798095703125
z: -0.011200160719454288
",,,,,,,,,,,,,,,,,,,,,
10,"x: 290.732177734375
y: 203.5956573486328
z: -0.2640794515609741
visibility: 0.9999604225158691
","x: 290.8103942871094
y: 196.13192749023438
z: -0.248153418302536
visibility: 0.9998970031738281
","x: 291.52667236328125
y: 196.20541381835938
z: -0.24822679162025452
visibility: 0.9998945593833923
","x: 292.1217956542969
y: 196.3021240234375
z: -0.24827364087104797
visibility: 0.9998921751976013
","x: 287.67169189453125
y: 195.8795166015625
z: -0.25621965527534485
visibility: 0.9998915791511536
","x: 286.18853759765625
y: 195.75946044921875
z: -0.25622978806495667
visibility: 0.9998748302459717
","x: 284.557861328125
y: 195.66732788085938
z: -0.25627535581588745
visibility: 0.9998637437820435
","x: 289.3054504394531
y: 200.34854125976562
z: -0.1501694768667221
visibility: 0.9998326301574707
","x: 279.05816650390625
y: 198.97210693359375
z: -0.186826691031456
visibility: 0.9997599720954895
","x: 291.0877685546875
y: 210.97886657714844
z: -0.22611038386821747
visibility: 0.9999493360519409
","x: 287.4656982421875
y: 210.9788360595703
z: -0.2367994785308838
visibility: 0.9999434947967529
","x: 297.7723388671875
y: 250.15806579589844
z: -0.11031949520111084
visibility: 0.999945878982544
","x: 258.4720764160156
y: 249.21551513671875
z: -0.10682406276464462
visibility: 0.9997827410697937
","x: 298.6936950683594
y: 301.45703125
z: -0.09783266484737396
visibility: 0.9757598638534546
","x: 253.54002380371094
y: 305.09832763671875
z: -0.06499546021223068
visibility: 0.956943690776825
","x: 283.5496826171875
y: 326.1971435546875
z: -0.23354382812976837
visibility: 0.9542108774185181
","x: 255.1175079345703
y: 346.8925476074219
z: -0.14501461386680603
visibility: 0.9065943956375122
","x: 279.2721862792969
y: 339.0085144042969
z: -0.27508407831192017
visibility: 0.9223101735115051
","x: 254.64883422851562
y: 361.49578857421875
z: -0.17293551564216614
visibility: 0.8594489097595215
","x: 274.67999267578125
y: 334.359619140625
z: -0.2931002974510193
visibility: 0.9278407096862793
","x: 257.2725830078125
y: 359.41278076171875
z: -0.201149582862854
visibility: 0.8660410046577454
","x: 274.99609375
y: 330.700439453125
z: -0.24283535778522491
visibility: 0.9094200134277344
","x: 258.3989562988281
y: 354.2720031738281
z: -0.15760073065757751
visibility: 0.8337899446487427
","x: 289.5896911621094
y: 353.2024841308594
z: -0.003978115972131491
visibility: 0.9994771480560303
","x: 267.7856750488281
y: 352.78466796875
z: 0.004082166589796543
visibility: 0.9993926286697388
","x: 290.61041259765625
y: 431.8558349609375
z: -0.04627618566155434
visibility: 0.9914810061454773
","x: 268.1851501464844
y: 435.9167785644531
z: 0.005806252360343933
visibility: 0.9836272597312927
","x: 286.3055725097656
y: 503.2719421386719
z: 0.141319140791893
visibility: 0.9890612959861755
","x: 274.280029296875
y: 504.84747314453125
z: 0.16459129750728607
visibility: 0.9857486486434937
","x: 285.3375549316406
y: 513.9603271484375
z: 0.1430099606513977
visibility: 0.9042761921882629
","x: 277.58355712890625
y: 517.2088012695312
z: 0.17204876244068146
visibility: 0.8555090427398682
","x: 285.5481262207031
y: 523.6773681640625
z: 0.01774318888783455
visibility: 0.985516369342804
","x: 269.3583984375
y: 526.5372314453125
z: 0.04933292046189308
visibility: 0.9794526100158691
","x: 280.0417175292969
y: 326.2068176269531
z: 0.0
","x: 275.5112609863281
y: 327.6417236328125
z: 0.0010986048728227615
","x: 271.5436706542969
y: 331.2039794921875
z: -0.0007029903354123235
","x: 269.3736267089844
y: 335.73626708984375
z: -0.0029329408425837755
","x: 268.77020263671875
y: 340.145263671875
z: -0.004894123412668705
","x: 270.09783935546875
y: 329.4864196777344
z: -0.006469134707003832
","x: 266.77557373046875
y: 338.86944580078125
z: -0.009270970709621906
","x: 267.6987609863281
y: 343.07537841796875
z: -0.00902621727436781
","x: 268.792236328125
y: 344.5528564453125
z: -0.008452163077890873
","x: 272.0201110839844
y: 330.32891845703125
z: -0.00901917926967144
","x: 268.9072570800781
y: 340.61163330078125
z: -0.011770287528634071
","x: 269.8769836425781
y: 344.46697998046875
z: -0.010222066193819046
","x: 271.05462646484375
y: 344.84136962890625
z: -0.00878218561410904
","x: 274.328857421875
y: 331.9091796875
z: -0.011217232793569565
","x: 271.41015625
y: 341.75665283203125
z: -0.012908048927783966
","x: 272.2438049316406
y: 344.8550720214844
z: -0.010258781723678112
","x: 273.2621765136719
y: 344.54803466796875
z: -0.008403643034398556
","x: 276.6543273925781
y: 333.8808898925781
z: -0.013388530351221561
","x: 274.205810546875
y: 341.8101501464844
z: -0.014282871037721634
","x: 274.21600341796875
y: 344.429443359375
z: -0.012569352053105831
","x: 274.6686096191406
y: 344.36798095703125
z: -0.011200160719454288
",,,,,,,,,,,,,,,,,,,,,
11,"x: 290.6615295410156
y: 203.7308349609375
z: -0.2678207755088806
visibility: 0.9999599456787109
","x: 290.5937805175781
y: 196.35723876953125
z: -0.24960914254188538
visibility: 0.9998967051506042
","x: 291.31134033203125
y: 196.43775939941406
z: -0.24967893958091736
visibility: 0.9998943209648132
","x: 291.9282531738281
y: 196.5480194091797
z: -0.24971623718738556
visibility: 0.9998921155929565
","x: 287.46929931640625
y: 196.0745849609375
z: -0.256117045879364
visibility: 0.9998911023139954
","x: 285.98187255859375
y: 195.95684814453125
z: -0.2561250329017639
visibility: 0.9998732209205627
","x: 284.3250732421875
y: 195.8643341064453
z: -0.25616297125816345
visibility: 0.9998621344566345
","x: 289.3026123046875
y: 200.40475463867188
z: -0.1400262713432312
visibility: 0.9998345971107483
","x: 278.6961669921875
y: 199.13494873046875
z: -0.16899839043617249
visibility: 0.999759316444397
","x: 290.94427490234375
y: 211.20462036132812
z: -0.22622203826904297
visibility: 0.9999504685401917
","x: 287.4471435546875
y: 211.2515106201172
z: -0.23483116924762726
visibility: 0.9999445676803589
","x: 298.05181884765625
y: 249.1736602783203
z: -0.09144224226474762
visibility: 0.9999485611915588
","x: 258.7366027832031
y: 249.37847900390625
z: -0.07894840836524963
visibility: 0.9997850656509399
","x: 299.4040222167969
y: 299.13409423828125
z: -0.0948171392083168
visibility: 0.9761767387390137
","x: 253.76275634765625
y: 305.060791015625
z: -0.03184780851006508
visibility: 0.9559121131896973
","x: 286.40289306640625
y: 321.5235900878906
z: -0.2497664988040924
visibility: 0.9561197757720947
","x: 255.5363006591797
y: 346.176025390625
z: -0.12146879732608795
visibility: 0.9046685695648193
","x: 282.8343200683594
y: 333.91668701171875
z: -0.29382553696632385
visibility: 0.9252578616142273
","x: 255.28192138671875
y: 361.1274719238281
z: -0.14984814822673798
visibility: 0.8566306233406067
","x: 278.330078125
y: 328.65008544921875
z: -0.314787894487381
visibility: 0.9304496645927429
","x: 257.8377685546875
y: 359.1528015136719
z: -0.18073084950447083
visibility: 0.8633711934089661
","x: 278.45574951171875
y: 325.0123596191406
z: -0.2607511579990387
visibility: 0.9112754464149475
","x: 258.93011474609375
y: 353.7954406738281
z: -0.13523170351982117
visibility: 0.8309592008590698
","x: 289.6098327636719
y: 353.2225036621094
z: -0.003686369862407446
visibility: 0.9994790554046631
","x: 267.8376159667969
y: 353.15423583984375
z: 0.003775790799409151
visibility: 0.9993991851806641
","x: 290.965087890625
y: 432.7430725097656
z: -0.04525989294052124
visibility: 0.9917101263999939
","x: 268.2248840332031
y: 436.91351318359375
z: 0.002519365167245269
visibility: 0.9837085008621216
","x: 286.3148193359375
y: 503.466552734375
z: 0.14442390203475952
visibility: 0.9892621040344238
","x: 274.2854919433594
y: 505.3004455566406
z: 0.16740036010742188
visibility: 0.9859737157821655
","x: 285.3327941894531
y: 513.9349975585938
z: 0.15410682559013367
visibility: 0.9055389165878296
","x: 277.25274658203125
y: 517.465576171875
z: 0.1757657825946808
visibility: 0.857271134853363
","x: 285.5798034667969
y: 523.7088623046875
z: 0.028713762760162354
visibility: 0.9857373833656311
","x: 269.41192626953125
y: 526.5297241210938
z: 0.05002211406826973
visibility: 0.9797497391700745
","x: 280.877685546875
y: 326.1798400878906
z: 0.0
","x: 276.6681213378906
y: 325.91864013671875
z: 0.00013160893286112696
","x: 272.14642333984375
y: 328.7156982421875
z: -0.00247776391915977
","x: 269.1336669921875
y: 332.863525390625
z: -0.005366703495383263
","x: 267.39959716796875
y: 336.49615478515625
z: -0.007875555194914341
","x: 273.0523986816406
y: 325.7784729003906
z: -0.00956401601433754
","x: 268.3645324707031
y: 334.59320068359375
z: -0.013564635068178177
","x: 269.6976013183594
y: 335.7344055175781
z: -0.013276593759655952
","x: 271.34588623046875
y: 334.7173767089844
z: -0.012502525001764297
","x: 275.4122619628906
y: 328.3426208496094
z: -0.012077263556420803
","x: 271.1390686035156
y: 337.70843505859375
z: -0.015855584293603897
","x: 272.5402526855469
y: 337.57305908203125
z: -0.01356018427759409
","x: 274.0966491699219
y: 335.4097900390625
z: -0.011535589583218098
","x: 277.5438232421875
y: 331.6820068359375
z: -0.014234906062483788
","x: 273.4765625
y: 339.8492736816406
z: -0.016866547986865044
","x: 274.7396545410156
y: 339.1725158691406
z: -0.01302523072808981
","x: 276.3011779785156
y: 336.7818908691406
z: -0.010382963344454765
","x: 279.3518981933594
y: 335.1427001953125
z: -0.016364343464374542
","x: 275.70953369140625
y: 341.67449951171875
z: -0.017863474786281586
","x: 276.51513671875
y: 340.84503173828125
z: -0.01530191395431757
","x: 278.1249694824219
y: 338.44354248046875
z: -0.013225995935499668
",,,,,,,,,,,,,,,,,,,,,
12,"x: 290.6615295410156
y: 203.7308349609375
z: -0.2678207755088806
visibility: 0.9999599456787109
","x: 290.5937805175781
y: 196.35723876953125
z: -0.24960914254188538
visibility: 0.9998967051506042
","x: 291.31134033203125
y: 196.43775939941406
z: -0.24967893958091736
visibility: 0.9998943209648132
","x: 291.9282531738281
y: 196.5480194091797
z: -0.24971623718738556
visibility: 0.9998921155929565
","x: 287.46929931640625
y: 196.0745849609375
z: -0.256117045879364
visibility: 0.9998911023139954
","x: 285.98187255859375
y: 195.95684814453125
z: -0.2561250329017639
visibility: 0.9998732209205627
","x: 284.3250732421875
y: 195.8643341064453
z: -0.25616297125816345
visibility: 0.9998621344566345
","x: 289.3026123046875
y: 200.40475463867188
z: -0.1400262713432312
visibility: 0.9998345971107483
","x: 278.6961669921875
y: 199.13494873046875
z: -0.16899839043617249
visibility: 0.999759316444397
","x: 290.94427490234375
y: 211.20462036132812
z: -0.22622203826904297
visibility: 0.9999504685401917
","x: 287.4471435546875
y: 211.2515106201172
z: -0.23483116924762726
visibility: 0.9999445676803589
","x: 298.05181884765625
y: 249.1736602783203
z: -0.09144224226474762
visibility: 0.9999485611915588
","x: 258.7366027832031
y: 249.37847900390625
z: -0.07894840836524963
visibility: 0.9997850656509399
","x: 299.4040222167969
y: 299.13409423828125
z: -0.0948171392083168
visibility: 0.9761767387390137
","x: 253.76275634765625
y: 305.060791015625
z: -0.03184780851006508
visibility: 0.9559121131896973
","x: 286.40289306640625
y: 321.5235900878906
z: -0.2497664988040924
visibility: 0.9561197757720947
","x: 255.5363006591797
y: 346.176025390625
z: -0.12146879732608795
visibility: 0.9046685695648193
","x: 282.8343200683594
y: 333.91668701171875
z: -0.29382553696632385
visibility: 0.9252578616142273
","x: 255.28192138671875
y: 361.1274719238281
z: -0.14984814822673798
visibility: 0.8566306233406067
","x: 278.330078125
y: 328.65008544921875
z: -0.314787894487381
visibility: 0.9304496645927429
","x: 257.8377685546875
y: 359.1528015136719
z: -0.18073084950447083
visibility: 0.8633711934089661
","x: 278.45574951171875
y: 325.0123596191406
z: -0.2607511579990387
visibility: 0.9112754464149475
","x: 258.93011474609375
y: 353.7954406738281
z: -0.13523170351982117
visibility: 0.8309592008590698
","x: 289.6098327636719
y: 353.2225036621094
z: -0.003686369862407446
visibility: 0.9994790554046631
","x: 267.8376159667969
y: 353.15423583984375
z: 0.003775790799409151
visibility: 0.9993991851806641
","x: 290.965087890625
y: 432.7430725097656
z: -0.04525989294052124
visibility: 0.9917101263999939
","x: 268.2248840332031
y: 436.91351318359375
z: 0.002519365167245269
visibility: 0.9837085008621216
","x: 286.3148193359375
y: 503.466552734375
z: 0.14442390203475952
visibility: 0.9892621040344238
","x: 274.2854919433594
y: 505.3004455566406
z: 0.16740036010742188
visibility: 0.9859737157821655
","x: 285.3327941894531
y: 513.9349975585938
z: 0.15410682559013367
visibility: 0.9055389165878296
","x: 277.25274658203125
y: 517.465576171875
z: 0.1757657825946808
visibility: 0.857271134853363
","x: 285.5798034667969
y: 523.7088623046875
z: 0.028713762760162354
visibility: 0.9857373833656311
","x: 269.41192626953125
y: 526.5297241210938
z: 0.05002211406826973
visibility: 0.9797497391700745
","x: 280.877685546875
y: 326.1798400878906
z: 0.0
","x: 276.6681213378906
y: 325.91864013671875
z: 0.00013160893286112696
","x: 272.14642333984375
y: 328.7156982421875
z: -0.00247776391915977
","x: 269.1336669921875
y: 332.863525390625
z: -0.005366703495383263
","x: 267.39959716796875
y: 336.49615478515625
z: -0.007875555194914341
","x: 273.0523986816406
y: 325.7784729003906
z: -0.00956401601433754
","x: 268.3645324707031
y: 334.59320068359375
z: -0.013564635068178177
","x: 269.6976013183594
y: 335.7344055175781
z: -0.013276593759655952
","x: 271.34588623046875
y: 334.7173767089844
z: -0.012502525001764297
","x: 275.4122619628906
y: 328.3426208496094
z: -0.012077263556420803
","x: 271.1390686035156
y: 337.70843505859375
z: -0.015855584293603897
","x: 272.5402526855469
y: 337.57305908203125
z: -0.01356018427759409
","x: 274.0966491699219
y: 335.4097900390625
z: -0.011535589583218098
","x: 277.5438232421875
y: 331.6820068359375
z: -0.014234906062483788
","x: 273.4765625
y: 339.8492736816406
z: -0.016866547986865044
","x: 274.7396545410156
y: 339.1725158691406
z: -0.01302523072808981
","x: 276.3011779785156
y: 336.7818908691406
z: -0.010382963344454765
","x: 279.3518981933594
y: 335.1427001953125
z: -0.016364343464374542
","x: 275.70953369140625
y: 341.67449951171875
z: -0.017863474786281586
","x: 276.51513671875
y: 340.84503173828125
z: -0.01530191395431757
","x: 278.1249694824219
y: 338.44354248046875
z: -0.013225995935499668
",,,,,,,,,,,,,,,,,,,,,
13,"x: 289.13519287109375
y: 202.98728942871094
z: -0.28575676679611206
visibility: 0.9999557137489319
","x: 289.24078369140625
y: 195.37001037597656
z: -0.26884979009628296
visibility: 0.9998841881752014
","x: 290.0451965332031
y: 195.44236755371094
z: -0.2688985764980316
visibility: 0.9998822808265686
","x: 290.79278564453125
y: 195.55250549316406
z: -0.2689337730407715
visibility: 0.9998812079429626
","x: 285.946044921875
y: 195.23619079589844
z: -0.2760518193244934
visibility: 0.9998799562454224
","x: 284.35845947265625
y: 195.26284790039062
z: -0.2760799527168274
visibility: 0.9998611807823181
","x: 282.66363525390625
y: 195.34814453125
z: -0.27615219354629517
visibility: 0.9998505711555481
","x: 288.76348876953125
y: 199.72055053710938
z: -0.1606883704662323
visibility: 0.9998175501823425
","x: 277.3519592285156
y: 199.00933837890625
z: -0.19267083704471588
visibility: 0.9997398257255554
","x: 289.6095275878906
y: 210.26904296875
z: -0.24412372708320618
visibility: 0.9999476671218872
","x: 285.7766418457031
y: 210.86721801757812
z: -0.2535470426082611
visibility: 0.9999414682388306
","x: 298.24822998046875
y: 248.9044189453125
z: -0.09362135827541351
visibility: 0.9999432563781738
","x: 258.8515625
y: 249.39984130859375
z: -0.10919264703989029
visibility: 0.9997835159301758
","x: 298.3987731933594
y: 299.3249816894531
z: -0.05146264284849167
visibility: 0.9730479717254639
","x: 253.92657470703125
y: 305.0177307128906
z: -0.06213267520070076
visibility: 0.9555422067642212
","x: 288.95538330078125
y: 334.9178771972656
z: -0.14267295598983765
visibility: 0.9496928453445435
","x: 256.8746032714844
y: 347.28533935546875
z: -0.15108148753643036
visibility: 0.9009518027305603
","x: 287.4942932128906
y: 349.2294921875
z: -0.17179085314273834
visibility: 0.9162792563438416
","x: 256.3655090332031
y: 361.9314270019531
z: -0.17903168499469757
visibility: 0.851019024848938
","x: 283.7279357910156
y: 345.8830261230469
z: -0.20187635719776154
visibility: 0.9218458533287048
","x: 258.43841552734375
y: 360.7498474121094
z: -0.20805081725120544
visibility: 0.8578773140907288
","x: 283.4580078125
y: 341.0680847167969
z: -0.1558118462562561
visibility: 0.9004644155502319
","x: 259.56671142578125
y: 355.9864807128906
z: -0.16395977139472961
visibility: 0.825074315071106
","x: 289.6891174316406
y: 353.208740234375
z: -0.0010877695167437196
visibility: 0.9994421601295471
","x: 267.9889831542969
y: 353.17120361328125
z: 0.0011710594408214092
visibility: 0.9993840456008911
","x: 290.9801025390625
y: 433.4370422363281
z: -0.019647303968667984
visibility: 0.9916362166404724
","x: 268.6665344238281
y: 436.8028564453125
z: 0.0005899188690818846
visibility: 0.9832591414451599
","x: 286.3812255859375
y: 503.5738525390625
z: 0.15139606595039368
visibility: 0.9891521334648132
","x: 274.2877197265625
y: 505.68658447265625
z: 0.16061674058437347
visibility: 0.9858437776565552
","x: 285.35400390625
y: 513.9974365234375
z: 0.160231813788414
visibility: 0.9029846787452698
","x: 277.07611083984375
y: 518.0053100585938
z: 0.16827619075775146
visibility: 0.8554928302764893
","x: 285.6888122558594
y: 523.7540283203125
z: 0.03437646105885506
visibility: 0.9855202436447144
","x: 269.4588623046875
y: 526.6982421875
z: 0.048305265605449677
visibility: 0.9797146916389465
",,,,,,,,,,,,,,,,,,,,,,,,,,,,,,,,,,,,,,,,,,
14,"x: 283.9424743652344
y: 203.31239318847656
z: -0.34271395206451416
visibility: 0.9999576210975647
","x: 285.92108154296875
y: 195.7349395751953
z: -0.3272218704223633
visibility: 0.9998874068260193
","x: 287.27593994140625
y: 195.82139587402344
z: -0.32722875475883484
visibility: 0.9998853802680969
","x: 288.50628662109375
y: 195.93746948242188
z: -0.32726186513900757
visibility: 0.9998844861984253
","x: 281.5887451171875
y: 195.4459228515625
z: -0.33038151264190674
visibility: 0.9998836517333984
","x: 279.85626220703125
y: 195.39389038085938
z: -0.3304338753223419
visibility: 0.9998666048049927
","x: 278.2366638183594
y: 195.4082489013672
z: -0.33046409487724304
visibility: 0.9998570680618286
","x: 288.4884338378906
y: 199.86692810058594
z: -0.22009041905403137
visibility: 0.9998186230659485
","x: 274.560546875
y: 199.02809143066406
z: -0.23503521084785461
visibility: 0.9997522234916687
","x: 285.89117431640625
y: 210.622802734375
z: -0.3014090955257416
visibility: 0.9999493956565857
","x: 280.878662109375
y: 210.95074462890625
z: -0.3058646321296692
visibility: 0.9999433755874634
","x: 298.3753356933594
y: 248.9737091064453
z: -0.13575193285942078
visibility: 0.9999352693557739
","x: 258.74749755859375
y: 249.8544158935547
z: -0.13992463052272797
visibility: 0.9997960329055786
","x: 299.4591064453125
y: 303.3657531738281
z: -0.05682159215211868
visibility: 0.9686636328697205
","x: 252.4012451171875
y: 304.9697570800781
z: -0.06720378249883652
visibility: 0.9562845826148987
","x: 301.1541748046875
y: 347.13458251953125
z: -0.11158206313848495
visibility: 0.9321851134300232
","x: 247.63177490234375
y: 346.7852478027344
z: -0.11287452280521393
visibility: 0.8983440399169922
","x: 303.1197814941406
y: 363.5928039550781
z: -0.12722700834274292
visibility: 0.8919875025749207
","x: 245.3803253173828
y: 361.3594055175781
z: -0.1283949315547943
visibility: 0.8447200655937195
","x: 302.5450439453125
y: 363.475341796875
z: -0.1595868468284607
visibility: 0.8987551927566528
","x: 247.23095703125
y: 360.0013427734375
z: -0.16240674257278442
visibility: 0.8522787690162659
","x: 300.8948059082031
y: 358.7528991699219
z: -0.12500150501728058
visibility: 0.8775221705436707
","x: 248.96066284179688
y: 355.34814453125
z: -0.12697388231754303
visibility: 0.8215210437774658
","x: 291.025146484375
y: 353.48077392578125
z: -0.0011387739796191454
visibility: 0.9994076490402222
","x: 268.6839294433594
y: 353.3364562988281
z: 0.0011853063479065895
visibility: 0.9993720650672913
","x: 291.01171875
y: 435.3861999511719
z: -0.004401314537972212
visibility: 0.9909336566925049
","x: 269.28729248046875
y: 436.608154296875
z: 0.005270832218229771
visibility: 0.9827196002006531
","x: 286.3141174316406
y: 504.423583984375
z: 0.17042340338230133
visibility: 0.9887309670448303
","x: 274.30181884765625
y: 505.7794189453125
z: 0.17459417879581451
visibility: 0.9852749109268188
","x: 285.3487548828125
y: 514.9479370117188
z: 0.17987461388111115
visibility: 0.893062949180603
","x: 276.9601135253906
y: 517.8670043945312
z: 0.18364062905311584
visibility: 0.8512547016143799
","x: 285.73956298828125
y: 524.660400390625
z: 0.05696368217468262
visibility: 0.9846817255020142
","x: 269.5372619628906
y: 526.9298095703125
z: 0.05944712087512016
visibility: 0.9794032573699951
",,,,,,,,,,,,,,,,,,,,,,,,,,,,,,,,,,,,,,,,,,
15,"x: 281.2781677246094
y: 200.91259765625
z: -0.4019293189048767
visibility: 0.9999604225158691
","x: 283.871337890625
y: 194.24742126464844
z: -0.38513749837875366
visibility: 0.9998937845230103
","x: 285.3182373046875
y: 194.56539916992188
z: -0.38515791296958923
visibility: 0.9998921155929565
","x: 286.7054138183594
y: 194.87496948242188
z: -0.38520386815071106
visibility: 0.9998916387557983
","x: 279.2554626464844
y: 193.7113037109375
z: -0.3869711756706238
visibility: 0.9998899698257446
","x: 277.63873291015625
y: 193.75146484375
z: -0.38703280687332153
visibility: 0.9998740553855896
","x: 276.1092529296875
y: 193.8748779296875
z: -0.3870597183704376
visibility: 0.9998645186424255
","x: 287.66302490234375
y: 199.40420532226562
z: -0.27351701259613037
visibility: 0.9998279809951782
","x: 272.77484130859375
y: 198.26173400878906
z: -0.28325706720352173
visibility: 0.9997631907463074
","x: 283.8720397949219
y: 208.745849609375
z: -0.3597817122936249
visibility: 0.9999524354934692
","x: 278.1730651855469
y: 208.45339965820312
z: -0.3627035915851593
visibility: 0.9999461770057678
","x: 298.4504089355469
y: 248.89703369140625
z: -0.19207711517810822
visibility: 0.9999379515647888
","x: 258.0738220214844
y: 249.86318969726562
z: -0.18344344198703766
visibility: 0.999804675579071
","x: 305.4617919921875
y: 303.2110595703125
z: -0.1324891448020935
visibility: 0.9711403250694275
","x: 249.5730438232422
y: 303.86944580078125
z: -0.12599153816699982
visibility: 0.9582424759864807
","x: 313.376220703125
y: 347.4066467285156
z: -0.19274984300136566
visibility: 0.9372961521148682
","x: 239.96826171875
y: 346.5154724121094
z: -0.1902284175157547
visibility: 0.9025058746337891
","x: 317.69610595703125
y: 363.79144287109375
z: -0.2054050713777542
visibility: 0.898758053779602
","x: 237.3914794921875
y: 360.9472351074219
z: -0.21057701110839844
visibility: 0.8486378788948059
","x: 316.31549072265625
y: 363.92718505859375
z: -0.24931032955646515
visibility: 0.9052155017852783
","x: 238.50833129882812
y: 359.6575927734375
z: -0.25135353207588196
visibility: 0.8564864993095398
","x: 314.4576110839844
y: 359.2693786621094
z: -0.2089575231075287
visibility: 0.8853514790534973
","x: 239.86720275878906
y: 355.144775390625
z: -0.2082018107175827
visibility: 0.8276981115341187
","x: 291.2670593261719
y: 351.00750732421875
z: -0.002286012750118971
visibility: 0.9993818402290344
","x: 268.7808837890625
y: 351.1343688964844
z: 0.002279662061482668
visibility: 0.9993444681167603
","x: 291.1409912109375
y: 432.6509094238281
z: -0.00957499723881483
visibility: 0.9900129437446594
","x: 269.53314208984375
y: 432.875732421875
z: 0.0022381774615496397
visibility: 0.9816861152648926
","x: 286.2477722167969
y: 504.4042663574219
z: 0.1568603515625
visibility: 0.9878365993499756
","x: 274.33795166015625
y: 505.616455078125
z: 0.15456125140190125
visibility: 0.9841063022613525
","x: 285.322265625
y: 514.9996337890625
z: 0.17448636889457703
visibility: 0.8826669454574585
","x: 276.95574951171875
y: 517.7211303710938
z: 0.161286860704422
visibility: 0.8456594944000244
","x: 285.76910400390625
y: 524.5934448242188
z: 0.0450311079621315
visibility: 0.9832111597061157
","x: 269.71533203125
y: 526.6829223632812
z: 0.03178581967949867
visibility: 0.9784179329872131
",,,,,,,,,,,,,,,,,,,,,,,,,,,,,,,,,,,,,,,,,,
16,"x: 280.35382080078125
y: 201.29168701171875
z: -0.4167974591255188
visibility: 0.9999566078186035
","x: 282.6726989746094
y: 194.54002380371094
z: -0.3993733525276184
visibility: 0.9998762607574463
","x: 284.0120544433594
y: 194.87783813476562
z: -0.3993852138519287
visibility: 0.9998727440834045
","x: 285.3208312988281
y: 195.19708251953125
z: -0.3994287848472595
visibility: 0.9998733997344971
","x: 278.3141784667969
y: 193.8988494873047
z: -0.4002620577812195
visibility: 0.9998788237571716
","x: 276.7221374511719
y: 193.91038513183594
z: -0.40035325288772583
visibility: 0.9998640418052673
","x: 275.1517333984375
y: 194.01075744628906
z: -0.40042224526405334
visibility: 0.9998565912246704
","x: 286.2774963378906
y: 199.57598876953125
z: -0.28668326139450073
visibility: 0.9997710585594177
","x: 271.7686767578125
y: 198.41392517089844
z: -0.29224568605422974
visibility: 0.9997440576553345
","x: 282.6627197265625
y: 209.11795043945312
z: -0.3747391104698181
visibility: 0.9999448657035828
","x: 277.25946044921875
y: 208.72164916992188
z: -0.3764702081680298
visibility: 0.9999407529830933
","x: 297.6910705566406
y: 249.05252075195312
z: -0.2024206817150116
visibility: 0.9999071359634399
","x: 257.7984619140625
y: 250.00877380371094
z: -0.19653134047985077
visibility: 0.9998124837875366
","x: 305.0055847167969
y: 305.89947509765625
z: -0.1460503190755844
visibility: 0.9695137143135071
","x: 248.20570373535156
y: 303.85015869140625
z: -0.15037906169891357
visibility: 0.9608738422393799
","x: 310.20782470703125
y: 352.4583435058594
z: -0.20129923522472382
visibility: 0.9266479015350342
","x: 237.65164184570312
y: 348.80206298828125
z: -0.21053984761238098
visibility: 0.9045066237449646
","x: 314.0810546875
y: 369.36163330078125
z: -0.2109891176223755
visibility: 0.8810796737670898
","x: 235.5249481201172
y: 363.0984191894531
z: -0.2308845818042755
visibility: 0.8476863503456116
","x: 313.1095275878906
y: 370.4510803222656
z: -0.2538999915122986
visibility: 0.8882651329040527
","x: 237.17105102539062
y: 362.91741943359375
z: -0.267038494348526
visibility: 0.8558359742164612
","x: 310.99481201171875
y: 364.4358825683594
z: -0.21639016270637512
visibility: 0.8682292103767395
","x: 238.3129119873047
y: 358.79449462890625
z: -0.22672590613365173
visibility: 0.8285135626792908
","x: 292.1571350097656
y: 351.0147705078125
z: -0.0022496660239994526
visibility: 0.9992643594741821
","x: 269.4687805175781
y: 350.973876953125
z: 0.002250197809189558
visibility: 0.9993081092834473
","x: 291.8475036621094
y: 429.1578674316406
z: -0.030537471175193787
visibility: 0.9892154335975647
","x: 269.79229736328125
y: 430.558349609375
z: -0.030873477458953857
visibility: 0.9814701676368713
","x: 286.2015380859375
y: 503.37652587890625
z: 0.11731128394603729
visibility: 0.9869657158851624
","x: 274.349365234375
y: 505.5508728027344
z: 0.11522010713815689
visibility: 0.9834324717521667
","x: 285.0115966796875
y: 513.6188354492188
z: 0.12483171373605728
visibility: 0.8752246499061584
","x: 276.8384704589844
y: 517.652099609375
z: 0.1209726557135582
visibility: 0.8403499126434326
","x: 286.1828918457031
y: 524.162353515625
z: -0.009142182767391205
visibility: 0.9818334579467773
","x: 270.14483642578125
y: 526.5543212890625
z: -0.0180742759257555
visibility: 0.9776168465614319
",,,,,,,,,,,,,,,,,,,,,,,,,,,,,,,,,,,,,,,,,,
17,"x: 281.12945556640625
y: 203.5322723388672
z: -0.38795632123947144
visibility: 0.9999567866325378
","x: 283.01397705078125
y: 197.1837158203125
z: -0.37130844593048096
visibility: 0.999873161315918
","x: 284.2368469238281
y: 197.58554077148438
z: -0.37131696939468384
visibility: 0.9998703598976135
","x: 285.4336853027344
y: 197.95513916015625
z: -0.37134233117103577
visibility: 0.9998708367347717
","x: 278.9696960449219
y: 196.2594757080078
z: -0.3751041293144226
visibility: 0.9998772144317627
","x: 277.2675476074219
y: 196.18051147460938
z: -0.37516850233078003
visibility: 0.9998642206192017
","x: 275.5904846191406
y: 196.22259521484375
z: -0.3752194941043854
visibility: 0.9998567700386047
","x: 286.01019287109375
y: 201.7622528076172
z: -0.2592279314994812
visibility: 0.999758780002594
","x: 271.48992919921875
y: 200.18792724609375
z: -0.2781214118003845
visibility: 0.9997435808181763
","x: 283.02655029296875
y: 211.13525390625
z: -0.34519949555397034
visibility: 0.9999427199363708
","x: 277.9512634277344
y: 210.67262268066406
z: -0.3508508503437042
visibility: 0.9999393820762634
","x: 296.2618408203125
y: 249.89027404785156
z: -0.1756332665681839
visibility: 0.9999008774757385
","x: 257.2690734863281
y: 250.2490234375
z: -0.18083539605140686
visibility: 0.9998193979263306
","x: 304.68780517578125
y: 306.8823547363281
z: -0.1227172464132309
visibility: 0.969265341758728
","x: 248.70083618164062
y: 303.76593017578125
z: -0.13111929595470428
visibility: 0.9621486663818359
","x: 309.5734558105469
y: 351.12689208984375
z: -0.17204120755195618
visibility: 0.9239704608917236
","x: 240.69815063476562
y: 348.333984375
z: -0.1968868225812912
visibility: 0.9055363535881042
","x: 313.66424560546875
y: 367.187255859375
z: -0.1877337545156479
visibility: 0.8753162622451782
","x: 238.44786071777344
y: 362.63018798828125
z: -0.2194102257490158
visibility: 0.8471086621284485
","x: 313.2052001953125
y: 367.4943542480469
z: -0.2239452302455902
visibility: 0.8831765055656433
","x: 239.68577575683594
y: 362.2613525390625
z: -0.2532489001750946
visibility: 0.8556815981864929
","x: 311.02069091796875
y: 362.22271728515625
z: -0.18719974160194397
visibility: 0.8631023168563843
","x: 241.1580047607422
y: 358.03607177734375
z: -0.21216635406017303
visibility: 0.8293889760971069
","x: 291.98956298828125
y: 350.9457702636719
z: -0.0023279187735170126
visibility: 0.9991623163223267
","x: 269.4332275390625
y: 350.9013671875
z: 0.002314241137355566
visibility: 0.9992488622665405
","x: 291.7489318847656
y: 428.1251220703125
z: 0.004097667057067156
visibility: 0.9891822934150696
","x: 269.7326965332031
y: 430.2777404785156
z: -0.005687242839485407
visibility: 0.9814876317977905
","x: 286.2745666503906
y: 502.87335205078125
z: 0.13619768619537354
visibility: 0.9872106909751892
","x: 274.4882507324219
y: 504.9562072753906
z: 0.12705779075622559
visibility: 0.9834913611412048
","x: 285.4329833984375
y: 512.9791870117188
z: 0.14074376225471497
visibility: 0.8704691529273987
","x: 277.2025146484375
y: 516.6088256835938
z: 0.13490858674049377
visibility: 0.8384796380996704
","x: 285.8985900878906
y: 523.8643188476562
z: 0.010691882111132145
visibility: 0.9820024371147156
","x: 270.2413024902344
y: 526.3164672851562
z: 0.003661389695480466
visibility: 0.9779148697853088
","x: 316.24456787109375
y: 357.4602966308594
z: 0.0
","x: 313.1365966796875
y: 369.7864074707031
z: 0.0013806624338030815
","x: 311.1174621582031
y: 381.359130859375
z: -0.0012313328916206956
","x: 309.2188415527344
y: 389.9349670410156
z: -0.0048248618841171265
","x: 307.82635498046875
y: 396.167724609375
z: -0.007374212611466646
","x: 316.05560302734375
y: 391.1149597167969
z: -0.0039305612444877625
","x: 306.8331298828125
y: 392.9981994628906
z: -0.008719956502318382
","x: 306.0626525878906
y: 387.0948486328125
z: -0.010535870678722858
","x: 308.0925598144531
y: 383.1700439453125
z: -0.011472240090370178
","x: 316.7764587402344
y: 386.5258483886719
z: -0.008203363046050072
","x: 306.33099365234375
y: 386.91998291015625
z: -0.013223393820226192
","x: 306.2736511230469
y: 381.5947265625
z: -0.012415420264005661
","x: 308.1197814941406
y: 377.8048095703125
z: -0.011991282925009727
","x: 316.48883056640625
y: 380.45758056640625
z: -0.012449050322175026
","x: 306.7807312011719
y: 381.4999084472656
z: -0.016174016520380974
","x: 306.61676025390625
y: 377.2315673828125
z: -0.012721516191959381
","x: 308.05841064453125
y: 374.3014831542969
z: -0.010524778626859188
","x: 315.47027587890625
y: 373.6363220214844
z: -0.0169354397803545
","x: 308.331787109375
y: 376.1074523925781
z: -0.019226308912038803
","x: 307.2816467285156
y: 373.6254577636719
z: -0.016591409221291542
","x: 307.5010986328125
y: 371.7201232910156
z: -0.014532008208334446
",,,,,,,,,,,,,,,,,,,,,
18,"x: 281.12945556640625
y: 203.5322723388672
z: -0.38795632123947144
visibility: 0.9999567866325378
","x: 283.01397705078125
y: 197.1837158203125
z: -0.37130844593048096
visibility: 0.999873161315918
","x: 284.2368469238281
y: 197.58554077148438
z: -0.37131696939468384
visibility: 0.9998703598976135
","x: 285.4336853027344
y: 197.95513916015625
z: -0.37134233117103577
visibility: 0.9998708367347717
","x: 278.9696960449219
y: 196.2594757080078
z: -0.3751041293144226
visibility: 0.9998772144317627
","x: 277.2675476074219
y: 196.18051147460938
z: -0.37516850233078003
visibility: 0.9998642206192017
","x: 275.5904846191406
y: 196.22259521484375
z: -0.3752194941043854
visibility: 0.9998567700386047
","x: 286.01019287109375
y: 201.7622528076172
z: -0.2592279314994812
visibility: 0.999758780002594
","x: 271.48992919921875
y: 200.18792724609375
z: -0.2781214118003845
visibility: 0.9997435808181763
","x: 283.02655029296875
y: 211.13525390625
z: -0.34519949555397034
visibility: 0.9999427199363708
","x: 277.9512634277344
y: 210.67262268066406
z: -0.3508508503437042
visibility: 0.9999393820762634
","x: 296.2618408203125
y: 249.89027404785156
z: -0.1756332665681839
visibility: 0.9999008774757385
","x: 257.2690734863281
y: 250.2490234375
z: -0.18083539605140686
visibility: 0.9998193979263306
","x: 304.68780517578125
y: 306.8823547363281
z: -0.1227172464132309
visibility: 0.969265341758728
","x: 248.70083618164062
y: 303.76593017578125
z: -0.13111929595470428
visibility: 0.9621486663818359
","x: 309.5734558105469
y: 351.12689208984375
z: -0.17204120755195618
visibility: 0.9239704608917236
","x: 240.69815063476562
y: 348.333984375
z: -0.1968868225812912
visibility: 0.9055363535881042
","x: 313.66424560546875
y: 367.187255859375
z: -0.1877337545156479
visibility: 0.8753162622451782
","x: 238.44786071777344
y: 362.63018798828125
z: -0.2194102257490158
visibility: 0.8471086621284485
","x: 313.2052001953125
y: 367.4943542480469
z: -0.2239452302455902
visibility: 0.8831765055656433
","x: 239.68577575683594
y: 362.2613525390625
z: -0.2532489001750946
visibility: 0.8556815981864929
","x: 311.02069091796875
y: 362.22271728515625
z: -0.18719974160194397
visibility: 0.8631023168563843
","x: 241.1580047607422
y: 358.03607177734375
z: -0.21216635406017303
visibility: 0.8293889760971069
","x: 291.98956298828125
y: 350.9457702636719
z: -0.0023279187735170126
visibility: 0.9991623163223267
","x: 269.4332275390625
y: 350.9013671875
z: 0.002314241137355566
visibility: 0.9992488622665405
","x: 291.7489318847656
y: 428.1251220703125
z: 0.004097667057067156
visibility: 0.9891822934150696
","x: 269.7326965332031
y: 430.2777404785156
z: -0.005687242839485407
visibility: 0.9814876317977905
","x: 286.2745666503906
y: 502.87335205078125
z: 0.13619768619537354
visibility: 0.9872106909751892
","x: 274.4882507324219
y: 504.9562072753906
z: 0.12705779075622559
visibility: 0.9834913611412048
","x: 285.4329833984375
y: 512.9791870117188
z: 0.14074376225471497
visibility: 0.8704691529273987
","x: 277.2025146484375
y: 516.6088256835938
z: 0.13490858674049377
visibility: 0.8384796380996704
","x: 285.8985900878906
y: 523.8643188476562
z: 0.010691882111132145
visibility: 0.9820024371147156
","x: 270.2413024902344
y: 526.3164672851562
z: 0.003661389695480466
visibility: 0.9779148697853088
","x: 316.24456787109375
y: 357.4602966308594
z: 0.0
","x: 313.1365966796875
y: 369.7864074707031
z: 0.0013806624338030815
","x: 311.1174621582031
y: 381.359130859375
z: -0.0012313328916206956
","x: 309.2188415527344
y: 389.9349670410156
z: -0.0048248618841171265
","x: 307.82635498046875
y: 396.167724609375
z: -0.007374212611466646
","x: 316.05560302734375
y: 391.1149597167969
z: -0.0039305612444877625
","x: 306.8331298828125
y: 392.9981994628906
z: -0.008719956502318382
","x: 306.0626525878906
y: 387.0948486328125
z: -0.010535870678722858
","x: 308.0925598144531
y: 383.1700439453125
z: -0.011472240090370178
","x: 316.7764587402344
y: 386.5258483886719
z: -0.008203363046050072
","x: 306.33099365234375
y: 386.91998291015625
z: -0.013223393820226192
","x: 306.2736511230469
y: 381.5947265625
z: -0.012415420264005661
","x: 308.1197814941406
y: 377.8048095703125
z: -0.011991282925009727
","x: 316.48883056640625
y: 380.45758056640625
z: -0.012449050322175026
","x: 306.7807312011719
y: 381.4999084472656
z: -0.016174016520380974
","x: 306.61676025390625
y: 377.2315673828125
z: -0.012721516191959381
","x: 308.05841064453125
y: 374.3014831542969
z: -0.010524778626859188
","x: 315.47027587890625
y: 373.6363220214844
z: -0.0169354397803545
","x: 308.331787109375
y: 376.1074523925781
z: -0.019226308912038803
","x: 307.2816467285156
y: 373.6254577636719
z: -0.016591409221291542
","x: 307.5010986328125
y: 371.7201232910156
z: -0.014532008208334446
",,,,,,,,,,,,,,,,,,,,,
19,"x: 281.6812438964844
y: 204.68687438964844
z: -0.3786529302597046
visibility: 0.9999594688415527
","x: 283.4220886230469
y: 198.39306640625
z: -0.3612251877784729
visibility: 0.9998796582221985
","x: 284.6523742675781
y: 198.78009033203125
z: -0.3612363636493683
visibility: 0.9998772144317627
","x: 285.8209228515625
y: 199.1294708251953
z: -0.36126649379730225
visibility: 0.9998775720596313
","x: 279.3907165527344
y: 197.32537841796875
z: -0.3659612834453583
visibility: 0.9998829364776611
","x: 277.669189453125
y: 197.10113525390625
z: -0.3660126328468323
visibility: 0.9998711943626404
","x: 275.9117431640625
y: 197.05050659179688
z: -0.36605316400527954
visibility: 0.9998638033866882
","x: 286.27459716796875
y: 202.7196044921875
z: -0.24626250565052032
visibility: 0.99977046251297
","x: 271.731689453125
y: 200.9095001220703
z: -0.2692812979221344
visibility: 0.999755859375
","x: 283.47271728515625
y: 212.38751220703125
z: -0.33472293615341187
visibility: 0.9999457001686096
","x: 278.52105712890625
y: 211.7436065673828
z: -0.34157779812812805
visibility: 0.9999423623085022
","x: 295.51123046875
y: 250.98997497558594
z: -0.16186943650245667
visibility: 0.9999062418937683
","x: 257.0186462402344
y: 250.25909423828125
z: -0.1751750260591507
visibility: 0.9998278021812439
","x: 304.4548034667969
y: 306.9495849609375
z: -0.09950133413076401
visibility: 0.9707581400871277
","x: 248.83209228515625
y: 303.1383972167969
z: -0.12880562245845795
visibility: 0.9639455080032349
","x: 311.6736145019531
y: 349.98712158203125
z: -0.1655859500169754
visibility: 0.9279431104660034
","x: 241.8734588623047
y: 348.1578369140625
z: -0.2007153332233429
visibility: 0.909959614276886
","x: 316.3661804199219
y: 365.4200439453125
z: -0.18635323643684387
visibility: 0.8803830146789551
","x: 239.77096557617188
y: 362.5277404785156
z: -0.22407345473766327
visibility: 0.8525368571281433
","x: 315.7242431640625
y: 365.5003662109375
z: -0.2226746529340744
visibility: 0.8882316946983337
","x: 240.95521545410156
y: 361.91259765625
z: -0.2612472176551819
visibility: 0.8612224459648132
","x: 313.7415466308594
y: 361.2247009277344
z: -0.1815190613269806
visibility: 0.8689879775047302
","x: 242.21505737304688
y: 357.62896728515625
z: -0.2171119898557663
visibility: 0.8362470269203186
","x: 290.20184326171875
y: 351.584228515625
z: -0.0022892379201948643
visibility: 0.999179482460022
","x: 268.3847351074219
y: 351.0923767089844
z: 0.0022720189299434423
visibility: 0.9992493987083435
","x: 291.35260009765625
y: 428.35504150390625
z: -0.0061470502987504005
visibility: 0.9892000555992126
","x: 269.52593994140625
y: 430.65789794921875
z: 0.005841680336743593
visibility: 0.9809552431106567
","x: 285.460693359375
y: 502.9071044921875
z: 0.15054000914096832
visibility: 0.987316370010376
","x: 274.52734375
y: 504.9473876953125
z: 0.1618904024362564
visibility: 0.9832761883735657
","x: 284.73956298828125
y: 512.9890747070312
z: 0.15813419222831726
visibility: 0.8654905557632446
","x: 277.21759033203125
y: 516.4629516601562
z: 0.1697673499584198
visibility: 0.8372684121131897
","x: 285.0818176269531
y: 524.4664916992188
z: 0.03016878291964531
visibility: 0.9821078181266785
","x: 270.54498291015625
y: 526.135009765625
z: 0.041302282363176346
visibility: 0.978064239025116
",,,,,,,,,,,,,,,,,,,,,,,,,,,,,,,,,,,,,,,,,,
20,"x: 282.17919921875
y: 208.81646728515625
z: -0.37373656034469604
visibility: 0.9999613165855408
","x: 283.6191711425781
y: 201.8405303955078
z: -0.35743868350982666
visibility: 0.999882698059082
","x: 284.82916259765625
y: 202.10195922851562
z: -0.3574536442756653
visibility: 0.9998809695243835
","x: 286.0042724609375
y: 202.32525634765625
z: -0.35748931765556335
visibility: 0.9998807907104492
","x: 279.7013854980469
y: 200.87908935546875
z: -0.36306869983673096
visibility: 0.9998847246170044
","x: 277.9471740722656
y: 200.55227661132812
z: -0.36311525106430054
visibility: 0.9998743534088135
","x: 276.1689453125
y: 200.33326721191406
z: -0.36315563321113586
visibility: 0.9998660683631897
","x: 286.4638977050781
y: 205.37840270996094
z: -0.24455177783966064
visibility: 0.9997760653495789
","x: 271.9427185058594
y: 203.48715209960938
z: -0.27242186665534973
visibility: 0.999760091304779
","x: 283.6448669433594
y: 216.148193359375
z: -0.33001598715782166
visibility: 0.999947190284729
","x: 279.19390869140625
y: 215.40228271484375
z: -0.33811676502227783
visibility: 0.9999437928199768
","x: 295.43951416015625
y: 254.61361694335938
z: -0.1597466617822647
visibility: 0.9999128580093384
","x: 257.10211181640625
y: 250.89334106445312
z: -0.17738929390907288
visibility: 0.9998388886451721
","x: 304.8388366699219
y: 307.792236328125
z: -0.09935200959444046
visibility: 0.972203254699707
","x: 248.41644287109375
y: 303.2693786621094
z: -0.1296067237854004
visibility: 0.9659232497215271
","x: 317.7820129394531
y: 350.5505676269531
z: -0.17606887221336365
visibility: 0.932364284992218
","x: 239.27001953125
y: 348.1252746582031
z: -0.2014816254377365
visibility: 0.9157458543777466
","x: 322.4205627441406
y: 364.67120361328125
z: -0.1959143728017807
visibility: 0.8863217234611511
","x: 235.92929077148438
y: 362.3129577636719
z: -0.2249697744846344
visibility: 0.8606542944908142
","x: 322.4786682128906
y: 364.4530944824219
z: -0.24085001647472382
visibility: 0.8941947817802429
","x: 236.9945526123047
y: 361.5435485839844
z: -0.2635590434074402
visibility: 0.8692407608032227
","x: 320.3669128417969
y: 360.3456115722656
z: -0.1963970959186554
visibility: 0.8760972619056702
","x: 238.31614685058594
y: 357.2290344238281
z: -0.21867072582244873
visibility: 0.845893919467926
","x: 290.1826171875
y: 353.80206298828125
z: -0.0018024425953626633
visibility: 0.9992207288742065
","x: 268.45257568359375
y: 352.9675598144531
z: 0.0017744109500199556
visibility: 0.9992785453796387
","x: 291.3920593261719
y: 429.2997741699219
z: -0.0019442804623395205
visibility: 0.9887872338294983
","x: 269.6712646484375
y: 431.7198181152344
z: 0.013051040470600128
visibility: 0.9796015620231628
","x: 285.1139221191406
y: 502.80316162109375
z: 0.16723434627056122
visibility: 0.9869360327720642
","x: 274.57562255859375
y: 504.3530578613281
z: 0.18557730317115784
visibility: 0.9825356006622314
","x: 284.14959716796875
y: 512.1382446289062
z: 0.17666111886501312
visibility: 0.8626313209533691
","x: 277.2074279785156
y: 514.5732421875
z: 0.19506075978279114
visibility: 0.8337278366088867
","x: 285.09149169921875
y: 525.5747680664062
z: 0.053889624774456024
visibility: 0.9819748401641846
","x: 271.0907897949219
y: 526.1298828125
z: 0.07187362015247345
visibility: 0.9777833223342896
",,,,,,,,,,,,,,,,,,,,,,,,,,,,,,,,,,,,,,,,,,
21,"x: 284.57537841796875
y: 209.2518310546875
z: -0.35954415798187256
visibility: 0.9999626874923706
","x: 285.47442626953125
y: 202.1527099609375
z: -0.34511077404022217
visibility: 0.9998841881752014
","x: 286.4729919433594
y: 202.44955444335938
z: -0.3451150059700012
visibility: 0.9998830556869507
","x: 287.4185485839844
y: 202.74293518066406
z: -0.34513503313064575
visibility: 0.999882161617279
","x: 281.7133483886719
y: 201.18402099609375
z: -0.35635441541671753
visibility: 0.9998863935470581
","x: 279.969970703125
y: 200.885498046875
z: -0.3564070463180542
visibility: 0.9998771548271179
","x: 278.08770751953125
y: 200.66102600097656
z: -0.35647985339164734
visibility: 0.9998679757118225
","x: 287.0945739746094
y: 205.9758758544922
z: -0.23748357594013214
visibility: 0.9997778534889221
","x: 273.4276428222656
y: 203.77767944335938
z: -0.26363879442214966
visibility: 0.9997653961181641
","x: 285.18829345703125
y: 216.52685546875
z: -0.3166671097278595
visibility: 0.9999477863311768
","x: 281.1192626953125
y: 215.8889923095703
z: -0.33168190717697144
visibility: 0.9999448657035828
","x: 295.5933837890625
y: 255.8447265625
z: -0.14899757504463196
visibility: 0.9999179244041443
","x: 257.1689147949219
y: 251.2173614501953
z: -0.17303887009620667
visibility: 0.9998496174812317
","x: 305.4064636230469
y: 308.0475158691406
z: -0.08484210819005966
visibility: 0.9733732342720032
","x: 248.3206787109375
y: 303.2618103027344
z: -0.12724825739860535
visibility: 0.9680442214012146
","x: 321.7201232910156
y: 350.0426940917969
z: -0.1707455813884735
visibility: 0.9365410208702087
","x: 238.60716247558594
y: 347.9818115234375
z: -0.19841554760932922
visibility: 0.9216017127037048
","x: 326.0758361816406
y: 363.95489501953125
z: -0.19240736961364746
visibility: 0.8920421600341797
","x: 235.19424438476562
y: 362.092529296875
z: -0.2216196060180664
visibility: 0.8689735531806946
","x: 326.34747314453125
y: 363.5706787109375
z: -0.23199579119682312
visibility: 0.899937629699707
","x: 236.158447265625
y: 361.33221435546875
z: -0.2588406205177307
visibility: 0.8773277997970581
","x: 324.3964538574219
y: 359.41729736328125
z: -0.18923650681972504
visibility: 0.8829411864280701
","x: 237.48020935058594
y: 357.1396179199219
z: -0.2138112485408783
visibility: 0.8554823994636536
","x: 290.4455871582031
y: 354.69970703125
z: 0.0002842009998857975
visibility: 0.9992359280586243
","x: 268.61279296875
y: 353.7931823730469
z: -0.00030810580938123167
visibility: 0.9992972612380981
","x: 291.4300231933594
y: 430.0369567871094
z: 0.00354192266240716
visibility: 0.9883575439453125
","x: 270.22711181640625
y: 431.85552978515625
z: 0.010860753245651722
visibility: 0.9783419966697693
","x: 284.74908447265625
y: 502.8013916015625
z: 0.15953803062438965
visibility: 0.9865298271179199
","x: 274.6474609375
y: 504.3411865234375
z: 0.1731158196926117
visibility: 0.9818816184997559
","x: 283.410888671875
y: 511.99346923828125
z: 0.16766178607940674
visibility: 0.8621053099632263
","x: 277.1690979003906
y: 514.6123657226562
z: 0.18122392892837524
visibility: 0.8306825757026672
","x: 285.1430969238281
y: 526.455078125
z: 0.047714948654174805
visibility: 0.9818298816680908
","x: 271.5093994140625
y: 526.1503295898438
z: 0.05796698480844498
visibility: 0.9775406718254089
",,,,,,,,,,,,,,,,,,,,,,,,,,,,,,,,,,,,,,,,,,
22,"x: 285.6022644042969
y: 208.83663940429688
z: -0.34316036105155945
visibility: 0.9999656081199646
","x: 286.6129150390625
y: 201.5037384033203
z: -0.32636770606040955
visibility: 0.9998928308486938
","x: 287.71697998046875
y: 201.76988220214844
z: -0.32639366388320923
visibility: 0.9998918771743774
","x: 288.7453308105469
y: 202.11907958984375
z: -0.3264152407646179
visibility: 0.9998908638954163
","x: 282.5616760253906
y: 200.8232879638672
z: -0.3346702456474304
visibility: 0.9998943209648132
","x: 280.7566833496094
y: 200.63052368164062
z: -0.3347068428993225
visibility: 0.9998857378959656
","x: 278.8013000488281
y: 200.48117065429688
z: -0.33475109934806824
visibility: 0.9998765587806702
","x: 288.5106201171875
y: 205.72496032714844
z: -0.21608543395996094
visibility: 0.9997943639755249
","x: 274.3152770996094
y: 203.323486328125
z: -0.25012555718421936
visibility: 0.9997812509536743
","x: 286.72674560546875
y: 216.24391174316406
z: -0.3006521463394165
visibility: 0.9999517798423767
","x: 282.11724853515625
y: 215.66282653808594
z: -0.31231772899627686
visibility: 0.9999489188194275
","x: 296.0562438964844
y: 255.74453735351562
z: -0.13989053666591644
visibility: 0.9999248385429382
","x: 257.4915771484375
y: 251.17364501953125
z: -0.16443324089050293
visibility: 0.9998601675033569
","x: 307.5423889160156
y: 308.2149963378906
z: -0.08731681853532791
visibility: 0.9751409292221069
","x: 247.61241149902344
y: 303.15380859375
z: -0.12400684505701065
visibility: 0.9698461890220642
","x: 324.2372131347656
y: 349.9682312011719
z: -0.18879014253616333
visibility: 0.9416232705116272
","x: 236.8469696044922
y: 346.37774658203125
z: -0.19474278390407562
visibility: 0.927008867263794
","x: 328.736572265625
y: 363.51080322265625
z: -0.21431472897529602
visibility: 0.8998968005180359
","x: 232.8485870361328
y: 360.27203369140625
z: -0.21453531086444855
visibility: 0.8769073486328125
","x: 328.7590637207031
y: 363.2432861328125
z: -0.25270217657089233
visibility: 0.9074490666389465
","x: 234.09255981445312
y: 359.90899658203125
z: -0.2574821710586548
visibility: 0.8850549459457397
","x: 326.9116516113281
y: 358.54669189453125
z: -0.20724895596504211
visibility: 0.8916917443275452
","x: 235.81594848632812
y: 355.85711669921875
z: -0.2133166790008545
visibility: 0.8647023439407349
","x: 290.5142822265625
y: 354.75836181640625
z: 0.0006103584310039878
visibility: 0.999285876750946
","x: 268.70050048828125
y: 354.4024353027344
z: -0.0006453859386965632
visibility: 0.9993301033973694
","x: 291.4484558105469
y: 430.06103515625
z: -0.01655248925089836
visibility: 0.9883530735969543
","x: 270.2706298828125
y: 432.00439453125
z: 0.018602561205625534
visibility: 0.9773502349853516
","x: 284.33154296875
y: 502.76165771484375
z: 0.1489889770746231
visibility: 0.9865500330924988
","x: 274.6727600097656
y: 503.90606689453125
z: 0.19308605790138245
visibility: 0.9812719225883484
","x: 282.8280334472656
y: 512.0110473632812
z: 0.15894213318824768
visibility: 0.8649815917015076
","x: 277.1588134765625
y: 514.1119995117188
z: 0.2027422934770584
visibility: 0.8298333287239075
","x: 285.18017578125
y: 526.87890625
z: 0.04644795507192612
visibility: 0.9820199012756348
","x: 271.925537109375
y: 526.126220703125
z: 0.08311302959918976
visibility: 0.9773764610290527
",,,,,,,,,,,,,,,,,,,,,,,,,,,,,,,,,,,,,,,,,,
23,"x: 287.0038146972656
y: 208.20884704589844
z: -0.4275180399417877
visibility: 0.9999685883522034
","x: 288.1585998535156
y: 200.85252380371094
z: -0.41051727533340454
visibility: 0.9999016523361206
","x: 289.25872802734375
y: 201.10354614257812
z: -0.41054239869117737
visibility: 0.9999009370803833
","x: 290.2992858886719
y: 201.45887756347656
z: -0.4105909466743469
visibility: 0.9998997449874878
","x: 283.9649353027344
y: 200.093017578125
z: -0.4172147810459137
visibility: 0.9999027252197266
","x: 282.128173828125
y: 199.78758239746094
z: -0.41726964712142944
visibility: 0.9998950362205505
","x: 280.1451416015625
y: 199.50308227539062
z: -0.4172948896884918
visibility: 0.9998860359191895
","x: 289.87371826171875
y: 205.01060485839844
z: -0.28992176055908203
visibility: 0.9998108744621277
","x: 275.9454040527344
y: 201.92532348632812
z: -0.32231852412223816
visibility: 0.999798595905304
","x: 288.02435302734375
y: 215.26370239257812
z: -0.3807899057865143
visibility: 0.9999557137489319
","x: 283.369384765625
y: 214.73379516601562
z: -0.39037826657295227
visibility: 0.999953031539917
","x: 296.7550964355469
y: 255.54083251953125
z: -0.19829484820365906
visibility: 0.9999307990074158
","x: 257.9056396484375
y: 250.57962036132812
z: -0.2188008576631546
visibility: 0.9998698234558105
","x: 309.4468688964844
y: 306.59429931640625
z: -0.16879655420780182
visibility: 0.9765302538871765
","x: 247.35757446289062
y: 301.6439208984375
z: -0.17475154995918274
visibility: 0.9718202948570251
","x: 327.3041687011719
y: 341.315185546875
z: -0.30104273557662964
visibility: 0.9457548260688782
","x: 236.62437438964844
y: 341.361572265625
z: -0.24987073242664337
visibility: 0.9320713877677917
","x: 332.1348571777344
y: 354.1981506347656
z: -0.33186325430870056
visibility: 0.9063944220542908
","x: 232.3779296875
y: 356.79571533203125
z: -0.27359136939048767
visibility: 0.8843430280685425
","x: 332.2196350097656
y: 353.1018371582031
z: -0.369989275932312
visibility: 0.9136953949928284
","x: 233.99176025390625
y: 356.60809326171875
z: -0.3128296136856079
visibility: 0.8922887444496155
","x: 330.09637451171875
y: 347.67169189453125
z: -0.3196025788784027
visibility: 0.898844838142395
","x: 235.7957000732422
y: 352.0579528808594
z: -0.2669443190097809
visibility: 0.8731962442398071
","x: 290.5110168457031
y: 354.14385986328125
z: 0.00047305310727097094
visibility: 0.9993208050727844
","x: 268.7359924316406
y: 354.349609375
z: -0.0005173015524633229
visibility: 0.9993419051170349
","x: 290.8359069824219
y: 430.0816650390625
z: -0.013856868259608746
visibility: 0.9883373379707336
","x: 270.271728515625
y: 432.63079833984375
z: 0.01591235212981701
visibility: 0.9772129654884338
","x: 284.2071838378906
y: 502.6645202636719
z: 0.17216496169567108
visibility: 0.9868596792221069
","x: 274.7624206542969
y: 503.7771301269531
z: 0.20553633570671082
visibility: 0.9811527729034424
","x: 282.82818603515625
y: 512.0164184570312
z: 0.18290598690509796
visibility: 0.8650105595588684
","x: 277.17816162109375
y: 514.0621337890625
z: 0.21675904095172882
visibility: 0.8295629620552063
","x: 285.2436828613281
y: 526.90380859375
z: 0.05755731463432312
visibility: 0.9821793437004089
","x: 272.6090087890625
y: 526.123291015625
z: 0.09157342463731766
visibility: 0.9773363471031189
",,,,,,,,,,,,,,,,,,,,,,,,,,,,,,,,,,,,,,,,,,
24,"x: 287.3563232421875
y: 208.09231567382812
z: -0.4437783658504486
visibility: 0.9999712109565735
","x: 288.7857360839844
y: 200.82969665527344
z: -0.4272540211677551
visibility: 0.9999094605445862
","x: 289.9561462402344
y: 201.04403686523438
z: -0.42729082703590393
visibility: 0.9999090433120728
","x: 291.0639343261719
y: 201.37098693847656
z: -0.4273555278778076
visibility: 0.9999077320098877
","x: 284.3822937011719
y: 200.02442932128906
z: -0.43195390701293945
visibility: 0.9999099373817444
","x: 282.5100402832031
y: 199.63223266601562
z: -0.43200039863586426
visibility: 0.9999028444290161
","x: 280.5530090332031
y: 199.23562622070312
z: -0.43201255798339844
visibility: 0.9998937249183655
","x: 290.8721618652344
y: 204.63711547851562
z: -0.3074379563331604
visibility: 0.9998258948326111
","x: 276.50244140625
y: 200.9420623779297
z: -0.33123844861984253
visibility: 0.99981290102005
","x: 288.57781982421875
y: 215.1988525390625
z: -0.39731377363204956
visibility: 0.9999592304229736
","x: 283.65240478515625
y: 214.7025146484375
z: -0.40429607033729553
visibility: 0.9999566674232483
","x: 297.78466796875
y: 255.4072723388672
z: -0.22151502966880798
visibility: 0.9999365210533142
","x: 258.0882263183594
y: 250.47390747070312
z: -0.21624095737934113
visibility: 0.999877393245697
","x: 311.8023681640625
y: 305.81329345703125
z: -0.2065897285938263
visibility: 0.978144109249115
","x: 247.40235900878906
y: 301.3662109375
z: -0.15367217361927032
visibility: 0.9727521538734436
","x: 329.7910461425781
y: 337.8381042480469
z: -0.34718939661979675
visibility: 0.9499366879463196
","x: 235.74305725097656
y: 340.385498046875
z: -0.22215738892555237
visibility: 0.9349184632301331
","x: 334.51983642578125
y: 350.8677673339844
z: -0.37942737340927124
visibility: 0.9130280017852783
","x: 231.3098907470703
y: 356.1108703613281
z: -0.24617305397987366
visibility: 0.8880690336227417
","x: 334.038330078125
y: 350.1961975097656
z: -0.41674885153770447
visibility: 0.919965386390686
","x: 232.9151611328125
y: 356.0118408203125
z: -0.2824845016002655
visibility: 0.8961571455001831
","x: 332.2007141113281
y: 345.1300048828125
z: -0.36518463492393494
visibility: 0.9059407711029053
","x: 234.81304931640625
y: 351.5722961425781
z: -0.23842830955982208
visibility: 0.8779922723770142
","x: 290.8548583984375
y: 354.1053771972656
z: -0.0014590101782232523
visibility: 0.9993454217910767
","x: 268.8752136230469
y: 354.53607177734375
z: 0.0014202914899215102
visibility: 0.9993435740470886
","x: 290.7222900390625
y: 430.93280029296875
z: 0.00889492779970169
visibility: 0.9882145524024963
","x: 270.28204345703125
y: 434.4681396484375
z: 0.024334285408258438
visibility: 0.9773469567298889
","x: 283.9595031738281
y: 502.7067565917969
z: 0.2175414115190506
visibility: 0.9870011210441589
","x: 274.8453674316406
y: 503.7869567871094
z: 0.23353059589862823
visibility: 0.9813840389251709
","x: 282.7200012207031
y: 512.1168823242188
z: 0.23054258525371552
visibility: 0.8648536801338196
","x: 277.1911926269531
y: 514.091064453125
z: 0.24653324484825134
visibility: 0.8308098912239075
","x: 285.29852294921875
y: 526.895751953125
z: 0.10347870737314224
visibility: 0.9821218848228455
","x: 272.99737548828125
y: 526.1338500976562
z: 0.11572746187448502
visibility: 0.9776439666748047
",,,,,,,,,,,,,,,,,,,,,,,,,,,,,,,,,,,,,,,,,,
25,"x: 287.212646484375
y: 207.5017547607422
z: -0.37998366355895996
visibility: 0.9999735355377197
","x: 288.65679931640625
y: 200.10806274414062
z: -0.36110320687294006
visibility: 0.9999158382415771
","x: 289.8525085449219
y: 200.33489990234375
z: -0.3611319661140442
visibility: 0.999915599822998
","x: 290.9797058105469
y: 200.67808532714844
z: -0.3611599802970886
visibility: 0.9999138116836548
","x: 284.2872009277344
y: 199.14276123046875
z: -0.36819207668304443
visibility: 0.9999163150787354
","x: 282.44024658203125
y: 198.66624450683594
z: -0.36821770668029785
visibility: 0.9999099969863892
","x: 280.5107421875
y: 198.18704223632812
z: -0.3682275414466858
visibility: 0.9999008774757385
","x: 291.0360107421875
y: 203.92462158203125
z: -0.23951034247875214
visibility: 0.9998365640640259
","x: 276.4351806640625
y: 199.87142944335938
z: -0.27255818247795105
visibility: 0.9998267889022827
","x: 288.4615173339844
y: 214.940673828125
z: -0.33338505029678345
visibility: 0.9999621510505676
","x: 283.5824890136719
y: 214.25193786621094
z: -0.3430861234664917
visibility: 0.9999598264694214
","x: 298.43743896484375
y: 254.5310821533203
z: -0.15364132821559906
visibility: 0.9999406933784485
","x: 258.3791809082031
y: 250.39312744140625
z: -0.17924481630325317
visibility: 0.9998862147331238
","x: 313.369873046875
y: 301.1630859375
z: -0.1537092626094818
visibility: 0.9783677458763123
","x: 247.524169921875
y: 301.12872314453125
z: -0.14103379845619202
visibility: 0.9741235375404358
","x: 332.45843505859375
y: 326.64678955078125
z: -0.27339375019073486
visibility: 0.9520998597145081
","x: 235.96282958984375
y: 340.14752197265625
z: -0.2140417844057083
visibility: 0.9385927319526672
","x: 338.49853515625
y: 336.3279724121094
z: -0.3026175796985626
visibility: 0.9162497520446777
","x: 231.6145477294922
y: 355.7725830078125
z: -0.2386099398136139
visibility: 0.8932877779006958
","x: 339.56915283203125
y: 334.6260986328125
z: -0.33938175439834595
visibility: 0.9234605431556702
","x: 233.0186004638672
y: 355.2868347167969
z: -0.2733862102031708
visibility: 0.9013364911079407
","x: 337.09393310546875
y: 331.4157409667969
z: -0.29150205850601196
visibility: 0.9100763201713562
","x: 234.9245147705078
y: 350.80194091796875
z: -0.22987768054008484
visibility: 0.8841071128845215
","x: 291.87628173828125
y: 354.45428466796875
z: 0.0006607800023630261
visibility: 0.9993749260902405
","x: 269.6588439941406
y: 355.1758117675781
z: -0.0007320047589018941
visibility: 0.9993621706962585
","x: 291.33062744140625
y: 431.0982971191406
z: -0.013305282220244408
visibility: 0.9886431694030762
","x: 270.1533203125
y: 435.483154296875
z: 0.019355500116944313
visibility: 0.9781712293624878
","x: 283.90679931640625
y: 503.33331298828125
z: 0.18772852420806885
visibility: 0.9875831007957458
","x: 274.848388671875
y: 503.784423828125
z: 0.21550004184246063
visibility: 0.9820719957351685
","x: 282.6821594238281
y: 513.1506958007812
z: 0.19688038527965546
visibility: 0.8694866895675659
","x: 277.16522216796875
y: 513.890869140625
z: 0.22692175209522247
visibility: 0.835336446762085
","x: 285.30963134765625
y: 527.1268310546875
z: 0.07144852727651596
visibility: 0.9828420877456665
","x: 272.9641418457031
y: 525.8262329101562
z: 0.10260125249624252
visibility: 0.9785732626914978
",,,,,,,,,,,,,,,,,,,,,,,,,,,,,,,,,,,,,,,,,,
26,"x: 287.5909423828125
y: 208.43710327148438
z: -0.3027273118495941
visibility: 0.9999747276306152
","x: 288.7295227050781
y: 201.0189666748047
z: -0.28234487771987915
visibility: 0.9999168515205383
","x: 289.844482421875
y: 201.29112243652344
z: -0.2824065089225769
visibility: 0.9999172687530518
","x: 290.90997314453125
y: 201.6342315673828
z: -0.28245478868484497
visibility: 0.9999140501022339
","x: 284.6032409667969
y: 200.060791015625
z: -0.29078325629234314
visibility: 0.9999170303344727
","x: 282.8358154296875
y: 199.6441650390625
z: -0.2908015549182892
visibility: 0.9999112486839294
","x: 280.9325866699219
y: 199.22853088378906
z: -0.2908163368701935
visibility: 0.9998995065689087
","x: 290.87908935546875
y: 204.72940063476562
z: -0.1639237105846405
visibility: 0.9998362064361572
","x: 276.6569519042969
y: 201.10243225097656
z: -0.20340728759765625
