uscmakers/ReverseChoreography/data/9_throwin_elbows_excision.csv
,NOSE,LEFT_EYE_INNER,LEFT_EYE,LEFT_EYE_OUTER,RIGHT_EYE_INNER,RIGHT_EYE,RIGHT_EYE_OUTER,LEFT_EAR,RIGHT_EAR,MOUTH_LEFT,MOUTH_RIGHT,LEFT_SHOULDER,RIGHT_SHOULDER,LEFT_ELBOW,RIGHT_ELBOW,LEFT_WRIST,RIGHT_WRIST,LEFT_PINKY,RIGHT_PINKY,LEFT_INDEX,RIGHT_INDEX,LEFT_THUMB,RIGHT_THUMB,LEFT_HIP,RIGHT_HIP,LEFT_KNEE,RIGHT_KNEE,LEFT_ANKLE,RIGHT_ANKLE,LEFT_HEEL,RIGHT_HEEL,LEFT_FOOT_INDEX,RIGHT_FOOT_INDEX,WRIST2,THUMB_CPC2,THUMB_MCP2,THUMB_IP2,THUMB_TIP2,INDEX_FINGER_MCP2,INDEX_FINGER_PIP2,INDEX_FINGER_DIP2,INDEX_FINGER_TIP2,MIDDLE_FINGER_MCP2,MIDDLE_FINGER_PIP2,MIDDLE_FINGER_DIP2,MIDDLE_FINGER_TIP2,RING_FINGER_PIP2,RING_FINGER_DIP2,RING_FINGER_TIP2,RING_FINGER_MCP2,PINKY_MCP2,PINKY_PIP2,PINKY_DIP2,PINKY_TIP2,WRIST,THUMB_CPC,THUMB_MCP,THUMB_IP,THUMB_TIP,INDEX_FINGER_MCP,INDEX_FINGER_PIP,INDEX_FINGER_DIP,INDEX_FINGER_TIP,MIDDLE_FINGER_MCP,MIDDLE_FINGER_PIP,MIDDLE_FINGER_DIP,MIDDLE_FINGER_TIP,RING_FINGER_PIP,RING_FINGER_DIP,RING_FINGER_TIP,RING_FINGER_MCP,PINKY_MCP,PINKY_PIP,PINKY_DIP,PINKY_TIP
0,"x: 332.9464111328125
y: 221.98300170898438
z: -0.3840586841106415
visibility: 0.99998939037323
","x: 335.1037902832031
y: 214.46685791015625
z: -0.36920198798179626
visibility: 0.9999681711196899
","x: 336.3079528808594
y: 214.3986358642578
z: -0.3691931962966919
visibility: 0.9999585151672363
","x: 337.40362548828125
y: 214.3177490234375
z: -0.36922487616539
visibility: 0.9999547004699707
","x: 331.3510437011719
y: 213.52545166015625
z: -0.3758232295513153
visibility: 0.9999749660491943
","x: 329.88714599609375
y: 212.80747985839844
z: -0.3758818507194519
visibility: 0.9999721050262451
","x: 328.353271484375
y: 212.14108276367188
z: -0.3759494423866272
visibility: 0.9999738931655884
","x: 337.7744445800781
y: 215.5168914794922
z: -0.24703212082386017
visibility: 0.9998956918716431
","x: 324.7867736816406
y: 212.6638946533203
z: -0.2795650064945221
visibility: 0.9999648332595825
","x: 333.8929138183594
y: 228.45867919921875
z: -0.33482450246810913
visibility: 0.9999767541885376
","x: 329.7160339355469
y: 227.8607940673828
z: -0.3443657457828522
visibility: 0.9999881982803345
","x: 345.5923767089844
y: 257.73870849609375
z: -0.12764035165309906
visibility: 0.9999483823776245
","x: 308.9796142578125
y: 255.0786590576172
z: -0.18636004626750946
visibility: 0.9999595880508423
","x: 354.29547119140625
y: 307.8782043457031
z: -0.0539795346558094
visibility: 0.9767867922782898
","x: 302.4532470703125
y: 304.9334411621094
z: -0.1738411784172058
visibility: 0.9904674887657166
","x: 367.05230712890625
y: 345.0841064453125
z: -0.16034483909606934
visibility: 0.9754678606987
","x: 315.03009033203125
y: 337.6998596191406
z: -0.2837035655975342
visibility: 0.9816924333572388
","x: 371.7975158691406
y: 358.8254089355469
z: -0.18878020346164703
visibility: 0.9516640901565552
","x: 317.5871276855469
y: 351.5609436035156
z: -0.3156958520412445
visibility: 0.9614495635032654
","x: 371.46368408203125
y: 359.5975341796875
z: -0.22712013125419617
visibility: 0.9574153423309326
","x: 320.92279052734375
y: 345.7792663574219
z: -0.3430749177932739
visibility: 0.9636653065681458
","x: 369.4022216796875
y: 354.7250671386719
z: -0.1780296266078949
visibility: 0.9464228749275208
","x: 320.8517150878906
y: 340.5084228515625
z: -0.29477864503860474
visibility: 0.946121335029602
","x: 340.47796630859375
y: 353.9028625488281
z: 0.00957465823739767
visibility: 0.9992241859436035
","x: 319.0075988769531
y: 355.55560302734375
z: -0.00960485078394413
visibility: 0.9993481040000916
","x: 343.82391357421875
y: 431.8854064941406
z: -0.017580952495336533
visibility: 0.9842326641082764
","x: 320.1248779296875
y: 434.4283752441406
z: -0.012928701937198639
visibility: 0.9770426750183105
","x: 336.87457275390625
y: 506.6014404296875
z: 0.11461485922336578
visibility: 0.9826792478561401
","x: 324.6096496582031
y: 509.74005126953125
z: 0.11248089373111725
visibility: 0.9834474325180054
","x: 335.9481201171875
y: 518.3502807617188
z: 0.11993725597858429
visibility: 0.8805487751960754
","x: 326.6347961425781
y: 520.1614990234375
z: 0.1172359436750412
visibility: 0.860636830329895
","x: 336.7669982910156
y: 526.9307861328125
z: -0.0032015987671911716
visibility: 0.9803311228752136
","x: 321.5111999511719
y: 530.6376953125
z: -0.010179709643125534
visibility: 0.9790114760398865
",,,,,,,,,,,,,,,,,,,,,,,,,,,,,,,,,,,,,,,,,,
1,"x: 337.1251220703125
y: 222.07785034179688
z: -0.46533098816871643
visibility: 0.9999830722808838
","x: 339.29058837890625
y: 214.45974731445312
z: -0.45046964287757874
visibility: 0.9999510049819946
","x: 340.53765869140625
y: 214.38702392578125
z: -0.45045456290245056
visibility: 0.9999415874481201
","x: 341.6885986328125
y: 214.30625915527344
z: -0.4504877030849457
visibility: 0.9999348521232605
","x: 335.21490478515625
y: 213.53610229492188
z: -0.4530715048313141
visibility: 0.9999604821205139
","x: 333.65533447265625
y: 212.83956909179688
z: -0.4531734585762024
visibility: 0.9999591708183289
","x: 332.0769348144531
y: 212.19851684570312
z: -0.4532531797885895
visibility: 0.9999637007713318
","x: 342.4324035644531
y: 215.51409912109375
z: -0.3232160210609436
visibility: 0.9998592734336853
","x: 329.5639343261719
y: 212.69284057617188
z: -0.33600810170173645
visibility: 0.9999527335166931
","x: 338.61859130859375
y: 228.77976989746094
z: -0.414248526096344
visibility: 0.9999662041664124
","x: 334.1597900390625
y: 228.2028045654297
z: -0.4181409776210785
visibility: 0.9999823570251465
","x: 352.5776062011719
y: 258.0760498046875
z: -0.20738554000854492
visibility: 0.9999388456344604
","x: 312.995361328125
y: 252.73834228515625
z: -0.21141651272773743
visibility: 0.9999570250511169
","x: 354.2784729003906
y: 307.92596435546875
z: -0.16236774623394012
visibility: 0.9743996858596802
","x: 305.12628173828125
y: 303.0035400390625
z: -0.15837115049362183
visibility: 0.9908788204193115
","x: 346.3026123046875
y: 342.9307556152344
z: -0.28503891825675964
visibility: 0.9664579033851624
","x: 315.5850830078125
y: 337.654296875
z: -0.2439408302307129
visibility: 0.9813419580459595
","x: 344.8382873535156
y: 356.3557434082031
z: -0.3189043700695038
visibility: 0.9376295208930969
","x: 317.7028503417969
y: 351.4654846191406
z: -0.2733842134475708
visibility: 0.9602771401405334
","x: 342.8279724121094
y: 351.27679443359375
z: -0.34805914759635925
visibility: 0.9432336091995239
","x: 320.92132568359375
y: 345.825439453125
z: -0.2975339889526367
visibility: 0.9623835682868958
","x: 342.2643737792969
y: 346.166259765625
z: -0.2983560860157013
visibility: 0.9271565079689026
","x: 320.8688659667969
y: 340.7149658203125
z: -0.25342729687690735
visibility: 0.9443912506103516
","x: 342.50341796875
y: 353.3951110839844
z: 0.0019436342408880591
visibility: 0.999198317527771
","x: 320.3014221191406
y: 351.41412353515625
z: -0.0019336994737386703
visibility: 0.999350905418396
","x: 343.8164367675781
y: 431.64971923828125
z: -0.03934488445520401
visibility: 0.9846870303153992
","x: 319.25634765625
y: 430.4188537597656
z: -0.03106096014380455
visibility: 0.9782655239105225
","x: 336.8877868652344
y: 505.8265686035156
z: 0.12575170397758484
visibility: 0.9832522869110107
","x: 322.9673156738281
y: 505.06005859375
z: 0.12744206190109253
visibility: 0.9838784337043762
","x: 335.91314697265625
y: 515.591552734375
z: 0.13494537770748138
visibility: 0.8788436651229858
","x: 325.44873046875
y: 513.81494140625
z: 0.1360034942626953
visibility: 0.8586409091949463
","x: 336.4510192871094
y: 527.0076904296875
z: 0.00040809460915625095
visibility: 0.9806489944458008
","x: 321.508544921875
y: 529.7764282226562
z: 0.0005577158881351352
visibility: 0.9792388081550598
",,,,,,,,,,,,,,,,,,,,,,,,,,,,,,,,,,,,,,,,,,
2,"x: 336.6749267578125
y: 222.75946044921875
z: -0.5007286071777344
visibility: 0.9999839663505554
","x: 338.8631591796875
y: 215.56227111816406
z: -0.48682570457458496
visibility: 0.9999535083770752
","x: 340.0968933105469
y: 215.40234375
z: -0.48676562309265137
visibility: 0.9999451637268066
","x: 341.2458190917969
y: 215.18560791015625
z: -0.48677411675453186
visibility: 0.9999386072158813
","x: 334.9498596191406
y: 214.78067016601562
z: -0.4896274209022522
visibility: 0.999961793422699
","x: 333.4325866699219
y: 214.07418823242188
z: -0.48972272872924805
visibility: 0.9999610185623169
","x: 331.8963317871094
y: 213.35226440429688
z: -0.48974236845970154
visibility: 0.9999651908874512
","x: 342.0592956542969
y: 215.8405303955078
z: -0.35965216159820557
visibility: 0.9998683333396912
","x: 329.01416015625
y: 213.19781494140625
z: -0.37484750151634216
visibility: 0.9999548196792603
","x: 337.97393798828125
y: 229.14808654785156
z: -0.44965997338294983
visibility: 0.9999682307243347
","x: 333.6812438964844
y: 228.58013916015625
z: -0.4541979730129242
visibility: 0.9999830722808838
","x: 352.16424560546875
y: 258.8360290527344
z: -0.23295661807060242
visibility: 0.999943196773529
","x: 312.75982666015625
y: 252.57159423828125
z: -0.24036021530628204
visibility: 0.9999581575393677
","x: 355.2690124511719
y: 311.7016906738281
z: -0.15019983053207397
visibility: 0.9759119153022766
","x: 305.139404296875
y: 302.85247802734375
z: -0.16132205724716187
visibility: 0.9912568926811218
","x: 354.1214599609375
y: 356.1981506347656
z: -0.2366178035736084
visibility: 0.967445433139801
","x: 315.5526123046875
y: 337.48907470703125
z: -0.21524186432361603
visibility: 0.9816279411315918
","x: 356.23980712890625
y: 369.91595458984375
z: -0.26072755455970764
visibility: 0.937828540802002
","x: 317.17352294921875
y: 351.373779296875
z: -0.23426160216331482
visibility: 0.9603193402290344
","x: 355.0759582519531
y: 369.2770080566406
z: -0.2969411611557007
visibility: 0.9432706832885742
","x: 320.4592590332031
y: 345.9399108886719
z: -0.25886839628219604
visibility: 0.9622789025306702
","x: 353.7083435058594
y: 364.55059814453125
z: -0.2518928647041321
visibility: 0.9268382787704468
","x: 320.6006164550781
y: 340.9039306640625
z: -0.22345134615898132
visibility: 0.9442400932312012
","x: 343.6081237792969
y: 352.74346923828125
z: 0.0011663882760331035
visibility: 0.9992489218711853
","x: 320.90814208984375
y: 351.4297790527344
z: -0.0012240801006555557
visibility: 0.9993868470191956
","x: 343.81329345703125
y: 431.13385009765625
z: -0.069708451628685
visibility: 0.9857322573661804
","x: 316.6075744628906
y: 428.8675537109375
z: -0.04506504163146019
visibility: 0.9798963665962219
","x: 337.97479248046875
y: 505.2130432128906
z: 0.10377965867519379
visibility: 0.9844489693641663
","x: 315.34490966796875
y: 502.52154541015625
z: 0.1239350214600563
visibility: 0.9849395155906677
","x: 336.05657958984375
y: 513.2648315429688
z: 0.11343596875667572
visibility: 0.8834793567657471
","x: 318.6706848144531
y: 511.8406982421875
z: 0.13445238769054413
visibility: 0.8638437986373901
","x: 336.83135986328125
y: 527.0507202148438
z: -0.025626271963119507
visibility: 0.9818530678749084
","x: 312.24481201171875
y: 528.7678833007812
z: -0.0051611484959721565
visibility: 0.9803974032402039
",,,,,,,,,,,,,,,,,,,,,,,,,,,,,,,,,,,,,,,,,,
3,"x: 334.0169677734375
y: 217.98194885253906
z: -0.45456618070602417
visibility: 0.9999842643737793
","x: 336.0237731933594
y: 210.85049438476562
z: -0.4317658543586731
visibility: 0.9999529719352722
","x: 337.224609375
y: 210.88436889648438
z: -0.4316990375518799
visibility: 0.9999452829360962
","x: 338.379150390625
y: 210.89169311523438
z: -0.43156641721725464
visibility: 0.9999379515647888
","x: 332.1288757324219
y: 210.08740234375
z: -0.4315921664237976
visibility: 0.9999608993530273
","x: 330.64886474609375
y: 209.63800048828125
z: -0.4316781461238861
visibility: 0.9999610185623169
","x: 329.1981506347656
y: 209.18226623535156
z: -0.43163830041885376
visibility: 0.9999649524688721
","x: 339.3012390136719
y: 212.4674835205078
z: -0.30017930269241333
visibility: 0.9998680353164673
","x: 326.0598449707031
y: 210.28077697753906
z: -0.31017202138900757
visibility: 0.9999534487724304
","x: 335.8057861328125
y: 225.2089080810547
z: -0.4092141091823578
visibility: 0.9999693036079407
","x: 330.98956298828125
y: 224.40025329589844
z: -0.40696191787719727
visibility: 0.9999832510948181
","x: 351.8988952636719
y: 258.39154052734375
z: -0.19388249516487122
visibility: 0.9999451637268066
","x: 310.4450378417969
y: 252.44793701171875
z: -0.1942441314458847
visibility: 0.9999549388885498
","x: 355.9837951660156
y: 304.370361328125
z: -0.08799326419830322
visibility: 0.9777734279632568
","x: 303.37835693359375
y: 302.7398986816406
z: -0.13491803407669067
visibility: 0.9914207458496094
","x: 356.9892272949219
y: 346.77069091796875
z: -0.17324867844581604
visibility: 0.9694028496742249
","x: 312.8988342285156
y: 337.50555419921875
z: -0.22130899131298065
visibility: 0.9815733432769775
","x: 358.8524475097656
y: 360.5484619140625
z: -0.197723850607872
visibility: 0.9402111172676086
","x: 313.9611511230469
y: 351.47540283203125
z: -0.25015926361083984
visibility: 0.9598199129104614
","x: 356.9665222167969
y: 359.0043640136719
z: -0.23538844287395477
visibility: 0.9453805088996887
","x: 317.7388000488281
y: 346.35443115234375
z: -0.27583032846450806
visibility: 0.9616440534591675
","x: 355.51617431640625
y: 354.1691589355469
z: -0.18901589512825012
visibility: 0.9294585585594177
","x: 318.2816467285156
y: 341.35797119140625
z: -0.23127666115760803
visibility: 0.9434827566146851
","x: 342.5709228515625
y: 354.8873291015625
z: 0.0021522934548556805
visibility: 0.9992623925209045
","x: 319.490234375
y: 353.524169921875
z: -0.0022026619408279657
visibility: 0.9994022846221924
","x: 342.5003662109375
y: 431.13958740234375
z: -0.026433289051055908
visibility: 0.9867066144943237
","x: 313.6421813964844
y: 430.4653625488281
z: -0.04037589207291603
visibility: 0.9815108776092529
","x: 338.5873718261719
y: 504.41217041015625
z: 0.1639944314956665
visibility: 0.9853379130363464
","x: 311.3395690917969
y: 503.4151916503906
z: 0.13321322202682495
visibility: 0.9860848784446716
","x: 336.15533447265625
y: 512.1691284179688
z: 0.17419365048408508
visibility: 0.8866150379180908
","x: 313.82421875
y: 512.9596557617188
z: 0.1411019265651703
visibility: 0.8706223368644714
","x: 337.3785705566406
y: 526.9405517578125
z: 0.044634513556957245
visibility: 0.9827618598937988
","x: 309.1513366699219
y: 528.516357421875
z: 0.006102320738136768
visibility: 0.981719970703125
",,,,,,,,,,,,,,,,,,,,,,,,,,,,,,,,,,,,,,,,,,
4,"x: 333.17340087890625
y: 212.1002197265625
z: -0.3113044798374176
visibility: 0.9999825954437256
","x: 335.03021240234375
y: 205.00042724609375
z: -0.2932499349117279
visibility: 0.9999503493309021
","x: 336.0827331542969
y: 205.1878662109375
z: -0.2932819724082947
visibility: 0.999942421913147
","x: 337.0855407714844
y: 205.36154174804688
z: -0.2933036684989929
visibility: 0.9999358654022217
","x: 331.3963317871094
y: 203.98028564453125
z: -0.29693856835365295
visibility: 0.9999583959579468
","x: 329.8822021484375
y: 203.45364379882812
z: -0.2969563603401184
visibility: 0.999957263469696
","x: 328.3916931152344
y: 202.8931884765625
z: -0.2969750165939331
visibility: 0.9999611377716064
","x: 337.5173034667969
y: 207.30123901367188
z: -0.1725061982870102
visibility: 0.99986332654953
","x: 324.6354064941406
y: 203.8874969482422
z: -0.1887388974428177
visibility: 0.9999482035636902
","x: 334.58282470703125
y: 219.8526153564453
z: -0.2650015950202942
visibility: 0.9999696016311646
","x: 329.79693603515625
y: 218.8656463623047
z: -0.2695731520652771
visibility: 0.9999828338623047
","x: 349.6572265625
y: 250.6370849609375
z: -0.08818314969539642
visibility: 0.9999476671218872
","x: 308.39166259765625
y: 249.83905029296875
z: -0.09179801493883133
visibility: 0.9999533891677856
","x: 357.3573303222656
y: 291.0230407714844
z: -0.11900277435779572
visibility: 0.9791709780693054
","x: 302.1001892089844
y: 299.96270751953125
z: -0.053093068301677704
visibility: 0.990980327129364
","x: 352.9924011230469
y: 308.2061462402344
z: -0.3420162796974182
visibility: 0.9710434675216675
","x: 312.9945983886719
y: 335.7577209472656
z: -0.15315788984298706
visibility: 0.9794946908950806
","x: 349.556396484375
y: 315.54681396484375
z: -0.3923860788345337
visibility: 0.9431115388870239
","x: 314.3987121582031
y: 349.45623779296875
z: -0.18465015292167664
visibility: 0.9559136033058167
","x: 347.6317443847656
y: 307.85723876953125
z: -0.4102250039577484
visibility: 0.9478991031646729
","x: 318.0467224121094
y: 344.8883056640625
z: -0.2072553187608719
visibility: 0.9577896595001221
","x: 348.0830078125
y: 304.5521240234375
z: -0.353201299905777
visibility: 0.9315482974052429
","x: 318.4340515136719
y: 339.8216552734375
z: -0.16223843395709991
visibility: 0.937951385974884
","x: 342.54742431640625
y: 351.5145568847656
z: 0.002658538520336151
visibility: 0.9992554187774658
","x: 319.2392578125
y: 351.7442626953125
z: -0.0027199662290513515
visibility: 0.9994164109230042
","x: 343.1108093261719
y: 428.1379699707031
z: 0.006044360809028149
visibility: 0.9874113202095032
","x: 314.3981628417969
y: 431.0366516113281
z: -0.033042795956134796
visibility: 0.982880711555481
","x: 344.69952392578125
y: 503.34588623046875
z: 0.15341320633888245
visibility: 0.9861655831336975
","x: 310.4703674316406
y: 503.566650390625
z: 0.10716953128576279
visibility: 0.9869543313980103
","x: 341.90594482421875
y: 512.0443115234375
z: 0.16049502789974213
visibility: 0.888939380645752
","x: 311.98193359375
y: 513.134033203125
z: 0.11081309616565704
visibility: 0.8720937967300415
","x: 345.2923583984375
y: 526.173828125
z: 0.032513003796339035
visibility: 0.9833078384399414
","x: 309.57177734375
y: 528.56591796875
z: -0.02154705300927162
visibility: 0.9824627041816711
","x: 349.3206481933594
y: 307.32684326171875
z: 0.0
","x: 347.2307434082031
y: 303.2815856933594
z: -0.0013111759908497334
","x: 344.5906066894531
y: 300.76727294921875
z: -0.0037561701610684395
","x: 342.8189392089844
y: 298.7725524902344
z: -0.00663182744756341
","x: 341.11029052734375
y: 296.64459228515625
z: -0.00925899762660265
","x: 342.5987548828125
y: 305.6943664550781
z: -0.005488474853336811
","x: 341.7959289550781
y: 305.3890380859375
z: -0.009223001077771187
","x: 343.6597900390625
y: 304.4684143066406
z: -0.010384676977992058
","x: 345.2799072265625
y: 303.544677734375
z: -0.010675913654267788
","x: 343.8498229980469
y: 309.6683349609375
z: -0.006941646337509155
","x: 344.6058044433594
y: 308.60833740234375
z: -0.01093760970979929
","x: 346.705078125
y: 307.5694274902344
z: -0.010574167594313622
","x: 348.3690490722656
y: 306.47528076171875
z: -0.009766870178282261
","x: 345.44525146484375
y: 313.0550842285156
z: -0.008442651480436325
","x: 345.8851318359375
y: 312.4242248535156
z: -0.011671398766338825
","x: 347.7300720214844
y: 311.1343078613281
z: -0.00983994361013174
","x: 349.02252197265625
y: 309.81890869140625
z: -0.008180998265743256
","x: 346.9947204589844
y: 315.82745361328125
z: -0.010205966420471668
","x: 346.6809997558594
y: 317.02392578125
z: -0.012443151324987411
","x: 347.173583984375
y: 316.57965087890625
z: -0.011558763682842255
","x: 347.3049621582031
y: 315.831298828125
z: -0.010423427447676659
",,,,,,,,,,,,,,,,,,,,,
5,"x: 333.17340087890625
y: 212.1002197265625
z: -0.3113044798374176
visibility: 0.9999825954437256
","x: 335.03021240234375
y: 205.00042724609375
z: -0.2932499349117279
visibility: 0.9999503493309021
","x: 336.0827331542969
y: 205.1878662109375
z: -0.2932819724082947
visibility: 0.999942421913147
","x: 337.0855407714844
y: 205.36154174804688
z: -0.2933036684989929
visibility: 0.9999358654022217
","x: 331.3963317871094
y: 203.98028564453125
z: -0.29693856835365295
visibility: 0.9999583959579468
","x: 329.8822021484375
y: 203.45364379882812
z: -0.2969563603401184
visibility: 0.999957263469696
","x: 328.3916931152344
y: 202.8931884765625
z: -0.2969750165939331
visibility: 0.9999611377716064
","x: 337.5173034667969
y: 207.30123901367188
z: -0.1725061982870102
visibility: 0.99986332654953
","x: 324.6354064941406
y: 203.8874969482422
z: -0.1887388974428177
visibility: 0.9999482035636902
","x: 334.58282470703125
y: 219.8526153564453
z: -0.2650015950202942
visibility: 0.9999696016311646
","x: 329.79693603515625
y: 218.8656463623047
z: -0.2695731520652771
visibility: 0.9999828338623047
","x: 349.6572265625
y: 250.6370849609375
z: -0.08818314969539642
visibility: 0.9999476671218872
","x: 308.39166259765625
y: 249.83905029296875
z: -0.09179801493883133
visibility: 0.9999533891677856
","x: 357.3573303222656
y: 291.0230407714844
z: -0.11900277435779572
visibility: 0.9791709780693054
","x: 302.1001892089844
y: 299.96270751953125
z: -0.053093068301677704
visibility: 0.990980327129364
","x: 352.9924011230469
y: 308.2061462402344
z: -0.3420162796974182
visibility: 0.9710434675216675
","x: 312.9945983886719
y: 335.7577209472656
z: -0.15315788984298706
visibility: 0.9794946908950806
","x: 349.556396484375
y: 315.54681396484375
z: -0.3923860788345337
visibility: 0.9431115388870239
","x: 314.3987121582031
y: 349.45623779296875
z: -0.18465015292167664
visibility: 0.9559136033058167
","x: 347.6317443847656
y: 307.85723876953125
z: -0.4102250039577484
visibility: 0.9478991031646729
","x: 318.0467224121094
y: 344.8883056640625
z: -0.2072553187608719
visibility: 0.9577896595001221
","x: 348.0830078125
y: 304.5521240234375
z: -0.353201299905777
visibility: 0.9315482974052429
","x: 318.4340515136719
y: 339.8216552734375
z: -0.16223843395709991
visibility: 0.937951385974884
","x: 342.54742431640625
y: 351.5145568847656
z: 0.002658538520336151
visibility: 0.9992554187774658
","x: 319.2392578125
y: 351.7442626953125
z: -0.0027199662290513515
visibility: 0.9994164109230042
","x: 343.1108093261719
y: 428.1379699707031
z: 0.006044360809028149
visibility: 0.9874113202095032
","x: 314.3981628417969
y: 431.0366516113281
z: -0.033042795956134796
visibility: 0.982880711555481
","x: 344.69952392578125
y: 503.34588623046875
z: 0.15341320633888245
visibility: 0.9861655831336975
","x: 310.4703674316406
y: 503.566650390625
z: 0.10716953128576279
visibility: 0.9869543313980103
","x: 341.90594482421875
y: 512.0443115234375
z: 0.16049502789974213
visibility: 0.888939380645752
","x: 311.98193359375
y: 513.134033203125
z: 0.11081309616565704
visibility: 0.8720937967300415
","x: 345.2923583984375
y: 526.173828125
z: 0.032513003796339035
visibility: 0.9833078384399414
","x: 309.57177734375
y: 528.56591796875
z: -0.02154705300927162
visibility: 0.9824627041816711
","x: 349.3206481933594
y: 307.32684326171875
z: 0.0
","x: 347.2307434082031
y: 303.2815856933594
z: -0.0013111759908497334
","x: 344.5906066894531
y: 300.76727294921875
z: -0.0037561701610684395
","x: 342.8189392089844
y: 298.7725524902344
z: -0.00663182744756341
","x: 341.11029052734375
y: 296.64459228515625
z: -0.00925899762660265
","x: 342.5987548828125
y: 305.6943664550781
z: -0.005488474853336811
","x: 341.7959289550781
y: 305.3890380859375
z: -0.009223001077771187
","x: 343.6597900390625
y: 304.4684143066406
z: -0.010384676977992058
","x: 345.2799072265625
y: 303.544677734375
z: -0.010675913654267788
","x: 343.8498229980469
y: 309.6683349609375
z: -0.006941646337509155
","x: 344.6058044433594
y: 308.60833740234375
z: -0.01093760970979929
","x: 346.705078125
y: 307.5694274902344
z: -0.010574167594313622
","x: 348.3690490722656
y: 306.47528076171875
z: -0.009766870178282261
","x: 345.44525146484375
y: 313.0550842285156
z: -0.008442651480436325
","x: 345.8851318359375
y: 312.4242248535156
z: -0.011671398766338825
","x: 347.7300720214844
y: 311.1343078613281
z: -0.00983994361013174
","x: 349.02252197265625
y: 309.81890869140625
z: -0.008180998265743256
","x: 346.9947204589844
y: 315.82745361328125
z: -0.010205966420471668
","x: 346.6809997558594
y: 317.02392578125
z: -0.012443151324987411
","x: 347.173583984375
y: 316.57965087890625
z: -0.011558763682842255
","x: 347.3049621582031
y: 315.831298828125
z: -0.010423427447676659
",,,,,,,,,,,,,,,,,,,,,
6,"x: 334.1646423339844
y: 210.58248901367188
z: -0.3891366720199585
visibility: 0.9999842047691345
","x: 335.93402099609375
y: 202.99827575683594
z: -0.3587145209312439
visibility: 0.9999550580978394
","x: 337.12939453125
y: 203.15005493164062
z: -0.3588458299636841
visibility: 0.9999478459358215
","x: 338.2452392578125
y: 203.32568359375
z: -0.35895127058029175
visibility: 0.9999418258666992
","x: 332.09033203125
y: 202.3177490234375
z: -0.3657470941543579
visibility: 0.999962329864502
","x: 330.58477783203125
y: 201.9814453125
z: -0.3657388687133789
visibility: 0.9999613165855408
","x: 329.16412353515625
y: 201.6252899169922
z: -0.36566585302352905
visibility: 0.9999647736549377
","x: 339.00994873046875
y: 205.72265625
z: -0.22368915379047394
visibility: 0.9998757839202881
","x: 326.0307312011719
y: 203.0204620361328
z: -0.24276988208293915
visibility: 0.9999532103538513
","x: 335.86859130859375
y: 217.68756103515625
z: -0.326341837644577
visibility: 0.9999725222587585
","x: 331.197265625
y: 217.08700561523438
z: -0.33537477254867554
visibility: 0.9999845027923584
","x: 350.99676513671875
y: 249.54226684570312
z: -0.11723077297210693
visibility: 0.9999520778656006
","x: 310.9366455078125
y: 247.49969482421875
z: -0.12105001509189606
visibility: 0.9999577403068542
","x: 360.06451416015625
y: 295.5328674316406
z: -0.20914490520954132
visibility: 0.980215847492218
","x: 303.30352783203125
y: 300.0721130371094
z: -0.18772046267986298
visibility: 0.9914369583129883
","x: 353.4809265136719
y: 294.79412841796875
z: -0.48001521825790405
visibility: 0.9724963307380676
","x: 314.66046142578125
y: 335.6084899902344
z: -0.34390419721603394
visibility: 0.9800737500190735
","x: 348.66448974609375
y: 297.8133239746094
z: -0.5388761758804321
visibility: 0.9458730816841125
","x: 316.0992126464844
y: 349.5489807128906
z: -0.3895915150642395
visibility: 0.9570730924606323
","x: 347.29693603515625
y: 288.471435546875
z: -0.5471290349960327
visibility: 0.9502208828926086
","x: 319.3014221191406
y: 344.886962890625
z: -0.404489129781723
visibility: 0.9586644768714905
","x: 348.2529296875
y: 286.6992492675781
z: -0.489248126745224
visibility: 0.9331209659576416
","x: 319.4091796875
y: 339.80908203125
z: -0.3513464331626892
visibility: 0.938241720199585
","x: 343.22833251953125
y: 351.6343994140625
z: 0.02405761368572712
visibility: 0.9993237853050232
","x: 319.3861083984375
y: 351.9163513183594
z: -0.024151425808668137
visibility: 0.9994705319404602
","x: 354.8443603515625
y: 426.8917541503906
z: 0.04275983199477196
visibility: 0.988285481929779
","x: 313.76629638671875
y: 430.7833557128906
z: -0.06063977628946304
visibility: 0.9844834804534912
","x: 367.15777587890625
y: 499.874267578125
z: 0.2428244799375534
visibility: 0.9873223900794983
","x: 306.3967590332031
y: 502.55023193359375
z: 0.10758759826421738
visibility: 0.9881508946418762
","x: 364.9210510253906
y: 510.0583190917969
z: 0.2550289034843445
visibility: 0.8972246646881104
","x: 306.2138977050781
y: 510.0744323730469
z: 0.11775622516870499
visibility: 0.8798836469650269
","x: 375.6226806640625
y: 525.114990234375
z: 0.12391356378793716
visibility: 0.9844583868980408
","x: 309.3845520019531
y: 528.4169921875
z: -0.019412826746702194
visibility: 0.9839260578155518
","x: 351.3282775878906
y: 295.43646240234375
z: 0.0
","x: 349.6100769042969
y: 289.204345703125
z: -0.001102806651033461
","x: 346.5151672363281
y: 285.281494140625
z: -0.0027028489857912064
","x: 343.76763916015625
y: 283.9134521484375
z: -0.00420644273981452
","x: 341.5828552246094
y: 282.9998474121094
z: -0.005427954252809286
","x: 345.52593994140625
y: 289.49322509765625
z: -0.0068526254035532475
","x: 340.2910461425781
y: 290.3677978515625
z: -0.009303285740315914
","x: 340.5121765136719
y: 290.8641357421875
z: -0.00887617189437151
","x: 341.7844543457031
y: 291.0973205566406
z: -0.008064072579145432
","x: 345.89892578125
y: 294.8111267089844
z: -0.007594412192702293
","x: 341.4532165527344
y: 295.9358215332031
z: -0.009981470182538033
","x: 342.4282531738281
y: 295.8318786621094
z: -0.008480061776936054
","x: 344.12591552734375
y: 295.5997314453125
z: -0.006938108243048191
","x: 346.3094482421875
y: 299.530517578125
z: -0.008116863667964935
","x: 342.5819091796875
y: 300.4895324707031
z: -0.010005000978708267
","x: 343.705322265625
y: 300.38330078125
z: -0.007773858029395342
","x: 345.3194580078125
y: 300.048583984375
z: -0.005993515718728304
","x: 346.6327819824219
y: 303.462890625
z: -0.008714637719094753
","x: 343.1398620605469
y: 304.4132080078125
z: -0.010167045518755913
","x: 343.50152587890625
y: 304.2752685546875
z: -0.008936106227338314
","x: 344.64227294921875
y: 304.1421203613281
z: -0.007626526523381472
",,,,,,,,,,,,,,,,,,,,,
7,"x: 334.1646423339844
y: 210.58248901367188
z: -0.3891366720199585
visibility: 0.9999842047691345
","x: 335.93402099609375
y: 202.99827575683594
z: -0.3587145209312439
visibility: 0.9999550580978394
","x: 337.12939453125
y: 203.15005493164062
z: -0.3588458299636841
visibility: 0.9999478459358215
","x: 338.2452392578125
y: 203.32568359375
z: -0.35895127058029175
visibility: 0.9999418258666992
","x: 332.09033203125
y: 202.3177490234375
z: -0.3657470941543579
visibility: 0.999962329864502
","x: 330.58477783203125
y: 201.9814453125
z: -0.3657388687133789
visibility: 0.9999613165855408
","x: 329.16412353515625
y: 201.6252899169922
z: -0.36566585302352905
visibility: 0.9999647736549377
","x: 339.00994873046875
y: 205.72265625
z: -0.22368915379047394
visibility: 0.9998757839202881
","x: 326.0307312011719
y: 203.0204620361328
z: -0.24276988208293915
visibility: 0.9999532103538513
","x: 335.86859130859375
y: 217.68756103515625
z: -0.326341837644577
visibility: 0.9999725222587585
","x: 331.197265625
y: 217.08700561523438
z: -0.33537477254867554
visibility: 0.9999845027923584
","x: 350.99676513671875
y: 249.54226684570312
z: -0.11723077297210693
visibility: 0.9999520778656006
","x: 310.9366455078125
y: 247.49969482421875
z: -0.12105001509189606
visibility: 0.9999577403068542
","x: 360.06451416015625
y: 295.5328674316406
z: -0.20914490520954132
visibility: 0.980215847492218
","x: 303.30352783203125
y: 300.0721130371094
z: -0.18772046267986298
visibility: 0.9914369583129883
","x: 353.4809265136719
y: 294.79412841796875
z: -0.48001521825790405
visibility: 0.9724963307380676
","x: 314.66046142578125
y: 335.6084899902344
z: -0.34390419721603394
visibility: 0.9800737500190735
","x: 348.66448974609375
y: 297.8133239746094
z: -0.5388761758804321
visibility: 0.9458730816841125
","x: 316.0992126464844
y: 349.5489807128906
z: -0.3895915150642395
visibility: 0.9570730924606323
","x: 347.29693603515625
y: 288.471435546875
z: -0.5471290349960327
visibility: 0.9502208828926086
","x: 319.3014221191406
y: 344.886962890625
z: -0.404489129781723
visibility: 0.9586644768714905
","x: 348.2529296875
y: 286.6992492675781
z: -0.489248126745224
visibility: 0.9331209659576416
","x: 319.4091796875
y: 339.80908203125
z: -0.3513464331626892
visibility: 0.938241720199585
","x: 343.22833251953125
y: 351.6343994140625
z: 0.02405761368572712
visibility: 0.9993237853050232
","x: 319.3861083984375
y: 351.9163513183594
z: -0.024151425808668137
visibility: 0.9994705319404602
","x: 354.8443603515625
y: 426.8917541503906
z: 0.04275983199477196
visibility: 0.988285481929779
","x: 313.76629638671875
y: 430.7833557128906
z: -0.06063977628946304
visibility: 0.9844834804534912
","x: 367.15777587890625
y: 499.874267578125
z: 0.2428244799375534
visibility: 0.9873223900794983
","x: 306.3967590332031
y: 502.55023193359375
z: 0.10758759826421738
visibility: 0.9881508946418762
","x: 364.9210510253906
y: 510.0583190917969
z: 0.2550289034843445
visibility: 0.8972246646881104
","x: 306.2138977050781
y: 510.0744323730469
z: 0.11775622516870499
visibility: 0.8798836469650269
","x: 375.6226806640625
y: 525.114990234375
z: 0.12391356378793716
visibility: 0.9844583868980408
","x: 309.3845520019531
y: 528.4169921875
z: -0.019412826746702194
visibility: 0.9839260578155518
","x: 351.3282775878906
y: 295.43646240234375
z: 0.0
","x: 349.6100769042969
y: 289.204345703125
z: -0.001102806651033461
","x: 346.5151672363281
y: 285.281494140625
z: -0.0027028489857912064
","x: 343.76763916015625
y: 283.9134521484375
z: -0.00420644273981452
","x: 341.5828552246094
y: 282.9998474121094
z: -0.005427954252809286
","x: 345.52593994140625
y: 289.49322509765625
z: -0.0068526254035532475
","x: 340.2910461425781
y: 290.3677978515625
z: -0.009303285740315914
","x: 340.5121765136719
y: 290.8641357421875
z: -0.00887617189437151
","x: 341.7844543457031
y: 291.0973205566406
z: -0.008064072579145432
","x: 345.89892578125
y: 294.8111267089844
z: -0.007594412192702293
","x: 341.4532165527344
y: 295.9358215332031
z: -0.009981470182538033
","x: 342.4282531738281
y: 295.8318786621094
z: -0.008480061776936054
","x: 344.12591552734375
y: 295.5997314453125
z: -0.006938108243048191
","x: 346.3094482421875
y: 299.530517578125
z: -0.008116863667964935
","x: 342.5819091796875
y: 300.4895324707031
z: -0.010005000978708267
","x: 343.705322265625
y: 300.38330078125
z: -0.007773858029395342
","x: 345.3194580078125
y: 300.048583984375
z: -0.005993515718728304
","x: 346.6327819824219
y: 303.462890625
z: -0.008714637719094753
","x: 343.1398620605469
y: 304.4132080078125
z: -0.010167045518755913
","x: 343.50152587890625
y: 304.2752685546875
z: -0.008936106227338314
","x: 344.64227294921875
y: 304.1421203613281
z: -0.007626526523381472
",,,,,,,,,,,,,,,,,,,,,
8,"x: 338.69195556640625
y: 242.6535186767578
z: -0.35949090123176575
visibility: 0.9999847412109375
","x: 341.2874450683594
y: 235.48709106445312
z: -0.33878716826438904
visibility: 0.9999570846557617
","x: 342.6439514160156
y: 235.8352813720703
z: -0.3388251066207886
visibility: 0.9999503493309021
","x: 343.788818359375
y: 236.21795654296875
z: -0.3388519883155823
visibility: 0.9999446272850037
","x: 336.78106689453125
y: 234.38194274902344
z: -0.3432122766971588
visibility: 0.999963641166687
","x: 335.0973815917969
y: 233.83592224121094
z: -0.3432684540748596
visibility: 0.9999626278877258
","x: 333.5299987792969
y: 233.37222290039062
z: -0.34327179193496704
visibility: 0.9999659657478333
","x: 344.8531188964844
y: 238.98495483398438
z: -0.21372553706169128
visibility: 0.9998824000358582
","x: 330.82025146484375
y: 234.92327880859375
z: -0.2320898324251175
visibility: 0.9999552369117737
","x: 340.4523620605469
y: 249.68392944335938
z: -0.31101223826408386
visibility: 0.9999739527702332
","x: 335.4924621582031
y: 248.66091918945312
z: -0.31692367792129517
visibility: 0.9999852776527405
","x: 354.9413757324219
y: 282.52740478515625
z: -0.12092234939336777
visibility: 0.9999534487724304
","x: 313.66583251953125
y: 277.1261901855469
z: -0.14308007061481476
visibility: 0.9999602437019348
","x: 359.3321838378906
y: 329.02337646484375
z: -0.1972128450870514
visibility: 0.9782596230506897
","x: 304.3014831542969
y: 326.9510192871094
z: -0.18616625666618347
visibility: 0.9916830658912659
","x: 351.56195068359375
y: 350.959716796875
z: -0.4007723331451416
visibility: 0.9646977186203003
","x: 315.54913330078125
y: 361.92724609375
z: -0.3501530587673187
visibility: 0.9785511493682861
","x: 348.6809387207031
y: 361.552001953125
z: -0.45311444997787476
visibility: 0.9358766674995422
","x: 317.8486022949219
y: 375.0436706542969
z: -0.3952640891075134
visibility: 0.9543890953063965
","x: 346.89422607421875
y: 349.958984375
z: -0.47022366523742676
visibility: 0.9403601288795471
","x: 320.54095458984375
y: 369.6401672363281
z: -0.4115261137485504
visibility: 0.9558135867118835
","x: 346.9315185546875
y: 344.7676086425781
z: -0.4130137860774994
visibility: 0.9189546704292297
","x: 320.2605285644531
y: 364.1937255859375
z: -0.3599579930305481
visibility: 0.9346652626991272
","x: 345.586181640625
y: 378.8277893066406
z: 0.010189058259129524
visibility: 0.9993837475776672
","x: 321.29705810546875
y: 381.4068298339844
z: -0.0102272629737854
visibility: 0.9995172619819641
","x: 364.89031982421875
y: 436.0205078125
z: -0.0827169269323349
visibility: 0.9893842339515686
","x: 308.965576171875
y: 442.76324462890625
z: -0.06292129307985306
visibility: 0.985924482345581
","x: 376.5536804199219
y: 500.0596923828125
z: 0.11996600776910782
visibility: 0.9884740710258484
","x: 299.9248046875
y: 503.0136413574219
z: 0.1319950520992279
visibility: 0.9891611337661743
","x: 374.53424072265625
y: 510.22296142578125
z: 0.13369032740592957
visibility: 0.9045203924179077
","x: 301.9602966308594
y: 511.3543701171875
z: 0.14539769291877747
visibility: 0.8872490525245667
","x: 382.95526123046875
y: 525.1578369140625
z: -0.0003314270288683474
visibility: 0.985660970211029
","x: 295.3245849609375
y: 528.3284912109375
z: 0.0170624740421772
visibility: 0.9849852323532104
","x: 349.02789306640625
y: 358.455078125
z: 0.0
","x: 348.9366455078125
y: 353.0572509765625
z: -0.00458943797275424
","x: 347.86517333984375
y: 348.4350280761719
z: -0.00891201850026846
","x: 346.42999267578125
y: 345.44091796875
z: -0.012019994668662548
","x: 344.7578430175781
y: 343.64276123046875
z: -0.014888442121446133
","x: 348.9685974121094
y: 353.095703125
z: -0.01658867485821247
","x: 343.7609558105469
y: 350.988037109375
z: -0.0198792926967144
","x: 343.1961364746094
y: 350.4067687988281
z: -0.019243475049734116
","x: 344.0210876464844
y: 350.8410949707031
z: -0.018248919397592545
","x: 348.3946228027344
y: 357.9092102050781
z: -0.015618558041751385
","x: 342.762939453125
y: 355.37939453125
z: -0.018982671201229095
","x: 342.1326599121094
y: 354.684814453125
z: -0.017021844163537025
","x: 343.2541809082031
y: 354.87420654296875
z: -0.015216866508126259
","x: 347.36700439453125
y: 361.8276672363281
z: -0.014068977907299995
","x: 342.21844482421875
y: 359.67449951171875
z: -0.016281791031360626
","x: 341.3800354003906
y: 358.30938720703125
z: -0.014004696160554886
","x: 342.3168029785156
y: 357.7816162109375
z: -0.012431896291673183
","x: 346.1900939941406
y: 364.85650634765625
z: -0.012653260491788387
","x: 341.9949035644531
y: 363.2253723144531
z: -0.01425724383443594
","x: 341.2650451660156
y: 361.390869140625
z: -0.013264698907732964
","x: 341.91754150390625
y: 359.9951477050781
z: -0.01238003559410572
",,,,,,,,,,,,,,,,,,,,,
9,"x: 338.69195556640625
y: 242.6535186767578
z: -0.35949090123176575
visibility: 0.9999847412109375
","x: 341.2874450683594
y: 235.48709106445312
z: -0.33878716826438904
visibility: 0.9999570846557617
","x: 342.6439514160156
y: 235.8352813720703
z: -0.3388251066207886
visibility: 0.9999503493309021
","x: 343.788818359375
y: 236.21795654296875
z: -0.3388519883155823
visibility: 0.9999446272850037
","x: 336.78106689453125
y: 234.38194274902344
z: -0.3432122766971588
visibility: 0.999963641166687
","x: 335.0973815917969
y: 233.83592224121094
z: -0.3432684540748596
visibility: 0.9999626278877258
","x: 333.5299987792969
y: 233.37222290039062
z: -0.34327179193496704
visibility: 0.9999659657478333
","x: 344.8531188964844
y: 238.98495483398438
z: -0.21372553706169128
visibility: 0.9998824000358582
","x: 330.82025146484375
y: 234.92327880859375
z: -0.2320898324251175
visibility: 0.9999552369117737
","x: 340.4523620605469
y: 249.68392944335938
z: -0.31101223826408386
visibility: 0.9999739527702332
","x: 335.4924621582031
y: 248.66091918945312
z: -0.31692367792129517
visibility: 0.9999852776527405
","x: 354.9413757324219
y: 282.52740478515625
z: -0.12092234939336777
visibility: 0.9999534487724304
","x: 313.66583251953125
y: 277.1261901855469
z: -0.14308007061481476
visibility: 0.9999602437019348
","x: 359.3321838378906
y: 329.02337646484375
z: -0.1972128450870514
visibility: 0.9782596230506897
","x: 304.3014831542969
y: 326.9510192871094
z: -0.18616625666618347
visibility: 0.9916830658912659
","x: 351.56195068359375
y: 350.959716796875
z: -0.4007723331451416
visibility: 0.9646977186203003
","x: 315.54913330078125
y: 361.92724609375
z: -0.3501530587673187
visibility: 0.9785511493682861
","x: 348.6809387207031
y: 361.552001953125
z: -0.45311444997787476
visibility: 0.9358766674995422
","x: 317.8486022949219
y: 375.0436706542969
z: -0.3952640891075134
visibility: 0.9543890953063965
","x: 346.89422607421875
y: 349.958984375
z: -0.47022366523742676
visibility: 0.9403601288795471
","x: 320.54095458984375
y: 369.6401672363281
z: -0.4115261137485504
visibility: 0.9558135867118835
","x: 346.9315185546875
y: 344.7676086425781
z: -0.4130137860774994
visibility: 0.9189546704292297
","x: 320.2605285644531
y: 364.1937255859375
z: -0.3599579930305481
visibility: 0.9346652626991272
","x: 345.586181640625
y: 378.8277893066406
z: 0.010189058259129524
visibility: 0.9993837475776672
","x: 321.29705810546875
y: 381.4068298339844
z: -0.0102272629737854
visibility: 0.9995172619819641
","x: 364.89031982421875
y: 436.0205078125
z: -0.0827169269323349
visibility: 0.9893842339515686
","x: 308.965576171875
y: 442.76324462890625
z: -0.06292129307985306
visibility: 0.985924482345581
","x: 376.5536804199219
y: 500.0596923828125
z: 0.11996600776910782
visibility: 0.9884740710258484
","x: 299.9248046875
y: 503.0136413574219
z: 0.1319950520992279
visibility: 0.9891611337661743
","x: 374.53424072265625
y: 510.22296142578125
z: 0.13369032740592957
visibility: 0.9045203924179077
","x: 301.9602966308594
y: 511.3543701171875
z: 0.14539769291877747
visibility: 0.8872490525245667
","x: 382.95526123046875
y: 525.1578369140625
z: -0.0003314270288683474
visibility: 0.985660970211029
","x: 295.3245849609375
y: 528.3284912109375
z: 0.0170624740421772
visibility: 0.9849852323532104
","x: 349.02789306640625
y: 358.455078125
z: 0.0
","x: 348.9366455078125
y: 353.0572509765625
z: -0.00458943797275424
","x: 347.86517333984375
y: 348.4350280761719
z: -0.00891201850026846
","x: 346.42999267578125
y: 345.44091796875
z: -0.012019994668662548
","x: 344.7578430175781
y: 343.64276123046875
z: -0.014888442121446133
","x: 348.9685974121094
y: 353.095703125
z: -0.01658867485821247
","x: 343.7609558105469
y: 350.988037109375
z: -0.0198792926967144
","x: 343.1961364746094
y: 350.4067687988281
z: -0.019243475049734116
","x: 344.0210876464844
y: 350.8410949707031
z: -0.018248919397592545
","x: 348.3946228027344
y: 357.9092102050781
z: -0.015618558041751385
","x: 342.762939453125
y: 355.37939453125
z: -0.018982671201229095
","x: 342.1326599121094
y: 354.684814453125
z: -0.017021844163537025
","x: 343.2541809082031
y: 354.87420654296875
z: -0.015216866508126259
","x: 347.36700439453125
y: 361.8276672363281
z: -0.014068977907299995
","x: 342.21844482421875
y: 359.67449951171875
z: -0.016281791031360626
","x: 341.3800354003906
y: 358.30938720703125
z: -0.014004696160554886
","x: 342.3168029785156
y: 357.7816162109375
z: -0.012431896291673183
","x: 346.1900939941406
y: 364.85650634765625
z: -0.012653260491788387
","x: 341.9949035644531
y: 363.2253723144531
z: -0.01425724383443594
","x: 341.2650451660156
y: 361.390869140625
z: -0.013264698907732964
","x: 341.91754150390625
y: 359.9951477050781
z: -0.01238003559410572
",,,,,,,,,,,,,,,,,,,,,
10,"x: 334.4726257324219
y: 249.41091918945312
z: -0.4088853895664215
visibility: 0.9999861717224121
","x: 337.93377685546875
y: 242.0014190673828
z: -0.38682377338409424
visibility: 0.9999609589576721
","x: 339.4216613769531
y: 242.20681762695312
z: -0.3868166506290436
visibility: 0.9999549388885498
","x: 340.8450927734375
y: 242.468505859375
z: -0.38682693243026733
visibility: 0.99994957447052
","x: 333.21527099609375
y: 241.3790740966797
z: -0.389411062002182
visibility: 0.9999669194221497
","x: 331.659423828125
y: 241.1195068359375
z: -0.3895244002342224
visibility: 0.9999660849571228
","x: 330.29339599609375
y: 240.9153594970703
z: -0.38953274488449097
visibility: 0.9999690651893616
","x: 342.9591979980469
y: 244.71585083007812
z: -0.2594972848892212
visibility: 0.9998932480812073
","x: 328.5328369140625
y: 241.94607543945312
z: -0.26868191361427307
visibility: 0.9999594688415527
","x: 337.315185546875
y: 256.93060302734375
z: -0.3616585433483124
visibility: 0.9999763369560242
","x: 331.4526672363281
y: 256.42803955078125
z: -0.3654617369174957
visibility: 0.9999866485595703
","x: 354.40045166015625
y: 288.4497375488281
z: -0.19228218495845795
visibility: 0.9999540448188782
","x: 312.7586669921875
y: 283.8023681640625
z: -0.2037176787853241
visibility: 0.9999629259109497
","x: 354.5642395019531
y: 338.0906677246094
z: -0.283519446849823
visibility: 0.978010356426239
","x: 304.8433837890625
y: 332.8055114746094
z: -0.3072957396507263
visibility: 0.9916176199913025
","x: 343.19940185546875
y: 368.8904113769531
z: -0.47087302803993225
visibility: 0.9583129286766052
","x: 318.8949279785156
y: 369.7048645019531
z: -0.508933961391449
visibility: 0.9768041372299194
","x: 340.15655517578125
y: 380.775146484375
z: -0.5208010673522949
visibility: 0.927430272102356
","x: 320.6701354980469
y: 379.4163513183594
z: -0.5618795156478882
visibility: 0.9525275826454163
","x: 337.14111328125
y: 373.966552734375
z: -0.531173825263977
visibility: 0.9311524629592896
","x: 323.2646179199219
y: 373.75189208984375
z: -0.566902220249176
visibility: 0.9534358382225037
","x: 337.7359313964844
y: 369.4235534667969
z: -0.47977790236473083
visibility: 0.9041886925697327
","x: 322.74847412109375
y: 369.9228210449219
z: -0.5153346657752991
visibility: 0.9300758242607117
","x: 345.5456237792969
y: 381.9717712402344
z: 0.0033626973163336515
visibility: 0.9994344711303711
","x: 321.2017822265625
y: 385.4620056152344
z: -0.0034495596773922443
visibility: 0.9995606541633606
","x: 363.3335876464844
y: 437.4931640625
z: -0.16475015878677368
visibility: 0.9903433918952942
","x: 304.14166259765625
y: 446.0163879394531
z: -0.17148765921592712
visibility: 0.9872128367424011
","x: 376.7042541503906
y: 500.3004150390625
z: 0.07705377042293549
visibility: 0.9894404411315918
","x: 298.7396240234375
y: 505.5567626953125
z: 0.0721370130777359
visibility: 0.9901072382926941
","x: 375.1971435546875
y: 510.7502746582031
z: 0.09293166548013687
visibility: 0.9095702767372131
","x: 301.60809326171875
y: 515.1763305664062
z: 0.08873771131038666
visibility: 0.8947199583053589
","x: 382.1645202636719
y: 525.178466796875
z: -0.04431266710162163
visibility: 0.9864770770072937
","x: 292.34967041015625
y: 529.03759765625
z: -0.0470486655831337
visibility: 0.9860033392906189
","x: 335.6231384277344
y: 379.71136474609375
z: 0.0
","x: 333.7467041015625
y: 373.94403076171875
z: -0.0023401593789458275
","x: 330.91253662109375
y: 370.3624267578125
z: -0.005209143273532391
","x: 328.01824951171875
y: 368.7312316894531
z: -0.007343885023146868
","x: 325.4173278808594
y: 368.4224853515625
z: -0.009058506228029728
","x: 334.75152587890625
y: 374.5574951171875
z: -0.0135879535228014
","x: 328.9083251953125
y: 374.5678405761719
z: -0.016411902382969856
","x: 328.871337890625
y: 372.76055908203125
z: -0.015116802416741848
","x: 330.1878662109375
y: 372.2784729003906
z: -0.013611848466098309
","x: 334.7707214355469
y: 379.69439697265625
z: -0.013477670960128307
","x: 328.2047424316406
y: 379.2724304199219
z: -0.01619272120296955
","x: 328.7773132324219
y: 377.24853515625
z: -0.013155432417988777
","x: 330.7232360839844
y: 376.77142333984375
z: -0.01058610063046217
","x: 334.1343688964844
y: 384.04071044921875
z: -0.01260237768292427
","x: 328.4693908691406
y: 383.33636474609375
z: -0.014431020244956017
","x: 328.82818603515625
y: 381.54046630859375
z: -0.010930433869361877
","x: 330.4361267089844
y: 381.0438537597656
z: -0.008433174341917038
","x: 332.983154296875
y: 387.4714660644531
z: -0.01173454336822033
","x: 328.5841979980469
y: 386.46575927734375
z: -0.013151944614946842
","x: 328.7220153808594
y: 385.20751953125
z: -0.011447939090430737
","x: 329.9931335449219
y: 384.8165283203125
z: -0.009840413928031921
",,,,,,,,,,,,,,,,,,,,,
11,"x: 334.4726257324219
y: 249.41091918945312
z: -0.4088853895664215
visibility: 0.9999861717224121
","x: 337.93377685546875
y: 242.0014190673828
z: -0.38682377338409424
visibility: 0.9999609589576721
","x: 339.4216613769531
y: 242.20681762695312
z: -0.3868166506290436
visibility: 0.9999549388885498
","x: 340.8450927734375
y: 242.468505859375
z: -0.38682693243026733
visibility: 0.99994957447052
","x: 333.21527099609375
y: 241.3790740966797
z: -0.389411062002182
visibility: 0.9999669194221497
","x: 331.659423828125
y: 241.1195068359375
z: -0.3895244002342224
visibility: 0.9999660849571228
","x: 330.29339599609375
y: 240.9153594970703
z: -0.38953274488449097
visibility: 0.9999690651893616
","x: 342.9591979980469
y: 244.71585083007812
z: -0.2594972848892212
visibility: 0.9998932480812073
","x: 328.5328369140625
y: 241.94607543945312
z: -0.26868191361427307
visibility: 0.9999594688415527
","x: 337.315185546875
y: 256.93060302734375
z: -0.3616585433483124
visibility: 0.9999763369560242
","x: 331.4526672363281
y: 256.42803955078125
z: -0.3654617369174957
visibility: 0.9999866485595703
","x: 354.40045166015625
y: 288.4497375488281
z: -0.19228218495845795
visibility: 0.9999540448188782
","x: 312.7586669921875
y: 283.8023681640625
z: -0.2037176787853241
visibility: 0.9999629259109497
","x: 354.5642395019531
y: 338.0906677246094
z: -0.283519446849823
visibility: 0.978010356426239
","x: 304.8433837890625
y: 332.8055114746094
z: -0.3072957396507263
visibility: 0.9916176199913025
","x: 343.19940185546875
y: 368.8904113769531
z: -0.47087302803993225
visibility: 0.9583129286766052
","x: 318.8949279785156
y: 369.7048645019531
z: -0.508933961391449
visibility: 0.9768041372299194
","x: 340.15655517578125
y: 380.775146484375
z: -0.5208010673522949
visibility: 0.927430272102356
","x: 320.6701354980469
y: 379.4163513183594
z: -0.5618795156478882
visibility: 0.9525275826454163
","x: 337.14111328125
y: 373.966552734375
z: -0.531173825263977
visibility: 0.9311524629592896
","x: 323.2646179199219
y: 373.75189208984375
z: -0.566902220249176
visibility: 0.9534358382225037
","x: 337.7359313964844
y: 369.4235534667969
z: -0.47977790236473083
visibility: 0.9041886925697327
","x: 322.74847412109375
y: 369.9228210449219
z: -0.5153346657752991
visibility: 0.9300758242607117
","x: 345.5456237792969
y: 381.9717712402344
z: 0.0033626973163336515
visibility: 0.9994344711303711
","x: 321.2017822265625
y: 385.4620056152344
z: -0.0034495596773922443
visibility: 0.9995606541633606
","x: 363.3335876464844
y: 437.4931640625
z: -0.16475015878677368
visibility: 0.9903433918952942
","x: 304.14166259765625
y: 446.0163879394531
z: -0.17148765921592712
visibility: 0.9872128367424011
","x: 376.7042541503906
y: 500.3004150390625
z: 0.07705377042293549
visibility: 0.9894404411315918
","x: 298.7396240234375
y: 505.5567626953125
z: 0.0721370130777359
visibility: 0.9901072382926941
","x: 375.1971435546875
y: 510.7502746582031
z: 0.09293166548013687
visibility: 0.9095702767372131
","x: 301.60809326171875
y: 515.1763305664062
z: 0.08873771131038666
visibility: 0.8947199583053589
","x: 382.1645202636719
y: 525.178466796875
z: -0.04431266710162163
visibility: 0.9864770770072937
","x: 292.34967041015625
y: 529.03759765625
z: -0.0470486655831337
visibility: 0.9860033392906189
","x: 335.6231384277344
y: 379.71136474609375
z: 0.0
","x: 333.7467041015625
y: 373.94403076171875
z: -0.0023401593789458275
","x: 330.91253662109375
y: 370.3624267578125
z: -0.005209143273532391
","x: 328.01824951171875
y: 368.7312316894531
z: -0.007343885023146868
","x: 325.4173278808594
y: 368.4224853515625
z: -0.009058506228029728
","x: 334.75152587890625
y: 374.5574951171875
z: -0.0135879535228014
","x: 328.9083251953125
y: 374.5678405761719
z: -0.016411902382969856
","x: 328.871337890625
y: 372.76055908203125
z: -0.015116802416741848
","x: 330.1878662109375
y: 372.2784729003906
z: -0.013611848466098309
","x: 334.7707214355469
y: 379.69439697265625
z: -0.013477670960128307
","x: 328.2047424316406
y: 379.2724304199219
z: -0.01619272120296955
","x: 328.7773132324219
y: 377.24853515625
z: -0.013155432417988777
","x: 330.7232360839844
y: 376.77142333984375
z: -0.01058610063046217
","x: 334.1343688964844
y: 384.04071044921875
z: -0.01260237768292427
","x: 328.4693908691406
y: 383.33636474609375
z: -0.014431020244956017
","x: 328.82818603515625
y: 381.54046630859375
z: -0.010930433869361877
","x: 330.4361267089844
y: 381.0438537597656
z: -0.008433174341917038
","x: 332.983154296875
y: 387.4714660644531
z: -0.01173454336822033
","x: 328.5841979980469
y: 386.46575927734375
z: -0.013151944614946842
","x: 328.7220153808594
y: 385.20751953125
z: -0.011447939090430737
","x: 329.9931335449219
y: 384.8165283203125
z: -0.009840413928031921
",,,,,,,,,,,,,,,,,,,,,
12,"x: 331.1001892089844
y: 248.94326782226562
z: -0.3363305330276489
visibility: 0.9999859929084778
","x: 333.9585266113281
y: 240.88592529296875
z: -0.32066163420677185
visibility: 0.9999597668647766
","x: 335.3992919921875
y: 240.72706604003906
z: -0.32069894671440125
visibility: 0.999954342842102
","x: 336.7025146484375
y: 240.57211303710938
z: -0.32075852155685425
visibility: 0.9999488592147827
","x: 329.4100646972656
y: 240.27737426757812
z: -0.32037353515625
visibility: 0.9999649524688721
","x: 327.8935546875
y: 239.71749877929688
z: -0.32042616605758667
visibility: 0.9999637603759766
","x: 326.503662109375
y: 239.20947265625
z: -0.3204304873943329
visibility: 0.9999658465385437
","x: 338.4959716796875
y: 240.9634246826172
z: -0.2076212465763092
visibility: 0.9998965263366699
","x: 324.58935546875
y: 239.30406188964844
z: -0.2039506733417511
visibility: 0.9999560713768005
","x: 333.74603271484375
y: 256.06134033203125
z: -0.29179513454437256
visibility: 0.9999768733978271
","x: 327.8946838378906
y: 255.46669006347656
z: -0.29122650623321533
visibility: 0.9999861717224121
","x: 352.670166015625
y: 281.73895263671875
z: -0.1535249501466751
visibility: 0.9999570846557617
","x: 311.12567138671875
y: 276.9788513183594
z: -0.11328699439764023
visibility: 0.999963104724884
","x: 354.11883544921875
y: 330.2171325683594
z: -0.2059587687253952
visibility: 0.9792543649673462
","x: 304.54510498046875
y: 326.3096923828125
z: -0.13881686329841614
visibility: 0.987851083278656
","x: 336.11419677734375
y: 356.05718994140625
z: -0.3721821904182434
visibility: 0.9580932259559631
","x: 318.1798095703125
y: 361.9888610839844
z: -0.30442336201667786
visibility: 0.9685108065605164
","x: 330.75079345703125
y: 367.4740905761719
z: -0.41764989495277405
visibility: 0.9267290234565735
","x: 320.5058288574219
y: 373.1585388183594
z: -0.3506927192211151
visibility: 0.9422621130943298
","x: 327.44512939453125
y: 361.4403076171875
z: -0.43341144919395447
visibility: 0.9300941228866577
","x: 323.1282958984375
y: 367.78521728515625
z: -0.36683303117752075
visibility: 0.9432739615440369
","x: 328.8703918457031
y: 357.12786865234375
z: -0.3820475935935974
visibility: 0.9010570049285889
","x: 322.553466796875
y: 363.7838439941406
z: -0.31561437249183655
visibility: 0.9175879955291748
","x: 344.53375244140625
y: 377.30511474609375
z: -0.007038631476461887
visibility: 0.9994826912879944
","x: 320.1607666015625
y: 380.5791931152344
z: 0.006961932871490717
visibility: 0.9995968341827393
","x: 361.87677001953125
y: 438.53326416015625
z: -0.09143471717834473
visibility: 0.9912251234054565
","x: 304.0600891113281
y: 445.9976806640625
z: -0.06616828590631485
visibility: 0.9883623719215393
","x: 376.53643798828125
y: 501.20379638671875
z: 0.10694296658039093
visibility: 0.990389347076416
","x: 298.54449462890625
y: 506.7785339355469
z: 0.13972194492816925
visibility: 0.9909879565238953
","x: 375.5380859375
y: 511.16619873046875
z: 0.1183224469423294
visibility: 0.9136348962783813
","x: 301.38177490234375
y: 517.2291259765625
z: 0.1530354917049408
visibility: 0.902493417263031
","x: 381.1300048828125
y: 524.95654296875
z: -0.028249433264136314
visibility: 0.987449049949646
","x: 292.4956970214844
y: 528.9364013671875
z: 0.039672840386629105
visibility: 0.9870662093162537
",,,,,,,,,,,,,,,,,,,,,,,,,,,,,,,,,,,,,,,,,,
13,"x: 331.55615234375
y: 243.69163513183594
z: -0.40438413619995117
visibility: 0.999986469745636
","x: 334.2268981933594
y: 234.95835876464844
z: -0.3881930708885193
visibility: 0.9999615550041199
","x: 335.6341857910156
y: 234.7295379638672
z: -0.38822871446609497
visibility: 0.999956488609314
","x: 336.9278564453125
y: 234.66705322265625
z: -0.3882964551448822
visibility: 0.9999513030052185
","x: 329.8858337402344
y: 235.72694396972656
z: -0.38561922311782837
visibility: 0.9999665021896362
","x: 328.38616943359375
y: 236.15211486816406
z: -0.38567444682121277
visibility: 0.9999651908874512
","x: 326.9781188964844
y: 236.86790466308594
z: -0.38568347692489624
visibility: 0.999967098236084
","x: 338.5835266113281
y: 236.75088500976562
z: -0.26585155725479126
visibility: 0.9999029636383057
","x: 324.78948974609375
y: 237.23202514648438
z: -0.23863466084003448
visibility: 0.9999578595161438
","x: 333.9765319824219
y: 252.2315216064453
z: -0.356076180934906
visibility: 0.9999781847000122
","x: 328.4287109375
y: 252.53746032714844
z: -0.35167354345321655
visibility: 0.9999867081642151
","x: 352.6258544921875
y: 273.592041015625
z: -0.18760021030902863
visibility: 0.999959409236908
","x: 311.5267333984375
y: 276.8311767578125
z: -0.14310194551944733
visibility: 0.9999649524688721
","x: 354.6692810058594
y: 328.93798828125
z: -0.271197110414505
visibility: 0.9805909395217896
","x: 305.55352783203125
y: 323.66412353515625
z: -0.1516009420156479
visibility: 0.9872055649757385
","x: 337.5032043457031
y: 329.1930847167969
z: -0.47957944869995117
visibility: 0.9597917795181274
","x: 317.91656494140625
y: 361.5548095703125
z: -0.30169251561164856
visibility: 0.9672152400016785
","x: 332.55255126953125
y: 335.31390380859375
z: -0.5326487421989441
visibility: 0.9296426177024841
","x: 320.2051086425781
y: 367.2185974121094
z: -0.34530648589134216
visibility: 0.9403308033943176
","x: 329.3757629394531
y: 326.01763916015625
z: -0.5421930551528931
visibility: 0.932656466960907
","x: 322.9740295410156
y: 363.4698486328125
z: -0.36412593722343445
visibility: 0.9412258863449097
","x: 330.65325927734375
y: 323.7115173339844
z: -0.48730936646461487
visibility: 0.9026036858558655
","x: 322.5817565917969
y: 360.46331787109375
z: -0.31272026896476746
visibility: 0.9143934845924377
","x: 345.29681396484375
y: 370.4986877441406
z: -0.009593713097274303
visibility: 0.9995229840278625
","x: 321.3835144042969
y: 375.6492614746094
z: 0.009531567804515362
visibility: 0.9996286630630493
","x: 363.122802734375
y: 437.490478515625
z: -0.08670268952846527
visibility: 0.9920094609260559
","x: 306.61468505859375
y: 440.88421630859375
z: -0.02369052730500698
visibility: 0.989409863948822
","x: 377.293212890625
y: 501.2569580078125
z: 0.1328500658273697
visibility: 0.9912524223327637
","x: 298.9637145996094
y: 507.8695068359375
z: 0.16154532134532928
visibility: 0.991809606552124
","x: 376.4431457519531
y: 510.67999267578125
z: 0.14513583481311798
visibility: 0.9180275797843933
","x: 301.6727600097656
y: 519.3353881835938
z: 0.17253711819648743
visibility: 0.9098474383354187
","x: 381.25689697265625
y: 524.71044921875
z: 0.0013934762682765722
visibility: 0.988416314125061
","x: 291.4537658691406
y: 528.8342895507812
z: 0.04775507375597954
visibility: 0.988111674785614
","x: 332.17425537109375
y: 319.7973937988281
z: 0.0
","x: 328.9651794433594
y: 313.98468017578125
z: 0.0002114933158736676
","x: 324.9371032714844
y: 311.633056640625
z: -0.0003211052098777145
","x: 321.8359680175781
y: 311.40618896484375
z: -0.0010764335747808218
","x: 319.5632019042969
y: 311.3986511230469
z: -0.0013444015057757497
","x: 322.91815185546875
y: 317.1333312988281
z: -0.003161073662340641
","x: 318.5812072753906
y: 319.34979248046875
z: -0.00450417073443532
","x: 320.4836730957031
y: 318.48095703125
z: -0.003449553158134222
","x: 322.9625549316406
y: 317.5670166015625
z: -0.0022503393702208996
","x: 323.6788635253906
y: 322.1011657714844
z: -0.004252178128808737
","x: 319.9431457519531
y: 324.1437072753906
z: -0.004995475057512522
","x: 321.7804260253906
y: 322.761962890625
z: -0.003073957748711109
","x: 323.7719421386719
y: 321.9119567871094
z: -0.0015570517862215638
","x: 324.8597412109375
y: 326.5683288574219
z: -0.005236176308244467
","x: 321.59429931640625
y: 328.3500671386719
z: -0.005807628855109215
","x: 323.2665100097656
y: 326.8119812011719
z: -0.0035477138590067625
","x: 325.03497314453125
y: 325.7331848144531
z: -0.002006447408348322
","x: 326.2108154296875
y: 330.4588623046875
z: -0.00628556776791811
","x: 323.3045959472656
y: 332.0194091796875
z: -0.006833643652498722
","x: 324.4632568359375
y: 330.7747802734375
z: -0.005371181294322014
","x: 326.0964660644531
y: 329.83636474609375
z: -0.0039895628578960896
","x: 318.4205017089844
y: 355.5874328613281
z: 0.0
","x: 321.6593933105469
y: 354.65057373046875
z: 0.0008669722592458129
","x: 324.77777099609375
y: 354.9098205566406
z: -0.0004350518574938178
","x: 326.84979248046875
y: 356.17572021484375
z: -0.0021781991235911846
","x: 327.9923095703125
y: 357.7864990234375
z: -0.0035923512186855078
","x: 324.64569091796875
y: 351.95159912109375
z: -0.0051147425547242165
","x: 328.171875
y: 356.20562744140625
z: -0.007489328272640705
","x: 326.7308044433594
y: 356.8486328125
z: -0.0070875161327421665
","x: 325.29901123046875
y: 355.6540222167969
z: -0.006466294173151255
","x: 323.1497802734375
y: 353.9318542480469
z: -0.007177828345447779
","x: 326.8465576171875
y: 358.573486328125
z: -0.009837571531534195
","x: 325.358642578125
y: 358.6324768066406
z: -0.008376364596188068
","x: 323.8851318359375
y: 357.07232666015625
z: -0.006854337640106678
","x: 321.66607666015625
y: 356.25732421875
z: -0.00897233746945858
","x: 324.9830627441406
y: 360.27105712890625
z: -0.010937787592411041
","x: 323.8414306640625
y: 360.0007629394531
z: -0.008497201837599277
","x: 322.4497985839844
y: 358.60076904296875
z: -0.006564734037965536
","x: 320.3758544921875
y: 358.81072998046875
z: -0.010699817910790443
","x: 322.9858093261719
y: 361.6226501464844
z: -0.011754848062992096
","x: 322.2665100097656
y: 361.0749816894531
z: -0.010129337199032307
","x: 321.0398864746094
y: 359.6773986816406
z: -0.008666887879371643
"
14,"x: 331.55615234375
y: 243.69163513183594
z: -0.40438413619995117
visibility: 0.999986469745636
","x: 334.2268981933594
y: 234.95835876464844
z: -0.3881930708885193
visibility: 0.9999615550041199
","x: 335.6341857910156
y: 234.7295379638672
z: -0.38822871446609497
visibility: 0.999956488609314
","x: 336.9278564453125
y: 234.66705322265625
z: -0.3882964551448822
visibility: 0.9999513030052185
","x: 329.8858337402344
y: 235.72694396972656
z: -0.38561922311782837
visibility: 0.9999665021896362
","x: 328.38616943359375
y: 236.15211486816406
z: -0.38567444682121277
visibility: 0.9999651908874512
","x: 326.9781188964844
y: 236.86790466308594
z: -0.38568347692489624
visibility: 0.999967098236084
","x: 338.5835266113281
y: 236.75088500976562
z: -0.26585155725479126
visibility: 0.9999029636383057
","x: 324.78948974609375
y: 237.23202514648438
z: -0.23863466084003448
visibility: 0.9999578595161438
","x: 333.9765319824219
y: 252.2315216064453
z: -0.356076180934906
visibility: 0.9999781847000122
","x: 328.4287109375
y: 252.53746032714844
z: -0.35167354345321655
visibility: 0.9999867081642151
","x: 352.6258544921875
y: 273.592041015625
z: -0.18760021030902863
visibility: 0.999959409236908
","x: 311.5267333984375
y: 276.8311767578125
z: -0.14310194551944733
visibility: 0.9999649524688721
","x: 354.6692810058594
y: 328.93798828125
z: -0.271197110414505
visibility: 0.9805909395217896
","x: 305.55352783203125
y: 323.66412353515625
z: -0.1516009420156479
visibility: 0.9872055649757385
","x: 337.5032043457031
y: 329.1930847167969
z: -0.47957944869995117
visibility: 0.9597917795181274
","x: 317.91656494140625
y: 361.5548095703125
z: -0.30169251561164856
visibility: 0.9672152400016785
","x: 332.55255126953125
y: 335.31390380859375
z: -0.5326487421989441
visibility: 0.9296426177024841
","x: 320.2051086425781
y: 367.2185974121094
z: -0.34530648589134216
visibility: 0.9403308033943176
","x: 329.3757629394531
y: 326.01763916015625
z: -0.5421930551528931
visibility: 0.932656466960907
","x: 322.9740295410156
y: 363.4698486328125
z: -0.36412593722343445
visibility: 0.9412258863449097
","x: 330.65325927734375
y: 323.7115173339844
z: -0.48730936646461487
visibility: 0.9026036858558655
","x: 322.5817565917969
y: 360.46331787109375
z: -0.31272026896476746
visibility: 0.9143934845924377
","x: 345.29681396484375
y: 370.4986877441406
z: -0.009593713097274303
visibility: 0.9995229840278625
","x: 321.3835144042969
y: 375.6492614746094
z: 0.009531567804515362
visibility: 0.9996286630630493
","x: 363.122802734375
y: 437.490478515625
z: -0.08670268952846527
visibility: 0.9920094609260559
","x: 306.61468505859375
y: 440.88421630859375
z: -0.02369052730500698
visibility: 0.989409863948822
","x: 377.293212890625
y: 501.2569580078125
z: 0.1328500658273697
visibility: 0.9912524223327637
","x: 298.9637145996094
y: 507.8695068359375
z: 0.16154532134532928
visibility: 0.991809606552124
","x: 376.4431457519531
y: 510.67999267578125
z: 0.14513583481311798
visibility: 0.9180275797843933
","x: 301.6727600097656
y: 519.3353881835938
z: 0.17253711819648743
visibility: 0.9098474383354187
","x: 381.25689697265625
y: 524.71044921875
z: 0.0013934762682765722
visibility: 0.988416314125061
","x: 291.4537658691406
y: 528.8342895507812
z: 0.04775507375597954
visibility: 0.988111674785614
","x: 332.17425537109375
y: 319.7973937988281
z: 0.0
","x: 328.9651794433594
y: 313.98468017578125
z: 0.0002114933158736676
","x: 324.9371032714844
y: 311.633056640625
z: -0.0003211052098777145
","x: 321.8359680175781
y: 311.40618896484375
z: -0.0010764335747808218
","x: 319.5632019042969
y: 311.3986511230469
z: -0.0013444015057757497
","x: 322.91815185546875
y: 317.1333312988281
z: -0.003161073662340641
","x: 318.5812072753906
y: 319.34979248046875
z: -0.00450417073443532
","x: 320.4836730957031
y: 318.48095703125
z: -0.003449553158134222
","x: 322.9625549316406
y: 317.5670166015625
z: -0.0022503393702208996
","x: 323.6788635253906
y: 322.1011657714844
z: -0.004252178128808737
","x: 319.9431457519531
y: 324.1437072753906
z: -0.004995475057512522
","x: 321.7804260253906
y: 322.761962890625
z: -0.003073957748711109
","x: 323.7719421386719
y: 321.9119567871094
z: -0.0015570517862215638
","x: 324.8597412109375
y: 326.5683288574219
z: -0.005236176308244467
","x: 321.59429931640625
y: 328.3500671386719
z: -0.005807628855109215
","x: 323.2665100097656
y: 326.8119812011719
z: -0.0035477138590067625
","x: 325.03497314453125
y: 325.7331848144531
z: -0.002006447408348322
","x: 326.2108154296875
y: 330.4588623046875
z: -0.00628556776791811
","x: 323.3045959472656
y: 332.0194091796875
z: -0.006833643652498722
","x: 324.4632568359375
y: 330.7747802734375
z: -0.005371181294322014
","x: 326.0964660644531
y: 329.83636474609375
z: -0.0039895628578960896
","x: 318.4205017089844
y: 355.5874328613281
z: 0.0
","x: 321.6593933105469
y: 354.65057373046875
z: 0.0008669722592458129
","x: 324.77777099609375
y: 354.9098205566406
z: -0.0004350518574938178
","x: 326.84979248046875
y: 356.17572021484375
z: -0.0021781991235911846
","x: 327.9923095703125
y: 357.7864990234375
z: -0.0035923512186855078
","x: 324.64569091796875
y: 351.95159912109375
z: -0.0051147425547242165
","x: 328.171875
y: 356.20562744140625
z: -0.007489328272640705
","x: 326.7308044433594
y: 356.8486328125
z: -0.0070875161327421665
","x: 325.29901123046875
y: 355.6540222167969
z: -0.006466294173151255
","x: 323.1497802734375
y: 353.9318542480469
z: -0.007177828345447779
","x: 326.8465576171875
y: 358.573486328125
z: -0.009837571531534195
","x: 325.358642578125
y: 358.6324768066406
z: -0.008376364596188068
","x: 323.8851318359375
y: 357.07232666015625
z: -0.006854337640106678
","x: 321.66607666015625
y: 356.25732421875
z: -0.00897233746945858
","x: 324.9830627441406
y: 360.27105712890625
z: -0.010937787592411041
","x: 323.8414306640625
y: 360.0007629394531
z: -0.008497201837599277
","x: 322.4497985839844
y: 358.60076904296875
z: -0.006564734037965536
","x: 320.3758544921875
y: 358.81072998046875
z: -0.010699817910790443
","x: 322.9858093261719
y: 361.6226501464844
z: -0.011754848062992096
","x: 322.2665100097656
y: 361.0749816894531
z: -0.010129337199032307
","x: 321.0398864746094
y: 359.6773986816406
z: -0.008666887879371643
"
15,"x: 331.55615234375
y: 243.69163513183594
z: -0.40438413619995117
visibility: 0.999986469745636
","x: 334.2268981933594
y: 234.95835876464844
z: -0.3881930708885193
visibility: 0.9999615550041199
","x: 335.6341857910156
y: 234.7295379638672
z: -0.38822871446609497
visibility: 0.999956488609314
","x: 336.9278564453125
y: 234.66705322265625
z: -0.3882964551448822
visibility: 0.9999513030052185
","x: 329.8858337402344
y: 235.72694396972656
z: -0.38561922311782837
visibility: 0.9999665021896362
","x: 328.38616943359375
y: 236.15211486816406
z: -0.38567444682121277
visibility: 0.9999651908874512
","x: 326.9781188964844
y: 236.86790466308594
z: -0.38568347692489624
visibility: 0.999967098236084
","x: 338.5835266113281
y: 236.75088500976562
z: -0.26585155725479126
visibility: 0.9999029636383057
","x: 324.78948974609375
y: 237.23202514648438
z: -0.23863466084003448
visibility: 0.9999578595161438
","x: 333.9765319824219
y: 252.2315216064453
z: -0.356076180934906
visibility: 0.9999781847000122
","x: 328.4287109375
y: 252.53746032714844
z: -0.35167354345321655
visibility: 0.9999867081642151
","x: 352.6258544921875
y: 273.592041015625
z: -0.18760021030902863
visibility: 0.999959409236908
","x: 311.5267333984375
y: 276.8311767578125
z: -0.14310194551944733
visibility: 0.9999649524688721
","x: 354.6692810058594
y: 328.93798828125
z: -0.271197110414505
visibility: 0.9805909395217896
","x: 305.55352783203125
y: 323.66412353515625
z: -0.1516009420156479
visibility: 0.9872055649757385
","x: 337.5032043457031
y: 329.1930847167969
z: -0.47957944869995117
visibility: 0.9597917795181274
","x: 317.91656494140625
y: 361.5548095703125
z: -0.30169251561164856
visibility: 0.9672152400016785
","x: 332.55255126953125
y: 335.31390380859375
z: -0.5326487421989441
visibility: 0.9296426177024841
","x: 320.2051086425781
y: 367.2185974121094
z: -0.34530648589134216
visibility: 0.9403308033943176
","x: 329.3757629394531
y: 326.01763916015625
z: -0.5421930551528931
visibility: 0.932656466960907
","x: 322.9740295410156
y: 363.4698486328125
z: -0.36412593722343445
visibility: 0.9412258863449097
","x: 330.65325927734375
y: 323.7115173339844
z: -0.48730936646461487
visibility: 0.9026036858558655
","x: 322.5817565917969
y: 360.46331787109375
z: -0.31272026896476746
visibility: 0.9143934845924377
","x: 345.29681396484375
y: 370.4986877441406
z: -0.009593713097274303
visibility: 0.9995229840278625
","x: 321.3835144042969
y: 375.6492614746094
z: 0.009531567804515362
visibility: 0.9996286630630493
","x: 363.122802734375
y: 437.490478515625
z: -0.08670268952846527
visibility: 0.9920094609260559
","x: 306.61468505859375
y: 440.88421630859375
z: -0.02369052730500698
visibility: 0.989409863948822
","x: 377.293212890625
y: 501.2569580078125
z: 0.1328500658273697
visibility: 0.9912524223327637
","x: 298.9637145996094
y: 507.8695068359375
z: 0.16154532134532928
visibility: 0.991809606552124
","x: 376.4431457519531
y: 510.67999267578125
z: 0.14513583481311798
visibility: 0.9180275797843933
","x: 301.6727600097656
y: 519.3353881835938
z: 0.17253711819648743
visibility: 0.9098474383354187
","x: 381.25689697265625
y: 524.71044921875
z: 0.0013934762682765722
visibility: 0.988416314125061
","x: 291.4537658691406
y: 528.8342895507812
z: 0.04775507375597954
visibility: 0.988111674785614
","x: 332.17425537109375
y: 319.7973937988281
z: 0.0
","x: 328.9651794433594
y: 313.98468017578125
z: 0.0002114933158736676
","x: 324.9371032714844
y: 311.633056640625
z: -0.0003211052098777145
","x: 321.8359680175781
y: 311.40618896484375
z: -0.0010764335747808218
","x: 319.5632019042969
y: 311.3986511230469
z: -0.0013444015057757497
","x: 322.91815185546875
y: 317.1333312988281
z: -0.003161073662340641
","x: 318.5812072753906
y: 319.34979248046875
z: -0.00450417073443532
","x: 320.4836730957031
y: 318.48095703125
z: -0.003449553158134222
","x: 322.9625549316406
y: 317.5670166015625
z: -0.0022503393702208996
","x: 323.6788635253906
y: 322.1011657714844
z: -0.004252178128808737
","x: 319.9431457519531
y: 324.1437072753906
z: -0.004995475057512522
","x: 321.7804260253906
y: 322.761962890625
z: -0.003073957748711109
","x: 323.7719421386719
y: 321.9119567871094
z: -0.0015570517862215638
","x: 324.8597412109375
y: 326.5683288574219
z: -0.005236176308244467
","x: 321.59429931640625
y: 328.3500671386719
z: -0.005807628855109215
","x: 323.2665100097656
y: 326.8119812011719
z: -0.0035477138590067625
","x: 325.03497314453125
y: 325.7331848144531
z: -0.002006447408348322
","x: 326.2108154296875
y: 330.4588623046875
z: -0.00628556776791811
","x: 323.3045959472656
y: 332.0194091796875
z: -0.006833643652498722
","x: 324.4632568359375
y: 330.7747802734375
z: -0.005371181294322014
","x: 326.0964660644531
y: 329.83636474609375
z: -0.0039895628578960896
","x: 318.4205017089844
y: 355.5874328613281
z: 0.0
","x: 321.6593933105469
y: 354.65057373046875
z: 0.0008669722592458129
","x: 324.77777099609375
y: 354.9098205566406
z: -0.0004350518574938178
","x: 326.84979248046875
y: 356.17572021484375
z: -0.0021781991235911846
","x: 327.9923095703125
y: 357.7864990234375
z: -0.0035923512186855078
","x: 324.64569091796875
y: 351.95159912109375
z: -0.0051147425547242165
","x: 328.171875
y: 356.20562744140625
z: -0.007489328272640705
","x: 326.7308044433594
y: 356.8486328125
z: -0.0070875161327421665
","x: 325.29901123046875
y: 355.6540222167969
z: -0.006466294173151255
","x: 323.1497802734375
y: 353.9318542480469
z: -0.007177828345447779
","x: 326.8465576171875
y: 358.573486328125
z: -0.009837571531534195
","x: 325.358642578125
y: 358.6324768066406
z: -0.008376364596188068
","x: 323.8851318359375
y: 357.07232666015625
z: -0.006854337640106678
","x: 321.66607666015625
y: 356.25732421875
z: -0.00897233746945858
","x: 324.9830627441406
y: 360.27105712890625
z: -0.010937787592411041
","x: 323.8414306640625
y: 360.0007629394531
z: -0.008497201837599277
","x: 322.4497985839844
y: 358.60076904296875
z: -0.006564734037965536
","x: 320.3758544921875
y: 358.81072998046875
z: -0.010699817910790443
","x: 322.9858093261719
y: 361.6226501464844
z: -0.011754848062992096
","x: 322.2665100097656
y: 361.0749816894531
z: -0.010129337199032307
","x: 321.0398864746094
y: 359.6773986816406
z: -0.008666887879371643
"
16,"x: 336.1121826171875
y: 236.53175354003906
z: -0.3427470624446869
visibility: 0.9999860525131226
","x: 338.0818786621094
y: 226.9716033935547
z: -0.3263935446739197
visibility: 0.9999614953994751
","x: 339.4566650390625
y: 226.4344482421875
z: -0.32643842697143555
visibility: 0.9999566078186035
","x: 340.78485107421875
y: 226.1263885498047
z: -0.32649216055870056
visibility: 0.9999515414237976
","x: 333.96478271484375
y: 228.521240234375
z: -0.323900043964386
visibility: 0.9999661445617676
","x: 332.5467529296875
y: 229.0701141357422
z: -0.3239310681819916
visibility: 0.9999643564224243
","x: 331.1875
y: 229.94580078125
z: -0.3239452540874481
visibility: 0.9999661445617676
","x: 342.70013427734375
y: 227.27239990234375
z: -0.2080623209476471
visibility: 0.9999065399169922
","x: 329.88287353515625
y: 231.1201171875
z: -0.1919315755367279
visibility: 0.9999570846557617
","x: 338.7469177246094
y: 243.51197814941406
z: -0.2962297201156616
visibility: 0.9999788403511047
","x: 333.9434814453125
y: 244.34686279296875
z: -0.29207557439804077
visibility: 0.9999866485595703
","x: 357.2397155761719
y: 268.469482421875
z: -0.1361849308013916
visibility: 0.9999616146087646
","x: 316.9906005859375
y: 270.6025085449219
z: -0.08831356465816498
visibility: 0.9999655485153198
","x: 359.4264831542969
y: 323.3212585449219
z: -0.22257092595100403
visibility: 0.9815871715545654
","x: 309.80560302734375
y: 318.06231689453125
z: -0.08340657502412796
visibility: 0.9858484268188477
","x: 342.2998352050781
y: 318.88934326171875
z: -0.4432121813297272
visibility: 0.961829662322998
","x: 321.3804016113281
y: 353.7268371582031
z: -0.2352098971605301
visibility: 0.9650468826293945
","x: 337.84588623046875
y: 324.24664306640625
z: -0.4970357418060303
visibility: 0.9333372116088867
","x: 323.3419189453125
y: 363.99365234375
z: -0.2764812707901001
visibility: 0.9368367195129395
","x: 334.2372741699219
y: 315.6117858886719
z: -0.5062451958656311
visibility: 0.9361152052879333
","x: 326.38800048828125
y: 361.1214599609375
z: -0.29628387093544006
visibility: 0.9377299547195435
","x: 335.62615966796875
y: 313.1673278808594
z: -0.45105046033859253
visibility: 0.9058444499969482
","x: 326.1728210449219
y: 357.25830078125
z: -0.2458081990480423
visibility: 0.9096359014511108
","x: 348.8131103515625
y: 369.2716979980469
z: -0.01197882555425167
visibility: 0.9995595216751099
","x: 324.53729248046875
y: 375.0177307128906
z: 0.011946157552301884
visibility: 0.9996564388275146
","x: 366.739990234375
y: 437.2433166503906
z: -0.07796487212181091
visibility: 0.9927324652671814
","x: 307.64593505859375
y: 440.4697265625
z: -0.025968560948967934
visibility: 0.9903948307037354
","x: 380.2852783203125
y: 501.4052734375
z: 0.1329357922077179
visibility: 0.9920562505722046
","x: 299.5079650878906
y: 508.3741760253906
z: 0.15626055002212524
visibility: 0.9925607442855835
","x: 379.1741027832031
y: 510.73797607421875
z: 0.14519508183002472
visibility: 0.9220322966575623
","x: 302.1552429199219
y: 519.568603515625
z: 0.16739174723625183
visibility: 0.9168097972869873
","x: 381.5648193359375
y: 524.73779296875
z: 0.005451924633234739
visibility: 0.9893278479576111
","x: 291.5509948730469
y: 528.63818359375
z: 0.04512088745832443
visibility: 0.9890763163566589
","x: 340.28387451171875
y: 315.666748046875
z: 0.0
","x: 337.93939208984375
y: 310.0677795410156
z: -0.0020450567826628685
","x: 333.786865234375
y: 306.8336181640625
z: -0.003367487108334899
","x: 330.4690856933594
y: 306.4320983886719
z: -0.004965556785464287
","x: 327.85382080078125
y: 305.80804443359375
z: -0.006121786776930094
","x: 331.0659484863281
y: 312.7906188964844
z: -0.0026654598768800497
","x: 327.3496398925781
y: 314.7642822265625
z: -0.0058418456465005875
","x: 329.2703857421875
y: 314.58056640625
z: -0.006478678900748491
","x: 331.68878173828125
y: 314.0733947753906
z: -0.006217577029019594
","x: 331.59564208984375
y: 317.42822265625
z: -0.0032917784992605448
","x: 329.36468505859375
y: 319.05804443359375
z: -0.006559969857335091
","x: 332.0748291015625
y: 318.771484375
z: -0.006372615694999695
","x: 334.63946533203125
y: 318.3321533203125
z: -0.005395172163844109
","x: 332.4568786621094
y: 321.4065856933594
z: -0.004356640391051769
","x: 331.1676025390625
y: 322.9092712402344
z: -0.0075039309449493885
","x: 334.1962890625
y: 322.403564453125
z: -0.006256060674786568
","x: 336.5509033203125
y: 321.6868591308594
z: -0.004613893572241068
","x: 333.5805969238281
y: 324.95025634765625
z: -0.005775416269898415
","x: 332.11279296875
y: 326.139892578125
z: -0.00785122625529766
","x: 334.4735412597656
y: 325.6418151855469
z: -0.00689824391156435
","x: 336.5953063964844
y: 324.9604797363281
z: -0.00543401250615716
",,,,,,,,,,,,,,,,,,,,,
17,"x: 336.1121826171875
y: 236.53175354003906
z: -0.3427470624446869
visibility: 0.9999860525131226
","x: 338.0818786621094
y: 226.9716033935547
z: -0.3263935446739197
visibility: 0.9999614953994751
","x: 339.4566650390625
y: 226.4344482421875
z: -0.32643842697143555
visibility: 0.9999566078186035
","x: 340.78485107421875
y: 226.1263885498047
z: -0.32649216055870056
visibility: 0.9999515414237976
","x: 333.96478271484375
y: 228.521240234375
z: -0.323900043964386
visibility: 0.9999661445617676
","x: 332.5467529296875
y: 229.0701141357422
z: -0.3239310681819916
visibility: 0.9999643564224243
","x: 331.1875
y: 229.94580078125
z: -0.3239452540874481
visibility: 0.9999661445617676
","x: 342.70013427734375
y: 227.27239990234375
z: -0.2080623209476471
visibility: 0.9999065399169922
","x: 329.88287353515625
y: 231.1201171875
z: -0.1919315755367279
visibility: 0.9999570846557617
","x: 338.7469177246094
y: 243.51197814941406
z: -0.2962297201156616
visibility: 0.9999788403511047
","x: 333.9434814453125
y: 244.34686279296875
z: -0.29207557439804077
visibility: 0.9999866485595703
","x: 357.2397155761719
y: 268.469482421875
z: -0.1361849308013916
visibility: 0.9999616146087646
","x: 316.9906005859375
y: 270.6025085449219
z: -0.08831356465816498
visibility: 0.9999655485153198
","x: 359.4264831542969
y: 323.3212585449219
z: -0.22257092595100403
visibility: 0.9815871715545654
","x: 309.80560302734375
y: 318.06231689453125
z: -0.08340657502412796
visibility: 0.9858484268188477
","x: 342.2998352050781
y: 318.88934326171875
z: -0.4432121813297272
visibility: 0.961829662322998
","x: 321.3804016113281
y: 353.7268371582031
z: -0.2352098971605301
visibility: 0.9650468826293945
","x: 337.84588623046875
y: 324.24664306640625
z: -0.4970357418060303
visibility: 0.9333372116088867
","x: 323.3419189453125
y: 363.99365234375
z: -0.2764812707901001
visibility: 0.9368367195129395
","x: 334.2372741699219
y: 315.6117858886719
z: -0.5062451958656311
visibility: 0.9361152052879333
","x: 326.38800048828125
y: 361.1214599609375
z: -0.29628387093544006
visibility: 0.9377299547195435
","x: 335.62615966796875
y: 313.1673278808594
z: -0.45105046033859253
visibility: 0.9058444499969482
","x: 326.1728210449219
y: 357.25830078125
z: -0.2458081990480423
visibility: 0.9096359014511108
","x: 348.8131103515625
y: 369.2716979980469
z: -0.01197882555425167
visibility: 0.9995595216751099
","x: 324.53729248046875
y: 375.0177307128906
z: 0.011946157552301884
visibility: 0.9996564388275146
","x: 366.739990234375
y: 437.2433166503906
z: -0.07796487212181091
visibility: 0.9927324652671814
","x: 307.64593505859375
y: 440.4697265625
z: -0.025968560948967934
visibility: 0.9903948307037354
","x: 380.2852783203125
y: 501.4052734375
z: 0.1329357922077179
visibility: 0.9920562505722046
","x: 299.5079650878906
y: 508.3741760253906
z: 0.15626055002212524
visibility: 0.9925607442855835
","x: 379.1741027832031
y: 510.73797607421875
z: 0.14519508183002472
visibility: 0.9220322966575623
","x: 302.1552429199219
y: 519.568603515625
z: 0.16739174723625183
visibility: 0.9168097972869873
","x: 381.5648193359375
y: 524.73779296875
z: 0.005451924633234739
visibility: 0.9893278479576111
","x: 291.5509948730469
y: 528.63818359375
z: 0.04512088745832443
visibility: 0.9890763163566589
","x: 340.28387451171875
y: 315.666748046875
z: 0.0
","x: 337.93939208984375
y: 310.0677795410156
z: -0.0020450567826628685
","x: 333.786865234375
y: 306.8336181640625
z: -0.003367487108334899
","x: 330.4690856933594
y: 306.4320983886719
z: -0.004965556785464287
","x: 327.85382080078125
y: 305.80804443359375
z: -0.006121786776930094
","x: 331.0659484863281
y: 312.7906188964844
z: -0.0026654598768800497
","x: 327.3496398925781
y: 314.7642822265625
z: -0.0058418456465005875
","x: 329.2703857421875
y: 314.58056640625
z: -0.006478678900748491
","x: 331.68878173828125
y: 314.0733947753906
z: -0.006217577029019594
","x: 331.59564208984375
y: 317.42822265625
z: -0.0032917784992605448
","x: 329.36468505859375
y: 319.05804443359375
z: -0.006559969857335091
","x: 332.0748291015625
y: 318.771484375
z: -0.006372615694999695
","x: 334.63946533203125
y: 318.3321533203125
z: -0.005395172163844109
","x: 332.4568786621094
y: 321.4065856933594
z: -0.004356640391051769
","x: 331.1676025390625
y: 322.9092712402344
z: -0.0075039309449493885
","x: 334.1962890625
y: 322.403564453125
z: -0.006256060674786568
","x: 336.5509033203125
y: 321.6868591308594
z: -0.004613893572241068
","x: 333.5805969238281
y: 324.95025634765625
z: -0.005775416269898415
","x: 332.11279296875
y: 326.139892578125
z: -0.00785122625529766
","x: 334.4735412597656
y: 325.6418151855469
z: -0.00689824391156435
","x: 336.5953063964844
y: 324.9604797363281
z: -0.00543401250615716
",,,,,,,,,,,,,,,,,,,,,
18,"x: 341.12652587890625
y: 235.6552734375
z: -0.29457607865333557
visibility: 0.9999865293502808
","x: 343.1890869140625
y: 227.5734100341797
z: -0.2767561376094818
visibility: 0.9999628663063049
","x: 344.83648681640625
y: 227.62860107421875
z: -0.2767816483974457
visibility: 0.9999584555625916
","x: 346.3014831542969
y: 227.8608856201172
z: -0.27680379152297974
visibility: 0.9999536871910095
","x: 338.6138610839844
y: 227.846435546875
z: -0.27653640508651733
visibility: 0.9999670386314392
","x: 337.1962585449219
y: 228.02081298828125
z: -0.2765851616859436
visibility: 0.9999653697013855
","x: 335.6705017089844
y: 228.3757781982422
z: -0.2766048014163971
visibility: 0.9999669194221497
","x: 348.178955078125
y: 231.3900146484375
z: -0.17143280804157257
visibility: 0.9999111890792847
","x: 333.93359375
y: 230.7684326171875
z: -0.16813255846500397
visibility: 0.9999573826789856
","x: 343.8411865234375
y: 243.49185180664062
z: -0.25513559579849243
visibility: 0.9999802112579346
","x: 338.6148376464844
y: 243.3613739013672
z: -0.2546016573905945
visibility: 0.9999872446060181
","x: 360.07708740234375
y: 280.4322509765625
z: -0.1204330176115036
visibility: 0.9999637007713318
","x: 318.7966003417969
y: 277.1642150878906
z: -0.08782581984996796
visibility: 0.9999657869338989
","x: 363.5243225097656
y: 331.37408447265625
z: -0.20075714588165283
visibility: 0.9829277396202087
","x: 310.7210693359375
y: 327.9111328125
z: -0.09079894423484802
visibility: 0.985220193862915
","x: 343.4137268066406
y: 338.22607421875
z: -0.3957069516181946
visibility: 0.9644043445587158
","x: 320.73004150390625
y: 365.54864501953125
z: -0.22542543709278107
visibility: 0.9635921120643616
","x: 340.7706298828125
y: 341.9024658203125
z: -0.44769176840782166
visibility: 0.9373851418495178
","x: 322.855712890625
y: 378.5199279785156
z: -0.26475024223327637
visibility: 0.934017539024353
","x: 337.4832458496094
y: 328.65380859375
z: -0.4380168318748474
visibility: 0.9399216771125793
","x: 325.73016357421875
y: 374.2859191894531
z: -0.2816738784313202
visibility: 0.9348707795143127
","x: 338.2940979003906
y: 328.6228942871094
z: -0.39294421672821045
visibility: 0.9107511043548584
","x: 325.4242858886719
y: 369.1065673828125
z: -0.2346561849117279
visibility: 0.9067615866661072
","x: 349.4249572753906
y: 380.26593017578125
z: -0.009439253248274326
visibility: 0.999598503112793
","x: 324.7087707519531
y: 381.3250427246094
z: 0.009366032667458057
visibility: 0.9996857643127441
","x: 370.850341796875
y: 442.6488952636719
z: -0.06364136934280396
visibility: 0.9933910369873047
","x: 308.54620361328125
y: 446.61639404296875
z: -0.023162633180618286
visibility: 0.9912493824958801
","x: 380.3444519042969
y: 503.6539306640625
z: 0.14553414285182953
visibility: 0.9927454590797424
","x: 299.3952331542969
y: 508.3749084472656
z: 0.1989523470401764
visibility: 0.9931546449661255
","x: 379.4102783203125
y: 512.0025634765625
z: 0.1599176824092865
visibility: 0.9242125749588013
","x: 301.8085021972656
y: 519.468505859375
z: 0.21526260673999786
visibility: 0.9206609725952148
","x: 382.1384582519531
y: 525.0888671875
z: 0.033711619675159454
visibility: 0.9900105595588684
","x: 293.0543212890625
y: 528.5723266601562
z: 0.1040821522474289
visibility: 0.9896937608718872
","x: 343.6311340332031
y: 346.3123779296875
z: 0.0
","x: 341.99273681640625
y: 339.453369140625
z: -0.0009475810220465064
","x: 339.0761413574219
y: 333.9859619140625
z: -0.0034974131267517805
","x: 336.27294921875
y: 331.88232421875
z: -0.006437276024371386
","x: 333.77301025390625
y: 333.12872314453125
z: -0.009095834568142891
","x: 339.38507080078125
y: 340.0257873535156
z: -0.006039407104253769
","x: 336.1182861328125
y: 341.73907470703125
z: -0.01025672908872366
","x: 336.39898681640625
y: 341.1421203613281
z: -0.011462689377367496
","x: 337.0250244140625
y: 340.57342529296875
z: -0.011776834726333618
","x: 340.0879821777344
y: 344.9626159667969
z: -0.008032208308577538
","x: 337.4665832519531
y: 347.1879577636719
z: -0.012253212742507458
","x: 337.8763122558594
y: 345.68450927734375
z: -0.01188172958791256
","x: 338.2226867675781
y: 344.17913818359375
z: -0.01122573483735323
","x: 340.6436767578125
y: 349.931640625
z: -0.009972061961889267
","x: 338.5830078125
y: 351.68829345703125
z: -0.01338108815252781
","x: 339.0955810546875
y: 350.11865234375
z: -0.0110810287296772
","x: 339.7397766113281
y: 348.32208251953125
z: -0.00931688491255045
","x: 341.0110778808594
y: 354.565185546875
z: -0.012093542143702507
","x: 339.3359069824219
y: 355.7242126464844
z: -0.014191893860697746
","x: 339.64532470703125
y: 354.20782470703125
z: -0.012674818746745586
","x: 340.4730224609375
y: 352.7557373046875
z: -0.011260228231549263
",,,,,,,,,,,,,,,,,,,,,
19,"x: 341.12652587890625
y: 235.6552734375
z: -0.29457607865333557
visibility: 0.9999865293502808
","x: 343.1890869140625
y: 227.5734100341797
z: -0.2767561376094818
visibility: 0.9999628663063049
","x: 344.83648681640625
y: 227.62860107421875
z: -0.2767816483974457
visibility: 0.9999584555625916
","x: 346.3014831542969
y: 227.8608856201172
z: -0.27680379152297974
visibility: 0.9999536871910095
","x: 338.6138610839844
y: 227.846435546875
z: -0.27653640508651733
visibility: 0.9999670386314392
","x: 337.1962585449219
y: 228.02081298828125
z: -0.2765851616859436
visibility: 0.9999653697013855
","x: 335.6705017089844
y: 228.3757781982422
z: -0.2766048014163971
visibility: 0.9999669194221497
","x: 348.178955078125
y: 231.3900146484375
z: -0.17143280804157257
visibility: 0.9999111890792847
","x: 333.93359375
y: 230.7684326171875
z: -0.16813255846500397
visibility: 0.9999573826789856
","x: 343.8411865234375
y: 243.49185180664062
z: -0.25513559579849243
visibility: 0.9999802112579346
","x: 338.6148376464844
y: 243.3613739013672
z: -0.2546016573905945
visibility: 0.9999872446060181
","x: 360.07708740234375
y: 280.4322509765625
z: -0.1204330176115036
visibility: 0.9999637007713318
","x: 318.7966003417969
y: 277.1642150878906
z: -0.08782581984996796
visibility: 0.9999657869338989
","x: 363.5243225097656
y: 331.37408447265625
z: -0.20075714588165283
visibility: 0.9829277396202087
","x: 310.7210693359375
y: 327.9111328125
z: -0.09079894423484802
visibility: 0.985220193862915
","x: 343.4137268066406
y: 338.22607421875
z: -0.3957069516181946
visibility: 0.9644043445587158
","x: 320.73004150390625
y: 365.54864501953125
z: -0.22542543709278107
visibility: 0.9635921120643616
","x: 340.7706298828125
y: 341.9024658203125
z: -0.44769176840782166
visibility: 0.9373851418495178
","x: 322.855712890625
y: 378.5199279785156
z: -0.26475024223327637
visibility: 0.934017539024353
","x: 337.4832458496094
y: 328.65380859375
z: -0.4380168318748474
visibility: 0.9399216771125793
","x: 325.73016357421875
y: 374.2859191894531
z: -0.2816738784313202
visibility: 0.9348707795143127
","x: 338.2940979003906
y: 328.6228942871094
z: -0.39294421672821045
visibility: 0.9107511043548584
","x: 325.4242858886719
y: 369.1065673828125
z: -0.2346561849117279
visibility: 0.9067615866661072
","x: 349.4249572753906
y: 380.26593017578125
z: -0.009439253248274326
visibility: 0.999598503112793
","x: 324.7087707519531
y: 381.3250427246094
z: 0.009366032667458057
visibility: 0.9996857643127441
","x: 370.850341796875
y: 442.6488952636719
z: -0.06364136934280396
visibility: 0.9933910369873047
","x: 308.54620361328125
y: 446.61639404296875
z: -0.023162633180618286
visibility: 0.9912493824958801
","x: 380.3444519042969
y: 503.6539306640625
z: 0.14553414285182953
visibility: 0.9927454590797424
","x: 299.3952331542969
y: 508.3749084472656
z: 0.1989523470401764
visibility: 0.9931546449661255
","x: 379.4102783203125
y: 512.0025634765625
z: 0.1599176824092865
visibility: 0.9242125749588013
","x: 301.8085021972656
y: 519.468505859375
z: 0.21526260673999786
visibility: 0.9206609725952148
","x: 382.1384582519531
y: 525.0888671875
z: 0.033711619675159454
visibility: 0.9900105595588684
","x: 293.0543212890625
y: 528.5723266601562
z: 0.1040821522474289
visibility: 0.9896937608718872
","x: 343.6311340332031
y: 346.3123779296875
z: 0.0
","x: 341.99273681640625
y: 339.453369140625
z: -0.0009475810220465064
","x: 339.0761413574219
y: 333.9859619140625
z: -0.0034974131267517805
","x: 336.27294921875
y: 331.88232421875
z: -0.006437276024371386
","x: 333.77301025390625
y: 333.12872314453125
z: -0.009095834568142891
","x: 339.38507080078125
y: 340.0257873535156
z: -0.006039407104253769
","x: 336.1182861328125
y: 341.73907470703125
z: -0.01025672908872366
","x: 336.39898681640625
y: 341.1421203613281
z: -0.011462689377367496
","x: 337.0250244140625
y: 340.57342529296875
z: -0.011776834726333618
","x: 340.0879821777344
y: 344.9626159667969
z: -0.008032208308577538
","x: 337.4665832519531
y: 347.1879577636719
z: -0.012253212742507458
","x: 337.8763122558594
y: 345.68450927734375
z: -0.01188172958791256
","x: 338.2226867675781
y: 344.17913818359375
z: -0.01122573483735323
","x: 340.6436767578125
y: 349.931640625
z: -0.009972061961889267
","x: 338.5830078125
y: 351.68829345703125
z: -0.01338108815252781
","x: 339.0955810546875
y: 350.11865234375
z: -0.0110810287296772
","x: 339.7397766113281
y: 348.32208251953125
z: -0.00931688491255045
","x: 341.0110778808594
y: 354.565185546875
z: -0.012093542143702507
","x: 339.3359069824219
y: 355.7242126464844
z: -0.014191893860697746
","x: 339.64532470703125
y: 354.20782470703125
z: -0.012674818746745586
","x: 340.4730224609375
y: 352.7557373046875
z: -0.011260228231549263
",,,,,,,,,,,,,,,,,,,,,
20,"x: 339.3488464355469
y: 235.20193481445312
z: -0.3337624967098236
visibility: 0.9999875426292419
","x: 342.8175354003906
y: 227.93325805664062
z: -0.31607258319854736
visibility: 0.9999654293060303
","x: 344.56768798828125
y: 228.26560974121094
z: -0.3160863220691681
visibility: 0.9999614953994751
","x: 345.9656066894531
y: 228.69528198242188
z: -0.31610822677612305
visibility: 0.9999570846557617
","x: 337.6103820800781
y: 227.38339233398438
z: -0.31619811058044434
visibility: 0.9999692440032959
","x: 335.9645690917969
y: 227.29774475097656
z: -0.31625843048095703
visibility: 0.9999676942825317
","x: 334.406005859375
y: 227.32949829101562
z: -0.31627899408340454
visibility: 0.9999691247940063
","x: 346.8912048339844
y: 232.1541748046875
z: -0.2025381326675415
visibility: 0.9999182820320129
","x: 332.3320007324219
y: 229.597900390625
z: -0.2030123919248581
visibility: 0.9999595284461975
","x: 341.86328125
y: 243.42149353027344
z: -0.29083696007728577
visibility: 0.9999818801879883
","x: 335.4644775390625
y: 242.61090087890625
z: -0.29122138023376465
visibility: 0.9999881982803345
","x: 358.6838684082031
y: 281.3817443847656
z: -0.16230233013629913
visibility: 0.999966025352478
","x: 315.4312744140625
y: 276.86944580078125
z: -0.1161985993385315
visibility: 0.9999669790267944
","x: 357.5772399902344
y: 334.2669677734375
z: -0.22885926067829132
visibility: 0.984123945236206
","x: 308.62628173828125
y: 329.2386474609375
z: -0.15754763782024384
visibility: 0.9840118885040283
","x: 340.6989440917969
y: 361.9401550292969
z: -0.3941698372364044
visibility: 0.9650395512580872
","x: 316.19207763671875
y: 367.2718811035156
z: -0.32960236072540283
visibility: 0.9605357646942139
","x: 337.0631103515625
y: 375.6774597167969
z: -0.44507521390914917
visibility: 0.9380820393562317
","x: 317.73211669921875
y: 379.8524169921875
z: -0.37781208753585815
visibility: 0.9299689531326294
","x: 333.5267333984375
y: 367.8695983886719
z: -0.45434412360191345
visibility: 0.9405210018157959
","x: 320.2828369140625
y: 374.3670349121094
z: -0.3961869776248932
visibility: 0.9308409690856934
","x: 333.8938903808594
y: 363.3096618652344
z: -0.4008825719356537
visibility: 0.9113813042640686
","x: 320.58465576171875
y: 369.4718017578125
z: -0.3413394093513489
visibility: 0.9027019739151001
","x: 347.06402587890625
y: 379.953857421875
z: -0.01734035089612007
visibility: 0.9996311068534851
","x: 321.8236083984375
y: 381.886474609375
z: 0.017213013023138046
visibility: 0.9997122287750244
","x: 367.1604919433594
y: 441.3348083496094
z: -0.07678569853305817
visibility: 0.9939971566200256
","x: 304.5224304199219
y: 446.96099853515625
z: -0.02782920002937317
visibility: 0.9919869303703308
","x: 378.2985534667969
y: 503.379638671875
z: 0.14357420802116394
visibility: 0.9933861494064331
","x: 298.99359130859375
y: 508.8283996582031
z: 0.20947524905204773
visibility: 0.993701159954071
","x: 378.1282958984375
y: 510.87945556640625
z: 0.15655896067619324
visibility: 0.9260442852973938
","x: 302.1553649902344
y: 519.6986083984375
z: 0.22675815224647522
visibility: 0.9256526231765747
","x: 380.7283935546875
y: 525.2115478515625
z: 0.032080940902233124
visibility: 0.9907335638999939
","x: 292.4399719238281
y: 528.5826416015625
z: 0.1080210953950882
visibility: 0.9903340935707092
",,,,,,,,,,,,,,,,,,,,,,,,,,,,,,,,,,,,,,,,,,
21,"x: 328.2189636230469
y: 236.88604736328125
z: -0.3408489227294922
visibility: 0.9999862909317017
","x: 331.3507995605469
y: 229.37643432617188
z: -0.3171651363372803
visibility: 0.9999605417251587
","x: 333.17950439453125
y: 229.7189483642578
z: -0.31710168719291687
visibility: 0.9999583959579468
","x: 334.8948059082031
y: 230.1876220703125
z: -0.31702297925949097
visibility: 0.9999549388885498
","x: 326.8437805175781
y: 228.6776885986328
z: -0.3255752921104431
visibility: 0.9999627470970154
","x: 325.49072265625
y: 228.47032165527344
z: -0.3256458640098572
visibility: 0.9999608397483826
","x: 324.22735595703125
y: 228.35147094726562
z: -0.32567059993743896
visibility: 0.9999616742134094
","x: 336.9573669433594
y: 233.8116455078125
z: -0.22928591072559357
visibility: 0.9999139904975891
","x: 322.30059814453125
y: 230.3448486328125
z: -0.20875878632068634
visibility: 0.9999373555183411
","x: 330.716796875
y: 245.25238037109375
z: -0.30284789204597473
visibility: 0.9999803304672241
","x: 325.21624755859375
y: 244.4315185546875
z: -0.29197460412979126
visibility: 0.999984622001648
","x: 350.08673095703125
y: 281.0240478515625
z: -0.182444229722023
visibility: 0.9999666810035706
","x: 307.75921630859375
y: 278.6807556152344
z: -0.11836428940296173
visibility: 0.9999610781669617
","x: 347.1733703613281
y: 336.39532470703125
z: -0.21244704723358154
visibility: 0.9846222996711731
","x: 306.38360595703125
y: 330.3059387207031
z: -0.11712117493152618
visibility: 0.9749276041984558
","x: 332.1170959472656
y: 369.7093505859375
z: -0.32378247380256653
visibility: 0.961272120475769
","x: 310.2674255371094
y: 370.02142333984375
z: -0.22291608154773712
visibility: 0.9378190040588379
","x: 329.1138000488281
y: 385.5526428222656
z: -0.36565151810646057
visibility: 0.9309207797050476
","x: 310.08917236328125
y: 383.07080078125
z: -0.26055434346199036
visibility: 0.9019780158996582
","x: 325.351806640625
y: 381.31597900390625
z: -0.38417476415634155
visibility: 0.9335548281669617
","x: 312.0334167480469
y: 380.60308837890625
z: -0.2866879105567932
visibility: 0.9038108587265015
","x: 325.45880126953125
y: 376.2261657714844
z: -0.33326420187950134
visibility: 0.9019817113876343
","x: 312.7892761230469
y: 376.17047119140625
z: -0.23658666014671326
visibility: 0.8746739625930786
","x: 342.6183166503906
y: 377.1379089355469
z: -0.01710117608308792
visibility: 0.9996554851531982
","x: 318.0860900878906
y: 379.323974609375
z: 0.017000870779156685
visibility: 0.9997302293777466
","x: 357.3556823730469
y: 440.32421875
z: -0.029658207669854164
visibility: 0.9945066571235657
","x: 303.4586181640625
y: 446.8662109375
z: -0.001067155273631215
visibility: 0.9925866723060608
","x: 375.62054443359375
y: 502.9749755859375
z: 0.15023884177207947
visibility: 0.9939671754837036
","x: 298.3517761230469
y: 509.32489013671875
z: 0.19943031668663025
visibility: 0.9941636919975281
","x: 375.6502380371094
y: 510.34722900390625
z: 0.16112461686134338
visibility: 0.9272669553756714
","x: 301.5295104980469
y: 519.8432006835938
z: 0.2126750648021698
visibility: 0.9283342957496643
","x: 380.5863037109375
y: 525.1165161132812
z: 0.02879166044294834
visibility: 0.9914042949676514
","x: 292.7074890136719
y: 528.8037719726562
z: 0.09312979131937027
visibility: 0.9908379912376404
",,,,,,,,,,,,,,,,,,,,,,,,,,,,,,,,,,,,,,,,,,
22,"x: 327.0508728027344
y: 236.35690307617188
z: -0.5091246962547302
visibility: 0.99998539686203
