uscmakers/ReverseChoreography/data/9_tik_tok_kesha.csv
,NOSE,LEFT_EYE_INNER,LEFT_EYE,LEFT_EYE_OUTER,RIGHT_EYE_INNER,RIGHT_EYE,RIGHT_EYE_OUTER,LEFT_EAR,RIGHT_EAR,MOUTH_LEFT,MOUTH_RIGHT,LEFT_SHOULDER,RIGHT_SHOULDER,LEFT_ELBOW,RIGHT_ELBOW,LEFT_WRIST,RIGHT_WRIST,LEFT_PINKY,RIGHT_PINKY,LEFT_INDEX,RIGHT_INDEX,LEFT_THUMB,RIGHT_THUMB,LEFT_HIP,RIGHT_HIP,LEFT_KNEE,RIGHT_KNEE,LEFT_ANKLE,RIGHT_ANKLE,LEFT_HEEL,RIGHT_HEEL,LEFT_FOOT_INDEX,RIGHT_FOOT_INDEX,WRIST,THUMB_CPC,THUMB_MCP,THUMB_IP,THUMB_TIP,INDEX_FINGER_MCP,INDEX_FINGER_PIP,INDEX_FINGER_DIP,INDEX_FINGER_TIP,MIDDLE_FINGER_MCP,MIDDLE_FINGER_PIP,MIDDLE_FINGER_DIP,MIDDLE_FINGER_TIP,RING_FINGER_PIP,RING_FINGER_DIP,RING_FINGER_TIP,RING_FINGER_MCP,PINKY_MCP,PINKY_PIP,PINKY_DIP,PINKY_TIP,WRIST2,THUMB_CPC2,THUMB_MCP2,THUMB_IP2,THUMB_TIP2,INDEX_FINGER_MCP2,INDEX_FINGER_PIP2,INDEX_FINGER_DIP2,INDEX_FINGER_TIP2,MIDDLE_FINGER_MCP2,MIDDLE_FINGER_PIP2,MIDDLE_FINGER_DIP2,MIDDLE_FINGER_TIP2,RING_FINGER_PIP2,RING_FINGER_DIP2,RING_FINGER_TIP2,RING_FINGER_MCP2,PINKY_MCP2,PINKY_PIP2,PINKY_DIP2,PINKY_TIP2
0,"x: 225.24929809570312
y: 218.28599548339844
z: -0.29839080572128296
visibility: 0.9994485974311829
","x: 228.4297637939453
y: 213.20452880859375
z: -0.2827787399291992
visibility: 0.9984979629516602
","x: 229.7803955078125
y: 214.32191467285156
z: -0.2827971279621124
visibility: 0.9984748959541321
","x: 231.061279296875
y: 215.47177124023438
z: -0.2828228771686554
visibility: 0.9985067248344421
","x: 224.7982635498047
y: 210.5030975341797
z: -0.28541162610054016
visibility: 0.9980883002281189
","x: 223.53695678710938
y: 209.78265380859375
z: -0.2854563295841217
visibility: 0.9978177547454834
","x: 222.32752990722656
y: 209.1453399658203
z: -0.28555557131767273
visibility: 0.9979420304298401
","x: 231.871337890625
y: 220.50872802734375
z: -0.17437177896499634
visibility: 0.9943907856941223
","x: 220.79727172851562
y: 212.07891845703125
z: -0.19007736444473267
visibility: 0.9952928423881531
","x: 226.5699920654297
y: 226.349365234375
z: -0.2565445899963379
visibility: 0.9990143775939941
","x: 221.91998291015625
y: 223.9174041748047
z: -0.2611561417579651
visibility: 0.9988017082214355
","x: 235.88999938964844
y: 267.8074035644531
z: -0.09609774500131607
visibility: 0.9996167421340942
","x: 200.28428649902344
y: 253.4822235107422
z: -0.11268261820077896
visibility: 0.9993031024932861
","x: 235.65823364257812
y: 314.77392578125
z: -0.05060849338769913
visibility: 0.716556191444397
","x: 191.45469665527344
y: 294.2446594238281
z: -0.09718546271324158
visibility: 0.8924444913864136
","x: 244.01773071289062
y: 346.4510498046875
z: -0.1535387635231018
visibility: 0.6370235681533813
","x: 189.954345703125
y: 319.110595703125
z: -0.20534364879131317
visibility: 0.7751755714416504
","x: 248.90977478027344
y: 359.3847351074219
z: -0.1750674843788147
visibility: 0.6069257855415344
","x: 187.74942016601562
y: 329.30877685546875
z: -0.2312544882297516
visibility: 0.706546425819397
","x: 249.61990356445312
y: 360.1223449707031
z: -0.2072358876466751
visibility: 0.6331314444541931
","x: 190.01025390625
y: 327.09625244140625
z: -0.2538197934627533
visibility: 0.7208495140075684
","x: 247.22540283203125
y: 355.13128662109375
z: -0.16873984038829803
visibility: 0.6007014513015747
","x: 191.3102569580078
y: 320.7668762207031
z: -0.21684817969799042
visibility: 0.7070308327674866
","x: 223.36993408203125
y: 357.3631286621094
z: 0.002760821022093296
visibility: 0.9998873472213745
","x: 201.42056274414062
y: 352.3983459472656
z: -0.002750348299741745
visibility: 0.999618649482727
","x: 216.12380981445312
y: 432.116455078125
z: -0.038913533091545105
visibility: 0.9867362380027771
","x: 197.3404541015625
y: 423.2451171875
z: 0.027871379628777504
visibility: 0.9528657793998718
","x: 204.54119873046875
y: 498.2099914550781
z: 0.12246932834386826
visibility: 0.9789831638336182
","x: 199.1077423095703
y: 437.891357421875
z: 0.40675297379493713
visibility: 0.5893794894218445
","x: 201.5672607421875
y: 507.0846862792969
z: 0.13533805310726166
visibility: 0.8527591824531555
","x: 200.12454223632812
y: 435.3970642089844
z: 0.4435742497444153
visibility: 0.329436331987381
","x: 203.93536376953125
y: 521.7823486328125
z: 0.03507260978221893
visibility: 0.9787884950637817
","x: 199.0125732421875
y: 463.0384826660156
z: 0.4010186791419983
visibility: 0.6912774443626404
",,,,,,,,,,,,,,,,,,,,,,,,,,,,,,,,,,,,,,,,,,
1,"x: 238.18804931640625
y: 221.07791137695312
z: -0.20623794198036194
visibility: 0.9994920492172241
","x: 238.38931274414062
y: 214.15103149414062
z: -0.1872330904006958
visibility: 0.9986141920089722
","x: 238.90487670898438
y: 214.7427978515625
z: -0.1873163878917694
visibility: 0.9985931515693665
","x: 239.3140869140625
y: 215.53160095214844
z: -0.18736840784549713
visibility: 0.9986222982406616
","x: 235.4096221923828
y: 213.00454711914062
z: -0.19922131299972534
visibility: 0.9982407689094543
","x: 233.77011108398438
y: 212.6795654296875
z: -0.1992287039756775
visibility: 0.9979903697967529
","x: 232.0089111328125
y: 212.40731811523438
z: -0.19923025369644165
visibility: 0.9980918169021606
","x: 236.75592041015625
y: 220.037353515625
z: -0.0806516781449318
visibility: 0.9949207305908203
","x: 226.40243530273438
y: 215.696044921875
z: -0.13294604420661926
visibility: 0.9956749081611633
","x: 237.9505157470703
y: 228.51707458496094
z: -0.1658598631620407
visibility: 0.9991064667701721
","x: 234.45706176757812
y: 228.38967895507812
z: -0.18115384876728058
visibility: 0.9989129304885864
","x: 246.38116455078125
y: 261.9947509765625
z: -0.0396343395113945
visibility: 0.9996504783630371
","x: 208.82272338867188
y: 259.732421875
z: -0.07431279122829437
visibility: 0.9993318319320679
","x: 256.05853271484375
y: 308.3035888671875
z: -0.08335267752408981
visibility: 0.739077627658844
","x: 204.85775756835938
y: 305.6506652832031
z: -0.07949084788560867
visibility: 0.8985477089881897
","x: 247.37989807128906
y: 317.97454833984375
z: -0.2843020260334015
visibility: 0.6679793000221252
","x: 194.18801879882812
y: 330.140625
z: -0.19613948464393616
visibility: 0.7907292246818542
","x: 247.09765625
y: 323.3079528808594
z: -0.33069032430648804
visibility: 0.6384655237197876
","x: 189.33114624023438
y: 336.3821716308594
z: -0.22755300998687744
visibility: 0.7281567454338074
","x: 245.28932189941406
y: 313.9742736816406
z: -0.3440083861351013
visibility: 0.662378191947937
","x: 190.5164794921875
y: 333.1912841796875
z: -0.2516225278377533
visibility: 0.7416433691978455
","x: 245.4613494873047
y: 312.45452880859375
z: -0.2941158711910248
visibility: 0.6302813291549683
","x: 192.654541015625
y: 331.18719482421875
z: -0.20881906151771545
visibility: 0.7265778183937073
","x: 242.0028839111328
y: 365.0120849609375
z: 0.013815286569297314
visibility: 0.9997966289520264
","x: 220.45413208007812
y: 366.8468933105469
z: -0.013727724552154541
visibility: 0.9995359182357788
","x: 251.56668090820312
y: 434.5888671875
z: -0.14699479937553406
visibility: 0.9875854849815369
","x: 223.8190460205078
y: 438.1302490234375
z: -0.09744085371494293
visibility: 0.9567309617996216
","x: 239.28695678710938
y: 491.28179931640625
z: 0.09649407863616943
visibility: 0.9788620471954346
","x: 227.37246704101562
y: 503.3142395019531
z: 0.09818477928638458
visibility: 0.6293982267379761
","x: 235.31149291992188
y: 495.87713623046875
z: 0.11674551665782928
visibility: 0.8602096438407898
","x: 226.83274841308594
y: 513.651611328125
z: 0.11089980602264404
visibility: 0.38665488362312317
","x: 245.3578643798828
y: 519.2603149414062
z: 0.02492239885032177
visibility: 0.9786304831504822
","x: 228.38099670410156
y: 528.6890869140625
z: 0.0009568494861014187
visibility: 0.7198599576950073
",,,,,,,,,,,,,,,,,,,,,,,,,,,,,,,,,,,,,,,,,,
2,"x: 244.0437469482422
y: 228.32528686523438
z: -0.22891242802143097
visibility: 0.9995003342628479
","x: 244.61965942382812
y: 221.00579833984375
z: -0.210646390914917
visibility: 0.9986187219619751
","x: 245.03160095214844
y: 221.1646270751953
z: -0.21071502566337585
visibility: 0.9986063241958618
","x: 245.3721923828125
y: 221.33787536621094
z: -0.21076014637947083
visibility: 0.9986082911491394
","x: 242.10646057128906
y: 219.7372283935547
z: -0.2219468057155609
visibility: 0.9982620477676392
","x: 240.64207458496094
y: 219.02871704101562
z: -0.2219628095626831
visibility: 0.9980348348617554
","x: 238.93679809570312
y: 218.25347900390625
z: -0.22199222445487976
visibility: 0.998080849647522
","x: 242.404296875
y: 222.96348571777344
z: -0.09760003536939621
visibility: 0.9952762126922607
","x: 232.7964324951172
y: 220.08740234375
z: -0.14972209930419922
visibility: 0.995808482170105
","x: 243.30410766601562
y: 235.19696044921875
z: -0.1855459064245224
visibility: 0.9991721510887146
","x: 240.19349670410156
y: 234.86944580078125
z: -0.20095475018024445
visibility: 0.9990008473396301
","x: 251.54869079589844
y: 262.7281799316406
z: -0.051614195108413696
visibility: 0.9996798634529114
","x: 212.39804077148438
y: 261.86724853515625
z: -0.07344946265220642
visibility: 0.9993613958358765
","x: 257.53070068359375
y: 306.9207763671875
z: -0.0949939638376236
visibility: 0.7602497935295105
","x: 205.0257110595703
y: 304.1671447753906
z: -0.10579295456409454
visibility: 0.9049199819564819
","x: 251.70289611816406
y: 317.1086730957031
z: -0.30043408274650574
visibility: 0.6977494359016418
","x: 200.6602783203125
y: 328.239501953125
z: -0.2860262989997864
visibility: 0.8052893280982971
","x: 248.17987060546875
y: 323.53985595703125
z: -0.35170483589172363
visibility: 0.6696761250495911
","x: 198.4069061279297
y: 335.5400390625
z: -0.3296314477920532
visibility: 0.7473971247673035
","x: 245.98348999023438
y: 314.2987365722656
z: -0.37019580602645874
visibility: 0.6915109753608704
","x: 200.36412048339844
y: 332.4954528808594
z: -0.3498591184616089
visibility: 0.7601154446601868
","x: 246.0366973876953
y: 312.5435791015625
z: -0.312242329120636
visibility: 0.6601936221122742
","x: 201.95281982421875
y: 329.8579406738281
z: -0.2983296513557434
visibility: 0.7437981963157654
","x: 248.96725463867188
y: 368.4745788574219
z: 0.01205213088542223
visibility: 0.9996839165687561
","x: 227.66299438476562
y: 371.6459655761719
z: -0.011962013319134712
visibility: 0.9994394779205322
","x: 257.2685852050781
y: 438.0831298828125
z: -0.10438017547130585
visibility: 0.9885736703872681
","x: 231.70262145996094
y: 441.0687255859375
z: -0.0796085000038147
visibility: 0.95988529920578
","x: 252.48765563964844
y: 492.2983093261719
z: 0.16248047351837158
visibility: 0.9796998500823975
","x: 230.17123413085938
y: 507.8713684082031
z: 0.13545188307762146
visibility: 0.665359616279602
","x: 248.22816467285156
y: 498.01776123046875
z: 0.1845633089542389
visibility: 0.8646037578582764
","x: 231.45367431640625
y: 515.8946533203125
z: 0.14922448992729187
visibility: 0.43403029441833496
","x: 255.88583374023438
y: 520.1554565429688
z: 0.07368232309818268
visibility: 0.9790672659873962
","x: 230.14654541015625
y: 533.2969970703125
z: 0.0206113513559103
visibility: 0.7457427978515625
","x: 202.44761657714844
y: 337.5611877441406
z: 0.0
","x: 202.0184326171875
y: 332.763916015625
z: -0.0014247419312596321
","x: 201.23223876953125
y: 328.2708740234375
z: -0.004394554533064365
","x: 200.5121612548828
y: 326.37506103515625
z: -0.007253914140164852
","x: 200.42434692382812
y: 326.107177734375
z: -0.010082857683300972
","x: 202.87496948242188
y: 326.3194274902344
z: -0.010638410225510597
","x: 200.59805297851562
y: 324.7481994628906
z: -0.014164399355649948
","x: 200.11618041992188
y: 325.85107421875
z: -0.015174337662756443
","x: 200.320556640625
y: 326.5765686035156
z: -0.015537014231085777
","x: 202.64797973632812
y: 330.1636962890625
z: -0.011584239080548286
","x: 198.43075561523438
y: 330.01055908203125
z: -0.014449642971158028
","x: 198.28662109375
y: 330.4881591796875
z: -0.013226969167590141
","x: 199.17300415039062
y: 330.55902099609375
z: -0.012730942107737064
","x: 202.08758544921875
y: 334.575439453125
z: -0.011828934773802757
","x: 197.81211853027344
y: 333.77496337890625
z: -0.01357757393270731
","x: 198.17495727539062
y: 333.88897705078125
z: -0.01123221218585968
","x: 199.33090209960938
y: 333.71380615234375
z: -0.010118124075233936
","x: 201.33099365234375
y: 338.82965087890625
z: -0.012203306891024113
","x: 198.0078582763672
y: 337.27166748046875
z: -0.0131300687789917
","x: 198.38961791992188
y: 337.1153259277344
z: -0.01174402516335249
","x: 199.52239990234375
y: 336.7641906738281
z: -0.010940655134618282
","x: 252.9071044921875
y: 313.79705810546875
z: 0.0
","x: 248.4156494140625
y: 313.4237060546875
z: 7.317510608118027e-05
","x: 244.2457275390625
y: 315.41510009765625
z: -0.0024986423086375
","x: 241.5218963623047
y: 319.38909912109375
z: -0.005220995284616947
","x: 240.04649353027344
y: 322.97314453125
z: -0.007793936412781477
","x: 244.05587768554688
y: 309.0859375
z: -0.008682342246174812
","x: 240.10205078125
y: 315.2209167480469
z: -0.012655796483159065
","x: 239.2648162841797
y: 320.0564880371094
z: -0.01357465423643589
","x: 238.99258422851562
y: 323.18701171875
z: -0.013888700865209103
","x: 246.2684783935547
y: 310.9260559082031
z: -0.011218602769076824
","x: 242.33334350585938
y: 317.9908447265625
z: -0.015504032373428345
","x: 241.2965545654297
y: 323.1233215332031
z: -0.014952301047742367
","x: 240.85150146484375
y: 326.08416748046875
z: -0.014442154206335545
","x: 248.6114501953125
y: 313.94818115234375
z: -0.01338469609618187
","x: 244.87832641601562
y: 320.5111389160156
z: -0.016723742708563805
","x: 243.67361450195312
y: 324.7531433105469
z: -0.014821362681686878
","x: 243.12481689453125
y: 326.903076171875
z: -0.01350007951259613
","x: 250.7209930419922
y: 317.411865234375
z: -0.015521419234573841
","x: 247.73431396484375
y: 322.4813537597656
z: -0.017850391566753387
","x: 246.71124267578125
y: 325.0480651855469
z: -0.016672484576702118
","x: 246.30621337890625
y: 326.25341796875
z: -0.01569778099656105
"
3,"x: 244.0437469482422
y: 228.32528686523438
z: -0.22891242802143097
visibility: 0.9995003342628479
","x: 244.61965942382812
y: 221.00579833984375
z: -0.210646390914917
visibility: 0.9986187219619751
","x: 245.03160095214844
y: 221.1646270751953
z: -0.21071502566337585
visibility: 0.9986063241958618
","x: 245.3721923828125
y: 221.33787536621094
z: -0.21076014637947083
visibility: 0.9986082911491394
","x: 242.10646057128906
y: 219.7372283935547
z: -0.2219468057155609
visibility: 0.9982620477676392
","x: 240.64207458496094
y: 219.02871704101562
z: -0.2219628095626831
visibility: 0.9980348348617554
","x: 238.93679809570312
y: 218.25347900390625
z: -0.22199222445487976
visibility: 0.998080849647522
","x: 242.404296875
y: 222.96348571777344
z: -0.09760003536939621
visibility: 0.9952762126922607
","x: 232.7964324951172
y: 220.08740234375
z: -0.14972209930419922
visibility: 0.995808482170105
","x: 243.30410766601562
y: 235.19696044921875
z: -0.1855459064245224
visibility: 0.9991721510887146
","x: 240.19349670410156
y: 234.86944580078125
z: -0.20095475018024445
visibility: 0.9990008473396301
","x: 251.54869079589844
y: 262.7281799316406
z: -0.051614195108413696
visibility: 0.9996798634529114
","x: 212.39804077148438
y: 261.86724853515625
z: -0.07344946265220642
visibility: 0.9993613958358765
","x: 257.53070068359375
y: 306.9207763671875
z: -0.0949939638376236
visibility: 0.7602497935295105
","x: 205.0257110595703
y: 304.1671447753906
z: -0.10579295456409454
visibility: 0.9049199819564819
","x: 251.70289611816406
y: 317.1086730957031
z: -0.30043408274650574
visibility: 0.6977494359016418
","x: 200.6602783203125
y: 328.239501953125
z: -0.2860262989997864
visibility: 0.8052893280982971
","x: 248.17987060546875
y: 323.53985595703125
z: -0.35170483589172363
visibility: 0.6696761250495911
","x: 198.4069061279297
y: 335.5400390625
z: -0.3296314477920532
visibility: 0.7473971247673035
","x: 245.98348999023438
y: 314.2987365722656
z: -0.37019580602645874
visibility: 0.6915109753608704
","x: 200.36412048339844
y: 332.4954528808594
z: -0.3498591184616089
visibility: 0.7601154446601868
","x: 246.0366973876953
y: 312.5435791015625
z: -0.312242329120636
visibility: 0.6601936221122742
","x: 201.95281982421875
y: 329.8579406738281
z: -0.2983296513557434
visibility: 0.7437981963157654
","x: 248.96725463867188
y: 368.4745788574219
z: 0.01205213088542223
visibility: 0.9996839165687561
","x: 227.66299438476562
y: 371.6459655761719
z: -0.011962013319134712
visibility: 0.9994394779205322
","x: 257.2685852050781
y: 438.0831298828125
z: -0.10438017547130585
visibility: 0.9885736703872681
","x: 231.70262145996094
y: 441.0687255859375
z: -0.0796085000038147
visibility: 0.95988529920578
","x: 252.48765563964844
y: 492.2983093261719
z: 0.16248047351837158
visibility: 0.9796998500823975
","x: 230.17123413085938
y: 507.8713684082031
z: 0.13545188307762146
visibility: 0.665359616279602
","x: 248.22816467285156
y: 498.01776123046875
z: 0.1845633089542389
visibility: 0.8646037578582764
","x: 231.45367431640625
y: 515.8946533203125
z: 0.14922448992729187
visibility: 0.43403029441833496
","x: 255.88583374023438
y: 520.1554565429688
z: 0.07368232309818268
visibility: 0.9790672659873962
","x: 230.14654541015625
y: 533.2969970703125
z: 0.0206113513559103
visibility: 0.7457427978515625
","x: 202.44761657714844
y: 337.5611877441406
z: 0.0
","x: 202.0184326171875
y: 332.763916015625
z: -0.0014247419312596321
","x: 201.23223876953125
y: 328.2708740234375
z: -0.004394554533064365
","x: 200.5121612548828
y: 326.37506103515625
z: -0.007253914140164852
","x: 200.42434692382812
y: 326.107177734375
z: -0.010082857683300972
","x: 202.87496948242188
y: 326.3194274902344
z: -0.010638410225510597
","x: 200.59805297851562
y: 324.7481994628906
z: -0.014164399355649948
","x: 200.11618041992188
y: 325.85107421875
z: -0.015174337662756443
","x: 200.320556640625
y: 326.5765686035156
z: -0.015537014231085777
","x: 202.64797973632812
y: 330.1636962890625
z: -0.011584239080548286
","x: 198.43075561523438
y: 330.01055908203125
z: -0.014449642971158028
","x: 198.28662109375
y: 330.4881591796875
z: -0.013226969167590141
","x: 199.17300415039062
y: 330.55902099609375
z: -0.012730942107737064
","x: 202.08758544921875
y: 334.575439453125
z: -0.011828934773802757
","x: 197.81211853027344
y: 333.77496337890625
z: -0.01357757393270731
","x: 198.17495727539062
y: 333.88897705078125
z: -0.01123221218585968
","x: 199.33090209960938
y: 333.71380615234375
z: -0.010118124075233936
","x: 201.33099365234375
y: 338.82965087890625
z: -0.012203306891024113
","x: 198.0078582763672
y: 337.27166748046875
z: -0.0131300687789917
","x: 198.38961791992188
y: 337.1153259277344
z: -0.01174402516335249
","x: 199.52239990234375
y: 336.7641906738281
z: -0.010940655134618282
","x: 252.9071044921875
y: 313.79705810546875
z: 0.0
","x: 248.4156494140625
y: 313.4237060546875
z: 7.317510608118027e-05
","x: 244.2457275390625
y: 315.41510009765625
z: -0.0024986423086375
","x: 241.5218963623047
y: 319.38909912109375
z: -0.005220995284616947
","x: 240.04649353027344
y: 322.97314453125
z: -0.007793936412781477
","x: 244.05587768554688
y: 309.0859375
z: -0.008682342246174812
","x: 240.10205078125
y: 315.2209167480469
z: -0.012655796483159065
","x: 239.2648162841797
y: 320.0564880371094
z: -0.01357465423643589
","x: 238.99258422851562
y: 323.18701171875
z: -0.013888700865209103
","x: 246.2684783935547
y: 310.9260559082031
z: -0.011218602769076824
","x: 242.33334350585938
y: 317.9908447265625
z: -0.015504032373428345
","x: 241.2965545654297
y: 323.1233215332031
z: -0.014952301047742367
","x: 240.85150146484375
y: 326.08416748046875
z: -0.014442154206335545
","x: 248.6114501953125
y: 313.94818115234375
z: -0.01338469609618187
","x: 244.87832641601562
y: 320.5111389160156
z: -0.016723742708563805
","x: 243.67361450195312
y: 324.7531433105469
z: -0.014821362681686878
","x: 243.12481689453125
y: 326.903076171875
z: -0.01350007951259613
","x: 250.7209930419922
y: 317.411865234375
z: -0.015521419234573841
","x: 247.73431396484375
y: 322.4813537597656
z: -0.017850391566753387
","x: 246.71124267578125
y: 325.0480651855469
z: -0.016672484576702118
","x: 246.30621337890625
y: 326.25341796875
z: -0.01569778099656105
"
4,"x: 244.0437469482422
y: 228.32528686523438
z: -0.22891242802143097
visibility: 0.9995003342628479
","x: 244.61965942382812
y: 221.00579833984375
z: -0.210646390914917
visibility: 0.9986187219619751
","x: 245.03160095214844
y: 221.1646270751953
z: -0.21071502566337585
visibility: 0.9986063241958618
","x: 245.3721923828125
y: 221.33787536621094
z: -0.21076014637947083
visibility: 0.9986082911491394
","x: 242.10646057128906
y: 219.7372283935547
z: -0.2219468057155609
visibility: 0.9982620477676392
","x: 240.64207458496094
y: 219.02871704101562
z: -0.2219628095626831
visibility: 0.9980348348617554
","x: 238.93679809570312
y: 218.25347900390625
z: -0.22199222445487976
visibility: 0.998080849647522
","x: 242.404296875
y: 222.96348571777344
z: -0.09760003536939621
visibility: 0.9952762126922607
","x: 232.7964324951172
y: 220.08740234375
z: -0.14972209930419922
visibility: 0.995808482170105
","x: 243.30410766601562
y: 235.19696044921875
z: -0.1855459064245224
visibility: 0.9991721510887146
","x: 240.19349670410156
y: 234.86944580078125
z: -0.20095475018024445
visibility: 0.9990008473396301
","x: 251.54869079589844
y: 262.7281799316406
z: -0.051614195108413696
visibility: 0.9996798634529114
","x: 212.39804077148438
y: 261.86724853515625
z: -0.07344946265220642
visibility: 0.9993613958358765
","x: 257.53070068359375
y: 306.9207763671875
z: -0.0949939638376236
visibility: 0.7602497935295105
","x: 205.0257110595703
y: 304.1671447753906
z: -0.10579295456409454
visibility: 0.9049199819564819
","x: 251.70289611816406
y: 317.1086730957031
z: -0.30043408274650574
visibility: 0.6977494359016418
","x: 200.6602783203125
y: 328.239501953125
z: -0.2860262989997864
visibility: 0.8052893280982971
","x: 248.17987060546875
y: 323.53985595703125
z: -0.35170483589172363
visibility: 0.6696761250495911
","x: 198.4069061279297
y: 335.5400390625
z: -0.3296314477920532
visibility: 0.7473971247673035
","x: 245.98348999023438
y: 314.2987365722656
z: -0.37019580602645874
visibility: 0.6915109753608704
","x: 200.36412048339844
y: 332.4954528808594
z: -0.3498591184616089
visibility: 0.7601154446601868
","x: 246.0366973876953
y: 312.5435791015625
z: -0.312242329120636
visibility: 0.6601936221122742
","x: 201.95281982421875
y: 329.8579406738281
z: -0.2983296513557434
visibility: 0.7437981963157654
","x: 248.96725463867188
y: 368.4745788574219
z: 0.01205213088542223
visibility: 0.9996839165687561
","x: 227.66299438476562
y: 371.6459655761719
z: -0.011962013319134712
visibility: 0.9994394779205322
","x: 257.2685852050781
y: 438.0831298828125
z: -0.10438017547130585
visibility: 0.9885736703872681
","x: 231.70262145996094
y: 441.0687255859375
z: -0.0796085000038147
visibility: 0.95988529920578
","x: 252.48765563964844
y: 492.2983093261719
z: 0.16248047351837158
visibility: 0.9796998500823975
","x: 230.17123413085938
y: 507.8713684082031
z: 0.13545188307762146
visibility: 0.665359616279602
","x: 248.22816467285156
y: 498.01776123046875
z: 0.1845633089542389
visibility: 0.8646037578582764
","x: 231.45367431640625
y: 515.8946533203125
z: 0.14922448992729187
visibility: 0.43403029441833496
","x: 255.88583374023438
y: 520.1554565429688
z: 0.07368232309818268
visibility: 0.9790672659873962
","x: 230.14654541015625
y: 533.2969970703125
z: 0.0206113513559103
visibility: 0.7457427978515625
","x: 202.44761657714844
y: 337.5611877441406
z: 0.0
","x: 202.0184326171875
y: 332.763916015625
z: -0.0014247419312596321
","x: 201.23223876953125
y: 328.2708740234375
z: -0.004394554533064365
","x: 200.5121612548828
y: 326.37506103515625
z: -0.007253914140164852
","x: 200.42434692382812
y: 326.107177734375
z: -0.010082857683300972
","x: 202.87496948242188
y: 326.3194274902344
z: -0.010638410225510597
","x: 200.59805297851562
y: 324.7481994628906
z: -0.014164399355649948
","x: 200.11618041992188
y: 325.85107421875
z: -0.015174337662756443
","x: 200.320556640625
y: 326.5765686035156
z: -0.015537014231085777
","x: 202.64797973632812
y: 330.1636962890625
z: -0.011584239080548286
","x: 198.43075561523438
y: 330.01055908203125
z: -0.014449642971158028
","x: 198.28662109375
y: 330.4881591796875
z: -0.013226969167590141
","x: 199.17300415039062
y: 330.55902099609375
z: -0.012730942107737064
","x: 202.08758544921875
y: 334.575439453125
z: -0.011828934773802757
","x: 197.81211853027344
y: 333.77496337890625
z: -0.01357757393270731
","x: 198.17495727539062
y: 333.88897705078125
z: -0.01123221218585968
","x: 199.33090209960938
y: 333.71380615234375
z: -0.010118124075233936
","x: 201.33099365234375
y: 338.82965087890625
z: -0.012203306891024113
","x: 198.0078582763672
y: 337.27166748046875
z: -0.0131300687789917
","x: 198.38961791992188
y: 337.1153259277344
z: -0.01174402516335249
","x: 199.52239990234375
y: 336.7641906738281
z: -0.010940655134618282
","x: 252.9071044921875
y: 313.79705810546875
z: 0.0
","x: 248.4156494140625
y: 313.4237060546875
z: 7.317510608118027e-05
","x: 244.2457275390625
y: 315.41510009765625
z: -0.0024986423086375
","x: 241.5218963623047
y: 319.38909912109375
z: -0.005220995284616947
","x: 240.04649353027344
y: 322.97314453125
z: -0.007793936412781477
","x: 244.05587768554688
y: 309.0859375
z: -0.008682342246174812
","x: 240.10205078125
y: 315.2209167480469
z: -0.012655796483159065
","x: 239.2648162841797
y: 320.0564880371094
z: -0.01357465423643589
","x: 238.99258422851562
y: 323.18701171875
z: -0.013888700865209103
","x: 246.2684783935547
y: 310.9260559082031
z: -0.011218602769076824
","x: 242.33334350585938
y: 317.9908447265625
z: -0.015504032373428345
","x: 241.2965545654297
y: 323.1233215332031
z: -0.014952301047742367
","x: 240.85150146484375
y: 326.08416748046875
z: -0.014442154206335545
","x: 248.6114501953125
y: 313.94818115234375
z: -0.01338469609618187
","x: 244.87832641601562
y: 320.5111389160156
z: -0.016723742708563805
","x: 243.67361450195312
y: 324.7531433105469
z: -0.014821362681686878
","x: 243.12481689453125
y: 326.903076171875
z: -0.01350007951259613
","x: 250.7209930419922
y: 317.411865234375
z: -0.015521419234573841
","x: 247.73431396484375
y: 322.4813537597656
z: -0.017850391566753387
","x: 246.71124267578125
y: 325.0480651855469
z: -0.016672484576702118
","x: 246.30621337890625
y: 326.25341796875
z: -0.01569778099656105
"
5,"x: 246.60032653808594
y: 236.11807250976562
z: -0.19584377110004425
visibility: 0.9995250105857849
","x: 247.6163330078125
y: 228.9960479736328
z: -0.17883071303367615
visibility: 0.998685896396637
","x: 248.04434204101562
y: 229.1437530517578
z: -0.17890110611915588
visibility: 0.9986625909805298
","x: 248.4372100830078
y: 229.29624938964844
z: -0.1789197325706482
visibility: 0.9986662864685059
","x: 245.17587280273438
y: 227.929931640625
z: -0.19113290309906006
visibility: 0.9983660578727722
","x: 243.78724670410156
y: 227.29286193847656
z: -0.1911342591047287
visibility: 0.998144805431366
","x: 242.17291259765625
y: 226.50596618652344
z: -0.19115349650382996
visibility: 0.9981836080551147
","x: 245.9908447265625
y: 229.6697998046875
z: -0.07047520577907562
visibility: 0.995597779750824
","x: 236.37139892578125
y: 226.95115661621094
z: -0.12890782952308655
visibility: 0.9960686564445496
","x: 245.9127655029297
y: 242.35662841796875
z: -0.15395665168762207
visibility: 0.9992173910140991
","x: 242.76197814941406
y: 241.3693084716797
z: -0.17098936438560486
visibility: 0.9990713000297546
","x: 253.47901916503906
y: 265.5036315917969
z: -0.030724341049790382
visibility: 0.9997031688690186
","x: 216.7708740234375
y: 266.5061340332031
z: -0.04996467009186745
visibility: 0.9994034171104431
","x: 259.07733154296875
y: 308.6486511230469
z: -0.09021411836147308
visibility: 0.7787615656852722
","x: 213.9564971923828
y: 308.23895263671875
z: -0.0785524994134903
visibility: 0.906302273273468
","x: 251.32627868652344
y: 320.61517333984375
z: -0.2552659809589386
visibility: 0.7251846790313721
","x: 209.01954650878906
y: 330.1222229003906
z: -0.2486037313938141
visibility: 0.8180842399597168
","x: 248.18795776367188
y: 327.37567138671875
z: -0.29921823740005493
visibility: 0.6984741687774658
","x: 207.10072326660156
y: 338.1795959472656
z: -0.2843800187110901
visibility: 0.7645094394683838
","x: 246.28973388671875
y: 318.38177490234375
z: -0.3174597918987274
visibility: 0.7183449268341064
","x: 208.10345458984375
y: 334.0273742675781
z: -0.3071112632751465
visibility: 0.7766618132591248
","x: 246.125244140625
y: 316.3559875488281
z: -0.26648253202438354
visibility: 0.6878100037574768
","x: 209.6258544921875
y: 330.7557678222656
z: -0.26087135076522827
visibility: 0.7596700191497803
","x: 251.4860382080078
y: 370.4935302734375
z: 0.010996086522936821
visibility: 0.9995673894882202
","x: 231.91078186035156
y: 372.47869873046875
z: -0.010938938707113266
visibility: 0.9994162917137146
","x: 256.71380615234375
y: 438.7070007324219
z: -0.014658053405582905
visibility: 0.9892027378082275
","x: 233.15452575683594
y: 438.768798828125
z: -0.10548515617847443
visibility: 0.9632208943367004
","x: 252.64016723632812
y: 500.1011657714844
z: 0.15644241869449615
visibility: 0.9801600575447083
","x: 230.39634704589844
y: 506.7392272949219
z: 0.04343730956315994
visibility: 0.6979925632476807
","x: 248.9852752685547
y: 508.41436767578125
z: 0.1685701459646225
visibility: 0.8677847385406494
","x: 232.47943115234375
y: 515.7755126953125
z: 0.050699252635240555
visibility: 0.48072725534439087
","x: 254.97694396972656
y: 522.4290771484375
z: 0.06323336064815521
visibility: 0.9789692163467407
","x: 226.08447265625
y: 530.5817260742188
z: -0.06773630529642105
visibility: 0.7698354125022888
",,,,,,,,,,,,,,,,,,,,,,"x: 255.1474609375
y: 322.2392578125
z: 0.0
","x: 251.00006103515625
y: 320.51324462890625
z: -0.0002379199577262625
","x: 246.82159423828125
y: 321.584716796875
z: -0.0031081351917237043
","x: 244.1846160888672
y: 324.80078125
z: -0.0058626276440918446
","x: 243.27304077148438
y: 328.62139892578125
z: -0.008610773831605911
","x: 248.37237548828125
y: 317.67962646484375
z: -0.01101448480039835
","x: 243.98744201660156
y: 323.6546325683594
z: -0.015108778141438961
","x: 242.65423583984375
y: 327.6837158203125
z: -0.01569284312427044
","x: 242.22735595703125
y: 330.35394287109375
z: -0.015593767166137695
","x: 250.78591918945312
y: 320.18890380859375
z: -0.013103670440614223
","x: 246.18405151367188
y: 327.0658874511719
z: -0.017732879146933556
","x: 244.19314575195312
y: 331.2145690917969
z: -0.01682455465197563
","x: 243.39810180664062
y: 333.4617919921875
z: -0.015866579487919807
","x: 252.88916015625
y: 323.7327880859375
z: -0.014582577161490917
","x: 248.3740997314453
y: 330.0958557128906
z: -0.017877377569675446
","x: 246.29957580566406
y: 333.67559814453125
z: -0.01521483063697815
","x: 245.54586791992188
y: 335.1933288574219
z: -0.013361194171011448
","x: 254.47801208496094
y: 327.6224365234375
z: -0.01599843055009842
","x: 250.75865173339844
y: 332.5875549316406
z: -0.01775934174656868
","x: 249.10511779785156
y: 334.6865234375
z: -0.01588336192071438
","x: 248.64544677734375
y: 335.1998291015625
z: -0.014487827196717262
"
6,"x: 246.60032653808594
y: 236.11807250976562
z: -0.19584377110004425
visibility: 0.9995250105857849
","x: 247.6163330078125
y: 228.9960479736328
z: -0.17883071303367615
visibility: 0.998685896396637
","x: 248.04434204101562
y: 229.1437530517578
z: -0.17890110611915588
visibility: 0.9986625909805298
","x: 248.4372100830078
y: 229.29624938964844
z: -0.1789197325706482
visibility: 0.9986662864685059
","x: 245.17587280273438
y: 227.929931640625
z: -0.19113290309906006
visibility: 0.9983660578727722
","x: 243.78724670410156
y: 227.29286193847656
z: -0.1911342591047287
visibility: 0.998144805431366
","x: 242.17291259765625
y: 226.50596618652344
z: -0.19115349650382996
visibility: 0.9981836080551147
","x: 245.9908447265625
y: 229.6697998046875
z: -0.07047520577907562
visibility: 0.995597779750824
","x: 236.37139892578125
y: 226.95115661621094
z: -0.12890782952308655
visibility: 0.9960686564445496
","x: 245.9127655029297
y: 242.35662841796875
z: -0.15395665168762207
visibility: 0.9992173910140991
","x: 242.76197814941406
y: 241.3693084716797
z: -0.17098936438560486
visibility: 0.9990713000297546
","x: 253.47901916503906
y: 265.5036315917969
z: -0.030724341049790382
visibility: 0.9997031688690186
","x: 216.7708740234375
y: 266.5061340332031
z: -0.04996467009186745
visibility: 0.9994034171104431
","x: 259.07733154296875
y: 308.6486511230469
z: -0.09021411836147308
visibility: 0.7787615656852722
","x: 213.9564971923828
y: 308.23895263671875
z: -0.0785524994134903
visibility: 0.906302273273468
","x: 251.32627868652344
y: 320.61517333984375
z: -0.2552659809589386
visibility: 0.7251846790313721
","x: 209.01954650878906
y: 330.1222229003906
z: -0.2486037313938141
visibility: 0.8180842399597168
","x: 248.18795776367188
y: 327.37567138671875
z: -0.29921823740005493
visibility: 0.6984741687774658
","x: 207.10072326660156
y: 338.1795959472656
z: -0.2843800187110901
visibility: 0.7645094394683838
","x: 246.28973388671875
y: 318.38177490234375
z: -0.3174597918987274
visibility: 0.7183449268341064
","x: 208.10345458984375
y: 334.0273742675781
z: -0.3071112632751465
visibility: 0.7766618132591248
","x: 246.125244140625
y: 316.3559875488281
z: -0.26648253202438354
visibility: 0.6878100037574768
","x: 209.6258544921875
y: 330.7557678222656
z: -0.26087135076522827
visibility: 0.7596700191497803
","x: 251.4860382080078
y: 370.4935302734375
z: 0.010996086522936821
visibility: 0.9995673894882202
","x: 231.91078186035156
y: 372.47869873046875
z: -0.010938938707113266
visibility: 0.9994162917137146
","x: 256.71380615234375
y: 438.7070007324219
z: -0.014658053405582905
visibility: 0.9892027378082275
","x: 233.15452575683594
y: 438.768798828125
z: -0.10548515617847443
visibility: 0.9632208943367004
","x: 252.64016723632812
y: 500.1011657714844
z: 0.15644241869449615
visibility: 0.9801600575447083
","x: 230.39634704589844
y: 506.7392272949219
z: 0.04343730956315994
visibility: 0.6979925632476807
","x: 248.9852752685547
y: 508.41436767578125
z: 0.1685701459646225
visibility: 0.8677847385406494
","x: 232.47943115234375
y: 515.7755126953125
z: 0.050699252635240555
visibility: 0.48072725534439087
","x: 254.97694396972656
y: 522.4290771484375
z: 0.06323336064815521
visibility: 0.9789692163467407
","x: 226.08447265625
y: 530.5817260742188
z: -0.06773630529642105
visibility: 0.7698354125022888
",,,,,,,,,,,,,,,,,,,,,,"x: 255.1474609375
y: 322.2392578125
z: 0.0
","x: 251.00006103515625
y: 320.51324462890625
z: -0.0002379199577262625
","x: 246.82159423828125
y: 321.584716796875
z: -0.0031081351917237043
","x: 244.1846160888672
y: 324.80078125
z: -0.0058626276440918446
","x: 243.27304077148438
y: 328.62139892578125
z: -0.008610773831605911
","x: 248.37237548828125
y: 317.67962646484375
z: -0.01101448480039835
","x: 243.98744201660156
y: 323.6546325683594
z: -0.015108778141438961
","x: 242.65423583984375
y: 327.6837158203125
z: -0.01569284312427044
","x: 242.22735595703125
y: 330.35394287109375
z: -0.015593767166137695
","x: 250.78591918945312
y: 320.18890380859375
z: -0.013103670440614223
","x: 246.18405151367188
y: 327.0658874511719
z: -0.017732879146933556
","x: 244.19314575195312
y: 331.2145690917969
z: -0.01682455465197563
","x: 243.39810180664062
y: 333.4617919921875
z: -0.015866579487919807
","x: 252.88916015625
y: 323.7327880859375
z: -0.014582577161490917
","x: 248.3740997314453
y: 330.0958557128906
z: -0.017877377569675446
","x: 246.29957580566406
y: 333.67559814453125
z: -0.01521483063697815
","x: 245.54586791992188
y: 335.1933288574219
z: -0.013361194171011448
","x: 254.47801208496094
y: 327.6224365234375
z: -0.01599843055009842
","x: 250.75865173339844
y: 332.5875549316406
z: -0.01775934174656868
","x: 249.10511779785156
y: 334.6865234375
z: -0.01588336192071438
","x: 248.64544677734375
y: 335.1998291015625
z: -0.014487827196717262
"
7,"x: 247.75506591796875
y: 233.2237091064453
z: -0.14198051393032074
visibility: 0.9995571374893188
","x: 248.54905700683594
y: 226.56263732910156
z: -0.12506261467933655
visibility: 0.998783528804779
","x: 248.9736328125
y: 226.7945556640625
z: -0.1250954121351242
visibility: 0.9987563490867615
","x: 249.31211853027344
y: 227.03407287597656
z: -0.12508440017700195
visibility: 0.9987596869468689
","x: 246.05836486816406
y: 225.34478759765625
z: -0.1381598263978958
visibility: 0.9984981417655945
","x: 244.62625122070312
y: 224.6690673828125
z: -0.13817943632602692
visibility: 0.9982945919036865
","x: 243.08546447753906
y: 223.89060974121094
z: -0.13820526003837585
visibility: 0.9983304142951965
","x: 247.09066772460938
y: 228.31268310546875
z: -0.021918199956417084
visibility: 0.9959663152694702
","x: 237.48150634765625
y: 225.119873046875
z: -0.08490203320980072
visibility: 0.9964081645011902
","x: 247.29483032226562
y: 239.71290588378906
z: -0.102386973798275
visibility: 0.999275803565979
","x: 244.28021240234375
y: 238.82510375976562
z: -0.1205693706870079
visibility: 0.9991505146026611
","x: 254.28297424316406
y: 264.5978088378906
z: 0.01719036139547825
visibility: 0.9997286796569824
","x: 217.78201293945312
y: 265.23382568359375
z: -0.026470422744750977
visibility: 0.999454140663147
","x: 261.7558288574219
y: 304.02197265625
z: -0.008953194133937359
visibility: 0.796640932559967
","x: 209.276611328125
y: 306.31219482421875
z: -0.0768074095249176
visibility: 0.9143366813659668
","x: 253.74713134765625
y: 321.9466552734375
z: -0.1859883964061737
visibility: 0.7512860894203186
","x: 208.5446319580078
y: 329.65838623046875
z: -0.24750514328479767
visibility: 0.8346996903419495
","x: 250.4749755859375
y: 331.9896240234375
z: -0.23283155262470245
visibility: 0.7264074087142944
","x: 207.58621215820312
y: 338.59332275390625
z: -0.2876948416233063
visibility: 0.7853877544403076
","x: 246.89288330078125
y: 325.46533203125
z: -0.2536114752292633
visibility: 0.744426429271698
","x: 210.2855224609375
y: 334.5188903808594
z: -0.30697089433670044
visibility: 0.7964708209037781
","x: 247.4631805419922
y: 322.4317626953125
z: -0.1982041299343109
visibility: 0.7157713174819946
","x: 211.3282928466797
y: 331.0576171875
z: -0.2587495446205139
visibility: 0.7801820039749146
","x: 252.58546447753906
y: 368.8046569824219
z: 0.014022896066308022
visibility: 0.9995641708374023
","x: 231.39418029785156
y: 369.0321044921875
z: -0.013922962360084057
visibility: 0.9994435906410217
","x: 256.6065673828125
y: 438.2601623535156
z: -0.0005196116981096566
visibility: 0.989709734916687
","x: 230.6522674560547
y: 436.9807434082031
z: -0.0593223050236702
visibility: 0.9659209847450256
","x: 251.87936401367188
y: 500.4804992675781
z: 0.14663375914096832
visibility: 0.9807698726654053
","x: 226.66030883789062
y: 501.169921875
z: 0.0804269015789032
visibility: 0.7272496223449707
","x: 248.85092163085938
y: 509.2795104980469
z: 0.16356763243675232
visibility: 0.8732811808586121
","x: 228.16818237304688
y: 509.4289855957031
z: 0.08623454719781876
visibility: 0.520918071269989
","x: 256.8078918457031
y: 522.6173095703125
z: 0.058789175003767014
visibility: 0.9793347716331482
","x: 222.62820434570312
y: 523.7453002929688
z: -0.0241483636200428
visibility: 0.7913108468055725
","x: 208.70721435546875
y: 338.483154296875
z: 0.0
","x: 210.5113983154297
y: 335.86328125
z: -0.0024835257790982723
","x: 212.19329833984375
y: 333.178466796875
z: -0.0060261320322752
","x: 213.8932647705078
y: 332.8078918457031
z: -0.008802852593362331
","x: 215.50698852539062
y: 333.2854919433594
z: -0.011440427042543888
","x: 208.63479614257812
y: 326.3182067871094
z: -0.013477617874741554
","x: 210.0220489501953
y: 325.8672790527344
z: -0.017661932855844498
","x: 210.11839294433594
y: 325.8855895996094
z: -0.01803852617740631
","x: 209.99346923828125
y: 325.0789794921875
z: -0.017512081190943718
","x: 206.82913208007812
y: 329.26544189453125
z: -0.01339003536850214
","x: 210.98439025878906
y: 333.8272705078125
z: -0.017007334157824516
","x: 211.99444580078125
y: 336.70343017578125
z: -0.015779754146933556
","x: 212.25900268554688
y: 337.7568054199219
z: -0.01499876007437706
","x: 206.10618591308594
y: 333.73419189453125
z: -0.012587889097630978
","x: 210.4091339111328
y: 337.40484619140625
z: -0.015130646526813507
","x: 210.972900390625
y: 339.329345703125
z: -0.013147277757525444
","x: 210.68585205078125
y: 340.1807861328125
z: -0.011786510236561298
","x: 205.9817352294922
y: 338.71636962890625
z: -0.01172019075602293
","x: 209.7255096435547
y: 340.24237060546875
z: -0.013266585767269135
","x: 210.47096252441406
y: 341.4839172363281
z: -0.012432646006345749
","x: 210.26641845703125
y: 342.2762451171875
z: -0.011790257878601551
","x: 256.2392272949219
y: 317.6035461425781
z: 0.0
","x: 251.52603149414062
y: 319.89056396484375
z: -0.0005473173805512488
","x: 247.22840881347656
y: 325.0262451171875
z: -0.0026527191512286663
","x: 244.9336395263672
y: 330.525634765625
z: -0.004613223951309919
","x: 244.05349731445312
y: 334.9510192871094
z: -0.006635666824877262
","x: 248.49635314941406
y: 319.2648620605469
z: -0.008302678354084492
","x: 245.7423553466797
y: 326.4039306640625
z: -0.011221337132155895
","x: 244.78054809570312
y: 330.8026123046875
z: -0.011448781937360764
","x: 244.17398071289062
y: 334.0752868652344
z: -0.011275159195065498
","x: 251.09982299804688
y: 320.13043212890625
z: -0.009713534265756607
","x: 248.02760314941406
y: 328.6392517089844
z: -0.012955870479345322
","x: 246.6084442138672
y: 333.4729309082031
z: -0.012286310084164143
","x: 245.6392822265625
y: 336.5911560058594
z: -0.011665137484669685
","x: 253.63246154785156
y: 322.19207763671875
z: -0.01060699112713337
","x: 250.43743896484375
y: 330.6298522949219
z: -0.013162804767489433
","x: 248.97056579589844
y: 334.8507080078125
z: -0.011281798593699932
","x: 248.00457763671875
y: 337.0276184082031
z: -0.01001951564103365
","x: 255.9483184814453
y: 325.0008850097656
z: -0.011467245407402515
","x: 253.11410522460938
y: 331.96484375
z: -0.012903225608170033
","x: 251.8427734375
y: 334.8441162109375
z: -0.011536221019923687
","x: 251.16831970214844
y: 335.9302062988281
z: -0.01052230503410101
"
8,"x: 247.75506591796875
y: 233.2237091064453
z: -0.14198051393032074
visibility: 0.9995571374893188
","x: 248.54905700683594
y: 226.56263732910156
z: -0.12506261467933655
visibility: 0.998783528804779
","x: 248.9736328125
y: 226.7945556640625
z: -0.1250954121351242
visibility: 0.9987563490867615
","x: 249.31211853027344
y: 227.03407287597656
z: -0.12508440017700195
visibility: 0.9987596869468689
","x: 246.05836486816406
y: 225.34478759765625
z: -0.1381598263978958
visibility: 0.9984981417655945
","x: 244.62625122070312
y: 224.6690673828125
z: -0.13817943632602692
visibility: 0.9982945919036865
","x: 243.08546447753906
y: 223.89060974121094
z: -0.13820526003837585
visibility: 0.9983304142951965
","x: 247.09066772460938
y: 228.31268310546875
z: -0.021918199956417084
visibility: 0.9959663152694702
","x: 237.48150634765625
y: 225.119873046875
z: -0.08490203320980072
visibility: 0.9964081645011902
","x: 247.29483032226562
y: 239.71290588378906
z: -0.102386973798275
visibility: 0.999275803565979
","x: 244.28021240234375
y: 238.82510375976562
z: -0.1205693706870079
visibility: 0.9991505146026611
","x: 254.28297424316406
y: 264.5978088378906
z: 0.01719036139547825
visibility: 0.9997286796569824
","x: 217.78201293945312
y: 265.23382568359375
z: -0.026470422744750977
visibility: 0.999454140663147
","x: 261.7558288574219
y: 304.02197265625
z: -0.008953194133937359
visibility: 0.796640932559967
","x: 209.276611328125
y: 306.31219482421875
z: -0.0768074095249176
visibility: 0.9143366813659668
","x: 253.74713134765625
y: 321.9466552734375
z: -0.1859883964061737
visibility: 0.7512860894203186
","x: 208.5446319580078
y: 329.65838623046875
z: -0.24750514328479767
visibility: 0.8346996903419495
","x: 250.4749755859375
y: 331.9896240234375
z: -0.23283155262470245
visibility: 0.7264074087142944
","x: 207.58621215820312
y: 338.59332275390625
z: -0.2876948416233063
visibility: 0.7853877544403076
","x: 246.89288330078125
y: 325.46533203125
z: -0.2536114752292633
visibility: 0.744426429271698
","x: 210.2855224609375
y: 334.5188903808594
z: -0.30697089433670044
visibility: 0.7964708209037781
","x: 247.4631805419922
y: 322.4317626953125
z: -0.1982041299343109
visibility: 0.7157713174819946
","x: 211.3282928466797
y: 331.0576171875
z: -0.2587495446205139
visibility: 0.7801820039749146
","x: 252.58546447753906
y: 368.8046569824219
z: 0.014022896066308022
visibility: 0.9995641708374023
","x: 231.39418029785156
y: 369.0321044921875
z: -0.013922962360084057
visibility: 0.9994435906410217
","x: 256.6065673828125
y: 438.2601623535156
z: -0.0005196116981096566
visibility: 0.989709734916687
","x: 230.6522674560547
y: 436.9807434082031
z: -0.0593223050236702
visibility: 0.9659209847450256
","x: 251.87936401367188
y: 500.4804992675781
z: 0.14663375914096832
visibility: 0.9807698726654053
","x: 226.66030883789062
y: 501.169921875
z: 0.0804269015789032
visibility: 0.7272496223449707
","x: 248.85092163085938
y: 509.2795104980469
z: 0.16356763243675232
visibility: 0.8732811808586121
","x: 228.16818237304688
y: 509.4289855957031
z: 0.08623454719781876
visibility: 0.520918071269989
","x: 256.8078918457031
y: 522.6173095703125
z: 0.058789175003767014
visibility: 0.9793347716331482
","x: 222.62820434570312
y: 523.7453002929688
z: -0.0241483636200428
visibility: 0.7913108468055725
","x: 208.70721435546875
y: 338.483154296875
z: 0.0
","x: 210.5113983154297
y: 335.86328125
z: -0.0024835257790982723
","x: 212.19329833984375
y: 333.178466796875
z: -0.0060261320322752
","x: 213.8932647705078
y: 332.8078918457031
z: -0.008802852593362331
","x: 215.50698852539062
y: 333.2854919433594
z: -0.011440427042543888
","x: 208.63479614257812
y: 326.3182067871094
z: -0.013477617874741554
","x: 210.0220489501953
y: 325.8672790527344
z: -0.017661932855844498
","x: 210.11839294433594
y: 325.8855895996094
z: -0.01803852617740631
","x: 209.99346923828125
y: 325.0789794921875
z: -0.017512081190943718
","x: 206.82913208007812
y: 329.26544189453125
z: -0.01339003536850214
","x: 210.98439025878906
y: 333.8272705078125
z: -0.017007334157824516
","x: 211.99444580078125
y: 336.70343017578125
z: -0.015779754146933556
","x: 212.25900268554688
y: 337.7568054199219
z: -0.01499876007437706
","x: 206.10618591308594
y: 333.73419189453125
z: -0.012587889097630978
","x: 210.4091339111328
y: 337.40484619140625
z: -0.015130646526813507
","x: 210.972900390625
y: 339.329345703125
z: -0.013147277757525444
","x: 210.68585205078125
y: 340.1807861328125
z: -0.011786510236561298
","x: 205.9817352294922
y: 338.71636962890625
z: -0.01172019075602293
","x: 209.7255096435547
y: 340.24237060546875
z: -0.013266585767269135
","x: 210.47096252441406
y: 341.4839172363281
z: -0.012432646006345749
","x: 210.26641845703125
y: 342.2762451171875
z: -0.011790257878601551
","x: 256.2392272949219
y: 317.6035461425781
z: 0.0
","x: 251.52603149414062
y: 319.89056396484375
z: -0.0005473173805512488
","x: 247.22840881347656
y: 325.0262451171875
z: -0.0026527191512286663
","x: 244.9336395263672
y: 330.525634765625
z: -0.004613223951309919
","x: 244.05349731445312
y: 334.9510192871094
z: -0.006635666824877262
","x: 248.49635314941406
y: 319.2648620605469
z: -0.008302678354084492
","x: 245.7423553466797
y: 326.4039306640625
z: -0.011221337132155895
","x: 244.78054809570312
y: 330.8026123046875
z: -0.011448781937360764
","x: 244.17398071289062
y: 334.0752868652344
z: -0.011275159195065498
","x: 251.09982299804688
y: 320.13043212890625
z: -0.009713534265756607
","x: 248.02760314941406
y: 328.6392517089844
z: -0.012955870479345322
","x: 246.6084442138672
y: 333.4729309082031
z: -0.012286310084164143
","x: 245.6392822265625
y: 336.5911560058594
z: -0.011665137484669685
","x: 253.63246154785156
y: 322.19207763671875
z: -0.01060699112713337
","x: 250.43743896484375
y: 330.6298522949219
z: -0.013162804767489433
","x: 248.97056579589844
y: 334.8507080078125
z: -0.011281798593699932
","x: 248.00457763671875
y: 337.0276184082031
z: -0.01001951564103365
","x: 255.9483184814453
y: 325.0008850097656
z: -0.011467245407402515
","x: 253.11410522460938
y: 331.96484375
z: -0.012903225608170033
","x: 251.8427734375
y: 334.8441162109375
z: -0.011536221019923687
","x: 251.16831970214844
y: 335.9302062988281
z: -0.01052230503410101
"
9,"x: 247.75506591796875
y: 233.2237091064453
z: -0.14198051393032074
visibility: 0.9995571374893188
","x: 248.54905700683594
y: 226.56263732910156
z: -0.12506261467933655
visibility: 0.998783528804779
","x: 248.9736328125
y: 226.7945556640625
z: -0.1250954121351242
visibility: 0.9987563490867615
","x: 249.31211853027344
y: 227.03407287597656
z: -0.12508440017700195
visibility: 0.9987596869468689
","x: 246.05836486816406
y: 225.34478759765625
z: -0.1381598263978958
visibility: 0.9984981417655945
","x: 244.62625122070312
y: 224.6690673828125
z: -0.13817943632602692
visibility: 0.9982945919036865
","x: 243.08546447753906
y: 223.89060974121094
z: -0.13820526003837585
visibility: 0.9983304142951965
","x: 247.09066772460938
y: 228.31268310546875
z: -0.021918199956417084
visibility: 0.9959663152694702
","x: 237.48150634765625
y: 225.119873046875
z: -0.08490203320980072
visibility: 0.9964081645011902
","x: 247.29483032226562
y: 239.71290588378906
z: -0.102386973798275
visibility: 0.999275803565979
","x: 244.28021240234375
y: 238.82510375976562
z: -0.1205693706870079
visibility: 0.9991505146026611
","x: 254.28297424316406
y: 264.5978088378906
z: 0.01719036139547825
visibility: 0.9997286796569824
","x: 217.78201293945312
y: 265.23382568359375
z: -0.026470422744750977
visibility: 0.999454140663147
","x: 261.7558288574219
y: 304.02197265625
z: -0.008953194133937359
visibility: 0.796640932559967
","x: 209.276611328125
y: 306.31219482421875
z: -0.0768074095249176
visibility: 0.9143366813659668
","x: 253.74713134765625
y: 321.9466552734375
z: -0.1859883964061737
visibility: 0.7512860894203186
","x: 208.5446319580078
y: 329.65838623046875
z: -0.24750514328479767
visibility: 0.8346996903419495
","x: 250.4749755859375
y: 331.9896240234375
z: -0.23283155262470245
visibility: 0.7264074087142944
","x: 207.58621215820312
y: 338.59332275390625
z: -0.2876948416233063
visibility: 0.7853877544403076
","x: 246.89288330078125
y: 325.46533203125
z: -0.2536114752292633
visibility: 0.744426429271698
","x: 210.2855224609375
y: 334.5188903808594
z: -0.30697089433670044
visibility: 0.7964708209037781
","x: 247.4631805419922
y: 322.4317626953125
z: -0.1982041299343109
visibility: 0.7157713174819946
","x: 211.3282928466797
y: 331.0576171875
z: -0.2587495446205139
visibility: 0.7801820039749146
","x: 252.58546447753906
y: 368.8046569824219
z: 0.014022896066308022
visibility: 0.9995641708374023
","x: 231.39418029785156
y: 369.0321044921875
z: -0.013922962360084057
visibility: 0.9994435906410217
","x: 256.6065673828125
y: 438.2601623535156
z: -0.0005196116981096566
visibility: 0.989709734916687
","x: 230.6522674560547
y: 436.9807434082031
z: -0.0593223050236702
visibility: 0.9659209847450256
","x: 251.87936401367188
y: 500.4804992675781
z: 0.14663375914096832
visibility: 0.9807698726654053
","x: 226.66030883789062
y: 501.169921875
z: 0.0804269015789032
visibility: 0.7272496223449707
","x: 248.85092163085938
y: 509.2795104980469
z: 0.16356763243675232
visibility: 0.8732811808586121
","x: 228.16818237304688
y: 509.4289855957031
z: 0.08623454719781876
visibility: 0.520918071269989
","x: 256.8078918457031
y: 522.6173095703125
z: 0.058789175003767014
visibility: 0.9793347716331482
","x: 222.62820434570312
y: 523.7453002929688
z: -0.0241483636200428
visibility: 0.7913108468055725
","x: 208.70721435546875
y: 338.483154296875
z: 0.0
","x: 210.5113983154297
y: 335.86328125
z: -0.0024835257790982723
","x: 212.19329833984375
y: 333.178466796875
z: -0.0060261320322752
","x: 213.8932647705078
y: 332.8078918457031
z: -0.008802852593362331
","x: 215.50698852539062
y: 333.2854919433594
z: -0.011440427042543888
","x: 208.63479614257812
y: 326.3182067871094
z: -0.013477617874741554
","x: 210.0220489501953
y: 325.8672790527344
z: -0.017661932855844498
","x: 210.11839294433594
y: 325.8855895996094
z: -0.01803852617740631
","x: 209.99346923828125
y: 325.0789794921875
z: -0.017512081190943718
","x: 206.82913208007812
y: 329.26544189453125
z: -0.01339003536850214
","x: 210.98439025878906
y: 333.8272705078125
z: -0.017007334157824516
","x: 211.99444580078125
y: 336.70343017578125
z: -0.015779754146933556
","x: 212.25900268554688
y: 337.7568054199219
z: -0.01499876007437706
","x: 206.10618591308594
y: 333.73419189453125
z: -0.012587889097630978
","x: 210.4091339111328
y: 337.40484619140625
z: -0.015130646526813507
","x: 210.972900390625
y: 339.329345703125
z: -0.013147277757525444
","x: 210.68585205078125
y: 340.1807861328125
z: -0.011786510236561298
","x: 205.9817352294922
y: 338.71636962890625
z: -0.01172019075602293
","x: 209.7255096435547
y: 340.24237060546875
z: -0.013266585767269135
","x: 210.47096252441406
y: 341.4839172363281
z: -0.012432646006345749
","x: 210.26641845703125
y: 342.2762451171875
z: -0.011790257878601551
","x: 256.2392272949219
y: 317.6035461425781
z: 0.0
","x: 251.52603149414062
y: 319.89056396484375
z: -0.0005473173805512488
","x: 247.22840881347656
y: 325.0262451171875
z: -0.0026527191512286663
","x: 244.9336395263672
y: 330.525634765625
z: -0.004613223951309919
","x: 244.05349731445312
y: 334.9510192871094
z: -0.006635666824877262
","x: 248.49635314941406
y: 319.2648620605469
z: -0.008302678354084492
","x: 245.7423553466797
y: 326.4039306640625
z: -0.011221337132155895
","x: 244.78054809570312
y: 330.8026123046875
z: -0.011448781937360764
","x: 244.17398071289062
y: 334.0752868652344
z: -0.011275159195065498
","x: 251.09982299804688
y: 320.13043212890625
z: -0.009713534265756607
","x: 248.02760314941406
y: 328.6392517089844
z: -0.012955870479345322
","x: 246.6084442138672
y: 333.4729309082031
z: -0.012286310084164143
","x: 245.6392822265625
y: 336.5911560058594
z: -0.011665137484669685
","x: 253.63246154785156
y: 322.19207763671875
z: -0.01060699112713337
","x: 250.43743896484375
y: 330.6298522949219
z: -0.013162804767489433
","x: 248.97056579589844
y: 334.8507080078125
z: -0.011281798593699932
","x: 248.00457763671875
y: 337.0276184082031
z: -0.01001951564103365
","x: 255.9483184814453
y: 325.0008850097656
z: -0.011467245407402515
","x: 253.11410522460938
y: 331.96484375
z: -0.012903225608170033
","x: 251.8427734375
y: 334.8441162109375
z: -0.011536221019923687
","x: 251.16831970214844
y: 335.9302062988281
z: -0.01052230503410101
"
10,"x: 244.7215118408203
y: 231.96316528320312
z: -0.2221366912126541
visibility: 0.9995495080947876
","x: 245.3199920654297
y: 225.0918426513672
z: -0.20360839366912842
visibility: 0.998748779296875
","x: 245.85299682617188
y: 225.30027770996094
z: -0.20360732078552246
visibility: 0.9986945986747742
","x: 246.3448944091797
y: 225.59146118164062
z: -0.20356369018554688
visibility: 0.998678982257843
","x: 242.72369384765625
y: 224.3059539794922
z: -0.2260090410709381
visibility: 0.9985361099243164
","x: 241.336669921875
y: 223.8858184814453
z: -0.2260405272245407
visibility: 0.998345673084259
","x: 239.7916717529297
y: 223.3956298828125
z: -0.22613266110420227
visibility: 0.9983882308006287
","x: 244.279541015625
y: 227.50173950195312
z: -0.09193681180477142
visibility: 0.995911717414856
","x: 234.42715454101562
y: 224.5614013671875
z: -0.17978227138519287
visibility: 0.9966380596160889
","x: 244.29833984375
y: 238.4813232421875
z: -0.17734791338443756
visibility: 0.9992902278900146
","x: 241.29959106445312
y: 238.19949340820312
z: -0.20700030028820038
visibility: 0.9992080330848694
","x: 252.0689697265625
y: 265.8342590332031
z: -0.02697332762181759
visibility: 0.9997377395629883
","x: 214.59352111816406
y: 264.0764465332031
z: -0.10901671648025513
visibility: 0.9994993805885315
","x: 256.58294677734375
y: 309.6661682128906
z: -0.025013640522956848
visibility: 0.8008943796157837
","x: 207.68600463867188
y: 307.05828857421875
z: -0.11908470094203949
visibility: 0.9222342371940613
","x: 253.98428344726562
y: 338.2476501464844
z: -0.20341603457927704
visibility: 0.7642892003059387
","x: 206.583740234375
y: 342.5767517089844
z: -0.24003586173057556
visibility: 0.8495746850967407
","x: 253.7582550048828
y: 350.93670654296875
z: -0.24895796179771423
visibility: 0.7389693260192871
","x: 207.2609405517578
y: 354.1226501464844
z: -0.27660101652145386
visibility: 0.803507924079895
","x: 251.18722534179688
y: 344.247314453125
z: -0.27629533410072327
visibility: 0.7559399604797363
","x: 210.76397705078125
y: 349.73779296875
z: -0.2973524332046509
visibility: 0.8135618567466736
","x: 250.56988525390625
y: 340.1919250488281
z: -0.21944370865821838
visibility: 0.7267563939094543
","x: 211.1382598876953
y: 345.70367431640625
z: -0.251688152551651
visibility: 0.7976160049438477
","x: 250.5365753173828
y: 368.6871337890625
z: 0.012876312248408794
visibility: 0.9995777606964111
","x: 228.36773681640625
y: 371.1325378417969
z: -0.01278673391789198
visibility: 0.9994751214981079
","x: 253.41917419433594
y: 437.9466247558594
z: 0.01841791160404682
visibility: 0.9903354644775391
","x: 226.9681854248047
y: 438.3741455078125
z: 0.04040022939443588
visibility: 0.9682771563529968
","x: 252.08721923828125
y: 500.371826171875
z: 0.2137211114168167
visibility: 0.98172527551651
","x: 226.57916259765625
y: 498.22308349609375
z: 0.24262452125549316
visibility: 0.7533520460128784
","x: 249.5784149169922
y: 508.8002014160156
z: 0.22806110978126526
visibility: 0.8768366575241089
","x: 228.2753448486328
y: 505.55865478515625
z: 0.25152215361595154
visibility: 0.5561462640762329
","x: 256.7243347167969
y: 522.5158081054688
z: 0.11995670944452286
visibility: 0.9800736904144287
","x: 221.91258239746094
y: 518.7730712890625
z: 0.010199823416769505
visibility: 0.8104024529457092
","x: 208.61337280273438
y: 351.9833984375
z: 0.0
","x: 211.87586975097656
y: 350.1068115234375
z: -0.0018655415624380112
","x: 213.68771362304688
y: 347.43890380859375
z: -0.005428825505077839
","x: 214.5764617919922
y: 347.1702575683594
z: -0.008315580897033215
","x: 214.70372009277344
y: 348.47540283203125
z: -0.011204487644135952
","x: 208.53382873535156
y: 340.1223449707031
z: -0.013715453445911407
","x: 211.2285919189453
y: 341.2987976074219
z: -0.016627835109829903
","x: 212.48226928710938
y: 342.241943359375
z: -0.016165895387530327
","x: 212.92665100097656
y: 342.2149658203125
z: -0.01519763097167015
","x: 205.8493194580078
y: 341.5697021484375
z: -0.013807134702801704
","x: 210.01870727539062
y: 349.4889831542969
z: -0.01686803810298443
","x: 212.26376342773438
y: 352.6755065917969
z: -0.01599724404513836
","x: 213.52029418945312
y: 353.6602478027344
z: -0.015354802832007408
","x: 204.4857177734375
y: 345.8011474609375
z: -0.012744118459522724
","x: 208.6790313720703
y: 353.53460693359375
z: -0.014516948722302914
","x: 210.9441375732422
y: 355.70452880859375
z: -0.012889448553323746
","x: 212.0231170654297
y: 355.88751220703125
z: -0.011967690661549568
","x: 204.15806579589844
y: 351.16741943359375
z: -0.011430974118411541
","x: 207.44712829589844
y: 357.19781494140625
z: -0.01161542534828186
","x: 209.14675903320312
y: 358.0072021484375
z: -0.010384677909314632
","x: 209.8414764404297
y: 356.66693115234375
z: -0.009869354777038097
","x: 254.7745819091797
y: 342.280029296875
z: 0.0
","x: 251.25160217285156
y: 339.2851257324219
z: -0.0026039148215204477
","x: 248.3768768310547
y: 337.4647216796875
z: -0.00671950401738286
","x: 246.8511505126953
y: 338.2086181640625
z: -0.009832252748310566
","x: 246.33181762695312
y: 340.2613525390625
z: -0.012735242955386639
","x: 253.68836975097656
y: 331.9305419921875
z: -0.01805374212563038
","x: 250.62664794921875
y: 338.9881591796875
z: -0.021801114082336426
","x: 249.05368041992188
y: 342.6066589355469
z: -0.02103348821401596
","x: 248.6569061279297
y: 343.99188232421875
z: -0.019760603085160255
","x: 256.33148193359375
y: 335.41021728515625
z: -0.018160173669457436
","x: 251.5955810546875
y: 343.28643798828125
z: -0.021478785201907158
","x: 249.8642578125
y: 345.8235168457031
z: -0.018231268972158432
","x: 249.76644897460938
y: 345.6693115234375
z: -0.015814635902643204
","x: 257.879150390625
y: 340.0704345703125
z: -0.01705709472298622
","x: 253.57623291015625
y: 346.986083984375
z: -0.018993718549609184
","x: 251.68661499023438
y: 348.5962219238281
z: -0.01493656262755394
","x: 251.22122192382812
y: 347.57635498046875
z: -0.012406815774738789
","x: 258.56719970703125
y: 344.85247802734375
z: -0.01591217890381813
","x: 255.24313354492188
y: 349.86883544921875
z: -0.017149899154901505
","x: 253.7917938232422
y: 350.49493408203125
z: -0.014836544170975685
","x: 253.35256958007812
y: 348.903564453125
z: -0.013063343241810799
"
11,"x: 244.7215118408203
y: 231.96316528320312
z: -0.2221366912126541
visibility: 0.9995495080947876
","x: 245.3199920654297
y: 225.0918426513672
z: -0.20360839366912842
visibility: 0.998748779296875
","x: 245.85299682617188
y: 225.30027770996094
z: -0.20360732078552246
visibility: 0.9986945986747742
","x: 246.3448944091797
y: 225.59146118164062
z: -0.20356369018554688
visibility: 0.998678982257843
","x: 242.72369384765625
y: 224.3059539794922
z: -0.2260090410709381
visibility: 0.9985361099243164
","x: 241.336669921875
y: 223.8858184814453
z: -0.2260405272245407
visibility: 0.998345673084259
","x: 239.7916717529297
y: 223.3956298828125
z: -0.22613266110420227
visibility: 0.9983882308006287
","x: 244.279541015625
y: 227.50173950195312
z: -0.09193681180477142
visibility: 0.995911717414856
","x: 234.42715454101562
y: 224.5614013671875
z: -0.17978227138519287
visibility: 0.9966380596160889
","x: 244.29833984375
y: 238.4813232421875
z: -0.17734791338443756
visibility: 0.9992902278900146
","x: 241.29959106445312
y: 238.19949340820312
z: -0.20700030028820038
visibility: 0.9992080330848694
","x: 252.0689697265625
y: 265.8342590332031
z: -0.02697332762181759
visibility: 0.9997377395629883
","x: 214.59352111816406
y: 264.0764465332031
z: -0.10901671648025513
visibility: 0.9994993805885315
","x: 256.58294677734375
y: 309.6661682128906
z: -0.025013640522956848
visibility: 0.8008943796157837
","x: 207.68600463867188
y: 307.05828857421875
z: -0.11908470094203949
visibility: 0.9222342371940613
","x: 253.98428344726562
y: 338.2476501464844
z: -0.20341603457927704
visibility: 0.7642892003059387
","x: 206.583740234375
y: 342.5767517089844
z: -0.24003586173057556
visibility: 0.8495746850967407
","x: 253.7582550048828
y: 350.93670654296875
z: -0.24895796179771423
visibility: 0.7389693260192871
","x: 207.2609405517578
y: 354.1226501464844
z: -0.27660101652145386
visibility: 0.803507924079895
","x: 251.18722534179688
y: 344.247314453125
z: -0.27629533410072327
visibility: 0.7559399604797363
","x: 210.76397705078125
y: 349.73779296875
z: -0.2973524332046509
visibility: 0.8135618567466736
","x: 250.56988525390625
y: 340.1919250488281
z: -0.21944370865821838
visibility: 0.7267563939094543
","x: 211.1382598876953
y: 345.70367431640625
z: -0.251688152551651
visibility: 0.7976160049438477
","x: 250.5365753173828
y: 368.6871337890625
z: 0.012876312248408794
visibility: 0.9995777606964111
","x: 228.36773681640625
y: 371.1325378417969
z: -0.01278673391789198
visibility: 0.9994751214981079
","x: 253.41917419433594
y: 437.9466247558594
z: 0.01841791160404682
visibility: 0.9903354644775391
","x: 226.9681854248047
y: 438.3741455078125
z: 0.04040022939443588
visibility: 0.9682771563529968
","x: 252.08721923828125
y: 500.371826171875
z: 0.2137211114168167
visibility: 0.98172527551651
","x: 226.57916259765625
y: 498.22308349609375
z: 0.24262452125549316
visibility: 0.7533520460128784
","x: 249.5784149169922
y: 508.8002014160156
z: 0.22806110978126526
visibility: 0.8768366575241089
","x: 228.2753448486328
y: 505.55865478515625
z: 0.25152215361595154
visibility: 0.5561462640762329
","x: 256.7243347167969
y: 522.5158081054688
z: 0.11995670944452286
visibility: 0.9800736904144287
","x: 221.91258239746094
y: 518.7730712890625
z: 0.010199823416769505
visibility: 0.8104024529457092
","x: 208.61337280273438
y: 351.9833984375
z: 0.0
","x: 211.87586975097656
y: 350.1068115234375
z: -0.0018655415624380112
","x: 213.68771362304688
y: 347.43890380859375
z: -0.005428825505077839
","x: 214.5764617919922
y: 347.1702575683594
z: -0.008315580897033215
","x: 214.70372009277344
y: 348.47540283203125
z: -0.011204487644135952
","x: 208.53382873535156
y: 340.1223449707031
z: -0.013715453445911407
","x: 211.2285919189453
y: 341.2987976074219
z: -0.016627835109829903
","x: 212.48226928710938
y: 342.241943359375
z: -0.016165895387530327
","x: 212.92665100097656
y: 342.2149658203125
z: -0.01519763097167015
","x: 205.8493194580078
y: 341.5697021484375
z: -0.013807134702801704
","x: 210.01870727539062
y: 349.4889831542969
z: -0.01686803810298443
","x: 212.26376342773438
y: 352.6755065917969
z: -0.01599724404513836
","x: 213.52029418945312
y: 353.6602478027344
z: -0.015354802832007408
","x: 204.4857177734375
y: 345.8011474609375
z: -0.012744118459522724
","x: 208.6790313720703
y: 353.53460693359375
z: -0.014516948722302914
","x: 210.9441375732422
y: 355.70452880859375
z: -0.012889448553323746
","x: 212.0231170654297
y: 355.88751220703125
z: -0.011967690661549568
","x: 204.15806579589844
y: 351.16741943359375
z: -0.011430974118411541
","x: 207.44712829589844
y: 357.19781494140625
z: -0.01161542534828186
","x: 209.14675903320312
y: 358.0072021484375
z: -0.010384677909314632
","x: 209.8414764404297
y: 356.66693115234375
z: -0.009869354777038097
","x: 254.7745819091797
y: 342.280029296875
z: 0.0
","x: 251.25160217285156
y: 339.2851257324219
z: -0.0026039148215204477
","x: 248.3768768310547
y: 337.4647216796875
z: -0.00671950401738286
","x: 246.8511505126953
y: 338.2086181640625
z: -0.009832252748310566
","x: 246.33181762695312
y: 340.2613525390625
z: -0.012735242955386639
","x: 253.68836975097656
y: 331.9305419921875
z: -0.01805374212563038
","x: 250.62664794921875
y: 338.9881591796875
z: -0.021801114082336426
","x: 249.05368041992188
y: 342.6066589355469
z: -0.02103348821401596
","x: 248.6569061279297
y: 343.99188232421875
z: -0.019760603085160255
","x: 256.33148193359375
y: 335.41021728515625
z: -0.018160173669457436
","x: 251.5955810546875
y: 343.28643798828125
z: -0.021478785201907158
","x: 249.8642578125
y: 345.8235168457031
z: -0.018231268972158432
","x: 249.76644897460938
y: 345.6693115234375
z: -0.015814635902643204
","x: 257.879150390625
y: 340.0704345703125
z: -0.01705709472298622
","x: 253.57623291015625
y: 346.986083984375
z: -0.018993718549609184
","x: 251.68661499023438
y: 348.5962219238281
z: -0.01493656262755394
","x: 251.22122192382812
y: 347.57635498046875
z: -0.012406815774738789
","x: 258.56719970703125
y: 344.85247802734375
z: -0.01591217890381813
","x: 255.24313354492188
y: 349.86883544921875
z: -0.017149899154901505
","x: 253.7917938232422
y: 350.49493408203125
z: -0.014836544170975685
","x: 253.35256958007812
y: 348.903564453125
z: -0.013063343241810799
"
12,"x: 244.7215118408203
y: 231.96316528320312
z: -0.2221366912126541
visibility: 0.9995495080947876
","x: 245.3199920654297
y: 225.0918426513672
z: -0.20360839366912842
visibility: 0.998748779296875
","x: 245.85299682617188
y: 225.30027770996094
z: -0.20360732078552246
visibility: 0.9986945986747742
","x: 246.3448944091797
y: 225.59146118164062
z: -0.20356369018554688
visibility: 0.998678982257843
","x: 242.72369384765625
y: 224.3059539794922
z: -0.2260090410709381
visibility: 0.9985361099243164
","x: 241.336669921875
y: 223.8858184814453
z: -0.2260405272245407
visibility: 0.998345673084259
","x: 239.7916717529297
y: 223.3956298828125
z: -0.22613266110420227
visibility: 0.9983882308006287
","x: 244.279541015625
y: 227.50173950195312
z: -0.09193681180477142
visibility: 0.995911717414856
","x: 234.42715454101562
y: 224.5614013671875
z: -0.17978227138519287
visibility: 0.9966380596160889
","x: 244.29833984375
y: 238.4813232421875
z: -0.17734791338443756
visibility: 0.9992902278900146
","x: 241.29959106445312
y: 238.19949340820312
z: -0.20700030028820038
visibility: 0.9992080330848694
","x: 252.0689697265625
y: 265.8342590332031
z: -0.02697332762181759
visibility: 0.9997377395629883
","x: 214.59352111816406
y: 264.0764465332031
z: -0.10901671648025513
visibility: 0.9994993805885315
","x: 256.58294677734375
y: 309.6661682128906
z: -0.025013640522956848
visibility: 0.8008943796157837
","x: 207.68600463867188
y: 307.05828857421875
z: -0.11908470094203949
visibility: 0.9222342371940613
","x: 253.98428344726562
y: 338.2476501464844
z: -0.20341603457927704
visibility: 0.7642892003059387
","x: 206.583740234375
y: 342.5767517089844
z: -0.24003586173057556
visibility: 0.8495746850967407
","x: 253.7582550048828
y: 350.93670654296875
z: -0.24895796179771423
visibility: 0.7389693260192871
","x: 207.2609405517578
y: 354.1226501464844
z: -0.27660101652145386
visibility: 0.803507924079895
","x: 251.18722534179688
y: 344.247314453125
z: -0.27629533410072327
visibility: 0.7559399604797363
","x: 210.76397705078125
y: 349.73779296875
z: -0.2973524332046509
visibility: 0.8135618567466736
","x: 250.56988525390625
y: 340.1919250488281
z: -0.21944370865821838
visibility: 0.7267563939094543
","x: 211.1382598876953
y: 345.70367431640625
z: -0.251688152551651
visibility: 0.7976160049438477
","x: 250.5365753173828
y: 368.6871337890625
z: 0.012876312248408794
visibility: 0.9995777606964111
","x: 228.36773681640625
y: 371.1325378417969
z: -0.01278673391789198
visibility: 0.9994751214981079
","x: 253.41917419433594
y: 437.9466247558594
z: 0.01841791160404682
visibility: 0.9903354644775391
","x: 226.9681854248047
y: 438.3741455078125
z: 0.04040022939443588
visibility: 0.9682771563529968
","x: 252.08721923828125
y: 500.371826171875
z: 0.2137211114168167
visibility: 0.98172527551651
","x: 226.57916259765625
y: 498.22308349609375
z: 0.24262452125549316
visibility: 0.7533520460128784
","x: 249.5784149169922
y: 508.8002014160156
z: 0.22806110978126526
visibility: 0.8768366575241089
","x: 228.2753448486328
y: 505.55865478515625
z: 0.25152215361595154
visibility: 0.5561462640762329
","x: 256.7243347167969
y: 522.5158081054688
z: 0.11995670944452286
visibility: 0.9800736904144287
","x: 221.91258239746094
y: 518.7730712890625
z: 0.010199823416769505
visibility: 0.8104024529457092
","x: 208.61337280273438
y: 351.9833984375
z: 0.0
","x: 211.87586975097656
y: 350.1068115234375
z: -0.0018655415624380112
","x: 213.68771362304688
y: 347.43890380859375
z: -0.005428825505077839
","x: 214.5764617919922
y: 347.1702575683594
z: -0.008315580897033215
","x: 214.70372009277344
y: 348.47540283203125
z: -0.011204487644135952
","x: 208.53382873535156
y: 340.1223449707031
z: -0.013715453445911407
","x: 211.2285919189453
y: 341.2987976074219
z: -0.016627835109829903
","x: 212.48226928710938
y: 342.241943359375
z: -0.016165895387530327
","x: 212.92665100097656
y: 342.2149658203125
z: -0.01519763097167015
","x: 205.8493194580078
y: 341.5697021484375
z: -0.013807134702801704
","x: 210.01870727539062
y: 349.4889831542969
z: -0.01686803810298443
","x: 212.26376342773438
y: 352.6755065917969
z: -0.01599724404513836
","x: 213.52029418945312
y: 353.6602478027344
z: -0.015354802832007408
","x: 204.4857177734375
y: 345.8011474609375
z: -0.012744118459522724
","x: 208.6790313720703
y: 353.53460693359375
z: -0.014516948722302914
","x: 210.9441375732422
y: 355.70452880859375
z: -0.012889448553323746
","x: 212.0231170654297
y: 355.88751220703125
z: -0.011967690661549568
","x: 204.15806579589844
y: 351.16741943359375
z: -0.011430974118411541
","x: 207.44712829589844
y: 357.19781494140625
z: -0.01161542534828186
","x: 209.14675903320312
y: 358.0072021484375
z: -0.010384677909314632
","x: 209.8414764404297
y: 356.66693115234375
z: -0.009869354777038097
","x: 254.7745819091797
y: 342.280029296875
z: 0.0
","x: 251.25160217285156
y: 339.2851257324219
z: -0.0026039148215204477
","x: 248.3768768310547
y: 337.4647216796875
z: -0.00671950401738286
","x: 246.8511505126953
y: 338.2086181640625
z: -0.009832252748310566
","x: 246.33181762695312
y: 340.2613525390625
z: -0.012735242955386639
","x: 253.68836975097656
y: 331.9305419921875
z: -0.01805374212563038
","x: 250.62664794921875
y: 338.9881591796875
z: -0.021801114082336426
","x: 249.05368041992188
y: 342.6066589355469
z: -0.02103348821401596
","x: 248.6569061279297
y: 343.99188232421875
z: -0.019760603085160255
","x: 256.33148193359375
y: 335.41021728515625
z: -0.018160173669457436
","x: 251.5955810546875
y: 343.28643798828125
z: -0.021478785201907158
","x: 249.8642578125
y: 345.8235168457031
z: -0.018231268972158432
","x: 249.76644897460938
y: 345.6693115234375
z: -0.015814635902643204
","x: 257.879150390625
y: 340.0704345703125
z: -0.01705709472298622
","x: 253.57623291015625
y: 346.986083984375
z: -0.018993718549609184
","x: 251.68661499023438
y: 348.5962219238281
z: -0.01493656262755394
","x: 251.22122192382812
y: 347.57635498046875
z: -0.012406815774738789
","x: 258.56719970703125
y: 344.85247802734375
z: -0.01591217890381813
","x: 255.24313354492188
y: 349.86883544921875
z: -0.017149899154901505
","x: 253.7917938232422
y: 350.49493408203125
z: -0.014836544170975685
","x: 253.35256958007812
y: 348.903564453125
z: -0.013063343241810799
"
13,"x: 236.47601318359375
y: 228.68630981445312
z: -0.25099417567253113
visibility: 0.999540388584137
","x: 238.73020935058594
y: 222.58140563964844
z: -0.2346591055393219
visibility: 0.9986611604690552
","x: 240.03207397460938
y: 223.13063049316406
z: -0.23469260334968567
visibility: 0.998617947101593
","x: 241.37921142578125
y: 223.74676513671875
z: -0.23469595611095428
visibility: 0.9985993504524231
","x: 235.12339782714844
y: 220.9787139892578
z: -0.23998410999774933
visibility: 0.9984244704246521
","x: 233.82400512695312
y: 220.5095672607422
z: -0.23999886214733124
visibility: 0.9982239007949829
","x: 232.49945068359375
y: 220.17910766601562
z: -0.24006441235542297
visibility: 0.9982720017433167
","x: 243.05099487304688
y: 227.34799194335938
z: -0.13207702338695526
visibility: 0.9957851767539978
","x: 229.67486572265625
y: 223.73292541503906
z: -0.16590359807014465
visibility: 0.9963862895965576
","x: 238.7158203125
y: 235.94876098632812
z: -0.21184957027435303
visibility: 0.999269962310791
","x: 233.5865936279297
y: 235.23715209960938
z: -0.21937759220600128
visibility: 0.9992048740386963
","x: 250.7060089111328
y: 267.4212341308594
z: -0.0770040899515152
visibility: 0.9997311234474182
","x: 213.68067932128906
y: 263.2616882324219
z: -0.09585259109735489
visibility: 0.9995227456092834
","x: 252.903564453125
y: 313.08782958984375
z: -0.08785948157310486
visibility: 0.8130232691764832
","x: 205.3746795654297
y: 306.2563781738281
z: -0.08007106184959412
visibility: 0.9259709715843201
","x: 253.1634521484375
y: 344.54510498046875
z: -0.24090294539928436
visibility: 0.7787202596664429
","x: 205.8427276611328
y: 342.1051025390625
z: -0.19176121056079865
visibility: 0.8573892712593079
","x: 253.1366424560547
y: 358.4141845703125
z: -0.27975162863731384
visibility: 0.7526140213012695
","x: 206.10548400878906
y: 353.9355773925781
z: -0.22581005096435547
visibility: 0.812261164188385
","x: 251.32327270507812
y: 354.26220703125
z: -0.3076285719871521
visibility: 0.7684167623519897
","x: 209.14599609375
y: 351.3656311035156
z: -0.2518523931503296
visibility: 0.8219751119613647
","x: 250.3271484375
y: 348.8796691894531
z: -0.25592654943466187
visibility: 0.7388514876365662
","x: 209.78416442871094
y: 347.0428161621094
z: -0.20530882477760315
visibility: 0.8058827519416809
","x: 242.56585693359375
y: 366.41778564453125
z: 0.005220599938184023
visibility: 0.999548614025116
","x: 223.67835998535156
y: 369.12530517578125
z: -0.005224905908107758
visibility: 0.9994773864746094
","x: 247.46786499023438
y: 432.8149719238281
z: -0.0008942662971094251
visibility: 0.9904646873474121
","x: 224.62156677246094
y: 437.8474426269531
z: 0.011184761300683022
visibility: 0.9707080125808716
","x: 245.9249267578125
y: 497.55718994140625
z: 0.1789567917585373
visibility: 0.9824678897857666
","x: 225.89547729492188
y: 496.7614440917969
z: 0.17542342841625214
visibility: 0.7769913077354431
","x: 242.91517639160156
y: 506.73663330078125
z: 0.19771908223628998
visibility: 0.875870406627655
","x: 229.12960815429688
y: 504.5201416015625
z: 0.18511103093624115
visibility: 0.5880729556083679
","x: 252.1590576171875
y: 521.3304443359375
z: 0.08816434442996979
visibility: 0.980634868144989
","x: 222.02943420410156
y: 518.2476196289062
z: 0.06615100055932999
visibility: 0.8278308510780334
",,,,,,,,,,,,,,,,,,,,,,,,,,,,,,,,,,,,,,,,,,
14,"x: 233.5655975341797
y: 227.14697265625
z: -0.35407134890556335
visibility: 0.9995743036270142
","x: 235.6523895263672
y: 221.6693878173828
z: -0.33420342206954956
visibility: 0.9987438321113586
","x: 236.76429748535156
y: 222.31005859375
z: -0.33420419692993164
visibility: 0.9987047910690308
","x: 237.93797302246094
y: 223.00880432128906
z: -0.3342142403125763
visibility: 0.9986701011657715
","x: 231.94923400878906
y: 219.56781005859375
z: -0.34105613827705383
visibility: 0.998535692691803
","x: 230.43759155273438
y: 218.89395141601562
z: -0.3411312699317932
visibility: 0.9983624219894409
","x: 228.97305297851562
y: 218.40928649902344
z: -0.34120410680770874
visibility: 0.9984054565429688
","x: 238.89990234375
y: 227.26138305664062
z: -0.209395170211792
visibility: 0.9960781931877136
","x: 225.36277770996094
y: 221.775146484375
z: -0.24481022357940674
visibility: 0.996673583984375
","x: 235.33416748046875
y: 234.4589080810547
z: -0.3064047694206238
visibility: 0.9993142485618591
","x: 230.14157104492188
y: 233.60586547851562
z: -0.3168427050113678
visibility: 0.9992672204971313
","x: 246.7339630126953
y: 267.988525390625
z: -0.12492664903402328
visibility: 0.9997326135635376
","x: 208.83778381347656
y: 262.8372497558594
z: -0.15553437173366547
visibility: 0.9995520710945129
","x: 251.4150848388672
y: 313.7908020019531
z: -0.10652051120996475
visibility: 0.8273874521255493
","x: 200.4371337890625
y: 307.300537109375
z: -0.19951674342155457
visibility: 0.9320927858352661
","x: 257.9692077636719
y: 344.3953857421875
z: -0.24550631642341614
visibility: 0.7947496175765991
","x: 204.78904724121094
y: 333.54217529296875
z: -0.38440030813217163
visibility: 0.8700863718986511
","x: 260.71014404296875
y: 353.8357238769531
z: -0.27988481521606445
visibility: 0.7683809995651245
","x: 205.81695556640625
y: 344.5698547363281
z: -0.428182989358902
visibility: 0.8280433416366577
","x: 259.9555969238281
y: 350.8856201171875
z: -0.30918264389038086
visibility: 0.783368706703186
","x: 208.7105255126953
y: 337.6144714355469
z: -0.44424837827682495
visibility: 0.8369662761688232
","x: 258.14093017578125
y: 348.7121276855469
z: -0.2607598900794983
visibility: 0.754961371421814
","x: 208.86619567871094
y: 334.570068359375
z: -0.3939661979675293
visibility: 0.8211609721183777
","x: 235.3594207763672
y: 362.0340576171875
z: -0.003020546631887555
visibility: 0.9995253682136536
","x: 215.06398010253906
y: 360.51580810546875
z: 0.0030217752791941166
visibility: 0.9994524121284485
","x: 227.81387329101562
y: 420.98388671875
z: -0.0730714201927185
visibility: 0.9893586039543152
","x: 216.1774444580078
y: 429.8896484375
z: 0.006317664869129658
visibility: 0.9682055115699768
","x: 224.3359375
y: 486.4413146972656
z: 0.14217747747898102
visibility: 0.9811772704124451
","x: 224.34165954589844
y: 493.3427429199219
z: 0.20383234322071075
visibility: 0.796276330947876
","x: 225.01634216308594
y: 494.1112976074219
z: 0.15863561630249023
visibility: 0.8629120588302612
","x: 226.18260192871094
y: 500.9127197265625
z: 0.22022917866706848
visibility: 0.6143293976783752
","x: 223.98867797851562
y: 512.39208984375
z: 0.036649737507104874
visibility: 0.9795820713043213
","x: 221.25674438476562
y: 516.1065063476562
z: 0.10304445028305054
visibility: 0.8416934609413147
","x: 206.4036102294922
y: 337.2923278808594
z: 0.0
","x: 208.0135040283203
y: 333.21099853515625
z: -0.00138732825871557
","x: 209.54190063476562
y: 329.526123046875
z: -0.004193903412669897
","x: 210.90167236328125
y: 327.93389892578125
z: -0.007210764102637768
","x: 212.87217712402344
y: 326.2201232910156
z: -0.010621263645589352
","x: 207.03082275390625
y: 329.06842041015625
z: -0.00786565337330103
","x: 205.80325317382812
y: 325.6268310546875
z: -0.011100677773356438
","x: 206.68373107910156
y: 327.76513671875
z: -0.012771010398864746
","x: 207.62478637695312
y: 329.5911865234375
z: -0.013721933588385582
","x: 204.8048095703125
y: 331.41357421875
z: -0.009157597087323666
","x: 203.73263549804688
y: 327.1559143066406
z: -0.012062589637935162
","x: 204.80589294433594
y: 330.3272705078125
z: -0.012200468219816685
","x: 205.78427124023438
y: 333.0897521972656
z: -0.012694967910647392
","x: 202.98460388183594
y: 333.88818359375
z: -0.009865404106676579
","x: 202.14431762695312
y: 330.74365234375
z: -0.01194415520876646
","x: 203.34078979492188
y: 333.7181396484375
z: -0.010795422829687595
","x: 204.42041015625
y: 336.07958984375
z: -0.01045255083590746
","x: 201.54103088378906
y: 336.3061218261719
z: -0.010721301659941673
","x: 200.8206024169922
y: 335.2636413574219
z: -0.012319754809141159
","x: 201.7132110595703
y: 337.24749755859375
z: -0.01186093594878912
","x: 202.48941040039062
y: 338.6170959472656
z: -0.011707687750458717
",,,,,,,,,,,,,,,,,,,,,
15,"x: 233.5655975341797
y: 227.14697265625
z: -0.35407134890556335
visibility: 0.9995743036270142
","x: 235.6523895263672
y: 221.6693878173828
z: -0.33420342206954956
visibility: 0.9987438321113586
","x: 236.76429748535156
y: 222.31005859375
z: -0.33420419692993164
visibility: 0.9987047910690308
","x: 237.93797302246094
y: 223.00880432128906
z: -0.3342142403125763
visibility: 0.9986701011657715
","x: 231.94923400878906
y: 219.56781005859375
z: -0.34105613827705383
visibility: 0.998535692691803
","x: 230.43759155273438
y: 218.89395141601562
z: -0.3411312699317932
visibility: 0.9983624219894409
","x: 228.97305297851562
y: 218.40928649902344
z: -0.34120410680770874
visibility: 0.9984054565429688
","x: 238.89990234375
y: 227.26138305664062
z: -0.209395170211792
visibility: 0.9960781931877136
","x: 225.36277770996094
y: 221.775146484375
z: -0.24481022357940674
visibility: 0.996673583984375
","x: 235.33416748046875
y: 234.4589080810547
z: -0.3064047694206238
visibility: 0.9993142485618591
","x: 230.14157104492188
y: 233.60586547851562
z: -0.3168427050113678
visibility: 0.9992672204971313
","x: 246.7339630126953
y: 267.988525390625
z: -0.12492664903402328
visibility: 0.9997326135635376
","x: 208.83778381347656
y: 262.8372497558594
z: -0.15553437173366547
visibility: 0.9995520710945129
","x: 251.4150848388672
y: 313.7908020019531
z: -0.10652051120996475
visibility: 0.8273874521255493
","x: 200.4371337890625
y: 307.300537109375
z: -0.19951674342155457
visibility: 0.9320927858352661
","x: 257.9692077636719
y: 344.3953857421875
z: -0.24550631642341614
visibility: 0.7947496175765991
","x: 204.78904724121094
y: 333.54217529296875
z: -0.38440030813217163
visibility: 0.8700863718986511
","x: 260.71014404296875
y: 353.8357238769531
z: -0.27988481521606445
visibility: 0.7683809995651245
","x: 205.81695556640625
y: 344.5698547363281
z: -0.428182989358902
visibility: 0.8280433416366577
","x: 259.9555969238281
y: 350.8856201171875
z: -0.30918264389038086
visibility: 0.783368706703186
","x: 208.7105255126953
y: 337.6144714355469
z: -0.44424837827682495
visibility: 0.8369662761688232
","x: 258.14093017578125
y: 348.7121276855469
z: -0.2607598900794983
visibility: 0.754961371421814
","x: 208.86619567871094
y: 334.570068359375
z: -0.3939661979675293
visibility: 0.8211609721183777
","x: 235.3594207763672
y: 362.0340576171875
z: -0.003020546631887555
visibility: 0.9995253682136536
","x: 215.06398010253906
y: 360.51580810546875
z: 0.0030217752791941166
visibility: 0.9994524121284485
","x: 227.81387329101562
y: 420.98388671875
z: -0.0730714201927185
visibility: 0.9893586039543152
","x: 216.1774444580078
y: 429.8896484375
z: 0.006317664869129658
visibility: 0.9682055115699768
","x: 224.3359375
y: 486.4413146972656
z: 0.14217747747898102
visibility: 0.9811772704124451
","x: 224.34165954589844
y: 493.3427429199219
z: 0.20383234322071075
visibility: 0.796276330947876
","x: 225.01634216308594
y: 494.1112976074219
z: 0.15863561630249023
visibility: 0.8629120588302612
","x: 226.18260192871094
y: 500.9127197265625
z: 0.22022917866706848
visibility: 0.6143293976783752
","x: 223.98867797851562
y: 512.39208984375
z: 0.036649737507104874
visibility: 0.9795820713043213
","x: 221.25674438476562
y: 516.1065063476562
z: 0.10304445028305054
visibility: 0.8416934609413147
","x: 206.4036102294922
y: 337.2923278808594
z: 0.0
","x: 208.0135040283203
y: 333.21099853515625
z: -0.00138732825871557
","x: 209.54190063476562
y: 329.526123046875
z: -0.004193903412669897
","x: 210.90167236328125
y: 327.93389892578125
z: -0.007210764102637768
","x: 212.87217712402344
y: 326.2201232910156
z: -0.010621263645589352
","x: 207.03082275390625
y: 329.06842041015625
z: -0.00786565337330103
","x: 205.80325317382812
y: 325.6268310546875
z: -0.011100677773356438
","x: 206.68373107910156
y: 327.76513671875
z: -0.012771010398864746
","x: 207.62478637695312
y: 329.5911865234375
z: -0.013721933588385582
","x: 204.8048095703125
y: 331.41357421875
z: -0.009157597087323666
","x: 203.73263549804688
y: 327.1559143066406
z: -0.012062589637935162
","x: 204.80589294433594
y: 330.3272705078125
z: -0.012200468219816685
","x: 205.78427124023438
y: 333.0897521972656
z: -0.012694967910647392
","x: 202.98460388183594
y: 333.88818359375
z: -0.009865404106676579
","x: 202.14431762695312
y: 330.74365234375
z: -0.01194415520876646
","x: 203.34078979492188
y: 333.7181396484375
z: -0.010795422829687595
","x: 204.42041015625
y: 336.07958984375
z: -0.01045255083590746
","x: 201.54103088378906
y: 336.3061218261719
z: -0.010721301659941673
","x: 200.8206024169922
y: 335.2636413574219
z: -0.012319754809141159
","x: 201.7132110595703
y: 337.24749755859375
z: -0.01186093594878912
","x: 202.48941040039062
y: 338.6170959472656
z: -0.011707687750458717
",,,,,,,,,,,,,,,,,,,,,
16,"x: 230.26470947265625
y: 224.5370330810547
z: -0.22573304176330566
visibility: 0.9996164441108704
","x: 232.45701599121094
y: 220.35194396972656
z: -0.2039509266614914
visibility: 0.9988678097724915
","x: 233.4851837158203
y: 221.13430786132812
z: -0.2039642632007599
visibility: 0.9988323450088501
","x: 234.39480590820312
y: 221.91221618652344
z: -0.203962042927742
visibility: 0.9988011121749878
","x: 228.6924591064453
y: 217.63059997558594
z: -0.21079006791114807
visibility: 0.9986806511878967
","x: 227.25009155273438
y: 216.80564880371094
z: -0.2108084261417389
visibility: 0.9985244274139404
","x: 225.88124084472656
y: 216.18023681640625
z: -0.2108357697725296
visibility: 0.9985631704330444
","x: 234.80259704589844
y: 226.3577423095703
z: -0.08200225234031677
visibility: 0.9964668154716492
","x: 223.00552368164062
y: 218.9266357421875
z: -0.11846909672021866
visibility: 0.9970033764839172
","x: 231.83985900878906
y: 231.9618377685547
z: -0.18005645275115967
visibility: 0.9993820190429688
","x: 226.6142120361328
y: 230.21812438964844
z: -0.19054913520812988
visibility: 0.999339759349823
","x: 240.99354553222656
y: 267.5976867675781
z: -0.0005314063164405525
visibility: 0.9997566938400269
","x: 204.6350555419922
y: 257.55712890625
z: -0.06296257674694061
visibility: 0.9995924234390259
","x: 251.20582580566406
y: 309.50787353515625
z: 0.044513653963804245
visibility: 0.8421821594238281
","x: 195.30043029785156
y: 295.13531494140625
z: -0.1423838585615158
visibility: 0.937265157699585
","x: 265.8392028808594
y: 337.85589599609375
z: -0.061277229338884354
visibility: 0.8129100799560547
","x: 202.8826904296875
y: 315.94775390625
z: -0.3182618021965027
visibility: 0.8812792897224426
","x: 271.3863830566406
y: 345.1095886230469
z: -0.08682455122470856
visibility: 0.7873371243476868
","x: 204.57484436035156
y: 325.3243713378906
z: -0.35879331827163696
visibility: 0.8416827917098999
","x: 271.336181640625
y: 343.96160888671875
z: -0.11809603124856949
visibility: 0.801457405090332
","x: 207.05442810058594
y: 320.2014465332031
z: -0.37607434391975403
visibility: 0.8499626517295837
","x: 268.8755187988281
y: 342.6947326660156
z: -0.07679709792137146
visibility: 0.775235652923584
","x: 207.70042419433594
y: 316.0872497558594
z: -0.32862144708633423
visibility: 0.8346191048622131
","x: 228.34078979492188
y: 361.6956787109375
z: -0.0007402877090498805
visibility: 0.9995637536048889
","x: 209.22366333007812
y: 358.6334533691406
z: 0.0008603226160630584
visibility: 0.9994920492172241
","x: 217.13539123535156
y: 423.94964599609375
z: -0.10389669239521027
visibility: 0.9877405166625977
","x: 215.662841796875
y: 429.5936279296875
z: 0.006323742680251598
visibility: 0.9653668403625488
","x: 198.3365020751953
y: 489.56439208984375
z: -0.016967661678791046
visibility: 0.9817419648170471
","x: 225.18585205078125
y: 496.5854187011719
z: 0.16385601460933685
visibility: 0.8143187761306763
","x: 194.35498046875
y: 499.7287292480469
z: -0.01501483004540205
visibility: 0.8717034459114075
","x: 228.26792907714844
y: 506.90228271484375
z: 0.17248155176639557
visibility: 0.6449639797210693
","x: 199.0814666748047
y: 517.7875366210938
z: -0.14067897200584412
visibility: 0.9800053834915161
","x: 220.50262451171875
y: 518.6921997070312
z: 0.05786026641726494
visibility: 0.8548921942710876
","x: 200.6011199951172
y: 319.60406494140625
z: 0.0
","x: 203.23374938964844
y: 318.6460266113281
z: -0.0002696538285817951
","x: 205.83811950683594
y: 317.1748962402344
z: -0.0023259406443685293
","x: 208.30007934570312
y: 316.203125
z: -0.004513154271990061
","x: 210.510009765625
y: 314.9019775390625
z: -0.0068967281840741634
","x: 202.2997589111328
y: 314.10760498046875
z: -0.008483760990202427
","x: 203.30516052246094
y: 316.2314758300781
z: -0.01144375465810299
","x: 203.86166381835938
y: 319.3846435546875
z: -0.012248238548636436
","x: 204.21603393554688
y: 322.0691223144531
z: -0.012639862485229969
","x: 199.54660034179688
y: 315.17352294921875
z: -0.010244065895676613
","x: 199.820068359375
y: 319.2997741699219
z: -0.013145885430276394
","x: 200.16372680664062
y: 323.2357482910156
z: -0.012824672274291515
","x: 200.3400115966797
y: 327.0181579589844
z: -0.012899305671453476
","x: 197.33262634277344
y: 316.8638916015625
z: -0.011218052357435226
","x: 196.9474639892578
y: 320.5822448730469
z: -0.013670574873685837
","x: 197.2278594970703
y: 323.9300537109375
z: -0.0124241653829813
","x: 197.2973175048828
y: 326.9564208984375
z: -0.011819341219961643
","x: 195.5520477294922
y: 318.9871826171875
z: -0.012106219306588173
","x: 194.19175720214844
y: 320.8444519042969
z: -0.013687970116734505
","x: 193.85470581054688
y: 322.66094970703125
z: -0.012916984967887402
","x: 193.4767608642578
y: 324.4468688964844
z: -0.012449298985302448
",,,,,,,,,,,,,,,,,,,,,
17,"x: 230.26470947265625
y: 224.5370330810547
z: -0.22573304176330566
visibility: 0.9996164441108704
","x: 232.45701599121094
y: 220.35194396972656
z: -0.2039509266614914
visibility: 0.9988678097724915
","x: 233.4851837158203
y: 221.13430786132812
z: -0.2039642632007599
visibility: 0.9988323450088501
","x: 234.39480590820312
y: 221.91221618652344
z: -0.203962042927742
visibility: 0.9988011121749878
","x: 228.6924591064453
y: 217.63059997558594
z: -0.21079006791114807
visibility: 0.9986806511878967
","x: 227.25009155273438
y: 216.80564880371094
z: -0.2108084261417389
visibility: 0.9985244274139404
","x: 225.88124084472656
y: 216.18023681640625
z: -0.2108357697725296
visibility: 0.9985631704330444
","x: 234.80259704589844
y: 226.3577423095703
z: -0.08200225234031677
visibility: 0.9964668154716492
","x: 223.00552368164062
y: 218.9266357421875
z: -0.11846909672021866
visibility: 0.9970033764839172
","x: 231.83985900878906
y: 231.9618377685547
z: -0.18005645275115967
visibility: 0.9993820190429688
","x: 226.6142120361328
y: 230.21812438964844
z: -0.19054913520812988
visibility: 0.999339759349823
","x: 240.99354553222656
y: 267.5976867675781
z: -0.0005314063164405525
visibility: 0.9997566938400269
","x: 204.6350555419922
y: 257.55712890625
z: -0.06296257674694061
visibility: 0.9995924234390259
","x: 251.20582580566406
y: 309.50787353515625
z: 0.044513653963804245
visibility: 0.8421821594238281
","x: 195.30043029785156
y: 295.13531494140625
z: -0.1423838585615158
visibility: 0.937265157699585
","x: 265.8392028808594
y: 337.85589599609375
z: -0.061277229338884354
visibility: 0.8129100799560547
","x: 202.8826904296875
y: 315.94775390625
z: -0.3182618021965027
visibility: 0.8812792897224426
","x: 271.3863830566406
y: 345.1095886230469
z: -0.08682455122470856
visibility: 0.7873371243476868
","x: 204.57484436035156
y: 325.3243713378906
z: -0.35879331827163696
visibility: 0.8416827917098999
","x: 271.336181640625
y: 343.96160888671875
z: -0.11809603124856949
visibility: 0.801457405090332
","x: 207.05442810058594
y: 320.2014465332031
z: -0.37607434391975403
visibility: 0.8499626517295837
","x: 268.8755187988281
y: 342.6947326660156
z: -0.07679709792137146
visibility: 0.775235652923584
","x: 207.70042419433594
y: 316.0872497558594
z: -0.32862144708633423
visibility: 0.8346191048622131
","x: 228.34078979492188
y: 361.6956787109375
z: -0.0007402877090498805
visibility: 0.9995637536048889
","x: 209.22366333007812
y: 358.6334533691406
z: 0.0008603226160630584
visibility: 0.9994920492172241
","x: 217.13539123535156
y: 423.94964599609375
z: -0.10389669239521027
visibility: 0.9877405166625977
","x: 215.662841796875
y: 429.5936279296875
z: 0.006323742680251598
visibility: 0.9653668403625488
","x: 198.3365020751953
y: 489.56439208984375
z: -0.016967661678791046
visibility: 0.9817419648170471
","x: 225.18585205078125
y: 496.5854187011719
z: 0.16385601460933685
visibility: 0.8143187761306763
","x: 194.35498046875
y: 499.7287292480469
z: -0.01501483004540205
visibility: 0.8717034459114075
","x: 228.26792907714844
y: 506.90228271484375
z: 0.17248155176639557
visibility: 0.6449639797210693
","x: 199.0814666748047
y: 517.7875366210938
z: -0.14067897200584412
visibility: 0.9800053834915161
","x: 220.50262451171875
y: 518.6921997070312
z: 0.05786026641726494
visibility: 0.8548921942710876
","x: 200.6011199951172
y: 319.60406494140625
z: 0.0
","x: 203.23374938964844
y: 318.6460266113281
z: -0.0002696538285817951
","x: 205.83811950683594
y: 317.1748962402344
z: -0.0023259406443685293
","x: 208.30007934570312
y: 316.203125
z: -0.004513154271990061
","x: 210.510009765625
y: 314.9019775390625
z: -0.0068967281840741634
","x: 202.2997589111328
y: 314.10760498046875
z: -0.008483760990202427
","x: 203.30516052246094
y: 316.2314758300781
z: -0.01144375465810299
","x: 203.86166381835938
y: 319.3846435546875
z: -0.012248238548636436
","x: 204.21603393554688
y: 322.0691223144531
z: -0.012639862485229969
","x: 199.54660034179688
y: 315.17352294921875
z: -0.010244065895676613
","x: 199.820068359375
y: 319.2997741699219
z: -0.013145885430276394
","x: 200.16372680664062
y: 323.2357482910156
z: -0.012824672274291515
","x: 200.3400115966797
y: 327.0181579589844
z: -0.012899305671453476
","x: 197.33262634277344
y: 316.8638916015625
z: -0.011218052357435226
","x: 196.9474639892578
y: 320.5822448730469
z: -0.013670574873685837
","x: 197.2278594970703
y: 323.9300537109375
z: -0.0124241653829813
","x: 197.2973175048828
y: 326.9564208984375
z: -0.011819341219961643
","x: 195.5520477294922
y: 318.9871826171875
z: -0.012106219306588173
","x: 194.19175720214844
y: 320.8444519042969
z: -0.013687970116734505
","x: 193.85470581054688
y: 322.66094970703125
z: -0.012916984967887402
","x: 193.4767608642578
y: 324.4468688964844
z: -0.012449298985302448
",,,,,,,,,,,,,,,,,,,,,
18,"x: 224.5867156982422
y: 223.53939819335938
z: -0.23540112376213074
visibility: 0.9996546506881714
","x: 227.64999389648438
y: 219.68626403808594
z: -0.21826498210430145
visibility: 0.9989804625511169
","x: 228.9722137451172
y: 220.710205078125
z: -0.21828818321228027
visibility: 0.9989485144615173
","x: 230.17103576660156
y: 221.6529541015625
z: -0.21829600632190704
visibility: 0.9989204406738281
","x: 223.77880859375
y: 216.46669006347656
z: -0.22352194786071777
visibility: 0.9988117814064026
","x: 222.4956512451172
y: 215.579345703125
z: -0.22353819012641907
visibility: 0.9986710548400879
","x: 221.30020141601562
y: 214.86563110351562
z: -0.22357359528541565
visibility: 0.9987059235572815
","x: 231.19908142089844
y: 226.11878967285156
z: -0.1007913202047348
visibility: 0.996819019317627
","x: 219.3334197998047
y: 218.09715270996094
z: -0.11406981945037842
visibility: 0.9973007440567017
","x: 225.9235076904297
y: 231.48985290527344
z: -0.19204053282737732
visibility: 0.9994435906410217
","x: 221.1235809326172
y: 229.5205535888672
z: -0.2033499926328659
visibility: 0.9994053244590759
","x: 237.79612731933594
y: 268.92987060546875
z: -0.03078611195087433
visibility: 0.9997799396514893
","x: 200.49929809570312
y: 257.667724609375
z: -0.03928996995091438
visibility: 0.9996222257614136
","x: 249.01690673828125
y: 310.1519470214844
z: -0.004524971824139357
visibility: 0.8565552830696106
","x: 192.42401123046875
y: 295.3835144042969
z: -0.06293504685163498
visibility: 0.9404835104942322
","x: 260.67840576171875
y: 345.3393859863281
z: -0.12563404440879822
visibility: 0.8293280601501465
","x: 193.62908935546875
y: 326.1670227050781
z: -0.2240610122680664
visibility: 0.890649139881134
","x: 264.2716064453125
y: 358.43731689453125
z: -0.15129703283309937
visibility: 0.8038378953933716
","x: 192.04296875
y: 336.2544250488281
z: -0.2567025125026703
visibility: 0.8531523942947388
","x: 263.5375061035156
y: 358.7353820800781
z: -0.18378999829292297
visibility: 0.8171064257621765
","x: 194.4949493408203
y: 335.47991943359375
z: -0.27535855770111084
visibility: 0.8609063625335693
","x: 262.1603088378906
y: 354.32415771484375
z: -0.1405007541179657
visibility: 0.7920650839805603
","x: 196.1205291748047
y: 332.5022888183594
z: -0.2341872751712799
visibility: 0.8454384207725525
","x: 224.87017822265625
y: 365.4217224121094
z: -0.004041983745992184
visibility: 0.9996063709259033
","x: 203.85723876953125
y: 361.29583740234375
z: 0.0040504178032279015
visibility: 0.9995394349098206
","x: 214.76214599609375
y: 423.3699035644531
z: -0.2665032148361206
visibility: 0.9883460998535156
","x: 207.44781494140625
y: 432.6357421875
z: 0.0020385088864713907
visibility: 0.9666422605514526
","x: 197.6427001953125
y: 491.6017150878906
z: -0.16854074597358704
visibility: 0.9832419753074646
","x: 221.760498046875
y: 493.4892272949219
z: 0.17863969504833221
visibility: 0.8314112424850464
","x: 192.0062255859375
y: 502.30767822265625
z: -0.1647515594959259
visibility: 0.8820839524269104
","x: 227.3511505126953
y: 502.25152587890625
z: 0.19362449645996094
visibility: 0.6750046014785767
","x: 197.55023193359375
y: 521.1756591796875
z: -0.3063473403453827
visibility: 0.9816315770149231
","x: 219.91419982910156
y: 518.1312255859375
z: 0.09789992868900299
visibility: 0.8678431510925293
","x: 188.65731811523438
y: 332.393310546875
z: 0.0
","x: 191.80967712402344
y: 334.329833984375
z: -0.0020897514186799526
","x: 194.1025848388672
y: 337.5716857910156
z: -0.0033464764710515738
","x: 195.32041931152344
y: 340.5939025878906
z: -0.004511973354965448
","x: 195.8458251953125
y: 342.69622802734375
z: -0.005514146760106087
","x: 190.02001953125
y: 344.6376953125
z: -0.001739949220791459
","x: 189.76058959960938
y: 350.2159423828125
z: -0.0027111931703984737
","x: 189.77932739257812
y: 353.223876953125
z: -0.0026851429138332605
","x: 189.80999755859375
y: 355.3897399902344
z: -0.002449348568916321
","x: 187.78054809570312
y: 345.6100158691406
z: -0.0017880680970847607
","x: 187.56361389160156
y: 352.449462890625
z: -0.002234428422525525
","x: 187.74295043945312
y: 356.3414306640625
z: -0.0020603216253221035
","x: 188.0736083984375
y: 359.2910461425781
z: -0.0020559735130518675
","x: 185.8185577392578
y: 345.5774230957031
z: -0.0021164182107895613
