uscmakers/ReverseChoreography/data/9_woman_doja_cat.csv
,NOSE,LEFT_EYE_INNER,LEFT_EYE,LEFT_EYE_OUTER,RIGHT_EYE_INNER,RIGHT_EYE,RIGHT_EYE_OUTER,LEFT_EAR,RIGHT_EAR,MOUTH_LEFT,MOUTH_RIGHT,LEFT_SHOULDER,RIGHT_SHOULDER,LEFT_ELBOW,RIGHT_ELBOW,LEFT_WRIST,RIGHT_WRIST,LEFT_PINKY,RIGHT_PINKY,LEFT_INDEX,RIGHT_INDEX,LEFT_THUMB,RIGHT_THUMB,LEFT_HIP,RIGHT_HIP,LEFT_KNEE,RIGHT_KNEE,LEFT_ANKLE,RIGHT_ANKLE,LEFT_HEEL,RIGHT_HEEL,LEFT_FOOT_INDEX,RIGHT_FOOT_INDEX,WRIST,THUMB_CPC,THUMB_MCP,THUMB_IP,THUMB_TIP,INDEX_FINGER_MCP,INDEX_FINGER_PIP,INDEX_FINGER_DIP,INDEX_FINGER_TIP,MIDDLE_FINGER_MCP,MIDDLE_FINGER_PIP,MIDDLE_FINGER_DIP,MIDDLE_FINGER_TIP,RING_FINGER_PIP,RING_FINGER_DIP,RING_FINGER_TIP,RING_FINGER_MCP,PINKY_MCP,PINKY_PIP,PINKY_DIP,PINKY_TIP,WRIST2,THUMB_CPC2,THUMB_MCP2,THUMB_IP2,THUMB_TIP2,INDEX_FINGER_MCP2,INDEX_FINGER_PIP2,INDEX_FINGER_DIP2,INDEX_FINGER_TIP2,MIDDLE_FINGER_MCP2,MIDDLE_FINGER_PIP2,MIDDLE_FINGER_DIP2,MIDDLE_FINGER_TIP2,RING_FINGER_PIP2,RING_FINGER_DIP2,RING_FINGER_TIP2,RING_FINGER_MCP2,PINKY_MCP2,PINKY_PIP2,PINKY_DIP2,PINKY_TIP2
0,"x: 297.4975280761719
y: 206.7230224609375
z: -0.2571684420108795
visibility: 0.9999816417694092
","x: 300.2131652832031
y: 199.72799682617188
z: -0.25086894631385803
visibility: 0.9999191761016846
","x: 301.6551818847656
y: 199.626953125
z: -0.2509228587150574
visibility: 0.9999432563781738
","x: 303.2342529296875
y: 199.56617736816406
z: -0.2509602904319763
visibility: 0.9999514818191528
","x: 297.0594177246094
y: 199.5220947265625
z: -0.24124841392040253
visibility: 0.9998621940612793
","x: 296.3253173828125
y: 199.2716827392578
z: -0.24121889472007751
visibility: 0.999836802482605
","x: 295.5792236328125
y: 198.9855194091797
z: -0.24122385680675507
visibility: 0.9997883439064026
","x: 307.09674072265625
y: 201.48834228515625
z: -0.179999440908432
visibility: 0.9999505281448364
","x: 296.70184326171875
y: 200.3119659423828
z: -0.13198962807655334
visibility: 0.9995149374008179
","x: 300.5776062011719
y: 213.29815673828125
z: -0.22832217812538147
visibility: 0.999980092048645
","x: 296.33001708984375
y: 213.1544647216797
z: -0.21477916836738586
visibility: 0.9999417066574097
","x: 323.1637878417969
y: 245.2930450439453
z: -0.14296472072601318
visibility: 0.9999971389770508
","x: 288.8993225097656
y: 251.08203125
z: -0.028596261516213417
visibility: 0.9998138546943665
","x: 333.46575927734375
y: 298.26336669921875
z: -0.1467248499393463
visibility: 0.9965754151344299
","x: 285.4820861816406
y: 307.5304260253906
z: 0.04013634845614433
visibility: 0.5422254800796509
","x: 344.1854248046875
y: 339.4742431640625
z: -0.24983815848827362
visibility: 0.9920390844345093
","x: 278.58441162109375
y: 354.6451110839844
z: -0.036009177565574646
visibility: 0.7013905048370361
","x: 349.07073974609375
y: 356.2049560546875
z: -0.2793668806552887
visibility: 0.9820721745491028
","x: 275.6079406738281
y: 369.84002685546875
z: -0.05621091648936272
visibility: 0.6410647630691528
","x: 348.1442565917969
y: 355.9971618652344
z: -0.3099554479122162
visibility: 0.9835888147354126
","x: 275.4786682128906
y: 368.8567810058594
z: -0.0954739898443222
visibility: 0.6644006371498108
","x: 345.2012023925781
y: 349.1140441894531
z: -0.2632695734500885
visibility: 0.9757528901100159
","x: 277.712890625
y: 364.63726806640625
z: -0.05499681830406189
visibility: 0.6445674300193787
","x: 316.8852233886719
y: 355.60833740234375
z: -0.031025689095258713
visibility: 0.9998953342437744
","x: 293.139404296875
y: 357.51593017578125
z: 0.030979935079813004
visibility: 0.9997827410697937
","x: 333.4687805175781
y: 431.4957275390625
z: -0.06856086850166321
visibility: 0.9993066787719727
","x: 282.3100891113281
y: 434.4232177734375
z: 0.016499580815434456
visibility: 0.9988962411880493
","x: 352.8607482910156
y: 504.2947692871094
z: 0.06367740035057068
visibility: 0.9994377493858337
","x: 291.1520690917969
y: 504.02978515625
z: 0.20557570457458496
visibility: 0.9986739158630371
","x: 356.8316345214844
y: 514.5054321289062
z: 0.0679716020822525
visibility: 0.927518904209137
","x: 297.1434631347656
y: 512.5426635742188
z: 0.21700318157672882
visibility: 0.9713470935821533
","x: 339.1965637207031
y: 528.2935180664062
z: -0.07985999435186386
visibility: 0.9982216954231262
","x: 288.7384033203125
y: 530.3786010742188
z: 0.11124841123819351
visibility: 0.9975391626358032
",,,,,,,,,,,,,,,,,,,,,,,,,,,,,,,,,,,,,,,,,,
1,"x: 297.6158142089844
y: 205.25738525390625
z: -0.31453049182891846
visibility: 0.9999821782112122
","x: 300.3768005371094
y: 198.87356567382812
z: -0.29629087448120117
visibility: 0.9999237060546875
","x: 301.87060546875
y: 199.09788513183594
z: -0.2963358163833618
visibility: 0.9999457597732544
","x: 303.3798522949219
y: 199.2799072265625
z: -0.2963979244232178
visibility: 0.9999532699584961
","x: 296.97430419921875
y: 197.79989624023438
z: -0.2977869212627411
visibility: 0.9998713731765747
","x: 295.9466247558594
y: 197.41339111328125
z: -0.2978218197822571
visibility: 0.9998475909233093
","x: 294.8273620605469
y: 197.06201171875
z: -0.29783523082733154
visibility: 0.9998021125793457
","x: 306.2625732421875
y: 201.4787139892578
z: -0.1834561675786972
visibility: 0.9999518990516663
","x: 293.2408752441406
y: 198.97808837890625
z: -0.19060245156288147
visibility: 0.9995479583740234
","x: 300.47857666015625
y: 212.3121337890625
z: -0.271355003118515
visibility: 0.9999800324440002
","x: 295.9417419433594
y: 211.3388214111328
z: -0.2741100490093231
visibility: 0.9999428987503052
","x: 318.2019958496094
y: 247.5717010498047
z: -0.12011964619159698
visibility: 0.9999945759773254
","x: 277.1135559082031
y: 247.47125244140625
z: -0.1102227196097374
visibility: 0.999801754951477
","x: 328.27996826171875
y: 300.54559326171875
z: -0.10285649448633194
visibility: 0.9958426356315613
","x: 268.3624572753906
y: 295.5965881347656
z: -0.16085673868656158
visibility: 0.5771650075912476
","x: 344.0379638671875
y: 340.3851623535156
z: -0.21918630599975586
visibility: 0.990075945854187
","x: 266.9615478515625
y: 324.6829833984375
z: -0.33650779724121094
visibility: 0.712509036064148
","x: 349.0584411621094
y: 356.4497375488281
z: -0.24732275307178497
visibility: 0.9784542322158813
","x: 266.387451171875
y: 337.5349426269531
z: -0.37108099460601807
visibility: 0.6515921950340271
","x: 348.249267578125
y: 356.03985595703125
z: -0.28265026211738586
visibility: 0.980652928352356
","x: 268.18017578125
y: 333.14886474609375
z: -0.39633890986442566
visibility: 0.6747123003005981
","x: 345.5275573730469
y: 349.63238525390625
z: -0.2355334460735321
visibility: 0.9724894165992737
","x: 269.84869384765625
y: 330.54998779296875
z: -0.35089483857154846
visibility: 0.6531520485877991
","x: 309.470458984375
y: 355.1847839355469
z: -0.015709225088357925
visibility: 0.9998779296875
","x: 287.4080810546875
y: 357.00823974609375
z: 0.015712978318333626
visibility: 0.9997309446334839
","x: 307.4327697753906
y: 430.5675048828125
z: -0.17910774052143097
visibility: 0.9981526136398315
","x: 286.41552734375
y: 434.6882629394531
z: 0.02267085760831833
visibility: 0.992518424987793
","x: 306.9908447265625
y: 507.1627502441406
z: -0.13891221582889557
visibility: 0.9984113574028015
","x: 293.86468505859375
y: 506.1595458984375
z: 0.1428455114364624
visibility: 0.9936000108718872
","x: 308.77783203125
y: 521.0721435546875
z: -0.1434800773859024
visibility: 0.9193589091300964
","x: 298.3949890136719
y: 518.8858642578125
z: 0.14510299265384674
visibility: 0.9544360041618347
","x: 302.358642578125
y: 528.1653442382812
z: -0.2954840362071991
visibility: 0.996908962726593
","x: 288.7284851074219
y: 530.1039428710938
z: 0.022677931934595108
visibility: 0.9924202561378479
",,,,,,,,,,,,,,,,,,,,,,,,,,,,,,,,,,,,,,,,,,
2,"x: 298.72259521484375
y: 205.02322387695312
z: -0.30639082193374634
visibility: 0.9999820590019226
","x: 301.3022766113281
y: 198.63279724121094
z: -0.2886579632759094
visibility: 0.9999265074729919
","x: 302.55865478515625
y: 198.9175262451172
z: -0.28868532180786133
visibility: 0.999946117401123
","x: 303.7783203125
y: 199.14483642578125
z: -0.288735568523407
visibility: 0.9999528527259827
","x: 297.7062683105469
y: 197.2372589111328
z: -0.2950323224067688
visibility: 0.9998798966407776
","x: 296.3635559082031
y: 196.6884002685547
z: -0.29508084058761597
visibility: 0.999858021736145
","x: 295.00787353515625
y: 196.1820068359375
z: -0.2951211929321289
visibility: 0.9998155832290649
","x: 305.6554260253906
y: 201.21168518066406
z: -0.17254295945167542
visibility: 0.9999510049819946
","x: 292.6903076171875
y: 197.66748046875
z: -0.20449550449848175
visibility: 0.9995816349983215
","x: 300.544921875
y: 212.2447967529297
z: -0.26115554571151733
visibility: 0.9999774694442749
","x: 295.94671630859375
y: 211.08763122558594
z: -0.27042490243911743
visibility: 0.9999414682388306
","x: 315.6977844238281
y: 246.98831176757812
z: -0.08151020854711533
visibility: 0.9999879002571106
","x: 275.0686340332031
y: 242.86764526367188
z: -0.13760307431221008
visibility: 0.9997929334640503
","x: 327.03106689453125
y: 300.58355712890625
z: -0.03601410612463951
visibility: 0.9949806928634644
","x: 268.926025390625
y: 287.71075439453125
z: -0.25074344873428345
visibility: 0.6153814792633057
","x: 343.9936218261719
y: 339.7322082519531
z: -0.12447719275951385
visibility: 0.9897717833518982
","x: 269.76678466796875
y: 293.5610046386719
z: -0.46788421273231506
visibility: 0.7381256818771362
","x: 349.19012451171875
y: 356.20770263671875
z: -0.1433253437280655
visibility: 0.9777244329452515
","x: 271.3305358886719
y: 302.2156982421875
z: -0.5087859630584717
visibility: 0.6813693046569824
","x: 348.5975646972656
y: 355.5588073730469
z: -0.17835098505020142
visibility: 0.9801401495933533
","x: 274.069091796875
y: 292.4316101074219
z: -0.5217402577400208
visibility: 0.7024339437484741
","x: 346.1611633300781
y: 349.20001220703125
z: -0.13972285389900208
visibility: 0.9720480442047119
","x: 273.558837890625
y: 289.6978454589844
z: -0.4771226942539215
visibility: 0.6801755428314209
","x: 308.64068603515625
y: 353.22650146484375
z: -0.004743395373225212
visibility: 0.9998474717140198
","x: 287.06365966796875
y: 354.85906982421875
z: 0.004770612344145775
visibility: 0.9996763467788696
","x: 306.8365173339844
y: 428.9945068359375
z: -0.16226378083229065
visibility: 0.9971455931663513
","x: 287.6108093261719
y: 434.8282470703125
z: 0.022324321791529655
visibility: 0.9876874089241028
","x: 304.7843933105469
y: 506.9627380371094
z: -0.14930585026741028
visibility: 0.9972026944160461
","x: 295.8443603515625
y: 509.4787292480469
z: 0.0939902514219284
visibility: 0.9901975393295288
","x: 304.43536376953125
y: 521.9268798828125
z: -0.15593749284744263
visibility: 0.9195660948753357
","x: 300.3965148925781
y: 525.9422607421875
z: 0.092140331864357
visibility: 0.9440209865570068
","x: 304.4136962890625
y: 521.9061889648438
z: -0.29509633779525757
visibility: 0.9957956075668335
","x: 288.9713439941406
y: 529.568115234375
z: -0.02669147029519081
visibility: 0.9883270263671875
",,,,,,,,,,,,,,,,,,,,,,,,,,,,,,,,,,,,,,,,,,
3,"x: 300.1778259277344
y: 203.32855224609375
z: -0.19395610690116882
visibility: 0.9999810457229614
","x: 302.3621520996094
y: 196.64451599121094
z: -0.17489425837993622
visibility: 0.9999265074729919
","x: 303.4034118652344
y: 196.90548706054688
z: -0.17489446699619293
visibility: 0.999943196773529
","x: 304.4613037109375
y: 197.06581115722656
z: -0.17490635812282562
visibility: 0.9999486804008484
","x: 298.7347412109375
y: 195.06167602539062
z: -0.18458840250968933
visibility: 0.9998854994773865
","x: 297.1698913574219
y: 194.32525634765625
z: -0.1846253126859665
visibility: 0.9998657703399658
","x: 295.54156494140625
y: 193.6171112060547
z: -0.18464520573616028
visibility: 0.9998270273208618
","x: 305.7049865722656
y: 198.457763671875
z: -0.055802732706069946
visibility: 0.9999446868896484
","x: 292.50250244140625
y: 194.24208068847656
z: -0.10361745208501816
visibility: 0.9996130466461182
","x: 301.4712829589844
y: 210.3182373046875
z: -0.1471223533153534
visibility: 0.9999719858169556
","x: 296.625732421875
y: 209.0225372314453
z: -0.1611972153186798
visibility: 0.9999406337738037
","x: 314.73870849609375
y: 243.03109741210938
z: 0.01857350394129753
visibility: 0.9999829530715942
","x: 275.2192077636719
y: 238.98841857910156
z: -0.059494756162166595
visibility: 0.9997972249984741
","x: 323.3140563964844
y: 297.09710693359375
z: 0.05958452820777893
visibility: 0.992965579032898
","x: 267.7765808105469
y: 284.6789855957031
z: -0.15655674040317535
visibility: 0.6505593061447144
","x: 333.2437744140625
y: 338.758544921875
z: -0.015426983125507832
visibility: 0.9888952970504761
","x: 274.4756774902344
y: 283.1190185546875
z: -0.3614390790462494
visibility: 0.7624781727790833
","x: 338.59210205078125
y: 356.2066650390625
z: -0.03386932611465454
visibility: 0.9759605526924133
","x: 279.5799560546875
y: 285.7078857421875
z: -0.4029892385005951
visibility: 0.7099248170852661
","x: 339.45538330078125
y: 357.10748291015625
z: -0.06485887616872787
visibility: 0.9784833192825317
","x: 281.4119567871094
y: 278.6084289550781
z: -0.4132313132286072
visibility: 0.7289050817489624
","x: 335.9664611816406
y: 351.7491455078125
z: -0.02917785942554474
visibility: 0.9702326655387878
","x: 280.9736022949219
y: 277.5406188964844
z: -0.3693931996822357
visibility: 0.7072063088417053
","x: 310.0302429199219
y: 350.0419921875
z: 0.0009884270839393139
visibility: 0.9998093843460083
","x: 287.9422607421875
y: 353.1147766113281
z: -0.0009050091612152755
visibility: 0.999662458896637
","x: 311.2528076171875
y: 429.0966796875
z: -0.01859677955508232
visibility: 0.9965614080429077
","x: 289.9945983886719
y: 434.8266906738281
z: -0.006796193774789572
visibility: 0.9868373274803162
","x: 309.1347961425781
y: 507.7547607421875
z: 0.07918718457221985
visibility: 0.9963038563728333
","x: 297.31634521484375
y: 510.4945373535156
z: 0.09444787353277206
visibility: 0.9901511669158936
","x: 308.5417175292969
y: 521.495849609375
z: 0.08039359003305435
visibility: 0.9193740487098694
","x: 301.0152587890625
y: 524.6761474609375
z: 0.09628806263208389
visibility: 0.9416531324386597
","x: 309.6769714355469
y: 523.777099609375
z: -0.03671594709157944
visibility: 0.9946893453598022
","x: 289.1572265625
y: 530.5914916992188
z: -0.023623047396540642
visibility: 0.9880844950675964
","x: 277.1776428222656
y: 283.17645263671875
z: 0.0
","x: 277.6414489746094
y: 276.88983154296875
z: -0.0016200897516682744
","x: 279.7523193359375
y: 271.17449951171875
z: -0.0031442546751350164
","x: 282.151123046875
y: 268.8857421875
z: -0.004996617790311575
","x: 284.4954833984375
y: 268.7794189453125
z: -0.00629207631573081
","x: 285.3154602050781
y: 274.59381103515625
z: -0.0017944471910595894
","x: 286.49664306640625
y: 273.53057861328125
z: -0.004530661273747683
","x: 283.8323059082031
y: 274.2722473144531
z: -0.005052908323705196
","x: 281.37738037109375
y: 274.8717956542969
z: -0.004857308696955442
","x: 286.0794677734375
y: 279.1365661621094
z: -0.002612331183627248
","x: 285.21478271484375
y: 278.93829345703125
z: -0.005267448257654905
","x: 281.9735412597656
y: 279.69659423828125
z: -0.004912916105240583
","x: 279.4716796875
y: 280.323974609375
z: -0.004133604001253843
","x: 285.98699951171875
y: 283.59954833984375
z: -0.0038133556954562664
","x: 284.98162841796875
y: 283.0747375488281
z: -0.006472431588917971
","x: 281.9156494140625
y: 283.6011047363281
z: -0.005283172242343426
","x: 279.6815490722656
y: 284.32666015625
z: -0.0038569115567952394
","x: 285.46099853515625
y: 287.9425354003906
z: -0.005347396247088909
","x: 285.14556884765625
y: 287.2124328613281
z: -0.0068181362003088
","x: 282.9736328125
y: 287.42864990234375
z: -0.005919208750128746
","x: 281.2139587402344
y: 288.1010437011719
z: -0.004667466040700674
",,,,,,,,,,,,,,,,,,,,,
4,"x: 300.1778259277344
y: 203.32855224609375
z: -0.19395610690116882
visibility: 0.9999810457229614
","x: 302.3621520996094
y: 196.64451599121094
z: -0.17489425837993622
visibility: 0.9999265074729919
","x: 303.4034118652344
y: 196.90548706054688
z: -0.17489446699619293
visibility: 0.999943196773529
","x: 304.4613037109375
y: 197.06581115722656
z: -0.17490635812282562
visibility: 0.9999486804008484
","x: 298.7347412109375
y: 195.06167602539062
z: -0.18458840250968933
visibility: 0.9998854994773865
","x: 297.1698913574219
y: 194.32525634765625
z: -0.1846253126859665
visibility: 0.9998657703399658
","x: 295.54156494140625
y: 193.6171112060547
z: -0.18464520573616028
visibility: 0.9998270273208618
","x: 305.7049865722656
y: 198.457763671875
z: -0.055802732706069946
visibility: 0.9999446868896484
","x: 292.50250244140625
y: 194.24208068847656
z: -0.10361745208501816
visibility: 0.9996130466461182
","x: 301.4712829589844
y: 210.3182373046875
z: -0.1471223533153534
visibility: 0.9999719858169556
","x: 296.625732421875
y: 209.0225372314453
z: -0.1611972153186798
visibility: 0.9999406337738037
","x: 314.73870849609375
y: 243.03109741210938
z: 0.01857350394129753
visibility: 0.9999829530715942
","x: 275.2192077636719
y: 238.98841857910156
z: -0.059494756162166595
visibility: 0.9997972249984741
","x: 323.3140563964844
y: 297.09710693359375
z: 0.05958452820777893
visibility: 0.992965579032898
","x: 267.7765808105469
y: 284.6789855957031
z: -0.15655674040317535
visibility: 0.6505593061447144
","x: 333.2437744140625
y: 338.758544921875
z: -0.015426983125507832
visibility: 0.9888952970504761
","x: 274.4756774902344
y: 283.1190185546875
z: -0.3614390790462494
visibility: 0.7624781727790833
","x: 338.59210205078125
y: 356.2066650390625
z: -0.03386932611465454
visibility: 0.9759605526924133
","x: 279.5799560546875
y: 285.7078857421875
z: -0.4029892385005951
visibility: 0.7099248170852661
","x: 339.45538330078125
y: 357.10748291015625
z: -0.06485887616872787
visibility: 0.9784833192825317
","x: 281.4119567871094
y: 278.6084289550781
z: -0.4132313132286072
visibility: 0.7289050817489624
","x: 335.9664611816406
y: 351.7491455078125
z: -0.02917785942554474
visibility: 0.9702326655387878
","x: 280.9736022949219
y: 277.5406188964844
z: -0.3693931996822357
visibility: 0.7072063088417053
","x: 310.0302429199219
y: 350.0419921875
z: 0.0009884270839393139
visibility: 0.9998093843460083
","x: 287.9422607421875
y: 353.1147766113281
z: -0.0009050091612152755
visibility: 0.999662458896637
","x: 311.2528076171875
y: 429.0966796875
z: -0.01859677955508232
visibility: 0.9965614080429077
","x: 289.9945983886719
y: 434.8266906738281
z: -0.006796193774789572
visibility: 0.9868373274803162
","x: 309.1347961425781
y: 507.7547607421875
z: 0.07918718457221985
visibility: 0.9963038563728333
","x: 297.31634521484375
y: 510.4945373535156
z: 0.09444787353277206
visibility: 0.9901511669158936
","x: 308.5417175292969
y: 521.495849609375
z: 0.08039359003305435
visibility: 0.9193740487098694
","x: 301.0152587890625
y: 524.6761474609375
z: 0.09628806263208389
visibility: 0.9416531324386597
","x: 309.6769714355469
y: 523.777099609375
z: -0.03671594709157944
visibility: 0.9946893453598022
","x: 289.1572265625
y: 530.5914916992188
z: -0.023623047396540642
visibility: 0.9880844950675964
","x: 277.1776428222656
y: 283.17645263671875
z: 0.0
","x: 277.6414489746094
y: 276.88983154296875
z: -0.0016200897516682744
","x: 279.7523193359375
y: 271.17449951171875
z: -0.0031442546751350164
","x: 282.151123046875
y: 268.8857421875
z: -0.004996617790311575
","x: 284.4954833984375
y: 268.7794189453125
z: -0.00629207631573081
","x: 285.3154602050781
y: 274.59381103515625
z: -0.0017944471910595894
","x: 286.49664306640625
y: 273.53057861328125
z: -0.004530661273747683
","x: 283.8323059082031
y: 274.2722473144531
z: -0.005052908323705196
","x: 281.37738037109375
y: 274.8717956542969
z: -0.004857308696955442
","x: 286.0794677734375
y: 279.1365661621094
z: -0.002612331183627248
","x: 285.21478271484375
y: 278.93829345703125
z: -0.005267448257654905
","x: 281.9735412597656
y: 279.69659423828125
z: -0.004912916105240583
","x: 279.4716796875
y: 280.323974609375
z: -0.004133604001253843
","x: 285.98699951171875
y: 283.59954833984375
z: -0.0038133556954562664
","x: 284.98162841796875
y: 283.0747375488281
z: -0.006472431588917971
","x: 281.9156494140625
y: 283.6011047363281
z: -0.005283172242343426
","x: 279.6815490722656
y: 284.32666015625
z: -0.0038569115567952394
","x: 285.46099853515625
y: 287.9425354003906
z: -0.005347396247088909
","x: 285.14556884765625
y: 287.2124328613281
z: -0.0068181362003088
","x: 282.9736328125
y: 287.42864990234375
z: -0.005919208750128746
","x: 281.2139587402344
y: 288.1010437011719
z: -0.004667466040700674
",,,,,,,,,,,,,,,,,,,,,
5,"x: 302.2110595703125
y: 201.19879150390625
z: -0.2739531397819519
visibility: 0.9999766945838928
","x: 303.9925231933594
y: 193.92425537109375
z: -0.2554306387901306
visibility: 0.9999169707298279
","x: 305.04632568359375
y: 193.95843505859375
z: -0.2553836703300476
visibility: 0.9999289512634277
","x: 306.06451416015625
y: 193.91748046875
z: -0.2553752362728119
visibility: 0.9999322891235352
","x: 300.2872314453125
y: 192.64930725097656
z: -0.2672765552997589
visibility: 0.9998844265937805
","x: 298.62713623046875
y: 191.8903350830078
z: -0.26734796166419983
visibility: 0.9998666048049927
","x: 296.9120178222656
y: 191.1234893798828
z: -0.2673875093460083
visibility: 0.9998330473899841
","x: 306.0314636230469
y: 195.1640625
z: -0.06720855832099915
visibility: 0.9999184608459473
","x: 292.7658996582031
y: 191.9156036376953
z: -0.18330642580986023
visibility: 0.999634861946106
","x: 303.1030578613281
y: 207.54005432128906
z: -0.2213962823152542
visibility: 0.9999606013298035
","x: 298.51361083984375
y: 206.86944580078125
z: -0.2401750087738037
visibility: 0.9999380111694336
","x: 315.18768310546875
y: 241.52127075195312
z: -0.058336466550827026
visibility: 0.9999545216560364
","x: 276.13421630859375
y: 236.3028106689453
z: -0.10593078285455704
visibility: 0.9998041391372681
","x: 321.24578857421875
y: 297.2713623046875
z: -0.013333524577319622
visibility: 0.9840102791786194
","x: 269.0005187988281
y: 283.7432861328125
z: -0.16759632527828217
visibility: 0.6820326447486877
","x: 323.44073486328125
y: 339.21038818359375
z: -0.09038616716861725
visibility: 0.9719246029853821
","x: 276.9676818847656
y: 292.4721984863281
z: -0.34449973702430725
visibility: 0.7812240719795227
","x: 324.7505187988281
y: 357.60546875
z: -0.1112297922372818
visibility: 0.9531346559524536
","x: 282.0169372558594
y: 297.8026123046875
z: -0.3829817473888397
visibility: 0.7309577465057373
","x: 323.0929260253906
y: 357.2235412597656
z: -0.14242719113826752
visibility: 0.9563275575637817
","x: 284.07220458984375
y: 290.299560546875
z: -0.3967578411102295
visibility: 0.7482253313064575
","x: 321.9081726074219
y: 351.6136169433594
z: -0.10394704341888428
visibility: 0.9453144669532776
","x: 283.3139953613281
y: 287.8604431152344
z: -0.35295403003692627
visibility: 0.7258192300796509
","x: 310.8366394042969
y: 344.6998291015625
z: -0.001074931351467967
visibility: 0.9996854066848755
","x: 288.4580993652344
y: 348.4035949707031
z: 0.0011014703195542097
visibility: 0.9996179342269897
","x: 314.33099365234375
y: 426.3589172363281
z: -0.008400918915867805
visibility: 0.9963527917861938
","x: 290.8548583984375
y: 433.57196044921875
z: -0.006445578299462795
visibility: 0.9872325658798218
","x: 315.7299499511719
y: 507.5873107910156
z: 0.10468153655529022
visibility: 0.9959845542907715
","x: 298.18524169921875
y: 510.36761474609375
z: 0.10308146476745605
visibility: 0.9905741214752197
","x: 314.0025939941406
y: 521.3366088867188
z: 0.10714038461446762
visibility: 0.9171376824378967
","x: 301.7340393066406
y: 523.2807006835938
z: 0.10566745698451996
visibility: 0.9405409097671509
","x: 314.4930725097656
y: 525.8106079101562
z: -0.01881859451532364
visibility: 0.9941996932029724
","x: 289.3753662109375
y: 531.4275512695312
z: -0.019174642860889435
visibility: 0.9883543252944946
","x: 285.58465576171875
y: 288.8938903808594
z: 0.0
","x: 284.5342102050781
y: 284.5357666015625
z: -0.00428042933344841
","x: 284.4235534667969
y: 281.98773193359375
z: -0.008851154707372189
","x: 285.13897705078125
y: 282.249267578125
z: -0.012831890024244785
","x: 286.8173522949219
y: 282.6043701171875
z: -0.016542794182896614
","x: 289.3064270019531
y: 288.0753479003906
z: -0.011283821426331997
","x: 283.71026611328125
y: 291.1819152832031
z: -0.015201393514871597
","x: 283.7315673828125
y: 290.2576599121094
z: -0.017105409875512123
","x: 285.0516357421875
y: 289.0163269042969
z: -0.018401820212602615
","x: 290.2947998046875
y: 292.6260070800781
z: -0.011834017932415009
","x: 283.366943359375
y: 295.3128662109375
z: -0.015124008990824223
","x: 284.30548095703125
y: 294.1625061035156
z: -0.0150389289483428
","x: 285.875244140625
y: 293.28546142578125
z: -0.015842074528336525
","x: 289.8044128417969
y: 296.836181640625
z: -0.012101499363780022
","x: 283.6178283691406
y: 298.5538330078125
z: -0.013450401835143566
","x: 284.64471435546875
y: 297.0780029296875
z: -0.012298385612666607
","x: 286.3702697753906
y: 295.9833679199219
z: -0.01257497351616621
","x: 288.61737060546875
y: 300.28948974609375
z: -0.012940309010446072
","x: 284.2579345703125
y: 301.47515869140625
z: -0.013246209360659122
","x: 284.9655456542969
y: 300.2648010253906
z: -0.012857451103627682
","x: 286.5699157714844
y: 299.3546142578125
z: -0.013319473713636398
",,,,,,,,,,,,,,,,,,,,,
6,"x: 302.2110595703125
y: 201.19879150390625
z: -0.2739531397819519
visibility: 0.9999766945838928
","x: 303.9925231933594
y: 193.92425537109375
z: -0.2554306387901306
visibility: 0.9999169707298279
","x: 305.04632568359375
y: 193.95843505859375
z: -0.2553836703300476
visibility: 0.9999289512634277
","x: 306.06451416015625
y: 193.91748046875
z: -0.2553752362728119
visibility: 0.9999322891235352
","x: 300.2872314453125
y: 192.64930725097656
z: -0.2672765552997589
visibility: 0.9998844265937805
","x: 298.62713623046875
y: 191.8903350830078
z: -0.26734796166419983
visibility: 0.9998666048049927
","x: 296.9120178222656
y: 191.1234893798828
z: -0.2673875093460083
visibility: 0.9998330473899841
","x: 306.0314636230469
y: 195.1640625
z: -0.06720855832099915
visibility: 0.9999184608459473
","x: 292.7658996582031
y: 191.9156036376953
z: -0.18330642580986023
visibility: 0.999634861946106
","x: 303.1030578613281
y: 207.54005432128906
z: -0.2213962823152542
visibility: 0.9999606013298035
","x: 298.51361083984375
y: 206.86944580078125
z: -0.2401750087738037
visibility: 0.9999380111694336
","x: 315.18768310546875
y: 241.52127075195312
z: -0.058336466550827026
visibility: 0.9999545216560364
","x: 276.13421630859375
y: 236.3028106689453
z: -0.10593078285455704
visibility: 0.9998041391372681
","x: 321.24578857421875
y: 297.2713623046875
z: -0.013333524577319622
visibility: 0.9840102791786194
","x: 269.0005187988281
y: 283.7432861328125
z: -0.16759632527828217
visibility: 0.6820326447486877
","x: 323.44073486328125
y: 339.21038818359375
z: -0.09038616716861725
visibility: 0.9719246029853821
","x: 276.9676818847656
y: 292.4721984863281
z: -0.34449973702430725
visibility: 0.7812240719795227
","x: 324.7505187988281
y: 357.60546875
z: -0.1112297922372818
visibility: 0.9531346559524536
","x: 282.0169372558594
y: 297.8026123046875
z: -0.3829817473888397
visibility: 0.7309577465057373
","x: 323.0929260253906
y: 357.2235412597656
z: -0.14242719113826752
visibility: 0.9563275575637817
","x: 284.07220458984375
y: 290.299560546875
z: -0.3967578411102295
visibility: 0.7482253313064575
","x: 321.9081726074219
y: 351.6136169433594
z: -0.10394704341888428
visibility: 0.9453144669532776
","x: 283.3139953613281
y: 287.8604431152344
z: -0.35295403003692627
visibility: 0.7258192300796509
","x: 310.8366394042969
y: 344.6998291015625
z: -0.001074931351467967
visibility: 0.9996854066848755
","x: 288.4580993652344
y: 348.4035949707031
z: 0.0011014703195542097
visibility: 0.9996179342269897
","x: 314.33099365234375
y: 426.3589172363281
z: -0.008400918915867805
visibility: 0.9963527917861938
","x: 290.8548583984375
y: 433.57196044921875
z: -0.006445578299462795
visibility: 0.9872325658798218
","x: 315.7299499511719
y: 507.5873107910156
z: 0.10468153655529022
visibility: 0.9959845542907715
","x: 298.18524169921875
y: 510.36761474609375
z: 0.10308146476745605
visibility: 0.9905741214752197
","x: 314.0025939941406
y: 521.3366088867188
z: 0.10714038461446762
visibility: 0.9171376824378967
","x: 301.7340393066406
y: 523.2807006835938
z: 0.10566745698451996
visibility: 0.9405409097671509
","x: 314.4930725097656
y: 525.8106079101562
z: -0.01881859451532364
visibility: 0.9941996932029724
","x: 289.3753662109375
y: 531.4275512695312
z: -0.019174642860889435
visibility: 0.9883543252944946
","x: 285.58465576171875
y: 288.8938903808594
z: 0.0
","x: 284.5342102050781
y: 284.5357666015625
z: -0.00428042933344841
","x: 284.4235534667969
y: 281.98773193359375
z: -0.008851154707372189
","x: 285.13897705078125
y: 282.249267578125
z: -0.012831890024244785
","x: 286.8173522949219
y: 282.6043701171875
z: -0.016542794182896614
","x: 289.3064270019531
y: 288.0753479003906
z: -0.011283821426331997
","x: 283.71026611328125
y: 291.1819152832031
z: -0.015201393514871597
","x: 283.7315673828125
y: 290.2576599121094
z: -0.017105409875512123
","x: 285.0516357421875
y: 289.0163269042969
z: -0.018401820212602615
","x: 290.2947998046875
y: 292.6260070800781
z: -0.011834017932415009
","x: 283.366943359375
y: 295.3128662109375
z: -0.015124008990824223
","x: 284.30548095703125
y: 294.1625061035156
z: -0.0150389289483428
","x: 285.875244140625
y: 293.28546142578125
z: -0.015842074528336525
","x: 289.8044128417969
y: 296.836181640625
z: -0.012101499363780022
","x: 283.6178283691406
y: 298.5538330078125
z: -0.013450401835143566
","x: 284.64471435546875
y: 297.0780029296875
z: -0.012298385612666607
","x: 286.3702697753906
y: 295.9833679199219
z: -0.01257497351616621
","x: 288.61737060546875
y: 300.28948974609375
z: -0.012940309010446072
","x: 284.2579345703125
y: 301.47515869140625
z: -0.013246209360659122
","x: 284.9655456542969
y: 300.2648010253906
z: -0.012857451103627682
","x: 286.5699157714844
y: 299.3546142578125
z: -0.013319473713636398
",,,,,,,,,,,,,,,,,,,,,
7,"x: 302.8026428222656
y: 197.4127197265625
z: -0.2808298170566559
visibility: 0.9999701380729675
","x: 304.90606689453125
y: 190.5313720703125
z: -0.2639976143836975
visibility: 0.999896764755249
","x: 306.13043212890625
y: 190.64576721191406
z: -0.2639811933040619
visibility: 0.9999004602432251
","x: 307.2939758300781
y: 190.76220703125
z: -0.2639838755130768
visibility: 0.9999015927314758
","x: 300.98065185546875
y: 189.50796508789062
z: -0.27055633068084717
visibility: 0.9998757839202881
","x: 299.37567138671875
y: 188.96043395996094
z: -0.2705995440483093
visibility: 0.9998587369918823
","x: 297.7478332519531
y: 188.42559814453125
z: -0.2706421911716461
visibility: 0.9998338222503662
","x: 307.5606384277344
y: 192.9886016845703
z: -0.10906151682138443
visibility: 0.9998599290847778
","x: 293.9460144042969
y: 189.53469848632812
z: -0.17478573322296143
visibility: 0.9996468424797058
","x: 304.0765686035156
y: 203.63589477539062
z: -0.23183421790599823
visibility: 0.999945878982544
","x: 299.336181640625
y: 202.93968200683594
z: -0.242695614695549
visibility: 0.9999356269836426
","x: 315.9936218261719
y: 240.48988342285156
z: -0.06424744427204132
visibility: 0.9998989105224609
","x: 277.54620361328125
y: 234.404541015625
z: -0.08712098747491837
visibility: 0.9998146891593933
","x: 321.0836181640625
y: 297.4296875
z: -0.0018111852696165442
visibility: 0.9639832377433777
","x: 270.8175048828125
y: 283.59814453125
z: -0.1078685075044632
visibility: 0.7080883383750916
","x: 321.5267333984375
y: 338.54547119140625
z: -0.07725182175636292
visibility: 0.9237434267997742
","x: 278.85382080078125
y: 306.8319396972656
z: -0.20588615536689758
visibility: 0.7914581298828125
","x: 326.542724609375
y: 357.56512451171875
z: -0.10016073286533356
visibility: 0.9020276069641113
","x: 281.5983581542969
y: 315.7900390625
z: -0.23951169848442078
visibility: 0.7401861548423767
","x: 325.6833801269531
y: 357.25244140625
z: -0.13370069861412048
visibility: 0.9059149622917175
","x: 283.6927185058594
y: 310.1572265625
z: -0.2619801163673401
visibility: 0.7566516995429993
","x: 323.2301940917969
y: 351.55230712890625
z: -0.09257713705301285
visibility: 0.8938636183738708
","x: 283.7447509765625
y: 307.43408203125
z: -0.21594059467315674
visibility: 0.7337989807128906
","x: 311.27252197265625
y: 344.397705078125
z: -0.004288085736334324
visibility: 0.9995417594909668
","x: 288.7039489746094
y: 347.4786376953125
z: 0.004292788915336132
visibility: 0.9995747804641724
","x: 316.7122802734375
y: 426.5108947753906
z: 0.00018240735516883433
visibility: 0.9963175058364868
","x: 291.7916564941406
y: 433.5965270996094
z: -0.000894186261575669
visibility: 0.9879581332206726
","x: 320.8328857421875
y: 507.5885314941406
z: 0.12762166559696198
visibility: 0.9959707260131836
","x: 298.57086181640625
y: 511.2177734375
z: 0.12477277219295502
visibility: 0.9911551475524902
","x: 319.669921875
y: 520.7005004882812
z: 0.130882129073143
visibility: 0.9118732213973999
","x: 302.20001220703125
y: 523.22900390625
z: 0.12871745228767395
visibility: 0.9411745071411133
","x: 317.6910095214844
y: 529.7010498046875
z: -0.004782876931130886
visibility: 0.9939819574356079
","x: 289.3155822753906
y: 532.38330078125
z: 0.0004197464731987566
visibility: 0.9889187216758728
",,,,,,,,,,,,,,,,,,,,,,,,,,,,,,,,,,,,,,,,,,
8,"x: 305.9487609863281
y: 197.31658935546875
z: -0.33112895488739014
visibility: 0.9999635815620422
","x: 307.82855224609375
y: 190.2548828125
z: -0.3158225119113922
visibility: 0.9998731017112732
","x: 309.0304260253906
y: 190.3549041748047
z: -0.31581825017929077
visibility: 0.9998719692230225
","x: 310.19744873046875
y: 190.46298217773438
z: -0.3158225417137146
visibility: 0.9998708367347717
","x: 303.6887512207031
y: 189.256591796875
z: -0.3220338225364685
visibility: 0.9998612999916077
","x: 302.0393981933594
y: 188.6676025390625
z: -0.32207080721855164
visibility: 0.9998448491096497
","x: 300.40667724609375
y: 188.10549926757812
z: -0.32210856676101685
visibility: 0.9998257756233215
","x: 310.5805358886719
y: 192.70323181152344
z: -0.19459651410579681
visibility: 0.9998074173927307
","x: 297.1837463378906
y: 189.11314392089844
z: -0.22665758430957794
visibility: 0.999642550945282
","x: 307.3236389160156
y: 203.62850952148438
z: -0.2840774655342102
visibility: 0.9999331831932068
","x: 302.6214904785156
y: 202.78994750976562
z: -0.29270321130752563
visibility: 0.9999297857284546
","x: 318.8636474609375
y: 240.6001434326172
z: -0.10224352777004242
visibility: 0.9998806118965149
","x: 277.7413024902344
y: 234.5592041015625
z: -0.12633737921714783
visibility: 0.9998244047164917
","x: 322.7694396972656
y: 297.47308349609375
z: -0.02970975637435913
visibility: 0.9561181664466858
","x: 271.459228515625
y: 286.5096435546875
z: -0.09374993294477463
visibility: 0.7327922582626343
","x: 325.6009521484375
y: 338.5250549316406
z: -0.10503725707530975
visibility: 0.9033456444740295
","x: 277.7081298828125
y: 326.1312255859375
z: -0.16863569617271423
visibility: 0.802962064743042
","x: 328.6804504394531
y: 357.091064453125
z: -0.12596693634986877
visibility: 0.8765825033187866
","x: 278.50531005859375
y: 342.137451171875
z: -0.19520203769207
visibility: 0.7508440613746643
","x: 327.2783508300781
y: 356.2021179199219
z: -0.16213148832321167
visibility: 0.8812795281410217
","x: 280.5269775390625
y: 340.6170654296875
z: -0.22996637225151062
visibility: 0.7668392658233643
","x: 325.0848083496094
y: 350.968017578125
z: -0.12106041610240936
visibility: 0.8670849800109863
","x: 281.3122863769531
y: 335.3598327636719
z: -0.1837867945432663
visibility: 0.7445896863937378
","x: 312.6181945800781
y: 345.37371826171875
z: -0.00500005017966032
visibility: 0.9994169473648071
","x: 289.3187255859375
y: 346.4855651855469
z: 0.004982389975339174
visibility: 0.9995248913764954
","x: 317.88787841796875
y: 428.0314636230469
z: 0.0024936310946941376
visibility: 0.996350884437561
","x: 292.4681396484375
y: 433.5995788574219
z: 0.0011738463072106242
visibility: 0.988569438457489
","x: 322.5419921875
y: 508.1820983886719
z: 0.1228085309267044
visibility: 0.9959598779678345
","x: 298.65765380859375
y: 511.2566833496094
z: 0.1316758543252945
visibility: 0.9915794134140015
","x: 320.8563537597656
y: 520.4472045898438
z: 0.12484254688024521
visibility: 0.9032523036003113
","x: 302.3425598144531
y: 522.9359130859375
z: 0.1351761519908905
visibility: 0.9404255151748657
","x: 319.12603759765625
y: 531.2923583984375
z: -0.013736220076680183
visibility: 0.993706226348877
","x: 288.8961486816406
y: 532.7427978515625
z: 0.005171417724341154
visibility: 0.9893425107002258
",,,,,,,,,,,,,,,,,,,,,,,,,,,,,,,,,,,,,,,,,,
9,"x: 308.0862121582031
y: 197.07403564453125
z: -0.30368149280548096
visibility: 0.9999658465385437
","x: 310.4230041503906
y: 190.1461944580078
z: -0.28916531801223755
visibility: 0.9998806715011597
","x: 311.7893981933594
y: 190.32498168945312
z: -0.28917792439460754
visibility: 0.9998794198036194
","x: 313.0235595703125
y: 190.52804565429688
z: -0.2891950309276581
visibility: 0.9998785257339478
","x: 305.954833984375
y: 189.16796875
z: -0.292108952999115
visibility: 0.9998694062232971
","x: 304.2906494140625
y: 188.62942504882812
z: -0.2921298146247864
visibility: 0.9998540282249451
","x: 302.5961608886719
y: 188.08885192871094
z: -0.29215216636657715
visibility: 0.9998366236686707
","x: 313.8435363769531
y: 193.0187225341797
z: -0.18763725459575653
visibility: 0.9998185634613037
","x: 300.0965270996094
y: 189.33058166503906
z: -0.1942327916622162
visibility: 0.999664306640625
","x: 309.77191162109375
y: 203.68043518066406
z: -0.2605242431163788
visibility: 0.9999372363090515
","x: 304.8290710449219
y: 202.9586639404297
z: -0.26489371061325073
visibility: 0.9999338984489441
","x: 322.93914794921875
y: 240.7101593017578
z: -0.09624527394771576
visibility: 0.9998897910118103
","x: 282.0720520019531
y: 235.8010711669922
z: -0.10420794785022736
visibility: 0.999834418296814
","x: 329.5978088378906
y: 297.59649658203125
z: -0.031234774738550186
visibility: 0.9587603807449341
","x: 272.1739501953125
y: 286.9884948730469
z: -0.04628266021609306
visibility: 0.7534443736076355
","x: 336.6417541503906
y: 339.8562316894531
z: -0.11548985540866852
visibility: 0.9104579091072083
","x: 270.2551574707031
y: 336.98876953125
z: -0.13501904904842377
visibility: 0.8154431581497192
","x: 342.3555603027344
y: 357.7666931152344
z: -0.13938353955745697
visibility: 0.884117603302002
","x: 267.5080261230469
y: 353.4200744628906
z: -0.16194775700569153
visibility: 0.7642331719398499
","x: 341.3709716796875
y: 357.94488525390625
z: -0.17740853130817413
visibility: 0.8887975215911865
","x: 268.3939208984375
y: 352.8041076660156
z: -0.2034313976764679
visibility: 0.779976487159729
","x: 338.31829833984375
y: 353.51312255859375
z: -0.13272134959697723
visibility: 0.8749896287918091
","x: 270.59912109375
y: 347.21435546875
z: -0.15426528453826904
visibility: 0.7591984272003174
","x: 314.7291564941406
y: 345.59576416015625
z: -0.006594943813979626
visibility: 0.9994334578514099
","x: 291.29052734375
y: 347.42413330078125
z: 0.006582519505172968
visibility: 0.9995330572128296
","x: 319.1763610839844
y: 431.4131164550781
z: -0.005406208802014589
visibility: 0.9964224100112915
","x: 293.87322998046875
y: 434.12677001953125
z: 0.003254813374951482
visibility: 0.9891809821128845
","x: 323.05908203125
y: 508.97723388671875
z: 0.12572862207889557
visibility: 0.9959767460823059
","x: 298.68853759765625
y: 511.4688720703125
z: 0.13605698943138123
visibility: 0.9920189380645752
","x: 321.3159484863281
y: 520.1293334960938
z: 0.1293286383152008
visibility: 0.8994775414466858
","x: 302.3020935058594
y: 522.6876220703125
z: 0.14060242474079132
visibility: 0.9399802684783936
","x: 319.9497375488281
y: 533.2323608398438
z: -0.004679714795202017
visibility: 0.993598222732544
","x: 288.56842041015625
y: 533.55322265625
z: 0.015420785173773766
visibility: 0.9897968769073486
",,,,,,,,,,,,,,,,,,,,,,,,,,,,,,,,,,,,,,,,,,
10,"x: 309.8489685058594
y: 194.86375427246094
z: -0.34623122215270996
visibility: 0.9999688267707825
","x: 312.2748107910156
y: 188.4672393798828
z: -0.3295459747314453
visibility: 0.9998905062675476
","x: 313.816650390625
y: 188.895751953125
z: -0.3295449912548065
visibility: 0.9998893737792969
","x: 315.2256774902344
y: 189.3345489501953
z: -0.3295445442199707
visibility: 0.9998884201049805
","x: 307.524169921875
y: 187.42031860351562
z: -0.3319154977798462
visibility: 0.9998803734779358
","x: 305.808349609375
y: 187.13494873046875
z: -0.33194851875305176
visibility: 0.9998664855957031
","x: 304.1271057128906
y: 186.8992919921875
z: -0.33196672797203064
visibility: 0.9998505711555481
","x: 316.4750061035156
y: 192.87269592285156
z: -0.21978771686553955
visibility: 0.9998327493667603
","x: 302.0872497558594
y: 189.38035583496094
z: -0.23083710670471191
visibility: 0.9996927976608276
","x: 311.8613586425781
y: 202.71475219726562
z: -0.3041171431541443
visibility: 0.999942421913147
","x: 306.49468994140625
y: 201.98004150390625
z: -0.30763018131256104
visibility: 0.9999393224716187
","x: 326.96783447265625
y: 243.0283203125
z: -0.13950714468955994
visibility: 0.9998981952667236
","x: 285.4232482910156
y: 236.17926025390625
z: -0.13735362887382507
visibility: 0.9998469948768616
","x: 338.7825622558594
y: 300.15118408203125
z: -0.08322165161371231
visibility: 0.9621490240097046
","x: 272.2544250488281
y: 290.08563232421875
z: -0.08706348389387131
visibility: 0.7753297090530396
","x: 352.6809997558594
y: 344.0559387207031
z: -0.17719922959804535
visibility: 0.9179672598838806
","x: 268.55999755859375
y: 341.0583801269531
z: -0.16304174065589905
visibility: 0.8306370377540588
","x: 356.1407775878906
y: 360.2218017578125
z: -0.20070353150367737
visibility: 0.8924682140350342
","x: 265.2896423339844
y: 356.4697265625
z: -0.19292595982551575
visibility: 0.7813135981559753
","x: 355.7308044433594
y: 360.5591125488281
z: -0.24230703711509705
visibility: 0.8970698714256287
","x: 267.2477722167969
y: 355.62109375
z: -0.21772150695323944
visibility: 0.7962406277656555
","x: 354.4263916015625
y: 355.9264831542969
z: -0.19617177546024323
visibility: 0.8841695189476013
","x: 269.5272521972656
y: 350.92462158203125
z: -0.17576472461223602
visibility: 0.7768776416778564
","x: 317.8797912597656
y: 347.4219055175781
z: -0.006270526442676783
visibility: 0.9994583129882812
","x: 293.64825439453125
y: 347.5299072265625
z: 0.006204637698829174
visibility: 0.9995536208152771
","x: 320.8486328125
y: 434.0077209472656
z: -0.013198517262935638
visibility: 0.996475875377655
","x: 294.1761779785156
y: 435.2967834472656
z: 0.0034401759039610624
visibility: 0.9898018836975098
","x: 323.0989074707031
y: 510.22198486328125
z: 0.12264660745859146
visibility: 0.9960284233093262
","x: 298.3988037109375
y: 511.4453125
z: 0.13700507581233978
visibility: 0.9924354553222656
","x: 320.97381591796875
y: 520.6146850585938
z: 0.12700000405311584
visibility: 0.8991159796714783
","x: 302.1233825683594
y: 522.4912719726562
z: 0.14228029549121857
visibility: 0.9396315813064575
","x: 320.27801513671875
y: 534.3805541992188
z: -0.004974009469151497
visibility: 0.9936187863349915
","x: 288.416748046875
y: 534.16455078125
z: 0.019571583718061447
visibility: 0.990277111530304
",,,,,,,,,,,,,,,,,,,,,,,,,,,,,,,,,,,,,,,,,,
11,"x: 311.2970275878906
y: 195.41046142578125
z: -0.34975993633270264
visibility: 0.9999712109565735
","x: 313.75006103515625
y: 188.71844482421875
z: -0.33433037996292114
visibility: 0.9998977184295654
","x: 315.2757263183594
y: 189.12396240234375
z: -0.334329754114151
visibility: 0.9998967051506042
","x: 316.6913146972656
y: 189.5509033203125
z: -0.3343416452407837
visibility: 0.9998956322669983
","x: 309.0827941894531
y: 187.67422485351562
z: -0.3365096151828766
visibility: 0.9998889565467834
","x: 307.3782958984375
y: 187.35952758789062
z: -0.33654385805130005
visibility: 0.9998766779899597
","x: 305.73858642578125
y: 187.1092987060547
z: -0.3365621268749237
visibility: 0.9998622536659241
","x: 318.13116455078125
y: 193.08175659179688
z: -0.2242797315120697
visibility: 0.9998424649238586
","x: 303.54144287109375
y: 189.58966064453125
z: -0.2339530736207962
visibility: 0.9997168183326721
","x: 313.263671875
y: 203.16629028320312
z: -0.3071329891681671
visibility: 0.9999463558197021
","x: 308.0234069824219
y: 202.45831298828125
z: -0.310060054063797
visibility: 0.9999436140060425
","x: 329.3599853515625
y: 242.99551391601562
z: -0.1391148567199707
visibility: 0.9999054670333862
","x: 287.548095703125
y: 236.91265869140625
z: -0.13944903016090393
visibility: 0.9998583197593689
","x: 345.5615234375
y: 294.44085693359375
z: -0.08502151817083359
visibility: 0.9648470282554626
","x: 274.8756103515625
y: 291.7034606933594
z: -0.09380874037742615
visibility: 0.7949705719947815
","x: 364.0294494628906
y: 332.8346252441406
z: -0.1815219223499298
visibility: 0.9233424663543701
","x: 268.8338623046875
y: 340.7337951660156
z: -0.16707028448581696
visibility: 0.8437225818634033
","x: 369.79449462890625
y: 345.511962890625
z: -0.2039734572172165
visibility: 0.8970962762832642
","x: 265.1144714355469
y: 356.0323791503906
z: -0.20120735466480255
visibility: 0.7958186864852905
","x: 370.3277587890625
y: 344.8659973144531
z: -0.24492569267749786
visibility: 0.9021252393722534
","x: 266.11712646484375
y: 355.29010009765625
z: -0.23197944462299347
visibility: 0.8101831674575806
","x: 368.11151123046875
y: 340.650146484375
z: -0.20076625049114227
visibility: 0.8898945450782776
","x: 268.4419250488281
y: 350.5311279296875
z: -0.18365906178951263
visibility: 0.7918859124183655
","x: 320.0263671875
y: 347.5
z: -0.006425478495657444
visibility: 0.9994693398475647
","x: 295.2817687988281
y: 347.4972229003906
z: 0.00634185504168272
visibility: 0.9995645880699158
","x: 323.2693176269531
y: 435.4317626953125
z: -0.01929863914847374
visibility: 0.9965682029724121
","x: 293.9278869628906
y: 432.1444091796875
z: -0.018435655161738396
visibility: 0.9905349612236023
","x: 323.4976501464844
y: 510.2873229980469
z: 0.12130562961101532
visibility: 0.9961349368095398
","x: 296.0126953125
y: 510.3603820800781
z: 0.13390108942985535
visibility: 0.9928690195083618
","x: 321.64312744140625
y: 520.409423828125
z: 0.12775889039039612
visibility: 0.8976544141769409
","x: 299.157470703125
y: 520.4981689453125
z: 0.14051540195941925
visibility: 0.9388391971588135
","x: 320.4134521484375
y: 535.048095703125
z: -0.007257597055286169
visibility: 0.9936840534210205
","x: 288.40948486328125
y: 534.1038818359375
z: 0.018413085490465164
visibility: 0.9907508492469788
",,,,,,,,,,,,,,,,,,,,,,,,,,,,,,,,,,,,,,,,,,
12,"x: 310.78924560546875
y: 195.92977905273438
z: -0.3469967544078827
visibility: 0.9999725222587585
","x: 313.24560546875
y: 189.15576171875
z: -0.33280646800994873
visibility: 0.9999006390571594
","x: 314.73529052734375
y: 189.51202392578125
z: -0.33281224966049194
visibility: 0.9999000430107117
","x: 316.128173828125
y: 189.89492797851562
z: -0.33283731341362
visibility: 0.9998993277549744
","x: 308.7859191894531
y: 188.17166137695312
z: -0.33425745368003845
visibility: 0.99989253282547
","x: 307.1730651855469
y: 187.83998107910156
z: -0.33428874611854553
visibility: 0.9998817443847656
","x: 305.6123352050781
y: 187.56019592285156
z: -0.334298312664032
visibility: 0.9998679757118225
","x: 317.55438232421875
y: 193.30221557617188
z: -0.22537937760353088
visibility: 0.999846339225769
","x: 303.1488952636719
y: 189.81138610839844
z: -0.2316230833530426
visibility: 0.9997286796569824
","x: 312.9185485839844
y: 203.48480224609375
z: -0.30514028668403625
visibility: 0.9999485015869141
","x: 307.7837219238281
y: 202.79478454589844
z: -0.3070036470890045
visibility: 0.9999452233314514
","x: 328.98907470703125
y: 242.58604431152344
z: -0.13853392004966736
visibility: 0.9999127984046936
","x: 287.7828063964844
y: 236.97763061523438
z: -0.1308734267950058
visibility: 0.9998651146888733
","x: 348.0679931640625
y: 287.63238525390625
z: -0.08189909160137177
visibility: 0.967582643032074
","x: 275.7135314941406
y: 291.3289794921875
z: -0.07407253980636597
visibility: 0.8120393753051758
","x: 366.131591796875
y: 319.302490234375
z: -0.17996332049369812
visibility: 0.9294278025627136
","x: 268.27288818359375
y: 340.3387756347656
z: -0.13995391130447388
visibility: 0.8528575897216797
","x: 374.739013671875
y: 331.26177978515625
z: -0.20178791880607605
visibility: 0.9036260843276978
","x: 265.3015441894531
y: 354.2132873535156
z: -0.16097842156887054
visibility: 0.8039444088935852
","x: 374.9015808105469
y: 332.1435241699219
z: -0.2430616319179535
visibility: 0.908767580986023
","x: 266.25628662109375
y: 351.256103515625
z: -0.19860610365867615
visibility: 0.8182317018508911
","x: 371.69195556640625
y: 327.7568054199219
z: -0.1990928202867508
visibility: 0.8971154093742371
","x: 268.3731384277344
y: 346.7481689453125
z: -0.15718486905097961
visibility: 0.8007751703262329
","x: 320.5324401855469
y: 347.7134704589844
z: -0.005464281886816025
visibility: 0.9994738698005676
","x: 295.36083984375
y: 347.0369873046875
z: 0.00540187070146203
visibility: 0.9995618462562561
","x: 323.61334228515625
y: 435.3258972167969
z: -0.01770324818789959
visibility: 0.9966467022895813
","x: 290.1651611328125
y: 428.41925048828125
z: -0.016481343656778336
visibility: 0.9912170767784119
","x: 323.3211975097656
y: 510.23193359375
z: 0.12918426096439362
visibility: 0.9962428212165833
","x: 284.2064208984375
y: 508.04693603515625
z: 0.13365748524665833
visibility: 0.9932582974433899
","x: 321.50750732421875
y: 520.3516235351562
z: 0.13538828492164612
visibility: 0.8968796133995056
","x: 286.8053894042969
y: 516.28125
z: 0.14000490307807922
visibility: 0.9363759756088257
","x: 320.1000671386719
y: 535.0866088867188
z: -0.0023034890182316303
visibility: 0.9937723875045776
","x: 280.4247741699219
y: 533.8179931640625
z: 0.013969692401587963
visibility: 0.9911526441574097
",,,,,,,,,,,,,,,,,,,,,,,,,,,,,,,,,,,,,,,,,,
13,"x: 309.48419189453125
y: 196.2190399169922
z: -0.36257150769233704
visibility: 0.9999741315841675
","x: 312.1868896484375
y: 189.40460205078125
z: -0.34703296422958374
visibility: 0.9999057650566101
","x: 313.6189880371094
y: 189.89190673828125
z: -0.34704479575157166
visibility: 0.9999057650566101
","x: 314.9954833984375
y: 190.3799591064453
z: -0.34708693623542786
visibility: 0.9999054074287415
","x: 307.44842529296875
y: 188.29893493652344
z: -0.3497481346130371
visibility: 0.9998972415924072
","x: 305.7174377441406
y: 187.97802734375
z: -0.3497900366783142
visibility: 0.9998879432678223
","x: 304.2054443359375
y: 187.67010498046875
z: -0.34979337453842163
visibility: 0.9998739957809448
","x: 316.42645263671875
y: 194.3829345703125
z: -0.23507793247699738
visibility: 0.9998534917831421
","x: 301.0335998535156
y: 190.5258026123047
z: -0.2476460188627243
visibility: 0.9997392296791077
","x: 312.65142822265625
y: 204.4114532470703
z: -0.31954425573349
visibility: 0.9999518394470215
","x: 306.2149658203125
y: 203.51815795898438
z: -0.32329025864601135
visibility: 0.9999477863311768
","x: 327.171630859375
y: 243.19683837890625
z: -0.1496766358613968
visibility: 0.9999207258224487
","x: 284.5451354980469
y: 239.5022430419922
z: -0.14996138215065002
visibility: 0.9998723268508911
","x: 344.37933349609375
y: 288.0779724121094
z: -0.10571499168872833
visibility: 0.9705407619476318
","x: 271.5404968261719
y: 292.49200439453125
z: -0.09548811614513397
visibility: 0.8288005590438843
","x: 362.833251953125
y: 323.6123046875
z: -0.21368631720542908
visibility: 0.9358308911323547
","x: 260.5826110839844
y: 338.44287109375
z: -0.14073701202869415
visibility: 0.8628489375114441
","x: 369.1244201660156
y: 337.8424377441406
z: -0.23888321220874786
visibility: 0.9112921953201294
","x: 257.0150451660156
y: 351.8913269042969
z: -0.179203063249588
visibility: 0.8141770958900452
","x: 368.8390197753906
y: 338.2208557128906
z: -0.27961641550064087
visibility: 0.9162561893463135
","x: 258.4176025390625
y: 350.1185607910156
z: -0.21996133029460907
visibility: 0.8282175064086914
","x: 366.4275207519531
y: 333.0351257324219
z: -0.23266282677650452
visibility: 0.9053958654403687
","x: 260.4027404785156
y: 345.8740234375
z: -0.17280301451683044
visibility: 0.8114862442016602
","x: 318.76885986328125
y: 349.7750549316406
z: 0.0008606718620285392
visibility: 0.9995066523551941
","x: 293.1115417480469
y: 348.71722412109375
z: -0.000982577446848154
visibility: 0.9995747208595276
","x: 323.5372314453125
y: 435.9202880859375
z: -0.018002517521381378
visibility: 0.9967614412307739
","x: 283.7804260253906
y: 429.0165710449219
z: -0.01313247811049223
visibility: 0.9917281866073608
","x: 323.4415283203125
y: 510.5997314453125
z: 0.13202252984046936
visibility: 0.9963394403457642
","x: 271.8084411621094
y: 507.44244384765625
z: 0.14812979102134705
visibility: 0.9933252930641174
","x: 321.74322509765625
y: 520.4442138671875
z: 0.13893495500087738
visibility: 0.8977202773094177
","x: 272.025390625
y: 515.27734375
z: 0.1568024456501007
visibility: 0.9256149530410767
","x: 320.3759765625
y: 534.783203125
z: 0.001830885885283351
visibility: 0.9937216639518738
","x: 274.2600402832031
y: 533.7723388671875
z: 0.028492283076047897
visibility: 0.9909980893135071
",,,,,,,,,,,,,,,,,,,,,,,,,,,,,,,,,,,,,,,,,,
14,"x: 301.097900390625
y: 200.0875244140625
z: -0.38234907388687134
visibility: 0.9999762177467346
","x: 304.069091796875
y: 192.94854736328125
z: -0.3671935200691223
visibility: 0.9999127984046936
","x: 305.6061706542969
y: 193.39524841308594
z: -0.36717647314071655
visibility: 0.9999130964279175
","x: 307.0419921875
y: 193.81227111816406
z: -0.3671897053718567
visibility: 0.9999127388000488
","x: 299.53924560546875
y: 191.70936584472656
z: -0.3691641688346863
visibility: 0.9999048709869385
","x: 298.04534912109375
y: 191.38430786132812
z: -0.36921149492263794
visibility: 0.9998966455459595
","x: 296.5633239746094
y: 191.17897033691406
z: -0.3692103624343872
visibility: 0.9998835325241089
","x: 308.7622375488281
y: 197.73202514648438
z: -0.2562243938446045
visibility: 0.9998637437820435
","x: 293.8794250488281
y: 195.4106903076172
z: -0.26586484909057617
visibility: 0.9997575283050537
","x: 303.35211181640625
y: 207.69741821289062
z: -0.3397756814956665
visibility: 0.9999557137489319
","x: 297.88763427734375
y: 207.31126403808594
z: -0.34271514415740967
visibility: 0.9999517798423767
","x: 319.3231506347656
y: 248.9559326171875
z: -0.1699507087469101
visibility: 0.9999279379844666
","x: 277.14501953125
y: 243.3388671875
z: -0.16363078355789185
visibility: 0.9998822212219238
","x: 334.6947326660156
y: 295.66259765625
z: -0.13445419073104858
visibility: 0.9732845425605774
","x: 264.8634948730469
y: 297.704833984375
z: -0.11666860431432724
visibility: 0.8449246287345886
","x: 355.7908935546875
y: 337.63873291015625
z: -0.2531704306602478
visibility: 0.9417157769203186
","x: 254.85357666015625
y: 343.9811706542969
z: -0.19179770350456238
visibility: 0.8743104934692383
","x: 359.8645324707031
y: 352.3364562988281
z: -0.28206855058670044
visibility: 0.9184409379959106
","x: 250.67701721191406
y: 358.1530456542969
z: -0.2189714014530182
visibility: 0.8273267149925232
","x: 356.6577453613281
y: 353.7056884765625
z: -0.32188281416893005
visibility: 0.9232031106948853
","x: 251.86697387695312
y: 358.29388427734375
z: -0.2609613537788391
visibility: 0.8406296372413635
","x: 354.89678955078125
y: 348.2876281738281
z: -0.2715885639190674
visibility: 0.9130821228027344
","x: 254.28909301757812
y: 353.9388732910156
z: -0.21291883289813995
visibility: 0.8248463869094849
","x: 312.53472900390625
y: 350.5163269042969
z: 0.0003462455060798675
visibility: 0.999535858631134
","x: 286.5744934082031
y: 350.55499267578125
z: -0.00045350828440859914
visibility: 0.9995909929275513
","x: 320.58404541015625
y: 435.5615234375
z: -0.023301251232624054
visibility: 0.9966868758201599
","x: 279.2598571777344
y: 429.4566650390625
z: -0.010173081420361996
visibility: 0.9919091463088989
","x: 323.56707763671875
y: 510.81170654296875
z: 0.0866490975022316
visibility: 0.9962432384490967
","x: 271.2122497558594
y: 507.6080627441406
z: 0.13209818303585052
visibility: 0.9932001233100891
","x: 322.17401123046875
y: 521.0780639648438
z: 0.08890412747859955
visibility: 0.8947572708129883
","x: 272.47991943359375
y: 515.39306640625
z: 0.13666591048240662
visibility: 0.9166983366012573
","x: 320.7216491699219
y: 534.8848876953125
z: -0.05781152844429016
visibility: 0.9934155344963074
","x: 271.50494384765625
y: 534.1997680664062
z: 0.002133122179657221
visibility: 0.9905604124069214
",,,,,,,,,,,,,,,,,,,,,,,,,,,,,,,,,,,,,,,,,,
15,"x: 292.16558837890625
y: 200.79653930664062
z: -0.357122540473938
visibility: 0.9999772310256958
","x: 294.7822265625
y: 193.7364044189453
z: -0.3457527160644531
visibility: 0.9999175071716309
","x: 296.21038818359375
y: 194.16429138183594
z: -0.3457415699958801
visibility: 0.9999179840087891
","x: 297.5491027832031
y: 194.57086181640625
z: -0.3458239436149597
visibility: 0.9999172687530518
","x: 290.7379455566406
y: 192.55897521972656
z: -0.3553001284599304
visibility: 0.9999094605445862
","x: 289.2694091796875
y: 192.27980041503906
z: -0.3553939759731293
visibility: 0.9999020099639893
","x: 287.7990417480469
y: 192.0891571044922
z: -0.3554668724536896
visibility: 0.999890148639679
","x: 299.3343505859375
y: 198.48764038085938
z: -0.23046211898326874
visibility: 0.9998694658279419
","x: 285.7843017578125
y: 195.80224609375
z: -0.21960672736167908
visibility: 0.9997715950012207
","x: 293.81842041015625
y: 208.1604766845703
z: -0.3184988498687744
visibility: 0.9999581575393677
","x: 289.1800537109375
y: 207.87838745117188
z: -0.33089974522590637
visibility: 0.9999542832374573
","x: 310.374267578125
y: 248.3670196533203
z: -0.1386796236038208
visibility: 0.9999309182167053
","x: 269.8645324707031
y: 243.2176055908203
z: -0.11085653305053711
visibility: 0.9998865127563477
","x: 317.5420227050781
y: 298.0387268066406
z: -0.09187689423561096
visibility: 0.9746679067611694
","x: 258.3970947265625
y: 295.2620544433594
z: -0.038377922028303146
visibility: 0.8581206202507019
","x: 311.8663635253906
y: 337.3074035644531
z: -0.21933713555335999
visibility: 0.9437108635902405
","x: 253.66761779785156
y: 337.3351745605469
z: -0.1308005154132843
visibility: 0.882168710231781
","x: 310.07757568359375
y: 352.0085144042969
z: -0.2765393555164337
visibility: 0.9169505834579468
","x: 251.21412658691406
y: 351.56231689453125
z: -0.15939757227897644
visibility: 0.8355132341384888
","x: 305.9658508300781
y: 349.702880859375
z: -0.28747814893722534
visibility: 0.9218010902404785
","x: 253.42640686035156
y: 352.424560546875
z: -0.19263486564159393
visibility: 0.8482130765914917
","x: 305.5668029785156
y: 344.96295166015625
z: -0.22769415378570557
visibility: 0.9097787141799927
","x: 255.06285095214844
y: 347.1493835449219
z: -0.14633212983608246
visibility: 0.8327232599258423
","x: 301.72314453125
y: 353.0133361816406
z: 0.0008722203783690929
visibility: 0.9995429515838623
","x: 277.3916931152344
y: 352.5976867675781
z: -0.0009974009590223432
visibility: 0.9996020197868347
","x: 311.1772766113281
y: 433.7536926269531
z: -6.11191862844862e-05
visibility: 0.9967623353004456
","x: 272.7458190917969
y: 435.3831787109375
z: -0.009601840749382973
visibility: 0.9924491047859192
","x: 319.6728210449219
y: 510.1882629394531
z: 0.13522855937480927
visibility: 0.9964010119438171
","x: 270.3349304199219
y: 508.9080505371094
z: 0.1368718445301056
visibility: 0.9936073422431946
","x: 317.2361145019531
y: 520.4014892578125
z: 0.14012537896633148
visibility: 0.8990693092346191
","x: 273.0555725097656
y: 517.5831909179688
z: 0.14150705933570862
visibility: 0.9168129563331604
","x: 320.7359924316406
y: 534.770751953125
z: -0.0009826289024204016
visibility: 0.9936274290084839
","x: 270.0369873046875
y: 536.1375732421875
z: 0.00926749687641859
visibility: 0.9909456968307495
",,,,,,,,,,,,,,,,,,,,,,,,,,,,,,,,,,,,,,,,,,
16,"x: 288.3371887207031
y: 201.87884521484375
z: -0.26501527428627014
visibility: 0.9999591112136841
","x: 290.5963134765625
y: 194.54054260253906
z: -0.24943502247333527
visibility: 0.9998796582221985
","x: 292.01458740234375
y: 194.8298797607422
z: -0.2495010644197464
visibility: 0.9998756051063538
","x: 293.4035949707031
y: 195.10250854492188
z: -0.24956092238426208
visibility: 0.999877393245697
","x: 286.62408447265625
y: 193.65145874023438
z: -0.2485051155090332
visibility: 0.9998564720153809
","x: 285.2276306152344
y: 193.39956665039062
z: -0.24851258099079132
visibility: 0.9998376965522766
","x: 283.70550537109375
y: 193.2187042236328
z: -0.24854032695293427
visibility: 0.999837338924408
","x: 295.48577880859375
y: 198.48916625976562
z: -0.1355554163455963
visibility: 0.999807596206665
","x: 281.3797607421875
y: 196.23443603515625
z: -0.1286778748035431
visibility: 0.9996563196182251
","x: 290.1091003417969
y: 208.57806396484375
z: -0.22177204489707947
visibility: 0.9999439716339111
","x: 285.4889831542969
y: 208.42730712890625
z: -0.2208668440580368
visibility: 0.9999386072158813
","x: 306.7256164550781
y: 245.64744567871094
z: -0.07017440348863602
visibility: 0.9999171495437622
","x: 266.6514587402344
y: 241.9645538330078
z: -0.03290587291121483
visibility: 0.9998648166656494
","x: 315.0323181152344
y: 293.3006591796875
z: -0.13941511511802673
visibility: 0.9700418710708618
","x: 253.2548370361328
y: 289.7113342285156
z: -0.044359005987644196
visibility: 0.8670437932014465
","x: 311.2131652832031
y: 289.51788330078125
z: -0.37163877487182617
visibility: 0.9389114379882812
","x: 248.02920532226562
y: 306.0522766113281
z: -0.21881651878356934
visibility: 0.8860087394714355
","x: 309.92645263671875
y: 290.445068359375
z: -0.42203348875045776
visibility: 0.9102457165718079
","x: 245.2810821533203
y: 314.71826171875
z: -0.25982677936553955
visibility: 0.8398115038871765
","x: 308.68109130859375
y: 283.99444580078125
z: -0.43750840425491333
visibility: 0.9153974652290344
","x: 247.22775268554688
y: 312.59967041015625
z: -0.2823708653450012
visibility: 0.8523753881454468
","x: 307.9813232421875
y: 282.53466796875
z: -0.3835689127445221
visibility: 0.9000765085220337
","x: 249.25111389160156
y: 309.396728515625
z: -0.23300102353096008
visibility: 0.8364505767822266
","x: 298.54095458984375
y: 350.4063720703125
z: -0.00036302354419603944
visibility: 0.9995116591453552
","x: 275.18719482421875
y: 349.5377197265625
z: 0.0003336226218380034
visibility: 0.9995644688606262
","x: 301.856689453125
y: 430.14996337890625
z: -0.04451221972703934
visibility: 0.9963537454605103
","x: 270.7693176269531
y: 434.9420166015625
z: -0.023468609899282455
visibility: 0.992425262928009
","x: 302.6490173339844
y: 501.53369140625
z: 0.14853313565254211
visibility: 0.9958456754684448
","x: 271.0406494140625
y: 508.4825439453125
z: 0.13745898008346558
visibility: 0.9935243725776672
","x: 301.40374755859375
y: 507.90582275390625
z: 0.16158375144004822
visibility: 0.8947566747665405
","x: 272.88427734375
y: 516.5131225585938
z: 0.14204402267932892
visibility: 0.9124614596366882
","x: 302.8100280761719
y: 531.7735595703125
z: 0.027337830513715744
visibility: 0.9931125044822693
","x: 271.0954895019531
y: 535.6697387695312
z: 0.008301181718707085
visibility: 0.9906172156333923
",,,,,,,,,,,,,,,,,,,,,,,,,,,,,,,,,,,,,,,,,,
17,"x: 285.3603210449219
y: 204.9202880859375
z: -0.19614842534065247
visibility: 0.9999552965164185
","x: 288.0834045410156
y: 196.94940185546875
z: -0.1792406588792801
visibility: 0.9998716711997986
","x: 289.7178955078125
y: 196.99026489257812
z: -0.1793214976787567
visibility: 0.99986732006073
","x: 291.248779296875
y: 197.05706787109375
z: -0.17934924364089966
visibility: 0.999869167804718
","x: 283.89373779296875
y: 196.51202392578125
z: -0.17861433327198029
visibility: 0.9998460412025452
","x: 282.5599365234375
y: 196.2759246826172
z: -0.17860618233680725
visibility: 0.9998248815536499
","x: 281.21044921875
y: 196.10287475585938
z: -0.17863574624061584
visibility: 0.9998263716697693
","x: 293.6224060058594
y: 199.82113647460938
z: -0.07122749090194702
visibility: 0.9997764825820923
","x: 279.6528015136719
y: 198.8291015625
z: -0.0693453997373581
visibility: 0.9996362924575806
","x: 287.6427001953125
y: 211.03065490722656
z: -0.1558740884065628
visibility: 0.9999367594718933
","x: 282.83465576171875
y: 210.94204711914062
z: -0.15526220202445984
visibility: 0.9999330639839172
","x: 305.2159118652344
y: 246.130615234375
z: -0.014334158971905708
visibility: 0.9999145269393921
","x: 265.76751708984375
y: 244.3375244140625
z: 0.0005783464293926954
visibility: 0.9998658895492554
","x: 312.62078857421875
y: 293.98077392578125
z: -0.08839370310306549
visibility: 0.9578226804733276
","x: 252.66592407226562
y: 290.1565856933594
z: -0.02402212657034397
visibility: 0.8757706880569458
","x: 318.23529052734375
y: 296.8933410644531
z: -0.30103254318237305
visibility: 0.9346414804458618
","x: 245.72793579101562
y: 314.9587707519531
z: -0.21081045269966125
visibility: 0.8904566764831543
","x: 321.4247741699219
y: 299.084716796875
z: -0.34816974401474
visibility: 0.9065113067626953
","x: 242.43055725097656
y: 326.05755615234375
z: -0.23500700294971466
visibility: 0.8447883725166321
","x: 319.86309814453125
y: 294.95220947265625
z: -0.37356308102607727
visibility: 0.9128422141075134
","x: 243.95834350585938
y: 324.5632629394531
z: -0.27190449833869934
visibility: 0.857039213180542
","x: 320.4564208984375
y: 299.22784423828125
z: -0.3175140917301178
visibility: 0.8962627649307251
","x: 245.75428771972656
y: 320.71868896484375
z: -0.22879135608673096
visibility: 0.8415120244026184
","x: 295.69659423828125
y: 350.76214599609375
z: 0.0037035769782960415
visibility: 0.9994726181030273
","x: 273.558837890625
y: 349.059326171875
z: -0.003647405654191971
visibility: 0.9995229840278625
","x: 293.5248718261719
y: 430.11175537109375
z: -0.04087260365486145
visibility: 0.9930609464645386
","x: 272.7001647949219
y: 432.5999450683594
z: -0.04447579011321068
visibility: 0.9911335110664368
","x: 289.2204284667969
y: 502.57403564453125
z: 0.11659083515405655
visibility: 0.9932546615600586
","x: 271.19818115234375
y: 508.65472412109375
z: 0.09106199443340302
visibility: 0.991811990737915
","x: 285.7852478027344
y: 510.18511962890625
z: 0.12533298134803772
visibility: 0.8892255425453186
","x: 272.2588806152344
y: 517.1967163085938
z: 0.09656920284032822
visibility: 0.8984465003013611
","x: 292.5488586425781
y: 530.7704467773438
z: 0.011754707433283329
visibility: 0.9907097220420837
","x: 272.37432861328125
y: 535.1801147460938
z: -0.034396491944789886
visibility: 0.988601803779602
",,,,,,,,,,,,,,,,,,,,,,,,,,,,,,,,,,,,,,,,,,
18,"x: 284.2520751953125
y: 204.70608520507812
z: -0.21159687638282776
visibility: 0.9999549388885498
","x: 287.2665710449219
y: 196.6832275390625
z: -0.1960839033126831
visibility: 0.9998753070831299
","x: 289.09332275390625
y: 196.73941040039062
z: -0.1961216926574707
visibility: 0.9998707175254822
","x: 290.7690734863281
y: 196.81112670898438
z: -0.196135014295578
visibility: 0.999872624874115
","x: 282.6820373535156
y: 196.35882568359375
z: -0.19485922157764435
visibility: 0.9998512268066406
","x: 281.4919128417969
y: 196.19119262695312
z: -0.19488553702831268
visibility: 0.9998303651809692
","x: 280.3251647949219
y: 196.0426483154297
z: -0.1948995292186737
visibility: 0.9998323321342468
","x: 293.33233642578125
y: 199.58599853515625
z: -0.08412329852581024
visibility: 0.9997854828834534
","x: 279.37738037109375
y: 198.6463165283203
z: -0.08035081624984741
visibility: 0.9996484518051147
","x: 287.2773132324219
y: 210.93875122070312
z: -0.16829203069210052
visibility: 0.9999374151229858
","x: 281.689208984375
y: 210.70059204101562
z: -0.16736404597759247
visibility: 0.9999330043792725
","x: 305.8407287597656
y: 241.3331756591797
z: -0.029674053192138672
visibility: 0.9999164342880249
","x: 265.5530090332031
y: 243.40948486328125
z: 0.005433748476207256
visibility: 0.9998562335968018
","x: 306.58624267578125
y: 292.7115173339844
z: -0.08560556918382645
visibility: 0.960486114025116
","x: 257.4651184082031
y: 288.7652893066406
z: -0.03942060470581055
visibility: 0.8796945214271545
","x: 290.8634338378906
y: 303.3392333984375
z: -0.26640263199806213
visibility: 0.9390213489532471
","x: 262.4400939941406
y: 303.92608642578125
z: -0.24522832036018372
visibility: 0.8901378512382507
","x: 284.7908630371094
y: 310.6314392089844
z: -0.3119843006134033
visibility: 0.9116130471229553
","x: 266.0706481933594
y: 311.71197509765625
z: -0.2888701260089874
visibility: 0.8447765707969666
","x: 282.2510681152344
y: 301.80645751953125
z: -0.3290039598941803
visibility: 0.9174556136131287
","x: 267.979248046875
y: 304.1187744140625
z: -0.30413469672203064
visibility: 0.8560059070587158
","x: 283.838134765625
y: 299.9525146484375
z: -0.27731582522392273
visibility: 0.9000979065895081
","x: 267.50140380859375
y: 301.3831787109375
z: -0.25544631481170654
visibility: 0.8374304175376892
","x: 297.69903564453125
y: 349.4491271972656
z: -0.0034098210744559765
visibility: 0.9994322061538696
","x: 274.6824645996094
y: 348.0357666015625
z: 0.0035467385314404964
visibility: 0.9994848370552063
","x: 294.8774719238281
y: 427.7624206542969
z: -0.04246678203344345
visibility: 0.9921537041664124
","x: 271.418212890625
y: 432.3421630859375
z: -0.03189590945839882
visibility: 0.9900888204574585
","x: 287.9839782714844
y: 506.3328857421875
z: 0.08568277955055237
visibility: 0.9923431277275085
","x: 271.3097229003906
y: 509.4826965332031
z: 0.09798885881900787
visibility: 0.9910619854927063
","x: 285.8403625488281
y: 518.4564208984375
z: 0.09089548140764236
visibility: 0.8907707333564758
","x: 273.494140625
y: 520.2144775390625
z: 0.10183757543563843
visibility: 0.8941441774368286
","x: 286.6412658691406
y: 530.7837524414062
z: -0.035861894488334656
visibility: 0.9897367358207703
","x: 271.8944396972656
y: 534.45751953125
z: -0.026484603062272072
visibility: 0.987267255783081
",,,,,,,,,,,,,,,,,,,,,,"x: 288.0025329589844
y: 300.44757080078125
z: 0.0
","x: 283.20098876953125
y: 299.2797546386719
z: 0.0016791647067293525
","x: 278.451171875
y: 299.9081115722656
z: 0.0008177586132660508
","x: 275.01568603515625
y: 301.6358947753906
z: -0.0006144532817415893
","x: 272.3695983886719
y: 302.8967590332031
z: -0.0020941372495144606
","x: 278.3586120605469
y: 298.5928955078125
z: -0.002767155645415187
","x: 273.8282470703125
y: 300.48223876953125
z: -0.0053748926147818565
","x: 271.5682373046875
y: 302.5196838378906
z: -0.006430037319660187
","x: 269.94586181640625
y: 304.3352355957031
z: -0.007106043864041567
","x: 279.7744140625
y: 300.63165283203125
z: -0.0056171417236328125
","x: 275.5582580566406
y: 303.2218933105469
z: -0.008110571652650833
","x: 273.109375
y: 306.0458068847656
z: -0.008614931255578995
","x: 271.3576354980469
y: 308.6116943359375
z: -0.009223133325576782
","x: 281.8385314941406
y: 303.387939453125
z: -0.008252178318798542
","x: 278.3702697753906
y: 306.4660949707031
z: -0.010796645656228065
","x: 276.5044860839844
y: 309.5533447265625
z: -0.010898381471633911
","x: 275.126708984375
y: 312.02606201171875
z: -0.011145992204546928
","x: 284.3612365722656
y: 306.4279479980469
z: -0.010766856372356415
","x: 282.4797058105469
y: 309.4922180175781
z: -0.013120022602379322
","x: 281.65338134765625
y: 311.1858825683594
z: -0.013278622180223465
","x: 281.1374206542969
y: 312.6990966796875
z: -0.013343807309865952
"
19,"x: 284.2520751953125
y: 204.70608520507812
z: -0.21159687638282776
visibility: 0.9999549388885498
","x: 287.2665710449219
y: 196.6832275390625
z: -0.1960839033126831
visibility: 0.9998753070831299
","x: 289.09332275390625
y: 196.73941040039062
z: -0.1961216926574707
visibility: 0.9998707175254822
","x: 290.7690734863281
y: 196.81112670898438
z: -0.196135014295578
visibility: 0.999872624874115
","x: 282.6820373535156
y: 196.35882568359375
z: -0.19485922157764435
visibility: 0.9998512268066406
","x: 281.4919128417969
y: 196.19119262695312
z: -0.19488553702831268
visibility: 0.9998303651809692
","x: 280.3251647949219
y: 196.0426483154297
z: -0.1948995292186737
visibility: 0.9998323321342468
","x: 293.33233642578125
y: 199.58599853515625
z: -0.08412329852581024
visibility: 0.9997854828834534
","x: 279.37738037109375
y: 198.6463165283203
z: -0.08035081624984741
visibility: 0.9996484518051147
","x: 287.2773132324219
y: 210.93875122070312
z: -0.16829203069210052
visibility: 0.9999374151229858
","x: 281.689208984375
y: 210.70059204101562
z: -0.16736404597759247
visibility: 0.9999330043792725
","x: 305.8407287597656
y: 241.3331756591797
z: -0.029674053192138672
visibility: 0.9999164342880249
","x: 265.5530090332031
y: 243.40948486328125
z: 0.005433748476207256
visibility: 0.9998562335968018
","x: 306.58624267578125
y: 292.7115173339844
z: -0.08560556918382645
visibility: 0.960486114025116
","x: 257.4651184082031
y: 288.7652893066406
z: -0.03942060470581055
visibility: 0.8796945214271545
","x: 290.8634338378906
y: 303.3392333984375
z: -0.26640263199806213
visibility: 0.9390213489532471
","x: 262.4400939941406
y: 303.92608642578125
z: -0.24522832036018372
visibility: 0.8901378512382507
","x: 284.7908630371094
y: 310.6314392089844
z: -0.3119843006134033
visibility: 0.9116130471229553
","x: 266.0706481933594
y: 311.71197509765625
z: -0.2888701260089874
visibility: 0.8447765707969666
","x: 282.2510681152344
y: 301.80645751953125
z: -0.3290039598941803
visibility: 0.9174556136131287
","x: 267.979248046875
y: 304.1187744140625
z: -0.30413469672203064
visibility: 0.8560059070587158
","x: 283.838134765625
y: 299.9525146484375
z: -0.27731582522392273
visibility: 0.9000979065895081
","x: 267.50140380859375
y: 301.3831787109375
z: -0.25544631481170654
visibility: 0.8374304175376892
","x: 297.69903564453125
y: 349.4491271972656
z: -0.0034098210744559765
visibility: 0.9994322061538696
","x: 274.6824645996094
y: 348.0357666015625
z: 0.0035467385314404964
visibility: 0.9994848370552063
","x: 294.8774719238281
y: 427.7624206542969
z: -0.04246678203344345
visibility: 0.9921537041664124
","x: 271.418212890625
y: 432.3421630859375
z: -0.03189590945839882
visibility: 0.9900888204574585
","x: 287.9839782714844
y: 506.3328857421875
z: 0.08568277955055237
visibility: 0.9923431277275085
","x: 271.3097229003906
y: 509.4826965332031
z: 0.09798885881900787
visibility: 0.9910619854927063
","x: 285.8403625488281
y: 518.4564208984375
z: 0.09089548140764236
visibility: 0.8907707333564758
","x: 273.494140625
y: 520.2144775390625
z: 0.10183757543563843
visibility: 0.8941441774368286
","x: 286.6412658691406
y: 530.7837524414062
z: -0.035861894488334656
visibility: 0.9897367358207703
","x: 271.8944396972656
y: 534.45751953125
z: -0.026484603062272072
visibility: 0.987267255783081
",,,,,,,,,,,,,,,,,,,,,,"x: 288.0025329589844
y: 300.44757080078125
z: 0.0
","x: 283.20098876953125
y: 299.2797546386719
z: 0.0016791647067293525
","x: 278.451171875
y: 299.9081115722656
z: 0.0008177586132660508
","x: 275.01568603515625
y: 301.6358947753906
z: -0.0006144532817415893
","x: 272.3695983886719
y: 302.8967590332031
z: -0.0020941372495144606
","x: 278.3586120605469
y: 298.5928955078125
z: -0.002767155645415187
","x: 273.8282470703125
y: 300.48223876953125
z: -0.0053748926147818565
","x: 271.5682373046875
y: 302.5196838378906
z: -0.006430037319660187
","x: 269.94586181640625
y: 304.3352355957031
z: -0.007106043864041567
","x: 279.7744140625
y: 300.63165283203125
z: -0.0056171417236328125
","x: 275.5582580566406
y: 303.2218933105469
z: -0.008110571652650833
","x: 273.109375
y: 306.0458068847656
z: -0.008614931255578995
","x: 271.3576354980469
y: 308.6116943359375
z: -0.009223133325576782
","x: 281.8385314941406
y: 303.387939453125
z: -0.008252178318798542
","x: 278.3702697753906
y: 306.4660949707031
z: -0.010796645656228065
","x: 276.5044860839844
y: 309.5533447265625
z: -0.010898381471633911
","x: 275.126708984375
y: 312.02606201171875
z: -0.011145992204546928
","x: 284.3612365722656
y: 306.4279479980469
z: -0.010766856372356415
","x: 282.4797058105469
y: 309.4922180175781
z: -0.013120022602379322
","x: 281.65338134765625
y: 311.1858825683594
z: -0.013278622180223465
","x: 281.1374206542969
y: 312.6990966796875
z: -0.013343807309865952
"
20,"x: 288.4356384277344
y: 207.1417999267578
z: -0.1188049167394638
visibility: 0.9999481439590454
","x: 291.2265319824219
y: 199.9869384765625
z: -0.10088782012462616
visibility: 0.9998676776885986
","x: 292.8829345703125
y: 200.3227996826172
z: -0.10091377794742584
visibility: 0.9998621940612793
","x: 294.4287109375
y: 200.74073791503906
z: -0.10089212656021118
visibility: 0.9998636841773987
","x: 286.8086853027344
y: 199.23953247070312
z: -0.10132243484258652
visibility: 0.9998451471328735
","x: 285.5118103027344
y: 198.99099731445312
z: -0.10133649408817291
visibility: 0.9998266100883484
","x: 284.2342224121094
y: 198.8026580810547
z: -0.10131806135177612
visibility: 0.99983149766922
","x: 296.6151428222656
y: 204.36163330078125
z: 0.008398907259106636
visibility: 0.9997802376747131
","x: 282.69140625
y: 202.02345275878906
z: 0.009516670368611813
visibility: 0.9996515512466431
","x: 290.9896545410156
y: 214.5586395263672
z: -0.07696669548749924
visibility: 0.9999271631240845
","x: 285.7129211425781
y: 213.82260131835938
z: -0.07709277421236038
visibility: 0.9999246001243591
","x: 308.2000732421875
y: 241.5880126953125
z: 0.02632797323167324
visibility: 0.9999041557312012
","x: 268.34710693359375
y: 243.25469970703125
z: 0.05047612264752388
visibility: 0.9998485445976257
","x: 306.4021911621094
y: 286.1526794433594
z: -0.10073752701282501
visibility: 0.9502624869346619
","x: 268.9057312011719
y: 283.68292236328125
z: -0.05338122695684433
visibility: 0.8854650855064392
","x: 290.0917663574219
y: 299.74591064453125
z: -0.3133710026741028
visibility: 0.9287375211715698
","x: 284.37579345703125
y: 301.9367370605469
z: -0.26465317606925964
visibility: 0.8930531740188599
","x: 285.15802001953125
y: 306.07513427734375
z: -0.3661123216152191
visibility: 0.9031111598014832
","x: 289.2418518066406
y: 306.2051086425781
z: -0.3173367381095886
visibility: 0.8486594557762146
","x: 284.5905456542969
y: 298.002685546875
z: -0.376149445772171
visibility: 0.9088372588157654
","x: 291.3295593261719
y: 300.1486511230469
z: -0.3200264275074005
visibility: 0.85895836353302
","x: 285.8285827636719
y: 296.80389404296875
z: -0.32301434874534607
visibility: 0.8877044916152954
","x: 289.8578796386719
y: 298.7026672363281
z: -0.2707470655441284
visibility: 0.838548481464386
","x: 300.6112365722656
y: 350.6173400878906
z: -0.014903293922543526
visibility: 0.9994473457336426
","x: 277.2643737792969
y: 349.7403564453125
z: 0.014980469830334187
visibility: 0.9995008707046509
","x: 301.2960205078125
y: 432.2026062011719
z: -0.03955106437206268
visibility: 0.9927776455879211
","x: 272.4423828125
y: 432.6260681152344
z: -0.014829720370471478
visibility: 0.9908838272094727
","x: 320.1155700683594
y: 507.001220703125
z: 0.10798364877700806
visibility: 0.9928705096244812
","x: 270.3851623535156
y: 509.84722900390625
z: 0.0985325276851654
visibility: 0.9917207360267639
","x: 324.4896240234375
y: 519.699462890625
z: 0.11515633016824722
visibility: 0.8844670057296753
","x: 273.6192626953125
y: 520.485595703125
z: 0.10471304506063461
visibility: 0.8976106643676758
","x: 306.6693115234375
y: 531.7429809570312
z: -0.02977595292031765
visibility: 0.9901812672615051
","x: 269.7685546875
y: 534.7310180664062
z: -0.01990295760333538
visibility: 0.9879909157752991
","x: 290.5162353515625
y: 297.7926025390625
z: 0.0
","x: 296.16864013671875
y: 299.0118713378906
z: 0.002048928989097476
","x: 299.9188537597656
y: 296.45672607421875
z: 0.0015438838163390756
","x: 302.55255126953125
y: 294.5025329589844
z: 6.952466355869547e-05
","x: 304.5653076171875
y: 293.3065185546875
z: -0.0011709508253261447
","x: 299.8038330078125
y: 286.8797607421875
z: 0.0008774331072345376
","x: 303.193115234375
y: 284.99267578125
z: -0.0014184473548084497
","x: 305.9382019042969
y: 284.77197265625
z: -0.0030612016562372446
","x: 308.219482421875
y: 285.3492431640625
z: -0.0040882788598537445
","x: 298.9113464355469
y: 286.9947509765625
z: -0.0022426985669881105
","x: 303.4163513183594
y: 287.73583984375
z: -0.004686994478106499
","x: 305.9721984863281
y: 290.5046691894531
z: -0.005653476342558861
","x: 307.625244140625
y: 293.92889404296875
z: -0.006219376809895039
","x: 298.0135498046875
y: 289.0290832519531
z: -0.00544808991253376
","x: 302.42718505859375
y: 291.9013366699219
z: -0.0073736184276640415
","x: 304.31915283203125
y: 295.7565612792969
z: -0.006918743252754211
","x: 305.207275390625
y: 299.4520568847656
z: -0.0065252529457211494
","x: 296.96112060546875
y: 292.8286437988281
z: -0.00873407069593668
","x: 300.68743896484375
y: 295.3160400390625
z: -0.010013698600232601
","x: 302.427734375
y: 297.8298645019531
z: -0.009483781643211842
","x: 303.3770751953125
y: 300.4102783203125
z: -0.008987149223685265
",,,,,,,,,,,,,,,,,,,,,
21,"x: 288.4356384277344
y: 207.1417999267578
z: -0.1188049167394638
visibility: 0.9999481439590454
","x: 291.2265319824219
y: 199.9869384765625
z: -0.10088782012462616
visibility: 0.9998676776885986
","x: 292.8829345703125
y: 200.3227996826172
z: -0.10091377794742584
visibility: 0.9998621940612793
","x: 294.4287109375
y: 200.74073791503906
z: -0.10089212656021118
visibility: 0.9998636841773987
","x: 286.8086853027344
y: 199.23953247070312
z: -0.10132243484258652
visibility: 0.9998451471328735
","x: 285.5118103027344
y: 198.99099731445312
z: -0.10133649408817291
visibility: 0.9998266100883484
","x: 284.2342224121094
y: 198.8026580810547
z: -0.10131806135177612
visibility: 0.99983149766922
","x: 296.6151428222656
y: 204.36163330078125
z: 0.008398907259106636
visibility: 0.9997802376747131
","x: 282.69140625
y: 202.02345275878906
z: 0.009516670368611813
visibility: 0.9996515512466431
","x: 290.9896545410156
y: 214.5586395263672
z: -0.07696669548749924
visibility: 0.9999271631240845
","x: 285.7129211425781
y: 213.82260131835938
z: -0.07709277421236038
visibility: 0.9999246001243591
","x: 308.2000732421875
y: 241.5880126953125
z: 0.02632797323167324
visibility: 0.9999041557312012
","x: 268.34710693359375
y: 243.25469970703125
z: 0.05047612264752388
visibility: 0.9998485445976257
","x: 306.4021911621094
y: 286.1526794433594
z: -0.10073752701282501
visibility: 0.9502624869346619
","x: 268.9057312011719
y: 283.68292236328125
z: -0.05338122695684433
visibility: 0.8854650855064392
","x: 290.0917663574219
y: 299.74591064453125
z: -0.3133710026741028
visibility: 0.9287375211715698
","x: 284.37579345703125
y: 301.9367370605469
z: -0.26465317606925964
visibility: 0.8930531740188599
","x: 285.15802001953125
y: 306.07513427734375
z: -0.3661123216152191
visibility: 0.9031111598014832
","x: 289.2418518066406
y: 306.2051086425781
z: -0.3173367381095886
visibility: 0.8486594557762146
","x: 284.5905456542969
y: 298.002685546875
z: -0.376149445772171
visibility: 0.9088372588157654
","x: 291.3295593261719
y: 300.1486511230469
z: -0.3200264275074005
visibility: 0.85895836353302
","x: 285.8285827636719
y: 296.80389404296875
z: -0.32301434874534607
visibility: 0.8877044916152954
","x: 289.8578796386719
y: 298.7026672363281
z: -0.2707470655441284
visibility: 0.838548481464386
","x: 300.6112365722656
y: 350.6173400878906
z: -0.014903293922543526
visibility: 0.9994473457336426
","x: 277.2643737792969
y: 349.7403564453125
z: 0.014980469830334187
visibility: 0.9995008707046509
","x: 301.2960205078125
y: 432.2026062011719
z: -0.03955106437206268
visibility: 0.9927776455879211
","x: 272.4423828125
y: 432.6260681152344
z: -0.014829720370471478
visibility: 0.9908838272094727
","x: 320.1155700683594
y: 507.001220703125
z: 0.10798364877700806
visibility: 0.9928705096244812
","x: 270.3851623535156
y: 509.84722900390625
z: 0.0985325276851654
visibility: 0.9917207360267639
","x: 324.4896240234375
y: 519.699462890625
z: 0.11515633016824722
visibility: 0.8844670057296753
","x: 273.6192626953125
y: 520.485595703125
z: 0.10471304506063461
visibility: 0.8976106643676758
","x: 306.6693115234375
y: 531.7429809570312
z: -0.02977595292031765
visibility: 0.9901812672615051
","x: 269.7685546875
y: 534.7310180664062
z: -0.01990295760333538
visibility: 0.9879909157752991
","x: 290.5162353515625
y: 297.7926025390625
z: 0.0
","x: 296.16864013671875
y: 299.0118713378906
z: 0.002048928989097476
","x: 299.9188537597656
y: 296.45672607421875
z: 0.0015438838163390756
","x: 302.55255126953125
y: 294.5025329589844
z: 6.952466355869547e-05
","x: 304.5653076171875
y: 293.3065185546875
z: -0.0011709508253261447
","x: 299.8038330078125
y: 286.8797607421875
z: 0.0008774331072345376
","x: 303.193115234375
y: 284.99267578125
z: -0.0014184473548084497
","x: 305.9382019042969
y: 284.77197265625
z: -0.0030612016562372446
","x: 308.219482421875
y: 285.3492431640625
z: -0.0040882788598537445
","x: 298.9113464355469
y: 286.9947509765625
z: -0.0022426985669881105
","x: 303.4163513183594
y: 287.73583984375
z: -0.004686994478106499
","x: 305.9721984863281
y: 290.5046691894531
z: -0.005653476342558861
","x: 307.625244140625
y: 293.92889404296875
z: -0.006219376809895039
","x: 298.0135498046875
y: 289.0290832519531
z: -0.00544808991253376
","x: 302.42718505859375
y: 291.9013366699219
z: -0.0073736184276640415
","x: 304.31915283203125
y: 295.7565612792969
z: -0.006918743252754211
","x: 305.207275390625
y: 299.4520568847656
z: -0.0065252529457211494
","x: 296.96112060546875
y: 292.8286437988281
z: -0.00873407069593668
","x: 300.68743896484375
y: 295.3160400390625
z: -0.010013698600232601
","x: 302.427734375
y: 297.8298645019531
z: -0.009483781643211842
","x: 303.3770751953125
y: 300.4102783203125
z: -0.008987149223685265
",,,,,,,,,,,,,,,,,,,,,
22,"x: 304.9535827636719
y: 223.97279357910156
z: -0.21071234345436096
visibility: 0.9999521970748901
","x: 307.8034973144531
y: 217.11045837402344
z: -0.19287441670894623
visibility: 0.9998784065246582
","x: 309.2640075683594
y: 217.5357208251953
z: -0.1929071694612503
visibility: 0.9998728632926941
","x: 310.60137939453125
y: 218.085693359375
z: -0.19292357563972473
visibility: 0.9998733997344971
","x: 303.1759948730469
y: 215.97604370117188
z: -0.19414472579956055
visibility: 0.999858021736145
","x: 301.39453125
y: 215.62686157226562
z: -0.1941709816455841
visibility: 0.9998409152030945
","x: 299.5802917480469
y: 215.3270263671875
z: -0.19416916370391846
visibility: 0.9998452663421631
","x: 311.3350524902344
y: 220.8264923095703
z: -0.07199103385210037
visibility: 0.9997971653938293
","x: 296.8993835449219
y: 216.4244384765625
z: -0.08109240978956223
visibility: 0.9996832609176636
","x: 306.78436279296875
y: 231.76515197753906
z: -0.1671268790960312
visibility: 0.999932050704956
","x: 301.2449951171875
y: 230.6293487548828
z: -0.1686975508928299
visibility: 0.9999306201934814
","x: 319.53912353515625
y: 264.63385009765625
z: -0.020719455555081367
visibility: 0.9998982548713684
","x: 278.0330810546875
y: 254.43072509765625
z: -0.011415095999836922
visibility: 0.9998589754104614
","x: 312.61505126953125
y: 315.30096435546875
z: -0.12182247638702393
visibility: 0.9396523237228394
","x: 271.75860595703125
y: 300.8646240234375
z: -0.11956687271595001
visibility: 0.8946127891540527
","x: 314.1620178222656
y: 337.93463134765625
z: -0.3560698926448822
visibility: 0.9269329309463501
","x: 275.15118408203125
y: 327.32403564453125
z: -0.3442875146865845
visibility: 0.9022839069366455
","x: 317.1025695800781
y: 346.7845153808594
z: -0.4096778929233551
visibility: 0.9036097526550293
","x: 277.15533447265625
y: 336.89337158203125
z: -0.39451247453689575
visibility: 0.8616435527801514
","x: 317.8682861328125
y: 339.33685302734375
z: -0.42910313606262207
visibility: 0.9094464778900146
","x: 278.383544921875
y: 334.15850830078125
z: -0.41341662406921387
visibility: 0.8711119890213013
","x: 314.6490783691406
y: 336.3314514160156
z: -0.371008038520813
visibility: 0.8870187997817993
","x: 278.2164611816406
y: 331.0523986816406
z: -0.357791930437088
visibility: 0.8520662188529968
","x: 307.3128662109375
y: 371.6544189453125
z: -0.0075262682512402534
visibility: 0.9994944334030151
","x: 280.4786071777344
y: 370.4600830078125
z: 0.007554708980023861
visibility: 0.9995467066764832
","x: 327.8728332519531
y: 433.7161560058594
z: -0.17687268555164337
visibility: 0.9934332966804504
","x: 264.57281494140625
y: 436.9290771484375
z: -0.1641644984483719
visibility: 0.9917506575584412
","x: 334.0447998046875
y: 507.4937744140625
z: 0.016789687797427177
visibility: 0.9934619665145874
","x: 269.960205078125
y: 509.8499755859375
z: 0.05098345875740051
visibility: 0.99246746301651
","x: 331.75115966796875
y: 520.2783203125
z: 0.0282988753169775
visibility: 0.8931303024291992
","x: 274.6983337402344
y: 520.8671264648438
z: 0.06458736211061478
visibility: 0.9063509702682495
","x: 341.79388427734375
y: 531.9742431640625
z: -0.0945279449224472
visibility: 0.9907920360565186
","x: 256.7250061035156
y: 533.4168701171875
z: -0.04804874584078789
visibility: 0.9889145493507385
",,,,,,,,,,,,,,,,,,,,,,,,,,,,,,,,,,,,,,,,,,
23,"x: 317.10186767578125
y: 240.32362365722656
z: -0.1820559799671173
visibility: 0.9999562501907349
","x: 319.3255920410156
y: 233.0880889892578
z: -0.1602330356836319
visibility: 0.9998883008956909
","x: 320.6585388183594
y: 233.48097229003906
z: -0.16030360758304596
visibility: 0.9998828172683716
","x: 321.8156433105469
y: 233.87564086914062
z: -0.16037458181381226
visibility: 0.9998827576637268
","x: 314.89031982421875
y: 231.85662841796875
z: -0.1656937599182129
visibility: 0.9998695850372314
","x: 313.12237548828125
y: 231.47703552246094
z: -0.16572225093841553
visibility: 0.9998535513877869
","x: 311.3099365234375
y: 231.14474487304688
z: -0.16573090851306915
visibility: 0.9998572468757629
","x: 321.3748474121094
y: 236.78590393066406
z: -0.043438397347927094
visibility: 0.9998121857643127
","x: 307.3545227050781
y: 232.56219482421875
z: -0.06946928054094315
visibility: 0.9997115731239319
","x: 318.14532470703125
y: 247.97532653808594
z: -0.13921816647052765
visibility: 0.9999353885650635
","x: 313.1600646972656
y: 246.37188720703125
z: -0.14666679501533508
visibility: 0.9999351501464844
","x: 326.5074462890625
y: 283.6763916015625
z: 0.018068943172693253
visibility: 0.9998942017555237
","x: 288.8912658691406
y: 271.04571533203125
z: -0.01516277901828289
visibility: 0.9998674392700195
","x: 322.64288330078125
y: 335.5954284667969
z: 0.02556512877345085
visibility: 0.9185794591903687
","x: 275.1629943847656
y: 316.00323486328125
z: -0.058602940291166306
visibility: 0.9018716216087341
","x: 337.6922912597656
y: 358.70611572265625
z: -0.11064163595438004
visibility: 0.9247077703475952
","x: 268.8418273925781
y: 340.11541748046875
z: -0.21186897158622742
visibility: 0.9103947877883911
","x: 344.7046813964844
y: 366.0876159667969
z: -0.14183419942855835
visibility: 0.9024950265884399
","x: 262.704345703125
y: 347.9272766113281
z: -0.24827662110328674
visibility: 0.8727098107337952
","x: 346.619873046875
y: 360.66546630859375
z: -0.17429013550281525
visibility: 0.9089258909225464
","x: 263.77215576171875
y: 347.2108154296875
z: -0.27568864822387695
visibility: 0.8815315365791321
","x: 342.9866943359375
y: 357.97283935546875
z: -0.1291506588459015
visibility: 0.887060284614563
","x: 266.7207336425781
y: 345.5118103027344
z: -0.2288842499256134
visibility: 0.8640745878219604
","x: 313.5703430175781
y: 388.138916015625
z: 0.005326206795871258
visibility: 0.9995338916778564
","x: 286.0799255371094
y: 387.46160888671875
z: -0.005225695203989744
visibility: 0.9995867609977722
","x: 342.8233337402344
y: 442.8500061035156
z: -0.12539580464363098
visibility: 0.9939956665039062
","x: 263.2850036621094
y: 446.2326354980469
z: -0.14092496037483215
visibility: 0.9925345182418823
","x: 338.4202575683594
y: 509.53167724609375
z: 0.03419073671102524
visibility: 0.9939217567443848
","x: 269.5367431640625
y: 510.5221252441406
z: 0.08131954073905945
visibility: 0.9931527972221375
","x: 333.32769775390625
y: 522.2542114257812
z: 0.06957044452428818
visibility: 0.9019899964332581
","x: 274.6614074707031
y: 521.5324096679688
z: 0.09421692788600922
visibility: 0.9144020676612854
","x: 350.7875671386719
y: 532.140869140625
z: -0.0012335346546024084
visibility: 0.9911313056945801
","x: 256.09344482421875
y: 533.4095458984375
z: -0.008971115574240685
visibility: 0.9897385835647583
",,,,,,,,,,,,,,,,,,,,,,,,,,,,,,,,,,,,,,,,,,
24,"x: 318.2995910644531
y: 248.3271484375
z: -0.24249546229839325
visibility: 0.9998974800109863
","x: 320.90252685546875
y: 241.36190795898438
z: -0.2253081351518631
visibility: 0.9997366666793823
","x: 321.9934387207031
y: 241.5325164794922
z: -0.22539198398590088
visibility: 0.9997375011444092
","x: 322.9356994628906
y: 241.63265991210938
z: -0.22542384266853333
visibility: 0.9997020363807678
","x: 316.9073181152344
y: 239.95953369140625
z: -0.23480848968029022
visibility: 0.9997193217277527
","x: 315.22906494140625
y: 239.1592254638672
z: -0.23486170172691345
visibility: 0.999720573425293
","x: 313.37060546875
y: 238.25552368164062
z: -0.23490309715270996
visibility: 0.9997382760047913
","x: 322.6817932128906
y: 242.072265625
z: -0.09898199141025543
visibility: 0.9993181228637695
","x: 309.9282531738281
y: 236.67601013183594
z: -0.1406768262386322
visibility: 0.9995602965354919
","x: 318.8790588378906
y: 254.83888244628906
z: -0.19164606928825378
visibility: 0.9998161792755127
","x: 313.96142578125
y: 253.7956085205078
z: -0.20509569346904755
visibility: 0.9998921751976013
","x: 327.7424011230469
y: 284.3564758300781
z: -0.010926763527095318
visibility: 0.9998579621315002
","x: 289.3846130371094
y: 268.8255615234375
z: -0.07802195101976395
visibility: 0.9998679757118225
","x: 320.86309814453125
y: 328.528076171875
z: -0.05761158466339111
visibility: 0.8870067596435547
","x: 278.6716613769531
y: 316.59283447265625
z: -0.13286645710468292
visibility: 0.9093193411827087
","x: 311.0354919433594
y: 347.0021057128906
z: -0.28386279940605164
visibility: 0.8800984025001526
","x: 293.974853515625
y: 339.1616516113281
z: -0.31266334652900696
visibility: 0.9121734499931335
","x: 308.1395263671875
y: 355.03515625
z: -0.3345051407814026
visibility: 0.8626112341880798
","x: 298.4722900390625
y: 346.999267578125
z: -0.3613050878047943
visibility: 0.874916136264801
","x: 306.90545654296875
y: 348.1990051269531
z: -0.35273686051368713
visibility: 0.8703102469444275
","x: 300.6658020019531
y: 342.891845703125
z: -0.3698926568031311
visibility: 0.8832086324691772
","x: 307.3890686035156
y: 345.44415283203125
z: -0.29692575335502625
visibility: 0.8443721532821655
","x: 299.4779052734375
y: 340.47930908203125
z: -0.3186398148536682
visibility: 0.8628777265548706
","x: 312.1617126464844
y: 378.0186767578125
z: 0.020270906388759613
visibility: 0.9994325637817383
","x: 286.0450134277344
y: 376.1910705566406
z: -0.020311130210757256
visibility: 0.9994809627532959
","x: 331.0802917480469
y: 440.9015197753906
z: -0.016236331313848495
visibility: 0.993959367275238
","x: 285.8432922363281
y: 447.42059326171875
z: -0.09571175277233124
visibility: 0.9926304817199707
","x: 335.2772521972656
y: 508.5730285644531
z: 0.15501850843429565
visibility: 0.993854284286499
","x: 270.1590270996094
y: 510.50177001953125
z: 0.09946104884147644
visibility: 0.9927802681922913
","x: 333.7516784667969
y: 520.107177734375
z: 0.16771796345710754
visibility: 0.8967708945274353
","x: 268.1192626953125
y: 520.2664794921875
z: 0.11394619941711426
visibility: 0.9008271098136902
","x: 340.30645751953125
y: 531.697509765625
z: 0.048826757818460464
visibility: 0.990534245967865
","x: 271.828369140625
y: 533.4343872070312
z: -0.008002999238669872
visibility: 0.9884623289108276
",,,,,,,,,,,,,,,,,,,,,,,,,,,,,,,,,,,,,,,,,,
25,"x: 312.2104187011719
y: 251.35464477539062
z: -0.24242281913757324
visibility: 0.999695897102356
","x: 314.80181884765625
y: 243.55215454101562
z: -0.22549407184123993
visibility: 0.9991472363471985
","x: 316.07293701171875
y: 243.45187377929688
z: -0.22555844485759735
visibility: 0.9991765022277832
","x: 317.22467041015625
y: 243.3932647705078
z: -0.2255721539258957
visibility: 0.9990460276603699
","x: 310.6624450683594
y: 243.38803100585938
z: -0.231715589761734
visibility: 0.9992122650146484
","x: 309.0665283203125
y: 243.05015563964844
z: -0.23176053166389465
visibility: 0.9992492198944092
","x: 307.3815612792969
y: 242.68890380859375
z: -0.23179809749126434
visibility: 0.9993830919265747
","x: 317.77752685546875
y: 244.21136474609375
z: -0.11882666498422623
visibility: 0.9977573156356812
","x: 304.3828430175781
y: 242.0717010498047
z: -0.13525910675525665
visibility: 0.9988753199577332
","x: 313.4421081542969
y: 257.0758361816406
z: -0.19388490915298462
visibility: 0.9994502067565918
","x: 308.4661560058594
y: 257.2049560546875
z: -0.20371809601783752
visibility: 0.9997310638427734
","x: 325.1739501953125
y: 282.03173828125
z: -0.051005952060222626
visibility: 0.9998103976249695
","x: 286.7801818847656
y: 271.93841552734375
z: -0.07474429905414581
visibility: 0.9998597502708435
","x: 315.6372985839844
y: 327.21392822265625
z: -0.10968907922506332
visibility: 0.8507062196731567
","x: 277.16912841796875
y: 321.32916259765625
z: -0.13682664930820465
visibility: 0.9155778884887695
","x: 301.8058166503906
y: 341.51141357421875
z: -0.28930479288101196
visibility: 0.8228177428245544
","x: 293.88433837890625
y: 335.9040832519531
z: -0.28798872232437134
visibility: 0.9121395945549011
","x: 300.0264892578125
y: 350.1468200683594
z: -0.3305938243865967
visibility: 0.8089525699615479
","x: 298.6236572265625
y: 341.427978515625
z: -0.3291374146938324
visibility: 0.8727891445159912
","x: 299.8852844238281
y: 342.5108337402344
z: -0.342093825340271
visibility: 0.8161770701408386
","x: 301.53558349609375
y: 333.1622314453125
z: -0.3341154456138611
visibility: 0.880073070526123
","x: 300.2242736816406
y: 339.68536376953125
z: -0.29814618825912476
visibility: 0.7883709669113159
","x: 300.2547912597656
y: 332.4508972167969
z: -0.2917000949382782
visibility: 0.8563713431358337
","x: 309.5390930175781
y: 374.3923645019531
z: 0.013932598754763603
visibility: 0.9991103410720825
","x: 285.537353515625
y: 372.5776672363281
z: -0.013911393471062183
visibility: 0.9992043375968933
","x: 319.7610168457031
y: 440.1040954589844
z: -0.030086517333984375
visibility: 0.9939860701560974
","x: 286.7832946777344
y: 445.7561950683594
z: -0.05237947776913643
visibility: 0.9922173023223877
","x: 333.02392578125
y: 507.0166015625
z: 0.13045063614845276
visibility: 0.9938267469406128
","x: 269.14044189453125
y: 510.07647705078125
z: 0.1016683578491211
visibility: 0.9919071793556213
","x: 336.25482177734375
y: 519.806884765625
z: 0.14049962162971497
visibility: 0.8784217834472656
","x: 265.6851806640625
y: 519.8323364257812
z: 0.11390100419521332
visibility: 0.8818517327308655
","x: 334.21112060546875
y: 527.8424072265625
z: 0.014740501530468464
visibility: 0.9898624420166016
","x: 273.5991516113281
y: 533.3740234375
z: -0.013019314035773277
visibility: 0.986514151096344
",,,,,,,,,,,,,,,,,,,,,,,,,,,,,,,,,,,,,,,,,,
26,"x: 293.4813232421875
y: 247.0198211669922
z: -0.32623356580734253
visibility: 0.9997243285179138
","x: 296.1619567871094
y: 239.4557342529297
z: -0.31181713938713074
visibility: 0.9992256164550781
","x: 297.693115234375
y: 239.46832275390625
z: -0.31187331676483154
visibility: 0.9992521405220032
","x: 299.1118469238281
y: 239.5773162841797
z: -0.3119933307170868
visibility: 0.9991344213485718
","x: 291.26959228515625
y: 239.0743408203125
z: -0.31053680181503296
visibility: 0.9992843270301819
","x: 289.58172607421875
y: 238.88253784179688
z: -0.31061238050460815
visibility: 0.9993159174919128
","x: 287.9747314453125
y: 238.7049102783203
z: -0.31062406301498413
visibility: 0.9994347095489502
","x: 301.4391174316406
y: 241.5950164794922
z: -0.202864408493042
visibility: 0.9979751706123352
","x: 286.94366455078125
