uscmakers/ReverseChoreography/data/9_ymca_village_people.csv
,NOSE,LEFT_EYE_INNER,LEFT_EYE,LEFT_EYE_OUTER,RIGHT_EYE_INNER,RIGHT_EYE,RIGHT_EYE_OUTER,LEFT_EAR,RIGHT_EAR,MOUTH_LEFT,MOUTH_RIGHT,LEFT_SHOULDER,RIGHT_SHOULDER,LEFT_ELBOW,RIGHT_ELBOW,LEFT_WRIST,RIGHT_WRIST,LEFT_PINKY,RIGHT_PINKY,LEFT_INDEX,RIGHT_INDEX,LEFT_THUMB,RIGHT_THUMB,LEFT_HIP,RIGHT_HIP,LEFT_KNEE,RIGHT_KNEE,LEFT_ANKLE,RIGHT_ANKLE,LEFT_HEEL,RIGHT_HEEL,LEFT_FOOT_INDEX,RIGHT_FOOT_INDEX,WRIST2,THUMB_CPC2,THUMB_MCP2,THUMB_IP2,THUMB_TIP2,INDEX_FINGER_MCP2,INDEX_FINGER_PIP2,INDEX_FINGER_DIP2,INDEX_FINGER_TIP2,MIDDLE_FINGER_MCP2,MIDDLE_FINGER_PIP2,MIDDLE_FINGER_DIP2,MIDDLE_FINGER_TIP2,RING_FINGER_PIP2,RING_FINGER_DIP2,RING_FINGER_TIP2,RING_FINGER_MCP2,PINKY_MCP2,PINKY_PIP2,PINKY_DIP2,PINKY_TIP2,WRIST,THUMB_CPC,THUMB_MCP,THUMB_IP,THUMB_TIP,INDEX_FINGER_MCP,INDEX_FINGER_PIP,INDEX_FINGER_DIP,INDEX_FINGER_TIP,MIDDLE_FINGER_MCP,MIDDLE_FINGER_PIP,MIDDLE_FINGER_DIP,MIDDLE_FINGER_TIP,RING_FINGER_PIP,RING_FINGER_DIP,RING_FINGER_TIP,RING_FINGER_MCP,PINKY_MCP,PINKY_PIP,PINKY_DIP,PINKY_TIP
0,"x: 248.60189819335938
y: 223.0845947265625
z: -0.24363712966442108
visibility: 0.9999872446060181
","x: 252.47386169433594
y: 216.99057006835938
z: -0.23202845454216003
visibility: 0.9999665021896362
","x: 253.91647338867188
y: 217.4238739013672
z: -0.23209170997142792
visibility: 0.99997878074646
","x: 255.31431579589844
y: 217.86102294921875
z: -0.2321263998746872
visibility: 0.9999761581420898
","x: 248.91171264648438
y: 215.27432250976562
z: -0.22325655817985535
visibility: 0.9999189376831055
","x: 247.9586181640625
y: 214.54368591308594
z: -0.22323361039161682
visibility: 0.9999032020568848
","x: 247.01654052734375
y: 213.84652709960938
z: -0.2231816053390503
visibility: 0.9998694658279419
","x: 257.8786315917969
y: 220.57528686523438
z: -0.13841740787029266
visibility: 0.9999767541885376
","x: 246.9284210205078
y: 215.7278289794922
z: -0.09506388008594513
visibility: 0.999805748462677
","x: 250.4854736328125
y: 230.6620635986328
z: -0.20738951861858368
visibility: 0.9999822378158569
","x: 246.33670043945312
y: 229.21163940429688
z: -0.1952817142009735
visibility: 0.9999544620513916
","x: 265.2843017578125
y: 266.82269287109375
z: -0.10546883195638657
visibility: 0.9999966621398926
","x: 232.05909729003906
y: 252.70062255859375
z: 0.03436126187443733
visibility: 0.9998908042907715
","x: 270.49920654296875
y: 315.2932434082031
z: -0.23392939567565918
visibility: 0.9987402558326721
","x: 222.22134399414062
y: 299.601806640625
z: 0.12771809101104736
visibility: 0.8232195973396301
","x: 292.360107421875
y: 285.63616943359375
z: -0.45929089188575745
visibility: 0.9977414608001709
","x: 199.39186096191406
y: 289.9642639160156
z: 0.07136256992816925
visibility: 0.9596489071846008
","x: 296.601806640625
y: 279.68511962890625
z: -0.508093535900116
visibility: 0.9927387833595276
","x: 191.46194458007812
y: 287.332275390625
z: 0.06058133393526077
visibility: 0.9292261004447937
","x: 295.9610290527344
y: 271.64141845703125
z: -0.5162813663482666
visibility: 0.9933504462242126
","x: 191.6565399169922
y: 283.49346923828125
z: 0.02594302035868168
visibility: 0.9384086728096008
","x: 294.33258056640625
y: 273.4245910644531
z: -0.4696275591850281
visibility: 0.9893797039985657
","x: 193.78306579589844
y: 284.0968017578125
z: 0.054243601858615875
visibility: 0.9329432845115662
","x: 245.64207458496094
y: 370.7735595703125
z: -0.05709274485707283
visibility: 0.9999290704727173
","x: 225.11233520507812
y: 365.9302062988281
z: 0.0571674108505249
visibility: 0.9999068975448608
","x: 254.19554138183594
y: 436.71649169921875
z: -0.03823421895503998
visibility: 0.9989457726478577
","x: 209.7528533935547
y: 434.8401184082031
z: 0.046709612011909485
visibility: 0.9971254467964172
","x: 274.4231872558594
y: 510.70916748046875
z: 0.10381021350622177
visibility: 0.9992669224739075
","x: 194.4193572998047
y: 504.85003662109375
z: 0.2061336487531662
visibility: 0.9983818531036377
","x: 278.3206787109375
y: 522.2384033203125
z: 0.11218388378620148
visibility: 0.9479685425758362
","x: 197.63697814941406
y: 517.5092163085938
z: 0.2150917947292328
visibility: 0.9816221594810486
","x: 263.96319580078125
y: 531.901611328125
z: -0.0175348911434412
visibility: 0.9983687996864319
","x: 180.25360107421875
y: 522.8726806640625
z: 0.10356154292821884
visibility: 0.9973975419998169
",,,,,,,,,,,,,,,,,,,,,,,,,,,,,,,,,,,,,,,,,,
1,"x: 237.907470703125
y: 222.5931396484375
z: -0.17506302893161774
visibility: 0.999982476234436
","x: 241.38577270507812
y: 215.2584228515625
z: -0.18135373294353485
visibility: 0.999961793422699
","x: 242.6840362548828
y: 215.42250061035156
z: -0.18140177428722382
visibility: 0.999974250793457
","x: 244.00572204589844
y: 215.7093048095703
z: -0.1813952624797821
visibility: 0.9999704957008362
","x: 238.85842895507812
y: 214.64402770996094
z: -0.15982289612293243
visibility: 0.9999094605445862
","x: 238.31321716308594
y: 214.20648193359375
z: -0.15981504321098328
visibility: 0.9998900294303894
","x: 237.78419494628906
y: 213.72911071777344
z: -0.1598246693611145
visibility: 0.9998579621315002
","x: 248.36288452148438
y: 219.40234375
z: -0.15411901473999023
visibility: 0.9999710917472839
","x: 240.14688110351562
y: 215.7064666748047
z: -0.060056768357753754
visibility: 0.999797523021698
","x: 241.2809600830078
y: 230.49169921875
z: -0.16452182829380035
visibility: 0.9999752640724182
","x: 238.01089477539062
y: 229.20401000976562
z: -0.1353730857372284
visibility: 0.999942421913147
","x: 258.5779113769531
y: 263.2239990234375
z: -0.16712424159049988
visibility: 0.9999940991401672
","x: 229.25936889648438
y: 256.5057067871094
z: 0.045507289469242096
visibility: 0.9998883008956909
","x: 243.7480010986328
y: 302.05316162109375
z: -0.34323179721832275
visibility: 0.9978324770927429
","x: 218.06753540039062
y: 299.16497802734375
z: 0.14974051713943481
visibility: 0.7999451160430908
","x: 244.76263427734375
y: 251.54991149902344
z: -0.5188153982162476
visibility: 0.997414767742157
","x: 199.3970184326172
y: 267.207275390625
z: 0.13712355494499207
visibility: 0.9558055996894836
","x: 244.5962677001953
y: 236.15509033203125
z: -0.5599930882453918
visibility: 0.9924381971359253
","x: 193.16587829589844
y: 254.21023559570312
z: 0.1361820250749588
visibility: 0.9249684810638428
","x: 246.33653259277344
y: 234.60537719726562
z: -0.5519433617591858
visibility: 0.9929357171058655
","x: 193.92047119140625
y: 250.634765625
z: 0.11500491201877594
visibility: 0.9338410496711731
","x: 246.4276580810547
y: 239.275390625
z: -0.5199014544487
visibility: 0.9882583022117615
","x: 195.86270141601562
y: 254.3970947265625
z: 0.12595920264720917
visibility: 0.927648663520813
","x: 242.3237762451172
y: 370.44671630859375
z: -0.06331153959035873
visibility: 0.9999279975891113
","x: 221.662109375
y: 366.2778015136719
z: 0.06320571154356003
visibility: 0.9999096393585205
","x: 254.166015625
y: 436.9816589355469
z: -0.027868548408150673
visibility: 0.9989863038063049
","x: 207.3305206298828
y: 434.8396301269531
z: 0.05759453773498535
visibility: 0.9971124529838562
","x: 272.55694580078125
y: 508.1806640625
z: 0.1636466234922409
visibility: 0.9993018507957458
","x: 194.50833129882812
y: 504.2877502441406
z: 0.2164103239774704
visibility: 0.998403787612915
","x: 277.024658203125
y: 520.08837890625
z: 0.17867019772529602
visibility: 0.9500197768211365
","x: 197.73289489746094
y: 516.362548828125
z: 0.22672025859355927
visibility: 0.9819389581680298
","x: 264.1248474121094
y: 531.6702880859375
z: 0.072628453373909
visibility: 0.9984455108642578
","x: 180.7692413330078
y: 523.137451171875
z: 0.13187585771083832
visibility: 0.997442364692688
","x: 242.03164672851562
y: 245.3046875
z: 0.0
","x: 245.69857788085938
y: 239.1157684326172
z: 0.0006368455360643566
","x: 247.87307739257812
y: 230.5249786376953
z: -0.0007144479313865304
","x: 248.6332244873047
y: 222.9259490966797
z: -0.002210038248449564
","x: 248.80430603027344
y: 217.2238311767578
z: -0.0030680831987410784
","x: 246.73739624023438
y: 228.15945434570312
z: -0.005701674614101648
","x: 246.03277587890625
y: 217.16676330566406
z: -0.007582657504826784
","x: 245.58749389648438
y: 220.14889526367188
z: -0.006222724448889494
","x: 245.9195098876953
y: 224.28753662109375
z: -0.004855314269661903
","x: 243.8706512451172
y: 228.82046508789062
z: -0.0074609979055821896
","x: 243.39007568359375
y: 217.85690307617188
z: -0.008472503162920475
","x: 243.2764129638672
y: 220.48362731933594
z: -0.0058441911824047565
","x: 243.54635620117188
y: 223.98988342285156
z: -0.003909070510417223
","x: 241.00021362304688
y: 230.0169677734375
z: -0.008965821005403996
","x: 240.56272888183594
y: 220.03866577148438
z: -0.009497691877186298
","x: 240.62847900390625
y: 222.41021728515625
z: -0.006433297414332628
","x: 240.9154052734375
y: 225.59877014160156
z: -0.004538504406809807
","x: 238.21759033203125
y: 231.44259643554688
z: -0.010424593463540077
","x: 237.9417266845703
y: 223.10203552246094
z: -0.010693598538637161
","x: 238.19314575195312
y: 224.67245483398438
z: -0.008710037916898727
","x: 238.42413330078125
y: 227.5496063232422
z: -0.007184587884694338
",,,,,,,,,,,,,,,,,,,,,
2,"x: 237.907470703125
y: 222.5931396484375
z: -0.17506302893161774
visibility: 0.999982476234436
","x: 241.38577270507812
y: 215.2584228515625
z: -0.18135373294353485
visibility: 0.999961793422699
","x: 242.6840362548828
y: 215.42250061035156
z: -0.18140177428722382
visibility: 0.999974250793457
","x: 244.00572204589844
y: 215.7093048095703
z: -0.1813952624797821
visibility: 0.9999704957008362
","x: 238.85842895507812
y: 214.64402770996094
z: -0.15982289612293243
visibility: 0.9999094605445862
","x: 238.31321716308594
y: 214.20648193359375
z: -0.15981504321098328
visibility: 0.9998900294303894
","x: 237.78419494628906
y: 213.72911071777344
z: -0.1598246693611145
visibility: 0.9998579621315002
","x: 248.36288452148438
y: 219.40234375
z: -0.15411901473999023
visibility: 0.9999710917472839
","x: 240.14688110351562
y: 215.7064666748047
z: -0.060056768357753754
visibility: 0.999797523021698
","x: 241.2809600830078
y: 230.49169921875
z: -0.16452182829380035
visibility: 0.9999752640724182
","x: 238.01089477539062
y: 229.20401000976562
z: -0.1353730857372284
visibility: 0.999942421913147
","x: 258.5779113769531
y: 263.2239990234375
z: -0.16712424159049988
visibility: 0.9999940991401672
","x: 229.25936889648438
y: 256.5057067871094
z: 0.045507289469242096
visibility: 0.9998883008956909
","x: 243.7480010986328
y: 302.05316162109375
z: -0.34323179721832275
visibility: 0.9978324770927429
","x: 218.06753540039062
y: 299.16497802734375
z: 0.14974051713943481
visibility: 0.7999451160430908
","x: 244.76263427734375
y: 251.54991149902344
z: -0.5188153982162476
visibility: 0.997414767742157
","x: 199.3970184326172
y: 267.207275390625
z: 0.13712355494499207
visibility: 0.9558055996894836
","x: 244.5962677001953
y: 236.15509033203125
z: -0.5599930882453918
visibility: 0.9924381971359253
","x: 193.16587829589844
y: 254.21023559570312
z: 0.1361820250749588
visibility: 0.9249684810638428
","x: 246.33653259277344
y: 234.60537719726562
z: -0.5519433617591858
visibility: 0.9929357171058655
","x: 193.92047119140625
y: 250.634765625
z: 0.11500491201877594
visibility: 0.9338410496711731
","x: 246.4276580810547
y: 239.275390625
z: -0.5199014544487
visibility: 0.9882583022117615
","x: 195.86270141601562
y: 254.3970947265625
z: 0.12595920264720917
visibility: 0.927648663520813
","x: 242.3237762451172
y: 370.44671630859375
z: -0.06331153959035873
visibility: 0.9999279975891113
","x: 221.662109375
y: 366.2778015136719
z: 0.06320571154356003
visibility: 0.9999096393585205
","x: 254.166015625
y: 436.9816589355469
z: -0.027868548408150673
visibility: 0.9989863038063049
","x: 207.3305206298828
y: 434.8396301269531
z: 0.05759453773498535
visibility: 0.9971124529838562
","x: 272.55694580078125
y: 508.1806640625
z: 0.1636466234922409
visibility: 0.9993018507957458
","x: 194.50833129882812
y: 504.2877502441406
z: 0.2164103239774704
visibility: 0.998403787612915
","x: 277.024658203125
y: 520.08837890625
z: 0.17867019772529602
visibility: 0.9500197768211365
","x: 197.73289489746094
y: 516.362548828125
z: 0.22672025859355927
visibility: 0.9819389581680298
","x: 264.1248474121094
y: 531.6702880859375
z: 0.072628453373909
visibility: 0.9984455108642578
","x: 180.7692413330078
y: 523.137451171875
z: 0.13187585771083832
visibility: 0.997442364692688
","x: 242.03164672851562
y: 245.3046875
z: 0.0
","x: 245.69857788085938
y: 239.1157684326172
z: 0.0006368455360643566
","x: 247.87307739257812
y: 230.5249786376953
z: -0.0007144479313865304
","x: 248.6332244873047
y: 222.9259490966797
z: -0.002210038248449564
","x: 248.80430603027344
y: 217.2238311767578
z: -0.0030680831987410784
","x: 246.73739624023438
y: 228.15945434570312
z: -0.005701674614101648
","x: 246.03277587890625
y: 217.16676330566406
z: -0.007582657504826784
","x: 245.58749389648438
y: 220.14889526367188
z: -0.006222724448889494
","x: 245.9195098876953
y: 224.28753662109375
z: -0.004855314269661903
","x: 243.8706512451172
y: 228.82046508789062
z: -0.0074609979055821896
","x: 243.39007568359375
y: 217.85690307617188
z: -0.008472503162920475
","x: 243.2764129638672
y: 220.48362731933594
z: -0.0058441911824047565
","x: 243.54635620117188
y: 223.98988342285156
z: -0.003909070510417223
","x: 241.00021362304688
y: 230.0169677734375
z: -0.008965821005403996
","x: 240.56272888183594
y: 220.03866577148438
z: -0.009497691877186298
","x: 240.62847900390625
y: 222.41021728515625
z: -0.006433297414332628
","x: 240.9154052734375
y: 225.59877014160156
z: -0.004538504406809807
","x: 238.21759033203125
y: 231.44259643554688
z: -0.010424593463540077
","x: 237.9417266845703
y: 223.10203552246094
z: -0.010693598538637161
","x: 238.19314575195312
y: 224.67245483398438
z: -0.008710037916898727
","x: 238.42413330078125
y: 227.5496063232422
z: -0.007184587884694338
",,,,,,,,,,,,,,,,,,,,,
3,"x: 231.0944061279297
y: 215.3893280029297
z: -0.146701842546463
visibility: 0.9999781250953674
","x: 234.70108032226562
y: 209.14083862304688
z: -0.15129294991493225
visibility: 0.9999562501907349
","x: 236.0831756591797
y: 209.440673828125
z: -0.15134848654270172
visibility: 0.9999685287475586
","x: 237.5385284423828
y: 209.8587188720703
z: -0.1513427346944809
visibility: 0.999964714050293
","x: 232.40750122070312
y: 208.63121032714844
z: -0.1303989589214325
visibility: 0.9999023079872131
","x: 232.04180908203125
y: 208.4189453125
z: -0.13039395213127136
visibility: 0.9998794198036194
","x: 231.71409606933594
y: 208.2333221435547
z: -0.1303938925266266
visibility: 0.9998493790626526
","x: 242.0680389404297
y: 214.2261505126953
z: -0.1346539556980133
visibility: 0.9999659657478333
","x: 235.06314086914062
y: 211.26351928710938
z: -0.032146256417036057
visibility: 0.9997810125350952
","x: 233.85574340820312
y: 223.5773468017578
z: -0.13621509075164795
visibility: 0.9999698400497437
","x: 231.25868225097656
y: 222.64991760253906
z: -0.1080312579870224
visibility: 0.9999336004257202
","x: 251.39013671875
y: 257.1687927246094
z: -0.15745823085308075
visibility: 0.9999896883964539
","x: 225.28762817382812
y: 257.12158203125
z: 0.07392025738954544
visibility: 0.9998883008956909
","x: 233.79367065429688
y: 301.63812255859375
z: -0.2950069010257721
visibility: 0.9960923790931702
","x: 213.92860412597656
y: 299.4666748046875
z: 0.1308422088623047
visibility: 0.7740845084190369
","x: 228.19407653808594
y: 249.95095825195312
z: -0.4130772054195404
visibility: 0.996235728263855
","x: 193.87545776367188
y: 265.7952575683594
z: 0.03378163278102875
visibility: 0.9501047134399414
","x: 225.05941772460938
y: 236.87860107421875
z: -0.44801759719848633
visibility: 0.991127610206604
","x: 190.0430908203125
y: 256.4786071777344
z: 0.02011154405772686
visibility: 0.9193618893623352
","x: 227.534912109375
y: 234.0214385986328
z: -0.437950998544693
visibility: 0.9914366006851196
","x: 190.9079132080078
y: 252.14651489257812
z: 0.0008235938148573041
visibility: 0.9280726909637451
","x: 228.55902099609375
y: 237.41778564453125
z: -0.41100043058395386
visibility: 0.9851946830749512
","x: 192.48175048828125
y: 254.89605712890625
z: 0.02019953355193138
visibility: 0.9213018417358398
","x: 239.48023986816406
y: 368.7217712402344
z: -0.0682983323931694
visibility: 0.9999243021011353
","x: 219.34808349609375
y: 366.3336181640625
z: 0.06813233345746994
visibility: 0.9999071359634399
","x: 253.78721618652344
y: 436.99884033203125
z: -0.04301895201206207
visibility: 0.9990429878234863
","x: 205.30734252929688
y: 434.96484375
z: 0.09283453226089478
visibility: 0.9970405101776123
","x: 272.02520751953125
y: 506.62298583984375
z: 0.14596743881702423
visibility: 0.9993394017219543
","x: 194.56051635742188
y: 504.025146484375
z: 0.26898837089538574
visibility: 0.998399555683136
","x: 277.0931701660156
y: 518.539794921875
z: 0.15291784703731537
visibility: 0.9519913792610168
","x: 197.7838134765625
y: 515.8864135742188
z: 0.2814651429653168
visibility: 0.9820488691329956
","x: 264.1210632324219
y: 531.1009521484375
z: 0.029516974464058876
visibility: 0.9985321760177612
","x: 180.86961364746094
y: 523.3912963867188
z: 0.1914285272359848
visibility: 0.9974573850631714
","x: 223.93759155273438
y: 244.305419921875
z: 0.0
","x: 227.23049926757812
y: 237.9334716796875
z: -0.0005132891819812357
","x: 228.81385803222656
y: 229.56121826171875
z: -0.002325208391994238
","x: 228.7152862548828
y: 222.68734741210938
z: -0.004000831861048937
","x: 227.49801635742188
y: 218.05520629882812
z: -0.005130769684910774
","x: 227.3409881591797
y: 229.81483459472656
z: -0.007962821051478386
","x: 226.02587890625
y: 217.99685668945312
z: -0.010230275802314281
","x: 226.08074951171875
y: 220.33059692382812
z: -0.008898588828742504
","x: 226.45545959472656
y: 224.12319946289062
z: -0.007489897310733795
","x: 224.27589416503906
y: 231.03070068359375
z: -0.009079818613827229
","x: 223.06886291503906
y: 219.2421875
z: -0.011071826331317425
","x: 223.3883514404297
y: 221.84915161132812
z: -0.008588843047618866
","x: 223.81692504882812
y: 225.9598388671875
z: -0.006415960378944874
","x: 221.20106506347656
y: 232.20010375976562
z: -0.009880635887384415
","x: 220.40896606445312
y: 222.44058227539062
z: -0.011088285595178604
","x: 220.8846435546875
y: 224.87197875976562
z: -0.008284352719783783
","x: 221.2952423095703
y: 228.32151794433594
z: -0.006341584958136082
","x: 218.39767456054688
y: 233.29835510253906
z: -0.010675584897398949
","x: 218.03958129882812
y: 225.3477783203125
z: -0.011422671377658844
","x: 218.5267791748047
y: 227.08697509765625
z: -0.009800010360777378
","x: 218.85003662109375
y: 230.11512756347656
z: -0.008415297605097294
",,,,,,,,,,,,,,,,,,,,,
4,"x: 231.0944061279297
y: 215.3893280029297
z: -0.146701842546463
visibility: 0.9999781250953674
","x: 234.70108032226562
y: 209.14083862304688
z: -0.15129294991493225
visibility: 0.9999562501907349
","x: 236.0831756591797
y: 209.440673828125
z: -0.15134848654270172
visibility: 0.9999685287475586
","x: 237.5385284423828
y: 209.8587188720703
z: -0.1513427346944809
visibility: 0.999964714050293
","x: 232.40750122070312
y: 208.63121032714844
z: -0.1303989589214325
visibility: 0.9999023079872131
","x: 232.04180908203125
y: 208.4189453125
z: -0.13039395213127136
visibility: 0.9998794198036194
","x: 231.71409606933594
y: 208.2333221435547
z: -0.1303938925266266
visibility: 0.9998493790626526
","x: 242.0680389404297
y: 214.2261505126953
z: -0.1346539556980133
visibility: 0.9999659657478333
","x: 235.06314086914062
y: 211.26351928710938
z: -0.032146256417036057
visibility: 0.9997810125350952
","x: 233.85574340820312
y: 223.5773468017578
z: -0.13621509075164795
visibility: 0.9999698400497437
","x: 231.25868225097656
y: 222.64991760253906
z: -0.1080312579870224
visibility: 0.9999336004257202
","x: 251.39013671875
y: 257.1687927246094
z: -0.15745823085308075
visibility: 0.9999896883964539
","x: 225.28762817382812
y: 257.12158203125
z: 0.07392025738954544
visibility: 0.9998883008956909
","x: 233.79367065429688
y: 301.63812255859375
z: -0.2950069010257721
visibility: 0.9960923790931702
","x: 213.92860412597656
y: 299.4666748046875
z: 0.1308422088623047
visibility: 0.7740845084190369
","x: 228.19407653808594
y: 249.95095825195312
z: -0.4130772054195404
visibility: 0.996235728263855
","x: 193.87545776367188
y: 265.7952575683594
z: 0.03378163278102875
visibility: 0.9501047134399414
","x: 225.05941772460938
y: 236.87860107421875
z: -0.44801759719848633
visibility: 0.991127610206604
","x: 190.0430908203125
y: 256.4786071777344
z: 0.02011154405772686
visibility: 0.9193618893623352
","x: 227.534912109375
y: 234.0214385986328
z: -0.437950998544693
visibility: 0.9914366006851196
","x: 190.9079132080078
y: 252.14651489257812
z: 0.0008235938148573041
visibility: 0.9280726909637451
","x: 228.55902099609375
y: 237.41778564453125
z: -0.41100043058395386
visibility: 0.9851946830749512
","x: 192.48175048828125
y: 254.89605712890625
z: 0.02019953355193138
visibility: 0.9213018417358398
","x: 239.48023986816406
y: 368.7217712402344
z: -0.0682983323931694
visibility: 0.9999243021011353
","x: 219.34808349609375
y: 366.3336181640625
z: 0.06813233345746994
visibility: 0.9999071359634399
","x: 253.78721618652344
y: 436.99884033203125
z: -0.04301895201206207
visibility: 0.9990429878234863
","x: 205.30734252929688
y: 434.96484375
z: 0.09283453226089478
visibility: 0.9970405101776123
","x: 272.02520751953125
y: 506.62298583984375
z: 0.14596743881702423
visibility: 0.9993394017219543
","x: 194.56051635742188
y: 504.025146484375
z: 0.26898837089538574
visibility: 0.998399555683136
","x: 277.0931701660156
y: 518.539794921875
z: 0.15291784703731537
visibility: 0.9519913792610168
","x: 197.7838134765625
y: 515.8864135742188
z: 0.2814651429653168
visibility: 0.9820488691329956
","x: 264.1210632324219
y: 531.1009521484375
z: 0.029516974464058876
visibility: 0.9985321760177612
","x: 180.86961364746094
y: 523.3912963867188
z: 0.1914285272359848
visibility: 0.9974573850631714
","x: 223.93759155273438
y: 244.305419921875
z: 0.0
","x: 227.23049926757812
y: 237.9334716796875
z: -0.0005132891819812357
","x: 228.81385803222656
y: 229.56121826171875
z: -0.002325208391994238
","x: 228.7152862548828
y: 222.68734741210938
z: -0.004000831861048937
","x: 227.49801635742188
y: 218.05520629882812
z: -0.005130769684910774
","x: 227.3409881591797
y: 229.81483459472656
z: -0.007962821051478386
","x: 226.02587890625
y: 217.99685668945312
z: -0.010230275802314281
","x: 226.08074951171875
y: 220.33059692382812
z: -0.008898588828742504
","x: 226.45545959472656
y: 224.12319946289062
z: -0.007489897310733795
","x: 224.27589416503906
y: 231.03070068359375
z: -0.009079818613827229
","x: 223.06886291503906
y: 219.2421875
z: -0.011071826331317425
","x: 223.3883514404297
y: 221.84915161132812
z: -0.008588843047618866
","x: 223.81692504882812
y: 225.9598388671875
z: -0.006415960378944874
","x: 221.20106506347656
y: 232.20010375976562
z: -0.009880635887384415
","x: 220.40896606445312
y: 222.44058227539062
z: -0.011088285595178604
","x: 220.8846435546875
y: 224.87197875976562
z: -0.008284352719783783
","x: 221.2952423095703
y: 228.32151794433594
z: -0.006341584958136082
","x: 218.39767456054688
y: 233.29835510253906
z: -0.010675584897398949
","x: 218.03958129882812
y: 225.3477783203125
z: -0.011422671377658844
","x: 218.5267791748047
y: 227.08697509765625
z: -0.009800010360777378
","x: 218.85003662109375
y: 230.11512756347656
z: -0.008415297605097294
",,,,,,,,,,,,,,,,,,,,,
5,"x: 227.8021240234375
y: 211.15455627441406
z: -0.11712776124477386
visibility: 0.9999738335609436
","x: 231.5252227783203
y: 205.3054656982422
z: -0.12192773818969727
visibility: 0.9999518990516663
","x: 233.03485107421875
y: 205.79983520507812
z: -0.12198597192764282
visibility: 0.9999627470970154
","x: 234.56881713867188
y: 206.4114990234375
z: -0.12198247760534286
visibility: 0.9999598860740662
","x: 228.75892639160156
y: 204.9073486328125
z: -0.10014986991882324
visibility: 0.9998986124992371
","x: 228.23040771484375
y: 205.02529907226562
z: -0.10014919191598892
visibility: 0.9998742341995239
","x: 227.73831176757812
y: 205.15211486816406
z: -0.1001298576593399
visibility: 0.9998477697372437
","x: 238.8792724609375
y: 211.68856811523438
z: -0.10939078032970428
visibility: 0.9999627470970154
","x: 231.56190490722656
y: 209.54718017578125
z: -0.00577708100900054
visibility: 0.9997619390487671
","x: 230.5717010498047
y: 220.3535614013672
z: -0.10973815619945526
visibility: 0.9999667406082153
","x: 226.8897247314453
y: 219.8629150390625
z: -0.08061486482620239
visibility: 0.9999258518218994
","x: 246.96376037597656
y: 252.5502166748047
z: -0.14969265460968018
visibility: 0.9999880194664001
","x: 222.08567810058594
y: 258.21832275390625
z: 0.09974758327007294
visibility: 0.9998826384544373
","x: 228.87579345703125
y: 294.2884521484375
z: -0.21239855885505676
visibility: 0.9955405592918396
","x: 213.73452758789062
y: 301.6199035644531
z: 0.11938494443893433
visibility: 0.7304695844650269
","x: 205.21957397460938
y: 252.29592895507812
z: -0.2385166883468628
visibility: 0.9951858520507812
","x: 189.53924560546875
y: 283.0570068359375
z: -0.027122613042593002
visibility: 0.9335002899169922
","x: 199.07696533203125
y: 256.7073669433594
z: -0.270295113325119
visibility: 0.9894611835479736
","x: 184.96974182128906
y: 280.48858642578125
z: -0.04975325986742973
visibility: 0.9034723043441772
","x: 200.02308654785156
y: 250.99423217773438
z: -0.26309260725975037
visibility: 0.9896262288093567
","x: 185.18002319335938
y: 275.9582214355469
z: -0.07722528278827667
visibility: 0.9128837585449219
","x: 201.44497680664062
y: 254.16836547851562
z: -0.23495714366436005
visibility: 0.9817535281181335
","x: 187.30409240722656
y: 275.9796142578125
z: -0.04516908526420593
visibility: 0.9055743217468262
","x: 238.10877990722656
y: 366.29443359375
z: -0.06923780590295792
visibility: 0.9999184608459473
","x: 217.310791015625
y: 365.9308166503906
z: 0.0690765231847763
visibility: 0.9998960494995117
","x: 251.8049774169922
y: 436.8804626464844
z: -0.06789210438728333
visibility: 0.9991115927696228
","x: 204.64138793945312
y: 434.67138671875
z: 0.12449948489665985
visibility: 0.9969341158866882
","x: 271.27960205078125
y: 504.97552490234375
z: 0.08385662734508514
visibility: 0.9993830323219299
","x: 194.56068420410156
y: 504.036376953125
z: 0.2876732349395752
visibility: 0.9984170794487
","x: 276.7947692871094
y: 516.4786376953125
z: 0.09284962713718414
visibility: 0.9549094438552856
","x: 197.7875518798828
y: 516.0186157226562
z: 0.2985771596431732
visibility: 0.9822522401809692
","x: 264.19561767578125
y: 530.591064453125
z: -0.019528264179825783
visibility: 0.9986218810081482
","x: 180.48146057128906
y: 523.3362426757812
z: 0.21609191596508026
visibility: 0.9974765181541443
",,,,,,,,,,,,,,,,,,,,,,,,,,,,,,,,,,,,,,,,,,
6,"x: 226.7867889404297
y: 210.3227996826172
z: -0.1433906853199005
visibility: 0.9999709129333496
","x: 230.06735229492188
y: 204.45640563964844
z: -0.1444176733493805
visibility: 0.9999396800994873
","x: 231.7808074951172
y: 204.9032440185547
z: -0.14441832900047302
visibility: 0.9999502301216125
","x: 233.45379638671875
y: 205.42677307128906
z: -0.1443800926208496
visibility: 0.9999483823776245
","x: 225.99659729003906
y: 203.96612548828125
z: -0.11376635730266571
visibility: 0.9998905658721924
","x: 224.79701232910156
y: 204.06907653808594
z: -0.1138821691274643
visibility: 0.9998637437820435
","x: 223.69674682617188
y: 204.2417755126953
z: -0.11364884674549103
visibility: 0.9998382925987244
","x: 236.74136352539062
y: 210.4878387451172
z: -0.11733610928058624
visibility: 0.9999516606330872
","x: 224.87139892578125
y: 208.46571350097656
z: -0.03439495712518692
visibility: 0.9996964931488037
","x: 229.99639892578125
y: 219.1804656982422
z: -0.11641733348369598
visibility: 0.999959409236908
","x: 224.8350830078125
y: 219.20286560058594
z: -0.09596894681453705
visibility: 0.999912440776825
","x: 244.97618103027344
y: 250.82937622070312
z: -0.14156149327754974
visibility: 0.9999845623970032
","x: 216.99563598632812
y: 258.3041687011719
z: 0.07808925211429596
visibility: 0.999854564666748
","x: 233.48538208007812
y: 297.19573974609375
z: -0.1603478044271469
visibility: 0.9939154982566833
","x: 210.80410766601562
y: 302.2498474121094
z: 0.09096424281597137
visibility: 0.6828780770301819
","x: 208.75160217285156
y: 313.4695129394531
z: -0.19890566170215607
visibility: 0.9900800585746765
","x: 193.70054626464844
y: 323.55462646484375
z: -0.024825312197208405
visibility: 0.8836739659309387
","x: 202.38917541503906
y: 322.496826171875
z: -0.22977805137634277
visibility: 0.9806876182556152
","x: 191.7738800048828
y: 330.8030700683594
z: -0.049578867852687836
visibility: 0.8550369739532471
","x: 201.1803436279297
y: 316.69342041015625
z: -0.23637878894805908
visibility: 0.980888307094574
","x: 191.66983032226562
y: 327.2041015625
z: -0.07729300111532211
visibility: 0.8648808598518372
","x: 204.33834838867188
y: 314.79388427734375
z: -0.2009315937757492
visibility: 0.9685066938400269
","x: 193.4332275390625
y: 325.0169372558594
z: -0.0409681461751461
visibility: 0.8570149540901184
","x: 237.78213500976562
y: 361.7999572753906
z: -0.05785580724477768
visibility: 0.9999023079872131
","x: 217.0014190673828
y: 363.9799499511719
z: 0.05768758803606033
visibility: 0.999879002571106
","x: 251.982421875
y: 436.80029296875
z: -0.07528604567050934
visibility: 0.9991394281387329
","x: 204.779296875
y: 433.83685302734375
z: 0.09415391832590103
visibility: 0.9969820976257324
","x: 270.9625244140625
y: 504.8394470214844
z: 0.06413399428129196
visibility: 0.999393880367279
","x: 194.71958923339844
y: 504.2044372558594
z: 0.2388722151517868
visibility: 0.9984490275382996
","x: 276.4307861328125
y: 516.3939208984375
z: 0.07086297124624252
visibility: 0.9537175297737122
","x: 197.99029541015625
y: 516.573486328125
z: 0.2466021031141281
visibility: 0.9819775819778442
","x: 264.3047790527344
y: 530.285888671875
z: -0.05564556270837784
visibility: 0.9986149072647095
","x: 180.4850616455078
y: 523.312744140625
z: 0.16705448925495148
visibility: 0.9974403977394104
",,,,,,,,,,,,,,,,,,,,,,,,,,,,,,,,,,,,,,,,,,
7,"x: 222.176025390625
y: 211.06748962402344
z: -0.2692664563655853
visibility: 0.9999720454216003
","x: 225.6035614013672
y: 204.75521850585938
z: -0.26094043254852295
visibility: 0.9999403357505798
","x: 227.2892303466797
y: 205.1866912841797
z: -0.26096194982528687
visibility: 0.9999509453773499
","x: 229.09954833984375
y: 205.7030487060547
z: -0.26096850633621216
visibility: 0.9999496936798096
","x: 221.88479614257812
y: 204.03228759765625
z: -0.2501799166202545
visibility: 0.999893844127655
","x: 220.9343719482422
y: 203.96783447265625
z: -0.2501787543296814
visibility: 0.9998681545257568
","x: 219.97349548339844
y: 203.92774963378906
z: -0.2501680254936218
visibility: 0.9998430609703064
","x: 233.2580108642578
y: 210.6986846923828
z: -0.18887260556221008
visibility: 0.9999517798423767
","x: 221.4543914794922
y: 207.46153259277344
z: -0.1398663967847824
visibility: 0.9996853470802307
","x: 225.09304809570312
y: 220.09095764160156
z: -0.23967668414115906
visibility: 0.9999613761901855
","x: 220.64154052734375
y: 219.83480834960938
z: -0.22627100348472595
visibility: 0.9999163746833801
","x: 245.47181701660156
y: 253.1282958984375
z: -0.1764354407787323
visibility: 0.9999854564666748
","x: 210.04310607910156
y: 258.7779846191406
z: -0.029341936111450195
visibility: 0.9998493790626526
","x: 240.10244750976562
y: 304.084228515625
z: -0.19983287155628204
visibility: 0.994057297706604
","x: 205.1940155029297
y: 309.370361328125
z: 0.003709497395902872
visibility: 0.6712234616279602
","x: 228.6839599609375
y: 353.1348876953125
z: -0.30001169443130493
visibility: 0.9900502562522888
","x: 198.86654663085938
y: 350.25201416015625
z: -0.11022772639989853
visibility: 0.8641550540924072
","x: 227.8661346435547
y: 369.35205078125
z: -0.33907386660575867
visibility: 0.9806129336357117
","x: 197.7925567626953
y: 362.58343505859375
z: -0.13746193051338196
visibility: 0.8326354622840881
","x: 223.42440795898438
y: 366.94024658203125
z: -0.3543878197669983
visibility: 0.980861246585846
","x: 198.22174072265625
y: 360.61224365234375
z: -0.16824188828468323
visibility: 0.8426498770713806
","x: 222.57362365722656
y: 361.84429931640625
z: -0.3070492148399353
visibility: 0.9682540893554688
","x: 199.94598388671875
y: 356.96728515625
z: -0.12607091665267944
visibility: 0.8334869742393494
","x: 238.49819946289062
y: 362.388671875
z: -0.04703879356384277
visibility: 0.9999037981033325
","x: 217.7189483642578
y: 364.077392578125
z: 0.04693114385008812
visibility: 0.9998787045478821
","x: 252.11170959472656
y: 436.10498046875
z: -0.04587320610880852
visibility: 0.9991834759712219
","x: 204.2542724609375
y: 433.63507080078125
z: 0.08623005449771881
visibility: 0.9970715641975403
","x: 271.0110168457031
y: 505.1572265625
z: 0.08046932518482208
visibility: 0.9994220733642578
","x: 194.63536071777344
y: 504.84735107421875
z: 0.25592437386512756
visibility: 0.9984966516494751
","x: 275.58575439453125
y: 516.1192626953125
z: 0.09021275490522385
visibility: 0.9538871645927429
","x: 197.99217224121094
y: 516.9462890625
z: 0.26620104908943176
visibility: 0.9815748333930969
","x: 264.5624694824219
y: 530.1962890625
z: -0.04058747738599777
visibility: 0.9986482858657837
","x: 180.5903778076172
y: 523.534912109375
z: 0.1707521677017212
visibility: 0.9974639415740967
","x: 230.55516052246094
y: 360.88671875
z: 0.0
","x: 227.0252227783203
y: 364.50811767578125
z: 0.0019146930426359177
","x: 224.08865356445312
y: 369.4815673828125
z: 0.0010035770246759057
","x: 222.19920349121094
y: 372.84820556640625
z: -0.0006407903856597841
","x: 221.06253051757812
y: 374.8454284667969
z: -0.001946815405972302
","x: 223.7091064453125
y: 373.2217102050781
z: -0.003478711936622858
","x: 223.00648498535156
y: 383.45843505859375
z: -0.005966364871710539
","x: 223.96749877929688
y: 381.94207763671875
z: -0.005730015691369772
","x: 224.44322204589844
y: 378.4515686035156
z: -0.005141513887792826
","x: 225.8896942138672
y: 373.5119934082031
z: -0.006284067407250404
","x: 225.31643676757812
y: 385.4901428222656
z: -0.008633829653263092
","x: 226.03543090820312
y: 383.65496826171875
z: -0.0075027733109891415
","x: 226.41824340820312
y: 379.59521484375
z: -0.006262478418648243
","x: 228.34359741210938
y: 373.217529296875
z: -0.008894883096218109
","x: 228.0478515625
y: 384.50933837890625
z: -0.010138739831745625
","x: 228.68165588378906
y: 382.15228271484375
z: -0.00791676715016365
","x: 228.84664916992188
y: 378.2304382324219
z: -0.006385795772075653
","x: 230.95849609375
y: 372.6873474121094
z: -0.011429522186517715
","x: 230.83575439453125
y: 381.173095703125
z: -0.011924836784601212
","x: 231.16622924804688
y: 379.4498291015625
z: -0.010378219187259674
","x: 231.21798706054688
y: 376.03094482421875
z: -0.009164388291537762
",,,,,,,,,,,,,,,,,,,,,
8,"x: 222.176025390625
y: 211.06748962402344
z: -0.2692664563655853
visibility: 0.9999720454216003
","x: 225.6035614013672
y: 204.75521850585938
z: -0.26094043254852295
visibility: 0.9999403357505798
","x: 227.2892303466797
y: 205.1866912841797
z: -0.26096194982528687
visibility: 0.9999509453773499
","x: 229.09954833984375
y: 205.7030487060547
z: -0.26096850633621216
visibility: 0.9999496936798096
","x: 221.88479614257812
y: 204.03228759765625
z: -0.2501799166202545
visibility: 0.999893844127655
","x: 220.9343719482422
y: 203.96783447265625
z: -0.2501787543296814
visibility: 0.9998681545257568
","x: 219.97349548339844
y: 203.92774963378906
z: -0.2501680254936218
visibility: 0.9998430609703064
","x: 233.2580108642578
y: 210.6986846923828
z: -0.18887260556221008
visibility: 0.9999517798423767
","x: 221.4543914794922
y: 207.46153259277344
z: -0.1398663967847824
visibility: 0.9996853470802307
","x: 225.09304809570312
y: 220.09095764160156
z: -0.23967668414115906
visibility: 0.9999613761901855
","x: 220.64154052734375
y: 219.83480834960938
z: -0.22627100348472595
visibility: 0.9999163746833801
","x: 245.47181701660156
y: 253.1282958984375
z: -0.1764354407787323
visibility: 0.9999854564666748
","x: 210.04310607910156
y: 258.7779846191406
z: -0.029341936111450195
visibility: 0.9998493790626526
","x: 240.10244750976562
y: 304.084228515625
z: -0.19983287155628204
visibility: 0.994057297706604
","x: 205.1940155029297
y: 309.370361328125
z: 0.003709497395902872
visibility: 0.6712234616279602
","x: 228.6839599609375
y: 353.1348876953125
z: -0.30001169443130493
visibility: 0.9900502562522888
","x: 198.86654663085938
y: 350.25201416015625
z: -0.11022772639989853
visibility: 0.8641550540924072
","x: 227.8661346435547
y: 369.35205078125
z: -0.33907386660575867
visibility: 0.9806129336357117
","x: 197.7925567626953
y: 362.58343505859375
z: -0.13746193051338196
visibility: 0.8326354622840881
","x: 223.42440795898438
y: 366.94024658203125
z: -0.3543878197669983
visibility: 0.980861246585846
","x: 198.22174072265625
y: 360.61224365234375
z: -0.16824188828468323
visibility: 0.8426498770713806
","x: 222.57362365722656
y: 361.84429931640625
z: -0.3070492148399353
visibility: 0.9682540893554688
","x: 199.94598388671875
y: 356.96728515625
z: -0.12607091665267944
visibility: 0.8334869742393494
","x: 238.49819946289062
y: 362.388671875
z: -0.04703879356384277
visibility: 0.9999037981033325
","x: 217.7189483642578
y: 364.077392578125
z: 0.04693114385008812
visibility: 0.9998787045478821
","x: 252.11170959472656
y: 436.10498046875
z: -0.04587320610880852
visibility: 0.9991834759712219
","x: 204.2542724609375
y: 433.63507080078125
z: 0.08623005449771881
visibility: 0.9970715641975403
","x: 271.0110168457031
y: 505.1572265625
z: 0.08046932518482208
visibility: 0.9994220733642578
","x: 194.63536071777344
y: 504.84735107421875
z: 0.25592437386512756
visibility: 0.9984966516494751
","x: 275.58575439453125
y: 516.1192626953125
z: 0.09021275490522385
visibility: 0.9538871645927429
","x: 197.99217224121094
y: 516.9462890625
z: 0.26620104908943176
visibility: 0.9815748333930969
","x: 264.5624694824219
y: 530.1962890625
z: -0.04058747738599777
visibility: 0.9986482858657837
","x: 180.5903778076172
y: 523.534912109375
z: 0.1707521677017212
visibility: 0.9974639415740967
","x: 230.55516052246094
y: 360.88671875
z: 0.0
","x: 227.0252227783203
y: 364.50811767578125
z: 0.0019146930426359177
","x: 224.08865356445312
y: 369.4815673828125
z: 0.0010035770246759057
","x: 222.19920349121094
y: 372.84820556640625
z: -0.0006407903856597841
","x: 221.06253051757812
y: 374.8454284667969
z: -0.001946815405972302
","x: 223.7091064453125
y: 373.2217102050781
z: -0.003478711936622858
","x: 223.00648498535156
y: 383.45843505859375
z: -0.005966364871710539
","x: 223.96749877929688
y: 381.94207763671875
z: -0.005730015691369772
","x: 224.44322204589844
y: 378.4515686035156
z: -0.005141513887792826
","x: 225.8896942138672
y: 373.5119934082031
z: -0.006284067407250404
","x: 225.31643676757812
y: 385.4901428222656
z: -0.008633829653263092
","x: 226.03543090820312
y: 383.65496826171875
z: -0.0075027733109891415
","x: 226.41824340820312
y: 379.59521484375
z: -0.006262478418648243
","x: 228.34359741210938
y: 373.217529296875
z: -0.008894883096218109
","x: 228.0478515625
y: 384.50933837890625
z: -0.010138739831745625
","x: 228.68165588378906
y: 382.15228271484375
z: -0.00791676715016365
","x: 228.84664916992188
y: 378.2304382324219
z: -0.006385795772075653
","x: 230.95849609375
y: 372.6873474121094
z: -0.011429522186517715
","x: 230.83575439453125
y: 381.173095703125
z: -0.011924836784601212
","x: 231.16622924804688
y: 379.4498291015625
z: -0.010378219187259674
","x: 231.21798706054688
y: 376.03094482421875
z: -0.009164388291537762
",,,,,,,,,,,,,,,,,,,,,
9,"x: 222.5508270263672
y: 211.5318603515625
z: -0.31718558073043823
visibility: 0.9999744296073914
","x: 225.2582550048828
y: 204.7692108154297
z: -0.30322080850601196
visibility: 0.999944269657135
","x: 227.0783233642578
y: 205.26785278320312
z: -0.303218275308609
visibility: 0.9999539256095886
","x: 228.9171600341797
y: 205.85328674316406
z: -0.3032054007053375
visibility: 0.9999526143074036
","x: 220.99868774414062
y: 204.08546447753906
z: -0.3013778328895569
visibility: 0.9999025464057922
","x: 219.68714904785156
y: 204.07598876953125
z: -0.30142107605934143
visibility: 0.9998794794082642
","x: 218.4473876953125
y: 204.10791015625
z: -0.30144864320755005
visibility: 0.9998568296432495
","x: 231.86546325683594
y: 210.5979766845703
z: -0.20784492790699005
visibility: 0.999952495098114
","x: 217.48841857910156
y: 207.71466064453125
z: -0.19750091433525085
visibility: 0.9997122287750244
","x: 225.67762756347656
y: 220.41439819335938
z: -0.28011777997016907
visibility: 0.99996417760849
","x: 220.4512481689453
y: 219.8377685546875
z: -0.2775127589702606
visibility: 0.9999236464500427
","x: 244.8561248779297
y: 254.33197021484375
z: -0.1571696698665619
visibility: 0.9999843835830688
","x: 204.47048950195312
y: 260.8054504394531
z: -0.10503704845905304
visibility: 0.9998613595962524
","x: 244.3887176513672
y: 312.2588806152344
z: -0.11831200122833252
visibility: 0.9934841990470886
","x: 196.60568237304688
y: 316.76593017578125
z: -0.05708300322294235
visibility: 0.7006650567054749
","x: 251.63308715820312
y: 361.4093017578125
z: -0.20955316722393036
visibility: 0.9873422980308533
","x: 193.11341857910156
y: 361.66357421875
z: -0.13835665583610535
visibility: 0.8736444115638733
","x: 256.09375
y: 378.5666198730469
z: -0.23659172654151917
visibility: 0.9752373099327087
","x: 193.53282165527344
y: 377.2289733886719
z: -0.1648373007774353
visibility: 0.8409145474433899
","x: 253.99472045898438
y: 378.87640380859375
z: -0.26716598868370056
visibility: 0.9760982990264893
","x: 197.33518981933594
y: 376.0108947753906
z: -0.19610148668289185
visibility: 0.850666344165802
","x: 251.08755493164062
y: 373.72686767578125
z: -0.22340723872184753
visibility: 0.9631388783454895
","x: 198.59930419921875
y: 371.88519287109375
z: -0.15279166400432587
visibility: 0.8416155576705933
","x: 239.1123046875
y: 363.0411071777344
z: -0.022472327575087547
visibility: 0.999900221824646
","x: 216.3451385498047
y: 364.25897216796875
z: 0.022273408249020576
visibility: 0.9998835325241089
","x: 253.1710662841797
y: 437.68963623046875
z: -0.0192275308072567
visibility: 0.9991790056228638
","x: 201.1096954345703
y: 433.88739013671875
z: -0.0036990842781960964
visibility: 0.9972667098045349
","x: 271.0281982421875
y: 505.3462219238281
z: 0.16809464991092682
visibility: 0.9994033575057983
","x: 194.6359405517578
y: 505.2103271484375
z: 0.1830470860004425
visibility: 0.9985705614089966
","x: 273.6607666015625
y: 515.8714599609375
z: 0.17887663841247559
visibility: 0.9513527750968933
","x: 197.96694946289062
y: 517.0642700195312
z: 0.19463451206684113
visibility: 0.9813353419303894
","x: 267.00048828125
y: 530.2074584960938
z: 0.049330610781908035
visibility: 0.9985491037368774
","x: 180.99134826660156
y: 523.8410034179688
z: 0.08273640275001526
visibility: 0.9975167512893677
",,,,,,,,,,,,,,,,,,,,,,,,,,,,,,,,,,,,,,,,,,
10,"x: 218.8843536376953
y: 212.0911407470703
z: -0.3596692681312561
visibility: 0.9999762177467346
","x: 221.09390258789062
y: 205.43585205078125
z: -0.34547096490859985
visibility: 0.9999463558197021
","x: 222.61349487304688
y: 205.91184997558594
z: -0.34547680616378784
visibility: 0.9999555349349976
","x: 224.18350219726562
y: 206.43740844726562
z: -0.34549903869628906
visibility: 0.9999542832374573
","x: 217.10572814941406
y: 204.45889282226562
z: -0.3438034951686859
visibility: 0.9999083280563354
","x: 215.78004455566406
y: 204.14743041992188
z: -0.34384191036224365
visibility: 0.9998875856399536
","x: 214.43421936035156
y: 204.4277801513672
z: -0.3438606858253479
visibility: 0.9998663663864136
","x: 226.20140075683594
y: 210.94158935546875
z: -0.24342703819274902
visibility: 0.9999517202377319
","x: 213.01974487304688
y: 207.8958282470703
z: -0.23459330201148987
visibility: 0.9997297525405884
","x: 221.2500762939453
y: 220.96456909179688
z: -0.3200526237487793
visibility: 0.9999657869338989
","x: 216.38768005371094
y: 220.32196044921875
z: -0.3177904784679413
visibility: 0.9999282956123352
","x: 238.76025390625
y: 254.85479736328125
z: -0.17309559881687164
visibility: 0.9999842643737793
","x: 198.6387939453125
y: 260.74688720703125
z: -0.12733924388885498
visibility: 0.999869167804718
","x: 245.69012451171875
y: 311.7628173828125
z: -0.13760313391685486
visibility: 0.9935929775238037
","x: 191.5675506591797
y: 313.393310546875
z: -0.06525962799787521
visibility: 0.7239493727684021
","x: 257.2159118652344
y: 358.33941650390625
z: -0.22454769909381866
visibility: 0.9867916107177734
","x: 188.53260803222656
y: 361.4761962890625
z: -0.1450190246105194
visibility: 0.8799742460250854
","x: 261.9626770019531
y: 372.82171630859375
z: -0.2511679530143738
visibility: 0.9734089374542236
","x: 186.8427734375
y: 377.4427490234375
z: -0.16990338265895844
visibility: 0.8452415466308594
","x: 260.326904296875
y: 374.16064453125
z: -0.2853087782859802
visibility: 0.9746676087379456
","x: 188.49681091308594
y: 377.0828857421875
z: -0.2100859135389328
visibility: 0.8552641272544861
","x: 257.7992858886719
y: 369.6686096191406
z: -0.23969881236553192
visibility: 0.9617597460746765
","x: 189.90911865234375
y: 372.1408386230469
z: -0.16333773732185364
visibility: 0.8462800979614258
","x: 235.7355194091797
y: 361.8753662109375
z: -0.020364943891763687
visibility: 0.9998986124992371
","x: 211.67079162597656
y: 362.5016784667969
z: 0.02021409384906292
visibility: 0.999884843826294
","x: 250.0972900390625
y: 435.78912353515625
z: -0.020729001611471176
visibility: 0.9991920590400696
","x: 198.24786376953125
y: 434.42218017578125
z: 0.008976193144917488
visibility: 0.9974392056465149
","x: 267.0403747558594
y: 505.17205810546875
z: 0.13786104321479797
visibility: 0.9994107484817505
","x: 194.14019775390625
y: 505.6051025390625
z: 0.18667340278625488
visibility: 0.9986363649368286
","x: 267.6048889160156
y: 514.3253173828125
z: 0.1491890549659729
visibility: 0.9502667784690857
","x: 197.77854919433594
y: 517.0479736328125
z: 0.19648660719394684
visibility: 0.9811699986457825
","x: 267.41748046875
y: 530.2762451171875
z: 0.016367264091968536
visibility: 0.9985129833221436
","x: 181.44606018066406
y: 524.4669189453125
z: 0.0835869237780571
visibility: 0.9975787997245789
",,,,,,,,,,,,,,,,,,,,,,,,,,,,,,,,,,,,,,,,,,
11,"x: 216.99447631835938
y: 212.3380126953125
z: -0.37846872210502625
visibility: 0.9999773502349854
","x: 219.8567657470703
y: 205.74502563476562
z: -0.36702606081962585
visibility: 0.9999482035636902
","x: 221.54534912109375
y: 206.16319274902344
z: -0.3670521378517151
visibility: 0.9999563694000244
","x: 223.10580444335938
y: 206.68017578125
z: -0.3670894503593445
visibility: 0.9999555349349976
","x: 215.53729248046875
y: 204.95103454589844
z: -0.36328426003456116
visibility: 0.9999136328697205
","x: 214.2999725341797
y: 204.67393493652344
z: -0.3633177876472473
visibility: 0.9998939633369446
","x: 213.1227264404297
y: 204.88046264648438
z: -0.36333245038986206
visibility: 0.9998746514320374
","x: 225.224853515625
y: 211.38082885742188
z: -0.26631343364715576
visibility: 0.9999504089355469
","x: 212.31985473632812
y: 208.28662109375
z: -0.24990049004554749
visibility: 0.9997467994689941
","x: 219.64801025390625
y: 221.2608184814453
z: -0.33873748779296875
visibility: 0.999967098236084
","x: 214.39170837402344
y: 220.62890625
z: -0.3341591954231262
visibility: 0.999933123588562
","x: 237.19097900390625
y: 255.4010772705078
z: -0.1966051310300827
visibility: 0.9999831914901733
","x: 197.63710021972656
y: 256.3921203613281
z: -0.13354037702083588
visibility: 0.9998794794082642
","x: 240.07870483398438
y: 314.6323547363281
z: -0.16702207922935486
visibility: 0.993379533290863
","x: 188.68319702148438
y: 311.12646484375
z: -0.060011524707078934
visibility: 0.7474046349525452
","x: 235.5677947998047
y: 363.7588806152344
z: -0.2605077922344208
visibility: 0.9852759838104248
","x: 184.29188537597656
y: 356.90130615234375
z: -0.15122874081134796
visibility: 0.8862518072128296
","x: 235.9537353515625
y: 380.1374816894531
z: -0.29415059089660645
visibility: 0.9698348045349121
","x: 182.1173553466797
y: 372.04901123046875
z: -0.17695274949073792
visibility: 0.8505181074142456
","x: 231.29388427734375
y: 379.2020263671875
z: -0.32246720790863037
visibility: 0.971301794052124
","x: 183.9132843017578
y: 371.68408203125
z: -0.21720504760742188
visibility: 0.860356330871582
","x: 230.11953735351562
y: 373.1889343261719
z: -0.2727918028831482
visibility: 0.9568007588386536
","x: 185.24313354492188
y: 366.64453125
z: -0.16935278475284576
visibility: 0.8506319522857666
","x: 230.61611938476562
y: 360.512939453125
z: -0.013033352792263031
visibility: 0.9999017119407654
","x: 206.32672119140625
y: 361.1575012207031
z: 0.012974920682609081
visibility: 0.9998907446861267
","x: 243.62127685546875
y: 435.6054382324219
z: -0.023290004581212997
visibility: 0.9990788102149963
","x: 196.83474731445312
y: 434.0428161621094
z: 0.022042520344257355
visibility: 0.9975779056549072
","x: 252.23516845703125
y: 506.09539794921875
z: 0.100344218313694
visibility: 0.9993691444396973
","x: 194.04696655273438
y: 505.58453369140625
z: 0.19435817003250122
visibility: 0.9986665844917297
","x: 249.82229614257812
y: 515.6416015625
z: 0.1029018759727478
visibility: 0.9527531266212463
","x: 197.78286743164062
y: 517.0237426757812
z: 0.20327334105968475
visibility: 0.9809788465499878
","x: 264.93878173828125
y: 530.26025390625
z: -0.029997026547789574
visibility: 0.9984123110771179
","x: 181.48709106445312
y: 524.37060546875
z: 0.09089299291372299
visibility: 0.9975755214691162
",,,,,,,,,,,,,,,,,,,,,,,,,,,,,,,,,,,,,,,,,,
12,"x: 217.30316162109375
y: 212.73855590820312
z: -0.31121936440467834
visibility: 0.9999762773513794
","x: 220.47015380859375
y: 206.18348693847656
z: -0.30156248807907104
visibility: 0.999944806098938
","x: 222.01116943359375
y: 206.59884643554688
z: -0.30159589648246765
visibility: 0.9999502897262573
","x: 223.3396453857422
y: 207.11575317382812
z: -0.30161696672439575
visibility: 0.9999473094940186
","x: 215.99383544921875
y: 205.26492309570312
z: -0.2947165071964264
visibility: 0.9999169707298279
","x: 214.63455200195312
y: 204.90296936035156
z: -0.29474443197250366
visibility: 0.9998992085456848
","x: 213.3658447265625
y: 204.83277893066406
z: -0.29475608468055725
visibility: 0.9998825788497925
","x: 225.10653686523438
y: 211.64224243164062
z: -0.24405691027641296
visibility: 0.9999296069145203
","x: 212.44570922851562
y: 207.98251342773438
z: -0.1822662502527237
visibility: 0.999762773513794
","x: 219.55087280273438
y: 221.39593505859375
z: -0.27877143025398254
visibility: 0.9999610185623169
","x: 214.33148193359375
y: 220.70497131347656
z: -0.2677919566631317
visibility: 0.9999353885650635
","x: 234.8723602294922
y: 255.77993774414062
z: -0.13585643470287323
visibility: 0.999905526638031
","x: 197.16925048828125
y: 253.74118041992188
z: -0.07295587658882141
visibility: 0.9998854994773865
","x: 234.5031280517578
y: 313.7698669433594
z: -0.17210350930690765
visibility: 0.9892055988311768
","x: 187.35159301757812
y: 303.4982604980469
z: -0.10814140737056732
visibility: 0.7681713700294495
","x: 222.13180541992188
y: 356.03662109375
z: -0.31758108735084534
visibility: 0.9726160168647766
","x: 187.30889892578125
y: 318.9142150878906
z: -0.3244525194168091
visibility: 0.8947716951370239
","x: 217.74041748046875
y: 374.5327453613281
z: -0.3591422736644745
visibility: 0.9529972076416016
","x: 186.81637573242188
y: 325.8017272949219
z: -0.3675153851509094
visibility: 0.8608391880989075
","x: 210.45677185058594
y: 311.98828125
z: -0.3715457618236542
visibility: 0.954518735408783
","x: 189.0620880126953
y: 314.6944885253906
z: -0.3819515109062195
visibility: 0.8697611093521118
","x: 211.35140991210938
y: 311.8381042480469
z: -0.32468265295028687
visibility: 0.9335013628005981
","x: 188.2539825439453
y: 312.580322265625
z: -0.3342846930027008
visibility: 0.8591302633285522
","x: 227.79965209960938
y: 359.0429382324219
z: -0.021182235330343246
visibility: 0.9998744130134583
","x: 204.6715087890625
y: 360.0080871582031
z: 0.021051252260804176
visibility: 0.999885618686676
","x: 242.31295776367188
y: 431.8513488769531
z: -0.024746451526880264
visibility: 0.9990602135658264
","x: 196.12525939941406
y: 432.9243469238281
z: 0.02287246473133564
visibility: 0.9977050423622131
","x: 254.47622680664062
y: 506.0078430175781
z: 0.061578474938869476
visibility: 0.9993630051612854
","x: 193.88275146484375
y: 505.6495361328125
z: 0.1943216174840927
visibility: 0.9987186193466187
","x: 252.41941833496094
y: 515.6537475585938
z: 0.061870116740465164
visibility: 0.954161524772644
","x: 197.78282165527344
y: 517.0250244140625
z: 0.20224225521087646
visibility: 0.9813257455825806
","x: 262.3665466308594
y: 529.9556884765625
z: -0.07091127336025238
visibility: 0.9984006881713867
","x: 181.47328186035156
y: 524.3723754882812
z: 0.09555163979530334
visibility: 0.9976133108139038
",,,,,,,,,,,,,,,,,,,,,,,,,,,,,,,,,,,,,,,,,,
13,"x: 217.76470947265625
y: 215.7170867919922
z: -0.29597342014312744
visibility: 0.9999685287475586
","x: 220.87632751464844
y: 208.69882202148438
z: -0.28628116846084595
visibility: 0.9999234676361084
","x: 222.3479461669922
y: 209.10891723632812
z: -0.2863072454929352
visibility: 0.9999253749847412
","x: 223.712890625
y: 209.53851318359375
z: -0.28631871938705444
visibility: 0.999914288520813
","x: 216.67520141601562
y: 207.1735382080078
z: -0.28093230724334717
visibility: 0.9999055862426758
","x: 215.38983154296875
y: 206.55465698242188
z: -0.280972421169281
visibility: 0.9998893737792969
","x: 214.21014404296875
y: 206.15045166015625
z: -0.28100255131721497
visibility: 0.9998746514320374
","x: 225.35964965820312
y: 212.51893615722656
z: -0.21184436976909637
visibility: 0.9998787045478821
","x: 213.00717163085938
y: 208.32855224609375
z: -0.17343804240226746
visibility: 0.9997435808181763
","x: 219.83840942382812
y: 222.56521606445312
z: -0.2646450102329254
visibility: 0.9999315142631531
","x: 214.62832641601562
y: 221.84762573242188
z: -0.25319749116897583
visibility: 0.9999192953109741
","x: 234.7136993408203
y: 255.9432373046875
z: -0.11081232130527496
visibility: 0.9997819066047668
","x: 198.514892578125
y: 253.4799041748047
z: -0.0795600488781929
visibility: 0.9998722076416016
","x: 234.60447692871094
y: 314.2432861328125
z: -0.08098606020212173
visibility: 0.9701561331748962
","x: 189.64527893066406
y: 302.3541564941406
z: -0.1616407334804535
visibility: 0.7769728899002075
","x: 232.1516876220703
y: 357.4464416503906
z: -0.14445441961288452
visibility: 0.9228156208992004
","x: 194.95579528808594
y: 293.9746398925781
z: -0.38617366552352905
visibility: 0.8965454697608948
","x: 231.41336059570312
y: 373.072998046875
z: -0.16328945755958557
visibility: 0.8979665637016296
","x: 199.29652404785156
y: 290.0469055175781
z: -0.42609062790870667
visibility: 0.8626929521560669
","x: 228.04428100585938
y: 367.9711608886719
z: -0.18730123341083527
visibility: 0.899680495262146
","x: 199.76649475097656
y: 281.5219421386719
z: -0.4329499304294586
visibility: 0.8705055117607117
","x: 227.90716552734375
y: 365.1334228515625
z: -0.15412472188472748
visibility: 0.8770338296890259
","x: 199.2760009765625
y: 282.27203369140625
z: -0.3933701813220978
visibility: 0.8569588661193848
","x: 227.89871215820312
y: 359.7584533691406
z: -0.016357116401195526
visibility: 0.9998467564582825
","x: 205.4521484375
y: 360.39727783203125
z: 0.016231568530201912
visibility: 0.9998744130134583
","x: 244.1175537109375
y: 430.1864013671875
z: -0.02766832336783409
visibility: 0.9989847540855408
","x: 195.61740112304688
y: 433.1945495605469
z: 0.04024941474199295
visibility: 0.9977204203605652
","x: 254.55250549316406
y: 506.02239990234375
z: 0.05658050626516342
visibility: 0.999315083026886
","x: 193.78321838378906
y: 506.27685546875
z: 0.19876500964164734
visibility: 0.9987406730651855
","x: 252.07749938964844
y: 515.7454833984375
z: 0.056321579962968826
visibility: 0.9557555317878723
","x: 197.79849243164062
y: 518.1221923828125
z: 0.206956148147583
visibility: 0.9813920259475708
","x: 262.6192626953125
y: 530.1607666015625
z: -0.06993478536605835
visibility: 0.9983169436454773
","x: 181.10313415527344
y: 524.458984375
z: 0.10204382985830307
visibility: 0.9976069927215576
",,,,,,,,,,,,,,,,,,,,,,"x: 194.75917053222656
y: 300.563232421875
z: 0.0
","x: 195.1726531982422
y: 293.6686096191406
z: 0.000675506133120507
","x: 197.7470703125
y: 286.17657470703125
z: -0.0006178035982884467
","x: 200.23666381835938
y: 281.27984619140625
z: -0.0022748559713363647
","x: 201.87832641601562
y: 277.6690368652344
z: -0.003693885402753949
","x: 198.99078369140625
y: 286.6491394042969
z: -0.004693459719419479
","x: 203.9326629638672
y: 281.5665283203125
z: -0.007340670097619295
","x: 206.56661987304688
y: 278.9849548339844
z: -0.007706835865974426
","x: 208.29139709472656
y: 277.2645263671875
z: -0.007744334638118744
","x: 200.02108764648438
y: 290.75592041015625
z: -0.006743885111063719
","x: 203.8413848876953
y: 286.4278869628906
z: -0.01012701727449894
","x: 202.48939514160156
y: 288.3378601074219
z: -0.00842319242656231
","x: 200.80946350097656
y: 290.1581115722656
z: -0.006415983662009239
","x: 200.81817626953125
y: 295.0017395019531
z: -0.008602239191532135
","x: 203.6631622314453
y: 291.43743896484375
z: -0.011376256123185158
","x: 202.4783172607422
y: 292.92828369140625
z: -0.008360229432582855
","x: 201.19686889648438
y: 294.51177978515625
z: -0.0057459743693470955
","x: 201.4677276611328
y: 299.1058044433594
z: -0.010568532161414623
","x: 203.62933349609375
y: 295.89019775390625
z: -0.012354318983852863
","x: 202.6993865966797
y: 297.0380859375
z: -0.01051341462880373
","x: 201.67315673828125
y: 298.8790283203125
z: -0.008610939607024193
"
14,"x: 217.76470947265625
y: 215.7170867919922
z: -0.29597342014312744
visibility: 0.9999685287475586
","x: 220.87632751464844
y: 208.69882202148438
z: -0.28628116846084595
visibility: 0.9999234676361084
","x: 222.3479461669922
y: 209.10891723632812
z: -0.2863072454929352
visibility: 0.9999253749847412
","x: 223.712890625
y: 209.53851318359375
z: -0.28631871938705444
visibility: 0.999914288520813
","x: 216.67520141601562
y: 207.1735382080078
z: -0.28093230724334717
visibility: 0.9999055862426758
","x: 215.38983154296875
y: 206.55465698242188
z: -0.280972421169281
visibility: 0.9998893737792969
","x: 214.21014404296875
y: 206.15045166015625
z: -0.28100255131721497
visibility: 0.9998746514320374
","x: 225.35964965820312
y: 212.51893615722656
z: -0.21184436976909637
visibility: 0.9998787045478821
","x: 213.00717163085938
y: 208.32855224609375
z: -0.17343804240226746
visibility: 0.9997435808181763
","x: 219.83840942382812
y: 222.56521606445312
z: -0.2646450102329254
visibility: 0.9999315142631531
","x: 214.62832641601562
y: 221.84762573242188
z: -0.25319749116897583
visibility: 0.9999192953109741
","x: 234.7136993408203
y: 255.9432373046875
z: -0.11081232130527496
visibility: 0.9997819066047668
","x: 198.514892578125
y: 253.4799041748047
z: -0.0795600488781929
visibility: 0.9998722076416016
","x: 234.60447692871094
y: 314.2432861328125
z: -0.08098606020212173
visibility: 0.9701561331748962
","x: 189.64527893066406
y: 302.3541564941406
z: -0.1616407334804535
visibility: 0.7769728899002075
","x: 232.1516876220703
y: 357.4464416503906
z: -0.14445441961288452
visibility: 0.9228156208992004
","x: 194.95579528808594
y: 293.9746398925781
z: -0.38617366552352905
visibility: 0.8965454697608948
","x: 231.41336059570312
y: 373.072998046875
z: -0.16328945755958557
visibility: 0.8979665637016296
","x: 199.29652404785156
y: 290.0469055175781
z: -0.42609062790870667
visibility: 0.8626929521560669
","x: 228.04428100585938
y: 367.9711608886719
z: -0.18730123341083527
visibility: 0.899680495262146
","x: 199.76649475097656
y: 281.5219421386719
z: -0.4329499304294586
visibility: 0.8705055117607117
","x: 227.90716552734375
y: 365.1334228515625
z: -0.15412472188472748
visibility: 0.8770338296890259
","x: 199.2760009765625
y: 282.27203369140625
z: -0.3933701813220978
visibility: 0.8569588661193848
","x: 227.89871215820312
y: 359.7584533691406
z: -0.016357116401195526
visibility: 0.9998467564582825
","x: 205.4521484375
y: 360.39727783203125
z: 0.016231568530201912
visibility: 0.9998744130134583
","x: 244.1175537109375
y: 430.1864013671875
z: -0.02766832336783409
visibility: 0.9989847540855408
","x: 195.61740112304688
y: 433.1945495605469
z: 0.04024941474199295
visibility: 0.9977204203605652
","x: 254.55250549316406
y: 506.02239990234375
z: 0.05658050626516342
visibility: 0.999315083026886
","x: 193.78321838378906
y: 506.27685546875
z: 0.19876500964164734
visibility: 0.9987406730651855
","x: 252.07749938964844
y: 515.7454833984375
z: 0.056321579962968826
visibility: 0.9557555317878723
","x: 197.79849243164062
y: 518.1221923828125
z: 0.206956148147583
visibility: 0.9813920259475708
","x: 262.6192626953125
y: 530.1607666015625
z: -0.06993478536605835
visibility: 0.9983169436454773
","x: 181.10313415527344
y: 524.458984375
z: 0.10204382985830307
visibility: 0.9976069927215576
",,,,,,,,,,,,,,,,,,,,,,"x: 194.75917053222656
y: 300.563232421875
z: 0.0
","x: 195.1726531982422
y: 293.6686096191406
z: 0.000675506133120507
","x: 197.7470703125
y: 286.17657470703125
z: -0.0006178035982884467
","x: 200.23666381835938
y: 281.27984619140625
z: -0.0022748559713363647
","x: 201.87832641601562
y: 277.6690368652344
z: -0.003693885402753949
","x: 198.99078369140625
y: 286.6491394042969
z: -0.004693459719419479
","x: 203.9326629638672
y: 281.5665283203125
z: -0.007340670097619295
","x: 206.56661987304688
y: 278.9849548339844
z: -0.007706835865974426
","x: 208.29139709472656
y: 277.2645263671875
z: -0.007744334638118744
","x: 200.02108764648438
y: 290.75592041015625
z: -0.006743885111063719
","x: 203.8413848876953
y: 286.4278869628906
z: -0.01012701727449894
","x: 202.48939514160156
y: 288.3378601074219
z: -0.00842319242656231
","x: 200.80946350097656
y: 290.1581115722656
z: -0.006415983662009239
","x: 200.81817626953125
y: 295.0017395019531
z: -0.008602239191532135
","x: 203.6631622314453
y: 291.43743896484375
z: -0.011376256123185158
","x: 202.4783172607422
y: 292.92828369140625
z: -0.008360229432582855
","x: 201.19686889648438
y: 294.51177978515625
z: -0.0057459743693470955
","x: 201.4677276611328
y: 299.1058044433594
z: -0.010568532161414623
","x: 203.62933349609375
y: 295.89019775390625
z: -0.012354318983852863
","x: 202.6993865966797
y: 297.0380859375
z: -0.01051341462880373
","x: 201.67315673828125
y: 298.8790283203125
z: -0.008610939607024193
"
15,"x: 220.07232666015625
y: 215.6875762939453
z: -0.29218608140945435
visibility: 0.9999698400497437
","x: 223.2721405029297
y: 208.4435272216797
z: -0.2807844877243042
visibility: 0.9999266862869263
","x: 224.7760009765625
y: 208.9554443359375
z: -0.280811607837677
visibility: 0.9999281764030457
","x: 226.2028045654297
y: 209.4874725341797
z: -0.2808224558830261
visibility: 0.9999176859855652
","x: 219.23345947265625
y: 206.85986328125
z: -0.2757337689399719
visibility: 0.9999106526374817
","x: 218.00094604492188
y: 206.28244018554688
z: -0.2757665514945984
visibility: 0.9998955726623535
","x: 216.8254852294922
y: 205.88467407226562
z: -0.2757907807826996
visibility: 0.999882161617279
","x: 228.33851623535156
y: 212.56370544433594
z: -0.18080732226371765
visibility: 0.9998842477798462
","x: 215.9917449951172
y: 208.1173095703125
z: -0.16621169447898865
visibility: 0.9997605681419373
","x: 222.3864288330078
y: 222.61431884765625
z: -0.258706271648407
visibility: 0.9999357461929321
","x: 217.40670776367188
y: 221.8968505859375
z: -0.24816200137138367
visibility: 0.9999244809150696
","x: 237.81692504882812
y: 256.20367431640625
z: -0.11502961814403534
visibility: 0.9997963309288025
","x: 202.03665161132812
y: 253.60841369628906
z: -0.06310993432998657
visibility: 0.9998759627342224
","x: 236.49070739746094
y: 313.791748046875
z: -0.13695062696933746
visibility: 0.9698770046234131
","x: 193.1396026611328
y: 300.9469299316406
z: -0.07280638813972473
visibility: 0.7770701050758362
","x: 230.01625061035156
y: 350.6485595703125
z: -0.26358240842819214
visibility: 0.9176536202430725
","x: 197.23126220703125
y: 314.20123291015625
z: -0.25605159997940063
visibility: 0.8861079216003418
","x: 224.8186492919922
y: 357.99493408203125
z: -0.31073957681655884
visibility: 0.8899317383766174
","x: 198.4273223876953
y: 319.9039611816406
z: -0.29623013734817505
visibility: 0.851793646812439
","x: 222.44667053222656
y: 353.1016845703125
z: -0.32223886251449585
visibility: 0.8919791579246521
","x: 199.16075134277344
y: 315.8088073730469
z: -0.3196778893470764
visibility: 0.8598987460136414
","x: 224.55880737304688
y: 350.0389404296875
z: -0.2697705626487732
visibility: 0.8642023801803589
","x: 199.5128936767578
y: 312.8930358886719
z: -0.26990431547164917
visibility: 0.8443731665611267
","x: 229.7097930908203
y: 359.9817199707031
z: -0.022081319242715836
visibility: 0.9998493194580078
","x: 207.78131103515625
y: 362.00738525390625
z: 0.021970337256789207
visibility: 0.9998752474784851
","x: 250.60755920410156
y: 430.66448974609375
z: -0.03294592723250389
visibility: 0.9990167021751404
","x: 196.5002899169922
y: 433.8326721191406
z: 0.03813875839114189
visibility: 0.9977993965148926
","x: 264.3443603515625
y: 505.77679443359375
z: 0.08089182525873184
visibility: 0.9993361830711365
","x: 193.71856689453125
y: 506.2791442871094
z: 0.22671517729759216
visibility: 0.9987667202949524
","x: 264.4228820800781
y: 515.2899169921875
z: 0.0839766338467598
visibility: 0.9555429816246033
","x: 197.7557830810547
y: 518.2076416015625
z: 0.23921343684196472
visibility: 0.9813167452812195
","x: 264.97210693359375
y: 530.2332153320312
z: -0.05034822225570679
visibility: 0.9983415603637695
","x: 181.1051025390625
y: 524.5411376953125
z: 0.1317598521709442
visibility: 0.9976133108139038
",,,,,,,,,,,,,,,,,,,,,,,,,,,,,,,,,,,,,,,,,,
16,"x: 225.84500122070312
y: 214.79539489746094
z: -0.28129857778549194
visibility: 0.9999712109565735
","x: 228.96102905273438
y: 208.455322265625
z: -0.2685171365737915
visibility: 0.9999282956123352
","x: 230.71469116210938
y: 209.04869079589844
z: -0.26855725049972534
visibility: 0.9999300241470337
","x: 232.35455322265625
y: 209.877197265625
z: -0.26854681968688965
visibility: 0.9999207258224487
","x: 224.42318725585938
y: 206.69158935546875
z: -0.26563966274261475
visibility: 0.9999127388000488
","x: 222.96676635742188
y: 206.15647888183594
z: -0.26565659046173096
visibility: 0.9998982548713684
","x: 221.55471801757812
y: 205.777099609375
z: -0.2657056748867035
visibility: 0.9998859763145447
","x: 234.01409912109375
y: 214.625732421875
z: -0.17809408903121948
visibility: 0.9998859763145447
","x: 220.48471069335938
y: 208.234130859375
z: -0.16193944215774536
visibility: 0.9997615218162537
","x: 228.33763122558594
y: 222.65541076660156
z: -0.24932405352592468
visibility: 0.9999393820762634
","x: 222.58909606933594
y: 221.64390563964844
z: -0.2440609484910965
visibility: 0.9999284744262695
","x: 241.142578125
y: 261.84527587890625
z: -0.12821605801582336
visibility: 0.9998143315315247
","x: 205.6911163330078
y: 254.78277587890625
z: -0.05982990190386772
visibility: 0.9998809099197388
","x: 241.20826721191406
y: 318.4093017578125
z: -0.14469482004642487
visibility: 0.9707549214363098
","x: 199.4286651611328
y: 311.4306945800781
z: -0.014292819425463676
visibility: 0.7838464975357056
","x: 237.7019500732422
y: 354.94580078125
z: -0.2600227892398834
visibility: 0.9218322038650513
","x: 194.8204803466797
y: 353.746826171875
z: -0.10126794874668121
visibility: 0.8897565603256226
","x: 240.30810546875
y: 369.90740966796875
z: -0.29641371965408325
visibility: 0.8945796489715576
","x: 192.13345336914062
y: 366.06146240234375
z: -0.12655645608901978
visibility: 0.8555378317832947
","x: 237.474609375
y: 367.81591796875
z: -0.3188972771167755
visibility: 0.8966599702835083
","x: 192.60543823242188
y: 365.68115234375
z: -0.16359440982341766
visibility: 0.8638641834259033
","x: 235.53897094726562
y: 362.97314453125
z: -0.2706708312034607
visibility: 0.8689658641815186
","x: 194.40499877929688
y: 362.05078125
z: -0.11880834400653839
visibility: 0.8489969372749329
","x: 231.91380310058594
y: 362.9195861816406
z: -0.024745332077145576
visibility: 0.9998566508293152
","x: 208.74032592773438
y: 363.0045166015625
z: 0.024644143879413605
visibility: 0.9998791813850403
","x: 250.7612762451172
y: 436.1064453125
z: -0.03415752202272415
visibility: 0.99906325340271
","x: 197.16741943359375
y: 434.75689697265625
z: 0.04281177744269371
visibility: 0.9978852272033691
","x: 268.3512268066406
y: 505.414306640625
z: 0.09265967458486557
visibility: 0.9993624687194824
","x: 193.61953735351562
y: 506.29571533203125
z: 0.2452150136232376
visibility: 0.9987832903862
","x: 271.35107421875
y: 514.247314453125
z: 0.09801812469959259
visibility: 0.9548271894454956
","x: 197.60205078125
y: 518.1671142578125
z: 0.2587990164756775
visibility: 0.9806150794029236
","x: 265.50897216796875
y: 530.2403564453125
z: -0.035417042672634125
visibility: 0.9983731508255005
","x: 181.0469207763672
y: 524.529296875
z: 0.16003668308258057
visibility: 0.9976162314414978
","x: 240.5897979736328
y: 356.4126892089844
z: 0.0
","x: 244.19239807128906
y: 355.4488830566406
z: -0.003395385341718793
","x: 247.64703369140625
y: 357.0755615234375
z: -0.0065046497620642185
","x: 249.35443115234375
y: 358.2623596191406
z: -0.009906766936182976
","x: 249.87542724609375
y: 359.2950134277344
z: -0.01335819810628891
","x: 244.84571838378906
y: 368.63848876953125
z: -0.0055516003631055355
","x: 245.5547637939453
y: 374.8358154296875
z: -0.00954751018434763
","x: 245.2644805908203
y: 375.46221923828125
z: -0.011322494596242905
","x: 244.81201171875
y: 374.45880126953125
z: -0.012096376158297062
","x: 241.7185821533203
y: 370.3009033203125
z: -0.006595157086849213
","x: 241.6147003173828
y: 378.16009521484375
z: -0.01024578232318163
","x: 241.10621643066406
y: 379.8896484375
z: -0.011434891261160374
","x: 240.4686279296875
y: 379.4727783203125
z: -0.011940360069274902
","x: 238.9853515625
y: 369.74884033203125
z: -0.00800031516700983
","x: 237.87806701660156
y: 376.59130859375
z: -0.011985796503722668
","x: 237.10934448242188
y: 378.35736083984375
z: -0.013020727783441544
","x: 236.48001098632812
y: 378.6610412597656
z: -0.01317817997187376
","x: 236.6410369873047
y: 367.57537841796875
z: -0.009781543165445328
","x: 234.8936767578125
y: 371.2669372558594
z: -0.012868466787040234
","x: 233.98609924316406
y: 372.015380859375
z: -0.013639346696436405
","x: 233.5204315185547
y: 371.8394470214844
z: -0.013729458674788475
",,,,,,,,,,,,,,,,,,,,,
17,"x: 225.84500122070312
y: 214.79539489746094
z: -0.28129857778549194
visibility: 0.9999712109565735
","x: 228.96102905273438
y: 208.455322265625
z: -0.2685171365737915
visibility: 0.9999282956123352
","x: 230.71469116210938
y: 209.04869079589844
z: -0.26855725049972534
visibility: 0.9999300241470337
","x: 232.35455322265625
y: 209.877197265625
z: -0.26854681968688965
visibility: 0.9999207258224487
","x: 224.42318725585938
y: 206.69158935546875
z: -0.26563966274261475
visibility: 0.9999127388000488
","x: 222.96676635742188
y: 206.15647888183594
z: -0.26565659046173096
visibility: 0.9998982548713684
","x: 221.55471801757812
y: 205.777099609375
z: -0.2657056748867035
visibility: 0.9998859763145447
","x: 234.01409912109375
y: 214.625732421875
z: -0.17809408903121948
visibility: 0.9998859763145447
","x: 220.48471069335938
y: 208.234130859375
z: -0.16193944215774536
visibility: 0.9997615218162537
","x: 228.33763122558594
y: 222.65541076660156
z: -0.24932405352592468
visibility: 0.9999393820762634
","x: 222.58909606933594
y: 221.64390563964844
z: -0.2440609484910965
visibility: 0.9999284744262695
","x: 241.142578125
y: 261.84527587890625
z: -0.12821605801582336
visibility: 0.9998143315315247
","x: 205.6911163330078
y: 254.78277587890625
z: -0.05982990190386772
visibility: 0.9998809099197388
","x: 241.20826721191406
y: 318.4093017578125
z: -0.14469482004642487
visibility: 0.9707549214363098
","x: 199.4286651611328
y: 311.4306945800781
z: -0.014292819425463676
visibility: 0.7838464975357056
","x: 237.7019500732422
y: 354.94580078125
z: -0.2600227892398834
visibility: 0.9218322038650513
","x: 194.8204803466797
y: 353.746826171875
z: -0.10126794874668121
visibility: 0.8897565603256226
","x: 240.30810546875
y: 369.90740966796875
z: -0.29641371965408325
visibility: 0.8945796489715576
","x: 192.13345336914062
y: 366.06146240234375
z: -0.12655645608901978
visibility: 0.8555378317832947
","x: 237.474609375
y: 367.81591796875
z: -0.3188972771167755
visibility: 0.8966599702835083
","x: 192.60543823242188
y: 365.68115234375
z: -0.16359440982341766
visibility: 0.8638641834259033
","x: 235.53897094726562
y: 362.97314453125
z: -0.2706708312034607
visibility: 0.8689658641815186
","x: 194.40499877929688
y: 362.05078125
z: -0.11880834400653839
visibility: 0.8489969372749329
","x: 231.91380310058594
y: 362.9195861816406
z: -0.024745332077145576
visibility: 0.9998566508293152
","x: 208.74032592773438
y: 363.0045166015625
z: 0.024644143879413605
visibility: 0.9998791813850403
","x: 250.7612762451172
y: 436.1064453125
z: -0.03415752202272415
visibility: 0.99906325340271
","x: 197.16741943359375
y: 434.75689697265625
z: 0.04281177744269371
visibility: 0.9978852272033691
","x: 268.3512268066406
y: 505.414306640625
z: 0.09265967458486557
visibility: 0.9993624687194824
","x: 193.61953735351562
y: 506.29571533203125
z: 0.2452150136232376
visibility: 0.9987832903862
","x: 271.35107421875
y: 514.247314453125
z: 0.09801812469959259
visibility: 0.9548271894454956
","x: 197.60205078125
y: 518.1671142578125
z: 0.2587990164756775
visibility: 0.9806150794029236
","x: 265.50897216796875
y: 530.2403564453125
z: -0.035417042672634125
visibility: 0.9983731508255005
","x: 181.0469207763672
y: 524.529296875
z: 0.16003668308258057
visibility: 0.9976162314414978
","x: 240.5897979736328
y: 356.4126892089844
z: 0.0
","x: 244.19239807128906
y: 355.4488830566406
z: -0.003395385341718793
","x: 247.64703369140625
y: 357.0755615234375
z: -0.0065046497620642185
","x: 249.35443115234375
y: 358.2623596191406
z: -0.009906766936182976
","x: 249.87542724609375
y: 359.2950134277344
z: -0.01335819810628891
","x: 244.84571838378906
y: 368.63848876953125
z: -0.0055516003631055355
","x: 245.5547637939453
y: 374.8358154296875
z: -0.00954751018434763
","x: 245.2644805908203
y: 375.46221923828125
z: -0.011322494596242905
","x: 244.81201171875
y: 374.45880126953125
z: -0.012096376158297062
","x: 241.7185821533203
y: 370.3009033203125
z: -0.006595157086849213
","x: 241.6147003173828
y: 378.16009521484375
z: -0.01024578232318163
","x: 241.10621643066406
y: 379.8896484375
z: -0.011434891261160374
","x: 240.4686279296875
y: 379.4727783203125
z: -0.011940360069274902
","x: 238.9853515625
y: 369.74884033203125
z: -0.00800031516700983
","x: 237.87806701660156
y: 376.59130859375
z: -0.011985796503722668
","x: 237.10934448242188
y: 378.35736083984375
z: -0.013020727783441544
","x: 236.48001098632812
y: 378.6610412597656
z: -0.01317817997187376
","x: 236.6410369873047
y: 367.57537841796875
z: -0.009781543165445328
","x: 234.8936767578125
y: 371.2669372558594
z: -0.012868466787040234
","x: 233.98609924316406
y: 372.015380859375
z: -0.013639346696436405
","x: 233.5204315185547
y: 371.8394470214844
z: -0.013729458674788475
",,,,,,,,,,,,,,,,,,,,,
18,"x: 233.28817749023438
y: 214.8589324951172
z: -0.28194913268089294
visibility: 0.9999726414680481
","x: 236.68759155273438
y: 209.32611083984375
z: -0.2681278884410858
visibility: 0.9999294877052307
","x: 238.2941131591797
y: 210.386962890625
z: -0.26816657185554504
visibility: 0.9999313950538635
","x: 239.6820526123047
y: 211.54095458984375
z: -0.2681533098220825
visibility: 0.9999223351478577
","x: 231.8023223876953
y: 206.826416015625
z: -0.26728659868240356
visibility: 0.9999151229858398
","x: 230.22694396972656
y: 206.21652221679688
z: -0.2673119902610779
visibility: 0.9999018907546997
","x: 228.72787475585938
y: 205.7940673828125
z: -0.26737016439437866
visibility: 0.9998904466629028
","x: 240.59999084472656
y: 216.91180419921875
z: -0.17181500792503357
visibility: 0.9998830556869507
","x: 226.58834838867188
y: 208.95989990234375
z: -0.17294707894325256
visibility: 0.999768078327179
","x: 235.31689453125
y: 222.93386840820312
z: -0.2492707073688507
visibility: 0.9999411702156067
","x: 229.5146484375
y: 221.6806182861328
z: -0.24647943675518036
visibility: 0.9999315738677979
","x: 245.55276489257812
y: 266.3050231933594
z: -0.12307367473840714
visibility: 0.9998292922973633
","x: 209.55348205566406
y: 255.65574645996094
z: -0.08259868621826172
visibility: 0.9998860955238342
","x: 247.431884765625
y: 320.5667724609375
z: -0.10921056568622589
visibility: 0.9686997532844543
","x: 201.1286163330078
y: 312.58636474609375
z: -0.04404238611459732
visibility: 0.7939161658287048
","x: 253.1798095703125
y: 361.4305419921875
z: -0.21737830340862274
visibility: 0.9216048121452332
","x: 194.3153076171875
y: 358.03564453125
z: -0.13004480302333832
visibility: 0.8936035633087158
","x: 257.6495361328125
y: 375.64434814453125
z: -0.2467631995677948
visibility: 0.8935610055923462
","x: 189.78598022460938
y: 369.9432067871094
z: -0.15618976950645447
visibility: 0.8591107726097107
","x: 257.3263854980469
y: 375.4754333496094
z: -0.2759721875190735
visibility: 0.8963730931282043
","x: 190.65464782714844
y: 369.800048828125
z: -0.18959663808345795
visibility: 0.8678824305534363
","x: 254.6540985107422
y: 371.24163818359375
z: -0.23187701404094696
visibility: 0.8688166737556458
","x: 192.83795166015625
y: 366.4691162109375
z: -0.14642688632011414
visibility: 0.8540365099906921
","x: 234.86203002929688
y: 365.78173828125
z: -0.023959804326295853
visibility: 0.9998604655265808
","x: 211.24453735351562
y: 364.484619140625
z: 0.02381046488881111
visibility: 0.9998787045478821
","x: 252.1154022216797
y: 438.485595703125
z: -0.027910688892006874
visibility: 0.9990898370742798
","x: 197.75770568847656
y: 434.6946716308594
z: 0.05674358084797859
visibility: 0.9977811574935913
","x: 271.1556701660156
y: 505.4556884765625
z: 0.094406858086586
visibility: 0.9993703961372375
","x: 193.4380645751953
y: 506.1714172363281
z: 0.2586202323436737
visibility: 0.9986774921417236
","x: 275.6272277832031
y: 514.4136352539062
z: 0.09871940314769745
visibility: 0.9512159824371338
","x: 197.1173553466797
y: 517.9688720703125
z: 0.27218928933143616
visibility: 0.9781087040901184
","x: 265.4832763671875
y: 530.5899658203125
z: -0.03417947515845299
visibility: 0.9983424544334412
","x: 180.87721252441406
y: 524.3897705078125
z: 0.171903595328331
visibility: 0.9974268674850464
","x: 255.18411254882812
y: 367.0535888671875
z: 0.0
","x: 259.0908203125
y: 366.0489196777344
z: -0.0017633979441598058
","x: 262.8719177246094
y: 366.1096496582031
z: -0.0052348035387694836
","x: 265.6739807128906
y: 365.28765869140625
z: -0.00937490165233612
","x: 267.8263244628906
y: 365.3720703125
z: -0.013720556162297726
","x: 261.29083251953125
y: 374.1524658203125
z: -0.007633989676833153
","x: 263.6258850097656
y: 378.7274475097656
z: -0.012387346476316452
","x: 264.9202575683594
y: 380.7980651855469
z: -0.01443025004118681
","x: 265.97821044921875
y: 381.6028137207031
z: -0.015409826301038265
","x: 258.3702087402344
y: 375.8384704589844
z: -0.009820421226322651
","x: 259.3501281738281
y: 382.2424011230469
z: -0.01410956121981144
","x: 259.6884460449219
y: 384.1205139160156
z: -0.014416446909308434
","x: 259.9342956542969
y: 384.8677978515625
z: -0.014425392262637615
","x: 255.3755340576172
y: 375.65643310546875
z: -0.011985997669398785
","x: 254.9451904296875
y: 381.384033203125
z: -0.01628829911351204
","x: 254.88621520996094
y: 382.55694580078125
z: -0.015725266188383102
","x: 254.98110961914062
y: 382.7366638183594
z: -0.014918778091669083
","x: 252.6587677001953
y: 374.3192138671875
z: -0.014358040876686573
","x: 251.4155731201172
y: 377.48760986328125
z: -0.017386114224791527
","x: 251.1998748779297
y: 377.2906799316406
z: -0.016920745372772217
","x: 251.3400421142578
y: 376.30377197265625
z: -0.016200505197048187
",,,,,,,,,,,,,,,,,,,,,
19,"x: 233.28817749023438
y: 214.8589324951172
z: -0.28194913268089294
visibility: 0.9999726414680481
","x: 236.68759155273438
y: 209.32611083984375
z: -0.2681278884410858
visibility: 0.9999294877052307
","x: 238.2941131591797
y: 210.386962890625
z: -0.26816657185554504
visibility: 0.9999313950538635
","x: 239.6820526123047
y: 211.54095458984375
z: -0.2681533098220825
visibility: 0.9999223351478577
","x: 231.8023223876953
y: 206.826416015625
z: -0.26728659868240356
visibility: 0.9999151229858398
","x: 230.22694396972656
y: 206.21652221679688
z: -0.2673119902610779
visibility: 0.9999018907546997
","x: 228.72787475585938
y: 205.7940673828125
z: -0.26737016439437866
visibility: 0.9998904466629028
","x: 240.59999084472656
y: 216.91180419921875
z: -0.17181500792503357
visibility: 0.9998830556869507
","x: 226.58834838867188
y: 208.95989990234375
z: -0.17294707894325256
visibility: 0.999768078327179
","x: 235.31689453125
y: 222.93386840820312
z: -0.2492707073688507
visibility: 0.9999411702156067
","x: 229.5146484375
y: 221.6806182861328
z: -0.24647943675518036
visibility: 0.9999315738677979
","x: 245.55276489257812
y: 266.3050231933594
z: -0.12307367473840714
visibility: 0.9998292922973633
","x: 209.55348205566406
y: 255.65574645996094
z: -0.08259868621826172
visibility: 0.9998860955238342
","x: 247.431884765625
y: 320.5667724609375
z: -0.10921056568622589
visibility: 0.9686997532844543
","x: 201.1286163330078
y: 312.58636474609375
z: -0.04404238611459732
visibility: 0.7939161658287048
","x: 253.1798095703125
y: 361.4305419921875
z: -0.21737830340862274
visibility: 0.9216048121452332
","x: 194.3153076171875
y: 358.03564453125
z: -0.13004480302333832
visibility: 0.8936035633087158
","x: 257.6495361328125
y: 375.64434814453125
z: -0.2467631995677948
visibility: 0.8935610055923462
","x: 189.78598022460938
y: 369.9432067871094
z: -0.15618976950645447
visibility: 0.8591107726097107
","x: 257.3263854980469
y: 375.4754333496094
z: -0.2759721875190735
visibility: 0.8963730931282043
","x: 190.65464782714844
y: 369.800048828125
z: -0.18959663808345795
visibility: 0.8678824305534363
","x: 254.6540985107422
y: 371.24163818359375
z: -0.23187701404094696
visibility: 0.8688166737556458
","x: 192.83795166015625
y: 366.4691162109375
z: -0.14642688632011414
visibility: 0.8540365099906921
","x: 234.86203002929688
y: 365.78173828125
z: -0.023959804326295853
visibility: 0.9998604655265808
","x: 211.24453735351562
y: 364.484619140625
z: 0.02381046488881111
visibility: 0.9998787045478821
","x: 252.1154022216797
y: 438.485595703125
z: -0.027910688892006874
visibility: 0.9990898370742798
","x: 197.75770568847656
y: 434.6946716308594
z: 0.05674358084797859
visibility: 0.9977811574935913
","x: 271.1556701660156
y: 505.4556884765625
z: 0.094406858086586
visibility: 0.9993703961372375
","x: 193.4380645751953
y: 506.1714172363281
z: 0.2586202323436737
visibility: 0.9986774921417236
","x: 275.6272277832031
y: 514.4136352539062
z: 0.09871940314769745
visibility: 0.9512159824371338
","x: 197.1173553466797
y: 517.9688720703125
z: 0.27218928933143616
visibility: 0.9781087040901184
","x: 265.4832763671875
y: 530.5899658203125
z: -0.03417947515845299
visibility: 0.9983424544334412
","x: 180.87721252441406
y: 524.3897705078125
z: 0.171903595328331
visibility: 0.9974268674850464
","x: 255.18411254882812
y: 367.0535888671875
z: 0.0
","x: 259.0908203125
y: 366.0489196777344
z: -0.0017633979441598058
","x: 262.8719177246094
y: 366.1096496582031
z: -0.0052348035387694836
","x: 265.6739807128906
y: 365.28765869140625
z: -0.00937490165233612
","x: 267.8263244628906
y: 365.3720703125
z: -0.013720556162297726
","x: 261.29083251953125
y: 374.1524658203125
z: -0.007633989676833153
","x: 263.6258850097656
y: 378.7274475097656
z: -0.012387346476316452
","x: 264.9202575683594
y: 380.7980651855469
z: -0.01443025004118681
","x: 265.97821044921875
y: 381.6028137207031
z: -0.015409826301038265
","x: 258.3702087402344
y: 375.8384704589844
z: -0.009820421226322651
","x: 259.3501281738281
y: 382.2424011230469
z: -0.01410956121981144
","x: 259.6884460449219
y: 384.1205139160156
z: -0.014416446909308434
","x: 259.9342956542969
y: 384.8677978515625
z: -0.014425392262637615
","x: 255.3755340576172
y: 375.65643310546875
z: -0.011985997669398785
","x: 254.9451904296875
y: 381.384033203125
z: -0.01628829911351204
","x: 254.88621520996094
y: 382.55694580078125
z: -0.015725266188383102
","x: 254.98110961914062
y: 382.7366638183594
z: -0.014918778091669083
","x: 252.6587677001953
y: 374.3192138671875
z: -0.014358040876686573
","x: 251.4155731201172
y: 377.48760986328125
z: -0.017386114224791527
","x: 251.1998748779297
y: 377.2906799316406
z: -0.016920745372772217
","x: 251.3400421142578
y: 376.30377197265625
z: -0.016200505197048187
",,,,,,,,,,,,,,,,,,,,,
20,"x: 237.59483337402344
y: 215.21578979492188
z: -0.2171517312526703
visibility: 0.9999722838401794
","x: 240.9555206298828
y: 209.95870971679688
z: -0.20056073367595673
visibility: 0.9999226927757263
","x: 242.35296630859375
y: 211.0284423828125
z: -0.20064420998096466
visibility: 0.9999257326126099
","x: 243.60116577148438
y: 212.10223388671875
z: -0.20066645741462708
visibility: 0.9999184012413025
","x: 236.54498291015625
y: 207.1929931640625
z: -0.20035824179649353
visibility: 0.9999029636383057
","x: 235.0653076171875
y: 206.49168395996094
z: -0.20033586025238037
visibility: 0.9998870491981506
","x: 233.66452026367188
y: 205.97970581054688
z: -0.20036952197551727
visibility: 0.999873161315918
","x: 244.55148315429688
y: 217.23272705078125
z: -0.10454457998275757
visibility: 0.9998718500137329
","x: 231.50108337402344
y: 209.13145446777344
z: -0.1030774861574173
visibility: 0.9997075796127319
","x: 239.24501037597656
y: 223.40370178222656
z: -0.18119145929813385
visibility: 0.9999394416809082
","x: 234.20928955078125
y: 221.7825469970703
z: -0.18091358244419098
visibility: 0.9999257922172546
","x: 247.76727294921875
y: 265.99188232421875
z: -0.07688438147306442
visibility: 0.9998447895050049
","x: 215.24200439453125
y: 251.89727783203125
z: -0.017853092402219772
visibility: 0.9998739361763
","x: 253.498046875
y: 320.9115295410156
z: -0.08224248141050339
visibility: 0.9685315489768982
","x: 206.68650817871094
y: 305.4458312988281
z: 0.01603531464934349
visibility: 0.765007734298706
","x: 266.094482421875
y: 357.2991638183594
z: -0.18921981751918793
visibility: 0.9246727228164673
","x: 194.2895050048828
y: 346.901611328125
z: -0.07159432768821716
visibility: 0.876022458076477
","x: 271.60791015625
y: 368.6299133300781
z: -0.21749456226825714
visibility: 0.8969467878341675
","x: 188.47213745117188
y: 356.54058837890625
z: -0.09652473777532578
visibility: 0.8415250182151794
","x: 271.8954162597656
y: 368.51995849609375
z: -0.24813024699687958
visibility: 0.9001818299293518
","x: 188.60638427734375
y: 355.9803771972656
z: -0.1351790726184845
visibility: 0.8529236912727356
","x: 269.3563537597656
y: 365.521484375
z: -0.20466867089271545
visibility: 0.8734644055366516
","x: 191.28260803222656
y: 353.5751647949219
z: -0.09137284755706787
visibility: 0.8413246870040894
","x: 235.60951232910156
y: 367.7154846191406
z: -0.024899490177631378
visibility: 0.9998687505722046
","x: 213.69309997558594
y: 365.3318786621094
z: 0.024761110544204712
visibility: 0.9998814463615417
","x: 253.40655517578125
y: 438.3817138671875
z: -0.030519578605890274
visibility: 0.9991252422332764
","x: 198.02024841308594
y: 435.33056640625
z: 0.04099028557538986
visibility: 0.9978258609771729
","x: 272.8625183105469
y: 502.714111328125
z: 0.11512517929077148
visibility: 0.9993876814842224
","x: 193.3997039794922
y: 505.9707946777344
z: 0.24735262989997864
visibility: 0.9987177848815918
","x: 276.0753173828125
y: 509.3347473144531
z: 0.12300960719585419
visibility: 0.947853684425354
","x: 197.12478637695312
y: 517.3059692382812
z: 0.2610345482826233
visibility: 0.9783105850219727
","x: 266.5929260253906
y: 530.0986328125
z: -0.0057273609563708305
visibility: 0.9983543157577515
","x: 180.4693603515625
y: 524.0501708984375
z: 0.16254831850528717
visibility: 0.9975036382675171
",,,,,,,,,,,,,,,,,,,,,,,,,,,,,,,,,,,,,,,,,,
21,"x: 242.89895629882812
y: 215.26834106445312
z: -0.19383488595485687
visibility: 0.9999735355377197
","x: 246.109375
y: 210.08370971679688
z: -0.1762397140264511
visibility: 0.9999245405197144
","x: 247.48365783691406
y: 211.16351318359375
z: -0.17633146047592163
visibility: 0.9999275803565979
","x: 248.68492126464844
y: 212.21014404296875
z: -0.17637602984905243
visibility: 0.9999212622642517
","x: 241.65988159179688
y: 207.208740234375
z: -0.17685340344905853
visibility: 0.9999040961265564
","x: 240.06248474121094
y: 206.51380920410156
z: -0.1768403947353363
visibility: 0.9998881816864014
","x: 238.5339813232422
y: 205.98699951171875
z: -0.17684343457221985
visibility: 0.999874472618103
","x: 248.96775817871094
y: 217.13011169433594
z: -0.07454852759838104
visibility: 0.9998759627342224
","x: 235.85812377929688
y: 209.0733642578125
z: -0.07623255252838135
visibility: 0.9997112154960632
","x: 244.0880584716797
y: 223.46580505371094
z: -0.15545645356178284
visibility: 0.9999414086341858
","x: 239.1580810546875
y: 221.79180908203125
z: -0.15622368454933167
visibility: 0.999927282333374
","x: 251.80667114257812
y: 265.4663391113281
z: -0.03824580833315849
visibility: 0.9998587369918823
","x: 219.0753631591797
y: 248.9979705810547
z: 0.008251288905739784
visibility: 0.9998719692230225
","x: 258.5365905761719
y: 319.7968444824219
z: -0.024159394204616547
visibility: 0.9655229449272156
","x: 209.0117645263672
y: 300.3083190917969
z: 0.04004671424627304
visibility: 0.7557299137115479
","x: 273.7398681640625
y: 351.38311767578125
z: -0.11089549958705902
visibility: 0.9247198700904846
","x: 192.93955993652344
y: 345.41375732421875
z: -0.048774003982543945
visibility: 0.8723781108856201
","x: 281.5328369140625
y: 362.33746337890625
z: -0.1353132426738739
visibility: 0.8971661329269409
","x: 186.26589965820312
y: 350.1431579589844
z: -0.07515432685613632
visibility: 0.8377959132194519
","x: 282.8747863769531
y: 359.2392578125
z: -0.1705813705921173
visibility: 0.9012693762779236
","x: 185.57318115234375
y: 352.3664855957031
z: -0.11338301748037338
visibility: 0.8508867621421814
","x: 279.5655517578125
y: 356.4294738769531
z: -0.12849214673042297
visibility: 0.8754226565361023
","x: 187.99537658691406
y: 349.89312744140625
z: -0.06895793974399567
visibility: 0.8408379554748535
","x: 237.37721252441406
y: 368.5071105957031
z: -0.025619471445679665
visibility: 0.9998752474784851
","x: 216.00027465820312
y: 365.38824462890625
z: 0.02551601454615593
visibility: 0.9998838901519775
","x: 255.3046112060547
y: 438.5150146484375
z: -0.04693184047937393
visibility: 0.9991586208343506
","x: 198.9111785888672
y: 435.3573913574219
z: 0.01768566481769085
visibility: 0.9979026317596436
","x: 273.5058288574219
y: 504.501953125
z: 0.1096913069486618
visibility: 0.9993984699249268
","x: 193.4044952392578
y: 505.9713134765625
z: 0.21831145882606506
visibility: 0.9987594485282898
","x: 276.6448974609375
y: 511.9065856933594
z: 0.12195150554180145
visibility: 0.9454045295715332
","x: 197.0372772216797
y: 516.9906005859375
z: 0.23184195160865784
visibility: 0.9785261154174805
","x: 266.7452392578125
y: 530.0884399414062
z: -0.012268934398889542
visibility: 0.998348593711853
","x: 180.2722625732422
y: 524.0455322265625
z: 0.13413885235786438
visibility: 0.9975653886795044
",,,,,,,,,,,,,,,,,,,,,,,,,,,,,,,,,,,,,,,,,,
22,"x: 244.3210906982422
y: 215.2768096923828
z: -0.2113424837589264
visibility: 0.9999740719795227
","x: 248.1868438720703
y: 210.12876892089844
z: -0.1966760903596878
visibility: 0.9999220371246338
","x: 249.73451232910156
y: 211.25404357910156
z: -0.19676485657691956
visibility: 0.9999265074729919
","x: 251.0274658203125
y: 212.3356475830078
z: -0.19679908454418182
visibility: 0.9999199509620667
","x: 243.67613220214844
y: 207.1494903564453
z: -0.1925698071718216
visibility: 0.9999013543128967
","x: 242.23532104492188
y: 206.31204223632812
z: -0.19256778061389923
visibility: 0.9998854398727417
","x: 240.92942810058594
y: 205.60617065429688
z: -0.19257569313049316
visibility: 0.9998713135719299
","x: 251.91064453125
y: 217.0328369140625
z: -0.10289067029953003
visibility: 0.9998769164085388
","x: 239.69680786132812
y: 208.68048095703125
z: -0.0817248746752739
visibility: 0.9997076988220215
","x: 245.77841186523438
y: 223.76312255859375
z: -0.17551617324352264
visibility: 0.9999411106109619
","x: 240.85870361328125
y: 221.72669982910156
z: -0.16973088681697845
visibility: 0.9999260902404785
","x: 255.7755126953125
y: 265.04559326171875
z: -0.07205532491207123
visibility: 0.999871015548706
","x: 222.9339141845703
y: 248.5208282470703
z: 0.01792452298104763
visibility: 0.9998767375946045
","x: 263.1568908691406
y: 319.1946716308594
z: -0.0763436108827591
visibility: 0.9666483998298645
","x: 211.8628692626953
y: 298.5164794921875
z: 0.06830628216266632
visibility: 0.7645772695541382
","x: 280.9824523925781
y: 337.98565673828125
z: -0.18346521258354187
visibility: 0.9288817048072815
","x: 192.06771850585938
y: 327.1584777832031
z: -0.018118537962436676
visibility: 0.8804481029510498
","x: 290.4189758300781
y: 344.01129150390625
z: -0.21292097866535187
visibility: 0.9021154046058655
","x: 184.89219665527344
y: 332.0292663574219
z: -0.04152211919426918
visibility: 0.8467430472373962
","x: 291.9452209472656
y: 338.7978515625
z: -0.24448148906230927
visibility: 0.9066134691238403
","x: 183.94761657714844
y: 330.15655517578125
z: -0.07901959121227264
visibility: 0.8597246408462524
","x: 288.7722473144531
y: 337.0430908203125
z: -0.1996975839138031
visibility: 0.8822864294052124
","x: 186.33412170410156
y: 329.64239501953125
z: -0.03792930394411087
visibility: 0.8505368828773499
","x: 240.34120178222656
y: 368.5582275390625
z: -0.033872805535793304
visibility: 0.9998663663864136
","x: 219.3957977294922
y: 365.3628234863281
z: 0.0338611975312233
visibility: 0.9998819828033447
","x: 255.91513061523438
y: 438.6290283203125
z: -0.04949599504470825
visibility: 0.9991512894630432
","x: 201.8695831298828
y: 434.589599609375
z: 0.00879132654517889
visibility: 0.9979572296142578
","x: 273.84478759765625
y: 504.5663146972656
z: 0.10937212407588959
visibility: 0.9993552565574646
","x: 193.63206481933594
y: 505.9078674316406
z: 0.189149871468544
visibility: 0.9987742304801941
","x: 277.552490234375
y: 512.0747680664062
z: 0.11941400915384293
visibility: 0.9424929022789001
","x: 197.13160705566406
y: 516.9911499023438
z: 0.20018136501312256
visibility: 0.9787934422492981
","x: 266.9710998535156
y: 530.085205078125
z: -0.005283656530082226
visibility: 0.9982399344444275
","x: 180.31219482421875
y: 524.0729370117188
z: 0.09808193147182465
visibility: 0.9975780248641968
",,,,,,,,,,,,,,,,,,,,,,,,,,,,,,,,,,,,,,,,,,
23,"x: 245.7410430908203
y: 216.8081817626953
z: -0.21280412375926971
visibility: 0.9999741315841675
","x: 248.8552703857422
y: 211.49122619628906
z: -0.19813761115074158
visibility: 0.9999175667762756
","x: 250.21096801757812
y: 212.7130889892578
z: -0.19823779165744781
visibility: 0.99992436170578
","x: 251.4202880859375
y: 213.9140167236328
z: -0.19828945398330688
visibility: 0.9999181032180786
","x: 244.90213012695312
y: 208.2858123779297
z: -0.1941494643688202
visibility: 0.9998924136161804
","x: 243.52601623535156
y: 207.36183166503906
z: -0.1941373199224472
visibility: 0.9998732805252075
","x: 242.19171142578125
y: 206.52589416503906
z: -0.19414106011390686
visibility: 0.9998543858528137
","x: 252.21205139160156
y: 218.25430297851562
z: -0.10309813171625137
visibility: 0.9998772740364075
","x: 240.38409423828125
y: 209.1050567626953
z: -0.08181009441614151
visibility: 0.9996770620346069
","x: 246.73828125
y: 225.2757110595703
z: -0.1762578934431076
visibility: 0.9999392628669739
","x: 242.31752014160156
y: 222.9189453125
z: -0.1703474223613739
visibility: 0.9999204277992249
","x: 256.674560546875
y: 264.742919921875
z: -0.06713870912790298
visibility: 0.9998825788497925
","x: 224.4210662841797
y: 249.24598693847656
z: 0.015213826671242714
visibility: 0.9998713135719299
","x: 263.8497314453125
y: 318.8808898925781
z: -0.0756286159157753
visibility: 0.9668692946434021
","x: 213.49607849121094
y: 299.14495849609375
z: 0.055504851043224335
visibility: 0.7658592462539673
","x: 282.68890380859375
y: 328.440185546875
z: -0.19458313286304474
visibility: 0.9334150552749634
","x: 191.49029541015625
y: 319.751708984375
z: -0.04193489998579025
visibility: 0.8848196864128113
","x: 291.4954833984375
y: 331.8973083496094
z: -0.22582769393920898
visibility: 0.9081387519836426
","x: 184.10086059570312
y: 324.94976806640625
z: -0.0676189661026001
visibility: 0.8514414429664612
","x: 292.4780578613281
y: 326.90435791015625
z: -0.2592560052871704
visibility: 0.9128724932670593
","x: 183.4737091064453
y: 322.6236572265625
z: -0.1056094616651535
visibility: 0.8648842573165894
","x: 288.6664123535156
y: 325.6820068359375
z: -0.21199670433998108
visibility: 0.8901760578155518
","x: 185.73731994628906
y: 321.7353820800781
z: -0.06234246492385864
visibility: 0.8564972877502441
","x: 240.54696655273438
y: 368.6089782714844
z: -0.032684337347745895
visibility: 0.9998559951782227
","x: 219.87884521484375
y: 365.4858093261719
z: 0.032756149768829346
visibility: 0.999872088432312
","x: 255.595947265625
y: 438.5449523925781
z: -0.04254694655537605
visibility: 0.9991216063499451
","x: 202.20962524414062
y: 434.09918212890625
z: -0.003496157005429268
visibility: 0.9980170726776123
","x: 274.12701416015625
y: 504.6355895996094
z: 0.13404491543769836
visibility: 0.9993043541908264
","x: 193.71432495117188
y: 505.8983154296875
z: 0.18725965917110443
visibility: 0.9987714886665344
","x: 277.7444763183594
y: 512.375
z: 0.14502650499343872
visibility: 0.9394583106040955
","x: 197.17364501953125
y: 516.9915771484375
z: 0.19965659081935883
visibility: 0.978193998336792
","x: 267.0313415527344
y: 530.0879516601562
z: 0.020419131964445114
visibility: 0.9981060028076172
","x: 180.45606994628906
y: 524.2305908203125
z: 0.09255242347717285
visibility: 0.9975435733795166
",,,,,,,,,,,,,,,,,,,,,,,,,,,,,,,,,,,,,,,,,,
24,"x: 244.86619567871094
y: 217.9619140625
z: -0.2552318871021271
visibility: 0.9999763369560242
","x: 248.80494689941406
y: 212.2511444091797
z: -0.2419428527355194
visibility: 0.9999240636825562
","x: 250.4394989013672
y: 213.38916015625
z: -0.2420075684785843
visibility: 0.999930739402771
","x: 251.9471435546875
y: 214.51751708984375
z: -0.2420312613248825
visibility: 0.9999244809150696
","x: 244.70787048339844
y: 208.8888397216797
z: -0.23238715529441833
visibility: 0.9999006390571594
","x: 243.4335174560547
y: 207.7564697265625
z: -0.2323741912841797
visibility: 0.9998831152915955
","x: 242.1897430419922
y: 206.7263641357422
z: -0.23233425617218018
visibility: 0.9998651742935181
","x: 253.96585083007812
y: 218.62908935546875
z: -0.1468651294708252
visibility: 0.9998878836631775
","x: 241.40625
y: 209.10765075683594
z: -0.09433144330978394
visibility: 0.9997051358222961
","x: 246.34780883789062
y: 226.11285400390625
z: -0.21882565319538116
visibility: 0.9999439120292664
","x: 241.99136352539062
y: 223.4053192138672
z: -0.20468512177467346
visibility: 0.9999262094497681
","x: 258.6670837402344
y: 264.6824951171875
z: -0.11397671699523926
visibility: 0.9998935461044312
","x: 225.5995330810547
y: 249.42666625976562
z: 0.015403454191982746
visibility: 0.9998793601989746
","x: 266.8254699707031
y: 313.82513427734375
z: -0.20821742713451385
visibility: 0.9699096083641052
","x: 213.3112335205078
y: 294.8153076171875
z: 0.13383349776268005
visibility: 0.7773153781890869
","x: 288.67535400390625
y: 302.2255554199219
z: -0.39091527462005615
