uscmakers/ReverseChoreography/data/test_data_jeff.csv
,NOSE,LEFT_EYE_INNER,LEFT_EYE,LEFT_EYE_OUTER,RIGHT_EYE_INNER,RIGHT_EYE,RIGHT_EYE_OUTER,LEFT_EAR,RIGHT_EAR,MOUTH_LEFT,MOUTH_RIGHT,LEFT_SHOULDER,RIGHT_SHOULDER,LEFT_ELBOW,RIGHT_ELBOW,LEFT_WRIST,RIGHT_WRIST,LEFT_PINKY,RIGHT_PINKY,LEFT_INDEX,RIGHT_INDEX,LEFT_THUMB,RIGHT_THUMB,LEFT_HIP,RIGHT_HIP,LEFT_KNEE,RIGHT_KNEE,LEFT_ANKLE,RIGHT_ANKLE,LEFT_HEEL,RIGHT_HEEL,LEFT_FOOT_INDEX,RIGHT_FOOT_INDEX,TIMESTAMP,WRIST2,THUMB_CPC2,THUMB_MCP2,THUMB_IP2,THUMB_TIP2,INDEX_FINGER_MCP2,INDEX_FINGER_PIP2,INDEX_FINGER_DIP2,INDEX_FINGER_TIP2,MIDDLE_FINGER_MCP2,MIDDLE_FINGER_PIP2,MIDDLE_FINGER_DIP2,MIDDLE_FINGER_TIP2,RING_FINGER_PIP2,RING_FINGER_DIP2,RING_FINGER_TIP2,RING_FINGER_MCP2,PINKY_MCP2,PINKY_PIP2,PINKY_DIP2,PINKY_TIP2,WRIST,THUMB_CPC,THUMB_MCP,THUMB_IP,THUMB_TIP,INDEX_FINGER_MCP,INDEX_FINGER_PIP,INDEX_FINGER_DIP,INDEX_FINGER_TIP,MIDDLE_FINGER_MCP,MIDDLE_FINGER_PIP,MIDDLE_FINGER_DIP,MIDDLE_FINGER_TIP,RING_FINGER_PIP,RING_FINGER_DIP,RING_FINGER_TIP,RING_FINGER_MCP,PINKY_MCP,PINKY_PIP,PINKY_DIP,PINKY_TIP
0,"x: 214.2830352783203
y: 268.5897216796875
z: -0.2745611071586609
visibility: 0.9999741315841675
","x: 215.51133728027344
y: 261.48443603515625
z: -0.2590729594230652
visibility: 0.9999188184738159
","x: 216.67437744140625
y: 261.39019775390625
z: -0.2590806186199188
visibility: 0.9999017715454102
","x: 217.64012145996094
y: 261.3952331542969
z: -0.25907957553863525
visibility: 0.9998983144760132
","x: 211.85650634765625
y: 261.4359130859375
z: -0.265309602022171
visibility: 0.9999204874038696
","x: 210.37953186035156
y: 261.3000183105469
z: -0.26532989740371704
visibility: 0.9999107122421265
","x: 208.98013305664062
y: 261.22344970703125
z: -0.26535093784332275
visibility: 0.9999068975448608
","x: 217.87196350097656
y: 264.2489013671875
z: -0.15693172812461853
visibility: 0.9997225403785706
","x: 206.31484985351562
y: 263.1158142089844
z: -0.1887144148349762
visibility: 0.9998302459716797
","x: 215.80889892578125
y: 275.49749755859375
z: -0.23534902930259705
visibility: 0.9999536275863647
","x: 211.8771514892578
y: 275.75433349609375
z: -0.2444286346435547
visibility: 0.9999561309814453
","x: 229.37246704101562
y: 306.9854431152344
z: -0.07809516787528992
visibility: 0.9998733997344971
","x: 192.58834838867188
y: 303.93359375
z: -0.13156399130821228
visibility: 0.9999097585678101
","x: 233.0457000732422
y: 357.20892333984375
z: -0.018502913415431976
visibility: 0.947955310344696
","x: 190.37266540527344
y: 355.7864990234375
z: -0.10819287598133087
visibility: 0.9747846722602844
","x: 234.96519470214844
y: 398.1576232910156
z: -0.08899392932653427
visibility: 0.9436100125312805
","x: 190.41693115234375
y: 396.1143493652344
z: -0.1781398206949234
visibility: 0.9313265085220337
","x: 237.10765075683594
y: 412.3128967285156
z: -0.10985974967479706
visibility: 0.8988301157951355
","x: 191.27801513671875
y: 410.1660461425781
z: -0.20449969172477722
visibility: 0.8862277865409851
","x: 233.79588317871094
y: 411.3354797363281
z: -0.13959510624408722
visibility: 0.9051596522331238
","x: 193.14024353027344
y: 408.9968566894531
z: -0.22807848453521729
visibility: 0.8903867602348328
","x: 232.0308380126953
y: 406.7045593261719
z: -0.10210609436035156
visibility: 0.8896071910858154
","x: 193.41673278808594
y: 403.57470703125
z: -0.1888580322265625
visibility: 0.8723793625831604
","x: 219.61024475097656
y: 403.679931640625
z: 0.016592802479863167
visibility: 0.9996316432952881
","x: 200.42462158203125
y: 402.4471740722656
z: -0.01662357524037361
visibility: 0.999717652797699
","x: 212.81634521484375
y: 468.77386474609375
z: 0.05693266540765762
visibility: 0.9810217618942261
","x: 200.00790405273438
y: 467.51422119140625
z: 0.019938567653298378
visibility: 0.9884732365608215
","x: 207.0393829345703
y: 524.3187255859375
z: 0.2299737185239792
visibility: 0.9773228168487549
","x: 198.21932983398438
y: 527.1315307617188
z: 0.18720193207263947
visibility: 0.9890620112419128
","x: 205.1498565673828
y: 532.219482421875
z: 0.2422221153974533
visibility: 0.9360405206680298
","x: 198.77691650390625
y: 536.0991821289062
z: 0.19800631701946259
visibility: 0.882516622543335
","x: 213.92092895507812
y: 544.4136352539062
z: 0.16137853264808655
visibility: 0.9760600924491882
","x: 194.2990264892578
y: 549.310546875
z: 0.09861647337675095
visibility: 0.9830925464630127
",1.0794248580932617,,,,,,,,,,,,,,,,,,,,,,,,,,,,,,,,,,,,,,,,,,
1,"x: 214.2830352783203
y: 268.5897216796875
z: -0.2745611071586609
visibility: 0.9999741315841675
","x: 215.51133728027344
y: 261.48443603515625
z: -0.2590729594230652
visibility: 0.9999188184738159
","x: 216.67437744140625
y: 261.39019775390625
z: -0.2590806186199188
visibility: 0.9999017715454102
","x: 217.64012145996094
y: 261.3952331542969
z: -0.25907957553863525
visibility: 0.9998983144760132
","x: 211.85650634765625
y: 261.4359130859375
z: -0.265309602022171
visibility: 0.9999204874038696
","x: 210.37953186035156
y: 261.3000183105469
z: -0.26532989740371704
visibility: 0.9999107122421265
","x: 208.98013305664062
y: 261.22344970703125
z: -0.26535093784332275
visibility: 0.9999068975448608
","x: 217.87196350097656
y: 264.2489013671875
z: -0.15693172812461853
visibility: 0.9997225403785706
","x: 206.31484985351562
y: 263.1158142089844
z: -0.1887144148349762
visibility: 0.9998302459716797
","x: 215.80889892578125
y: 275.49749755859375
z: -0.23534902930259705
visibility: 0.9999536275863647
","x: 211.8771514892578
y: 275.75433349609375
z: -0.2444286346435547
visibility: 0.9999561309814453
","x: 229.37246704101562
y: 306.9854431152344
z: -0.07809516787528992
visibility: 0.9998733997344971
","x: 192.58834838867188
y: 303.93359375
z: -0.13156399130821228
visibility: 0.9999097585678101
","x: 233.0457000732422
y: 357.20892333984375
z: -0.018502913415431976
visibility: 0.947955310344696
","x: 190.37266540527344
y: 355.7864990234375
z: -0.10819287598133087
visibility: 0.9747846722602844
","x: 234.96519470214844
y: 398.1576232910156
z: -0.08899392932653427
visibility: 0.9436100125312805
","x: 190.41693115234375
y: 396.1143493652344
z: -0.1781398206949234
visibility: 0.9313265085220337
","x: 237.10765075683594
y: 412.3128967285156
z: -0.10985974967479706
visibility: 0.8988301157951355
","x: 191.27801513671875
y: 410.1660461425781
z: -0.20449969172477722
visibility: 0.8862277865409851
","x: 233.79588317871094
y: 411.3354797363281
z: -0.13959510624408722
visibility: 0.9051596522331238
","x: 193.14024353027344
y: 408.9968566894531
z: -0.22807848453521729
visibility: 0.8903867602348328
","x: 232.0308380126953
y: 406.7045593261719
z: -0.10210609436035156
visibility: 0.8896071910858154
","x: 193.41673278808594
y: 403.57470703125
z: -0.1888580322265625
visibility: 0.8723793625831604
","x: 219.61024475097656
y: 403.679931640625
z: 0.016592802479863167
visibility: 0.9996316432952881
","x: 200.42462158203125
y: 402.4471740722656
z: -0.01662357524037361
visibility: 0.999717652797699
","x: 212.81634521484375
y: 468.77386474609375
z: 0.05693266540765762
visibility: 0.9810217618942261
","x: 200.00790405273438
y: 467.51422119140625
z: 0.019938567653298378
visibility: 0.9884732365608215
","x: 207.0393829345703
y: 524.3187255859375
z: 0.2299737185239792
visibility: 0.9773228168487549
","x: 198.21932983398438
y: 527.1315307617188
z: 0.18720193207263947
visibility: 0.9890620112419128
","x: 205.1498565673828
y: 532.219482421875
z: 0.2422221153974533
visibility: 0.9360405206680298
","x: 198.77691650390625
y: 536.0991821289062
z: 0.19800631701946259
visibility: 0.882516622543335
","x: 213.92092895507812
y: 544.4136352539062
z: 0.16137853264808655
visibility: 0.9760600924491882
","x: 194.2990264892578
y: 549.310546875
z: 0.09861647337675095
visibility: 0.9830925464630127
",1.0794248580932617,,,,,,,,,,,,,,,,,,,,,,,,,,,,,,,,,,,,,,,,,,
2,"x: 213.31784057617188
y: 268.5422668457031
z: -0.26368027925491333
visibility: 0.9999746680259705
","x: 214.65866088867188
y: 261.4841003417969
z: -0.25096386671066284
visibility: 0.9999184608459473
","x: 215.76190185546875
y: 261.3949890136719
z: -0.25097721815109253
visibility: 0.9999018907546997
","x: 216.6434783935547
y: 261.406005859375
z: -0.25098082423210144
visibility: 0.999897837638855
","x: 210.98182678222656
y: 261.40496826171875
z: -0.25408679246902466
visibility: 0.9999208450317383
","x: 209.5740203857422
y: 261.271728515625
z: -0.25410696864128113
visibility: 0.9999110102653503
","x: 208.2567138671875
y: 261.20672607421875
z: -0.2541279196739197
visibility: 0.999906063079834
","x: 216.9591064453125
y: 264.20880126953125
z: -0.15897221863269806
visibility: 0.9997255802154541
","x: 205.4801788330078
y: 263.1693115234375
z: -0.17995671927928925
visibility: 0.9998295307159424
","x: 214.9638671875
y: 275.50518798828125
z: -0.2296452522277832
visibility: 0.9999540448188782
","x: 210.78652954101562
y: 275.74481201171875
z: -0.2344721555709839
visibility: 0.9999561905860901
","x: 229.10275268554688
y: 307.010986328125
z: -0.098475880920887
visibility: 0.9998812079429626
","x: 192.01194763183594
y: 304.4508056640625
z: -0.11975868791341782
visibility: 0.9999127388000488
","x: 233.22415161132812
y: 356.7796630859375
z: -0.05392187833786011
visibility: 0.9522314071655273
","x: 187.3773193359375
y: 356.33544921875
z: -0.09089426696300507
visibility: 0.974664032459259
","x: 235.27137756347656
y: 398.16033935546875
z: -0.12151430547237396
visibility: 0.9482617974281311
","x: 186.62869262695312
y: 398.447021484375
z: -0.1482985019683838
visibility: 0.9344533085823059
","x: 237.37472534179688
y: 412.432373046875
z: -0.14325612783432007
visibility: 0.9066261649131775
","x: 186.23855590820312
y: 412.5060729980469
z: -0.16830717027187347
visibility: 0.8908119797706604
","x: 234.27151489257812
y: 411.44732666015625
z: -0.1690445840358734
visibility: 0.9125057458877563
","x: 188.9022216796875
y: 411.33966064453125
z: -0.19506540894508362
visibility: 0.8948774933815002
","x: 232.518310546875
y: 406.904541015625
z: -0.13280721008777618
visibility: 0.8980420231819153
","x: 189.4085693359375
y: 406.34661865234375
z: -0.15984629094600677
visibility: 0.8777298927307129
","x: 218.98117065429688
y: 403.6810607910156
z: 0.0038513182662427425
visibility: 0.9996426105499268
","x: 199.07565307617188
y: 402.5883483886719
z: -0.003910538740456104
visibility: 0.9997251033782959
","x: 212.81552124023438
y: 467.39031982421875
z: 0.040815360844135284
visibility: 0.981338620185852
","x: 196.42723083496094
y: 466.380859375
z: 0.03598129749298096
visibility: 0.988149881362915
","x: 207.8443603515625
y: 524.8096313476562
z: 0.1768616884946823
visibility: 0.9777780771255493
","x: 195.23956298828125
y: 524.86474609375
z: 0.1872481405735016
visibility: 0.988885760307312
","x: 205.15403747558594
y: 533.4174194335938
z: 0.18493498861789703
visibility: 0.9366147518157959
","x: 197.22018432617188
y: 533.9252319335938
z: 0.19767777621746063
visibility: 0.8846922516822815
","x: 215.4854278564453
y: 544.885986328125
z: 0.10727398097515106
visibility: 0.9762486815452576
","x: 188.27976989746094
y: 546.1339721679688
z: 0.10817284882068634
visibility: 0.9828984141349792
",2.3526899814605713,,,,,,,,,,,,,,,,,,,,,,,,,,,,,,,,,,,,,,,,,,
3,"x: 213.31784057617188
y: 268.5422668457031
z: -0.26368027925491333
visibility: 0.9999746680259705
","x: 214.65866088867188
y: 261.4841003417969
z: -0.25096386671066284
visibility: 0.9999184608459473
","x: 215.76190185546875
y: 261.3949890136719
z: -0.25097721815109253
visibility: 0.9999018907546997
","x: 216.6434783935547
y: 261.406005859375
z: -0.25098082423210144
visibility: 0.999897837638855
","x: 210.98182678222656
y: 261.40496826171875
z: -0.25408679246902466
visibility: 0.9999208450317383
","x: 209.5740203857422
y: 261.271728515625
z: -0.25410696864128113
visibility: 0.9999110102653503
","x: 208.2567138671875
y: 261.20672607421875
z: -0.2541279196739197
visibility: 0.999906063079834
","x: 216.9591064453125
y: 264.20880126953125
z: -0.15897221863269806
visibility: 0.9997255802154541
","x: 205.4801788330078
y: 263.1693115234375
z: -0.17995671927928925
visibility: 0.9998295307159424
","x: 214.9638671875
y: 275.50518798828125
z: -0.2296452522277832
visibility: 0.9999540448188782
","x: 210.78652954101562
y: 275.74481201171875
z: -0.2344721555709839
visibility: 0.9999561905860901
","x: 229.10275268554688
y: 307.010986328125
z: -0.098475880920887
visibility: 0.9998812079429626
","x: 192.01194763183594
y: 304.4508056640625
z: -0.11975868791341782
visibility: 0.9999127388000488
","x: 233.22415161132812
y: 356.7796630859375
z: -0.05392187833786011
visibility: 0.9522314071655273
","x: 187.3773193359375
y: 356.33544921875
z: -0.09089426696300507
visibility: 0.974664032459259
","x: 235.27137756347656
y: 398.16033935546875
z: -0.12151430547237396
visibility: 0.9482617974281311
","x: 186.62869262695312
y: 398.447021484375
z: -0.1482985019683838
visibility: 0.9344533085823059
","x: 237.37472534179688
y: 412.432373046875
z: -0.14325612783432007
visibility: 0.9066261649131775
","x: 186.23855590820312
y: 412.5060729980469
z: -0.16830717027187347
visibility: 0.8908119797706604
","x: 234.27151489257812
y: 411.44732666015625
z: -0.1690445840358734
visibility: 0.9125057458877563
","x: 188.9022216796875
y: 411.33966064453125
z: -0.19506540894508362
visibility: 0.8948774933815002
","x: 232.518310546875
y: 406.904541015625
z: -0.13280721008777618
visibility: 0.8980420231819153
","x: 189.4085693359375
y: 406.34661865234375
z: -0.15984629094600677
visibility: 0.8777298927307129
","x: 218.98117065429688
y: 403.6810607910156
z: 0.0038513182662427425
visibility: 0.9996426105499268
","x: 199.07565307617188
y: 402.5883483886719
z: -0.003910538740456104
visibility: 0.9997251033782959
","x: 212.81552124023438
y: 467.39031982421875
z: 0.040815360844135284
visibility: 0.981338620185852
","x: 196.42723083496094
y: 466.380859375
z: 0.03598129749298096
visibility: 0.988149881362915
","x: 207.8443603515625
y: 524.8096313476562
z: 0.1768616884946823
visibility: 0.9777780771255493
","x: 195.23956298828125
y: 524.86474609375
z: 0.1872481405735016
visibility: 0.988885760307312
","x: 205.15403747558594
y: 533.4174194335938
z: 0.18493498861789703
visibility: 0.9366147518157959
","x: 197.22018432617188
y: 533.9252319335938
z: 0.19767777621746063
visibility: 0.8846922516822815
","x: 215.4854278564453
y: 544.885986328125
z: 0.10727398097515106
visibility: 0.9762486815452576
","x: 188.27976989746094
y: 546.1339721679688
z: 0.10817284882068634
visibility: 0.9828984141349792
",2.3526899814605713,,,,,,,,,,,,,,,,,,,,,,,,,,,,,,,,,,,,,,,,,,
4,"x: 213.35060119628906
y: 269.89202880859375
z: -0.2789662182331085
visibility: 0.999976396560669
","x: 214.64080810546875
y: 262.73626708984375
z: -0.265421986579895
visibility: 0.9999231696128845
","x: 215.61827087402344
y: 262.58782958984375
z: -0.2654186189174652
visibility: 0.9999077916145325
","x: 216.4308624267578
y: 262.4566650390625
z: -0.26541614532470703
visibility: 0.9999035596847534
","x: 210.99847412109375
y: 262.6278381347656
z: -0.2701857089996338
visibility: 0.999925434589386
","x: 209.57986450195312
y: 262.43890380859375
z: -0.27021974325180054
visibility: 0.9999164938926697
","x: 208.2671356201172
y: 262.3724365234375
z: -0.2702241539955139
visibility: 0.9999111294746399
","x: 216.64028930664062
y: 264.43316650390625
z: -0.1698530912399292
visibility: 0.9997400045394897
","x: 205.41439819335938
y: 264.1492004394531
z: -0.1957423985004425
visibility: 0.9998396635055542
","x: 214.86167907714844
y: 276.47613525390625
z: -0.24242863059043884
visibility: 0.9999567270278931
","x: 210.82095336914062
y: 276.5917663574219
z: -0.2494703233242035
visibility: 0.9999586343765259
","x: 229.10353088378906
y: 307.725341796875
z: -0.09502089023590088
visibility: 0.9998898506164551
","x: 192.0201873779297
y: 304.8031005859375
z: -0.1376596987247467
visibility: 0.9999175071716309
","x: 233.37277221679688
y: 357.3249816894531
z: -0.043517518788576126
visibility: 0.9558128118515015
","x: 187.65357971191406
y: 357.2947692871094
z: -0.11039241403341293
visibility: 0.9761418104171753
","x: 236.02760314941406
y: 399.4758605957031
z: -0.11417102813720703
visibility: 0.9524232149124146
","x: 186.66799926757812
y: 400.25006103515625
z: -0.16927094757556915
visibility: 0.9388341903686523
","x: 237.8957061767578
y: 413.6072082519531
z: -0.13508984446525574
visibility: 0.9133836627006531
","x: 187.09054565429688
y: 414.1595458984375
z: -0.19060322642326355
visibility: 0.8973630666732788
","x: 235.02452087402344
y: 412.78564453125
z: -0.16414353251457214
visibility: 0.9189250469207764
","x: 189.5687255859375
y: 412.752197265625
z: -0.21623048186302185
visibility: 0.901195764541626
","x: 233.3572998046875
y: 408.6632080078125
z: -0.12689125537872314
visibility: 0.9053665399551392
","x: 189.8118896484375
y: 408.1590270996094
z: -0.17974427342414856
visibility: 0.8847435712814331
","x: 219.8285675048828
y: 401.608154296875
z: 0.0072417608462274075
visibility: 0.9996470212936401
","x: 200.2451934814453
y: 400.8000183105469
z: -0.007261950522661209
visibility: 0.9997255206108093
","x: 213.70912170410156
y: 466.23028564453125
z: 0.02372085303068161
visibility: 0.9807704091072083
","x: 198.10520935058594
y: 464.92486572265625
z: -0.002928817179054022
visibility: 0.9878082871437073
","x: 207.8388671875
y: 525.396240234375
z: 0.15458059310913086
visibility: 0.9772644639015198
","x: 195.4713134765625
y: 524.4041748046875
z: 0.13627183437347412
visibility: 0.9885965585708618
","x: 205.05999755859375
y: 533.9813842773438
z: 0.16175413131713867
visibility: 0.936963677406311
","x: 197.31845092773438
y: 533.3717651367188
z: 0.14357340335845947
visibility: 0.882203221321106
","x: 215.1477813720703
y: 544.9332275390625
z: 0.0782637745141983
visibility: 0.9756889939308167
","x: 188.5655059814453
y: 545.9747314453125
z: 0.04628109186887741
visibility: 0.9824767112731934
",2.50041127204895,,,,,,,,,,,,,,,,,,,,,,,,,,,,,,,,,,,,,,,,,,
5,"x: 213.35060119628906
y: 269.89202880859375
z: -0.2789662182331085
visibility: 0.999976396560669
","x: 214.64080810546875
y: 262.73626708984375
z: -0.265421986579895
visibility: 0.9999231696128845
","x: 215.61827087402344
y: 262.58782958984375
z: -0.2654186189174652
visibility: 0.9999077916145325
","x: 216.4308624267578
y: 262.4566650390625
z: -0.26541614532470703
visibility: 0.9999035596847534
","x: 210.99847412109375
y: 262.6278381347656
z: -0.2701857089996338
visibility: 0.999925434589386
","x: 209.57986450195312
y: 262.43890380859375
z: -0.27021974325180054
visibility: 0.9999164938926697
","x: 208.2671356201172
y: 262.3724365234375
z: -0.2702241539955139
visibility: 0.9999111294746399
","x: 216.64028930664062
y: 264.43316650390625
z: -0.1698530912399292
visibility: 0.9997400045394897
","x: 205.41439819335938
y: 264.1492004394531
z: -0.1957423985004425
visibility: 0.9998396635055542
","x: 214.86167907714844
y: 276.47613525390625
z: -0.24242863059043884
visibility: 0.9999567270278931
","x: 210.82095336914062
y: 276.5917663574219
z: -0.2494703233242035
visibility: 0.9999586343765259
","x: 229.10353088378906
y: 307.725341796875
z: -0.09502089023590088
visibility: 0.9998898506164551
","x: 192.0201873779297
y: 304.8031005859375
z: -0.1376596987247467
visibility: 0.9999175071716309
","x: 233.37277221679688
y: 357.3249816894531
z: -0.043517518788576126
visibility: 0.9558128118515015
","x: 187.65357971191406
y: 357.2947692871094
z: -0.11039241403341293
visibility: 0.9761418104171753
","x: 236.02760314941406
y: 399.4758605957031
z: -0.11417102813720703
visibility: 0.9524232149124146
","x: 186.66799926757812
y: 400.25006103515625
z: -0.16927094757556915
visibility: 0.9388341903686523
","x: 237.8957061767578
y: 413.6072082519531
z: -0.13508984446525574
visibility: 0.9133836627006531
","x: 187.09054565429688
y: 414.1595458984375
z: -0.19060322642326355
visibility: 0.8973630666732788
","x: 235.02452087402344
y: 412.78564453125
z: -0.16414353251457214
visibility: 0.9189250469207764
","x: 189.5687255859375
y: 412.752197265625
z: -0.21623048186302185
visibility: 0.901195764541626
","x: 233.3572998046875
y: 408.6632080078125
z: -0.12689125537872314
visibility: 0.9053665399551392
","x: 189.8118896484375
y: 408.1590270996094
z: -0.17974427342414856
visibility: 0.8847435712814331
","x: 219.8285675048828
y: 401.608154296875
z: 0.0072417608462274075
visibility: 0.9996470212936401
","x: 200.2451934814453
y: 400.8000183105469
z: -0.007261950522661209
visibility: 0.9997255206108093
","x: 213.70912170410156
y: 466.23028564453125
z: 0.02372085303068161
visibility: 0.9807704091072083
","x: 198.10520935058594
y: 464.92486572265625
z: -0.002928817179054022
visibility: 0.9878082871437073
","x: 207.8388671875
y: 525.396240234375
z: 0.15458059310913086
visibility: 0.9772644639015198
","x: 195.4713134765625
y: 524.4041748046875
z: 0.13627183437347412
visibility: 0.9885965585708618
","x: 205.05999755859375
y: 533.9813842773438
z: 0.16175413131713867
visibility: 0.936963677406311
","x: 197.31845092773438
y: 533.3717651367188
z: 0.14357340335845947
visibility: 0.882203221321106
","x: 215.1477813720703
y: 544.9332275390625
z: 0.0782637745141983
visibility: 0.9756889939308167
","x: 188.5655059814453
y: 545.9747314453125
z: 0.04628109186887741
visibility: 0.9824767112731934
",2.50041127204895,,,,,,,,,,,,,,,,,,,,,,,,,,,,,,,,,,,,,,,,,,
6,"x: 213.36131286621094
y: 270.4710693359375
z: -0.3117668032646179
visibility: 0.999975323677063
","x: 214.6605682373047
y: 263.226806640625
z: -0.2982521653175354
visibility: 0.9999178051948547
","x: 215.6285858154297
y: 263.03863525390625
z: -0.2982569634914398
visibility: 0.999901294708252
","x: 216.4558868408203
y: 262.86383056640625
z: -0.2982766926288605
visibility: 0.999895453453064
","x: 211.07716369628906
y: 263.1329040527344
z: -0.30360132455825806
visibility: 0.9999234676361084
","x: 209.6679229736328
y: 262.94793701171875
z: -0.3036567270755768
visibility: 0.9999149441719055
","x: 208.32916259765625
y: 262.8577880859375
z: -0.30369165539741516
visibility: 0.999909520149231
","x: 216.6380615234375
y: 264.55517578125
z: -0.19781801104545593
visibility: 0.9997222423553467
","x: 205.42926025390625
y: 264.5983581542969
z: -0.22472219169139862
visibility: 0.9998395442962646
","x: 214.8676300048828
y: 276.9629211425781
z: -0.2720711827278137
visibility: 0.9999526143074036
","x: 210.8434295654297
y: 277.02099609375
z: -0.27983030676841736
visibility: 0.9999564290046692
","x: 229.09243774414062
y: 307.718994140625
z: -0.11362125724554062
visibility: 0.9998743534088135
","x: 192.0245819091797
y: 305.36981201171875
z: -0.1580011546611786
visibility: 0.9999192953109741
","x: 232.99745178222656
y: 356.97247314453125
z: -0.05809418484568596
visibility: 0.9546626806259155
","x: 188.56826782226562
y: 358.02484130859375
z: -0.13091333210468292
visibility: 0.9767619967460632
","x: 232.13877868652344
y: 399.46728515625
z: -0.12323947250843048
visibility: 0.9490617513656616
","x: 188.87042236328125
y: 400.3841857910156
z: -0.1975661814212799
visibility: 0.9404155611991882
","x: 232.7435302734375
y: 413.44842529296875
z: -0.1430358737707138
visibility: 0.9072787165641785
","x: 188.81712341308594
y: 414.4646911621094
z: -0.22223325073719025
visibility: 0.8992449641227722
","x: 231.15521240234375
y: 412.6780700683594
z: -0.17175288498401642
visibility: 0.9130701422691345
","x: 191.22927856445312
y: 412.9937744140625
z: -0.2453281134366989
visibility: 0.9030634760856628
","x: 229.8247833251953
y: 408.2535400390625
z: -0.13572894036769867
visibility: 0.8988707065582275
","x: 191.8343963623047
y: 408.3294372558594
z: -0.2074114978313446
visibility: 0.8867112994194031
","x: 220.31517028808594
y: 401.0194091796875
z: 0.007201204542070627
visibility: 0.9995242953300476
","x: 200.98365783691406
y: 400.5186767578125
z: -0.0072029950097203255
visibility: 0.999696671962738
","x: 214.2406005859375
y: 466.30419921875
z: 0.033899467438459396
visibility: 0.9795227646827698
","x: 200.7571563720703
y: 465.14691162109375
z: -0.00015069489018060267
visibility: 0.9862825870513916
","x: 206.62982177734375
y: 525.4844360351562
z: 0.18133173882961273
visibility: 0.9746575355529785
","x: 202.36912536621094
y: 527.2290649414062
z: 0.13291816413402557
visibility: 0.9877130389213562
","x: 203.484375
y: 534.3195190429688
z: 0.1903444230556488
visibility: 0.9331731796264648
","x: 203.97523498535156
y: 537.2406616210938
z: 0.1392311155796051
visibility: 0.8806256651878357
","x: 213.98446655273438
y: 544.5172119140625
z: 0.10617593675851822
visibility: 0.972704291343689
","x: 196.62564086914062
y: 547.5364990234375
z: 0.03586196154356003
visibility: 0.9811301827430725
",2.647850751876831,,,,,,,,,,,,,,,,,,,,,,,,,,,,,,,,,,,,,,,,,,
7,"x: 213.36131286621094
y: 270.4710693359375
z: -0.3117668032646179
visibility: 0.999975323677063
","x: 214.6605682373047
y: 263.226806640625
z: -0.2982521653175354
visibility: 0.9999178051948547
","x: 215.6285858154297
y: 263.03863525390625
z: -0.2982569634914398
visibility: 0.999901294708252
","x: 216.4558868408203
y: 262.86383056640625
z: -0.2982766926288605
visibility: 0.999895453453064
","x: 211.07716369628906
y: 263.1329040527344
z: -0.30360132455825806
visibility: 0.9999234676361084
","x: 209.6679229736328
y: 262.94793701171875
z: -0.3036567270755768
visibility: 0.9999149441719055
","x: 208.32916259765625
y: 262.8577880859375
z: -0.30369165539741516
visibility: 0.999909520149231
","x: 216.6380615234375
y: 264.55517578125
z: -0.19781801104545593
visibility: 0.9997222423553467
","x: 205.42926025390625
y: 264.5983581542969
z: -0.22472219169139862
visibility: 0.9998395442962646
","x: 214.8676300048828
y: 276.9629211425781
z: -0.2720711827278137
visibility: 0.9999526143074036
","x: 210.8434295654297
y: 277.02099609375
z: -0.27983030676841736
visibility: 0.9999564290046692
","x: 229.09243774414062
y: 307.718994140625
z: -0.11362125724554062
visibility: 0.9998743534088135
","x: 192.0245819091797
y: 305.36981201171875
z: -0.1580011546611786
visibility: 0.9999192953109741
","x: 232.99745178222656
y: 356.97247314453125
z: -0.05809418484568596
visibility: 0.9546626806259155
","x: 188.56826782226562
y: 358.02484130859375
z: -0.13091333210468292
visibility: 0.9767619967460632
","x: 232.13877868652344
y: 399.46728515625
z: -0.12323947250843048
visibility: 0.9490617513656616
","x: 188.87042236328125
y: 400.3841857910156
z: -0.1975661814212799
visibility: 0.9404155611991882
","x: 232.7435302734375
y: 413.44842529296875
z: -0.1430358737707138
visibility: 0.9072787165641785
","x: 188.81712341308594
y: 414.4646911621094
z: -0.22223325073719025
visibility: 0.8992449641227722
","x: 231.15521240234375
y: 412.6780700683594
z: -0.17175288498401642
visibility: 0.9130701422691345
","x: 191.22927856445312
y: 412.9937744140625
z: -0.2453281134366989
visibility: 0.9030634760856628
","x: 229.8247833251953
y: 408.2535400390625
z: -0.13572894036769867
visibility: 0.8988707065582275
","x: 191.8343963623047
y: 408.3294372558594
z: -0.2074114978313446
visibility: 0.8867112994194031
","x: 220.31517028808594
y: 401.0194091796875
z: 0.007201204542070627
visibility: 0.9995242953300476
","x: 200.98365783691406
y: 400.5186767578125
z: -0.0072029950097203255
visibility: 0.999696671962738
","x: 214.2406005859375
y: 466.30419921875
z: 0.033899467438459396
visibility: 0.9795227646827698
","x: 200.7571563720703
y: 465.14691162109375
z: -0.00015069489018060267
visibility: 0.9862825870513916
","x: 206.62982177734375
y: 525.4844360351562
z: 0.18133173882961273
visibility: 0.9746575355529785
","x: 202.36912536621094
y: 527.2290649414062
z: 0.13291816413402557
visibility: 0.9877130389213562
","x: 203.484375
y: 534.3195190429688
z: 0.1903444230556488
visibility: 0.9331731796264648
","x: 203.97523498535156
y: 537.2406616210938
z: 0.1392311155796051
visibility: 0.8806256651878357
","x: 213.98446655273438
y: 544.5172119140625
z: 0.10617593675851822
visibility: 0.972704291343689
","x: 196.62564086914062
y: 547.5364990234375
z: 0.03586196154356003
visibility: 0.9811301827430725
",2.647850751876831,,,,,,,,,,,,,,,,,,,,,,,,,,,,,,,,,,,,,,,,,,
8,"x: 213.37664794921875
y: 270.57159423828125
z: -0.3280269205570221
visibility: 0.9999712705612183
","x: 214.66854858398438
y: 263.222412109375
z: -0.3140345513820648
visibility: 0.9999017715454102
","x: 215.6282958984375
y: 263.03118896484375
z: -0.31404224038124084
visibility: 0.9998809695243835
","x: 216.4801483154297
y: 262.8564758300781
z: -0.3140603005886078
visibility: 0.9998728036880493
","x: 211.08238220214844
y: 263.1342468261719
z: -0.32043886184692383
visibility: 0.9999143481254578
","x: 209.694091796875
y: 262.9476623535156
z: -0.3205050826072693
visibility: 0.999906063079834
","x: 208.33851623535156
y: 262.8487243652344
z: -0.3205624222755432
visibility: 0.9999019503593445
","x: 216.66636657714844
y: 264.5465393066406
z: -0.20988991856575012
visibility: 0.9996691346168518
","x: 205.44374084472656
y: 264.5845947265625
z: -0.24113433063030243
visibility: 0.999830424785614
","x: 214.8023681640625
y: 277.1042785644531
z: -0.28666430711746216
visibility: 0.9999458193778992
","x: 210.85377502441406
y: 277.12725830078125
z: -0.2957436442375183
visibility: 0.9999536871910095
","x: 229.17877197265625
y: 307.5519714355469
z: -0.11714385449886322
visibility: 0.9998591542243958
","x: 192.03448486328125
y: 305.43017578125
z: -0.17597486078739166
visibility: 0.9999229907989502
","x: 232.2916259765625
y: 356.5854187011719
z: -0.059802256524562836
visibility: 0.9513489603996277
","x: 188.64361572265625
y: 358.1853942871094
z: -0.1486615389585495
visibility: 0.9777969717979431
","x: 231.33009338378906
y: 399.362548828125
z: -0.13266345858573914
visibility: 0.9419309496879578
","x: 188.91368103027344
y: 401.7754821777344
z: -0.21684138476848602
visibility: 0.9428209662437439
","x: 231.73716735839844
y: 413.43255615234375
z: -0.1535661667585373
visibility: 0.8965417146682739
","x: 188.8605499267578
y: 415.56988525390625
z: -0.24367079138755798
visibility: 0.9025037884712219
","x: 230.29847717285156
y: 412.6400146484375
z: -0.1816287338733673
visibility: 0.9027284979820251
","x: 191.24978637695312
y: 414.8163146972656
z: -0.2657107710838318
visibility: 0.9062408804893494
","x: 229.08682250976562
y: 408.2428283691406
z: -0.14524811506271362
visibility: 0.8880639672279358
","x: 191.8833465576172
y: 410.3937072753906
z: -0.22621479630470276
visibility: 0.8900785446166992
","x: 220.66012573242188
y: 400.5369567871094
z: 0.013708001002669334
visibility: 0.9993581771850586
","x: 201.71511840820312
y: 400.49725341796875
z: -0.013710880652070045
visibility: 0.9996612071990967
","x: 214.69253540039062
y: 466.360595703125
z: 0.05806791037321091
visibility: 0.9712030291557312
","x: 204.9198760986328
y: 465.3523254394531
z: -0.012339973822236061
visibility: 0.9822828769683838
","x: 206.65040588378906
y: 522.2528076171875
z: 0.23370906710624695
visibility: 0.9622246623039246
","x: 208.9039306640625
y: 528.3091430664062
z: 0.12167330831289291
visibility: 0.9841153025627136
","x: 203.55564880371094
y: 530.119384765625
z: 0.24617262184619904
visibility: 0.9192392826080322
","x: 210.85794067382812
y: 537.8935546875
z: 0.12898650765419006
visibility: 0.8740502595901489
","x: 212.6528778076172
y: 543.7219848632812
z: 0.1640896499156952
visibility: 0.9612498879432678
","x: 209.15489196777344
y: 547.73046875
z: 0.022774742916226387
visibility: 0.9762864112854004
",2.802624464035034,,,,,,,,,,,,,,,,,,,,,,,,,,,,,,,,,,,,,,,,,,
9,"x: 213.37664794921875
y: 270.57159423828125
z: -0.3280269205570221
visibility: 0.9999712705612183
","x: 214.66854858398438
y: 263.222412109375
z: -0.3140345513820648
visibility: 0.9999017715454102
","x: 215.6282958984375
y: 263.03118896484375
z: -0.31404224038124084
visibility: 0.9998809695243835
","x: 216.4801483154297
y: 262.8564758300781
z: -0.3140603005886078
visibility: 0.9998728036880493
","x: 211.08238220214844
y: 263.1342468261719
z: -0.32043886184692383
visibility: 0.9999143481254578
","x: 209.694091796875
y: 262.9476623535156
z: -0.3205050826072693
visibility: 0.999906063079834
","x: 208.33851623535156
y: 262.8487243652344
z: -0.3205624222755432
visibility: 0.9999019503593445
","x: 216.66636657714844
y: 264.5465393066406
z: -0.20988991856575012
visibility: 0.9996691346168518
","x: 205.44374084472656
y: 264.5845947265625
z: -0.24113433063030243
visibility: 0.999830424785614
","x: 214.8023681640625
y: 277.1042785644531
z: -0.28666430711746216
visibility: 0.9999458193778992
","x: 210.85377502441406
y: 277.12725830078125
z: -0.2957436442375183
visibility: 0.9999536871910095
","x: 229.17877197265625
y: 307.5519714355469
z: -0.11714385449886322
visibility: 0.9998591542243958
","x: 192.03448486328125
y: 305.43017578125
z: -0.17597486078739166
visibility: 0.9999229907989502
","x: 232.2916259765625
y: 356.5854187011719
z: -0.059802256524562836
visibility: 0.9513489603996277
","x: 188.64361572265625
y: 358.1853942871094
z: -0.1486615389585495
visibility: 0.9777969717979431
","x: 231.33009338378906
y: 399.362548828125
z: -0.13266345858573914
visibility: 0.9419309496879578
","x: 188.91368103027344
y: 401.7754821777344
z: -0.21684138476848602
visibility: 0.9428209662437439
","x: 231.73716735839844
y: 413.43255615234375
z: -0.1535661667585373
visibility: 0.8965417146682739
","x: 188.8605499267578
y: 415.56988525390625
z: -0.24367079138755798
visibility: 0.9025037884712219
","x: 230.29847717285156
y: 412.6400146484375
z: -0.1816287338733673
visibility: 0.9027284979820251
","x: 191.24978637695312
y: 414.8163146972656
z: -0.2657107710838318
visibility: 0.9062408804893494
","x: 229.08682250976562
y: 408.2428283691406
z: -0.14524811506271362
visibility: 0.8880639672279358
","x: 191.8833465576172
y: 410.3937072753906
z: -0.22621479630470276
visibility: 0.8900785446166992
","x: 220.66012573242188
y: 400.5369567871094
z: 0.013708001002669334
visibility: 0.9993581771850586
","x: 201.71511840820312
y: 400.49725341796875
z: -0.013710880652070045
visibility: 0.9996612071990967
","x: 214.69253540039062
y: 466.360595703125
z: 0.05806791037321091
visibility: 0.9712030291557312
","x: 204.9198760986328
y: 465.3523254394531
z: -0.012339973822236061
visibility: 0.9822828769683838
","x: 206.65040588378906
y: 522.2528076171875
z: 0.23370906710624695
visibility: 0.9622246623039246
","x: 208.9039306640625
y: 528.3091430664062
z: 0.12167330831289291
visibility: 0.9841153025627136
","x: 203.55564880371094
y: 530.119384765625
z: 0.24617262184619904
visibility: 0.9192392826080322
","x: 210.85794067382812
y: 537.8935546875
z: 0.12898650765419006
visibility: 0.8740502595901489
","x: 212.6528778076172
y: 543.7219848632812
z: 0.1640896499156952
visibility: 0.9612498879432678
","x: 209.15489196777344
y: 547.73046875
z: 0.022774742916226387
visibility: 0.9762864112854004
",2.802624464035034,,,,,,,,,,,,,,,,,,,,,,,,,,,,,,,,,,,,,,,,,,
10,"x: 213.7093048095703
y: 269.8451843261719
z: -0.3194941580295563
visibility: 0.9999646544456482
","x: 214.77310180664062
y: 262.33428955078125
z: -0.30372729897499084
visibility: 0.9998719692230225
","x: 215.6641845703125
y: 262.1312561035156
z: -0.3037378787994385
visibility: 0.9998441934585571
","x: 216.4918670654297
y: 261.961669921875
z: -0.3037518560886383
visibility: 0.9998361468315125
","x: 211.4103240966797
y: 262.34210205078125
z: -0.31391316652297974
visibility: 0.999894917011261
","x: 209.96896362304688
y: 262.1841735839844
z: -0.31397658586502075
visibility: 0.9998862147331238
","x: 208.51318359375
y: 262.1522216796875
z: -0.31404590606689453
visibility: 0.9998824000358582
","x: 216.41357421875
y: 263.868408203125
z: -0.1976432204246521
visibility: 0.9995577335357666
","x: 205.435546875
y: 264.3450927734375
z: -0.24664214253425598
visibility: 0.9997932314872742
","x: 214.84092712402344
y: 276.60101318359375
z: -0.2777957022190094
visibility: 0.9999377727508545
","x: 211.10171508789062
y: 276.7694396972656
z: -0.29191020131111145
visibility: 0.9999498724937439
","x: 229.0576934814453
y: 307.00457763671875
z: -0.1078840047121048
visibility: 0.999858021736145
","x: 191.95928955078125
y: 305.84625244140625
z: -0.1964147984981537
visibility: 0.9999254941940308
","x: 232.3394775390625
y: 356.604736328125
z: -0.05153771489858627
visibility: 0.951569676399231
","x: 188.6641082763672
y: 359.59649658203125
z: -0.18147635459899902
visibility: 0.9789326190948486
","x: 231.59454345703125
y: 399.6990966796875
z: -0.12610352039337158
visibility: 0.9431899189949036
","x: 190.32228088378906
y: 403.7222595214844
z: -0.24557237327098846
visibility: 0.9452729821205139
","x: 232.46810913085938
y: 414.2913818359375
z: -0.14920315146446228
visibility: 0.8979886174201965
","x: 190.4940948486328
y: 417.322265625
z: -0.27607929706573486
visibility: 0.9058448672294617
","x: 231.09698486328125
y: 414.02593994140625
z: -0.1778327375650406
visibility: 0.9043145179748535
","x: 193.30001831054688
y: 416.61932373046875
z: -0.2971813380718231
visibility: 0.909405529499054
","x: 229.58079528808594
y: 409.69219970703125
z: -0.1393531709909439
visibility: 0.8896957039833069
","x: 194.02102661132812
y: 412.2276611328125
z: -0.2545040547847748
visibility: 0.8930543661117554
","x: 221.30096435546875
y: 400.532470703125
z: 0.02956094965338707
visibility: 0.9992886781692505
","x: 202.7366180419922
y: 401.7205505371094
z: -0.029559234157204628
visibility: 0.9996545910835266
","x: 215.7550506591797
y: 466.3366394042969
z: 0.09478147327899933
visibility: 0.9574440121650696
","x: 207.67916870117188
y: 466.8092041015625
z: -0.03036077879369259
visibility: 0.9769498109817505
","x: 206.66514587402344
y: 517.7092895507812
z: 0.3149115741252899
visibility: 0.9402033686637878
","x: 209.97633361816406
y: 528.2653198242188
z: 0.1237722858786583
visibility: 0.9799112677574158
","x: 202.96742248535156
y: 524.072998046875
z: 0.3325851857662201
visibility: 0.8999927043914795
","x: 210.70599365234375
y: 537.7369384765625
z: 0.13316687941551208
visibility: 0.8643436431884766
","x: 212.2699737548828
y: 540.97119140625
z: 0.2567516565322876
visibility: 0.9455304741859436
","x: 212.7623291015625
y: 547.7374877929688
z: 0.021218519657850266
visibility: 0.9711552262306213
",2.980623960494995,,,,,,,,,,,,,,,,,,,,,,,,,,,,,,,,,,,,,,,,,,
11,"x: 213.7093048095703
y: 269.8451843261719
z: -0.3194941580295563
visibility: 0.9999646544456482
","x: 214.77310180664062
y: 262.33428955078125
z: -0.30372729897499084
visibility: 0.9998719692230225
","x: 215.6641845703125
y: 262.1312561035156
z: -0.3037378787994385
visibility: 0.9998441934585571
","x: 216.4918670654297
y: 261.961669921875
z: -0.3037518560886383
visibility: 0.9998361468315125
","x: 211.4103240966797
y: 262.34210205078125
z: -0.31391316652297974
visibility: 0.999894917011261
","x: 209.96896362304688
y: 262.1841735839844
z: -0.31397658586502075
visibility: 0.9998862147331238
","x: 208.51318359375
y: 262.1522216796875
z: -0.31404590606689453
visibility: 0.9998824000358582
","x: 216.41357421875
y: 263.868408203125
z: -0.1976432204246521
visibility: 0.9995577335357666
","x: 205.435546875
y: 264.3450927734375
z: -0.24664214253425598
visibility: 0.9997932314872742
","x: 214.84092712402344
y: 276.60101318359375
z: -0.2777957022190094
visibility: 0.9999377727508545
","x: 211.10171508789062
y: 276.7694396972656
z: -0.29191020131111145
visibility: 0.9999498724937439
","x: 229.0576934814453
y: 307.00457763671875
z: -0.1078840047121048
visibility: 0.999858021736145
","x: 191.95928955078125
y: 305.84625244140625
z: -0.1964147984981537
visibility: 0.9999254941940308
","x: 232.3394775390625
y: 356.604736328125
z: -0.05153771489858627
visibility: 0.951569676399231
","x: 188.6641082763672
y: 359.59649658203125
z: -0.18147635459899902
visibility: 0.9789326190948486
","x: 231.59454345703125
y: 399.6990966796875
z: -0.12610352039337158
visibility: 0.9431899189949036
","x: 190.32228088378906
y: 403.7222595214844
z: -0.24557237327098846
visibility: 0.9452729821205139
","x: 232.46810913085938
y: 414.2913818359375
z: -0.14920315146446228
visibility: 0.8979886174201965
","x: 190.4940948486328
y: 417.322265625
z: -0.27607929706573486
visibility: 0.9058448672294617
","x: 231.09698486328125
y: 414.02593994140625
z: -0.1778327375650406
visibility: 0.9043145179748535
","x: 193.30001831054688
y: 416.61932373046875
z: -0.2971813380718231
visibility: 0.909405529499054
","x: 229.58079528808594
y: 409.69219970703125
z: -0.1393531709909439
visibility: 0.8896957039833069
","x: 194.02102661132812
y: 412.2276611328125
z: -0.2545040547847748
visibility: 0.8930543661117554
","x: 221.30096435546875
y: 400.532470703125
z: 0.02956094965338707
visibility: 0.9992886781692505
","x: 202.7366180419922
y: 401.7205505371094
z: -0.029559234157204628
visibility: 0.9996545910835266
","x: 215.7550506591797
y: 466.3366394042969
z: 0.09478147327899933
visibility: 0.9574440121650696
","x: 207.67916870117188
y: 466.8092041015625
z: -0.03036077879369259
visibility: 0.9769498109817505
","x: 206.66514587402344
y: 517.7092895507812
z: 0.3149115741252899
visibility: 0.9402033686637878
","x: 209.97633361816406
y: 528.2653198242188
z: 0.1237722858786583
visibility: 0.9799112677574158
","x: 202.96742248535156
y: 524.072998046875
z: 0.3325851857662201
visibility: 0.8999927043914795
","x: 210.70599365234375
y: 537.7369384765625
z: 0.13316687941551208
visibility: 0.8643436431884766
","x: 212.2699737548828
y: 540.97119140625
z: 0.2567516565322876
visibility: 0.9455304741859436
","x: 212.7623291015625
y: 547.7374877929688
z: 0.021218519657850266
visibility: 0.9711552262306213
",2.980623960494995,,,,,,,,,,,,,,,,,,,,,,,,,,,,,,,,,,,,,,,,,,
12,"x: 213.4427490234375
y: 267.70745849609375
z: -0.30851322412490845
visibility: 0.9999655485153198
","x: 214.46792602539062
y: 260.044677734375
z: -0.29600709676742554
visibility: 0.9998747706413269
","x: 215.34585571289062
y: 259.86932373046875
z: -0.2959955930709839
visibility: 0.9998482465744019
","x: 216.21066284179688
y: 259.724853515625
z: -0.29595473408699036
visibility: 0.9998418688774109
","x: 211.0048828125
y: 260.1595764160156
z: -0.30326148867607117
visibility: 0.9998956918716431
","x: 209.49197387695312
y: 260.08331298828125
z: -0.30331751704216003
visibility: 0.9998851418495178
","x: 207.9947967529297
y: 260.1458435058594
z: -0.3033736050128937
visibility: 0.9998801946640015
","x: 216.024658203125
y: 261.78271484375
z: -0.18911688029766083
visibility: 0.9995847940444946
","x: 204.8120880126953
y: 262.67877197265625
z: -0.24593958258628845
visibility: 0.9997779726982117
","x: 214.6068115234375
y: 274.80828857421875
z: -0.268858402967453
visibility: 0.9999406933784485
","x: 210.80039978027344
y: 275.26806640625
z: -0.27999764680862427
visibility: 0.999950647354126
","x: 228.94711303710938
y: 305.6351013183594
z: -0.10403668880462646
visibility: 0.9998646378517151
","x: 191.58822631835938
y: 305.88519287109375
z: -0.19200293719768524
visibility: 0.9999110102653503
","x: 232.64691162109375
y: 356.4350891113281
z: -0.05508141964673996
visibility: 0.9541457295417786
","x: 188.7662353515625
y: 359.7381896972656
z: -0.15211811661720276
visibility: 0.9787049889564514
","x: 234.4114990234375
y: 399.7544860839844
z: -0.1370864361524582
visibility: 0.945752739906311
","x: 190.86138916015625
y: 404.57220458984375
z: -0.2182985097169876
visibility: 0.9424693584442139
","x: 235.85548400878906
y: 414.3997497558594
z: -0.1619156450033188
visibility: 0.9017047882080078
","x: 191.27554321289062
y: 418.8609313964844
z: -0.24565260112285614
visibility: 0.9016110897064209
","x: 233.4258575439453
y: 414.12347412109375
z: -0.190961092710495
visibility: 0.9079955816268921
","x: 193.85183715820312
y: 418.3441467285156
z: -0.26811057329177856
visibility: 0.905406653881073
","x: 231.76995849609375
y: 409.94940185546875
z: -0.1501077115535736
visibility: 0.8935598731040955
","x: 194.43943786621094
y: 413.4013671875
z: -0.2280360758304596
visibility: 0.8876774907112122
","x: 221.82102966308594
y: 399.8579406738281
z: 0.021868111565709114
visibility: 0.9993077516555786
","x: 202.9064483642578
y: 401.9415588378906
z: -0.021721025928854942
visibility: 0.9996246099472046
","x: 218.6582794189453
y: 462.81982421875
z: -0.1210506334900856
visibility: 0.9581423401832581
","x: 206.3446044921875
y: 468.6646728515625
z: -0.015913356095552444
visibility: 0.9713560938835144
","x: 208.39219665527344
y: 508.3007507324219
z: 0.07571981102228165
visibility: 0.9304832816123962
","x: 211.8140869140625
y: 530.4664306640625
z: 0.16484451293945312
visibility: 0.9737271666526794
","x: 204.11776733398438
y: 511.8943786621094
z: 0.09178940206766129
visibility: 0.8919215202331543
","x: 213.6943817138672
y: 539.460693359375
z: 0.1775362491607666
visibility: 0.8519449830055237
","x: 212.37548828125
y: 538.451416015625
z: -0.0009721893584355712
visibility: 0.9392468333244324
","x: 211.8158721923828
y: 552.4024047851562
z: 0.0642334371805191
visibility: 0.9611395597457886
",3.1379754543304443,"x: 238.34202575683594
y: 406.1332702636719
z: -6.612026481889188e-08
","x: 235.39346313476562
y: 407.6595764160156
z: -0.006110743619501591
","x: 233.19834899902344
y: 411.77252197265625
z: -0.009901857003569603
","x: 233.0361785888672
y: 415.25701904296875
z: -0.012894347310066223
","x: 233.03704833984375
y: 417.96142578125
z: -0.015208828262984753
","x: 233.4010772705078
y: 428.29144287109375
z: -0.005617831367999315
","x: 237.7045135498047
y: 425.1059265136719
z: -0.011299899779260159
","x: 238.3352508544922
y: 419.109375
z: -0.015441411174833775
","x: 237.5533905029297
y: 414.44805908203125
z: -0.017402058467268944
","x: 237.07534790039062
y: 430.4161376953125
z: -0.0044998726807534695
","x: 240.5035400390625
y: 426.855224609375
z: -0.009478136897087097
","x: 240.92543029785156
y: 420.72149658203125
z: -0.011881866492331028
","x: 240.2969512939453
y: 416.07879638671875
z: -0.01258497592061758
","x: 240.65835571289062
y: 430.47210693359375
z: -0.004043941386044025
","x: 243.33042907714844
y: 427.6846008300781
z: -0.008127501234412193
","x: 243.55284118652344
y: 422.5268859863281
z: -0.008087706752121449
","x: 243.0211181640625
y: 418.5211486816406
z: -0.0071036722511053085
","x: 243.6958465576172
y: 428.978515625
z: -0.004235506057739258
","x: 245.689453125
y: 427.50799560546875
z: -0.0069930218160152435
","x: 245.80853271484375
y: 423.2783203125
z: -0.006396195385605097
","x: 245.30999755859375
y: 420.3140563964844
z: -0.0048448555171489716
",,,,,,,,,,,,,,,,,,,,,
13,"x: 213.4427490234375
y: 267.70745849609375
z: -0.30851322412490845
visibility: 0.9999655485153198
","x: 214.46792602539062
y: 260.044677734375
z: -0.29600709676742554
visibility: 0.9998747706413269
","x: 215.34585571289062
y: 259.86932373046875
z: -0.2959955930709839
visibility: 0.9998482465744019
","x: 216.21066284179688
y: 259.724853515625
z: -0.29595473408699036
visibility: 0.9998418688774109
","x: 211.0048828125
y: 260.1595764160156
z: -0.30326148867607117
visibility: 0.9998956918716431
","x: 209.49197387695312
y: 260.08331298828125
z: -0.30331751704216003
visibility: 0.9998851418495178
","x: 207.9947967529297
y: 260.1458435058594
z: -0.3033736050128937
visibility: 0.9998801946640015
","x: 216.024658203125
y: 261.78271484375
z: -0.18911688029766083
visibility: 0.9995847940444946
","x: 204.8120880126953
y: 262.67877197265625
z: -0.24593958258628845
visibility: 0.9997779726982117
","x: 214.6068115234375
y: 274.80828857421875
z: -0.268858402967453
visibility: 0.9999406933784485
","x: 210.80039978027344
y: 275.26806640625
z: -0.27999764680862427
visibility: 0.999950647354126
","x: 228.94711303710938
y: 305.6351013183594
z: -0.10403668880462646
visibility: 0.9998646378517151
","x: 191.58822631835938
y: 305.88519287109375
z: -0.19200293719768524
visibility: 0.9999110102653503
","x: 232.64691162109375
y: 356.4350891113281
z: -0.05508141964673996
visibility: 0.9541457295417786
","x: 188.7662353515625
y: 359.7381896972656
z: -0.15211811661720276
visibility: 0.9787049889564514
","x: 234.4114990234375
y: 399.7544860839844
z: -0.1370864361524582
visibility: 0.945752739906311
","x: 190.86138916015625
y: 404.57220458984375
z: -0.2182985097169876
visibility: 0.9424693584442139
","x: 235.85548400878906
y: 414.3997497558594
z: -0.1619156450033188
visibility: 0.9017047882080078
","x: 191.27554321289062
y: 418.8609313964844
z: -0.24565260112285614
visibility: 0.9016110897064209
","x: 233.4258575439453
y: 414.12347412109375
z: -0.190961092710495
visibility: 0.9079955816268921
","x: 193.85183715820312
y: 418.3441467285156
z: -0.26811057329177856
visibility: 0.905406653881073
","x: 231.76995849609375
y: 409.94940185546875
z: -0.1501077115535736
visibility: 0.8935598731040955
","x: 194.43943786621094
y: 413.4013671875
z: -0.2280360758304596
visibility: 0.8876774907112122
","x: 221.82102966308594
y: 399.8579406738281
z: 0.021868111565709114
visibility: 0.9993077516555786
","x: 202.9064483642578
y: 401.9415588378906
z: -0.021721025928854942
visibility: 0.9996246099472046
","x: 218.6582794189453
y: 462.81982421875
z: -0.1210506334900856
visibility: 0.9581423401832581
","x: 206.3446044921875
y: 468.6646728515625
z: -0.015913356095552444
visibility: 0.9713560938835144
","x: 208.39219665527344
y: 508.3007507324219
z: 0.07571981102228165
visibility: 0.9304832816123962
","x: 211.8140869140625
y: 530.4664306640625
z: 0.16484451293945312
visibility: 0.9737271666526794
","x: 204.11776733398438
y: 511.8943786621094
z: 0.09178940206766129
visibility: 0.8919215202331543
","x: 213.6943817138672
y: 539.460693359375
z: 0.1775362491607666
visibility: 0.8519449830055237
","x: 212.37548828125
y: 538.451416015625
z: -0.0009721893584355712
visibility: 0.9392468333244324
","x: 211.8158721923828
y: 552.4024047851562
z: 0.0642334371805191
visibility: 0.9611395597457886
",3.1379754543304443,"x: 238.34202575683594
y: 406.1332702636719
z: -6.612026481889188e-08
","x: 235.39346313476562
y: 407.6595764160156
z: -0.006110743619501591
","x: 233.19834899902344
y: 411.77252197265625
z: -0.009901857003569603
","x: 233.0361785888672
y: 415.25701904296875
z: -0.012894347310066223
","x: 233.03704833984375
y: 417.96142578125
z: -0.015208828262984753
","x: 233.4010772705078
y: 428.29144287109375
z: -0.005617831367999315
","x: 237.7045135498047
y: 425.1059265136719
z: -0.011299899779260159
","x: 238.3352508544922
y: 419.109375
z: -0.015441411174833775
","x: 237.5533905029297
y: 414.44805908203125
z: -0.017402058467268944
","x: 237.07534790039062
y: 430.4161376953125
z: -0.0044998726807534695
","x: 240.5035400390625
y: 426.855224609375
z: -0.009478136897087097
","x: 240.92543029785156
y: 420.72149658203125
z: -0.011881866492331028
","x: 240.2969512939453
y: 416.07879638671875
z: -0.01258497592061758
","x: 240.65835571289062
y: 430.47210693359375
z: -0.004043941386044025
","x: 243.33042907714844
y: 427.6846008300781
z: -0.008127501234412193
","x: 243.55284118652344
y: 422.5268859863281
z: -0.008087706752121449
","x: 243.0211181640625
y: 418.5211486816406
z: -0.0071036722511053085
","x: 243.6958465576172
y: 428.978515625
z: -0.004235506057739258
","x: 245.689453125
y: 427.50799560546875
z: -0.0069930218160152435
","x: 245.80853271484375
y: 423.2783203125
z: -0.006396195385605097
","x: 245.30999755859375
y: 420.3140563964844
z: -0.0048448555171489716
",,,,,,,,,,,,,,,,,,,,,
14,"x: 213.4427490234375
y: 267.70745849609375
z: -0.30851322412490845
visibility: 0.9999655485153198
","x: 214.46792602539062
y: 260.044677734375
z: -0.29600709676742554
visibility: 0.9998747706413269
","x: 215.34585571289062
y: 259.86932373046875
z: -0.2959955930709839
visibility: 0.9998482465744019
","x: 216.21066284179688
y: 259.724853515625
z: -0.29595473408699036
visibility: 0.9998418688774109
","x: 211.0048828125
y: 260.1595764160156
z: -0.30326148867607117
visibility: 0.9998956918716431
","x: 209.49197387695312
y: 260.08331298828125
z: -0.30331751704216003
visibility: 0.9998851418495178
","x: 207.9947967529297
y: 260.1458435058594
z: -0.3033736050128937
visibility: 0.9998801946640015
","x: 216.024658203125
y: 261.78271484375
z: -0.18911688029766083
visibility: 0.9995847940444946
","x: 204.8120880126953
y: 262.67877197265625
z: -0.24593958258628845
visibility: 0.9997779726982117
","x: 214.6068115234375
y: 274.80828857421875
z: -0.268858402967453
visibility: 0.9999406933784485
","x: 210.80039978027344
y: 275.26806640625
z: -0.27999764680862427
visibility: 0.999950647354126
","x: 228.94711303710938
y: 305.6351013183594
z: -0.10403668880462646
visibility: 0.9998646378517151
","x: 191.58822631835938
y: 305.88519287109375
z: -0.19200293719768524
visibility: 0.9999110102653503
","x: 232.64691162109375
y: 356.4350891113281
z: -0.05508141964673996
visibility: 0.9541457295417786
","x: 188.7662353515625
y: 359.7381896972656
z: -0.15211811661720276
visibility: 0.9787049889564514
","x: 234.4114990234375
y: 399.7544860839844
z: -0.1370864361524582
visibility: 0.945752739906311
","x: 190.86138916015625
y: 404.57220458984375
z: -0.2182985097169876
visibility: 0.9424693584442139
","x: 235.85548400878906
y: 414.3997497558594
z: -0.1619156450033188
visibility: 0.9017047882080078
","x: 191.27554321289062
y: 418.8609313964844
z: -0.24565260112285614
visibility: 0.9016110897064209
","x: 233.4258575439453
y: 414.12347412109375
z: -0.190961092710495
visibility: 0.9079955816268921
","x: 193.85183715820312
y: 418.3441467285156
z: -0.26811057329177856
visibility: 0.905406653881073
","x: 231.76995849609375
y: 409.94940185546875
z: -0.1501077115535736
visibility: 0.8935598731040955
","x: 194.43943786621094
y: 413.4013671875
z: -0.2280360758304596
visibility: 0.8876774907112122
","x: 221.82102966308594
y: 399.8579406738281
z: 0.021868111565709114
visibility: 0.9993077516555786
","x: 202.9064483642578
y: 401.9415588378906
z: -0.021721025928854942
visibility: 0.9996246099472046
","x: 218.6582794189453
y: 462.81982421875
z: -0.1210506334900856
visibility: 0.9581423401832581
","x: 206.3446044921875
y: 468.6646728515625
z: -0.015913356095552444
visibility: 0.9713560938835144
","x: 208.39219665527344
y: 508.3007507324219
z: 0.07571981102228165
visibility: 0.9304832816123962
","x: 211.8140869140625
y: 530.4664306640625
z: 0.16484451293945312
visibility: 0.9737271666526794
","x: 204.11776733398438
y: 511.8943786621094
z: 0.09178940206766129
visibility: 0.8919215202331543
","x: 213.6943817138672
y: 539.460693359375
z: 0.1775362491607666
visibility: 0.8519449830055237
","x: 212.37548828125
y: 538.451416015625
z: -0.0009721893584355712
visibility: 0.9392468333244324
","x: 211.8158721923828
y: 552.4024047851562
z: 0.0642334371805191
visibility: 0.9611395597457886
",3.1379754543304443,"x: 238.34202575683594
y: 406.1332702636719
z: -6.612026481889188e-08
","x: 235.39346313476562
y: 407.6595764160156
z: -0.006110743619501591
","x: 233.19834899902344
y: 411.77252197265625
z: -0.009901857003569603
","x: 233.0361785888672
y: 415.25701904296875
z: -0.012894347310066223
","x: 233.03704833984375
y: 417.96142578125
z: -0.015208828262984753
","x: 233.4010772705078
y: 428.29144287109375
z: -0.005617831367999315
","x: 237.7045135498047
y: 425.1059265136719
z: -0.011299899779260159
","x: 238.3352508544922
y: 419.109375
z: -0.015441411174833775
","x: 237.5533905029297
y: 414.44805908203125
z: -0.017402058467268944
","x: 237.07534790039062
y: 430.4161376953125
z: -0.0044998726807534695
","x: 240.5035400390625
y: 426.855224609375
z: -0.009478136897087097
","x: 240.92543029785156
y: 420.72149658203125
z: -0.011881866492331028
","x: 240.2969512939453
y: 416.07879638671875
z: -0.01258497592061758
","x: 240.65835571289062
y: 430.47210693359375
z: -0.004043941386044025
","x: 243.33042907714844
y: 427.6846008300781
z: -0.008127501234412193
","x: 243.55284118652344
y: 422.5268859863281
z: -0.008087706752121449
","x: 243.0211181640625
y: 418.5211486816406
z: -0.0071036722511053085
","x: 243.6958465576172
y: 428.978515625
z: -0.004235506057739258
","x: 245.689453125
y: 427.50799560546875
z: -0.0069930218160152435
","x: 245.80853271484375
y: 423.2783203125
z: -0.006396195385605097
","x: 245.30999755859375
y: 420.3140563964844
z: -0.0048448555171489716
",,,,,,,,,,,,,,,,,,,,,
15,"x: 212.41856384277344
y: 266.0274353027344
z: -0.28331026434898376
visibility: 0.999967634677887
","x: 213.6551513671875
y: 258.4390563964844
z: -0.26661890745162964
visibility: 0.9998823404312134
","x: 214.6069793701172
y: 258.2851867675781
z: -0.2666386663913727
visibility: 0.9998579025268555
","x: 215.53199768066406
y: 258.15277099609375
z: -0.26665666699409485
visibility: 0.9998524188995361
","x: 209.86642456054688
y: 258.60675048828125
z: -0.27272993326187134
visibility: 0.9999008178710938
","x: 208.28448486328125
y: 258.5848388671875
z: -0.2727487087249756
visibility: 0.9998898506164551
","x: 206.89044189453125
y: 258.7078857421875
z: -0.27277302742004395
visibility: 0.999883770942688
","x: 215.6740264892578
y: 260.2724609375
z: -0.1621241718530655
visibility: 0.9996175765991211
","x: 204.14512634277344
y: 261.1888732910156
z: -0.19481304287910461
visibility: 0.9997833967208862
","x: 213.97247314453125
y: 273.2542724609375
z: -0.24396078288555145
visibility: 0.9999449849128723
","x: 209.859619140625
y: 273.9111633300781
z: -0.25263550877571106
visibility: 0.99995356798172
","x: 228.5601043701172
y: 303.2012023925781
z: -0.09016229212284088
visibility: 0.9998752474784851
","x: 191.4831085205078
y: 305.584228515625
z: -0.14280809462070465
visibility: 0.9999093413352966
","x: 232.82730102539062
y: 353.598876953125
z: -0.05321615934371948
visibility: 0.9574467539787292
","x: 188.8345489501953
y: 359.6337585449219
z: -0.12230263650417328
visibility: 0.9786164164543152
","x: 234.6238250732422
y: 398.38690185546875
z: -0.1290307343006134
visibility: 0.9499056935310364
","x: 191.29815673828125
y: 405.82568359375
z: -0.19415906071662903
visibility: 0.9411066174507141
","x: 236.27903747558594
y: 412.6684265136719
z: -0.15418794751167297
visibility: 0.9086700081825256
","x: 191.9214324951172
y: 420.4403381347656
z: -0.22124211490154266
visibility: 0.8997758030891418
","x: 233.4093017578125
y: 411.7675476074219
z: -0.18313005566596985
visibility: 0.9145489931106567
","x: 194.58206176757812
y: 419.7779541015625
z: -0.24546775221824646
visibility: 0.9034823775291443
","x: 231.7730255126953
y: 408.2728271484375
z: -0.14187388122081757
visibility: 0.9007082581520081
","x: 195.3968048095703
y: 414.3896179199219
z: -0.20466621220111847
visibility: 0.8848215341567993
","x: 222.5840606689453
y: 399.53985595703125
z: 0.020835770294070244
visibility: 0.9993468523025513
","x: 203.0897979736328
y: 401.9455261230469
z: -0.020735109224915504
visibility: 0.9996234774589539
","x: 224.97760009765625
y: 458.283203125
z: -0.08513133972883224
visibility: 0.9607397317886353
","x: 205.70376586914062
y: 469.893798828125
z: -0.024112308397889137
visibility: 0.9723586440086365
","x: 213.6973876953125
y: 512.0384521484375
z: 0.09182913601398468
visibility: 0.9333726167678833
","x: 210.9976043701172
y: 530.6071166992188
z: 0.14831891655921936
visibility: 0.9741889834403992
","x: 210.0658416748047
y: 517.1625366210938
z: 0.10494004189968109
visibility: 0.8961254358291626
","x: 211.41160583496094
y: 540.218505859375
z: 0.1588892936706543
visibility: 0.8516468405723572
","x: 221.126953125
y: 539.28857421875
z: 0.011341609060764313
visibility: 0.9418745636940002
","x: 212.64266967773438
y: 553.4473266601562
z: 0.0482255220413208
visibility: 0.9611549377441406
",3.2840445041656494,"x: 242.6187744140625
y: 406.462890625
z: -1.5915532003418775e-08
","x: 238.58395385742188
y: 405.102294921875
z: -0.00516094733029604
","x: 234.5758056640625
y: 406.0712890625
z: -0.008898415602743626
","x: 232.3365020751953
y: 408.4808044433594
z: -0.012124600820243359
","x: 231.5198211669922
y: 411.24420166015625
z: -0.014861437492072582
","x: 234.48773193359375
y: 421.4682312011719
z: -0.005769198760390282
","x: 233.86737060546875
y: 421.9620361328125
z: -0.01078549399971962
","x: 233.53851318359375
y: 419.2111511230469
z: -0.014283095486462116
","x: 232.60873413085938
y: 416.96807861328125
z: -0.016365615651011467
","x: 237.48851013183594
y: 424.7579345703125
z: -0.005322011187672615
","x: 237.49468994140625
y: 425.6017761230469
z: -0.009590799920260906
","x: 238.16055297851562
y: 421.97259521484375
z: -0.01133265346288681
","x: 238.13113403320312
y: 419.0982666015625
z: -0.012183516286313534
","x: 240.8326416015625
y: 426.152099609375
z: -0.005498472601175308
","x: 240.96505737304688
y: 426.79541015625
z: -0.00943558756262064
","x: 241.64883422851562
y: 423.1404113769531
z: -0.009186718612909317
","x: 241.8089599609375
y: 420.1333312988281
z: -0.008441172540187836
","x: 243.979736328125
y: 425.9878845214844
z: -0.006164112128317356
","x: 244.46005249023438
y: 426.7867431640625
z: -0.008899826556444168
","x: 244.8782958984375
y: 423.78448486328125
z: -0.0085161617025733
","x: 244.97171020507812
y: 421.18927001953125
z: -0.007586275693029165
",,,,,,,,,,,,,,,,,,,,,
16,"x: 212.41856384277344
y: 266.0274353027344
z: -0.28331026434898376
visibility: 0.999967634677887
","x: 213.6551513671875
y: 258.4390563964844
z: -0.26661890745162964
visibility: 0.9998823404312134
","x: 214.6069793701172
y: 258.2851867675781
z: -0.2666386663913727
visibility: 0.9998579025268555
","x: 215.53199768066406
y: 258.15277099609375
z: -0.26665666699409485
visibility: 0.9998524188995361
","x: 209.86642456054688
y: 258.60675048828125
z: -0.27272993326187134
visibility: 0.9999008178710938
","x: 208.28448486328125
y: 258.5848388671875
z: -0.2727487087249756
visibility: 0.9998898506164551
","x: 206.89044189453125
y: 258.7078857421875
z: -0.27277302742004395
visibility: 0.999883770942688
","x: 215.6740264892578
y: 260.2724609375
z: -0.1621241718530655
visibility: 0.9996175765991211
","x: 204.14512634277344
y: 261.1888732910156
z: -0.19481304287910461
visibility: 0.9997833967208862
","x: 213.97247314453125
y: 273.2542724609375
z: -0.24396078288555145
visibility: 0.9999449849128723
","x: 209.859619140625
y: 273.9111633300781
z: -0.25263550877571106
visibility: 0.99995356798172
","x: 228.5601043701172
y: 303.2012023925781
z: -0.09016229212284088
visibility: 0.9998752474784851
","x: 191.4831085205078
y: 305.584228515625
z: -0.14280809462070465
visibility: 0.9999093413352966
","x: 232.82730102539062
y: 353.598876953125
z: -0.05321615934371948
visibility: 0.9574467539787292
","x: 188.8345489501953
y: 359.6337585449219
z: -0.12230263650417328
visibility: 0.9786164164543152
","x: 234.6238250732422
y: 398.38690185546875
z: -0.1290307343006134
visibility: 0.9499056935310364
","x: 191.29815673828125
y: 405.82568359375
z: -0.19415906071662903
visibility: 0.9411066174507141
","x: 236.27903747558594
y: 412.6684265136719
z: -0.15418794751167297
visibility: 0.9086700081825256
","x: 191.9214324951172
y: 420.4403381347656
z: -0.22124211490154266
visibility: 0.8997758030891418
","x: 233.4093017578125
y: 411.7675476074219
z: -0.18313005566596985
visibility: 0.9145489931106567
","x: 194.58206176757812
y: 419.7779541015625
z: -0.24546775221824646
visibility: 0.9034823775291443
","x: 231.7730255126953
y: 408.2728271484375
z: -0.14187388122081757
visibility: 0.9007082581520081
","x: 195.3968048095703
y: 414.3896179199219
z: -0.20466621220111847
visibility: 0.8848215341567993
","x: 222.5840606689453
y: 399.53985595703125
z: 0.020835770294070244
visibility: 0.9993468523025513
","x: 203.0897979736328
y: 401.9455261230469
z: -0.020735109224915504
visibility: 0.9996234774589539
","x: 224.97760009765625
y: 458.283203125
z: -0.08513133972883224
visibility: 0.9607397317886353
","x: 205.70376586914062
y: 469.893798828125
z: -0.024112308397889137
visibility: 0.9723586440086365
","x: 213.6973876953125
y: 512.0384521484375
z: 0.09182913601398468
visibility: 0.9333726167678833
","x: 210.9976043701172
y: 530.6071166992188
z: 0.14831891655921936
visibility: 0.9741889834403992
","x: 210.0658416748047
y: 517.1625366210938
z: 0.10494004189968109
visibility: 0.8961254358291626
","x: 211.41160583496094
y: 540.218505859375
z: 0.1588892936706543
visibility: 0.8516468405723572
","x: 221.126953125
y: 539.28857421875
z: 0.011341609060764313
visibility: 0.9418745636940002
","x: 212.64266967773438
y: 553.4473266601562
z: 0.0482255220413208
visibility: 0.9611549377441406
",3.2840445041656494,"x: 242.6187744140625
y: 406.462890625
z: -1.5915532003418775e-08
","x: 238.58395385742188
y: 405.102294921875
z: -0.00516094733029604
","x: 234.5758056640625
y: 406.0712890625
z: -0.008898415602743626
","x: 232.3365020751953
y: 408.4808044433594
z: -0.012124600820243359
","x: 231.5198211669922
y: 411.24420166015625
z: -0.014861437492072582
","x: 234.48773193359375
y: 421.4682312011719
z: -0.005769198760390282
","x: 233.86737060546875
y: 421.9620361328125
z: -0.01078549399971962
","x: 233.53851318359375
y: 419.2111511230469
z: -0.014283095486462116
","x: 232.60873413085938
y: 416.96807861328125
z: -0.016365615651011467
","x: 237.48851013183594
y: 424.7579345703125
z: -0.005322011187672615
","x: 237.49468994140625
y: 425.6017761230469
z: -0.009590799920260906
","x: 238.16055297851562
y: 421.97259521484375
z: -0.01133265346288681
","x: 238.13113403320312
y: 419.0982666015625
z: -0.012183516286313534
","x: 240.8326416015625
y: 426.152099609375
z: -0.005498472601175308
","x: 240.96505737304688
y: 426.79541015625
z: -0.00943558756262064
","x: 241.64883422851562
y: 423.1404113769531
z: -0.009186718612909317
","x: 241.8089599609375
y: 420.1333312988281
z: -0.008441172540187836
","x: 243.979736328125
y: 425.9878845214844
z: -0.006164112128317356
","x: 244.46005249023438
y: 426.7867431640625
z: -0.008899826556444168
","x: 244.8782958984375
y: 423.78448486328125
z: -0.0085161617025733
","x: 244.97171020507812
y: 421.18927001953125
z: -0.007586275693029165
",,,,,,,,,,,,,,,,,,,,,
17,"x: 212.41856384277344
y: 266.0274353027344
z: -0.28331026434898376
visibility: 0.999967634677887
","x: 213.6551513671875
y: 258.4390563964844
z: -0.26661890745162964
visibility: 0.9998823404312134
","x: 214.6069793701172
y: 258.2851867675781
z: -0.2666386663913727
visibility: 0.9998579025268555
","x: 215.53199768066406
y: 258.15277099609375
z: -0.26665666699409485
visibility: 0.9998524188995361
","x: 209.86642456054688
y: 258.60675048828125
z: -0.27272993326187134
visibility: 0.9999008178710938
","x: 208.28448486328125
y: 258.5848388671875
z: -0.2727487087249756
visibility: 0.9998898506164551
","x: 206.89044189453125
y: 258.7078857421875
z: -0.27277302742004395
visibility: 0.999883770942688
","x: 215.6740264892578
y: 260.2724609375
z: -0.1621241718530655
visibility: 0.9996175765991211
","x: 204.14512634277344
y: 261.1888732910156
z: -0.19481304287910461
visibility: 0.9997833967208862
","x: 213.97247314453125
y: 273.2542724609375
z: -0.24396078288555145
visibility: 0.9999449849128723
","x: 209.859619140625
y: 273.9111633300781
z: -0.25263550877571106
visibility: 0.99995356798172
","x: 228.5601043701172
y: 303.2012023925781
z: -0.09016229212284088
visibility: 0.9998752474784851
","x: 191.4831085205078
y: 305.584228515625
z: -0.14280809462070465
visibility: 0.9999093413352966
","x: 232.82730102539062
y: 353.598876953125
z: -0.05321615934371948
visibility: 0.9574467539787292
","x: 188.8345489501953
y: 359.6337585449219
z: -0.12230263650417328
visibility: 0.9786164164543152
","x: 234.6238250732422
y: 398.38690185546875
z: -0.1290307343006134
visibility: 0.9499056935310364
","x: 191.29815673828125
y: 405.82568359375
z: -0.19415906071662903
visibility: 0.9411066174507141
","x: 236.27903747558594
y: 412.6684265136719
z: -0.15418794751167297
visibility: 0.9086700081825256
","x: 191.9214324951172
y: 420.4403381347656
z: -0.22124211490154266
visibility: 0.8997758030891418
","x: 233.4093017578125
y: 411.7675476074219
z: -0.18313005566596985
visibility: 0.9145489931106567
","x: 194.58206176757812
y: 419.7779541015625
z: -0.24546775221824646
visibility: 0.9034823775291443
","x: 231.7730255126953
y: 408.2728271484375
z: -0.14187388122081757
visibility: 0.9007082581520081
","x: 195.3968048095703
y: 414.3896179199219
z: -0.20466621220111847
visibility: 0.8848215341567993
","x: 222.5840606689453
y: 399.53985595703125
z: 0.020835770294070244
visibility: 0.9993468523025513
","x: 203.0897979736328
y: 401.9455261230469
z: -0.020735109224915504
visibility: 0.9996234774589539
","x: 224.97760009765625
y: 458.283203125
z: -0.08513133972883224
visibility: 0.9607397317886353
","x: 205.70376586914062
y: 469.893798828125
z: -0.024112308397889137
visibility: 0.9723586440086365
","x: 213.6973876953125
y: 512.0384521484375
z: 0.09182913601398468
visibility: 0.9333726167678833
","x: 210.9976043701172
y: 530.6071166992188
z: 0.14831891655921936
visibility: 0.9741889834403992
","x: 210.0658416748047
y: 517.1625366210938
z: 0.10494004189968109
visibility: 0.8961254358291626
","x: 211.41160583496094
y: 540.218505859375
z: 0.1588892936706543
visibility: 0.8516468405723572
","x: 221.126953125
y: 539.28857421875
z: 0.011341609060764313
visibility: 0.9418745636940002
","x: 212.64266967773438
y: 553.4473266601562
z: 0.0482255220413208
visibility: 0.9611549377441406
",3.2840445041656494,"x: 242.6187744140625
y: 406.462890625
z: -1.5915532003418775e-08
","x: 238.58395385742188
y: 405.102294921875
z: -0.00516094733029604
","x: 234.5758056640625
y: 406.0712890625
z: -0.008898415602743626
","x: 232.3365020751953
y: 408.4808044433594
z: -0.012124600820243359
","x: 231.5198211669922
y: 411.24420166015625
z: -0.014861437492072582
","x: 234.48773193359375
y: 421.4682312011719
z: -0.005769198760390282
","x: 233.86737060546875
y: 421.9620361328125
z: -0.01078549399971962
","x: 233.53851318359375
y: 419.2111511230469
z: -0.014283095486462116
","x: 232.60873413085938
y: 416.96807861328125
z: -0.016365615651011467
","x: 237.48851013183594
y: 424.7579345703125
z: -0.005322011187672615
","x: 237.49468994140625
y: 425.6017761230469
z: -0.009590799920260906
","x: 238.16055297851562
y: 421.97259521484375
z: -0.01133265346288681
","x: 238.13113403320312
y: 419.0982666015625
z: -0.012183516286313534
","x: 240.8326416015625
y: 426.152099609375
z: -0.005498472601175308
","x: 240.96505737304688
y: 426.79541015625
z: -0.00943558756262064
","x: 241.64883422851562
y: 423.1404113769531
z: -0.009186718612909317
","x: 241.8089599609375
y: 420.1333312988281
z: -0.008441172540187836
","x: 243.979736328125
y: 425.9878845214844
z: -0.006164112128317356
","x: 244.46005249023438
y: 426.7867431640625
z: -0.008899826556444168
","x: 244.8782958984375
y: 423.78448486328125
z: -0.0085161617025733
","x: 244.97171020507812
y: 421.18927001953125
z: -0.007586275693029165
",,,,,,,,,,,,,,,,,,,,,
18,"x: 212.5037078857422
y: 264.11285400390625
z: -0.23543615639209747
visibility: 0.9999693632125854
","x: 213.72364807128906
y: 256.68841552734375
z: -0.21936945617198944
visibility: 0.9998889565467834
","x: 214.66860961914062
y: 256.4537353515625
z: -0.21937783062458038
visibility: 0.9998651742935181
","x: 215.5812530517578
y: 256.3221435546875
z: -0.21936175227165222
visibility: 0.9998595714569092
","x: 209.9864044189453
y: 257.04327392578125
z: -0.2261742800474167
visibility: 0.9999070167541504
","x: 208.42669677734375
y: 257.11285400390625
z: -0.22618059813976288
visibility: 0.9998964071273804
","x: 207.02919006347656
y: 257.2171325683594
z: -0.22619934380054474
visibility: 0.9998909831047058
","x: 215.73170471191406
y: 258.39703369140625
z: -0.11768282949924469
visibility: 0.9996371865272522
","x: 204.2314910888672
y: 259.5708923339844
z: -0.15015074610710144
visibility: 0.9997988343238831
","x: 214.0221405029297
y: 270.95703125
z: -0.1962735950946808
visibility: 0.9999484419822693
","x: 209.94717407226562
y: 271.5752868652344
z: -0.20557472109794617
visibility: 0.9999570250511169
","x: 228.36761474609375
y: 299.6036682128906
z: -0.04415663331747055
visibility: 0.9998844265937805
","x: 191.61087036132812
y: 302.8389892578125
z: -0.09684830158948898
visibility: 0.9999148845672607
","x: 234.82081604003906
y: 346.4586181640625
z: -0.020620714873075485
visibility: 0.9596846699714661
","x: 182.9053955078125
y: 352.260009765625
z: -0.0907830074429512
visibility: 0.9799627661705017
","x: 236.6271514892578
y: 379.60498046875
z: -0.1369655728340149
visibility: 0.9536665678024292
","x: 191.4481201171875
y: 391.8311767578125
z: -0.17526105046272278
visibility: 0.945338249206543
","x: 237.7916717529297
y: 394.244384765625
z: -0.1671564280986786
visibility: 0.9153369665145874
","x: 192.3098602294922
y: 407.3916931152344
z: -0.20381371676921844
visibility: 0.9063732028007507
","x: 234.39266967773438
y: 393.1456298828125
z: -0.19348087906837463
visibility: 0.9207676649093628
","x: 195.83172607421875
y: 405.04168701171875
z: -0.22166574001312256
visibility: 0.9097430109977722
","x: 232.96087646484375
y: 389.2685546875
z: -0.1496523916721344
visibility: 0.9075198173522949
","x: 196.85659790039062
y: 399.58209228515625
z: -0.1827629804611206
visibility: 0.8917655944824219
","x: 223.70567321777344
y: 399.17791748046875
z: 0.021202363073825836
visibility: 0.9993647336959839
","x: 204.66787719726562
y: 401.8433837890625
z: -0.021193096414208412
visibility: 0.9996311068534851
","x: 226.97950744628906
y: 461.5042419433594
z: 0.01598706655204296
visibility: 0.9633180499076843
","x: 206.34689331054688
y: 471.71490478515625
z: -0.02000288851559162
visibility: 0.9743645787239075
","x: 223.4541015625
y: 526.3463134765625
z: 0.17893286049365997
visibility: 0.9383031129837036
","x: 211.51370239257812
y: 535.0762329101562
z: 0.1254952847957611
visibility: 0.9760084748268127
","x: 219.57913208007812
y: 534.29443359375
z: 0.1887763887643814
visibility: 0.8986863493919373
","x: 212.56114196777344
y: 543.9681396484375
z: 0.1336776167154312
visibility: 0.8573262095451355
","x: 229.40602111816406
y: 550.8246459960938
z: 0.09290975332260132
visibility: 0.9458450078964233
","x: 212.24496459960938
y: 557.2460327148438
z: 0.03159163147211075
visibility: 0.9638209939002991
",3.437138080596924,,,,,,,,,,,,,,,,,,,,,,,,,,,,,,,,,,,,,,,,,,
19,"x: 212.5037078857422
y: 264.11285400390625
z: -0.23543615639209747
visibility: 0.9999693632125854
","x: 213.72364807128906
y: 256.68841552734375
z: -0.21936945617198944
visibility: 0.9998889565467834
","x: 214.66860961914062
y: 256.4537353515625
z: -0.21937783062458038
visibility: 0.9998651742935181
","x: 215.5812530517578
y: 256.3221435546875
z: -0.21936175227165222
visibility: 0.9998595714569092
","x: 209.9864044189453
y: 257.04327392578125
z: -0.2261742800474167
visibility: 0.9999070167541504
","x: 208.42669677734375
y: 257.11285400390625
z: -0.22618059813976288
visibility: 0.9998964071273804
","x: 207.02919006347656
y: 257.2171325683594
z: -0.22619934380054474
visibility: 0.9998909831047058
","x: 215.73170471191406
y: 258.39703369140625
z: -0.11768282949924469
visibility: 0.9996371865272522
","x: 204.2314910888672
y: 259.5708923339844
z: -0.15015074610710144
visibility: 0.9997988343238831
","x: 214.0221405029297
y: 270.95703125
z: -0.1962735950946808
visibility: 0.9999484419822693
","x: 209.94717407226562
y: 271.5752868652344
z: -0.20557472109794617
visibility: 0.9999570250511169
","x: 228.36761474609375
y: 299.6036682128906
z: -0.04415663331747055
visibility: 0.9998844265937805
","x: 191.61087036132812
y: 302.8389892578125
z: -0.09684830158948898
visibility: 0.9999148845672607
","x: 234.82081604003906
y: 346.4586181640625
z: -0.020620714873075485
visibility: 0.9596846699714661
","x: 182.9053955078125
y: 352.260009765625
z: -0.0907830074429512
visibility: 0.9799627661705017
","x: 236.6271514892578
y: 379.60498046875
z: -0.1369655728340149
visibility: 0.9536665678024292
","x: 191.4481201171875
y: 391.8311767578125
z: -0.17526105046272278
visibility: 0.945338249206543
","x: 237.7916717529297
y: 394.244384765625
z: -0.1671564280986786
visibility: 0.9153369665145874
","x: 192.3098602294922
y: 407.3916931152344
z: -0.20381371676921844
visibility: 0.9063732028007507
","x: 234.39266967773438
y: 393.1456298828125
z: -0.19348087906837463
visibility: 0.9207676649093628
","x: 195.83172607421875
y: 405.04168701171875
z: -0.22166574001312256
visibility: 0.9097430109977722
","x: 232.96087646484375
y: 389.2685546875
z: -0.1496523916721344
visibility: 0.9075198173522949
","x: 196.85659790039062
y: 399.58209228515625
z: -0.1827629804611206
visibility: 0.8917655944824219
","x: 223.70567321777344
y: 399.17791748046875
z: 0.021202363073825836
visibility: 0.9993647336959839
","x: 204.66787719726562
y: 401.8433837890625
z: -0.021193096414208412
visibility: 0.9996311068534851
","x: 226.97950744628906
y: 461.5042419433594
z: 0.01598706655204296
visibility: 0.9633180499076843
","x: 206.34689331054688
y: 471.71490478515625
z: -0.02000288851559162
visibility: 0.9743645787239075
","x: 223.4541015625
y: 526.3463134765625
z: 0.17893286049365997
visibility: 0.9383031129837036
","x: 211.51370239257812
y: 535.0762329101562
z: 0.1254952847957611
visibility: 0.9760084748268127
","x: 219.57913208007812
y: 534.29443359375
z: 0.1887763887643814
visibility: 0.8986863493919373
","x: 212.56114196777344
y: 543.9681396484375
z: 0.1336776167154312
visibility: 0.8573262095451355
","x: 229.40602111816406
y: 550.8246459960938
z: 0.09290975332260132
visibility: 0.9458450078964233
","x: 212.24496459960938
y: 557.2460327148438
z: 0.03159163147211075
visibility: 0.9638209939002991
",3.437138080596924,,,,,,,,,,,,,,,,,,,,,,,,,,,,,,,,,,,,,,,,,,
20,"x: 213.01780700683594
y: 261.61328125
z: -0.20907965302467346
visibility: 0.9999698400497437
","x: 214.51377868652344
y: 254.5309295654297
z: -0.19190183281898499
visibility: 0.9998940229415894
","x: 215.62594604492188
y: 254.41925048828125
z: -0.1919342577457428
visibility: 0.9998698234558105
","x: 216.68124389648438
y: 254.33531188964844
z: -0.19193537533283234
visibility: 0.9998637437820435
","x: 210.75796508789062
y: 254.54721069335938
z: -0.1968189775943756
visibility: 0.9999116659164429
","x: 209.29644775390625
y: 254.44654846191406
z: -0.1968286633491516
visibility: 0.9999012351036072
","x: 207.90069580078125
y: 254.53082275390625
z: -0.19683805108070374
visibility: 0.9998971223831177
","x: 216.814453125
y: 256.44158935546875
z: -0.08246775716543198
visibility: 0.9996498823165894
","x: 205.10826110839844
y: 256.9589538574219
z: -0.10622644424438477
visibility: 0.999813973903656
","x: 214.51158142089844
y: 268.7615661621094
z: -0.1671553999185562
visibility: 0.9999502301216125
","x: 210.38314819335938
y: 268.6023254394531
z: -0.17399798333644867
visibility: 0.9999597668647766
","x: 228.94320678710938
y: 297.26702880859375
z: -0.010244841687381268
visibility: 0.9998894333839417
","x: 192.0671844482422
y: 299.966552734375
z: -0.04798944666981697
visibility: 0.9999188780784607
","x: 236.65362548828125
y: 331.9221496582031
z: -0.021353373304009438
visibility: 0.9590912461280823
","x: 179.08045959472656
y: 339.45526123046875
z: -0.09033173322677612
visibility: 0.9813751578330994
","x: 237.7012481689453
y: 345.23907470703125
z: -0.2215101718902588
visibility: 0.9556312561035156
","x: 191.3895263671875
y: 354.2294006347656
z: -0.23844611644744873
visibility: 0.9494999051094055
","x: 238.71693420410156
y: 354.8681640625
z: -0.2644801437854767
visibility: 0.9196218252182007
","x: 193.31463623046875
y: 362.08929443359375
z: -0.2752932608127594
visibility: 0.913037896156311
","x: 235.50189208984375
y: 352.6460266113281
z: -0.28308171033859253
visibility: 0.9248332977294922
","x: 196.71054077148438
y: 357.4795227050781
z: -0.2850794196128845
visibility: 0.9161150455474854
","x: 234.18528747558594
y: 349.7008972167969
z: -0.23335540294647217
visibility: 0.9113976359367371
","x: 196.9556884765625
y: 354.04742431640625
z: -0.24404844641685486
visibility: 0.8988070487976074
","x: 224.5941162109375
y: 396.4199523925781
z: 0.018983930349349976
visibility: 0.9993652701377869
","x: 205.58291625976562
y: 400.2215270996094
z: -0.019000671803951263
visibility: 0.9996249675750732
","x: 226.05043029785156
y: 461.9966125488281
z: 0.0214194618165493
visibility: 0.9652188420295715
","x: 206.93890380859375
y: 472.0429992675781
z: -0.017563683912158012
visibility: 0.9759018421173096
","x: 223.10516357421875
y: 530.5396118164062
z: 0.1799062341451645
visibility: 0.9424709677696228
","x: 211.12142944335938
y: 535.3277587890625
z: 0.12665027379989624
visibility: 0.9771115183830261
","x: 219.82986450195312
y: 538.5210571289062
z: 0.18985280394554138
visibility: 0.8989841341972351
","x: 212.12051391601562
y: 544.7049560546875
z: 0.13517850637435913
visibility: 0.8579671382904053
","x: 230.6381378173828
y: 554.2081909179688
z: 0.09495390206575394
visibility: 0.9490838050842285
","x: 212.0497283935547
y: 557.5889892578125
z: 0.03319398686289787
visibility: 0.9655425548553467
",3.609300136566162,,,,,,,,,,,,,,,,,,,,,,"x: 195.9629364013672
y: 352.45172119140625
z: 2.4128918862942328e-09
","x: 194.02650451660156
y: 354.775634765625
z: -0.003415115410462022
","x: 192.89239501953125
y: 356.94793701171875
z: -0.005962431896477938
","x: 192.793701171875
y: 358.0125427246094
z: -0.008260777220129967
","x: 193.29461669921875
y: 358.5811767578125
z: -0.01048352662473917
","x: 195.78005981445312
y: 356.5727233886719
z: -0.004094831179827452
","x: 195.9286651611328
y: 357.75677490234375
z: -0.0060965693555772305
","x: 195.98873901367188
y: 358.36614990234375
z: -0.00768904946744442
","x: 196.29000854492188
y: 358.5725402832031
z: -0.008738488890230656
","x: 197.52536010742188
y: 355.0802307128906
z: -0.0036175826098769903
","x: 198.67742919921875
y: 356.46636962890625
z: -0.004905957728624344
","x: 199.1431427001953
y: 357.36590576171875
z: -0.005863269791007042
","x: 199.4078369140625
y: 358.0234375
z: -0.006793495267629623
","x: 199.12538146972656
y: 353.76898193359375
z: -0.0034285373985767365
","x: 200.5506591796875
y: 355.3246765136719
z: -0.0046266550198197365
","x: 201.20741271972656
y: 356.39422607421875
z: -0.0048392415046691895
","x: 201.68942260742188
y: 357.2822570800781
z: -0.005089200101792812
","x: 200.40187072753906
y: 352.4467468261719
z: -0.0035558633971959352
","x: 201.76248168945312
y: 354.2256164550781
z: -0.004080462269484997
","x: 202.46424865722656
y: 355.4881286621094
z: -0.0036188371013849974
","x: 202.9469757080078
y: 356.35369873046875
z: -0.0033825812861323357
"
21,"x: 213.01780700683594
y: 261.61328125
z: -0.20907965302467346
visibility: 0.9999698400497437
","x: 214.51377868652344
y: 254.5309295654297
z: -0.19190183281898499
visibility: 0.9998940229415894
","x: 215.62594604492188
y: 254.41925048828125
z: -0.1919342577457428
visibility: 0.9998698234558105
","x: 216.68124389648438
y: 254.33531188964844
z: -0.19193537533283234
visibility: 0.9998637437820435
","x: 210.75796508789062
y: 254.54721069335938
z: -0.1968189775943756
visibility: 0.9999116659164429
","x: 209.29644775390625
y: 254.44654846191406
z: -0.1968286633491516
visibility: 0.9999012351036072
","x: 207.90069580078125
y: 254.53082275390625
z: -0.19683805108070374
visibility: 0.9998971223831177
","x: 216.814453125
y: 256.44158935546875
z: -0.08246775716543198
visibility: 0.9996498823165894
","x: 205.10826110839844
y: 256.9589538574219
z: -0.10622644424438477
visibility: 0.999813973903656
","x: 214.51158142089844
y: 268.7615661621094
z: -0.1671553999185562
visibility: 0.9999502301216125
","x: 210.38314819335938
y: 268.6023254394531
z: -0.17399798333644867
visibility: 0.9999597668647766
","x: 228.94320678710938
y: 297.26702880859375
z: -0.010244841687381268
visibility: 0.9998894333839417
","x: 192.0671844482422
y: 299.966552734375
z: -0.04798944666981697
visibility: 0.9999188780784607
","x: 236.65362548828125
y: 331.9221496582031
z: -0.021353373304009438
visibility: 0.9590912461280823
","x: 179.08045959472656
y: 339.45526123046875
z: -0.09033173322677612
visibility: 0.9813751578330994
","x: 237.7012481689453
y: 345.23907470703125
z: -0.2215101718902588
visibility: 0.9556312561035156
","x: 191.3895263671875
y: 354.2294006347656
z: -0.23844611644744873
visibility: 0.9494999051094055
","x: 238.71693420410156
y: 354.8681640625
z: -0.2644801437854767
visibility: 0.9196218252182007
","x: 193.31463623046875
y: 362.08929443359375
z: -0.2752932608127594
visibility: 0.913037896156311
","x: 235.50189208984375
y: 352.6460266113281
z: -0.28308171033859253
visibility: 0.9248332977294922
","x: 196.71054077148438
y: 357.4795227050781
z: -0.2850794196128845
visibility: 0.9161150455474854
","x: 234.18528747558594
y: 349.7008972167969
z: -0.23335540294647217
visibility: 0.9113976359367371
","x: 196.9556884765625
y: 354.04742431640625
z: -0.24404844641685486
visibility: 0.8988070487976074
","x: 224.5941162109375
y: 396.4199523925781
z: 0.018983930349349976
visibility: 0.9993652701377869
","x: 205.58291625976562
y: 400.2215270996094
z: -0.019000671803951263
visibility: 0.9996249675750732
","x: 226.05043029785156
y: 461.9966125488281
z: 0.0214194618165493
visibility: 0.9652188420295715
","x: 206.93890380859375
y: 472.0429992675781
z: -0.017563683912158012
visibility: 0.9759018421173096
","x: 223.10516357421875
y: 530.5396118164062
z: 0.1799062341451645
visibility: 0.9424709677696228
","x: 211.12142944335938
y: 535.3277587890625
z: 0.12665027379989624
visibility: 0.9771115183830261
","x: 219.82986450195312
y: 538.5210571289062
z: 0.18985280394554138
visibility: 0.8989841341972351
","x: 212.12051391601562
y: 544.7049560546875
z: 0.13517850637435913
visibility: 0.8579671382904053
","x: 230.6381378173828
y: 554.2081909179688
z: 0.09495390206575394
visibility: 0.9490838050842285
","x: 212.0497283935547
y: 557.5889892578125
z: 0.03319398686289787
visibility: 0.9655425548553467
",3.609300136566162,,,,,,,,,,,,,,,,,,,,,,"x: 195.9629364013672
y: 352.45172119140625
z: 2.4128918862942328e-09
","x: 194.02650451660156
y: 354.775634765625
z: -0.003415115410462022
","x: 192.89239501953125
y: 356.94793701171875
z: -0.005962431896477938
","x: 192.793701171875
y: 358.0125427246094
z: -0.008260777220129967
","x: 193.29461669921875
y: 358.5811767578125
z: -0.01048352662473917
","x: 195.78005981445312
y: 356.5727233886719
z: -0.004094831179827452
","x: 195.9286651611328
y: 357.75677490234375
z: -0.0060965693555772305
","x: 195.98873901367188
y: 358.36614990234375
z: -0.00768904946744442
","x: 196.29000854492188
y: 358.5725402832031
z: -0.008738488890230656
","x: 197.52536010742188
y: 355.0802307128906
z: -0.0036175826098769903
","x: 198.67742919921875
y: 356.46636962890625
z: -0.004905957728624344
","x: 199.1431427001953
y: 357.36590576171875
z: -0.005863269791007042
","x: 199.4078369140625
y: 358.0234375
z: -0.006793495267629623
","x: 199.12538146972656
y: 353.76898193359375
z: -0.0034285373985767365
","x: 200.5506591796875
y: 355.3246765136719
z: -0.0046266550198197365
","x: 201.20741271972656
y: 356.39422607421875
z: -0.0048392415046691895
","x: 201.68942260742188
y: 357.2822570800781
z: -0.005089200101792812
","x: 200.40187072753906
y: 352.4467468261719
z: -0.0035558633971959352
","x: 201.76248168945312
y: 354.2256164550781
z: -0.004080462269484997
","x: 202.46424865722656
y: 355.4881286621094
z: -0.0036188371013849974
","x: 202.9469757080078
y: 356.35369873046875
z: -0.0033825812861323357
"
22,"x: 213.01780700683594
y: 261.61328125
z: -0.20907965302467346
visibility: 0.9999698400497437
","x: 214.51377868652344
y: 254.5309295654297
z: -0.19190183281898499
visibility: 0.9998940229415894
","x: 215.62594604492188
y: 254.41925048828125
z: -0.1919342577457428
visibility: 0.9998698234558105
","x: 216.68124389648438
y: 254.33531188964844
z: -0.19193537533283234
visibility: 0.9998637437820435
","x: 210.75796508789062
y: 254.54721069335938
z: -0.1968189775943756
visibility: 0.9999116659164429
","x: 209.29644775390625
y: 254.44654846191406
z: -0.1968286633491516
visibility: 0.9999012351036072
","x: 207.90069580078125
y: 254.53082275390625
z: -0.19683805108070374
visibility: 0.9998971223831177
","x: 216.814453125
y: 256.44158935546875
z: -0.08246775716543198
visibility: 0.9996498823165894
","x: 205.10826110839844
y: 256.9589538574219
z: -0.10622644424438477
visibility: 0.999813973903656
","x: 214.51158142089844
y: 268.7615661621094
z: -0.1671553999185562
visibility: 0.9999502301216125
","x: 210.38314819335938
y: 268.6023254394531
z: -0.17399798333644867
visibility: 0.9999597668647766
","x: 228.94320678710938
y: 297.26702880859375
z: -0.010244841687381268
visibility: 0.9998894333839417
","x: 192.0671844482422
y: 299.966552734375
z: -0.04798944666981697
visibility: 0.9999188780784607
","x: 236.65362548828125
y: 331.9221496582031
z: -0.021353373304009438
visibility: 0.9590912461280823
","x: 179.08045959472656
y: 339.45526123046875
z: -0.09033173322677612
visibility: 0.9813751578330994
","x: 237.7012481689453
y: 345.23907470703125
z: -0.2215101718902588
visibility: 0.9556312561035156
","x: 191.3895263671875
y: 354.2294006347656
z: -0.23844611644744873
visibility: 0.9494999051094055
","x: 238.71693420410156
y: 354.8681640625
z: -0.2644801437854767
visibility: 0.9196218252182007
","x: 193.31463623046875
y: 362.08929443359375
z: -0.2752932608127594
visibility: 0.913037896156311
","x: 235.50189208984375
y: 352.6460266113281
z: -0.28308171033859253
visibility: 0.9248332977294922
","x: 196.71054077148438
y: 357.4795227050781
z: -0.2850794196128845
visibility: 0.9161150455474854
","x: 234.18528747558594
y: 349.7008972167969
z: -0.23335540294647217
visibility: 0.9113976359367371
","x: 196.9556884765625
y: 354.04742431640625
z: -0.24404844641685486
visibility: 0.8988070487976074
","x: 224.5941162109375
y: 396.4199523925781
z: 0.018983930349349976
visibility: 0.9993652701377869
","x: 205.58291625976562
y: 400.2215270996094
z: -0.019000671803951263
visibility: 0.9996249675750732
","x: 226.05043029785156
y: 461.9966125488281
z: 0.0214194618165493
visibility: 0.9652188420295715
","x: 206.93890380859375
y: 472.0429992675781
z: -0.017563683912158012
visibility: 0.9759018421173096
","x: 223.10516357421875
y: 530.5396118164062
z: 0.1799062341451645
visibility: 0.9424709677696228
","x: 211.12142944335938
y: 535.3277587890625
z: 0.12665027379989624
visibility: 0.9771115183830261
","x: 219.82986450195312
y: 538.5210571289062
z: 0.18985280394554138
visibility: 0.8989841341972351
","x: 212.12051391601562
y: 544.7049560546875
z: 0.13517850637435913
visibility: 0.8579671382904053
","x: 230.6381378173828
y: 554.2081909179688
z: 0.09495390206575394
visibility: 0.9490838050842285
","x: 212.0497283935547
y: 557.5889892578125
z: 0.03319398686289787
visibility: 0.9655425548553467
",3.609300136566162,,,,,,,,,,,,,,,,,,,,,,"x: 195.9629364013672
y: 352.45172119140625
z: 2.4128918862942328e-09
","x: 194.02650451660156
y: 354.775634765625
z: -0.003415115410462022
","x: 192.89239501953125
y: 356.94793701171875
z: -0.005962431896477938
","x: 192.793701171875
y: 358.0125427246094
z: -0.008260777220129967
","x: 193.29461669921875
y: 358.5811767578125
z: -0.01048352662473917
","x: 195.78005981445312
y: 356.5727233886719
z: -0.004094831179827452
","x: 195.9286651611328
y: 357.75677490234375
z: -0.0060965693555772305
","x: 195.98873901367188
y: 358.36614990234375
z: -0.00768904946744442
","x: 196.29000854492188
y: 358.5725402832031
z: -0.008738488890230656
","x: 197.52536010742188
y: 355.0802307128906
z: -0.0036175826098769903
","x: 198.67742919921875
y: 356.46636962890625
z: -0.004905957728624344
","x: 199.1431427001953
y: 357.36590576171875
z: -0.005863269791007042
","x: 199.4078369140625
y: 358.0234375
z: -0.006793495267629623
","x: 199.12538146972656
y: 353.76898193359375
z: -0.0034285373985767365
","x: 200.5506591796875
y: 355.3246765136719
z: -0.0046266550198197365
","x: 201.20741271972656
y: 356.39422607421875
z: -0.0048392415046691895
","x: 201.68942260742188
y: 357.2822570800781
z: -0.005089200101792812
","x: 200.40187072753906
y: 352.4467468261719
z: -0.0035558633971959352
","x: 201.76248168945312
y: 354.2256164550781
z: -0.004080462269484997
","x: 202.46424865722656
y: 355.4881286621094
z: -0.0036188371013849974
","x: 202.9469757080078
y: 356.35369873046875
z: -0.0033825812861323357
"
23,"x: 217.33392333984375
y: 266.1471862792969
z: -0.23525989055633545
visibility: 0.999971330165863
","x: 218.2362060546875
y: 259.467529296875
z: -0.2213662564754486
visibility: 0.9998993873596191
","x: 219.13197326660156
y: 259.533203125
z: -0.22140049934387207
visibility: 0.9998769760131836
","x: 219.94476318359375
y: 259.59375
z: -0.22144010663032532
visibility: 0.9998707175254822
","x: 214.98220825195312
y: 259.2551574707031
z: -0.2212865799665451
visibility: 0.9999152421951294
","x: 213.6083221435547
y: 259.1242370605469
z: -0.22132423520088196
visibility: 0.9999056458473206
","x: 212.28753662109375
y: 259.12628173828125
z: -0.2213561236858368
visibility: 0.9999009966850281
","x: 219.3511962890625
y: 262.3367919921875
z: -0.11867503076791763
visibility: 0.9996682405471802
","x: 208.8500213623047
y: 261.8179016113281
z: -0.13435092568397522
visibility: 0.9998233318328857
","x: 218.41383361816406
y: 272.6565856933594
z: -0.19534537196159363
visibility: 0.9999532699584961
","x: 214.61474609375
y: 272.92108154296875
z: -0.18986110389232635
visibility: 0.999962329864502
","x: 231.02249145507812
y: 304.8833923339844
z: -0.041827492415905
visibility: 0.9998987913131714
","x: 193.89120483398438
y: 304.1778259277344
z: -0.09133891016244888
visibility: 0.9999232888221741
","x: 239.1564178466797
y: 347.64111328125
z: -0.026554863899946213
visibility: 0.9622048735618591
","x: 180.29461669921875
y: 348.3423156738281
z: -0.12033901363611221
visibility: 0.9826129078865051
","x: 244.82858276367188
y: 380.22137451171875
z: -0.1752031147480011
visibility: 0.959422767162323
","x: 191.55638122558594
y: 369.8887939453125
z: -0.23253968358039856
visibility: 0.9534691572189331
","x: 246.96160888671875
y: 395.90252685546875
z: -0.20796576142311096
visibility: 0.9260956048965454
","x: 192.991943359375
y: 387.2381591796875
z: -0.26621758937835693
visibility: 0.9194400310516357
","x: 245.15200805664062
y: 394.33941650390625
z: -0.23603785037994385
visibility: 0.9309535026550293
","x: 196.34373474121094
y: 381.02777099609375
z: -0.2863447368144989
visibility: 0.9222807884216309
","x: 243.9647216796875
y: 390.1971435546875
z: -0.1892423927783966
visibility: 0.9184843301773071
","x: 196.79916381835938
y: 374.25360107421875
z: -0.24201586842536926
visibility: 0.905826985836029
","x: 225.8210906982422
y: 401.3621826171875
z: 0.021721389144659042
visibility: 0.9994093775749207
","x: 206.3099365234375
y: 404.0167236328125
z: -0.021765340119600296
visibility: 0.9996414184570312
","x: 227.85830688476562
y: 468.7384338378906
z: 0.038173459470272064
visibility: 0.9670675992965698
","x: 209.5747833251953
y: 476.39227294921875
z: -0.00514182448387146
visibility: 0.9771274328231812
","x: 223.38702392578125
y: 532.7260131835938
z: 0.21952669322490692
visibility: 0.9461323022842407
","x: 211.7498016357422
y: 535.6014404296875
z: 0.17543478310108185
visibility: 0.97806316614151
","x: 220.51475524902344
y: 540.9708251953125
z: 0.23182761669158936
visibility: 0.9014651775360107
","x: 212.50424194335938
y: 544.75634765625
z: 0.18711985647678375
visibility: 0.8567226529121399
","x: 231.31082153320312
y: 556.2929077148438
z: 0.13371138274669647
visibility: 0.9521769881248474
","x: 212.16627502441406
y: 558.900634765625
z: 0.078480064868927
visibility: 0.96724933385849
",3.7676289081573486,,,,,,,,,,,,,,,,,,,,,,,,,,,,,,,,,,,,,,,,,,
24,"x: 217.33392333984375
y: 266.1471862792969
z: -0.23525989055633545
visibility: 0.999971330165863
","x: 218.2362060546875
y: 259.467529296875
z: -0.2213662564754486
visibility: 0.9998993873596191
","x: 219.13197326660156
y: 259.533203125
z: -0.22140049934387207
visibility: 0.9998769760131836
","x: 219.94476318359375
y: 259.59375
z: -0.22144010663032532
visibility: 0.9998707175254822
","x: 214.98220825195312
y: 259.2551574707031
z: -0.2212865799665451
visibility: 0.9999152421951294
","x: 213.6083221435547
y: 259.1242370605469
z: -0.22132423520088196
visibility: 0.9999056458473206
","x: 212.28753662109375
y: 259.12628173828125
z: -0.2213561236858368
visibility: 0.9999009966850281
","x: 219.3511962890625
y: 262.3367919921875
z: -0.11867503076791763
visibility: 0.9996682405471802
","x: 208.8500213623047
y: 261.8179016113281
z: -0.13435092568397522
visibility: 0.9998233318328857
","x: 218.41383361816406
y: 272.6565856933594
z: -0.19534537196159363
visibility: 0.9999532699584961
","x: 214.61474609375
y: 272.92108154296875
z: -0.18986110389232635
visibility: 0.999962329864502
","x: 231.02249145507812
y: 304.8833923339844
z: -0.041827492415905
visibility: 0.9998987913131714
","x: 193.89120483398438
y: 304.1778259277344
z: -0.09133891016244888
visibility: 0.9999232888221741
","x: 239.1564178466797
y: 347.64111328125
z: -0.026554863899946213
visibility: 0.9622048735618591
","x: 180.29461669921875
y: 348.3423156738281
z: -0.12033901363611221
visibility: 0.9826129078865051
","x: 244.82858276367188
y: 380.22137451171875
z: -0.1752031147480011
visibility: 0.959422767162323
","x: 191.55638122558594
y: 369.8887939453125
z: -0.23253968358039856
visibility: 0.9534691572189331
","x: 246.96160888671875
y: 395.90252685546875
z: -0.20796576142311096
visibility: 0.9260956048965454
","x: 192.991943359375
y: 387.2381591796875
z: -0.26621758937835693
visibility: 0.9194400310516357
","x: 245.15200805664062
y: 394.33941650390625
z: -0.23603785037994385
visibility: 0.9309535026550293
","x: 196.34373474121094
y: 381.02777099609375
z: -0.2863447368144989
visibility: 0.9222807884216309
","x: 243.9647216796875
y: 390.1971435546875
z: -0.1892423927783966
visibility: 0.9184843301773071
","x: 196.79916381835938
y: 374.25360107421875
z: -0.24201586842536926
visibility: 0.905826985836029
","x: 225.8210906982422
y: 401.3621826171875
z: 0.021721389144659042
visibility: 0.9994093775749207
","x: 206.3099365234375
y: 404.0167236328125
z: -0.021765340119600296
visibility: 0.9996414184570312
","x: 227.85830688476562
y: 468.7384338378906
z: 0.038173459470272064
visibility: 0.9670675992965698
","x: 209.5747833251953
y: 476.39227294921875
z: -0.00514182448387146
visibility: 0.9771274328231812
","x: 223.38702392578125
y: 532.7260131835938
z: 0.21952669322490692
visibility: 0.9461323022842407
","x: 211.7498016357422
y: 535.6014404296875
z: 0.17543478310108185
visibility: 0.97806316614151
","x: 220.51475524902344
y: 540.9708251953125
z: 0.23182761669158936
visibility: 0.9014651775360107
","x: 212.50424194335938
y: 544.75634765625
z: 0.18711985647678375
visibility: 0.8567226529121399
","x: 231.31082153320312
y: 556.2929077148438
z: 0.13371138274669647
visibility: 0.9521769881248474
","x: 212.16627502441406
y: 558.900634765625
z: 0.078480064868927
visibility: 0.96724933385849
",3.7676289081573486,,,,,,,,,,,,,,,,,,,,,,,,,,,,,,,,,,,,,,,,,,
25,"x: 218.44036865234375
y: 260.0247802734375
z: -0.24791975319385529
visibility: 0.9999299645423889
","x: 219.16152954101562
y: 252.53436279296875
z: -0.23326937854290009
visibility: 0.9997820854187012
","x: 220.01412963867188
y: 252.3607177734375
z: -0.2332926243543625
visibility: 0.999721884727478
","x: 220.80947875976562
y: 252.1963348388672
z: -0.23331165313720703
visibility: 0.9996848106384277
","x: 215.99346923828125
y: 252.11605834960938
z: -0.23765245079994202
visibility: 0.9998363852500916
","x: 214.69949340820312
y: 251.6606903076172
z: -0.23768289387226105
visibility: 0.9998286962509155
","x: 213.42874145507812
y: 251.34197998046875
z: -0.23771321773529053
visibility: 0.9998422861099243
","x: 220.42892456054688
y: 253.5903778076172
z: -0.12782716751098633
visibility: 0.9992800951004028
","x: 210.8177032470703
y: 252.9899444580078
z: -0.1554616093635559
visibility: 0.9997663497924805
","x: 219.16319274902344
y: 265.9805603027344
z: -0.20615904033184052
visibility: 0.9999102354049683
","x: 215.856201171875
y: 266.00238037109375
z: -0.21189720928668976
visibility: 0.9999474287033081
","x: 232.17208862304688
y: 289.6609191894531
z: -0.04401248320937157
visibility: 0.9998723268508911
","x: 195.77801513671875
y: 290.3348083496094
z: -0.09639767557382584
visibility: 0.999921441078186
","x: 238.8282012939453
y: 335.93267822265625
z: -0.04331052303314209
visibility: 0.947141170501709
","x: 181.76783752441406
y: 332.5420837402344
z: -0.14501556754112244
visibility: 0.9837989211082458
","x: 242.1993865966797
y: 343.24688720703125
z: -0.21608014404773712
visibility: 0.9462634325027466
","x: 195.75625610351562
y: 345.70794677734375
z: -0.30632641911506653
visibility: 0.9568930268287659
","x: 244.04351806640625
y: 350.5084228515625
z: -0.25427520275115967
visibility: 0.9136311411857605
","x: 200.90501403808594
y: 353.174560546875
z: -0.3468725383281708
visibility: 0.9250611662864685
